;  Created by Sandify
;  https://sandify.org
;  Version: 0.2.6
;
;  Machine type: Rectangular
;    Min X (mm): 0
;    Max X (mm): 500
;    Min Y (mm): 0
;    Max Y (mm): 500
;  Content type: shape
;  Layer:
;    Shape: Circle
;    Name: circle
;    Number of lobes: 1
;    Direction: clockwise
;    Visible: true
;    Initial width: 4
;    Initial height: 4
;    X offset: 0
;    Y offset: 0
;    Rotate (degrees): 180
;    Reverse path: false
;    Number of loops: 60
;    When transforming shape: smear
;    Scale: true
;      Scale (+/-): 100
;      Scale by: constant
;    Spin: false
;    Track: false
;    Fine tuning:
;      Connect to next layer: line
;      Draw portion of path (%): 100
;      Backtrack at end (%): 0
;      Rotate starting point (%): 0
;  Reverse export path: false
;
; File name: 'eraser60 Reverse (W C)'
; File type: gcode
;

G01 X246.000 Y250.000
G01 X245.974 Y249.802
G01 X245.957 Y249.602
G01 X245.951 Y249.399
G01 X245.954 Y249.195
G01 X245.968 Y248.990
G01 X245.993 Y248.784
G01 X246.028 Y248.579
G01 X246.074 Y248.374
G01 X246.130 Y248.170
G01 X246.197 Y247.967
G01 X246.274 Y247.767
G01 X246.362 Y247.569
G01 X246.461 Y247.375
G01 X246.570 Y247.185
G01 X246.689 Y246.999
G01 X246.818 Y246.818
G01 X246.957 Y246.643
G01 X247.106 Y246.473
G01 X247.264 Y246.310
G01 X247.430 Y246.154
G01 X247.606 Y246.006
G01 X247.790 Y245.866
G01 X247.982 Y245.734
G01 X248.182 Y245.612
G01 X248.389 Y245.498
G01 X248.603 Y245.395
G01 X248.823 Y245.301
G01 X249.049 Y245.219
G01 X249.280 Y245.147
G01 X249.516 Y245.086
G01 X249.756 Y245.037
G01 X250.000 Y245.000
G01 X250.247 Y244.975
G01 X250.496 Y244.962
G01 X250.747 Y244.961
G01 X251.000 Y244.973
G01 X251.253 Y244.998
G01 X251.506 Y245.036
G01 X251.758 Y245.086
G01 X252.009 Y245.150
G01 X252.258 Y245.226
G01 X252.504 Y245.315
G01 X252.747 Y245.417
G01 X252.986 Y245.531
G01 X253.220 Y245.658
G01 X253.450 Y245.797
G01 X253.673 Y245.948
G01 X253.889 Y246.111
G01 X254.098 Y246.285
G01 X254.300 Y246.471
G01 X254.493 Y246.668
G01 X254.677 Y246.875
G01 X254.852 Y247.092
G01 X255.016 Y247.319
G01 X255.170 Y247.555
G01 X255.312 Y247.800
G01 X255.443 Y248.052
G01 X255.562 Y248.313
G01 X255.669 Y248.580
G01 X255.762 Y248.854
G01 X255.842 Y249.133
G01 X255.909 Y249.418
G01 X255.962 Y249.707
G01 X256.000 Y250.000
G01 X256.024 Y250.296
G01 X256.033 Y250.594
G01 X256.028 Y250.894
G01 X256.007 Y251.195
G01 X255.972 Y251.496
G01 X255.921 Y251.796
G01 X255.855 Y252.095
G01 X255.774 Y252.392
G01 X255.678 Y252.686
G01 X255.567 Y252.976
G01 X255.441 Y253.261
G01 X255.301 Y253.542
G01 X255.146 Y253.816
G01 X254.976 Y254.084
G01 X254.793 Y254.344
G01 X254.596 Y254.596
G01 X254.386 Y254.839
G01 X254.163 Y255.073
G01 X253.928 Y255.296
G01 X253.681 Y255.508
G01 X253.422 Y255.709
G01 X253.152 Y255.898
G01 X252.873 Y256.074
G01 X252.583 Y256.236
G01 X252.285 Y256.385
G01 X251.978 Y256.519
G01 X251.663 Y256.639
G01 X251.341 Y256.743
G01 X251.013 Y256.832
G01 X250.680 Y256.904
G01 X250.342 Y256.960
G01 X250.000 Y257.000
G01 X249.655 Y257.023
G01 X249.308 Y257.028
G01 X248.959 Y257.017
G01 X248.610 Y256.988
G01 X248.261 Y256.942
G01 X247.914 Y256.878
G01 X247.568 Y256.797
G01 X247.226 Y256.698
G01 X246.887 Y256.582
G01 X246.553 Y256.449
G01 X246.225 Y256.299
G01 X245.903 Y256.132
G01 X245.588 Y255.949
G01 X245.282 Y255.749
G01 X244.984 Y255.534
G01 X244.697 Y255.303
G01 X244.420 Y255.058
G01 X244.154 Y254.798
G01 X243.901 Y254.524
G01 X243.660 Y254.236
G01 X243.433 Y253.936
G01 X243.220 Y253.624
G01 X243.022 Y253.300
G01 X242.840 Y252.966
G01 X242.674 Y252.621
G01 X242.524 Y252.268
G01 X242.391 Y251.906
G01 X242.276 Y251.536
G01 X242.179 Y251.160
G01 X242.101 Y250.778
G01 X242.041 Y250.391
G01 X242.000 Y250.000
G01 X241.978 Y249.606
G01 X241.976 Y249.210
G01 X241.994 Y248.812
G01 X242.031 Y248.415
G01 X242.088 Y248.018
G01 X242.165 Y247.623
G01 X242.262 Y247.231
G01 X242.378 Y246.843
G01 X242.514 Y246.459
G01 X242.669 Y246.082
G01 X242.843 Y245.710
G01 X243.036 Y245.347
G01 X243.248 Y244.992
G01 X243.478 Y244.647
G01 X243.725 Y244.313
G01 X243.990 Y243.990
G01 X244.271 Y243.679
G01 X244.568 Y243.381
G01 X244.881 Y243.097
G01 X245.208 Y242.829
G01 X245.550 Y242.575
G01 X245.905 Y242.338
G01 X246.272 Y242.118
G01 X246.652 Y241.916
G01 X247.042 Y241.732
G01 X247.442 Y241.567
G01 X247.851 Y241.421
G01 X248.269 Y241.296
G01 X248.693 Y241.190
G01 X249.124 Y241.106
G01 X249.560 Y241.042
G01 X250.000 Y241.000
G01 X250.443 Y240.980
G01 X250.888 Y240.981
G01 X251.334 Y241.005
G01 X251.780 Y241.050
G01 X252.225 Y241.118
G01 X252.667 Y241.208
G01 X253.106 Y241.320
G01 X253.540 Y241.454
G01 X253.968 Y241.610
G01 X254.390 Y241.787
G01 X254.804 Y241.986
G01 X255.208 Y242.205
G01 X255.603 Y242.445
G01 X255.987 Y242.705
G01 X256.359 Y242.984
G01 X256.718 Y243.282
G01 X257.062 Y243.599
G01 X257.392 Y243.934
G01 X257.706 Y244.285
G01 X258.003 Y244.653
G01 X258.282 Y245.036
G01 X258.544 Y245.433
G01 X258.786 Y245.845
G01 X259.008 Y246.269
G01 X259.209 Y246.705
G01 X259.390 Y247.152
G01 X259.549 Y247.608
G01 X259.685 Y248.073
G01 X259.799 Y248.546
G01 X259.890 Y249.026
G01 X259.957 Y249.511
G01 X260.000 Y250.000
G01 X260.019 Y250.492
G01 X260.014 Y250.986
G01 X259.985 Y251.481
G01 X259.930 Y251.975
G01 X259.852 Y252.468
G01 X259.749 Y252.957
G01 X259.621 Y253.443
G01 X259.470 Y253.923
G01 X259.294 Y254.396
G01 X259.095 Y254.861
G01 X258.872 Y255.318
G01 X258.626 Y255.764
G01 X258.358 Y256.199
G01 X258.068 Y256.621
G01 X257.757 Y257.030
G01 X257.425 Y257.425
G01 X257.072 Y257.803
G01 X256.701 Y258.165
G01 X256.311 Y258.509
G01 X255.903 Y258.834
G01 X255.478 Y259.140
G01 X255.038 Y259.426
G01 X254.583 Y259.690
G01 X254.114 Y259.932
G01 X253.632 Y260.151
G01 X253.139 Y260.347
G01 X252.635 Y260.519
G01 X252.122 Y260.666
G01 X251.600 Y260.788
G01 X251.072 Y260.885
G01 X250.538 Y260.956
G01 X250.000 Y261.000
G01 X249.459 Y261.018
G01 X248.916 Y261.009
G01 X248.372 Y260.974
G01 X247.830 Y260.911
G01 X247.289 Y260.822
G01 X246.752 Y260.706
G01 X246.221 Y260.563
G01 X245.695 Y260.394
G01 X245.177 Y260.198
G01 X244.667 Y259.977
G01 X244.168 Y259.730
G01 X243.680 Y259.458
G01 X243.205 Y259.162
G01 X242.744 Y258.841
G01 X242.298 Y258.498
G01 X241.868 Y258.132
G01 X241.456 Y257.744
G01 X241.062 Y257.335
G01 X240.688 Y256.906
G01 X240.334 Y256.459
G01 X240.002 Y255.993
G01 X239.693 Y255.509
G01 X239.406 Y255.010
G01 X239.144 Y254.497
G01 X238.907 Y253.969
G01 X238.696 Y253.429
G01 X238.511 Y252.878
G01 X238.353 Y252.317
G01 X238.223 Y251.747
G01 X238.120 Y251.170
G01 X238.046 Y250.587
G01 X238.000 Y250.000
G01 X237.983 Y249.410
G01 X237.996 Y248.818
G01 X238.037 Y248.225
G01 X238.108 Y247.635
G01 X238.208 Y247.046
G01 X238.337 Y246.462
G01 X238.496 Y245.884
G01 X238.682 Y245.312
G01 X238.898 Y244.749
G01 X239.141 Y244.196
G01 X239.412 Y243.654
G01 X239.711 Y243.125
G01 X240.035 Y242.610
G01 X240.386 Y242.110
G01 X240.761 Y241.626
G01 X241.161 Y241.161
G01 X241.585 Y240.715
G01 X242.030 Y240.289
G01 X242.498 Y239.885
G01 X242.986 Y239.503
G01 X243.493 Y239.144
G01 X244.019 Y238.811
G01 X244.562 Y238.502
G01 X245.121 Y238.221
G01 X245.694 Y237.966
G01 X246.281 Y237.739
G01 X246.879 Y237.541
G01 X247.488 Y237.372
G01 X248.106 Y237.233
G01 X248.732 Y237.125
G01 X249.364 Y237.047
G01 X250.000 Y237.000
G01 X250.639 Y236.984
G01 X251.280 Y237.000
G01 X251.921 Y237.048
G01 X252.561 Y237.127
G01 X253.197 Y237.238
G01 X253.828 Y237.380
G01 X254.453 Y237.554
G01 X255.071 Y237.759
G01 X255.678 Y237.994
G01 X256.275 Y238.259
G01 X256.860 Y238.555
G01 X257.431 Y238.879
G01 X257.986 Y239.232
G01 X258.525 Y239.613
G01 X259.045 Y240.020
G01 X259.546 Y240.454
G01 X260.026 Y240.913
G01 X260.484 Y241.396
G01 X260.919 Y241.902
G01 X261.329 Y242.430
G01 X261.713 Y242.979
G01 X262.071 Y243.548
G01 X262.402 Y244.134
G01 X262.703 Y244.738
G01 X262.976 Y245.357
G01 X263.218 Y245.990
G01 X263.429 Y246.636
G01 X263.608 Y247.293
G01 X263.756 Y247.960
G01 X263.870 Y248.634
G01 X263.952 Y249.315
G01 X264.000 Y250.000
G01 X264.014 Y250.688
G01 X263.995 Y251.378
G01 X263.941 Y252.068
G01 X263.854 Y252.756
G01 X263.732 Y253.440
G01 X263.577 Y254.118
G01 X263.388 Y254.790
G01 X263.165 Y255.453
G01 X262.910 Y256.106
G01 X262.622 Y256.747
G01 X262.303 Y257.374
G01 X261.952 Y257.986
G01 X261.571 Y258.582
G01 X261.160 Y259.159
G01 X260.721 Y259.717
G01 X260.253 Y260.253
G01 X259.759 Y260.767
G01 X259.238 Y261.257
G01 X258.693 Y261.722
G01 X258.125 Y262.160
G01 X257.535 Y262.571
G01 X256.924 Y262.953
G01 X256.293 Y263.306
G01 X255.645 Y263.627
G01 X254.980 Y263.917
G01 X254.300 Y264.175
G01 X253.607 Y264.399
G01 X252.902 Y264.589
G01 X252.187 Y264.745
G01 X251.464 Y264.866
G01 X250.734 Y264.951
G01 X250.000 Y265.000
G01 X249.262 Y265.013
G01 X248.524 Y264.990
G01 X247.785 Y264.930
G01 X247.049 Y264.834
G01 X246.317 Y264.702
G01 X245.591 Y264.534
G01 X244.873 Y264.329
G01 X244.164 Y264.089
G01 X243.466 Y263.814
G01 X242.782 Y263.504
G01 X242.112 Y263.161
G01 X241.458 Y262.784
G01 X240.823 Y262.374
G01 X240.207 Y261.933
G01 X239.612 Y261.462
G01 X239.040 Y260.960
G01 X238.492 Y260.430
G01 X237.970 Y259.873
G01 X237.475 Y259.289
G01 X237.008 Y258.681
G01 X236.571 Y258.049
G01 X236.165 Y257.395
G01 X235.790 Y256.721
G01 X235.449 Y256.027
G01 X235.141 Y255.317
G01 X234.868 Y254.590
G01 X234.631 Y253.850
G01 X234.430 Y253.097
G01 X234.266 Y252.334
G01 X234.139 Y251.562
G01 X234.050 Y250.784
G01 X234.000 Y250.000
G01 X233.988 Y249.213
G01 X234.015 Y248.426
G01 X234.080 Y247.639
G01 X234.185 Y246.854
G01 X234.328 Y246.074
G01 X234.510 Y245.301
G01 X234.729 Y244.536
G01 X234.987 Y243.781
G01 X235.282 Y243.039
G01 X235.614 Y242.310
G01 X235.981 Y241.598
G01 X236.385 Y240.903
G01 X236.822 Y240.227
G01 X237.294 Y239.572
G01 X237.797 Y238.940
G01 X238.333 Y238.333
G01 X238.898 Y237.751
G01 X239.493 Y237.197
G01 X240.115 Y236.672
G01 X240.764 Y236.177
G01 X241.437 Y235.713
G01 X242.134 Y235.283
G01 X242.852 Y234.886
G01 X243.590 Y234.525
G01 X244.347 Y234.200
G01 X245.120 Y233.911
G01 X245.907 Y233.661
G01 X246.708 Y233.449
G01 X247.519 Y233.277
G01 X248.340 Y233.144
G01 X249.167 Y233.052
G01 X250.000 Y233.000
G01 X250.836 Y232.989
G01 X251.672 Y233.020
G01 X252.508 Y233.091
G01 X253.341 Y233.204
G01 X254.169 Y233.358
G01 X254.989 Y233.553
G01 X255.801 Y233.788
G01 X256.601 Y234.063
G01 X257.389 Y234.378
G01 X258.161 Y234.732
G01 X258.916 Y235.124
G01 X259.653 Y235.553
G01 X260.369 Y236.019
G01 X261.062 Y236.521
G01 X261.731 Y237.057
G01 X262.374 Y237.626
G01 X262.990 Y238.227
G01 X263.576 Y238.858
G01 X264.131 Y239.519
G01 X264.655 Y240.208
G01 X265.144 Y240.923
G01 X265.599 Y241.662
G01 X266.018 Y242.424
G01 X266.399 Y243.207
G01 X266.742 Y244.010
G01 X267.045 Y244.829
G01 X267.309 Y245.664
G01 X267.532 Y246.513
G01 X267.712 Y247.373
G01 X267.851 Y248.242
G01 X267.947 Y249.118
G01 X268.000 Y250.000
G01 X268.010 Y250.885
G01 X267.976 Y251.770
G01 X267.898 Y252.655
G01 X267.777 Y253.536
G01 X267.612 Y254.412
G01 X267.404 Y255.280
G01 X267.154 Y256.138
G01 X266.861 Y256.984
G01 X266.526 Y257.816
G01 X266.150 Y258.632
G01 X265.734 Y259.431
G01 X265.278 Y260.209
G01 X264.784 Y260.965
G01 X264.252 Y261.697
G01 X263.684 Y262.403
G01 X263.081 Y263.081
G01 X262.445 Y263.731
G01 X261.776 Y264.349
G01 X261.076 Y264.935
G01 X260.347 Y265.486
G01 X259.591 Y266.002
G01 X258.809 Y266.481
G01 X258.003 Y266.922
G01 X257.175 Y267.323
G01 X256.327 Y267.683
G01 X255.461 Y268.002
G01 X254.579 Y268.279
G01 X253.682 Y268.512
G01 X252.774 Y268.702
G01 X251.856 Y268.846
G01 X250.931 Y268.946
G01 X250.000 Y269.000
G01 X249.066 Y269.008
G01 X248.132 Y268.971
G01 X247.198 Y268.887
G01 X246.269 Y268.758
G01 X245.345 Y268.582
G01 X244.430 Y268.361
G01 X243.525 Y268.095
G01 X242.633 Y267.785
G01 X241.756 Y267.430
G01 X240.896 Y267.032
G01 X240.055 Y266.592
G01 X239.236 Y266.110
G01 X238.440 Y265.587
G01 X237.669 Y265.025
G01 X236.926 Y264.425
G01 X236.211 Y263.789
G01 X235.528 Y263.116
G01 X234.878 Y262.410
G01 X234.262 Y261.672
G01 X233.682 Y260.903
G01 X233.140 Y260.105
G01 X232.637 Y259.281
G01 X232.174 Y258.431
G01 X231.753 Y257.558
G01 X231.375 Y256.664
G01 X231.041 Y255.751
G01 X230.751 Y254.822
G01 X230.507 Y253.877
G01 X230.309 Y252.921
G01 X230.159 Y251.954
G01 X230.055 Y250.980
G01 X230.000 Y250.000
G01 X229.993 Y249.017
G01 X230.034 Y248.034
G01 X230.124 Y247.052
G01 X230.262 Y246.074
G01 X230.448 Y245.102
G01 X230.682 Y244.140
G01 X230.963 Y243.189
G01 X231.291 Y242.251
G01 X231.666 Y241.329
G01 X232.086 Y240.425
G01 X232.551 Y239.541
G01 X233.059 Y238.680
G01 X233.610 Y237.844
G01 X234.202 Y237.035
G01 X234.834 Y236.254
G01 X235.504 Y235.504
G01 X236.212 Y234.787
G01 X236.955 Y234.105
G01 X237.732 Y233.459
G01 X238.541 Y232.851
G01 X239.381 Y232.283
G01 X240.248 Y231.755
G01 X241.142 Y231.270
G01 X242.059 Y230.829
G01 X242.999 Y230.434
G01 X243.958 Y230.084
G01 X244.935 Y229.781
G01 X245.927 Y229.526
G01 X246.932 Y229.320
G01 X247.948 Y229.163
G01 X248.971 Y229.057
G01 X250.000 Y229.000
G01 X251.032 Y228.994
G01 X252.064 Y229.039
G01 X253.095 Y229.135
G01 X254.121 Y229.281
G01 X255.141 Y229.478
G01 X256.150 Y229.725
G01 X257.148 Y230.022
G01 X258.132 Y230.368
G01 X259.099 Y230.762
G01 X260.047 Y231.204
G01 X260.973 Y231.693
G01 X261.875 Y232.227
G01 X262.752 Y232.806
G01 X263.600 Y233.429
G01 X264.418 Y234.093
G01 X265.203 Y234.797
G01 X265.954 Y235.540
G01 X266.668 Y236.321
G01 X267.344 Y237.137
G01 X267.981 Y237.986
G01 X268.575 Y238.866
G01 X269.127 Y239.777
G01 X269.634 Y240.714
G01 X270.094 Y241.677
G01 X270.508 Y242.662
G01 X270.873 Y243.668
G01 X271.189 Y244.692
G01 X271.455 Y245.732
G01 X271.669 Y246.786
G01 X271.832 Y247.850
G01 X271.942 Y248.922
G01 X272.000 Y250.000
G01 X272.005 Y251.081
G01 X271.956 Y252.163
G01 X271.855 Y253.242
G01 X271.700 Y254.316
G01 X271.492 Y255.384
G01 X271.232 Y256.441
G01 X270.920 Y257.485
G01 X270.556 Y258.515
G01 X270.142 Y259.526
G01 X269.678 Y260.518
G01 X269.165 Y261.487
G01 X268.604 Y262.431
G01 X267.997 Y263.347
G01 X267.344 Y264.234
G01 X266.648 Y265.089
G01 X265.910 Y265.910
G01 X265.131 Y266.695
G01 X264.313 Y267.441
G01 X263.459 Y268.147
G01 X262.570 Y268.812
G01 X261.648 Y269.433
G01 X260.695 Y270.009
G01 X259.714 Y270.538
G01 X258.706 Y271.018
G01 X257.675 Y271.450
G01 X256.622 Y271.830
G01 X255.551 Y272.159
G01 X254.463 Y272.435
G01 X253.361 Y272.658
G01 X252.248 Y272.827
G01 X251.127 Y272.941
G01 X250.000 Y273.000
G01 X248.870 Y273.004
G01 X247.739 Y272.951
G01 X246.611 Y272.844
G01 X245.489 Y272.681
G01 X244.373 Y272.462
G01 X243.269 Y272.189
G01 X242.178 Y271.861
G01 X241.103 Y271.480
G01 X240.046 Y271.046
G01 X239.011 Y270.560
G01 X237.999 Y270.023
G01 X237.014 Y269.436
G01 X236.057 Y268.800
G01 X235.131 Y268.117
G01 X234.239 Y267.389
G01 X233.383 Y266.617
G01 X232.564 Y265.803
G01 X231.786 Y264.948
G01 X231.049 Y264.055
G01 X230.357 Y263.125
G01 X229.709 Y262.162
G01 X229.109 Y261.166
G01 X228.559 Y260.141
G01 X228.058 Y259.089
G01 X227.609 Y258.012
G01 X227.213 Y256.912
G01 X226.871 Y255.794
G01 X226.584 Y254.658
G01 X226.352 Y253.508
G01 X226.178 Y252.346
G01 X226.060 Y251.176
G01 X226.000 Y250.000
G01 X225.998 Y248.821
G01 X226.053 Y247.641
G01 X226.167 Y246.465
G01 X226.339 Y245.293
G01 X226.568 Y244.131
G01 X226.854 Y242.979
G01 X227.197 Y241.841
G01 X227.596 Y240.720
G01 X228.050 Y239.618
G01 X228.558 Y238.539
G01 X229.120 Y237.485
G01 X229.733 Y236.458
G01 X230.397 Y235.461
G01 X231.110 Y234.497
G01 X231.870 Y233.568
G01 X232.676 Y232.676
G01 X233.526 Y231.824
G01 X234.418 Y231.013
G01 X235.350 Y230.246
G01 X236.319 Y229.525
G01 X237.324 Y228.852
G01 X238.362 Y228.228
G01 X239.431 Y227.655
G01 X240.529 Y227.134
G01 X241.651 Y226.667
G01 X242.797 Y226.256
G01 X243.963 Y225.901
G01 X245.147 Y225.603
G01 X246.345 Y225.363
G01 X247.556 Y225.183
G01 X248.775 Y225.061
G01 X250.000 Y225.000
G01 X251.228 Y224.999
G01 X252.457 Y225.058
G01 X253.682 Y225.178
G01 X254.902 Y225.358
G01 X256.112 Y225.598
G01 X257.312 Y225.897
G01 X258.496 Y226.255
G01 X259.663 Y226.672
G01 X260.809 Y227.146
G01 X261.932 Y227.676
G01 X263.029 Y228.262
G01 X264.098 Y228.901
G01 X265.134 Y229.594
G01 X266.137 Y230.337
G01 X267.104 Y231.129
G01 X268.031 Y231.969
G01 X268.917 Y232.854
G01 X269.760 Y233.783
G01 X270.557 Y234.754
G01 X271.306 Y235.764
G01 X272.006 Y236.810
G01 X272.654 Y237.891
G01 X273.249 Y239.004
G01 X273.790 Y240.146
G01 X274.274 Y241.315
G01 X274.701 Y242.507
G01 X275.069 Y243.720
G01 X275.378 Y244.952
G01 X275.626 Y246.199
G01 X275.813 Y247.458
G01 X275.937 Y248.726
G01 X276.000 Y250.000
G01 X276.000 Y251.277
G01 X275.937 Y252.555
G01 X275.811 Y253.829
G01 X275.623 Y255.097
G01 X275.372 Y256.355
G01 X275.060 Y257.602
G01 X274.686 Y258.833
G01 X274.252 Y260.045
G01 X273.758 Y261.237
G01 X273.206 Y262.404
G01 X272.596 Y263.543
G01 X271.930 Y264.653
G01 X271.210 Y265.730
G01 X270.436 Y266.772
G01 X269.612 Y267.775
G01 X268.738 Y268.738
G01 X267.817 Y269.658
G01 X266.851 Y270.533
G01 X265.842 Y271.360
G01 X264.792 Y272.138
G01 X263.704 Y272.864
G01 X262.580 Y273.536
G01 X261.424 Y274.153
G01 X260.237 Y274.714
G01 X259.022 Y275.216
G01 X257.783 Y275.658
G01 X256.522 Y276.039
G01 X255.243 Y276.359
G01 X253.948 Y276.615
G01 X252.640 Y276.808
G01 X251.323 Y276.936
G01 X250.000 Y277.000
G01 X248.674 Y276.999
G01 X247.347 Y276.932
G01 X246.025 Y276.801
G01 X244.708 Y276.604
G01 X243.402 Y276.342
G01 X242.108 Y276.017
G01 X240.830 Y275.628
G01 X239.572 Y275.176
G01 X238.336 Y274.662
G01 X237.125 Y274.087
G01 X235.943 Y273.454
G01 X234.791 Y272.761
G01 X233.674 Y272.013
G01 X232.594 Y271.209
G01 X231.553 Y270.353
G01 X230.555 Y269.445
G01 X229.601 Y268.489
G01 X228.694 Y267.485
G01 X227.836 Y266.438
G01 X227.031 Y265.348
G01 X226.278 Y264.218
G01 X225.582 Y263.052
G01 X224.943 Y261.851
G01 X224.362 Y260.619
G01 X223.843 Y259.359
G01 X223.385 Y258.074
G01 X222.991 Y256.765
G01 X222.661 Y255.438
G01 X222.396 Y254.095
G01 X222.197 Y252.738
G01 X222.065 Y251.372
G01 X222.000 Y250.000
G01 X222.003 Y248.625
G01 X222.073 Y247.249
G01 X222.210 Y245.878
G01 X222.415 Y244.513
G01 X222.688 Y243.159
G01 X223.026 Y241.818
G01 X223.431 Y240.493
G01 X223.900 Y239.189
G01 X224.434 Y237.908
G01 X225.031 Y236.654
G01 X225.689 Y235.428
G01 X226.407 Y234.236
G01 X227.184 Y233.078
G01 X228.018 Y231.959
G01 X228.906 Y230.882
G01 X229.847 Y229.847
G01 X230.840 Y228.860
G01 X231.880 Y227.921
G01 X232.967 Y227.033
G01 X234.097 Y226.199
G01 X235.268 Y225.421
G01 X236.477 Y224.700
G01 X237.721 Y224.039
G01 X238.998 Y223.438
G01 X240.304 Y222.901
G01 X241.636 Y222.428
G01 X242.992 Y222.021
G01 X244.367 Y221.680
G01 X245.759 Y221.407
G01 X247.164 Y221.202
G01 X248.579 Y221.066
G01 X250.000 Y221.000
G01 X251.424 Y221.004
G01 X252.849 Y221.077
G01 X254.269 Y221.221
G01 X255.682 Y221.435
G01 X257.084 Y221.718
G01 X258.473 Y222.069
G01 X259.844 Y222.489
G01 X261.193 Y222.977
G01 X262.519 Y223.530
G01 X263.818 Y224.149
G01 X265.086 Y224.831
G01 X266.320 Y225.576
G01 X267.517 Y226.381
G01 X268.675 Y227.245
G01 X269.790 Y228.165
G01 X270.860 Y229.140
G01 X271.881 Y230.168
G01 X272.852 Y231.246
G01 X273.770 Y232.371
G01 X274.632 Y233.541
G01 X275.437 Y234.754
G01 X276.182 Y236.005
G01 X276.865 Y237.294
G01 X277.485 Y238.615
G01 X278.040 Y239.967
G01 X278.529 Y241.346
G01 X278.949 Y242.749
G01 X279.301 Y244.172
G01 X279.583 Y245.612
G01 X279.793 Y247.066
G01 X279.933 Y248.530
G01 X280.000 Y250.000
G01 X279.995 Y251.474
G01 X279.918 Y252.947
G01 X279.768 Y254.416
G01 X279.546 Y255.877
G01 X279.253 Y257.327
G01 X278.888 Y258.763
G01 X278.452 Y260.180
G01 X277.947 Y261.576
G01 X277.374 Y262.947
G01 X276.733 Y264.289
G01 X276.027 Y265.600
G01 X275.256 Y266.875
G01 X274.423 Y268.113
G01 X273.529 Y269.309
G01 X272.576 Y270.462
G01 X271.567 Y271.567
G01 X270.504 Y272.622
G01 X269.389 Y273.625
G01 X268.225 Y274.573
G01 X267.014 Y275.464
G01 X265.760 Y276.295
G01 X264.466 Y277.064
G01 X263.134 Y277.769
G01 X261.768 Y278.409
G01 X260.370 Y278.982
G01 X258.944 Y279.486
G01 X257.494 Y279.919
G01 X256.023 Y280.282
G01 X254.535 Y280.572
G01 X253.032 Y280.789
G01 X251.520 Y280.931
G01 X250.000 Y281.000
G01 X248.477 Y280.994
G01 X246.955 Y280.913
G01 X245.438 Y280.757
G01 X243.928 Y280.527
G01 X242.430 Y280.223
G01 X240.947 Y279.845
G01 X239.483 Y279.394
G01 X238.041 Y278.871
G01 X236.626 Y278.278
G01 X235.239 Y277.615
G01 X233.886 Y276.884
G01 X232.569 Y276.087
G01 X231.291 Y275.226
G01 X230.056 Y274.302
G01 X228.867 Y273.317
G01 X227.726 Y272.274
G01 X226.637 Y271.175
G01 X225.602 Y270.023
G01 X224.624 Y268.820
G01 X223.705 Y267.570
G01 X222.848 Y266.275
G01 X222.054 Y264.937
G01 X221.327 Y263.562
G01 X220.667 Y262.150
G01 X220.077 Y260.707
G01 X219.557 Y259.235
G01 X219.111 Y257.737
G01 X218.737 Y256.219
G01 X218.439 Y254.682
G01 X218.216 Y253.130
G01 X218.070 Y251.569
G01 X218.000 Y250.000
G01 X218.007 Y248.428
G01 X218.092 Y246.857
G01 X218.254 Y245.291
G01 X218.492 Y243.733
G01 X218.807 Y242.187
G01 X219.198 Y240.656
G01 X219.665 Y239.146
G01 X220.205 Y237.658
G01 X220.818 Y236.198
G01 X221.503 Y234.768
G01 X222.258 Y233.372
G01 X223.081 Y232.013
G01 X223.971 Y230.696
G01 X224.925 Y229.422
G01 X225.942 Y228.195
G01 X227.019 Y227.019
G01 X228.153 Y225.896
G01 X229.343 Y224.829
G01 X230.584 Y223.820
G01 X231.875 Y222.873
G01 X233.211 Y221.990
G01 X234.591 Y221.172
G01 X236.011 Y220.423
G01 X237.467 Y219.743
G01 X238.956 Y219.135
G01 X240.475 Y218.600
G01 X242.020 Y218.141
G01 X243.586 Y217.757
G01 X245.172 Y217.450
G01 X246.772 Y217.221
G01 X248.382 Y217.071
G01 X250.000 Y217.000
G01 X251.621 Y217.009
G01 X253.241 Y217.097
G01 X254.856 Y217.264
G01 X256.462 Y217.511
G01 X258.056 Y217.837
G01 X259.634 Y218.242
G01 X261.191 Y218.723
G01 X262.724 Y219.281
G01 X264.230 Y219.914
G01 X265.703 Y220.621
G01 X267.142 Y221.400
G01 X268.542 Y222.250
G01 X269.900 Y223.168
G01 X271.213 Y224.152
G01 X272.476 Y225.201
G01 X273.688 Y226.312
G01 X274.845 Y227.482
G01 X275.944 Y228.708
G01 X276.983 Y229.988
G01 X277.958 Y231.319
G01 X278.868 Y232.697
G01 X279.710 Y234.120
G01 X280.481 Y235.583
G01 X281.181 Y237.084
G01 X281.807 Y238.619
G01 X282.357 Y240.185
G01 X282.829 Y241.777
G01 X283.224 Y243.391
G01 X283.539 Y245.025
G01 X283.774 Y246.674
G01 X283.928 Y248.333
G01 X284.000 Y250.000
G01 X283.990 Y251.670
G01 X283.898 Y253.339
G01 X283.725 Y255.003
G01 X283.469 Y256.657
G01 X283.133 Y258.299
G01 X282.715 Y259.924
G01 X282.218 Y261.528
G01 X281.643 Y263.107
G01 X280.990 Y264.657
G01 X280.261 Y266.175
G01 X279.458 Y267.656
G01 X278.582 Y269.098
G01 X277.635 Y270.496
G01 X276.621 Y271.847
G01 X275.540 Y273.148
G01 X274.395 Y274.395
G01 X273.190 Y275.586
G01 X271.926 Y276.717
G01 X270.607 Y277.786
G01 X269.237 Y278.790
G01 X267.817 Y279.726
G01 X266.352 Y280.592
G01 X264.844 Y281.385
G01 X263.298 Y282.105
G01 X261.717 Y282.748
G01 X260.106 Y283.313
G01 X258.466 Y283.800
G01 X256.804 Y284.205
G01 X255.122 Y284.528
G01 X253.424 Y284.769
G01 X251.716 Y284.927
G01 X250.000 Y285.000
G01 X248.281 Y284.989
G01 X246.563 Y284.894
G01 X244.851 Y284.714
G01 X243.147 Y284.450
G01 X241.458 Y284.103
G01 X239.786 Y283.672
G01 X238.135 Y283.160
G01 X236.510 Y282.567
G01 X234.915 Y281.894
G01 X233.354 Y281.143
G01 X231.830 Y280.315
G01 X230.347 Y279.413
G01 X228.909 Y278.439
G01 X227.519 Y277.394
G01 X226.181 Y276.281
G01 X224.898 Y275.102
G01 X223.673 Y273.861
G01 X222.510 Y272.561
G01 X221.411 Y271.203
G01 X220.379 Y269.792
G01 X219.417 Y268.331
G01 X218.526 Y266.823
G01 X217.711 Y265.272
G01 X216.971 Y263.681
G01 X216.310 Y262.054
G01 X215.730 Y260.396
G01 X215.230 Y258.709
G01 X214.814 Y256.999
G01 X214.482 Y255.269
G01 X214.236 Y253.522
G01 X214.075 Y251.765
G01 X214.000 Y250.000
G01 X214.012 Y248.232
G01 X214.111 Y246.465
G01 X214.297 Y244.704
G01 X214.569 Y242.952
G01 X214.927 Y241.215
G01 X215.371 Y239.495
G01 X215.898 Y237.798
G01 X216.509 Y236.128
G01 X217.202 Y234.488
G01 X217.975 Y232.882
G01 X218.827 Y231.316
G01 X219.755 Y229.791
G01 X220.758 Y228.313
G01 X221.833 Y226.884
G01 X222.978 Y225.509
G01 X224.191 Y224.191
G01 X225.467 Y222.932
G01 X226.805 Y221.737
G01 X228.201 Y220.608
G01 X229.652 Y219.547
G01 X231.155 Y218.559
G01 X232.706 Y217.645
G01 X234.301 Y216.807
G01 X235.936 Y216.047
G01 X237.609 Y215.369
G01 X239.314 Y214.773
G01 X241.048 Y214.260
G01 X242.806 Y213.834
G01 X244.585 Y213.493
G01 X246.379 Y213.240
G01 X248.186 Y213.076
G01 X250.000 Y213.000
G01 X251.817 Y213.013
G01 X253.633 Y213.116
G01 X255.443 Y213.308
G01 X257.243 Y213.588
G01 X259.028 Y213.957
G01 X260.795 Y214.414
G01 X262.539 Y214.957
G01 X264.255 Y215.585
G01 X265.940 Y216.298
G01 X267.589 Y217.093
G01 X269.199 Y217.969
G01 X270.764 Y218.924
G01 X272.283 Y219.955
G01 X273.750 Y221.060
G01 X275.162 Y222.237
G01 X276.517 Y223.483
G01 X277.809 Y224.796
G01 X279.036 Y226.171
G01 X280.196 Y227.605
G01 X281.284 Y229.097
G01 X282.299 Y230.641
G01 X283.237 Y232.234
G01 X284.097 Y233.873
G01 X284.876 Y235.554
G01 X285.573 Y237.272
G01 X286.184 Y239.024
G01 X286.710 Y240.805
G01 X287.147 Y242.611
G01 X287.496 Y244.438
G01 X287.755 Y246.281
G01 X287.923 Y248.137
G01 X288.000 Y250.000
G01 X287.985 Y251.866
G01 X287.879 Y253.731
G01 X287.681 Y255.590
G01 X287.392 Y257.438
G01 X287.013 Y259.271
G01 X286.543 Y261.085
G01 X285.985 Y262.876
G01 X285.338 Y264.638
G01 X284.606 Y266.367
G01 X283.789 Y268.060
G01 X282.889 Y269.713
G01 X281.908 Y271.320
G01 X280.848 Y272.879
G01 X279.713 Y274.384
G01 X278.503 Y275.834
G01 X277.224 Y277.224
G01 X275.876 Y278.550
G01 X274.464 Y279.809
G01 X272.990 Y280.999
G01 X271.459 Y282.116
G01 X269.873 Y283.157
G01 X268.237 Y284.119
G01 X266.554 Y285.001
G01 X264.829 Y285.800
G01 X263.065 Y286.514
G01 X261.267 Y287.141
G01 X259.438 Y287.680
G01 X257.584 Y288.128
G01 X255.709 Y288.485
G01 X253.817 Y288.750
G01 X251.912 Y288.922
G01 X250.000 Y289.000
G01 X248.085 Y288.984
G01 X246.171 Y288.874
G01 X244.264 Y288.671
G01 X242.367 Y288.373
G01 X240.486 Y287.983
G01 X238.624 Y287.500
G01 X236.788 Y286.926
G01 X234.980 Y286.262
G01 X233.205 Y285.510
G01 X231.468 Y284.671
G01 X229.773 Y283.746
G01 X228.124 Y282.739
G01 X226.526 Y281.651
G01 X224.981 Y280.486
G01 X223.494 Y279.244
G01 X222.069 Y277.931
G01 X220.709 Y276.548
G01 X219.418 Y275.098
G01 X218.198 Y273.586
G01 X217.053 Y272.014
G01 X215.986 Y270.387
G01 X214.999 Y268.709
G01 X214.095 Y266.982
G01 X213.276 Y265.212
G01 X212.544 Y263.402
G01 X211.902 Y261.557
G01 X211.350 Y259.681
G01 X210.891 Y257.779
G01 X210.526 Y255.855
G01 X210.255 Y253.915
G01 X210.079 Y251.961
G01 X210.000 Y250.000
G01 X210.017 Y248.036
G01 X210.130 Y246.073
G01 X210.340 Y244.117
G01 X210.646 Y242.172
G01 X211.047 Y240.243
G01 X211.543 Y238.334
G01 X212.132 Y236.451
G01 X212.814 Y234.597
G01 X213.586 Y232.778
G01 X214.448 Y230.997
G01 X215.396 Y229.259
G01 X216.429 Y227.569
G01 X217.545 Y225.930
G01 X218.741 Y224.347
G01 X220.015 Y222.823
G01 X221.362 Y221.362
G01 X222.781 Y219.968
G01 X224.267 Y218.645
G01 X225.818 Y217.395
G01 X227.430 Y216.222
G01 X229.099 Y215.128
G01 X230.820 Y214.117
G01 X232.590 Y213.191
G01 X234.406 Y212.352
G01 X236.261 Y211.603
G01 X238.153 Y210.945
G01 X240.076 Y210.380
G01 X242.026 Y209.910
G01 X243.998 Y209.536
G01 X245.987 Y209.260
G01 X247.990 Y209.081
G01 X250.000 Y209.000
G01 X252.013 Y209.018
G01 X254.025 Y209.135
G01 X256.030 Y209.351
G01 X258.023 Y209.665
G01 X260.000 Y210.077
G01 X261.956 Y210.586
G01 X263.886 Y211.191
G01 X265.786 Y211.890
G01 X267.650 Y212.682
G01 X269.475 Y213.566
G01 X271.255 Y214.538
G01 X272.987 Y215.598
G01 X274.666 Y216.742
G01 X276.288 Y217.968
G01 X277.849 Y219.274
G01 X279.345 Y220.655
G01 X280.773 Y222.109
G01 X282.128 Y223.633
G01 X283.408 Y225.223
G01 X284.610 Y226.874
G01 X285.730 Y228.584
G01 X286.765 Y230.349
G01 X287.713 Y232.163
G01 X288.572 Y234.023
G01 X289.339 Y235.924
G01 X290.012 Y237.862
G01 X290.590 Y239.833
G01 X291.070 Y241.831
G01 X291.453 Y243.851
G01 X291.736 Y245.889
G01 X291.918 Y247.941
G01 X292.000 Y250.000
G01 X291.981 Y252.062
G01 X291.860 Y254.123
G01 X291.638 Y256.176
G01 X291.316 Y258.218
G01 X290.893 Y260.243
G01 X290.371 Y262.246
G01 X289.751 Y264.223
G01 X289.034 Y266.168
G01 X288.222 Y268.078
G01 X287.316 Y269.946
G01 X286.319 Y271.769
G01 X285.234 Y273.542
G01 X284.061 Y275.261
G01 X282.805 Y276.922
G01 X281.467 Y278.520
G01 X280.052 Y280.052
G01 X278.562 Y281.514
G01 X277.001 Y282.901
G01 X275.373 Y284.212
G01 X273.681 Y285.441
G01 X271.930 Y286.587
G01 X270.123 Y287.647
G01 X268.265 Y288.617
G01 X266.360 Y289.496
G01 X264.413 Y290.280
G01 X262.428 Y290.969
G01 X260.410 Y291.560
G01 X258.364 Y292.051
G01 X256.296 Y292.442
G01 X254.209 Y292.731
G01 X252.108 Y292.917
G01 X250.000 Y293.000
G01 X247.889 Y292.979
G01 X245.779 Y292.855
G01 X243.677 Y292.627
G01 X241.587 Y292.296
G01 X239.514 Y291.863
G01 X237.463 Y291.328
G01 X235.440 Y290.692
G01 X233.449 Y289.958
G01 X231.495 Y289.126
G01 X229.583 Y288.198
G01 X227.717 Y287.177
G01 X225.902 Y286.065
G01 X224.143 Y284.864
G01 X222.444 Y283.578
G01 X220.808 Y282.208
G01 X219.241 Y280.759
G01 X217.745 Y279.234
G01 X216.326 Y277.636
G01 X214.985 Y275.969
G01 X213.727 Y274.237
G01 X212.555 Y272.444
G01 X211.471 Y270.594
G01 X210.479 Y268.692
G01 X209.580 Y266.742
G01 X208.778 Y264.749
G01 X208.074 Y262.718
G01 X207.470 Y260.653
G01 X206.968 Y258.560
G01 X206.569 Y256.442
G01 X206.274 Y254.307
G01 X206.084 Y252.157
G01 X206.000 Y250.000
G01 X206.022 Y247.839
G01 X206.150 Y245.681
G01 X206.383 Y243.530
G01 X206.723 Y241.392
G01 X207.167 Y239.271
G01 X207.715 Y237.173
G01 X208.366 Y235.103
G01 X209.118 Y233.066
G01 X209.970 Y231.067
G01 X210.920 Y229.111
G01 X211.965 Y227.203
G01 X213.104 Y225.347
G01 X214.333 Y223.547
G01 X215.649 Y221.809
G01 X217.051 Y220.137
G01 X218.534 Y218.534
G01 X220.095 Y217.005
G01 X221.730 Y215.553
G01 X223.436 Y214.182
G01 X225.208 Y212.896
G01 X227.042 Y211.697
G01 X228.934 Y210.589
G01 X230.880 Y209.575
G01 X232.875 Y208.656
G01 X234.914 Y207.836
G01 X236.992 Y207.117
G01 X239.104 Y206.500
G01 X241.245 Y205.987
G01 X243.411 Y205.580
G01 X245.595 Y205.279
G01 X247.793 Y205.085
G01 X250.000 Y205.000
G01 X252.210 Y205.023
G01 X254.417 Y205.154
G01 X256.617 Y205.394
G01 X258.803 Y205.742
G01 X260.972 Y206.197
G01 X263.117 Y206.758
G01 X265.234 Y207.425
G01 X267.316 Y208.194
G01 X269.360 Y209.066
G01 X271.360 Y210.038
G01 X273.311 Y211.107
G01 X275.209 Y212.272
G01 X277.048 Y213.529
G01 X278.825 Y214.876
G01 X280.535 Y216.310
G01 X282.173 Y217.827
G01 X283.736 Y219.423
G01 X285.220 Y221.095
G01 X286.621 Y222.840
G01 X287.936 Y224.652
G01 X289.161 Y226.528
G01 X290.293 Y228.463
G01 X291.329 Y230.453
G01 X292.267 Y232.492
G01 X293.105 Y234.577
G01 X293.840 Y236.701
G01 X294.470 Y238.861
G01 X294.994 Y241.050
G01 X295.409 Y243.264
G01 X295.716 Y245.497
G01 X295.913 Y247.744
G01 X296.000 Y250.000
G01 X295.976 Y252.259
G01 X295.841 Y254.515
G01 X295.595 Y256.763
G01 X295.239 Y258.999
G01 X294.773 Y261.215
G01 X294.199 Y263.408
G01 X293.517 Y265.571
G01 X292.729 Y267.699
G01 X291.838 Y269.788
G01 X290.844 Y271.832
G01 X289.750 Y273.825
G01 X288.559 Y275.765
G01 X287.274 Y277.644
G01 X285.897 Y279.460
G01 X284.431 Y281.207
G01 X282.880 Y282.880
G01 X281.248 Y284.477
G01 X279.539 Y285.993
G01 X277.756 Y287.424
G01 X275.903 Y288.767
G01 X273.986 Y290.018
G01 X272.008 Y291.175
G01 X269.975 Y292.233
G01 X267.890 Y293.191
G01 X265.760 Y294.047
G01 X263.589 Y294.797
G01 X261.382 Y295.440
G01 X259.145 Y295.974
G01 X256.883 Y296.399
G01 X254.601 Y296.711
G01 X252.305 Y296.912
G01 X250.000 Y297.000
G01 X247.692 Y296.975
G01 X245.387 Y296.836
G01 X243.090 Y296.584
G01 X240.806 Y296.220
G01 X238.542 Y295.743
G01 X236.302 Y295.156
G01 X234.092 Y294.459
G01 X231.918 Y293.653
G01 X229.785 Y292.742
G01 X227.697 Y291.726
G01 X225.660 Y290.608
G01 X223.680 Y289.391
G01 X221.760 Y288.077
G01 X219.906 Y286.670
G01 X218.122 Y285.172
G01 X216.412 Y283.588
G01 X214.782 Y281.920
G01 X213.234 Y280.173
G01 X211.772 Y278.352
G01 X210.401 Y276.459
G01 X209.124 Y274.500
G01 X207.943 Y272.480
G01 X206.863 Y270.402
G01 X205.885 Y268.273
G01 X205.012 Y266.097
G01 X204.246 Y263.879
G01 X203.590 Y261.625
G01 X203.045 Y259.340
G01 X202.612 Y257.029
G01 X202.293 Y254.699
G01 X202.089 Y252.354
G01 X202.000 Y250.000
G01 X202.027 Y247.643
G01 X202.169 Y245.289
G01 X202.427 Y242.943
G01 X202.800 Y240.611
G01 X203.287 Y238.299
G01 X203.887 Y236.012
G01 X204.600 Y233.756
G01 X205.423 Y231.536
G01 X206.354 Y229.357
G01 X207.392 Y227.226
G01 X208.534 Y225.146
G01 X209.778 Y223.124
G01 X211.120 Y221.164
G01 X212.557 Y219.272
G01 X214.087 Y217.450
G01 X215.705 Y215.705
G01 X217.408 Y214.041
G01 X219.192 Y212.461
G01 X221.053 Y210.969
G01 X222.985 Y209.570
G01 X224.986 Y208.266
G01 X227.049 Y207.061
G01 X229.170 Y205.959
G01 X231.344 Y204.961
G01 X233.566 Y204.070
G01 X235.830 Y203.289
G01 X238.132 Y202.620
G01 X240.465 Y202.064
G01 X242.824 Y201.623
G01 X245.203 Y201.298
G01 X247.597 Y201.090
G01 X250.000 Y201.000
G01 X252.406 Y201.028
G01 X254.809 Y201.174
G01 X257.204 Y201.438
G01 X259.584 Y201.819
G01 X261.944 Y202.317
G01 X264.278 Y202.930
G01 X266.581 Y203.658
G01 X268.847 Y204.499
G01 X271.070 Y205.450
G01 X273.246 Y206.510
G01 X275.368 Y207.676
G01 X277.431 Y208.946
G01 X279.431 Y210.317
G01 X281.363 Y211.784
G01 X283.221 Y213.346
G01 X285.002 Y214.998
G01 X286.700 Y216.737
G01 X288.312 Y218.558
G01 X289.834 Y220.457
G01 X291.262 Y222.430
G01 X292.592 Y224.472
G01 X293.820 Y226.577
G01 X294.945 Y228.742
G01 X295.963 Y230.961
G01 X296.871 Y233.229
G01 X297.668 Y235.540
G01 X298.350 Y237.889
G01 X298.917 Y240.270
G01 X299.366 Y242.677
G01 X299.697 Y245.105
G01 X299.909 Y247.548
G01 X300.000 Y250.000
G01 X299.971 Y252.455
G01 X299.821 Y254.907
G01 X299.552 Y257.350
G01 X299.162 Y259.779
G01 X298.653 Y262.187
G01 X298.026 Y264.569
G01 X297.283 Y266.918
G01 X296.425 Y269.230
G01 X295.454 Y271.498
G01 X294.372 Y273.717
G01 X293.181 Y275.882
G01 X291.885 Y277.987
G01 X290.487 Y280.027
G01 X288.989 Y281.997
G01 X287.395 Y283.893
G01 X285.709 Y285.709
G01 X283.935 Y287.441
G01 X282.077 Y289.085
G01 X280.139 Y290.637
G01 X278.126 Y292.093
G01 X276.043 Y293.449
G01 X273.894 Y294.702
G01 X271.685 Y295.849
G01 X269.421 Y296.887
G01 X267.108 Y297.813
G01 X264.750 Y298.625
G01 X262.354 Y299.320
G01 X259.925 Y299.897
G01 X257.469 Y300.355
G01 X254.993 Y300.692
G01 X252.501 Y300.907
G01 X250.000 Y301.000
G01 X247.496 Y300.970
G01 X244.995 Y300.817
G01 X242.503 Y300.541
G01 X240.026 Y300.143
G01 X237.570 Y299.623
G01 X235.141 Y298.983
G01 X232.745 Y298.225
G01 X230.387 Y297.349
G01 X228.074 Y296.358
G01 X225.811 Y295.254
G01 X223.604 Y294.039
G01 X221.458 Y292.717
G01 X219.377 Y291.290
G01 X217.368 Y289.762
G01 X215.436 Y288.136
G01 X213.584 Y286.416
G01 X211.818 Y284.606
G01 X210.142 Y282.711
G01 X208.560 Y280.734
G01 X207.075 Y278.681
G01 X205.693 Y276.557
G01 X204.416 Y274.365
G01 X203.247 Y272.113
G01 X202.189 Y269.804
G01 X201.246 Y267.445
G01 X200.419 Y265.040
G01 X199.710 Y262.597
G01 X199.122 Y260.120
G01 X198.656 Y257.616
G01 X198.313 Y255.091
G01 X198.094 Y252.550
G01 X198.000 Y250.000
G01 X198.031 Y247.447
G01 X198.188 Y244.897
G01 X198.470 Y242.356
G01 X198.877 Y239.831
G01 X199.407 Y237.327
G01 X200.060 Y234.851
G01 X200.834 Y232.408
G01 X201.727 Y230.005
G01 X202.738 Y227.647
G01 X203.864 Y225.340
G01 X205.103 Y223.090
G01 X206.452 Y220.902
G01 X207.907 Y218.782
G01 X209.465 Y216.734
G01 X211.123 Y214.764
G01 X212.877 Y212.877
G01 X214.722 Y211.077
G01 X216.655 Y209.369
G01 X218.670 Y207.756
G01 X220.763 Y206.244
G01 X222.929 Y204.835
G01 X225.163 Y203.534
G01 X227.460 Y202.343
G01 X229.813 Y201.265
G01 X232.219 Y200.304
G01 X234.669 Y199.462
G01 X237.160 Y198.740
G01 X239.685 Y198.141
G01 X242.237 Y197.666
G01 X244.811 Y197.317
G01 X247.401 Y197.095
G01 X250.000 Y197.000
G01 X252.602 Y197.033
G01 X255.201 Y197.193
G01 X257.790 Y197.481
G01 X260.364 Y197.896
G01 X262.916 Y198.437
G01 X265.440 Y199.103
G01 X267.929 Y199.892
G01 X270.378 Y200.803
G01 X272.781 Y201.834
G01 X275.131 Y202.983
G01 X277.424 Y204.246
G01 X279.654 Y205.620
G01 X281.814 Y207.104
G01 X283.900 Y208.692
G01 X285.907 Y210.382
G01 X287.830 Y212.170
G01 X289.664 Y214.051
G01 X291.404 Y216.020
G01 X293.047 Y218.074
G01 X294.588 Y220.208
G01 X296.023 Y222.415
G01 X297.348 Y224.692
G01 X298.561 Y227.032
G01 X299.659 Y229.431
G01 X300.637 Y231.882
G01 X301.495 Y234.379
G01 X302.230 Y236.917
G01 X302.840 Y239.490
G01 X303.323 Y242.090
G01 X303.678 Y244.713
G01 X303.904 Y247.352
G01 X304.000 Y250.000
G01 X303.966 Y252.651
G01 X303.802 Y255.299
G01 X303.508 Y257.937
G01 X303.085 Y260.559
G01 X302.533 Y263.159
G01 X301.854 Y265.730
G01 X301.049 Y268.266
G01 X300.120 Y270.761
G01 X299.070 Y273.208
G01 X297.899 Y275.603
G01 X296.612 Y277.938
G01 X295.211 Y280.209
G01 X293.700 Y282.410
G01 X292.081 Y284.535
G01 X290.359 Y286.579
G01 X288.537 Y288.537
G01 X286.621 Y290.405
G01 X284.614 Y292.177
G01 X282.521 Y293.850
G01 X280.348 Y295.419
G01 X278.099 Y296.880
G01 X275.780 Y298.230
G01 X273.395 Y299.465
G01 X270.952 Y300.582
G01 X268.455 Y301.579
G01 X265.911 Y302.452
G01 X263.326 Y303.200
G01 X260.706 Y303.821
G01 X258.056 Y304.312
G01 X255.385 Y304.673
G01 X252.697 Y304.903
G01 X250.000 Y305.000
G01 X247.300 Y304.965
G01 X244.603 Y304.797
G01 X241.916 Y304.497
G01 X239.246 Y304.066
G01 X236.598 Y303.503
G01 X233.980 Y302.811
G01 X231.397 Y301.991
G01 X228.857 Y301.044
G01 X226.364 Y299.974
G01 X223.926 Y298.781
G01 X221.548 Y297.470
G01 X219.235 Y296.043
G01 X216.995 Y294.503
G01 X214.831 Y292.854
G01 X212.749 Y291.100
G01 X210.756 Y289.244
G01 X208.854 Y287.293
G01 X207.050 Y285.248
G01 X205.347 Y283.117
G01 X203.750 Y280.904
G01 X202.262 Y278.613
G01 X200.888 Y276.251
G01 X199.631 Y273.823
G01 X198.494 Y271.335
G01 X197.479 Y268.792
G01 X196.591 Y266.202
G01 X195.830 Y263.569
G01 X195.199 Y260.901
G01 X194.699 Y258.203
G01 X194.332 Y255.483
G01 X194.099 Y252.746
G01 X194.000 Y250.000
G01 X194.036 Y247.251
G01 X194.207 Y244.505
G01 X194.513 Y241.769
G01 X194.953 Y239.051
G01 X195.527 Y236.355
G01 X196.232 Y233.690
G01 X197.068 Y231.060
G01 X198.032 Y228.474
G01 X199.122 Y225.937
G01 X200.337 Y223.454
G01 X201.672 Y221.034
G01 X203.126 Y218.680
G01 X204.694 Y216.399
G01 X206.373 Y214.196
G01 X208.159 Y212.078
G01 X210.048 Y210.048
G01 X212.036 Y208.113
G01 X214.117 Y206.277
G01 X216.287 Y204.543
G01 X218.541 Y202.918
G01 X220.873 Y201.404
G01 X223.278 Y200.006
G01 X225.750 Y198.727
G01 X228.283 Y197.570
G01 X230.871 Y196.538
G01 X233.508 Y195.634
G01 X236.188 Y194.860
G01 X238.904 Y194.218
G01 X241.650 Y193.710
G01 X244.419 Y193.337
G01 X247.205 Y193.100
G01 X250.000 Y193.000
G01 X252.798 Y193.037
G01 X255.593 Y193.212
G01 X258.377 Y193.524
G01 X261.145 Y193.973
G01 X263.888 Y194.557
G01 X266.601 Y195.275
G01 X269.276 Y196.126
G01 X271.909 Y197.108
G01 X274.491 Y198.218
G01 X277.017 Y199.455
G01 X279.481 Y200.815
G01 X281.876 Y202.294
G01 X284.197 Y203.891
G01 X286.438 Y205.600
G01 X288.594 Y207.418
G01 X290.659 Y209.341
G01 X292.628 Y211.364
G01 X294.496 Y213.483
G01 X296.260 Y215.691
G01 X297.913 Y217.985
G01 X299.453 Y220.359
G01 X300.876 Y222.806
G01 X302.177 Y225.322
G01 X303.354 Y227.900
G01 X304.404 Y230.534
G01 X305.323 Y233.218
G01 X306.110 Y235.945
G01 X306.763 Y238.709
G01 X307.280 Y241.503
G01 X307.659 Y244.321
G01 X307.899 Y247.156
G01 X308.000 Y250.000
G01 X307.961 Y252.847
G01 X307.783 Y255.691
G01 X307.465 Y258.524
G01 X307.008 Y261.340
G01 X306.413 Y264.131
G01 X305.682 Y266.891
G01 X304.816 Y269.613
G01 X303.816 Y272.291
G01 X302.686 Y274.918
G01 X301.427 Y277.488
G01 X300.043 Y279.995
G01 X298.537 Y282.431
G01 X296.912 Y284.793
G01 X295.173 Y287.072
G01 X293.322 Y289.265
G01 X291.366 Y291.366
G01 X289.307 Y293.369
G01 X287.152 Y295.269
G01 X284.904 Y297.063
G01 X282.570 Y298.745
G01 X280.155 Y300.311
G01 X277.665 Y301.758
G01 X275.106 Y303.081
G01 X272.483 Y304.278
G01 X269.803 Y305.345
G01 X267.072 Y306.280
G01 X264.298 Y307.080
G01 X261.486 Y307.744
G01 X258.643 Y308.269
G01 X255.777 Y308.654
G01 X252.893 Y308.898
G01 X250.000 Y309.000
G01 X247.103 Y308.960
G01 X244.211 Y308.778
G01 X241.329 Y308.454
G01 X238.465 Y307.989
G01 X235.626 Y307.383
G01 X232.819 Y306.639
G01 X230.050 Y305.757
G01 X227.326 Y304.740
G01 X224.654 Y303.590
G01 X222.040 Y302.309
G01 X219.491 Y300.901
G01 X217.013 Y299.369
G01 X214.612 Y297.716
G01 X212.293 Y295.946
G01 X210.063 Y294.063
G01 X207.927 Y292.073
G01 X205.890 Y289.979
G01 X203.958 Y287.786
G01 X202.134 Y285.500
G01 X200.424 Y283.126
G01 X198.831 Y280.669
G01 X197.360 Y278.136
G01 X196.015 Y275.533
G01 X194.798 Y272.865
G01 X193.713 Y270.140
G01 X192.763 Y267.363
G01 X191.950 Y264.541
G01 X191.275 Y261.681
G01 X190.742 Y258.790
G01 X190.351 Y255.875
G01 X190.103 Y252.943
G01 X190.000 Y250.000
G01 X190.041 Y247.054
G01 X190.227 Y244.113
G01 X190.557 Y241.182
G01 X191.030 Y238.270
G01 X191.647 Y235.383
G01 X192.404 Y232.528
G01 X193.301 Y229.713
G01 X194.336 Y226.943
G01 X195.506 Y224.226
G01 X196.809 Y221.569
G01 X198.241 Y218.977
G01 X199.800 Y216.457
G01 X201.481 Y214.016
G01 X203.281 Y211.659
G01 X205.196 Y209.392
G01 X207.220 Y207.220
G01 X209.350 Y205.149
G01 X211.580 Y203.185
G01 X213.904 Y201.331
G01 X216.319 Y199.592
G01 X218.816 Y197.973
G01 X221.392 Y196.478
G01 X224.039 Y195.111
G01 X226.752 Y193.874
G01 X229.523 Y192.772
G01 X232.347 Y191.806
G01 X235.216 Y190.980
G01 X238.124 Y190.295
G01 X241.063 Y189.753
G01 X244.027 Y189.356
G01 X247.008 Y189.105
G01 X250.000 Y189.000
G01 X252.995 Y189.042
G01 X255.985 Y189.232
G01 X258.964 Y189.567
G01 X261.925 Y190.049
G01 X264.860 Y190.677
G01 X267.762 Y191.447
G01 X270.624 Y192.360
G01 X273.439 Y193.412
G01 X276.201 Y194.602
G01 X278.903 Y195.927
G01 X281.537 Y197.384
G01 X284.098 Y198.969
G01 X286.580 Y200.678
G01 X288.976 Y202.508
G01 X291.280 Y204.455
G01 X293.487 Y206.513
G01 X295.592 Y208.678
G01 X297.588 Y210.945
G01 X299.473 Y213.309
G01 X301.239 Y215.763
G01 X302.884 Y218.302
G01 X304.404 Y220.921
G01 X305.793 Y223.612
G01 X307.050 Y226.369
G01 X308.170 Y229.187
G01 X309.151 Y232.057
G01 X309.990 Y234.973
G01 X310.686 Y237.929
G01 X311.236 Y240.916
G01 X311.639 Y243.929
G01 X311.894 Y246.959
G01 X312.000 Y250.000
G01 X311.957 Y253.044
G01 X311.764 Y256.083
G01 X311.422 Y259.111
G01 X310.931 Y262.120
G01 X310.294 Y265.103
G01 X309.510 Y268.052
G01 X308.582 Y270.961
G01 X307.512 Y273.822
G01 X306.302 Y276.629
G01 X304.955 Y279.374
G01 X303.474 Y282.051
G01 X301.863 Y284.654
G01 X300.125 Y287.175
G01 X298.265 Y289.610
G01 X296.286 Y291.951
G01 X294.194 Y294.194
G01 X291.993 Y296.333
G01 X289.689 Y298.361
G01 X287.287 Y300.276
G01 X284.793 Y302.071
G01 X282.212 Y303.742
G01 X279.551 Y305.285
G01 X276.816 Y306.697
G01 X274.013 Y307.973
G01 X271.150 Y309.111
G01 X268.234 Y310.108
G01 X265.270 Y310.960
G01 X262.266 Y311.667
G01 X259.230 Y312.225
G01 X256.169 Y312.634
G01 X253.090 Y312.893
G01 X250.000 Y313.000
G01 X246.907 Y312.955
G01 X243.819 Y312.759
G01 X240.742 Y312.411
G01 X237.685 Y311.912
G01 X234.654 Y311.264
G01 X231.658 Y310.467
G01 X228.702 Y309.523
G01 X225.795 Y308.435
G01 X222.944 Y307.206
G01 X220.155 Y305.837
G01 X217.435 Y304.332
G01 X214.791 Y302.694
G01 X212.229 Y300.928
G01 X209.756 Y299.038
G01 X207.377 Y297.027
G01 X205.099 Y294.901
G01 X202.926 Y292.665
G01 X200.866 Y290.324
G01 X198.921 Y287.883
G01 X197.098 Y285.348
G01 X195.400 Y282.726
G01 X193.833 Y280.022
G01 X192.399 Y277.243
G01 X191.103 Y274.396
G01 X189.947 Y271.487
G01 X188.935 Y268.524
G01 X188.070 Y265.513
G01 X187.352 Y262.461
G01 X186.785 Y259.377
G01 X186.370 Y256.267
G01 X186.108 Y253.139
G01 X186.000 Y250.000
G01 X186.046 Y246.858
G01 X186.246 Y243.721
G01 X186.600 Y240.595
G01 X187.107 Y237.490
G01 X187.766 Y234.411
G01 X188.576 Y231.367
G01 X189.535 Y228.365
G01 X190.641 Y225.413
G01 X191.890 Y222.516
G01 X193.281 Y219.683
G01 X194.811 Y216.921
G01 X196.474 Y214.235
G01 X198.268 Y211.633
G01 X200.189 Y209.121
G01 X202.232 Y206.705
G01 X204.392 Y204.392
G01 X206.663 Y202.185
G01 X209.042 Y200.093
G01 X211.522 Y198.118
G01 X214.096 Y196.266
G01 X216.760 Y194.542
G01 X219.507 Y192.951
G01 X222.329 Y191.495
G01 X225.221 Y190.179
G01 X228.176 Y189.006
G01 X231.186 Y187.978
G01 X234.244 Y187.100
G01 X237.344 Y186.372
G01 X240.476 Y185.796
G01 X243.635 Y185.375
G01 X246.812 Y185.110
G01 X250.000 Y185.000
G01 X253.191 Y185.047
G01 X256.377 Y185.251
G01 X259.551 Y185.611
G01 X262.705 Y186.126
G01 X265.832 Y186.796
G01 X268.923 Y187.619
G01 X271.972 Y188.594
G01 X274.970 Y189.717
G01 X277.911 Y190.986
G01 X280.788 Y192.400
G01 X283.593 Y193.953
G01 X286.320 Y195.643
G01 X288.962 Y197.465
G01 X291.513 Y199.416
G01 X293.966 Y201.491
G01 X296.315 Y203.685
G01 X298.555 Y205.992
G01 X300.680 Y208.408
G01 X302.685 Y210.926
G01 X304.565 Y213.541
G01 X306.315 Y216.246
G01 X307.931 Y219.035
G01 X309.409 Y221.902
G01 X310.745 Y224.839
G01 X311.936 Y227.839
G01 X312.979 Y230.896
G01 X313.870 Y234.001
G01 X314.609 Y237.148
G01 X315.193 Y240.330
G01 X315.620 Y243.537
G01 X315.889 Y246.763
G01 X316.000 Y250.000
G01 X315.952 Y253.240
G01 X315.744 Y256.475
G01 X315.378 Y259.698
G01 X314.854 Y262.900
G01 X314.174 Y266.075
G01 X313.337 Y269.213
G01 X312.348 Y272.308
G01 X311.207 Y275.353
G01 X309.918 Y278.339
G01 X308.482 Y281.259
G01 X306.905 Y284.108
G01 X305.189 Y286.876
G01 X303.338 Y289.558
G01 X301.357 Y292.148
G01 X299.250 Y294.638
G01 X297.023 Y297.023
G01 X294.680 Y299.296
G01 X292.227 Y301.454
G01 X289.670 Y303.489
G01 X287.015 Y305.397
G01 X284.268 Y307.173
G01 X281.436 Y308.813
G01 X278.526 Y310.313
G01 X275.544 Y311.669
G01 X272.498 Y312.877
G01 X269.395 Y313.936
G01 X266.242 Y314.841
G01 X263.047 Y315.590
G01 X259.817 Y316.182
G01 X256.561 Y316.615
G01 X253.286 Y316.888
G01 X250.000 Y317.000
G01 X246.711 Y316.951
G01 X243.427 Y316.740
G01 X240.155 Y316.368
G01 X236.905 Y315.835
G01 X233.682 Y315.144
G01 X230.496 Y314.294
G01 X227.355 Y313.289
G01 X224.265 Y312.131
G01 X221.234 Y310.822
G01 X218.269 Y309.364
G01 X215.378 Y307.763
G01 X212.568 Y306.020
G01 X209.846 Y304.141
G01 X207.218 Y302.130
G01 X204.691 Y299.991
G01 X202.270 Y297.730
G01 X199.963 Y295.351
G01 X197.773 Y292.861
G01 X195.708 Y290.266
G01 X193.772 Y287.570
G01 X191.969 Y284.782
G01 X190.305 Y281.908
G01 X188.783 Y278.953
G01 X187.407 Y275.927
G01 X186.181 Y272.835
G01 X185.107 Y269.685
G01 X184.189 Y266.485
G01 X183.429 Y263.242
G01 X182.829 Y259.964
G01 X182.390 Y256.659
G01 X182.113 Y253.335
G01 X182.000 Y250.000
G01 X182.051 Y246.662
G01 X182.265 Y243.329
G01 X182.643 Y240.009
G01 X183.184 Y236.709
G01 X183.886 Y233.439
G01 X184.749 Y230.206
G01 X185.769 Y227.018
G01 X186.945 Y223.882
G01 X188.274 Y220.806
G01 X189.754 Y217.798
G01 X191.380 Y214.864
G01 X193.148 Y212.013
G01 X195.056 Y209.250
G01 X197.097 Y206.584
G01 X199.268 Y204.019
G01 X201.563 Y201.563
G01 X203.977 Y199.222
G01 X206.504 Y197.000
G01 X209.139 Y194.905
G01 X211.874 Y192.940
G01 X214.704 Y191.112
G01 X217.621 Y189.423
G01 X220.619 Y187.879
G01 X223.691 Y186.483
G01 X226.828 Y185.239
G01 X230.025 Y184.151
G01 X233.272 Y183.219
G01 X236.563 Y182.448
G01 X239.889 Y181.840
G01 X243.243 Y181.394
G01 X246.616 Y181.114
G01 X250.000 Y181.000
G01 X253.387 Y181.052
G01 X256.769 Y181.270
G01 X260.138 Y181.654
G01 X263.486 Y182.203
G01 X266.804 Y182.916
G01 X270.084 Y183.792
G01 X273.319 Y184.827
G01 X276.501 Y186.021
G01 X279.622 Y187.370
G01 X282.674 Y188.872
G01 X285.650 Y190.522
G01 X288.543 Y192.317
G01 X291.345 Y194.252
G01 X294.051 Y196.324
G01 X296.652 Y198.527
G01 X299.144 Y200.856
G01 X301.519 Y203.306
G01 X303.773 Y205.870
G01 X305.898 Y208.543
G01 X307.891 Y211.318
G01 X309.746 Y214.190
G01 X311.459 Y217.150
G01 X313.025 Y220.191
G01 X314.441 Y223.308
G01 X315.702 Y226.491
G01 X316.806 Y229.735
G01 X317.751 Y233.029
G01 X318.532 Y236.368
G01 X319.150 Y239.743
G01 X319.601 Y243.145
G01 X319.884 Y246.567
G01 X320.000 Y250.000
G01 X319.947 Y253.436
G01 X319.725 Y256.867
G01 X319.335 Y260.285
G01 X318.778 Y263.681
G01 X318.054 Y267.047
G01 X317.165 Y270.374
G01 X316.114 Y273.656
G01 X314.903 Y276.884
G01 X313.533 Y280.049
G01 X312.010 Y283.145
G01 X310.336 Y286.164
G01 X308.515 Y289.098
G01 X306.551 Y291.941
G01 X304.449 Y294.685
G01 X302.214 Y297.324
G01 X299.851 Y299.851
G01 X297.366 Y302.260
G01 X294.764 Y304.546
G01 X292.053 Y306.701
G01 X289.237 Y308.723
G01 X286.325 Y310.604
G01 X283.322 Y312.341
G01 X280.236 Y313.929
G01 X277.075 Y315.364
G01 X273.845 Y316.644
G01 X270.556 Y317.763
G01 X267.214 Y318.721
G01 X263.827 Y319.513
G01 X260.404 Y320.139
G01 X256.953 Y320.596
G01 X253.482 Y320.883
G01 X250.000 Y321.000
G01 X246.515 Y320.946
G01 X243.035 Y320.720
G01 X239.568 Y320.324
G01 X236.124 Y319.758
G01 X232.710 Y319.024
G01 X229.335 Y318.122
G01 X226.007 Y317.056
G01 X222.734 Y315.826
G01 X219.523 Y314.437
G01 X216.384 Y312.892
G01 X213.322 Y311.194
G01 X210.346 Y309.346
G01 X207.463 Y307.354
G01 X204.681 Y305.222
G01 X202.005 Y302.955
G01 X199.442 Y300.558
G01 X196.999 Y298.037
G01 X194.681 Y295.399
G01 X192.495 Y292.648
G01 X190.446 Y289.793
G01 X188.538 Y286.839
G01 X186.777 Y283.793
G01 X185.167 Y280.664
G01 X183.712 Y277.458
G01 X182.415 Y274.182
G01 X181.280 Y270.846
G01 X180.309 Y267.457
G01 X179.506 Y264.022
G01 X178.872 Y260.551
G01 X178.409 Y257.051
G01 X178.118 Y253.531
G01 X178.000 Y250.000
G01 X178.056 Y246.466
G01 X178.285 Y242.937
G01 X178.687 Y239.422
G01 X179.261 Y235.929
G01 X180.006 Y232.467
G01 X180.921 Y229.045
G01 X182.003 Y225.670
G01 X183.250 Y222.351
G01 X184.659 Y219.096
G01 X186.226 Y215.912
G01 X187.949 Y212.808
G01 X189.822 Y209.791
G01 X191.843 Y206.868
G01 X194.005 Y204.046
G01 X196.304 Y201.333
G01 X198.735 Y198.735
G01 X201.291 Y196.258
G01 X203.967 Y193.908
G01 X206.756 Y191.692
G01 X209.652 Y189.615
G01 X212.647 Y187.681
G01 X215.735 Y185.895
G01 X218.909 Y184.263
G01 X222.160 Y182.788
G01 X225.481 Y181.473
G01 X228.864 Y180.323
G01 X232.300 Y179.339
G01 X235.783 Y178.525
G01 X239.302 Y177.883
G01 X242.851 Y177.414
G01 X246.420 Y177.119
G01 X250.000 Y177.000
G01 X253.583 Y177.057
G01 X257.161 Y177.289
G01 X260.725 Y177.697
G01 X264.266 Y178.280
G01 X267.776 Y179.036
G01 X271.245 Y179.964
G01 X274.667 Y181.061
G01 X278.032 Y182.326
G01 X281.332 Y183.755
G01 X284.559 Y185.344
G01 X287.706 Y187.091
G01 X290.765 Y188.991
G01 X293.728 Y191.040
G01 X296.588 Y193.232
G01 X299.339 Y195.563
G01 X301.972 Y198.028
G01 X304.483 Y200.619
G01 X306.865 Y203.332
G01 X309.111 Y206.160
G01 X311.217 Y209.096
G01 X313.177 Y212.133
G01 X314.987 Y215.264
G01 X316.641 Y218.481
G01 X318.136 Y221.777
G01 X319.468 Y225.144
G01 X320.634 Y228.573
G01 X321.631 Y232.057
G01 X322.456 Y235.588
G01 X323.106 Y239.156
G01 X323.581 Y242.753
G01 X323.880 Y246.371
G01 X324.000 Y250.000
G01 X323.942 Y253.633
G01 X323.706 Y257.259
G01 X323.292 Y260.872
G01 X322.701 Y264.461
G01 X321.934 Y268.018
G01 X320.993 Y271.535
G01 X319.880 Y275.004
G01 X318.598 Y278.414
G01 X317.149 Y281.759
G01 X315.538 Y285.031
G01 X313.767 Y288.220
G01 X311.841 Y291.321
G01 X309.764 Y294.324
G01 X307.541 Y297.223
G01 X305.178 Y300.010
G01 X302.679 Y302.679
G01 X300.052 Y305.224
G01 X297.302 Y307.638
G01 X294.435 Y309.914
G01 X291.459 Y312.048
G01 X288.381 Y314.035
G01 X285.207 Y315.868
G01 X281.946 Y317.545
G01 X278.606 Y319.060
G01 X275.193 Y320.410
G01 X271.717 Y321.591
G01 X268.186 Y322.601
G01 X264.607 Y323.436
G01 X260.991 Y324.096
G01 X257.345 Y324.577
G01 X253.679 Y324.878
G01 X250.000 Y325.000
G01 X246.318 Y324.941
G01 X242.643 Y324.701
G01 X238.981 Y324.281
G01 X235.344 Y323.681
G01 X231.739 Y322.904
G01 X228.174 Y321.950
G01 X224.660 Y320.822
G01 X221.203 Y319.522
G01 X217.813 Y318.053
G01 X214.498 Y316.420
G01 X211.266 Y314.624
G01 X208.124 Y312.672
G01 X205.081 Y310.567
G01 X202.143 Y308.314
G01 X199.318 Y305.919
G01 X196.613 Y303.387
G01 X194.035 Y300.724
G01 X191.589 Y297.936
G01 X189.283 Y295.031
G01 X187.120 Y292.015
G01 X185.107 Y288.895
G01 X183.250 Y285.679
G01 X181.551 Y282.374
G01 X180.016 Y278.988
G01 X178.649 Y275.530
G01 X177.452 Y272.007
G01 X176.429 Y268.429
G01 X175.583 Y264.802
G01 X174.915 Y261.138
G01 X174.428 Y257.443
G01 X174.123 Y253.728
G01 X174.000 Y250.000
G01 X174.060 Y246.269
G01 X174.304 Y242.545
G01 X174.730 Y238.835
G01 X175.338 Y235.149
G01 X176.126 Y231.496
G01 X177.093 Y227.884
G01 X178.237 Y224.323
G01 X179.554 Y220.820
G01 X181.043 Y217.386
G01 X182.698 Y214.027
G01 X184.518 Y210.751
G01 X186.497 Y207.568
G01 X188.630 Y204.485
G01 X190.913 Y201.509
G01 X193.340 Y198.647
G01 X195.906 Y195.906
G01 X198.605 Y193.294
G01 X201.429 Y190.816
G01 X204.373 Y188.479
G01 X207.429 Y186.289
G01 X210.591 Y184.250
G01 X213.850 Y182.368
G01 X217.199 Y180.647
G01 X220.629 Y179.092
G01 X224.133 Y177.707
G01 X227.703 Y176.495
G01 X231.328 Y175.459
G01 X235.002 Y174.602
G01 X238.716 Y173.926
G01 X242.459 Y173.433
G01 X246.223 Y173.124
G01 X250.000 Y173.000
G01 X253.780 Y173.062
G01 X257.553 Y173.309
G01 X261.312 Y173.741
G01 X265.046 Y174.357
G01 X268.747 Y175.156
G01 X272.406 Y176.136
G01 X276.014 Y177.295
G01 X279.562 Y178.630
G01 X283.042 Y180.139
G01 X286.445 Y181.816
G01 X289.763 Y183.660
G01 X292.987 Y185.665
G01 X296.111 Y187.827
G01 X299.126 Y190.140
G01 X302.025 Y192.599
G01 X304.801 Y195.199
G01 X307.447 Y197.933
G01 X309.957 Y200.795
G01 X312.324 Y203.777
G01 X314.543 Y206.874
G01 X316.608 Y210.077
G01 X318.514 Y213.378
G01 X320.257 Y216.771
G01 X321.832 Y220.246
G01 X323.234 Y223.796
G01 X324.462 Y227.412
G01 X325.511 Y231.086
G01 X326.379 Y234.807
G01 X327.063 Y238.569
G01 X327.562 Y242.361
G01 X327.875 Y246.174
G01 X328.000 Y250.000
G01 X327.937 Y253.829
G01 X327.687 Y257.651
G01 X327.249 Y261.459
G01 X326.624 Y265.241
G01 X325.814 Y268.990
G01 X324.821 Y272.697
G01 X323.646 Y276.351
G01 X322.294 Y279.945
G01 X320.765 Y283.470
G01 X319.065 Y286.916
G01 X317.198 Y290.277
G01 X315.166 Y293.543
G01 X312.976 Y296.707
G01 X310.633 Y299.760
G01 X308.142 Y302.696
G01 X305.508 Y305.508
G01 X302.738 Y308.188
G01 X299.840 Y310.730
G01 X296.818 Y313.127
G01 X293.682 Y315.374
G01 X290.437 Y317.466
G01 X287.093 Y319.396
G01 X283.657 Y321.161
G01 X280.136 Y322.756
G01 X276.541 Y324.176
G01 X272.878 Y325.419
G01 X269.157 Y326.481
G01 X265.388 Y327.359
G01 X261.578 Y328.052
G01 X257.737 Y328.557
G01 X253.875 Y328.874
G01 X250.000 Y329.000
G01 X246.122 Y328.936
G01 X242.251 Y328.682
G01 X238.395 Y328.238
G01 X234.563 Y327.605
G01 X230.767 Y326.784
G01 X227.013 Y325.778
G01 X223.312 Y324.588
G01 X219.672 Y323.217
G01 X216.103 Y321.669
G01 X212.612 Y319.947
G01 X209.209 Y318.055
G01 X205.902 Y315.998
G01 X202.698 Y313.780
G01 X199.605 Y311.406
G01 X196.632 Y308.882
G01 X193.785 Y306.215
G01 X191.071 Y303.410
G01 X188.497 Y300.474
G01 X186.070 Y297.414
G01 X183.794 Y294.237
G01 X181.677 Y290.951
G01 X179.722 Y287.564
G01 X177.935 Y284.084
G01 X176.321 Y280.519
G01 X174.882 Y276.877
G01 X173.624 Y273.168
G01 X172.549 Y269.400
G01 X171.660 Y265.583
G01 X170.959 Y261.725
G01 X170.447 Y257.835
G01 X170.128 Y253.924
G01 X170.000 Y250.000
G01 X170.065 Y246.073
G01 X170.323 Y242.153
G01 X170.773 Y238.248
G01 X171.415 Y234.368
G01 X172.246 Y230.524
G01 X173.265 Y226.723
G01 X174.471 Y222.975
G01 X175.859 Y219.290
G01 X177.427 Y215.675
G01 X179.171 Y212.141
G01 X181.087 Y208.695
G01 X183.171 Y205.346
G01 X185.417 Y202.102
G01 X187.821 Y198.971
G01 X190.377 Y195.960
G01 X193.078 Y193.078
G01 X195.919 Y190.330
G01 X198.892 Y187.724
G01 X201.990 Y185.266
G01 X205.207 Y182.963
G01 X208.534 Y180.819
G01 X211.964 Y178.840
G01 X215.488 Y177.031
G01 X219.098 Y175.397
G01 X222.786 Y173.941
G01 X226.541 Y172.667
G01 X230.357 Y171.579
G01 X234.222 Y170.679
G01 X238.129 Y169.969
G01 X242.067 Y169.452
G01 X246.027 Y169.129
G01 X250.000 Y169.000
G01 X253.976 Y169.066
G01 X257.946 Y169.328
G01 X261.899 Y169.784
G01 X265.827 Y170.434
G01 X269.719 Y171.276
G01 X273.567 Y172.308
G01 X277.362 Y173.529
G01 X281.093 Y174.935
G01 X284.752 Y176.523
G01 X288.330 Y178.289
G01 X291.819 Y180.229
G01 X295.210 Y182.339
G01 X298.494 Y184.614
G01 X301.663 Y187.048
G01 X304.711 Y189.636
G01 X307.629 Y192.371
G01 X310.411 Y195.247
G01 X313.049 Y198.257
G01 X315.537 Y201.395
G01 X317.869 Y204.652
G01 X320.039 Y208.020
G01 X322.042 Y211.493
G01 X323.873 Y215.061
G01 X325.527 Y218.716
G01 X327.001 Y222.449
G01 X328.290 Y226.251
G01 X329.391 Y230.114
G01 X330.302 Y234.027
G01 X331.020 Y237.982
G01 X331.543 Y241.969
G01 X331.870 Y245.978
G01 X332.000 Y250.000
G01 X331.932 Y254.025
G01 X331.667 Y258.044
G01 X331.205 Y262.046
G01 X330.547 Y266.022
G01 X329.694 Y269.962
G01 X328.649 Y273.858
G01 X327.413 Y277.699
G01 X325.989 Y281.476
G01 X324.381 Y285.180
G01 X322.593 Y288.802
G01 X320.629 Y292.333
G01 X318.492 Y295.765
G01 X316.189 Y299.089
G01 X313.725 Y302.298
G01 X311.105 Y305.383
G01 X308.336 Y308.336
G01 X305.425 Y311.152
G01 X302.377 Y313.822
G01 X299.201 Y316.340
G01 X295.904 Y318.700
G01 X292.494 Y320.897
G01 X288.979 Y322.924
G01 X285.367 Y324.777
G01 X281.667 Y326.451
G01 X277.888 Y327.942
G01 X274.039 Y329.247
G01 X270.129 Y330.361
G01 X266.168 Y331.283
G01 X262.165 Y332.009
G01 X258.129 Y332.538
G01 X254.071 Y332.869
G01 X250.000 Y333.000
G01 X245.926 Y332.931
G01 X241.858 Y332.663
G01 X237.808 Y332.194
G01 X233.783 Y331.528
G01 X229.795 Y330.664
G01 X225.852 Y329.605
G01 X221.964 Y328.354
G01 X218.142 Y326.913
G01 X214.393 Y325.285
G01 X210.727 Y323.475
G01 X207.153 Y321.486
G01 X203.679 Y319.324
G01 X200.315 Y316.993
G01 X197.068 Y314.498
G01 X193.946 Y311.846
G01 X190.957 Y309.043
G01 X188.107 Y306.096
G01 X185.405 Y303.011
G01 X182.857 Y299.797
G01 X180.468 Y296.460
G01 X178.246 Y293.008
G01 X176.194 Y289.450
G01 X174.319 Y285.794
G01 X172.625 Y282.050
G01 X171.116 Y278.225
G01 X169.796 Y274.329
G01 X168.669 Y270.372
G01 X167.737 Y266.363
G01 X167.002 Y262.312
G01 X166.467 Y258.227
G01 X166.132 Y254.120
G01 X166.000 Y250.000
G01 X166.070 Y245.877
G01 X166.342 Y241.760
G01 X166.816 Y237.661
G01 X167.491 Y233.588
G01 X168.366 Y229.552
G01 X169.438 Y225.562
G01 X170.704 Y221.628
G01 X172.163 Y217.759
G01 X173.811 Y213.965
G01 X175.643 Y210.255
G01 X177.656 Y206.639
G01 X179.845 Y203.124
G01 X182.204 Y199.719
G01 X184.729 Y196.433
G01 X187.413 Y193.274
G01 X190.249 Y190.249
G01 X193.232 Y187.366
G01 X196.354 Y184.632
G01 X199.608 Y182.054
G01 X202.985 Y179.637
G01 X206.478 Y177.388
G01 X210.079 Y175.312
G01 X213.778 Y173.415
G01 X217.568 Y171.701
G01 X221.438 Y170.175
G01 X225.380 Y168.839
G01 X229.385 Y167.699
G01 X233.442 Y166.756
G01 X237.542 Y166.013
G01 X241.675 Y165.471
G01 X245.831 Y165.134
G01 X250.000 Y165.000
G01 X254.172 Y165.071
G01 X258.338 Y165.347
G01 X262.486 Y165.827
G01 X266.607 Y166.511
G01 X270.691 Y167.396
G01 X274.729 Y168.481
G01 X278.709 Y169.763
G01 X282.624 Y171.239
G01 X286.462 Y172.907
G01 X290.216 Y174.761
G01 X293.875 Y176.798
G01 X297.432 Y179.013
G01 X300.876 Y181.401
G01 X304.201 Y183.956
G01 X307.397 Y186.672
G01 X310.458 Y189.542
G01 X313.374 Y192.561
G01 X316.141 Y195.720
G01 X318.750 Y199.012
G01 X321.195 Y202.429
G01 X323.470 Y205.964
G01 X325.570 Y209.607
G01 X327.489 Y213.351
G01 X329.223 Y217.185
G01 X330.767 Y221.101
G01 X332.117 Y225.090
G01 X333.271 Y229.142
G01 X334.225 Y233.247
G01 X334.976 Y237.395
G01 X335.524 Y241.577
G01 X335.865 Y245.782
G01 X336.000 Y250.000
G01 X335.928 Y254.221
G01 X335.648 Y258.436
G01 X335.162 Y262.633
G01 X334.470 Y266.802
G01 X333.574 Y270.934
G01 X332.476 Y275.019
G01 X331.179 Y279.046
G01 X329.685 Y283.006
G01 X327.997 Y286.890
G01 X326.121 Y290.687
G01 X324.060 Y294.390
G01 X321.818 Y297.987
G01 X319.402 Y301.472
G01 X316.817 Y304.835
G01 X314.069 Y308.069
G01 X311.165 Y311.165
G01 X308.111 Y314.115
G01 X304.915 Y316.914
G01 X301.584 Y319.553
G01 X298.126 Y322.026
G01 X294.550 Y324.328
G01 X290.864 Y326.452
G01 X287.077 Y328.393
G01 X283.198 Y330.147
G01 X279.236 Y331.708
G01 X275.200 Y333.074
G01 X271.101 Y334.241
G01 X266.948 Y335.206
G01 X262.752 Y335.966
G01 X258.521 Y336.519
G01 X254.267 Y336.864
G01 X250.000 Y337.000
G01 X245.730 Y336.926
G01 X241.466 Y336.643
G01 X237.221 Y336.151
G01 X233.003 Y335.451
G01 X228.823 Y334.544
G01 X224.691 Y333.433
G01 X220.617 Y332.120
G01 X216.611 Y330.608
G01 X212.682 Y328.901
G01 X208.841 Y327.003
G01 X205.096 Y324.917
G01 X201.457 Y322.650
G01 X197.932 Y320.205
G01 X194.530 Y317.590
G01 X191.260 Y314.810
G01 X188.128 Y311.872
G01 X185.144 Y308.782
G01 X182.313 Y305.549
G01 X179.644 Y302.180
G01 X177.142 Y298.682
G01 X174.815 Y295.064
G01 X172.667 Y291.336
G01 X170.703 Y287.505
G01 X168.930 Y283.580
G01 X167.350 Y279.573
G01 X165.969 Y275.491
G01 X164.789 Y271.344
G01 X163.813 Y267.144
G01 X163.045 Y262.899
G01 X162.486 Y258.619
G01 X162.137 Y254.316
G01 X162.000 Y250.000
G01 X162.075 Y245.681
G01 X162.362 Y241.368
G01 X162.860 Y237.074
G01 X163.568 Y232.808
G01 X164.486 Y228.580
G01 X165.610 Y224.401
G01 X166.938 Y220.280
G01 X168.468 Y216.228
G01 X170.195 Y212.255
G01 X172.115 Y208.370
G01 X174.225 Y204.582
G01 X176.519 Y200.901
G01 X178.991 Y197.336
G01 X181.637 Y193.896
G01 X184.449 Y190.588
G01 X187.421 Y187.421
G01 X190.546 Y184.403
G01 X193.817 Y181.540
G01 X197.225 Y178.841
G01 X200.763 Y176.311
G01 X204.422 Y173.957
G01 X208.193 Y171.785
G01 X212.068 Y169.799
G01 X216.037 Y168.006
G01 X220.090 Y166.409
G01 X224.219 Y165.012
G01 X228.413 Y163.819
G01 X232.661 Y162.833
G01 X236.955 Y162.056
G01 X241.283 Y161.491
G01 X245.635 Y161.138
G01 X250.000 Y161.000
G01 X254.369 Y161.076
G01 X258.730 Y161.366
G01 X263.073 Y161.871
G01 X267.387 Y162.588
G01 X271.663 Y163.516
G01 X275.890 Y164.653
G01 X280.057 Y165.997
G01 X284.154 Y167.544
G01 X288.173 Y169.291
G01 X292.102 Y171.233
G01 X295.932 Y173.367
G01 X299.654 Y175.687
G01 X303.259 Y178.188
G01 X306.739 Y180.864
G01 X310.084 Y183.708
G01 X313.286 Y186.714
G01 X316.338 Y189.874
G01 X319.233 Y193.182
G01 X321.962 Y196.629
G01 X324.520 Y200.207
G01 X326.901 Y203.907
G01 X329.097 Y207.722
G01 X331.105 Y211.640
G01 X332.918 Y215.654
G01 X334.533 Y219.754
G01 X335.945 Y223.929
G01 X337.151 Y228.170
G01 X338.148 Y232.466
G01 X338.933 Y236.808
G01 X339.504 Y241.185
G01 X339.860 Y245.585
G01 X340.000 Y250.000
G01 X339.923 Y254.418
G01 X339.629 Y258.828
G01 X339.119 Y263.219
G01 X338.393 Y267.583
G01 X337.454 Y271.906
G01 X336.304 Y276.180
G01 X334.945 Y280.394
G01 X333.380 Y284.537
G01 X331.613 Y288.600
G01 X329.649 Y292.573
G01 X327.490 Y296.446
G01 X325.144 Y300.210
G01 X322.615 Y303.855
G01 X319.909 Y307.373
G01 X317.033 Y310.755
G01 X313.993 Y313.993
G01 X310.797 Y317.079
G01 X307.452 Y320.006
G01 X303.967 Y322.766
G01 X300.349 Y325.352
G01 X296.607 Y327.758
G01 X292.750 Y329.979
G01 X288.787 Y332.009
G01 X284.729 Y333.842
G01 X280.583 Y335.475
G01 X276.361 Y336.902
G01 X272.073 Y338.121
G01 X267.729 Y339.129
G01 X263.339 Y339.922
G01 X258.913 Y340.500
G01 X254.464 Y340.859
G01 X250.000 Y341.000
G01 X245.533 Y340.922
G01 X241.074 Y340.624
G01 X236.634 Y340.108
G01 X232.222 Y339.374
G01 X227.851 Y338.424
G01 X223.530 Y337.261
G01 X219.269 Y335.886
G01 X215.080 Y334.304
G01 X210.972 Y332.517
G01 X206.956 Y330.530
G01 X203.040 Y328.348
G01 X199.235 Y325.976
G01 X195.549 Y323.418
G01 X191.993 Y320.682
G01 X188.573 Y317.774
G01 X185.300 Y314.700
G01 X182.180 Y311.469
G01 X179.221 Y308.087
G01 X176.431 Y304.562
G01 X173.817 Y300.904
G01 X171.384 Y297.121
G01 X169.139 Y293.221
G01 X167.087 Y289.215
G01 X165.234 Y285.111
G01 X163.584 Y280.920
G01 X162.141 Y276.652
G01 X160.909 Y272.316
G01 X159.890 Y267.924
G01 X159.088 Y263.485
G01 X158.505 Y259.011
G01 X158.142 Y254.513
G01 X158.000 Y250.000
G01 X158.080 Y245.484
G01 X158.381 Y240.976
G01 X158.903 Y236.487
G01 X159.645 Y232.027
G01 X160.606 Y227.608
G01 X161.782 Y223.239
G01 X163.172 Y218.932
G01 X164.772 Y214.697
G01 X166.579 Y210.545
G01 X168.588 Y206.484
G01 X170.794 Y202.526
G01 X173.193 Y198.679
G01 X175.779 Y194.954
G01 X178.545 Y191.358
G01 X181.485 Y187.902
G01 X184.593 Y184.593
G01 X187.860 Y181.439
G01 X191.279 Y178.448
G01 X194.842 Y175.628
G01 X198.540 Y172.985
G01 X202.365 Y170.526
G01 X206.307 Y168.257
G01 X210.358 Y166.183
G01 X214.506 Y164.310
G01 X218.743 Y162.642
G01 X223.058 Y161.184
G01 X227.441 Y159.939
G01 X231.881 Y158.910
G01 X236.368 Y158.099
G01 X240.891 Y157.510
G01 X245.438 Y157.143
G01 X250.000 Y157.000
G01 X254.565 Y157.081
G01 X259.122 Y157.386
G01 X263.660 Y157.914
G01 X268.168 Y158.664
G01 X272.635 Y159.636
G01 X277.051 Y160.825
G01 X281.404 Y162.230
G01 X285.685 Y163.848
G01 X289.883 Y165.675
G01 X293.987 Y167.706
G01 X297.988 Y169.936
G01 X301.876 Y172.362
G01 X305.642 Y174.975
G01 X309.276 Y177.772
G01 X312.770 Y180.744
G01 X316.114 Y183.886
G01 X319.302 Y187.188
G01 X322.325 Y190.645
G01 X325.175 Y194.246
G01 X327.846 Y197.985
G01 X330.332 Y201.851
G01 X332.625 Y205.836
G01 X334.721 Y209.930
G01 X336.614 Y214.123
G01 X338.299 Y218.406
G01 X339.773 Y222.768
G01 X341.031 Y227.198
G01 X342.071 Y231.686
G01 X342.890 Y236.221
G01 X343.485 Y240.793
G01 X343.856 Y245.389
G01 X344.000 Y250.000
G01 X343.918 Y254.614
G01 X343.610 Y259.220
G01 X343.075 Y263.806
G01 X342.316 Y268.363
G01 X341.335 Y272.878
G01 X340.132 Y277.341
G01 X338.711 Y281.741
G01 X337.076 Y286.068
G01 X335.229 Y290.310
G01 X333.176 Y294.459
G01 X330.921 Y298.502
G01 X328.470 Y302.432
G01 X325.828 Y306.238
G01 X323.001 Y309.911
G01 X319.997 Y313.441
G01 X316.822 Y316.822
G01 X313.483 Y320.043
G01 X309.990 Y323.098
G01 X306.349 Y325.978
G01 X302.571 Y328.678
G01 X298.663 Y331.189
G01 X294.635 Y333.507
G01 X290.497 Y335.625
G01 X286.259 Y337.538
G01 X281.931 Y339.241
G01 X277.523 Y340.730
G01 X273.045 Y342.001
G01 X268.509 Y343.052
G01 X263.926 Y343.879
G01 X259.306 Y344.480
G01 X254.660 Y344.854
G01 X250.000 Y345.000
G01 X245.337 Y344.917
G01 X240.682 Y344.605
G01 X236.047 Y344.065
G01 X231.442 Y343.297
G01 X226.879 Y342.305
G01 X222.369 Y341.089
G01 X217.922 Y339.653
G01 X213.549 Y338.000
G01 X209.262 Y336.133
G01 X205.070 Y334.058
G01 X200.984 Y331.779
G01 X197.012 Y329.301
G01 X193.167 Y326.631
G01 X189.455 Y323.774
G01 X185.887 Y320.738
G01 X182.471 Y317.529
G01 X179.216 Y314.155
G01 X176.129 Y310.624
G01 X173.218 Y306.945
G01 X170.491 Y303.126
G01 X167.953 Y299.177
G01 X165.611 Y295.107
G01 X163.471 Y290.925
G01 X161.539 Y286.642
G01 X159.818 Y282.268
G01 X158.313 Y277.813
G01 X157.029 Y273.288
G01 X155.967 Y268.704
G01 X155.132 Y264.072
G01 X154.524 Y259.404
G01 X154.147 Y254.709
G01 X154.000 Y250.000
G01 X154.084 Y245.288
G01 X154.400 Y240.584
G01 X154.946 Y235.900
G01 X155.722 Y231.247
G01 X156.725 Y226.636
G01 X157.954 Y222.078
G01 X159.406 Y217.585
G01 X161.077 Y213.167
G01 X162.963 Y208.834
G01 X165.060 Y204.599
G01 X167.363 Y200.469
G01 X169.867 Y196.457
G01 X172.566 Y192.571
G01 X175.453 Y188.821
G01 X178.521 Y185.216
G01 X181.764 Y181.764
G01 X185.174 Y178.475
G01 X188.741 Y175.356
G01 X192.459 Y172.415
G01 X196.318 Y169.659
G01 X200.309 Y167.095
G01 X204.422 Y164.729
G01 X208.647 Y162.567
G01 X212.975 Y160.615
G01 X217.395 Y158.876
G01 X221.897 Y157.356
G01 X226.469 Y156.059
G01 X231.101 Y154.986
G01 X235.781 Y154.143
G01 X240.498 Y153.529
G01 X245.242 Y153.148
G01 X250.000 Y153.000
G01 X254.761 Y153.086
G01 X259.514 Y153.405
G01 X264.247 Y153.957
G01 X268.948 Y154.741
G01 X273.607 Y155.755
G01 X278.212 Y156.997
G01 X282.752 Y158.464
G01 X287.216 Y160.153
G01 X291.593 Y162.059
G01 X295.873 Y164.178
G01 X300.045 Y166.505
G01 X304.099 Y169.036
G01 X308.025 Y171.763
G01 X311.814 Y174.680
G01 X315.456 Y177.780
G01 X318.943 Y181.057
G01 X322.266 Y184.502
G01 X325.417 Y188.107
G01 X328.388 Y191.863
G01 X331.172 Y195.762
G01 X333.763 Y199.795
G01 X336.153 Y203.950
G01 X338.337 Y208.220
G01 X340.309 Y212.593
G01 X342.065 Y217.058
G01 X343.601 Y221.607
G01 X344.911 Y226.226
G01 X345.994 Y230.906
G01 X346.847 Y235.634
G01 X347.466 Y240.400
G01 X347.851 Y245.193
G01 X348.000 Y250.000
G01 X347.913 Y254.810
G01 X347.590 Y259.612
G01 X347.032 Y264.393
G01 X346.240 Y269.143
G01 X345.215 Y273.850
G01 X343.960 Y278.502
G01 X342.477 Y283.089
G01 X340.771 Y287.599
G01 X338.845 Y292.021
G01 X336.704 Y296.344
G01 X334.352 Y300.559
G01 X331.796 Y304.654
G01 X329.041 Y308.621
G01 X326.093 Y312.448
G01 X322.961 Y316.128
G01 X319.650 Y319.650
G01 X316.170 Y323.007
G01 X312.527 Y326.190
G01 X308.732 Y329.191
G01 X304.793 Y332.004
G01 X300.719 Y334.620
G01 X296.521 Y337.035
G01 X292.208 Y339.241
G01 X287.790 Y341.233
G01 X283.278 Y343.007
G01 X278.684 Y344.558
G01 X274.017 Y345.882
G01 X269.290 Y346.975
G01 X264.513 Y347.836
G01 X259.698 Y348.461
G01 X254.856 Y348.850
G01 X250.000 Y349.000
G01 X245.141 Y348.912
G01 X240.290 Y348.585
G01 X235.460 Y348.021
G01 X230.662 Y347.220
G01 X225.907 Y346.185
G01 X221.207 Y344.917
G01 X216.574 Y343.419
G01 X212.019 Y341.695
G01 X207.552 Y339.749
G01 X203.184 Y337.586
G01 X198.927 Y335.210
G01 X194.790 Y332.627
G01 X190.784 Y329.844
G01 X186.918 Y326.866
G01 X183.201 Y323.701
G01 X179.643 Y320.357
G01 X176.252 Y316.841
G01 X173.037 Y313.162
G01 X170.006 Y309.328
G01 X167.165 Y305.349
G01 X164.522 Y301.234
G01 X162.083 Y296.992
G01 X159.855 Y292.635
G01 X157.843 Y288.173
G01 X156.052 Y283.615
G01 X154.485 Y278.974
G01 X153.148 Y274.260
G01 X152.044 Y269.485
G01 X151.175 Y264.659
G01 X150.544 Y259.796
G01 X150.152 Y254.905
G01 X150.000 Y250.000
G01 X150.089 Y245.092
G01 X150.419 Y240.192
G01 X150.990 Y235.313
G01 X151.799 Y230.467
G01 X152.845 Y225.664
G01 X154.127 Y220.917
G01 X155.640 Y216.237
G01 X157.381 Y211.636
G01 X159.347 Y207.124
G01 X161.532 Y202.713
G01 X163.932 Y198.413
G01 X166.541 Y194.235
G01 X169.353 Y190.188
G01 X172.361 Y186.283
G01 X175.558 Y182.529
G01 X178.936 Y178.936
G01 X182.487 Y175.511
G01 X186.204 Y172.264
G01 X190.076 Y169.202
G01 X194.096 Y166.333
G01 X198.252 Y163.664
G01 X202.536 Y161.202
G01 X206.937 Y158.951
G01 X211.445 Y156.919
G01 X216.048 Y155.110
G01 X220.736 Y153.528
G01 X225.497 Y152.178
G01 X230.320 Y151.063
G01 X235.194 Y150.186
G01 X240.106 Y149.549
G01 X245.046 Y149.153
G01 X250.000 Y149.000
G01 X254.957 Y149.090
G01 X259.906 Y149.424
G01 X264.834 Y150.000
G01 X269.729 Y150.818
G01 X274.579 Y151.875
G01 X279.373 Y153.170
G01 X284.100 Y154.698
G01 X288.747 Y156.457
G01 X293.303 Y158.443
G01 X297.758 Y160.650
G01 X302.101 Y163.075
G01 X306.321 Y165.710
G01 X310.408 Y168.550
G01 X314.351 Y171.588
G01 X318.142 Y174.817
G01 X321.771 Y178.229
G01 X325.230 Y181.816
G01 X328.509 Y185.569
G01 X331.601 Y189.481
G01 X334.498 Y193.540
G01 X337.193 Y197.738
G01 X339.680 Y202.065
G01 X341.953 Y206.510
G01 X344.005 Y211.062
G01 X345.832 Y215.711
G01 X347.428 Y220.445
G01 X348.792 Y225.254
G01 X349.918 Y230.125
G01 X350.803 Y235.047
G01 X351.447 Y240.008
G01 X351.846 Y244.997
G01 X352.000 Y250.000
G01 X351.908 Y255.006
G01 X351.571 Y260.004
G01 X350.989 Y264.980
G01 X350.163 Y269.924
G01 X349.095 Y274.822
G01 X347.787 Y279.663
G01 X346.243 Y284.436
G01 X344.467 Y289.129
G01 X342.461 Y293.731
G01 X340.232 Y298.230
G01 X337.783 Y302.615
G01 X335.122 Y306.877
G01 X332.253 Y311.003
G01 X329.185 Y314.986
G01 X325.924 Y318.814
G01 X322.478 Y322.478
G01 X318.856 Y325.971
G01 X315.065 Y329.282
G01 X311.115 Y332.404
G01 X307.015 Y335.330
G01 X302.776 Y338.051
G01 X298.407 Y340.562
G01 X293.918 Y342.857
G01 X289.321 Y344.929
G01 X284.626 Y346.773
G01 X279.845 Y348.385
G01 X274.989 Y349.762
G01 X270.070 Y350.898
G01 X265.099 Y351.792
G01 X260.090 Y352.442
G01 X255.052 Y352.845
G01 X250.000 Y353.000
G01 X244.944 Y352.907
G01 X239.898 Y352.566
G01 X234.873 Y351.978
G01 X229.881 Y351.143
G01 X224.935 Y350.065
G01 X220.046 Y348.744
G01 X215.227 Y347.185
G01 X210.488 Y345.391
G01 X205.842 Y343.365
G01 X201.299 Y341.113
G01 X196.871 Y338.641
G01 X192.568 Y335.953
G01 X188.401 Y333.057
G01 X184.380 Y329.958
G01 X180.515 Y326.665
G01 X176.814 Y323.186
G01 X173.288 Y319.527
G01 X169.945 Y315.699
G01 X166.793 Y311.711
G01 X163.839 Y307.571
G01 X161.091 Y303.290
G01 X158.556 Y298.878
G01 X156.239 Y294.345
G01 X154.147 Y289.703
G01 X152.285 Y284.963
G01 X150.658 Y280.135
G01 X149.268 Y275.232
G01 X148.121 Y270.265
G01 X147.218 Y265.246
G01 X146.563 Y260.188
G01 X146.156 Y255.102
G01 X146.000 Y250.000
G01 X146.094 Y244.895
G01 X146.439 Y239.800
G01 X147.033 Y234.726
G01 X147.876 Y229.686
G01 X148.965 Y224.692
G01 X150.299 Y219.756
G01 X151.873 Y214.890
G01 X153.686 Y210.105
G01 X155.731 Y205.414
G01 X158.005 Y200.827
G01 X160.501 Y196.357
G01 X163.215 Y192.012
G01 X166.140 Y187.805
G01 X169.269 Y183.746
G01 X172.594 Y179.843
G01 X176.107 Y176.107
G01 X179.801 Y172.547
G01 X183.666 Y169.172
G01 X187.694 Y165.990
G01 X191.873 Y163.007
G01 X196.196 Y160.233
G01 X200.651 Y157.674
G01 X205.227 Y155.335
G01 X209.914 Y153.224
G01 X214.700 Y151.344
G01 X219.575 Y149.701
G01 X224.525 Y148.298
G01 X229.540 Y147.140
G01 X234.607 Y146.229
G01 X239.714 Y145.568
G01 X244.849 Y145.158
G01 X250.000 Y145.000
G01 X255.154 Y145.095
G01 X260.298 Y145.443
G01 X265.420 Y146.044
G01 X270.509 Y146.895
G01 X275.551 Y147.995
G01 X280.534 Y149.342
G01 X285.447 Y150.932
G01 X290.277 Y152.762
G01 X295.014 Y154.827
G01 X299.644 Y157.123
G01 X304.158 Y159.644
G01 X308.543 Y162.384
G01 X312.790 Y165.337
G01 X316.889 Y168.496
G01 X320.828 Y171.853
G01 X324.600 Y175.400
G01 X328.193 Y179.130
G01 X331.601 Y183.032
G01 X334.814 Y187.098
G01 X337.824 Y191.318
G01 X340.624 Y195.682
G01 X343.208 Y200.179
G01 X345.569 Y204.799
G01 X347.700 Y209.531
G01 X349.598 Y214.363
G01 X351.256 Y219.284
G01 X352.672 Y224.282
G01 X353.841 Y229.345
G01 X354.760 Y234.460
G01 X355.427 Y239.616
G01 X355.841 Y244.800
G01 X356.000 Y250.000
G01 X355.904 Y255.203
G01 X355.552 Y260.396
G01 X354.945 Y265.567
G01 X354.086 Y270.704
G01 X352.975 Y275.794
G01 X351.615 Y280.825
G01 X350.010 Y285.784
G01 X348.162 Y290.660
G01 X346.077 Y295.441
G01 X343.759 Y300.115
G01 X341.214 Y304.672
G01 X338.448 Y309.099
G01 X335.466 Y313.386
G01 X332.277 Y317.523
G01 X328.888 Y321.500
G01 X325.307 Y325.307
G01 X321.542 Y328.934
G01 X317.603 Y332.374
G01 X313.498 Y335.617
G01 X309.238 Y338.655
G01 X304.832 Y341.482
G01 X300.292 Y344.090
G01 X295.628 Y346.473
G01 X290.851 Y348.624
G01 X285.974 Y350.539
G01 X281.006 Y352.213
G01 X275.961 Y353.642
G01 X270.850 Y354.821
G01 X265.686 Y355.749
G01 X260.482 Y356.423
G01 X255.249 Y356.840
G01 X250.000 Y357.000
G01 X244.748 Y356.902
G01 X239.506 Y356.547
G01 X234.286 Y355.935
G01 X229.101 Y355.067
G01 X223.963 Y353.945
G01 X218.885 Y352.572
G01 X213.879 Y350.951
G01 X208.957 Y349.086
G01 X204.131 Y346.981
G01 X199.413 Y344.641
G01 X194.814 Y342.072
G01 X190.346 Y339.279
G01 X186.018 Y336.270
G01 X181.842 Y333.050
G01 X177.828 Y329.629
G01 X173.986 Y326.014
G01 X170.325 Y322.214
G01 X166.853 Y318.237
G01 X163.580 Y314.094
G01 X160.513 Y309.793
G01 X157.660 Y305.346
G01 X155.028 Y300.764
G01 X152.623 Y296.056
G01 X150.452 Y291.234
G01 X148.519 Y286.310
G01 X146.830 Y281.296
G01 X145.388 Y276.204
G01 X144.198 Y271.045
G01 X143.262 Y265.833
G01 X142.582 Y260.580
G01 X142.161 Y255.298
G01 X142.000 Y250.000
G01 X142.099 Y244.699
G01 X142.458 Y239.408
G01 X143.076 Y234.139
G01 X143.953 Y228.906
G01 X145.085 Y223.720
G01 X146.471 Y218.595
G01 X148.107 Y213.542
G01 X149.990 Y208.575
G01 X152.115 Y203.704
G01 X154.477 Y198.942
G01 X157.070 Y194.300
G01 X159.889 Y189.790
G01 X162.927 Y185.422
G01 X166.177 Y181.208
G01 X169.630 Y177.157
G01 X173.279 Y173.279
G01 X177.115 Y169.584
G01 X181.129 Y166.080
G01 X185.311 Y162.777
G01 X189.651 Y159.682
G01 X194.140 Y156.802
G01 X198.765 Y154.146
G01 X203.517 Y151.719
G01 X208.383 Y149.528
G01 X213.353 Y147.578
G01 X218.413 Y145.873
G01 X223.553 Y144.418
G01 X228.760 Y143.217
G01 X234.020 Y142.272
G01 X239.322 Y141.587
G01 X244.653 Y141.163
G01 X250.000 Y141.000
G01 X255.350 Y141.100
G01 X260.690 Y141.463
G01 X266.007 Y142.087
G01 X271.289 Y142.972
G01 X276.523 Y144.115
G01 X281.695 Y145.514
G01 X286.795 Y147.166
G01 X291.808 Y149.066
G01 X296.724 Y151.211
G01 X301.530 Y153.595
G01 X306.214 Y156.213
G01 X310.765 Y159.058
G01 X315.173 Y162.124
G01 X319.426 Y165.404
G01 X323.515 Y168.889
G01 X327.428 Y172.572
G01 X331.157 Y176.443
G01 X334.693 Y180.494
G01 X338.027 Y184.715
G01 X341.150 Y189.096
G01 X344.055 Y193.625
G01 X346.736 Y198.294
G01 X349.185 Y203.089
G01 X351.396 Y208.000
G01 X353.364 Y213.016
G01 X355.084 Y218.123
G01 X356.552 Y223.310
G01 X357.764 Y228.564
G01 X358.717 Y233.873
G01 X359.408 Y239.224
G01 X359.836 Y244.604
G01 X360.000 Y250.000
G01 X359.899 Y255.399
G01 X359.533 Y260.788
G01 X358.902 Y266.154
G01 X358.009 Y271.484
G01 X356.855 Y276.766
G01 X355.443 Y281.986
G01 X353.776 Y287.132
G01 X351.858 Y292.191
G01 X349.693 Y297.151
G01 X347.287 Y302.001
G01 X344.645 Y306.728
G01 X341.773 Y311.321
G01 X338.679 Y315.769
G01 X335.369 Y320.061
G01 X331.852 Y324.186
G01 X328.135 Y328.135
G01 X324.228 Y331.898
G01 X320.140 Y335.466
G01 X315.881 Y338.830
G01 X311.460 Y341.981
G01 X306.889 Y344.913
G01 X302.178 Y347.618
G01 X297.338 Y350.089
G01 X292.382 Y352.320
G01 X287.321 Y354.305
G01 X282.167 Y356.041
G01 X276.933 Y357.522
G01 X271.631 Y358.745
G01 X266.273 Y359.706
G01 X260.874 Y360.403
G01 X255.445 Y360.835
G01 X250.000 Y361.000
G01 X244.552 Y360.898
G01 X239.114 Y360.528
G01 X233.699 Y359.891
G01 X228.321 Y358.990
G01 X222.991 Y357.825
G01 X217.724 Y356.400
G01 X212.532 Y354.717
G01 X207.426 Y352.782
G01 X202.421 Y350.597
G01 X197.528 Y348.169
G01 X192.758 Y345.503
G01 X188.123 Y342.605
G01 X183.635 Y339.482
G01 X179.305 Y336.142
G01 X175.142 Y332.593
G01 X171.158 Y328.842
G01 X167.361 Y324.900
G01 X163.761 Y320.775
G01 X160.367 Y316.476
G01 X157.187 Y312.016
G01 X154.229 Y307.403
G01 X151.500 Y302.649
G01 X149.007 Y297.766
G01 X146.756 Y292.765
G01 X144.753 Y287.658
G01 X143.002 Y282.457
G01 X141.508 Y277.176
G01 X140.275 Y271.826
G01 X139.305 Y266.420
G01 X138.602 Y260.972
G01 X138.166 Y255.494
G01 X138.000 Y250.000
G01 X138.104 Y244.503
G01 X138.477 Y239.016
G01 X139.119 Y233.552
G01 X140.029 Y228.125
G01 X141.205 Y222.748
G01 X142.643 Y217.434
G01 X144.341 Y212.195
G01 X146.295 Y207.044
G01 X148.499 Y201.994
G01 X150.949 Y197.056
G01 X153.640 Y192.244
G01 X156.564 Y187.568
G01 X159.714 Y183.040
G01 X163.085 Y178.670
G01 X166.666 Y174.471
G01 X170.450 Y170.450
G01 X174.429 Y166.620
G01 X178.591 Y162.988
G01 X182.928 Y159.564
G01 X187.429 Y156.356
G01 X192.083 Y153.372
G01 X196.879 Y150.618
G01 X201.807 Y148.103
G01 X206.852 Y145.833
G01 X212.005 Y143.811
G01 X217.252 Y142.045
G01 X222.581 Y140.538
G01 X227.979 Y139.294
G01 X233.433 Y138.316
G01 X238.930 Y137.606
G01 X244.457 Y137.167
G01 X250.000 Y137.000
G01 X255.546 Y137.105
G01 X261.082 Y137.482
G01 X266.594 Y138.130
G01 X272.070 Y139.049
G01 X277.495 Y140.235
G01 X282.857 Y141.686
G01 X288.142 Y143.400
G01 X293.339 Y145.371
G01 X298.434 Y147.595
G01 X303.415 Y150.067
G01 X308.270 Y152.782
G01 X312.988 Y155.732
G01 X317.556 Y158.911
G01 X321.964 Y162.312
G01 X326.201 Y165.925
G01 X330.257 Y169.743
G01 X334.121 Y173.757
G01 X337.785 Y177.957
G01 X341.239 Y182.332
G01 X344.476 Y186.873
G01 X347.486 Y191.569
G01 X350.263 Y196.408
G01 X352.801 Y201.379
G01 X355.091 Y206.470
G01 X357.130 Y211.668
G01 X358.912 Y216.962
G01 X360.432 Y222.338
G01 X361.687 Y227.784
G01 X362.673 Y233.286
G01 X363.389 Y238.832
G01 X363.831 Y244.408
G01 X364.000 Y250.000
G01 X363.894 Y255.595
G01 X363.513 Y261.180
G01 X362.859 Y266.741
G01 X361.932 Y272.265
G01 X360.735 Y277.738
G01 X359.271 Y283.147
G01 X357.542 Y288.479
G01 X355.553 Y293.722
G01 X353.309 Y298.862
G01 X350.815 Y303.887
G01 X348.076 Y308.784
G01 X345.099 Y313.543
G01 X341.892 Y318.152
G01 X338.461 Y322.598
G01 X334.816 Y326.873
G01 X330.964 Y330.964
G01 X326.914 Y334.862
G01 X322.678 Y338.558
G01 X318.263 Y342.043
G01 X313.682 Y345.307
G01 X308.945 Y348.344
G01 X304.063 Y351.145
G01 X299.049 Y353.705
G01 X293.913 Y356.015
G01 X288.669 Y358.072
G01 X283.328 Y359.869
G01 X277.905 Y361.402
G01 X272.411 Y362.668
G01 X266.860 Y363.663
G01 X261.266 Y364.384
G01 X255.641 Y364.830
G01 X250.000 Y365.000
G01 X244.356 Y364.893
G01 X238.722 Y364.508
G01 X233.112 Y363.848
G01 X227.540 Y362.913
G01 X222.019 Y361.705
G01 X216.563 Y360.228
G01 X211.184 Y358.484
G01 X205.896 Y356.477
G01 X200.711 Y354.213
G01 X195.642 Y351.697
G01 X190.701 Y348.934
G01 X185.901 Y345.931
G01 X181.253 Y342.695
G01 X176.767 Y339.234
G01 X172.456 Y335.557
G01 X168.329 Y331.671
G01 X164.397 Y327.586
G01 X160.669 Y323.312
G01 X157.154 Y318.859
G01 X153.861 Y314.238
G01 X150.798 Y309.459
G01 X147.973 Y304.535
G01 X145.391 Y299.476
G01 X143.061 Y294.296
G01 X140.987 Y289.006
G01 X139.174 Y283.619
G01 X137.628 Y278.148
G01 X136.352 Y272.606
G01 X135.348 Y267.007
G01 X134.621 Y261.364
G01 X134.171 Y255.690
G01 X134.000 Y250.000
G01 X134.109 Y244.307
G01 X134.496 Y238.624
G01 X135.163 Y232.966
G01 X136.106 Y227.345
G01 X137.325 Y221.776
G01 X138.815 Y216.273
G01 X140.575 Y210.847
G01 X142.599 Y205.513
G01 X144.883 Y200.283
G01 X147.422 Y195.171
G01 X150.209 Y190.187
G01 X153.238 Y185.346
G01 X156.502 Y180.657
G01 X159.993 Y176.133
G01 X163.702 Y171.784
G01 X167.622 Y167.622
G01 X171.742 Y163.656
G01 X176.054 Y159.896
G01 X180.545 Y156.351
G01 X185.207 Y153.030
G01 X190.027 Y149.941
G01 X194.994 Y147.091
G01 X200.096 Y144.487
G01 X205.322 Y142.137
G01 X210.658 Y140.045
G01 X216.091 Y138.217
G01 X221.609 Y136.658
G01 X227.199 Y135.371
G01 X232.846 Y134.359
G01 X238.538 Y133.626
G01 X244.261 Y133.172
G01 X250.000 Y133.000
G01 X255.742 Y133.110
G01 X261.474 Y133.501
G01 X267.181 Y134.174
G01 X272.850 Y135.126
G01 X278.467 Y136.355
G01 X284.018 Y137.859
G01 X289.490 Y139.633
G01 X294.870 Y141.675
G01 X300.144 Y143.979
G01 X305.301 Y146.540
G01 X310.327 Y149.351
G01 X315.210 Y152.406
G01 X319.939 Y155.698
G01 X324.502 Y159.220
G01 X328.887 Y162.961
G01 X333.085 Y166.915
G01 X337.085 Y171.071
G01 X340.877 Y175.419
G01 X344.452 Y179.949
G01 X347.802 Y184.651
G01 X350.917 Y189.513
G01 X353.791 Y194.522
G01 X356.416 Y199.669
G01 X358.787 Y204.939
G01 X360.896 Y210.321
G01 X362.740 Y215.801
G01 X364.312 Y221.366
G01 X365.610 Y227.004
G01 X366.630 Y232.700
G01 X367.370 Y238.440
G01 X367.827 Y244.212
G01 X368.000 Y250.000
G01 X367.889 Y255.792
G01 X367.494 Y261.572
G01 X366.816 Y267.328
G01 X365.855 Y273.045
G01 X364.615 Y278.710
G01 X363.098 Y284.308
G01 X361.308 Y289.827
G01 X359.249 Y295.252
G01 X356.925 Y300.572
G01 X354.342 Y305.772
G01 X351.507 Y310.841
G01 X348.425 Y315.766
G01 X345.105 Y320.535
G01 X341.553 Y325.136
G01 X337.780 Y329.559
G01 X333.792 Y333.792
G01 X329.601 Y337.826
G01 X325.215 Y341.650
G01 X320.646 Y345.255
G01 X315.905 Y348.633
G01 X311.002 Y351.775
G01 X305.949 Y354.673
G01 X300.759 Y357.320
G01 X295.444 Y359.711
G01 X290.016 Y361.838
G01 X284.489 Y363.696
G01 X278.877 Y365.282
G01 X273.191 Y366.591
G01 X267.447 Y367.619
G01 X261.658 Y368.365
G01 X255.838 Y368.825
G01 X250.000 Y369.000
G01 X244.159 Y368.888
G01 X238.330 Y368.489
G01 X232.525 Y367.805
G01 X226.760 Y366.836
G01 X221.047 Y365.585
G01 X215.402 Y364.055
G01 X209.836 Y362.250
G01 X204.365 Y360.173
G01 X199.001 Y357.829
G01 X193.756 Y355.224
G01 X188.645 Y352.365
G01 X183.679 Y349.257
G01 X178.870 Y345.908
G01 X174.230 Y342.326
G01 X169.770 Y338.521
G01 X165.501 Y334.499
G01 X161.433 Y330.272
G01 X157.577 Y325.850
G01 X153.941 Y321.242
G01 X150.535 Y316.460
G01 X147.367 Y311.516
G01 X144.445 Y306.420
G01 X141.776 Y301.186
G01 X139.365 Y295.826
G01 X137.221 Y290.353
G01 X135.347 Y284.780
G01 X133.748 Y279.120
G01 X132.428 Y273.386
G01 X131.392 Y267.594
G01 X130.640 Y261.756
G01 X130.176 Y255.887
G01 X130.000 Y250.000
G01 X130.113 Y244.110
G01 X130.516 Y238.232
G01 X131.206 Y232.379
G01 X132.183 Y226.565
G01 X133.445 Y220.804
G01 X134.988 Y215.111
G01 X136.809 Y209.500
G01 X138.903 Y203.982
G01 X141.267 Y198.573
G01 X143.894 Y193.285
G01 X146.778 Y188.131
G01 X149.912 Y183.123
G01 X153.289 Y178.274
G01 X156.901 Y173.595
G01 X160.739 Y169.098
G01 X164.794 Y164.794
G01 X169.056 Y160.692
G01 X173.516 Y156.804
G01 X178.162 Y153.138
G01 X182.984 Y149.704
G01 X187.970 Y146.510
G01 X193.108 Y143.563
G01 X198.386 Y140.872
G01 X203.791 Y138.442
G01 X209.310 Y136.279
G01 X214.930 Y134.390
G01 X220.637 Y132.778
G01 X226.418 Y131.448
G01 X232.259 Y130.402
G01 X238.146 Y129.645
G01 X244.064 Y129.177
G01 X250.000 Y129.000
G01 X255.939 Y129.115
G01 X261.866 Y129.520
G01 X267.768 Y130.217
G01 X273.630 Y131.202
G01 X279.439 Y132.475
G01 X285.179 Y134.031
G01 X290.837 Y135.867
G01 X296.400 Y137.980
G01 X301.854 Y140.363
G01 X307.186 Y143.012
G01 X312.383 Y145.920
G01 X317.432 Y149.080
G01 X322.322 Y152.486
G01 X327.039 Y156.128
G01 X331.573 Y159.998
G01 X335.913 Y164.087
G01 X340.049 Y168.385
G01 X343.969 Y172.882
G01 X347.665 Y177.567
G01 X351.127 Y182.429
G01 X354.348 Y187.456
G01 X357.319 Y192.637
G01 X360.032 Y197.959
G01 X362.482 Y203.408
G01 X364.662 Y208.973
G01 X366.567 Y214.640
G01 X368.192 Y220.394
G01 X369.533 Y226.223
G01 X370.587 Y232.113
G01 X371.350 Y238.048
G01 X371.822 Y244.015
G01 X372.000 Y250.000
G01 X371.884 Y255.988
G01 X371.475 Y261.964
G01 X370.772 Y267.915
G01 X369.778 Y273.825
G01 X368.495 Y279.682
G01 X366.926 Y285.469
G01 X365.074 Y291.174
G01 X362.944 Y296.783
G01 X360.541 Y302.282
G01 X357.870 Y307.658
G01 X354.938 Y312.897
G01 X351.751 Y317.988
G01 X348.318 Y322.917
G01 X344.645 Y327.674
G01 X340.743 Y332.245
G01 X336.621 Y336.621
G01 X332.287 Y340.790
G01 X327.753 Y344.742
G01 X323.029 Y348.468
G01 X318.127 Y351.959
G01 X313.058 Y355.206
G01 X307.834 Y358.201
G01 X302.469 Y360.936
G01 X296.974 Y363.406
G01 X291.364 Y365.604
G01 X285.651 Y367.524
G01 X279.849 Y369.162
G01 X273.972 Y370.514
G01 X268.034 Y371.576
G01 X262.050 Y372.346
G01 X256.034 Y372.821
G01 X250.000 Y373.000
G01 X243.963 Y372.883
G01 X237.938 Y372.470
G01 X231.938 Y371.761
G01 X225.980 Y370.759
G01 X220.075 Y369.465
G01 X214.241 Y367.883
G01 X208.489 Y366.016
G01 X202.834 Y363.868
G01 X197.290 Y361.445
G01 X191.871 Y358.752
G01 X186.589 Y355.795
G01 X181.457 Y352.583
G01 X176.487 Y349.121
G01 X171.692 Y345.418
G01 X167.083 Y341.484
G01 X162.672 Y337.328
G01 X158.469 Y332.959
G01 X154.485 Y328.387
G01 X150.729 Y323.625
G01 X147.210 Y318.682
G01 X143.936 Y313.572
G01 X140.917 Y308.306
G01 X138.160 Y302.897
G01 X135.670 Y297.357
G01 X133.454 Y291.701
G01 X131.519 Y285.941
G01 X129.868 Y280.092
G01 X128.505 Y274.167
G01 X127.435 Y268.181
G01 X126.659 Y262.148
G01 X126.181 Y256.083
G01 X126.000 Y250.000
G01 X126.118 Y243.914
G01 X126.535 Y237.840
G01 X127.249 Y231.792
G01 X128.260 Y225.784
G01 X129.565 Y219.832
G01 X131.160 Y213.950
G01 X133.043 Y208.152
G01 X135.208 Y202.452
G01 X137.651 Y196.863
G01 X140.366 Y191.399
G01 X143.347 Y186.075
G01 X146.586 Y180.901
G01 X150.076 Y175.891
G01 X153.809 Y171.058
G01 X157.775 Y166.412
G01 X161.965 Y161.965
G01 X166.370 Y157.728
G01 X170.978 Y153.712
G01 X175.780 Y149.925
G01 X180.762 Y146.378
G01 X185.914 Y143.079
G01 X191.223 Y140.035
G01 X196.676 Y137.256
G01 X202.260 Y134.746
G01 X207.962 Y132.513
G01 X213.769 Y130.562
G01 X219.665 Y128.898
G01 X225.638 Y127.524
G01 X231.672 Y126.446
G01 X237.754 Y125.664
G01 X243.868 Y125.182
G01 X250.000 Y125.000
G01 X256.135 Y125.119
G01 X262.258 Y125.540
G01 X268.355 Y126.260
G01 X274.411 Y127.279
G01 X280.410 Y128.595
G01 X286.340 Y130.203
G01 X292.185 Y132.101
G01 X297.931 Y134.284
G01 X303.565 Y136.747
G01 X309.072 Y139.484
G01 X314.440 Y142.489
G01 X319.655 Y145.754
G01 X324.704 Y149.273
G01 X329.577 Y153.036
G01 X334.260 Y157.034
G01 X338.742 Y161.258
G01 X343.013 Y165.698
G01 X347.061 Y170.344
G01 X350.878 Y175.184
G01 X354.453 Y180.206
G01 X357.779 Y185.400
G01 X360.846 Y190.751
G01 X363.648 Y196.248
G01 X366.178 Y201.878
G01 X368.429 Y207.626
G01 X370.395 Y213.479
G01 X372.072 Y219.422
G01 X373.456 Y225.443
G01 X374.544 Y231.526
G01 X375.331 Y237.656
G01 X375.817 Y243.819
G01 X376.000 Y250.000
G01 X375.879 Y256.184
G01 X375.455 Y262.356
G01 X374.729 Y268.502
G01 X373.702 Y274.606
G01 X372.376 Y280.653
G01 X370.754 Y286.630
G01 X368.841 Y292.522
G01 X366.640 Y298.314
G01 X364.157 Y303.992
G01 X361.398 Y309.543
G01 X358.369 Y314.954
G01 X355.077 Y320.210
G01 X351.530 Y325.300
G01 X347.738 Y330.211
G01 X343.707 Y334.931
G01 X339.449 Y339.449
G01 X334.973 Y343.753
G01 X330.290 Y347.834
G01 X325.412 Y351.681
G01 X320.349 Y355.285
G01 X315.114 Y358.637
G01 X309.720 Y361.728
G01 X304.179 Y364.552
G01 X298.505 Y367.102
G01 X292.711 Y369.370
G01 X286.812 Y371.352
G01 X280.821 Y373.042
G01 X274.752 Y374.437
G01 X268.621 Y375.533
G01 X262.442 Y376.326
G01 X256.230 Y376.816
G01 X250.000 Y377.000
G01 X243.767 Y376.878
G01 X237.546 Y376.451
G01 X231.351 Y375.718
G01 X225.199 Y374.682
G01 X219.104 Y373.346
G01 X213.079 Y371.711
G01 X207.141 Y369.782
G01 X201.304 Y367.564
G01 X195.580 Y365.061
G01 X189.985 Y362.280
G01 X184.532 Y359.226
G01 X179.234 Y355.908
G01 X174.104 Y352.334
G01 X169.155 Y348.511
G01 X164.397 Y344.448
G01 X159.844 Y340.156
G01 X155.506 Y335.645
G01 X151.393 Y330.925
G01 X147.516 Y326.008
G01 X143.884 Y320.905
G01 X140.506 Y315.628
G01 X137.390 Y310.191
G01 X134.544 Y304.607
G01 X131.974 Y298.888
G01 X129.688 Y293.048
G01 X127.691 Y287.102
G01 X125.988 Y281.063
G01 X124.582 Y274.947
G01 X123.478 Y268.768
G01 X122.679 Y262.540
G01 X122.185 Y256.279
G01 X122.000 Y250.000
G01 X122.123 Y243.718
G01 X122.554 Y237.448
G01 X123.293 Y231.205
G01 X124.337 Y225.004
G01 X125.684 Y218.861
G01 X127.332 Y212.789
G01 X129.276 Y206.804
G01 X131.512 Y200.921
G01 X134.035 Y195.153
G01 X136.838 Y189.514
G01 X139.916 Y184.018
G01 X143.260 Y178.679
G01 X146.863 Y173.508
G01 X150.716 Y168.520
G01 X154.811 Y163.726
G01 X159.137 Y159.137
G01 X163.684 Y154.765
G01 X168.441 Y150.620
G01 X173.397 Y146.713
G01 X178.540 Y143.052
G01 X183.857 Y139.648
G01 X189.337 Y136.508
G01 X194.966 Y133.640
G01 X200.730 Y131.051
G01 X206.615 Y128.747
G01 X212.608 Y126.734
G01 X218.694 Y125.018
G01 X224.858 Y123.601
G01 X231.086 Y122.489
G01 X237.362 Y121.683
G01 X243.672 Y121.187
G01 X250.000 Y121.000
G01 X256.331 Y121.124
G01 X262.650 Y121.559
G01 X268.942 Y122.303
G01 X275.191 Y123.356
G01 X281.382 Y124.714
G01 X287.501 Y126.375
G01 X293.532 Y128.335
G01 X299.462 Y130.589
G01 X305.275 Y133.131
G01 X310.957 Y135.957
G01 X316.496 Y139.058
G01 X321.877 Y142.429
G01 X327.087 Y146.060
G01 X332.114 Y149.943
G01 X336.946 Y154.070
G01 X341.570 Y158.430
G01 X345.976 Y163.012
G01 X350.153 Y167.806
G01 X354.091 Y172.801
G01 X357.779 Y177.984
G01 X361.210 Y183.343
G01 X364.374 Y188.866
G01 X367.264 Y194.538
G01 X369.873 Y200.347
G01 X372.195 Y206.278
G01 X374.223 Y212.317
G01 X375.952 Y218.451
G01 X377.379 Y224.663
G01 X378.500 Y230.939
G01 X379.312 Y237.264
G01 X379.812 Y243.623
G01 X380.000 Y250.000
G01 X379.875 Y256.380
G01 X379.436 Y262.748
G01 X378.686 Y269.089
G01 X377.625 Y275.386
G01 X376.256 Y281.625
G01 X374.582 Y287.791
G01 X372.607 Y293.869
G01 X370.335 Y299.845
G01 X367.773 Y305.702
G01 X364.925 Y311.429
G01 X361.800 Y317.010
G01 X358.403 Y322.432
G01 X354.743 Y327.683
G01 X350.830 Y332.749
G01 X346.671 Y337.617
G01 X342.277 Y342.277
G01 X337.659 Y346.717
G01 X332.828 Y350.926
G01 X327.795 Y354.894
G01 X322.571 Y358.611
G01 X317.171 Y362.068
G01 X311.606 Y365.256
G01 X305.889 Y368.168
G01 X300.036 Y370.797
G01 X294.059 Y373.136
G01 X287.973 Y375.180
G01 X281.792 Y376.923
G01 X275.532 Y378.360
G01 X269.208 Y379.489
G01 X262.834 Y380.307
G01 X256.426 Y380.811
G01 X250.000 Y381.000
G01 X243.571 Y380.873
G01 X237.154 Y380.431
G01 X230.765 Y379.675
G01 X224.419 Y378.605
G01 X218.132 Y377.226
G01 X211.918 Y375.539
G01 X205.794 Y373.548
G01 X199.773 Y371.259
G01 X193.870 Y368.677
G01 X188.100 Y365.807
G01 X182.476 Y362.657
G01 X177.012 Y359.234
G01 X171.721 Y355.546
G01 X166.617 Y351.603
G01 X161.711 Y347.412
G01 X157.015 Y342.985
G01 X152.542 Y338.331
G01 X148.301 Y333.462
G01 X144.303 Y328.390
G01 X140.558 Y323.127
G01 X137.075 Y317.685
G01 X133.862 Y312.077
G01 X130.928 Y306.317
G01 X128.279 Y300.419
G01 X125.922 Y294.396
G01 X123.863 Y288.263
G01 X122.107 Y282.035
G01 X120.659 Y275.728
G01 X119.521 Y269.355
G01 X118.698 Y262.932
G01 X118.190 Y256.475
G01 X118.000 Y250.000
G01 X118.128 Y243.522
G01 X118.573 Y237.056
G01 X119.336 Y230.618
G01 X120.414 Y224.224
G01 X121.804 Y217.889
G01 X123.504 Y211.628
G01 X125.510 Y205.457
G01 X127.817 Y199.390
G01 X130.419 Y193.442
G01 X133.311 Y187.628
G01 X136.485 Y181.962
G01 X139.934 Y176.456
G01 X143.650 Y171.126
G01 X147.624 Y165.983
G01 X151.847 Y161.039
G01 X156.308 Y156.308
G01 X160.997 Y151.801
G01 X165.903 Y147.528
G01 X171.014 Y143.500
G01 X176.317 Y139.726
G01 X181.801 Y136.217
G01 X187.452 Y132.980
G01 X193.255 Y130.024
G01 X199.199 Y127.355
G01 X205.267 Y124.981
G01 X211.447 Y122.906
G01 X217.722 Y121.137
G01 X224.077 Y119.678
G01 X230.499 Y118.532
G01 X236.970 Y117.703
G01 X243.476 Y117.191
G01 X250.000 Y117.000
G01 X256.528 Y117.129
G01 X263.042 Y117.578
G01 X269.529 Y118.347
G01 X275.971 Y119.433
G01 X282.354 Y120.834
G01 X288.662 Y122.548
G01 X294.880 Y124.569
G01 X300.993 Y126.893
G01 X306.985 Y129.515
G01 X312.843 Y132.429
G01 X318.552 Y135.627
G01 X324.099 Y139.103
G01 X329.470 Y142.847
G01 X334.652 Y146.851
G01 X339.632 Y151.106
G01 X344.399 Y155.601
G01 X348.940 Y160.326
G01 X353.245 Y165.269
G01 X357.304 Y170.418
G01 X361.105 Y175.762
G01 X364.641 Y181.287
G01 X367.902 Y186.980
G01 X370.880 Y192.828
G01 X373.569 Y198.816
G01 X375.961 Y204.930
G01 X378.051 Y211.156
G01 X379.833 Y217.479
G01 X381.303 Y223.882
G01 X382.457 Y230.352
G01 X383.293 Y236.872
G01 X383.807 Y243.426
G01 X384.000 Y250.000
G01 X383.870 Y256.577
G01 X383.417 Y263.140
G01 X382.642 Y269.676
G01 X381.548 Y276.166
G01 X380.136 Y282.597
G01 X378.409 Y288.953
G01 X376.373 Y295.217
G01 X374.031 Y301.375
G01 X371.389 Y307.413
G01 X368.453 Y313.314
G01 X365.230 Y319.066
G01 X361.729 Y324.655
G01 X357.956 Y330.066
G01 X353.922 Y335.286
G01 X349.635 Y340.304
G01 X345.106 Y345.106
G01 X340.346 Y349.681
G01 X335.366 Y354.018
G01 X330.177 Y358.107
G01 X324.794 Y361.937
G01 X319.227 Y365.499
G01 X313.491 Y368.784
G01 X307.600 Y371.784
G01 X301.567 Y374.493
G01 X295.406 Y376.902
G01 X289.134 Y379.008
G01 X282.764 Y380.803
G01 X276.313 Y382.283
G01 X269.795 Y383.446
G01 X263.226 Y384.288
G01 X256.623 Y384.806
G01 X250.000 Y385.000
G01 X243.374 Y384.869
G01 X236.762 Y384.412
G01 X230.178 Y383.632
G01 X223.638 Y382.529
G01 X217.160 Y381.106
G01 X210.757 Y379.366
G01 X204.446 Y377.314
G01 X198.242 Y374.955
G01 X192.160 Y372.293
G01 X186.214 Y369.335
G01 X180.419 Y366.088
G01 X174.790 Y362.560
G01 X169.339 Y358.759
G01 X164.079 Y354.695
G01 X159.025 Y350.376
G01 X154.187 Y345.813
G01 X149.578 Y341.017
G01 X145.209 Y336.000
G01 X141.090 Y330.773
G01 X137.232 Y325.349
G01 X133.644 Y319.741
G01 X130.334 Y313.963
G01 X127.312 Y308.027
G01 X124.583 Y301.949
G01 X122.156 Y295.743
G01 X120.036 Y289.424
G01 X118.227 Y283.007
G01 X116.736 Y276.508
G01 X115.565 Y269.942
G01 X114.717 Y263.324
G01 X114.195 Y256.672
G01 X114.000 Y250.000
G01 X114.133 Y243.325
G01 X114.593 Y236.664
G01 X115.379 Y230.031
G01 X116.491 Y223.443
G01 X117.924 Y216.917
G01 X119.677 Y210.467
G01 X121.744 Y204.109
G01 X124.121 Y197.859
G01 X126.803 Y191.732
G01 X129.783 Y185.743
G01 X133.054 Y179.905
G01 X136.608 Y174.234
G01 X140.437 Y168.743
G01 X144.532 Y163.445
G01 X148.883 Y158.353
G01 X153.480 Y153.480
G01 X158.311 Y148.837
G01 X163.366 Y144.436
G01 X168.631 Y140.287
G01 X174.095 Y136.400
G01 X179.745 Y132.786
G01 X185.566 Y129.452
G01 X191.545 Y126.408
G01 X197.668 Y123.659
G01 X203.920 Y121.214
G01 X210.285 Y119.079
G01 X216.750 Y117.257
G01 X223.297 Y115.755
G01 X229.912 Y114.576
G01 X236.578 Y113.722
G01 X243.279 Y113.196
G01 X250.000 Y113.000
G01 X256.724 Y113.134
G01 X263.434 Y113.597
G01 X270.116 Y114.390
G01 X276.752 Y115.510
G01 X283.326 Y116.954
G01 X289.823 Y118.720
G01 X296.228 Y120.803
G01 X302.523 Y123.198
G01 X308.695 Y125.899
G01 X314.729 Y128.901
G01 X320.609 Y132.196
G01 X326.321 Y135.777
G01 X331.853 Y139.634
G01 X337.189 Y143.759
G01 X342.318 Y148.142
G01 X347.227 Y152.773
G01 X351.904 Y157.640
G01 X356.337 Y162.731
G01 X360.516 Y168.035
G01 X364.431 Y173.540
G01 X368.072 Y179.231
G01 X371.430 Y185.095
G01 X374.496 Y191.118
G01 X377.264 Y197.285
G01 X379.727 Y203.583
G01 X381.878 Y209.995
G01 X383.713 Y216.507
G01 X385.226 Y223.102
G01 X386.414 Y229.765
G01 X387.273 Y236.480
G01 X387.803 Y243.230
G01 X388.000 Y250.000
G01 X387.865 Y256.773
G01 X387.398 Y263.532
G01 X386.599 Y270.263
G01 X385.471 Y276.947
G01 X384.016 Y283.569
G01 X382.237 Y290.114
G01 X380.139 Y296.564
G01 X377.726 Y302.906
G01 X375.005 Y309.123
G01 X371.981 Y315.200
G01 X368.661 Y321.123
G01 X365.055 Y326.877
G01 X361.169 Y332.449
G01 X357.014 Y337.824
G01 X352.599 Y342.990
G01 X347.934 Y347.934
G01 X343.032 Y352.645
G01 X337.903 Y357.110
G01 X332.560 Y361.320
G01 X327.016 Y365.262
G01 X321.284 Y368.929
G01 X315.377 Y372.311
G01 X309.310 Y375.400
G01 X303.097 Y378.188
G01 X296.754 Y380.669
G01 X290.295 Y382.835
G01 X283.736 Y384.683
G01 X277.093 Y386.207
G01 X270.382 Y387.403
G01 X263.618 Y388.268
G01 X256.819 Y388.801
G01 X250.000 Y389.000
G01 X243.178 Y388.864
G01 X236.369 Y388.393
G01 X229.591 Y387.588
G01 X222.858 Y386.452
G01 X216.188 Y384.986
G01 X209.596 Y383.194
G01 X203.099 Y381.081
G01 X196.711 Y378.650
G01 X190.450 Y375.909
G01 X184.329 Y372.863
G01 X178.363 Y369.519
G01 X172.567 Y365.886
G01 X166.956 Y361.972
G01 X161.542 Y357.787
G01 X156.339 Y353.340
G01 X151.359 Y348.641
G01 X146.614 Y343.703
G01 X142.117 Y338.538
G01 X137.877 Y333.156
G01 X133.906 Y327.571
G01 X130.213 Y321.798
G01 X126.807 Y315.848
G01 X123.696 Y309.737
G01 X120.888 Y303.480
G01 X118.390 Y297.091
G01 X116.208 Y290.585
G01 X114.347 Y283.979
G01 X112.813 Y277.288
G01 X111.608 Y270.529
G01 X110.736 Y263.716
G01 X110.200 Y256.868
G01 X110.000 Y250.000
G01 X110.137 Y243.129
G01 X110.612 Y236.271
G01 X111.423 Y229.444
G01 X112.567 Y222.663
G01 X114.044 Y215.945
G01 X115.849 Y209.306
G01 X117.978 Y202.762
G01 X120.426 Y196.329
G01 X123.187 Y190.022
G01 X126.255 Y183.857
G01 X129.623 Y177.849
G01 X133.282 Y172.012
G01 X137.225 Y166.360
G01 X141.440 Y160.907
G01 X145.920 Y155.667
G01 X150.651 Y150.651
G01 X155.625 Y145.873
G01 X160.828 Y141.344
G01 X166.248 Y137.074
G01 X171.873 Y133.075
G01 X177.688 Y129.355
G01 X183.680 Y125.925
G01 X189.835 Y122.792
G01 X196.137 Y119.964
G01 X202.572 Y117.448
G01 X209.124 Y115.251
G01 X215.778 Y113.377
G01 X222.517 Y111.832
G01 X229.325 Y110.619
G01 X236.186 Y109.741
G01 X243.083 Y109.201
G01 X250.000 Y109.000
G01 X256.920 Y109.139
G01 X263.827 Y109.617
G01 X270.703 Y110.433
G01 X277.532 Y111.587
G01 X284.298 Y113.074
G01 X290.985 Y114.892
G01 X297.575 Y117.036
G01 X304.054 Y119.502
G01 X310.406 Y122.283
G01 X316.614 Y125.374
G01 X322.665 Y128.765
G01 X328.544 Y132.451
G01 X334.236 Y136.421
G01 X339.727 Y140.667
G01 X345.005 Y145.179
G01 X350.056 Y149.944
G01 X354.868 Y154.953
G01 X359.429 Y160.194
G01 X363.729 Y165.653
G01 X367.757 Y171.317
G01 X371.503 Y177.174
G01 X374.957 Y183.209
G01 X378.112 Y189.407
G01 X380.960 Y195.755
G01 X383.493 Y202.235
G01 X385.706 Y208.834
G01 X387.593 Y215.535
G01 X389.149 Y222.322
G01 X390.370 Y229.178
G01 X391.254 Y236.088
G01 X391.798 Y243.034
G01 X392.000 Y250.000
G01 X391.860 Y256.969
G01 X391.378 Y263.925
G01 X390.556 Y270.849
G01 X389.394 Y277.727
G01 X387.896 Y284.541
G01 X386.065 Y291.275
G01 X383.905 Y297.912
G01 X381.422 Y304.437
G01 X378.621 Y310.833
G01 X375.508 Y317.086
G01 X372.092 Y323.179
G01 X368.380 Y329.099
G01 X364.382 Y334.831
G01 X360.106 Y340.361
G01 X355.562 Y345.676
G01 X350.763 Y350.763
G01 X345.718 Y355.609
G01 X340.441 Y360.202
G01 X334.943 Y364.532
G01 X329.238 Y368.588
G01 X323.340 Y372.360
G01 X317.262 Y375.839
G01 X311.020 Y379.016
G01 X304.628 Y381.884
G01 X298.102 Y384.435
G01 X291.456 Y386.663
G01 X284.708 Y388.563
G01 X277.874 Y390.130
G01 X270.969 Y391.360
G01 X264.010 Y392.249
G01 X257.015 Y392.797
G01 X250.000 Y393.000
G01 X242.982 Y392.859
G01 X235.977 Y392.374
G01 X229.004 Y391.545
G01 X222.078 Y390.375
G01 X215.216 Y388.866
G01 X208.435 Y387.022
G01 X201.751 Y384.847
G01 X195.181 Y382.346
G01 X188.739 Y379.525
G01 X182.443 Y376.390
G01 X176.307 Y372.950
G01 X170.345 Y369.212
G01 X164.573 Y365.185
G01 X159.004 Y360.879
G01 X153.652 Y356.303
G01 X148.530 Y351.470
G01 X143.650 Y346.390
G01 X139.025 Y341.075
G01 X134.664 Y335.539
G01 X130.580 Y329.794
G01 X126.782 Y323.854
G01 X123.279 Y317.734
G01 X120.080 Y311.448
G01 X117.192 Y305.011
G01 X114.624 Y298.438
G01 X112.380 Y291.747
G01 X110.467 Y284.951
G01 X108.890 Y278.069
G01 X107.651 Y271.115
G01 X106.756 Y264.108
G01 X106.205 Y257.064
G01 X106.000 Y250.000
G01 X106.142 Y242.933
G01 X106.631 Y235.879
G01 X107.466 Y228.857
G01 X108.644 Y221.883
G01 X110.164 Y214.973
G01 X112.021 Y208.145
G01 X114.212 Y201.414
G01 X116.730 Y194.798
G01 X119.571 Y188.312
G01 X122.728 Y181.972
G01 X126.192 Y175.792
G01 X129.957 Y169.790
G01 X134.012 Y163.977
G01 X138.348 Y158.370
G01 X142.956 Y152.981
G01 X147.823 Y147.823
G01 X152.939 Y142.909
G01 X158.291 Y138.252
G01 X163.866 Y133.861
G01 X169.651 Y129.749
G01 X175.632 Y125.924
G01 X181.795 Y122.397
G01 X188.125 Y119.176
G01 X194.607 Y116.268
G01 X201.225 Y113.682
