;  Created by Sandify
;  https://sandify.org
;  Version: 0.2.6
;
;  Machine type: Rectangular
;    Min X (mm): 0
;    Max X (mm): 500
;    Min Y (mm): 0
;    Max Y (mm): 500
;  Content type: shape
;  Layer:
;    Shape: FileImport
;    Name: Spiral2.thr
;    From file:: Spiral2.thr
;    Aspect Ratio: true
;    Comments: 
;    Visible: true
;    Initial width: 10
;    Initial height: 10
;    X offset: 0
;    Y offset: 0
;    Rotate (degrees): 0
;    Reverse path: false
;    Fine tuning:
;      Connect to next layer: line
;      Draw portion of path (%): 100
;      Backtrack at end (%): 0
;      Rotate starting point (%): 0
;  Reverse export path: false
;
; File name: 'spiral2'
; File type: gcode
;

G01 X250.000 Y250.000
G01 X249.999 Y250.029
G01 X249.994 Y250.058
G01 X249.987 Y250.087
G01 X249.977 Y250.115
G01 X249.964 Y250.142
G01 X249.949 Y250.168
G01 X249.931 Y250.193
G01 X249.910 Y250.217
G01 X249.898 Y250.228
G01 X249.906 Y250.242
G01 X249.915 Y250.254
G01 X249.926 Y250.267
G01 X249.937 Y250.279
G01 X249.949 Y250.291
G01 X249.962 Y250.302
G01 X249.976 Y250.312
G01 X249.992 Y250.322
G01 X250.008 Y250.331
G01 X250.024 Y250.340
G01 X250.042 Y250.347
G01 X250.061 Y250.353
G01 X250.080 Y250.359
G01 X250.100 Y250.363
G01 X250.108 Y250.365
G01 X250.174 Y250.498
G01 X250.254 Y250.625
G01 X250.347 Y250.745
G01 X250.380 Y250.784
G01 X250.425 Y250.777
G01 X250.470 Y250.767
G01 X250.515 Y250.755
G01 X250.560 Y250.740
G01 X250.605 Y250.722
G01 X250.649 Y250.702
G01 X250.693 Y250.679
G01 X250.736 Y250.654
G01 X250.778 Y250.626
G01 X250.819 Y250.595
G01 X250.837 Y250.581
G01 X250.974 Y250.607
G01 X251.115 Y250.621
G01 X251.260 Y250.623
G01 X251.407 Y250.612
G01 X251.556 Y250.587
G01 X251.587 Y250.581
G01 X251.616 Y250.503
G01 X251.641 Y250.423
G01 X251.662 Y250.343
G01 X251.679 Y250.261
G01 X251.693 Y250.179
G01 X251.702 Y250.096
G01 X251.707 Y250.012
G01 X251.708 Y249.928
G01 X251.705 Y249.844
G01 X251.704 Y249.840
G01 X251.807 Y249.740
G01 X251.903 Y249.630
G01 X251.993 Y249.510
G01 X252.075 Y249.381
G01 X252.149 Y249.242
G01 X252.214 Y249.094
G01 X252.249 Y249.001
G01 X252.175 Y248.903
G01 X252.097 Y248.810
G01 X252.015 Y248.722
G01 X251.929 Y248.639
G01 X251.840 Y248.562
G01 X251.748 Y248.490
G01 X251.654 Y248.423
G01 X251.557 Y248.362
G01 X251.506 Y248.332
G01 X251.480 Y248.189
G01 X251.444 Y248.045
G01 X251.397 Y247.900
G01 X251.339 Y247.755
G01 X251.271 Y247.611
G01 X251.191 Y247.469
G01 X251.100 Y247.329
G01 X250.999 Y247.192
G01 X250.997 Y247.190
G01 X250.842 Y247.198
G01 X250.690 Y247.215
G01 X250.542 Y247.239
G01 X250.398 Y247.272
G01 X250.258 Y247.311
G01 X250.123 Y247.358
G01 X249.993 Y247.411
G01 X249.869 Y247.471
G01 X249.790 Y247.514
G01 X249.659 Y247.454
G01 X249.521 Y247.401
G01 X249.377 Y247.356
G01 X249.227 Y247.319
G01 X249.073 Y247.290
G01 X248.914 Y247.271
G01 X248.751 Y247.260
G01 X248.584 Y247.259
G01 X248.414 Y247.268
G01 X248.309 Y247.279
G01 X248.218 Y247.424
G01 X248.137 Y247.571
G01 X248.066 Y247.720
G01 X248.006 Y247.870
G01 X247.955 Y248.020
G01 X247.914 Y248.170
G01 X247.883 Y248.319
G01 X247.861 Y248.467
G01 X247.848 Y248.612
G01 X247.845 Y248.705
G01 X247.719 Y248.778
G01 X247.596 Y248.860
G01 X247.475 Y248.951
G01 X247.357 Y249.052
G01 X247.244 Y249.161
G01 X247.135 Y249.279
G01 X247.031 Y249.406
G01 X246.933 Y249.542
G01 X246.841 Y249.686
G01 X246.756 Y249.837
G01 X246.678 Y249.997
G01 X246.674 Y250.006
G01 X246.742 Y250.166
G01 X246.818 Y250.319
G01 X246.901 Y250.465
G01 X246.990 Y250.604
G01 X247.085 Y250.736
G01 X247.186 Y250.859
G01 X247.292 Y250.974
G01 X247.402 Y251.082
G01 X247.516 Y251.180
G01 X247.633 Y251.270
G01 X247.753 Y251.352
G01 X247.775 Y251.366
G01 X247.763 Y251.530
G01 X247.761 Y251.698
G01 X247.770 Y251.870
G01 X247.792 Y252.045
G01 X247.825 Y252.222
G01 X247.870 Y252.401
G01 X247.928 Y252.580
G01 X247.999 Y252.760
G01 X248.082 Y252.938
G01 X248.178 Y253.115
G01 X248.287 Y253.289
G01 X248.293 Y253.298
G01 X248.479 Y253.330
G01 X248.664 Y253.351
G01 X248.847 Y253.363
G01 X249.028 Y253.365
G01 X249.206 Y253.357
G01 X249.381 Y253.340
G01 X249.553 Y253.314
G01 X249.721 Y253.279
G01 X249.884 Y253.236
G01 X250.042 Y253.185
G01 X250.195 Y253.126
G01 X250.282 Y253.089
G01 X250.453 Y253.213
G01 X250.637 Y253.327
G01 X250.833 Y253.430
G01 X251.041 Y253.522
G01 X251.260 Y253.602
G01 X251.489 Y253.668
G01 X251.727 Y253.720
G01 X251.974 Y253.757
G01 X252.228 Y253.778
G01 X252.422 Y253.784
G01 X252.571 Y253.614
G01 X252.710 Y253.438
G01 X252.837 Y253.257
G01 X252.954 Y253.072
G01 X253.059 Y252.884
G01 X253.153 Y252.693
G01 X253.235 Y252.500
G01 X253.307 Y252.305
G01 X253.367 Y252.109
G01 X253.416 Y251.913
G01 X253.443 Y251.779
G01 X253.681 Y251.678
G01 X253.916 Y251.559
G01 X254.148 Y251.419
G01 X254.376 Y251.261
G01 X254.597 Y251.084
G01 X254.811 Y250.888
G01 X255.017 Y250.673
G01 X255.213 Y250.440
G01 X255.386 Y250.206
G01 X255.307 Y249.942
G01 X255.215 Y249.687
G01 X255.110 Y249.441
G01 X254.995 Y249.204
G01 X254.868 Y248.977
G01 X254.732 Y248.760
G01 X254.586 Y248.554
G01 X254.432 Y248.360
G01 X254.269 Y248.177
G01 X254.136 Y248.041
G01 X254.181 Y247.762
G01 X254.209 Y247.474
G01 X254.218 Y247.178
G01 X254.208 Y246.876
G01 X254.177 Y246.568
G01 X254.127 Y246.255
G01 X254.056 Y245.940
G01 X253.963 Y245.623
G01 X253.849 Y245.306
G01 X253.544 Y245.217
G01 X253.240 Y245.147
G01 X252.937 Y245.095
G01 X252.638 Y245.060
G01 X252.342 Y245.043
G01 X252.051 Y245.043
G01 X251.766 Y245.059
G01 X251.487 Y245.091
G01 X251.216 Y245.138
G01 X251.103 Y245.162
G01 X250.890 Y244.967
G01 X250.660 Y244.782
G01 X250.415 Y244.607
G01 X250.154 Y244.444
G01 X249.878 Y244.294
G01 X249.588 Y244.158
G01 X249.284 Y244.037
G01 X248.967 Y243.933
G01 X248.638 Y243.845
G01 X248.430 Y243.800
G01 X248.168 Y244.019
G01 X247.925 Y244.248
G01 X247.699 Y244.487
G01 X247.492 Y244.733
G01 X247.303 Y244.986
G01 X247.133 Y245.245
G01 X246.981 Y245.508
G01 X246.848 Y245.774
G01 X246.734 Y246.042
G01 X246.666 Y246.227
G01 X246.386 Y246.294
G01 X246.104 Y246.379
G01 X245.823 Y246.483
G01 X245.542 Y246.606
G01 X245.264 Y246.748
G01 X244.989 Y246.910
G01 X244.720 Y247.091
G01 X244.456 Y247.292
G01 X244.199 Y247.511
G01 X243.951 Y247.749
G01 X243.852 Y247.852
G01 X243.887 Y248.196
G01 X243.941 Y248.531
G01 X244.013 Y248.856
G01 X244.102 Y249.170
G01 X244.207 Y249.473
G01 X244.327 Y249.764
G01 X244.461 Y250.042
G01 X244.609 Y250.306
G01 X244.768 Y250.555
G01 X244.939 Y250.790
G01 X245.016 Y250.886
G01 X244.910 Y251.165
G01 X244.820 Y251.457
G01 X244.747 Y251.760
G01 X244.691 Y252.074
G01 X244.654 Y252.397
G01 X244.636 Y252.728
G01 X244.638 Y253.068
G01 X244.660 Y253.413
G01 X244.704 Y253.763
G01 X244.770 Y254.117
G01 X244.833 Y254.381
G01 X245.146 Y254.544
G01 X245.462 Y254.687
G01 X245.780 Y254.809
G01 X246.099 Y254.912
G01 X246.418 Y254.996
G01 X246.735 Y255.060
G01 X247.050 Y255.106
G01 X247.362 Y255.133
G01 X247.669 Y255.142
G01 X247.970 Y255.134
G01 X248.257 Y255.109
G01 X248.455 Y255.379
G01 X248.675 Y255.640
G01 X248.918 Y255.893
G01 X249.182 Y256.135
G01 X249.468 Y256.365
G01 X249.774 Y256.581
G01 X250.100 Y256.782
G01 X250.445 Y256.966
G01 X250.809 Y257.132
G01 X251.190 Y257.279
G01 X251.290 Y257.313
G01 X251.620 Y257.121
G01 X251.935 Y256.915
G01 X252.233 Y256.695
G01 X252.514 Y256.463
G01 X252.778 Y256.219
G01 X253.024 Y255.966
G01 X253.252 Y255.703
G01 X253.462 Y255.433
G01 X253.653 Y255.156
G01 X253.826 Y254.874
G01 X253.942 Y254.662
G01 X254.324 Y254.632
G01 X254.713 Y254.576
G01 X255.105 Y254.492
G01 X255.501 Y254.381
G01 X255.897 Y254.241
G01 X256.293 Y254.072
G01 X256.686 Y253.875
G01 X257.074 Y253.648
G01 X257.455 Y253.393
G01 X257.676 Y253.228
G01 X257.691 Y252.799
G01 X257.683 Y252.376
G01 X257.652 Y251.961
G01 X257.599 Y251.554
G01 X257.525 Y251.158
G01 X257.430 Y250.772
G01 X257.317 Y250.399
G01 X257.185 Y250.039
G01 X257.035 Y249.692
G01 X256.869 Y249.361
G01 X256.845 Y249.316
G01 X257.039 Y248.945
G01 X257.214 Y248.554
G01 X257.366 Y248.143
G01 X257.495 Y247.714
G01 X257.598 Y247.269
G01 X257.676 Y246.807
G01 X257.726 Y246.332
G01 X257.748 Y245.844
G01 X257.739 Y245.346
G01 X257.728 Y245.159
G01 X257.336 Y244.887
G01 X256.936 Y244.641
G01 X256.529 Y244.423
G01 X256.119 Y244.231
G01 X255.705 Y244.066
G01 X255.290 Y243.927
G01 X254.876 Y243.814
G01 X254.464 Y243.727
G01 X254.055 Y243.665
G01 X253.761 Y243.635
G01 X253.517 Y243.320
G01 X253.251 Y243.013
G01 X252.963 Y242.717
G01 X252.654 Y242.433
G01 X252.324 Y242.161
G01 X252.170 Y242.044
G01 X251.844 Y241.640
G01 X251.485 Y241.250
G01 X251.091 Y240.875
G01 X250.664 Y240.519
G01 X250.579 Y240.453
G01 X250.106 Y240.727
G01 X249.662 Y241.024
G01 X249.247 Y241.341
G01 X248.863 Y241.677
G01 X248.758 Y241.776
G01 X248.384 Y241.985
G01 X248.027 Y242.210
G01 X247.689 Y242.451
G01 X247.369 Y242.705
G01 X247.068 Y242.973
G01 X246.938 Y243.099
G01 X246.539 Y243.129
G01 X246.135 Y243.183
G01 X245.729 Y243.260
G01 X245.321 Y243.361
G01 X244.913 Y243.486
G01 X244.615 Y243.592
G01 X244.101 Y243.642
G01 X243.578 Y243.727
G01 X243.051 Y243.848
G01 X242.520 Y244.006
G01 X242.292 Y244.086
G01 X242.261 Y244.644
G01 X242.265 Y245.191
G01 X242.304 Y245.724
G01 X242.376 Y246.241
G01 X242.416 Y246.458
G01 X242.384 Y246.888
G01 X242.375 Y247.313
G01 X242.390 Y247.732
G01 X242.426 Y248.142
G01 X242.485 Y248.543
G01 X242.541 Y248.830
G01 X242.321 Y249.179
G01 X242.118 Y249.547
G01 X241.934 Y249.932
G01 X241.768 Y250.335
G01 X241.623 Y250.754
G01 X241.500 Y251.188
G01 X241.400 Y251.636
G01 X241.346 Y251.942
G01 X241.108 Y252.459
G01 X240.902 Y253.004
G01 X240.749 Y253.498
G01 X241.170 Y253.844
G01 X241.602 Y254.157
G01 X242.043 Y254.438
G01 X242.490 Y254.685
G01 X242.943 Y254.900
G01 X243.397 Y255.082
G01 X243.635 Y255.164
G01 X243.976 Y255.399
G01 X244.324 Y255.613
G01 X244.678 Y255.807
G01 X245.037 Y255.979
G01 X245.079 Y255.998
G01 X245.260 Y256.393
G01 X245.468 Y256.784
G01 X245.703 Y257.170
G01 X245.966 Y257.549
G01 X246.255 Y257.919
G01 X246.572 Y258.278
G01 X246.915 Y258.625
G01 X247.136 Y258.829
G01 X247.467 Y259.350
G01 X247.842 Y259.859
G01 X248.165 Y260.245
G01 X248.702 Y260.074
G01 X249.217 Y259.875
G01 X249.710 Y259.651
G01 X250.179 Y259.403
G01 X250.624 Y259.133
G01 X251.042 Y258.842
G01 X251.283 Y258.656
G01 X251.688 Y258.488
G01 X252.079 Y258.302
G01 X252.456 Y258.098
G01 X252.818 Y257.877
G01 X252.842 Y257.861
G01 X253.315 Y257.928
G01 X253.801 Y257.967
G01 X254.298 Y257.976
G01 X254.805 Y257.956
G01 X255.320 Y257.904
G01 X255.841 Y257.821
G01 X256.367 Y257.705
G01 X256.504 Y257.669
G01 X257.184 Y257.674
G01 X257.879 Y257.629
G01 X258.335 Y257.574
G01 X258.492 Y256.987
G01 X258.611 Y256.403
G01 X258.694 Y255.825
G01 X258.742 Y255.255
G01 X258.756 Y254.694
G01 X258.736 Y254.145
G01 X258.718 Y253.927
G01 X258.803 Y253.456
G01 X258.863 Y252.987
G01 X258.899 Y252.520
G01 X258.910 Y252.104
G01 X259.247 Y251.709
G01 X259.566 Y251.286
G01 X259.865 Y250.837
G01 X260.142 Y250.360
G01 X260.396 Y249.859
G01 X260.625 Y249.333
G01 X260.826 Y248.785
G01 X260.827 Y248.784
G01 X261.224 Y248.178
G01 X261.586 Y247.530
G01 X261.785 Y247.124
G01 X261.339 Y246.635
G01 X260.875 Y246.183
G01 X260.394 Y245.768
G01 X259.900 Y245.391
G01 X259.394 Y245.052
G01 X258.879 Y244.751
G01 X258.806 Y244.712
G01 X258.428 Y244.358
G01 X258.037 Y244.029
G01 X257.634 Y243.724
G01 X257.316 Y243.505
G01 X257.160 Y242.987
G01 X256.970 Y242.468
G01 X256.746 Y241.951
G01 X256.488 Y241.439
G01 X256.195 Y240.933
G01 X255.868 Y240.436
G01 X255.507 Y239.949
G01 X255.500 Y239.941
G01 X255.203 Y239.265
G01 X254.852 Y238.595
G01 X254.592 Y238.159
G01 X253.898 Y238.274
G01 X253.226 Y238.427
G01 X252.578 Y238.617
G01 X251.957 Y238.842
G01 X251.365 Y239.099
G01 X250.802 Y239.388
G01 X250.788 Y239.395
G01 X250.263 Y239.525
G01 X249.752 Y239.679
G01 X249.258 Y239.859
G01 X248.886 Y240.013
G01 X248.362 Y239.859
G01 X247.819 Y239.733
G01 X247.261 Y239.636
G01 X246.688 Y239.569
G01 X246.102 Y239.534
G01 X245.505 Y239.532
G01 X244.898 Y239.564
G01 X244.742 Y239.578
G01 X244.015 Y239.457
G01 X243.264 Y239.383
G01 X242.670 Y239.360
G01 X242.377 Y240.021
G01 X242.130 Y240.684
G01 X241.930 Y241.346
G01 X241.775 Y242.005
G01 X241.664 Y242.658
G01 X241.597 Y243.301
G01 X241.592 Y243.385
G01 X241.410 Y243.900
G01 X241.259 Y244.417
G01 X241.137 Y244.933
G01 X241.053 Y245.397
G01 X240.635 Y245.750
G01 X240.230 Y246.132
G01 X239.841 Y246.545
G01 X239.470 Y246.986
G01 X239.118 Y247.456
G01 X238.787 Y247.953
G01 X238.479 Y248.476
G01 X238.326 Y248.765
G01 X237.821 Y249.313
G01 X237.344 Y249.908
G01 X236.962 Y250.449
G01 X237.354 Y251.058
G01 X237.773 Y251.631
G01 X238.217 Y252.164
G01 X238.683 Y252.659
G01 X239.169 Y253.113
G01 X239.671 Y253.526
G01 X239.862 Y253.669
G01 X240.194 Y254.103
G01 X240.544 Y254.514
G01 X240.911 Y254.901
G01 X241.292 Y255.262
G01 X241.311 Y255.279
G01 X241.378 Y255.836
G01 X241.479 Y256.399
G01 X241.615 Y256.966
G01 X241.786 Y257.535
G01 X241.994 Y258.103
G01 X242.238 Y258.669
G01 X242.518 Y259.229
G01 X242.702 Y259.559
G01 X242.896 Y260.317
G01 X243.148 Y261.078
G01 X243.397 Y261.699
G01 X244.132 Y261.703
G01 X244.852 Y261.664
G01 X245.553 Y261.583
G01 X246.233 Y261.463
G01 X246.891 Y261.304
G01 X247.524 Y261.109
G01 X247.842 Y260.995
G01 X248.404 Y260.951
G01 X248.956 Y260.879
G01 X249.498 Y260.779
G01 X250.027 Y260.653
G01 X250.064 Y260.643
G01 X250.602 Y260.905
G01 X251.165 Y261.140
G01 X251.753 Y261.346
G01 X252.364 Y261.519
G01 X252.995 Y261.660
G01 X253.646 Y261.765
G01 X254.315 Y261.834
G01 X254.572 Y261.851
G01 X255.372 Y262.118
G01 X256.209 Y262.334
G01 X256.826 Y262.455
G01 X257.247 Y261.808
G01 X257.621 Y261.151
G01 X257.949 Y260.487
G01 X258.230 Y259.818
G01 X258.466 Y259.147
G01 X258.656 Y258.477
G01 X258.724 Y258.191
G01 X259.009 Y257.663
G01 X259.263 Y257.127
G01 X259.487 Y256.584
G01 X259.673 Y256.060
G01 X260.221 Y255.725
G01 X260.760 Y255.351
G01 X261.286 Y254.937
G01 X261.796 Y254.485
G01 X262.289 Y253.994
G01 X262.761 Y253.465
G01 X263.210 Y252.899
G01 X263.265 Y252.826
G01 X263.965 Y252.265
G01 X264.640 Y251.642
G01 X265.061 Y251.209
G01 X264.722 Y250.456
G01 X264.347 Y249.740
G01 X263.939 Y249.062
G01 X263.499 Y248.423
G01 X263.031 Y247.825
G01 X262.538 Y247.269
G01 X262.428 Y247.155
G01 X262.119 Y246.592
G01 X261.784 Y246.053
G01 X261.427 Y245.538
G01 X261.112 Y245.128
G01 X261.145 Y244.447
G01 X261.136 Y243.751
G01 X261.086 Y243.043
G01 X260.992 Y242.325
G01 X260.854 Y241.600
G01 X260.671 Y240.870
G01 X260.442 Y240.139
G01 X260.232 Y239.572
G01 X260.114 Y238.626
G01 X259.939 Y237.721
G01 X259.089 Y237.569
G01 X258.249 Y237.471
G01 X257.421 Y237.425
G01 X256.610 Y237.429
G01 X255.817 Y237.481
G01 X255.046 Y237.580
G01 X254.314 Y237.721
G01 X253.657 Y237.688
G01 X253.008 Y237.690
G01 X252.439 Y237.721
G01 X251.878 Y237.316
G01 X251.282 Y236.938
G01 X250.655 Y236.588
G01 X249.996 Y236.270
G01 X249.307 Y235.984
G01 X248.591 Y235.734
G01 X247.848 Y235.521
G01 X247.129 Y235.356
G01 X246.271 Y234.938
G01 X245.365 Y234.571
G01 X245.359 Y234.568
G01 X244.749 Y235.215
G01 X244.192 Y235.884
G01 X243.687 Y236.571
G01 X243.235 Y237.272
G01 X242.837 Y237.984
G01 X242.491 Y238.704
G01 X242.198 Y239.428
G01 X242.193 Y239.443
G01 X241.802 Y239.983
G01 X241.445 Y240.535
G01 X241.138 Y241.068
G01 X240.535 Y241.353
G01 X239.939 Y241.677
G01 X239.352 Y242.038
G01 X238.777 Y242.437
G01 X238.216 Y242.874
G01 X237.783 Y243.247
G01 X237.010 Y243.630
G01 X236.246 Y244.074
G01 X235.496 Y244.578
G01 X234.763 Y245.142
G01 X234.428 Y245.425
G01 X234.635 Y246.294
G01 X234.889 Y247.132
G01 X235.187 Y247.935
G01 X235.526 Y248.703
G01 X235.904 Y249.431
G01 X236.318 Y250.120
G01 X236.764 Y250.767
G01 X236.869 Y250.906
G01 X237.107 Y251.529
G01 X237.374 Y252.130
G01 X237.668 Y252.708
G01 X237.682 Y252.733
G01 X237.589 Y253.401
G01 X237.532 Y254.084
G01 X237.514 Y254.780
G01 X237.533 Y255.489
G01 X237.593 Y256.206
G01 X237.682 Y256.858
G01 X237.578 Y257.738
G01 X237.532 Y258.644
G01 X237.546 Y259.572
G01 X237.622 Y260.519
G01 X237.682 Y260.983
G01 X238.584 Y261.232
G01 X239.480 Y261.419
G01 X240.366 Y261.546
G01 X241.239 Y261.615
G01 X241.756 Y261.629
G01 X242.455 Y261.834
G01 X243.153 Y262.000
G01 X243.849 Y262.126
G01 X244.541 Y262.213
G01 X245.227 Y262.262
G01 X245.831 Y262.274
G01 X246.361 Y262.734
G01 X246.926 Y263.171
G01 X247.526 Y263.583
G01 X248.158 Y263.967
G01 X248.823 Y264.321
G01 X249.395 Y264.589
G01 X250.116 Y265.186
G01 X250.894 Y265.746
G01 X251.728 Y266.265
G01 X252.614 Y266.738
G01 X252.959 Y266.903
G01 X253.678 Y266.264
G01 X254.341 Y265.595
G01 X254.948 Y264.902
G01 X255.497 Y264.188
G01 X255.803 Y263.745
G01 X256.377 Y263.250
G01 X256.917 Y262.732
G01 X257.422 Y262.194
G01 X257.890 Y261.637
G01 X258.322 Y261.064
G01 X258.647 Y260.587
G01 X259.362 Y260.378
G01 X260.077 Y260.124
G01 X260.789 Y259.825
G01 X261.496 Y259.479
G01 X262.194 Y259.088
G01 X262.644 Y258.807
G01 X263.590 Y258.507
G01 X264.535 Y258.135
G01 X265.476 Y257.690
G01 X266.406 Y257.171
G01 X266.641 Y257.028
G01 X266.484 Y256.027
G01 X266.271 Y255.059
G01 X266.004 Y254.126
G01 X265.685 Y253.233
G01 X265.508 Y252.802
G01 X265.397 Y252.008
G01 X265.245 Y251.231
G01 X265.055 Y250.474
G01 X264.828 Y249.739
G01 X264.565 Y249.027
G01 X264.376 Y248.576
G01 X264.598 Y247.826
G01 X264.780 Y247.051
G01 X264.921 Y246.254
G01 X265.019 Y245.435
G01 X265.071 Y244.598
G01 X265.080 Y244.131
G01 X265.351 Y243.141
G01 X265.559 Y242.110
G01 X265.702 Y241.043
G01 X265.777 Y239.944
G01 X265.784 Y239.687
G01 X264.808 Y239.252
G01 X263.828 Y238.887
G01 X262.850 Y238.592
G01 X261.876 Y238.366
G01 X261.504 Y238.296
G01 X260.742 Y237.942
G01 X259.972 Y237.633
G01 X259.199 Y237.371
G01 X258.425 Y237.154
G01 X257.651 Y236.982
G01 X257.224 Y236.906
G01 X256.704 Y236.298
G01 X256.142 Y235.711
G01 X255.538 Y235.147
G01 X254.893 Y234.608
G01 X254.209 Y234.097
G01 X253.787 Y233.811
G01 X253.099 Y233.037
G01 X252.344 Y232.294
G01 X251.523 Y231.585
G01 X250.639 Y230.916
G01 X250.350 Y230.716
G01 X249.422 Y231.318
G01 X248.554 Y231.963
G01 X247.747 Y232.647
G01 X247.004 Y233.365
G01 X246.756 Y233.627
G01 X246.025 Y234.082
G01 X245.332 Y234.569
G01 X244.676 Y235.084
G01 X244.059 Y235.627
G01 X243.482 Y236.193
G01 X243.162 Y236.537
G01 X242.367 Y236.641
G01 X241.567 Y236.790
G01 X240.763 Y236.986
G01 X239.959 Y237.230
G01 X239.157 Y237.523
G01 X238.573 Y237.767
G01 X237.551 Y237.919
G01 X236.517 Y238.143
G01 X235.476 Y238.441
G01 X234.433 Y238.813
G01 X233.985 Y238.996
G01 X233.981 Y240.114
G01 X234.047 Y241.205
G01 X234.180 Y242.265
G01 X234.378 Y243.290
G01 X234.482 Y243.720
G01 X234.462 Y244.583
G01 X234.490 Y245.433
G01 X234.562 Y246.267
G01 X234.678 Y247.082
G01 X234.837 Y247.877
G01 X234.978 Y248.444
G01 X234.628 Y249.167
G01 X234.314 Y249.921
G01 X234.037 Y250.704
G01 X233.800 Y251.513
G01 X233.605 Y252.348
G01 X233.472 Y253.081
G01 X233.034 Y254.032
G01 X232.652 Y255.034
G01 X232.329 Y256.083
G01 X232.068 Y257.175
G01 X231.965 Y257.717
G01 X232.900 Y258.332
G01 X233.851 Y258.875
G01 X234.812 Y259.345
G01 X235.779 Y259.743
G01 X236.309 Y259.930
G01 X237.024 Y260.420
G01 X237.754 Y260.864
G01 X238.496 Y261.262
G01 X239.247 Y261.613
G01 X240.004 Y261.919
G01 X240.653 Y262.143
G01 X241.061 Y262.873
G01 X241.520 Y263.592
G01 X242.027 Y264.295
G01 X242.584 Y264.981
G01 X243.189 Y265.646
G01 X243.842 Y266.287
G01 X244.429 Y266.806
G01 X245.069 Y267.747
G01 X245.788 Y268.664
G01 X246.587 Y269.551
G01 X246.946 Y269.915
G01 X247.983 Y269.497
G01 X248.972 Y269.026
G01 X249.909 Y268.507
G01 X250.793 Y267.943
G01 X251.622 Y267.338
G01 X252.142 Y266.915
G01 X252.929 Y266.558
G01 X253.685 Y266.166
G01 X254.411 Y265.740
G01 X255.104 Y265.282
G01 X255.606 Y264.915
G01 X256.482 Y264.970
G01 X257.376 Y264.974
G01 X258.286 Y264.926
G01 X259.209 Y264.823
G01 X260.141 Y264.666
G01 X261.079 Y264.451
G01 X261.722 Y264.272
G01 X262.920 Y264.243
G01 X264.142 Y264.130
G01 X265.382 Y263.930
G01 X265.800 Y263.843
G01 X266.019 Y262.702
G01 X266.166 Y261.573
G01 X266.241 Y260.461
G01 X266.247 Y259.370
G01 X266.186 Y258.305
G01 X266.122 Y257.702
G01 X266.255 Y256.807
G01 X266.339 Y255.918
G01 X266.377 Y255.037
G01 X266.367 Y254.167
G01 X266.336 Y253.607
G01 X266.881 Y252.867
G01 X267.391 Y252.082
G01 X267.864 Y251.254
G01 X268.296 Y250.384
G01 X268.686 Y249.475
G01 X269.029 Y248.528
G01 X269.197 Y247.994
G01 X269.846 Y246.936
G01 X270.436 Y245.809
G01 X270.961 Y244.617
G01 X271.103 Y244.252
G01 X270.223 Y243.410
G01 X269.312 Y242.640
G01 X268.376 Y241.944
G01 X267.419 Y241.320
G01 X266.446 Y240.771
G01 X266.007 Y240.549
G01 X265.297 Y239.924
G01 X264.565 Y239.346
G01 X263.814 Y238.814
G01 X263.046 Y238.331
G01 X262.609 Y238.080
G01 X262.274 Y237.199
G01 X261.883 Y236.323
G01 X261.434 Y235.455
G01 X260.929 Y234.598
G01 X260.366 Y233.757
G01 X259.747 Y232.935
G01 X259.384 Y232.494
G01 X258.843 Y231.360
G01 X258.213 Y230.237
G01 X257.494 Y229.134
G01 X257.234 Y228.770
G01 X256.006 Y229.060
G01 X254.824 Y229.418
G01 X253.692 Y229.840
G01 X252.614 Y230.322
G01 X251.591 Y230.860
G01 X251.212 Y231.082
G01 X250.278 Y231.342
G01 X249.372 Y231.648
G01 X248.497 Y231.997
G01 X247.655 Y232.387
G01 X247.198 Y232.623
G01 X246.272 Y232.421
G01 X245.320 Y232.269
G01 X244.344 Y232.169
G01 X243.348 Y232.123
G01 X242.333 Y232.133
G01 X241.304 Y232.200
G01 X240.607 Y232.277
G01 X239.362 Y232.110
G01 X238.080 Y232.024
G01 X236.764 Y232.023
G01 X236.213 Y232.047
G01 X235.778 Y233.251
G01 X235.427 Y234.453
G01 X235.159 Y235.648
G01 X234.972 Y236.831
G01 X234.864 Y237.997
G01 X234.841 Y238.503
G01 X234.546 Y239.433
G01 X234.306 Y240.363
G01 X234.119 Y241.291
G01 X233.985 Y242.214
G01 X233.926 Y242.807
G01 X233.250 Y243.471
G01 X232.601 Y244.184
G01 X231.982 Y244.945
G01 X231.397 Y245.754
G01 X230.849 Y246.607
G01 X230.341 Y247.505
G01 X229.958 Y248.268
G01 X229.133 Y249.225
G01 X228.356 Y250.259
G01 X227.631 Y251.367
G01 X227.313 Y251.908
G01 X228.084 Y252.932
G01 X228.899 Y253.885
G01 X229.754 Y254.766
G01 X230.642 Y255.572
G01 X231.559 Y256.303
G01 X232.086 Y256.681
G01 X232.705 Y257.436
G01 X233.353 Y258.147
G01 X234.030 Y258.813
G01 X234.731 Y259.432
G01 X235.268 Y259.863
G01 X235.457 Y260.807
G01 X235.703 Y261.755
G01 X236.009 Y262.704
G01 X236.373 Y263.652
G01 X236.798 Y264.593
G01 X237.283 Y265.525
G01 X237.741 Y266.305
G01 X238.104 Y267.553
G01 X238.561 Y268.803
G01 X239.114 Y270.049
G01 X239.389 Y270.599
G01 X240.679 Y270.510
G01 X241.933 Y270.346
G01 X243.148 Y270.110
G01 X244.320 Y269.804
G01 X245.445 Y269.434
G01 X246.139 Y269.165
G01 X247.125 Y269.055
G01 X248.092 Y268.895
G01 X249.036 Y268.687
G01 X249.954 Y268.433
G01 X250.638 Y268.208
G01 X251.566 Y268.576
G01 X252.532 Y268.896
G01 X253.533 Y269.165
G01 X254.566 Y269.380
G01 X255.628 Y269.539
G01 X256.717 Y269.639
G01 X257.534 Y269.674
G01 X258.835 Y270.064
G01 X260.192 Y270.371
G01 X261.599 Y270.592
G01 X262.131 Y270.651
G01 X262.774 Y269.488
G01 X263.333 Y268.313
G01 X263.808 Y267.131
G01 X264.200 Y265.948
G01 X264.511 Y264.769
G01 X264.658 Y264.070
G01 X265.117 Y263.148
G01 X265.523 Y262.216
G01 X265.873 Y261.276
G01 X266.170 Y260.332
G01 X266.342 Y259.682
G01 X267.189 Y259.075
G01 X268.016 Y258.408
G01 X268.817 Y257.682
G01 X269.589 Y256.896
G01 X270.329 Y256.053
G01 X271.032 Y255.154
G01 X271.433 Y254.591
G01 X272.506 Y253.676
G01 X273.539 Y252.667
G01 X274.525 Y251.565
G01 X274.827 Y251.196
G01 X274.173 Y249.977
G01 X273.460 Y248.825
G01 X272.695 Y247.743
G01 X271.881 Y246.733
G01 X271.024 Y245.798
G01 X270.595 Y245.371
G01 X270.049 Y244.448
G01 X269.463 Y243.567
G01 X268.839 Y242.729
G01 X268.181 Y241.937
G01 X267.774 Y241.488
G01 X267.722 Y240.417
G01 X267.607 Y239.331
G01 X267.427 Y238.233
G01 X267.182 Y237.128
G01 X266.868 Y236.020
G01 X266.487 Y234.911
G01 X266.246 Y234.299
G01 X266.060 Y232.877
G01 X265.771 Y231.437
G01 X265.379 Y229.986
G01 X265.227 Y229.506
G01 X263.798 Y229.388
G01 X262.396 Y229.359
G01 X261.025 Y229.417
G01 X259.690 Y229.559
G01 X258.396 Y229.780
G01 X257.887 Y229.891
G01 X256.784 Y229.844
G01 X255.696 Y229.857
G01 X254.626 Y229.926
G01 X253.577 Y230.052
G01 X252.994 Y230.147
G01 X252.055 Y229.637
G01 X251.073 Y229.173
G01 X250.051 Y228.757
G01 X248.991 Y228.392
G01 X247.894 Y228.081
G01 X247.159 Y227.907
G01 X245.935 Y227.272
G01 X244.642 Y226.706
G01 X243.285 Y226.213
G01 X241.866 Y225.800
G01 X241.324 Y225.667
G01 X240.448 Y226.868
G01 X239.669 Y228.093
G01 X238.985 Y229.338
G01 X238.399 Y230.596
G01 X238.199 Y231.080
G01 X237.504 Y231.997
G01 X236.869 Y232.936
G01 X236.296 Y233.893
G01 X235.785 Y234.864
G01 X235.335 Y235.846
G01 X235.074 Y236.493
G01 X234.134 Y237.000
G01 X233.209 Y237.567
G01 X232.302 Y238.194
G01 X231.417 Y238.881
G01 X230.558 Y239.627
G01 X229.917 Y240.240
G01 X228.714 Y240.918
G01 X227.532 Y241.692
G01 X226.376 Y242.560
G01 X225.253 Y243.522
G01 X224.759 Y243.987
G01 X225.287 Y245.381
G01 X225.890 Y246.708
G01 X226.561 Y247.965
G01 X227.295 Y249.148
G01 X227.653 Y249.667
G01 X228.041 Y250.751
G01 X228.480 Y251.796
G01 X228.968 Y252.800
G01 X229.501 Y253.761
G01 X230.078 Y254.676
G01 X230.547 Y255.347
G01 X230.457 Y256.419
G01 X230.426 Y257.512
G01 X230.457 Y258.623
G01 X230.550 Y259.749
G01 X230.707 Y260.886
G01 X230.888 Y261.838
G01 X230.798 Y263.240
G01 X230.802 Y264.678
G01 X230.902 Y266.146
G01 X231.102 Y267.638
G01 X231.228 Y268.330
G01 X232.688 Y268.648
G01 X234.134 Y268.870
G01 X235.558 Y268.995
G01 X236.955 Y269.028
G01 X237.692 Y269.009
G01 X238.821 Y269.277
G01 X239.946 Y269.481
G01 X241.064 Y269.621
G01 X242.172 Y269.700
G01 X243.265 Y269.718
G01 X244.157 Y269.688
G01 X245.029 Y270.365
G01 X245.953 Y271.003
G01 X246.929 Y271.598
G01 X247.953 Y272.147
G01 X249.024 Y272.646
G01 X249.894 Y273.001
G01 X251.062 Y273.868
G01 X252.315 Y274.674
G01 X253.650 Y275.412
G01 X255.062 Y276.076
G01 X255.631 Y276.313
G01 X256.713 Y275.242
G01 X257.703 Y274.130
G01 X258.601 Y272.983
G01 X259.406 Y271.808
G01 X259.801 Y271.165
G01 X260.661 Y270.341
G01 X261.464 Y269.484
G01 X262.210 Y268.599
G01 X262.897 Y267.687
G01 X263.524 Y266.754
G01 X263.970 Y266.016
G01 X265.052 Y265.637
G01 X266.130 Y265.189
G01 X267.199 Y264.672
G01 X268.256 Y264.086
G01 X269.296 Y263.431
G01 X269.984 Y262.952
G01 X271.398 Y262.421
G01 X272.806 Y261.783
G01 X274.202 Y261.034
G01 X275.576 Y260.177
G01 X275.999 Y259.887
G01 X275.675 Y258.347
G01 X275.265 Y256.863
G01 X274.773 Y255.440
G01 X274.205 Y254.082
G01 X273.913 Y253.468
G01 X273.679 Y252.254
G01 X273.385 Y251.073
G01 X273.032 Y249.925
G01 X272.625 Y248.815
G01 X272.164 Y247.744
G01 X271.827 Y247.048
G01 X272.103 Y245.898
G01 X272.319 Y244.713
G01 X272.470 Y243.498
G01 X272.555 Y242.255
G01 X272.570 Y240.989
G01 X272.545 Y240.211
G01 X272.876 Y238.702
G01 X273.111 Y237.139
G01 X273.246 Y235.526
G01 X273.276 Y233.871
G01 X273.264 Y233.373
G01 X271.743 Y232.788
G01 X270.223 Y232.310
G01 X268.710 Y231.938
G01 X267.210 Y231.671
G01 X266.623 Y231.594
G01 X265.442 Y231.116
G01 X264.255 Y230.708
G01 X263.066 Y230.371
G01 X261.879 Y230.103
G01 X260.697 Y229.903
G01 X259.983 Y229.815
G01 X259.156 Y228.944
G01 X258.268 Y228.107
G01 X257.319 Y227.308
G01 X256.312 Y226.550
G01 X255.247 Y225.837
G01 X254.543 Y225.409
G01 X253.453 Y224.304
G01 X252.266 Y223.249
G01 X250.983 Y222.251
G01 X249.608 Y221.316
G01 X249.103 Y221.004
G01 X247.753 Y221.981
G01 X246.497 Y223.019
G01 X245.337 Y224.110
G01 X244.275 Y225.248
G01 X243.901 Y225.688
G01 X242.840 Y226.427
G01 X241.836 Y227.210
G01 X240.892 Y228.034
G01 X240.009 Y228.895
G01 X239.187 Y229.789
G01 X238.699 Y230.372
G01 X237.517 Y230.589
G01 X236.330 Y230.876
G01 X235.141 Y231.233
G01 X233.956 Y231.662
G01 X232.777 Y232.162
G01 X231.922 Y232.574
G01 X230.403 Y232.882
G01 X228.871 Y233.299
G01 X227.335 Y233.827
G01 X225.802 Y234.466
G01 X225.146 Y234.775
G01 X225.228 Y236.450
G01 X225.412 Y238.079
G01 X225.695 Y239.657
G01 X226.071 Y241.177
G01 X226.261 Y241.813
G01 X226.299 Y243.107
G01 X226.407 Y244.378
G01 X226.581 Y245.621
G01 X226.819 Y246.834
G01 X227.119 Y248.012
G01 X227.375 Y248.850
G01 X226.909 Y249.961
G01 X226.499 Y251.115
G01 X226.148 Y252.308
G01 X225.858 Y253.539
G01 X225.633 Y254.804
G01 X225.499 Y255.853
G01 X224.922 Y257.309
G01 X224.431 Y258.834
G01 X224.031 Y260.425
G01 X223.728 Y262.076
G01 X223.622 Y262.856
G01 X225.071 Y263.703
G01 X226.538 Y264.439
G01 X228.015 Y265.066
G01 X229.495 Y265.583
G01 X230.245 Y265.805
G01 X231.355 Y266.481
G01 X232.482 Y267.087
G01 X233.624 Y267.623
G01 X234.775 Y268.088
G01 X235.931 Y268.484
G01 X236.869 Y268.754
G01 X237.558 Y269.768
G01 X238.315 Y270.758
G01 X239.141 Y271.721
G01 X240.033 Y272.652
G01 X240.991 Y273.547
G01 X241.804 Y274.234
G01 X242.736 Y275.546
G01 X243.777 Y276.822
G01 X244.927 Y278.056
G01 X246.184 Y279.239
G01 X246.738 Y279.715
G01 X248.254 Y278.952
G01 X249.686 Y278.115
G01 X251.033 Y277.208
G01 X252.289 Y276.240
G01 X252.924 Y275.698
G01 X254.116 Y275.124
G01 X255.258 Y274.496
G01 X256.350 Y273.817
G01 X257.387 Y273.091
G01 X258.369 Y272.322
G01 X259.109 Y271.682
G01 X260.361 Y271.625
G01 X261.630 Y271.497
G01 X262.910 Y271.295
G01 X264.198 Y271.019
G01 X265.458 Y270.676
G01 X267.024 Y270.582
G01 X268.617 Y270.383
G01 X270.230 Y270.075
G01 X271.808 Y269.670
G01 X273.723 Y269.374
G01 X273.924 Y269.335
G01 X274.077 Y267.578
G01 X274.118 Y265.854
G01 X274.049 Y264.170
G01 X273.924 Y262.906
G01 X274.067 Y261.497
G01 X274.131 Y260.105
G01 X274.117 Y258.734
G01 X274.028 Y257.390
G01 X273.924 Y256.478
G01 X273.947 Y255.238
G01 X273.924 Y254.335
G01 X274.577 Y253.217
G01 X275.176 Y252.046
G01 X275.719 Y250.823
G01 X276.201 Y249.552
G01 X276.582 Y248.364
G01 X277.375 Y246.962
G01 X278.092 Y245.477
G01 X278.727 Y243.916
G01 X279.241 Y242.394
G01 X280.053 Y240.586
G01 X280.127 Y240.403
G01 X278.689 Y239.284
G01 X277.217 Y238.282
G01 X275.717 Y237.398
G01 X274.645 Y236.844
G01 X273.505 Y235.929
G01 X272.335 Y235.094
G01 X271.141 Y234.339
G01 X269.928 Y233.664
G01 X269.164 Y233.284
G01 X268.107 Y232.570
G01 X267.337 Y232.098
G01 X266.743 Y230.921
G01 X266.075 Y229.760
G01 X265.332 Y228.619
G01 X264.515 Y227.504
G01 X263.719 Y226.527
G01 X262.966 Y225.083
G01 X262.104 Y223.659
G01 X261.132 Y222.261
G01 X260.101 Y220.955
G01 X259.021 Y219.278
G01 X258.895 Y219.098
G01 X257.130 Y219.710
G01 X255.447 Y220.418
G01 X253.852 Y221.215
G01 X252.827 Y221.800
G01 X251.410 Y222.267
G01 X250.047 Y222.803
G01 X248.740 Y223.405
G01 X247.491 Y224.068
G01 X246.758 Y224.502
G01 X245.567 Y225.006
G01 X244.735 Y225.403
G01 X243.420 Y225.258
G01 X242.077 Y225.184
G01 X240.712 Y225.184
G01 X239.329 Y225.259
G01 X237.985 Y225.403
G01 X236.365 Y225.246
G01 X234.702 Y225.190
G01 X233.001 Y225.240
G01 X231.270 Y225.399
G01 X231.235 Y225.403
G01 X229.242 Y225.394
G01 X228.985 Y225.403
G01 X228.530 Y227.234
G01 X228.202 Y229.049
G01 X227.999 Y230.839
G01 X227.929 Y232.070
G01 X227.545 Y233.518
G01 X227.248 Y234.960
G01 X227.038 Y236.391
G01 X226.912 Y237.806
G01 X226.873 Y238.737
G01 X226.646 Y240.012
G01 X226.521 Y240.959
G01 X225.681 Y241.982
G01 X224.886 Y243.066
G01 X224.140 Y244.209
G01 X223.446 Y245.408
G01 X222.809 Y246.662
G01 X222.787 Y246.710
G01 X221.767 Y247.985
G01 X220.809 Y249.353
G01 X219.919 Y250.811
G01 X219.104 Y252.353
G01 X219.052 Y252.461
G01 X217.951 Y254.139
G01 X217.807 Y254.378
G01 X219.094 Y255.759
G01 X220.436 Y257.026
G01 X221.826 Y258.175
G01 X222.903 Y258.966
G01 X223.907 Y260.079
G01 X224.954 Y261.116
G01 X226.039 Y262.075
G01 X227.156 Y262.955
G01 X227.999 Y263.554
G01 X228.946 Y264.442
G01 X229.697 Y265.084
G01 X230.100 Y266.359
G01 X230.580 Y267.631
G01 X231.138 Y268.894
G01 X231.773 Y270.144
G01 X232.487 Y271.376
G01 X232.530 Y271.446
G01 X233.053 Y273.025
G01 X233.691 Y274.602
G01 X234.443 Y276.171
G01 X235.311 Y277.723
G01 X235.363 Y277.808
G01 X236.189 Y279.687
G01 X236.307 Y279.929
G01 X238.177 Y279.601
G01 X239.980 Y279.165
G01 X241.712 Y278.625
G01 X243.034 Y278.126
G01 X244.530 Y277.888
G01 X245.985 Y277.572
G01 X247.396 Y277.181
G01 X248.758 Y276.720
G01 X249.761 Y276.324
G01 X251.041 Y276.008
G01 X252.003 Y275.723
G01 X253.326 Y276.088
G01 X254.689 Y276.385
G01 X256.090 Y276.609
G01 X257.523 Y276.758
G01 X258.985 Y276.829
G01 X258.988 Y276.829
G01 X260.647 Y277.261
G01 X262.369 Y277.593
G01 X264.149 Y277.820
G01 X265.972 Y277.935
G01 X268.062 Y278.275
G01 X268.300 Y278.304
G01 X269.057 Y276.523
G01 X269.684 Y274.738
G01 X270.184 Y272.957
G01 X270.485 Y271.579
G01 X271.113 Y270.159
G01 X271.651 Y268.731
G01 X272.101 Y267.300
G01 X272.464 Y265.870
G01 X272.670 Y264.853
G01 X273.114 Y263.572
G01 X273.399 Y262.612
G01 X274.456 Y261.671
G01 X275.475 Y260.656
G01 X276.453 Y259.569
G01 X277.385 Y258.411
G01 X278.202 Y257.277
G01 X279.502 Y256.086
G01 X280.751 Y254.784
G01 X281.941 Y253.374
G01 X283.006 Y251.942
G01 X284.464 Y250.334
G01 X284.607 Y250.164
G01 X283.491 Y248.514
G01 X282.299 Y246.973
G01 X281.039 Y245.546
G01 X280.089 Y244.585
G01 X279.213 Y243.248
G01 X278.279 Y241.984
G01 X277.293 Y240.794
G01 X276.260 Y239.682
G01 X275.572 Y239.006
G01 X274.714 Y237.906
G01 X274.066 Y237.147
G01 X273.845 Y235.718
G01 X273.542 Y234.281
G01 X273.154 Y232.840
G01 X272.680 Y231.400
G01 X272.180 Y230.109
G01 X271.884 Y228.346
G01 X271.466 Y226.565
G01 X270.925 Y224.775
G01 X270.294 Y223.072
G01 X269.735 Y220.952
G01 X269.666 Y220.726
G01 X267.622 Y220.766
G01 X265.630 Y220.933
G01 X263.698 Y221.223
G01 X262.420 Y221.488
G01 X260.786 Y221.495
G01 X259.183 Y221.592
G01 X257.616 Y221.776
G01 X256.089 Y222.045
G01 X255.174 Y222.249
G01 X253.760 Y222.371
G01 X252.759 Y222.503
G01 X251.432 Y221.905
G01 X250.052 Y221.373
G01 X248.624 Y220.909
G01 X247.151 Y220.517
G01 X245.728 Y220.219
G01 X244.086 Y219.504
G01 X242.363 Y218.881
G01 X240.566 Y218.356
G01 X238.700 Y217.935
G01 X238.697 Y217.934
G01 X236.614 Y217.248
G01 X236.353 Y217.173
G01 X235.257 Y218.931
G01 X234.299 Y220.716
G01 X233.480 Y222.518
G01 X232.997 Y223.760
G01 X232.103 Y225.144
G01 X231.304 Y226.552
G01 X230.598 Y227.977
G01 X229.987 Y229.414
G01 X229.641 Y230.347
G01 X228.969 Y231.604
G01 X228.522 Y232.542
G01 X227.318 Y233.343
G01 X226.141 Y234.221
G01 X224.997 Y235.174
G01 X223.890 Y236.202
G01 X223.422 Y236.672
G01 X221.998 Y237.639
G01 X220.607 Y238.713
G01 X219.256 Y239.895
G01 X218.322 Y240.802
G01 X216.641 Y242.066
G01 X215.010 Y243.474
G01 X214.922 Y243.556
G01 X215.838 Y245.443
G01 X216.852 Y247.225
G01 X217.956 Y248.896
G01 X218.203 Y249.239
G01 X218.926 Y250.782
G01 X219.723 Y252.252
G01 X220.587 Y253.646
G01 X221.484 Y254.922
G01 X222.149 Y256.228
G01 X222.872 Y257.482
G01 X223.650 Y258.679
G01 X223.672 Y258.711
G01 X223.685 Y260.164
G01 X223.779 Y261.637
G01 X223.956 Y263.125
G01 X224.215 Y264.622
G01 X224.368 Y265.331
G01 X224.401 Y267.070
G01 X224.546 Y268.841
G01 X224.804 Y270.638
G01 X225.063 Y271.951
G01 X225.210 Y274.081
G01 X225.507 Y276.248
G01 X225.527 Y276.364
G01 X227.613 Y276.625
G01 X229.664 Y276.748
G01 X231.671 Y276.736
G01 X232.174 Y276.712
G01 X233.870 Y276.948
G01 X235.545 Y277.082
G01 X237.193 Y277.119
G01 X238.810 Y277.061
G01 X238.821 Y277.060
G01 X240.291 Y277.216
G01 X241.749 Y277.294
G01 X243.191 Y277.294
G01 X243.253 Y277.293
G01 X244.503 Y278.088
G01 X245.815 Y278.825
G01 X247.186 Y279.500
G01 X248.614 Y280.108
G01 X249.267 Y280.357
G01 X250.781 Y281.298
G01 X252.386 Y282.161
G01 X254.076 Y282.940
G01 X255.281 Y283.422
G01 X257.200 Y284.487
G01 X259.235 Y285.441
G01 X259.291 Y285.465
G01 X260.664 Y283.836
G01 X261.900 Y282.161
G01 X262.999 Y280.448
G01 X263.259 Y280.004
G01 X264.398 Y278.686
G01 X265.441 Y277.330
G01 X266.386 Y275.943
G01 X267.226 Y274.543
G01 X268.177 Y273.369
G01 X269.054 Y272.161
G01 X269.858 Y270.924
G01 X269.871 Y270.902
G01 X271.256 Y270.268
G01 X272.626 Y269.547
G01 X273.975 Y268.739
G01 X275.299 Y267.845
G01 X275.798 Y267.480
G01 X277.456 Y266.699
G01 X279.098 Y265.796
G01 X280.716 Y264.772
G01 X281.725 Y264.058
G01 X283.714 Y263.001
G01 X285.672 Y261.780
G01 X285.676 Y261.777
G01 X285.040 Y259.689
G01 X284.288 Y257.692
G01 X283.427 Y255.793
G01 X283.223 Y255.388
G01 X282.723 Y253.670
G01 X282.137 Y252.014
G01 X281.468 Y250.425
G01 X280.771 Y248.999
G01 X280.289 Y247.523
G01 X279.738 Y246.091
G01 X279.136 Y244.739
G01 X279.361 Y243.196
G01 X279.504 Y241.618
G01 X279.561 Y240.010
G01 X279.530 Y238.377
G01 X279.499 Y237.811
G01 X279.750 Y235.961
G01 X279.888 Y234.058
G01 X279.909 Y232.109
G01 X279.862 Y230.883
G01 X280.060 Y228.607
G01 X280.104 Y226.267
G01 X280.104 Y226.265
G01 X277.950 Y225.647
G01 X275.810 Y225.180
G01 X273.695 Y224.864
G01 X273.318 Y224.822
G01 X271.563 Y224.294
G01 X269.814 Y223.877
G01 X268.076 Y223.567
G01 X266.532 Y223.380
G01 X265.000 Y222.972
G01 X263.469 Y222.649
G01 X262.008 Y222.418
G01 X260.824 Y221.378
G01 X259.565 Y220.389
G01 X258.236 Y219.456
G01 X256.837 Y218.583
G01 X256.320 Y218.285
G01 X254.898 Y217.061
G01 X253.370 Y215.901
G01 X251.741 Y214.815
G01 X250.632 Y214.153
G01 X248.827 Y212.743
G01 X246.886 Y211.427
G01 X246.839 Y211.397
G01 X245.119 Y212.892
G01 X243.537 Y214.458
G01 X242.097 Y216.088
G01 X241.867 Y216.369
G01 X240.450 Y217.568
G01 X239.131 Y218.822
G01 X237.911 Y220.126
G01 X236.896 Y221.341
G01 X235.708 Y222.411
G01 X234.594 Y223.528
G01 X233.581 Y224.656
G01 X232.062 Y225.081
G01 X230.545 Y225.596
G01 X229.037 Y226.201
G01 X227.542 Y226.895
G01 X226.929 Y227.209
G01 X225.128 Y227.732
G01 X223.324 Y228.378
G01 X221.525 Y229.150
G01 X220.277 Y229.762
G01 X218.111 Y230.506
G01 X215.949 Y231.415
G01 X215.843 Y231.465
G01 X216.158 Y233.732
G01 X216.611 Y235.922
G01 X217.194 Y238.028
G01 X217.324 Y238.434
G01 X217.556 Y240.279
G01 X217.887 Y242.072
G01 X218.315 Y243.810
G01 X218.806 Y245.403
G01 X219.055 Y246.982
G01 X219.383 Y248.525
G01 X219.787 Y250.029
G01 X219.793 Y250.049
G01 X219.320 Y251.558
G01 X218.923 Y253.112
G01 X218.606 Y254.709
G01 X218.371 Y256.345
G01 X218.292 Y257.110
G01 X217.745 Y258.916
G01 X217.300 Y260.792
G01 X216.964 Y262.732
G01 X216.792 Y264.171
G01 X216.229 Y266.415
G01 X215.810 Y268.746
G01 X215.791 Y268.879
G01 X217.864 Y269.852
G01 X219.948 Y270.668
G01 X222.031 Y271.330
G01 X222.530 Y271.466
G01 X224.205 Y272.279
G01 X225.893 Y272.981
G01 X227.586 Y273.573
G01 X229.270 Y274.053
G01 X230.735 Y274.707
G01 X232.215 Y275.276
G01 X233.703 Y275.760
G01 X233.762 Y275.777
G01 X234.782 Y277.013
G01 X235.885 Y278.209
G01 X237.069 Y279.361
G01 X238.332 Y280.464
G01 X238.933 Y280.948
G01 X240.173 Y282.419
G01 X241.530 Y283.840
G01 X243.005 Y285.203
G01 X244.104 Y286.119
G01 X245.715 Y287.850
G01 X247.482 Y289.506
G01 X247.551 Y289.566
G01 X249.512 Y288.347
G01 X251.347 Y287.035
G01 X253.052 Y285.637
G01 X253.467 Y285.268
G01 X255.080 Y284.293
G01 X256.607 Y283.247
G01 X258.043 Y282.136
G01 X259.383 Y280.970
G01 X260.752 Y280.081
G01 X262.056 Y279.134
G01 X263.294 Y278.132
G01 X263.327 Y278.104
G01 X264.957 Y277.916
G01 X266.601 Y277.634
G01 X268.252 Y277.257
G01 X269.905 Y276.783
G01 X270.571 Y276.564
G01 X272.530 Y276.317
G01 X274.512 Y275.940
G01 X276.510 Y275.430
G01 X277.816 Y275.024
G01 X280.206 Y274.603
G01 X282.618 Y274.006
G01 X282.645 Y273.998
G01 X282.690 Y271.643
G01 X282.585 Y269.343
G01 X282.335 Y267.108
G01 X282.258 Y266.602
G01 X282.318 Y264.674
G01 X282.269 Y262.781
G01 X282.114 Y260.930
G01 X281.870 Y259.206
G01 X281.869 Y257.533
G01 X281.781 Y255.883
G01 X281.612 Y254.275
G01 X282.397 Y252.771
G01 X283.109 Y251.200
G01 X283.743 Y249.567
G01 X284.296 Y247.873
G01 X284.762 Y246.125
G01 X284.797 Y245.976
G01 X285.753 Y244.076
G01 X286.604 Y242.072
G01 X287.341 Y239.971
G01 X287.958 Y237.780
G01 X287.983 Y237.678
G01 X288.779 Y235.603
G01 X286.831 Y234.230
G01 X284.844 Y233.011
G01 X282.829 Y231.949
G01 X281.081 Y231.159
G01 X279.548 Y230.042
G01 X277.982 Y229.030
G01 X276.389 Y228.122
G01 X274.775 Y227.319
G01 X273.383 Y226.714
G01 X271.958 Y225.875
G01 X271.458 Y225.603
G01 X270.573 Y224.156
G01 X269.596 Y222.738
G01 X268.529 Y221.355
G01 X267.491 Y220.142
G01 X266.484 Y218.401
G01 X265.348 Y216.689
G01 X264.082 Y215.014
G01 X262.688 Y213.386
G01 X262.201 Y212.861
G01 X260.780 Y210.792
G01 X259.556 Y209.221
G01 X257.301 Y210.124
G01 X255.159 Y211.146
G01 X253.135 Y212.280
G01 X251.537 Y213.307
G01 X249.740 Y213.993
G01 X248.014 Y214.765
G01 X246.363 Y215.619
G01 X244.790 Y216.548
G01 X243.518 Y217.393
G01 X242.023 Y218.137
G01 X241.513 Y218.414
G01 X239.812 Y218.367
G01 X238.086 Y218.413
G01 X236.341 Y218.553
G01 X234.689 Y218.772
G01 X232.680 Y218.665
G01 X230.625 Y218.683
G01 X228.532 Y218.829
G01 X226.407 Y219.107
G01 X225.590 Y219.249
G01 X223.083 Y219.311
G01 X221.041 Y219.487
G01 X220.565 Y221.886
G01 X220.251 Y224.256
G01 X220.097 Y226.588
G01 X220.089 Y228.548
G01 X219.742 Y230.474
G01 X219.511 Y232.381
G01 X219.393 Y234.263
G01 X219.374 Y235.344
G01 X219.120 Y237.044
G01 X218.957 Y238.733
G01 X218.898 Y239.875
G01 X217.931 Y241.275
G01 X217.027 Y242.746
G01 X216.192 Y244.285
G01 X215.440 Y245.865
G01 X214.252 Y247.493
G01 X213.142 Y249.229
G01 X212.120 Y251.067
G01 X211.191 Y253.004
G01 X210.829 Y253.851
G01 X209.507 Y255.999
G01 X208.523 Y257.845
G01 X210.275 Y259.554
G01 X212.091 Y261.111
G01 X213.961 Y262.513
G01 X215.690 Y263.648
G01 X217.116 Y264.990
G01 X218.589 Y266.225
G01 X220.103 Y267.352
G01 X221.065 Y268.001
G01 X222.354 Y269.143
G01 X223.683 Y270.202
G01 X224.649 Y270.903
G01 X225.300 Y272.490
G01 X226.047 Y274.063
G01 X226.890 Y275.616
G01 X227.827 Y277.140
G01 X228.601 Y278.986
G01 X229.505 Y280.820
G01 X230.538 Y282.633
G01 X231.005 Y283.377
G01 X231.980 Y285.623
G01 X233.132 Y287.851
G01 X234.183 Y289.614
G01 X236.581 Y289.074
G01 X238.887 Y288.398
G01 X241.094 Y287.592
G01 X243.059 Y286.730
G01 X244.976 Y286.261
G01 X246.830 Y285.694
G01 X248.615 Y285.034
G01 X249.717 Y284.567
G01 X251.395 Y284.103
G01 X253.028 Y283.558
G01 X254.155 Y283.125
G01 X255.875 Y283.449
G01 X257.637 Y283.682
G01 X259.435 Y283.822
G01 X261.199 Y283.865
G01 X263.216 Y284.228
G01 X265.294 Y284.473
G01 X267.427 Y284.593
G01 X268.244 Y284.606
G01 X270.719 Y285.019
G01 X273.276 Y285.269
G01 X275.289 Y285.346
G01 X276.153 Y283.004
G01 X276.851 Y280.665
G01 X277.385 Y278.339
G01 X277.733 Y276.223
G01 X278.394 Y274.324
G01 X278.937 Y272.423
G01 X279.363 Y270.530
G01 X279.566 Y269.381
G01 X280.101 Y267.684
G01 X280.542 Y265.981
G01 X280.788 Y264.820
G01 X282.024 Y263.522
G01 X283.206 Y262.138
G01 X284.327 Y260.670
G01 X285.299 Y259.251
G01 X286.731 Y257.722
G01 X288.096 Y256.075
G01 X289.385 Y254.312
G01 X289.809 Y253.681
G01 X291.535 Y251.792
G01 X293.168 Y249.742
G01 X294.319 Y248.112
G01 X292.789 Y246.066
G01 X291.169 Y244.167
G01 X289.468 Y242.416
G01 X287.925 Y241.010
G01 X286.661 Y239.385
G01 X285.331 Y237.862
G01 X283.942 Y236.443
G01 X283.129 Y235.684
G01 X281.971 Y234.281
G01 X280.755 Y232.956
G01 X279.933 Y232.134
G01 X279.508 Y230.362
G01 X278.981 Y228.589
G01 X278.350 Y226.821
G01 X277.692 Y225.239
G01 X277.183 Y223.180
G01 X276.537 Y221.114
G01 X275.752 Y219.048
G01 X275.452 Y218.344
G01 X274.802 Y215.846
G01 X273.967 Y213.339
G01 X273.211 Y211.448
G01 X270.612 Y211.622
G01 X268.087 Y211.955
G01 X265.645 Y212.440
G01 X263.664 Y212.961
G01 X261.577 Y213.138
G01 X259.542 Y213.430
G01 X257.564 Y213.830
G01 X256.503 Y214.095
G01 X254.670 Y214.305
G01 X252.873 Y214.607
G01 X251.729 Y214.851
G01 X250.002 Y214.238
G01 X248.220 Y213.710
G01 X246.385 Y213.274
G01 X244.646 Y212.953
G01 X242.639 Y212.256
G01 X240.551 Y211.670
G01 X238.388 Y211.199
G01 X237.562 Y211.055
G01 X235.114 Y210.238
G01 X232.557 Y209.570
G01 X230.479 Y209.157
G01 X229.194 Y211.454
G01 X228.087 Y213.775
G01 X227.155 Y216.109
G01 X226.502 Y218.089
G01 X225.507 Y219.947
G01 X224.636 Y221.823
G01 X223.890 Y223.711
G01 X223.519 Y224.789
G01 X222.693 Y226.445
G01 X221.965 Y228.121
G01 X221.531 Y229.255
G01 X220.075 Y230.367
G01 X218.661 Y231.573
G01 X217.295 Y232.871
G01 X216.019 Y234.218
G01 X214.340 Y235.520
G01 X212.709 Y236.950
G01 X211.135 Y238.506
G01 X210.507 Y239.180
G01 X208.483 Y240.789
G01 X206.526 Y242.572
G01 X204.996 Y244.143
G01 X206.325 Y246.484
G01 X207.773 Y248.680
G01 X209.035 Y250.363
G01 X210.114 Y252.314
G01 X211.283 Y254.160
G01 X212.534 Y255.897
G01 X213.074 Y256.583
G01 X213.986 Y258.262
G01 X214.973 Y259.868
G01 X216.029 Y261.397
G01 X217.114 Y262.803
G01 X217.214 Y264.655
G01 X217.419 Y266.527
G01 X217.729 Y268.414
G01 X218.148 Y270.309
G01 X218.522 Y271.693
G01 X218.670 Y273.940
G01 X218.965 Y276.224
G01 X219.410 Y278.535
G01 X219.930 Y280.582
G01 X220.305 Y283.324
G01 X220.634 Y285.026
G01 X223.288 Y285.238
G01 X225.889 Y285.276
G01 X228.429 Y285.147
G01 X229.634 Y285.026
G01 X231.768 Y285.227
G01 X233.872 Y285.305
G01 X235.940 Y285.263
G01 X237.963 Y285.105
G01 X238.634 Y285.026
G01 X240.487 Y285.096
G01 X242.319 Y285.069
G01 X243.134 Y285.026
G01 X244.767 Y285.965
G01 X246.476 Y286.826
G01 X248.257 Y287.605
G01 X250.106 Y288.296
G01 X251.447 Y288.728
G01 X253.453 Y289.849
G01 X255.572 Y290.864
G01 X257.799 Y291.764
G01 X259.760 Y292.429
G01 X262.320 Y293.633
G01 X263.917 Y294.280
G01 X265.557 Y292.145
G01 X267.022 Y289.960
G01 X268.311 Y287.736
G01 X268.873 Y286.648
G01 X270.222 Y284.941
G01 X271.450 Y283.192
G01 X272.557 Y281.408
G01 X273.541 Y279.598
G01 X273.829 Y279.016
G01 X274.916 Y277.471
G01 X275.908 Y275.891
G01 X276.307 Y275.200
G01 X278.021 Y274.320
G01 X279.710 Y273.332
G01 X281.368 Y272.235
G01 X282.990 Y271.031
G01 X284.023 Y270.189
G01 X286.100 Y269.092
G01 X288.148 Y267.837
G01 X290.157 Y266.427
G01 X291.739 Y265.179
G01 X294.191 Y263.655
G01 X295.597 Y262.673
G01 X294.679 Y260.086
G01 X293.621 Y257.619
G01 X292.433 Y255.282
G01 X291.855 Y254.269
G01 X291.141 Y252.164
G01 X290.323 Y250.140
G01 X289.408 Y248.201
G01 X288.402 Y246.352
G01 X288.113 Y245.864
G01 X287.392 Y244.074
G01 X286.589 Y242.344
G01 X286.242 Y241.662
G01 X286.438 Y239.710
G01 X286.529 Y237.719
G01 X286.511 Y235.696
G01 X286.380 Y233.645
G01 X286.242 Y232.362
G01 X286.453 Y229.989
G01 X286.517 Y227.555
G01 X286.426 Y225.069
G01 X286.242 Y223.062
G01 X286.301 Y220.144
G01 X286.242 Y218.412
G01 X283.516 Y217.760
G01 X280.817 Y217.298
G01 X278.155 Y217.020
G01 X277.056 Y216.957
G01 X274.862 Y216.400
G01 X272.679 Y215.977
G01 X270.515 Y215.685
G01 X268.379 Y215.522
G01 X267.871 Y215.502
G01 X265.947 Y215.125
G01 X264.029 Y214.853
G01 X263.278 Y214.775
G01 X261.736 Y213.537
G01 X260.104 Y212.368
G01 X258.385 Y211.273
G01 X256.582 Y210.257
G01 X255.395 Y209.655
G01 X253.514 Y208.180
G01 X251.502 Y206.795
G01 X249.362 Y205.510
G01 X247.511 Y204.535
G01 X245.094 Y202.894
G01 X243.569 Y201.976
G01 X241.512 Y203.931
G01 X239.631 Y205.969
G01 X237.928 Y208.077
G01 X237.279 Y208.961
G01 X235.601 Y210.511
G01 X234.043 Y212.125
G01 X232.608 Y213.795
G01 X231.297 Y215.512
G01 X230.990 Y215.947
G01 X229.618 Y217.362
G01 X228.338 Y218.830
G01 X227.845 Y219.439
G01 X225.966 Y220.057
G01 X224.095 Y220.787
G01 X222.239 Y221.630
G01 X220.405 Y222.585
G01 X219.166 Y223.303
G01 X216.905 Y224.074
G01 X214.648 Y225.005
G01 X212.404 Y226.096
G01 X210.487 Y227.167
G01 X207.793 Y228.300
G01 X206.148 Y229.099
G01 X206.667 Y231.899
G01 X207.351 Y234.596
G01 X208.192 Y237.181
G01 X208.607 Y238.276
G01 X208.990 Y240.531
G01 X209.493 Y242.720
G01 X210.110 Y244.836
G01 X210.835 Y246.873
G01 X211.066 Y247.452
G01 X211.504 Y249.374
G01 X212.037 Y251.247
G01 X212.295 Y252.040
G01 X211.786 Y253.956
G01 X211.377 Y255.926
G01 X211.070 Y257.945
G01 X210.869 Y260.009
G01 X210.793 Y261.522
G01 X210.203 Y263.851
G01 X209.750 Y266.264
G01 X209.440 Y268.754
G01 X209.291 Y271.004
G01 X208.769 Y273.905
G01 X208.541 Y275.745
G01 X211.172 Y276.837
G01 X213.807 Y277.736
G01 X216.433 Y278.443
G01 X217.671 Y278.711
G01 X219.774 Y279.621
G01 X221.887 Y280.394
G01 X224.002 Y281.033
G01 X226.110 Y281.540
G01 X226.801 Y281.678
G01 X228.659 Y282.360
G01 X230.527 Y282.937
G01 X231.366 Y283.161
G01 X232.710 Y284.648
G01 X234.156 Y286.081
G01 X235.701 Y287.455
G01 X237.343 Y288.762
G01 X238.574 Y289.652
G01 X240.232 Y291.443
G01 X242.039 Y293.165
G01 X243.992 Y294.806
G01 X245.783 Y296.142
G01 X247.972 Y298.198
G01 X249.387 Y299.388
G01 X251.753 Y297.764
G01 X253.958 Y296.032
G01 X255.997 Y294.202
G01 X256.925 Y293.283
G01 X258.853 Y292.000
G01 X260.672 Y290.634
G01 X262.378 Y289.193
G01 X263.970 Y287.684
G01 X264.464 Y287.179
G01 X266.070 Y285.974
G01 X267.593 Y284.703
G01 X268.233 Y284.127
G01 X270.216 Y283.742
G01 X272.204 Y283.244
G01 X274.191 Y282.630
G01 X275.333 Y282.224
G01 X277.655 Y281.831
G01 X279.998 Y281.285
G01 X282.352 Y280.583
G01 X284.707 Y279.724
G01 X284.799 Y279.688
G01 X287.672 Y279.070
G01 X290.566 Y278.240
G01 X291.898 Y277.785
G01 X291.822 Y274.870
G01 X291.563 Y272.031
G01 X291.131 Y269.279
G01 X290.874 Y268.039
G01 X290.844 Y265.680
G01 X290.684 Y263.367
G01 X290.397 Y261.109
G01 X289.988 Y258.912
G01 X289.849 Y258.293
G01 X289.710 Y256.249
G01 X289.467 Y254.239
G01 X289.337 Y253.420
G01 X290.108 Y251.510
G01 X290.784 Y249.533
G01 X291.361 Y247.493
G01 X291.632 Y246.358
G01 X292.580 Y244.158
G01 X293.410 Y241.857
G01 X294.114 Y239.460
G01 X294.684 Y236.976
G01 X294.691 Y236.943
G01 X295.751 Y234.158
G01 X296.642 Y231.239
G01 X296.985 Y229.881
G01 X294.447 Y228.329
G01 X291.873 Y226.975
G01 X289.277 Y225.820
G01 X288.164 Y225.387
G01 X286.130 Y224.103
G01 X284.063 Y222.959
G01 X281.973 Y221.953
G01 X279.869 Y221.086
G01 X279.343 Y220.892
G01 X277.522 Y219.879
G01 X275.672 Y218.974
G01 X274.933 Y218.645
G01 X273.763 Y216.904
G01 X272.481 Y215.204
G01 X271.089 Y213.552
G01 X269.587 Y211.954
G01 X269.212 Y211.580
G01 X267.810 Y209.534
G01 X266.252 Y207.535
G01 X264.539 Y205.595
G01 X263.491 Y204.515
G01 X261.687 Y202.087
G01 X259.676 Y199.730
G01 X259.200 Y199.216
G01 X256.470 Y200.557
G01 X253.895 Y202.039
G01 X251.482 Y203.650
G01 X251.327 Y203.762
G01 X249.079 Y204.831
G01 X246.938 Y206.007
G01 X244.911 Y207.281
G01 X243.454 Y208.307
G01 X241.539 Y209.268
G01 X239.701 Y210.315
G01 X237.946 Y211.442
G01 X237.549 Y211.716
G01 X235.448 Y211.748
G01 X233.321 Y211.896
G01 X231.173 Y212.162
G01 X229.013 Y212.548
G01 X228.418 Y212.676
G01 X225.938 Y212.736
G01 X223.414 Y212.951
G01 X220.855 Y213.327
G01 X219.286 Y213.636
G01 X216.268 Y213.824
G01 X213.198 Y214.224
G01 X212.438 Y214.355
G01 X212.072 Y217.391
G01 X211.910 Y220.375
G01 X211.946 Y223.293
G01 X211.957 Y223.525
G01 X211.626 Y226.000
G01 X211.444 Y228.443
G01 X211.407 Y230.844
G01 X211.477 Y232.694
G01 X211.237 Y234.826
G01 X211.113 Y236.938
G01 X211.101 Y239.027
G01 X211.116 Y239.571
G01 X209.997 Y241.350
G01 X208.960 Y243.214
G01 X208.011 Y245.159
G01 X207.155 Y247.181
G01 X206.906 Y247.833
G01 X205.601 Y249.949
G01 X204.402 Y252.187
G01 X203.319 Y254.543
G01 X202.697 Y256.095
G01 X201.203 Y258.740
G01 X199.859 Y261.546
G01 X199.539 Y262.291
G01 X201.885 Y264.254
G01 X204.298 Y266.018
G01 X206.764 Y267.580
G01 X207.041 Y267.742
G01 X208.936 Y269.370
G01 X210.885 Y270.855
G01 X212.879 Y272.197
G01 X214.543 Y273.192
G01 X216.202 Y274.557
G01 X217.908 Y275.815
G01 X219.655 Y276.966
G01 X220.169 Y277.280
G01 X221.057 Y279.202
G01 X222.062 Y281.102
G01 X223.185 Y282.972
G01 X224.426 Y284.806
G01 X224.851 Y285.389
G01 X225.926 Y287.663
G01 X227.166 Y289.913
G01 X228.569 Y292.130
G01 X229.533 Y293.498
G01 X230.959 Y296.231
G01 X232.605 Y298.924
G01 X233.044 Y299.580
G01 X235.979 Y298.679
G01 X238.784 Y297.614
G01 X241.450 Y296.394
G01 X241.786 Y296.225
G01 X244.199 Y295.517
G01 X246.521 Y294.687
G01 X248.749 Y293.741
G01 X250.528 Y292.869
G01 X252.595 Y292.214
G01 X254.600 Y291.461
G01 X256.536 Y290.614
G01 X257.084 Y290.352
G01 X259.215 Y290.659
G01 X261.392 Y290.852
G01 X263.611 Y290.928
G01 X265.863 Y290.883
G01 X266.526 Y290.847
G01 X269.066 Y291.188
G01 X271.679 Y291.376
G01 X274.354 Y291.403
G01 X275.967 Y291.342
G01 X279.097 Y291.638
G01 X282.316 Y291.724
G01 X283.048 Y291.713
G01 X283.901 Y288.722
G01 X284.542 Y285.751
G01 X284.976 Y282.814
G01 X285.014 Y282.465
G01 X285.744 Y280.018
G01 X286.320 Y277.580
G01 X286.744 Y275.159
G01 X286.980 Y273.217
G01 X287.565 Y271.089
G01 X288.032 Y268.959
G01 X288.382 Y266.836
G01 X288.454 Y266.281
G01 X289.898 Y264.628
G01 X291.270 Y262.872
G01 X292.565 Y261.016
G01 X293.775 Y259.063
G01 X294.065 Y258.559
G01 X295.763 Y256.578
G01 X297.369 Y254.450
G01 X298.874 Y252.180
G01 X299.675 Y250.836
G01 X301.658 Y248.333
G01 X303.510 Y245.638
G01 X303.883 Y245.044
G01 X301.799 Y242.658
G01 X299.614 Y240.464
G01 X297.343 Y238.466
G01 X297.134 Y238.295
G01 X295.446 Y236.314
G01 X293.680 Y234.471
G01 X291.845 Y232.766
G01 X290.384 Y231.545
G01 X288.890 Y229.865
G01 X287.330 Y228.287
G01 X285.709 Y226.813
G01 X285.322 Y226.483
G01 X284.712 Y224.344
G01 X283.977 Y222.210
G01 X283.114 Y220.087
G01 X282.123 Y217.983
G01 X281.869 Y217.487
G01 X281.124 Y214.961
G01 X280.206 Y212.432
G01 X279.113 Y209.912
G01 X278.415 Y208.490
G01 X277.390 Y205.445
G01 X276.131 Y202.405
G01 X275.825 Y201.743
G01 X272.637 Y202.200
G01 X269.558 Y202.850
G01 X266.599 Y203.683
G01 X266.399 Y203.746
G01 X263.783 Y204.088
G01 X261.240 Y204.573
G01 X258.778 Y205.194
G01 X256.974 Y205.750
G01 X254.726 Y206.092
G01 X252.529 Y206.546
G01 X250.388 Y207.108
G01 X249.904 Y207.253
G01 X247.770 Y206.596
G01 X245.572 Y206.047
G01 X243.314 Y205.612
G01 X241.003 Y205.294
G01 X240.390 Y205.230
G01 X237.863 Y204.477
G01 X235.241 Y203.867
G01 X232.531 Y203.407
G01 X230.875 Y203.208
G01 X227.763 Y202.408
G01 X224.529 Y201.805
G01 X223.739 Y201.691
G01 X222.374 Y204.637
G01 X221.232 Y207.596
G01 X220.312 Y210.555
G01 X220.253 Y210.772
G01 X219.107 Y213.165
G01 X218.122 Y215.573
G01 X217.297 Y217.987
G01 X216.767 Y219.853
G01 X215.825 Y221.929
G01 X215.007 Y224.024
G01 X214.310 Y226.130
G01 X214.152 Y226.664
G01 X212.438 Y228.094
G01 X210.780 Y229.637
G01 X209.184 Y231.291
G01 X207.657 Y233.053
G01 X207.210 Y233.607
G01 X205.200 Y235.314
G01 X203.257 Y237.180
G01 X201.393 Y239.202
G01 X200.267 Y240.549
G01 X197.896 Y242.726
G01 X195.623 Y245.114
G01 X195.061 Y245.756
G01 X196.787 Y248.509
G01 X198.647 Y251.083
G01 X200.627 Y253.470
G01 X200.832 Y253.699
G01 X202.212 Y255.965
G01 X203.694 Y258.105
G01 X205.267 Y260.114
G01 X206.603 Y261.642
G01 X207.830 Y263.564
G01 X209.139 Y265.393
G01 X210.526 Y267.127
G01 X210.931 Y267.600
G01 X211.196 Y269.825
G01 X211.587 Y272.067
G01 X212.106 Y274.316
G01 X212.754 Y276.568
G01 X212.991 Y277.292
G01 X213.329 Y279.928
G01 X213.840 Y282.595
G01 X214.526 Y285.282
G01 X215.051 Y286.985
G01 X215.591 Y290.194
G01 X216.364 Y293.435
G01 X216.596 Y294.254
G01 X219.851 Y294.307
G01 X223.028 Y294.151
G01 X226.114 Y293.794
G01 X226.492 Y293.736
G01 X229.153 Y293.813
G01 X231.764 Y293.736
G01 X234.317 Y293.512
G01 X236.387 Y293.217
G01 X238.681 Y293.234
G01 X240.943 Y293.132
G01 X243.168 Y292.913
G01 X243.809 Y292.828
G01 X245.849 Y293.808
G01 X247.970 Y294.689
G01 X250.168 Y295.465
G01 X252.367 Y296.113
G01 X254.757 Y297.238
G01 X257.263 Y298.237
G01 X259.879 Y299.100
G01 X260.925 Y299.398
G01 X263.864 Y300.737
G01 X266.960 Y301.902
G01 X269.482 Y302.683
G01 X271.302 Y299.925
G01 X272.900 Y297.119
G01 X274.066 Y294.745
G01 X275.604 Y292.468
G01 X276.978 Y290.150
G01 X278.188 Y287.802
G01 X278.649 Y286.806
G01 X279.988 Y284.853
G01 X281.206 Y282.859
G01 X282.301 Y280.831
G01 X283.232 Y278.867
G01 X285.200 Y277.667
G01 X287.128 Y276.341
G01 X289.010 Y274.892
G01 X290.716 Y273.430
G01 X293.002 Y272.011
G01 X295.243 Y270.422
G01 X297.430 Y268.665
G01 X298.199 Y267.993
G01 X300.968 Y266.226
G01 X303.676 Y264.228
G01 X305.683 Y262.556
G01 X304.336 Y259.478
G01 X302.826 Y256.563
G01 X301.483 Y254.315
G01 X300.390 Y251.740
G01 X299.172 Y249.284
G01 X297.836 Y246.951
G01 X297.284 Y246.073
G01 X296.357 Y243.847
G01 X295.328 Y241.703
G01 X294.201 Y239.645
G01 X293.084 Y237.831
G01 X293.148 Y235.492
G01 X293.084 Y233.118
G01 X292.889 Y230.716
G01 X292.596 Y228.510
G01 X292.650 Y225.788
G01 X292.536 Y223.010
G01 X292.249 Y220.187
G01 X292.108 Y219.190
G01 X292.133 Y215.875
G01 X291.930 Y212.487
G01 X291.619 Y209.869
G01 X288.247 Y209.315
G01 X284.924 Y208.991
G01 X282.337 Y208.894
G01 X279.539 Y208.402
G01 X276.772 Y208.082
G01 X274.047 Y207.932
G01 X273.055 Y207.918
G01 X270.651 Y207.477
G01 X268.261 Y207.170
G01 X265.891 Y206.993
G01 X263.772 Y206.943
G01 X261.833 Y205.607
G01 X259.795 Y204.360
G01 X257.663 Y203.207
G01 X255.617 Y202.234
G01 X253.356 Y200.701
G01 X250.958 Y199.278
G01 X248.428 Y197.975
G01 X247.462 Y197.526
G01 X244.693 Y195.696
G01 X241.739 Y194.017
G01 X239.307 Y192.818
G01 X236.981 Y195.370
G01 X234.878 Y198.007
G01 X233.381 Y200.136
G01 X231.428 Y202.230
G01 X229.640 Y204.393
G01 X228.017 Y206.613
G01 X227.455 Y207.454
G01 X225.767 Y209.237
G01 X224.198 Y211.083
G01 X222.752 Y212.982
G01 X221.529 Y214.772
G01 X219.351 Y215.670
G01 X217.194 Y216.698
G01 X215.066 Y217.856
G01 X213.064 Y219.085
G01 X210.547 Y220.144
G01 X208.048 Y221.377
G01 X205.577 Y222.786
G01 X204.600 Y223.398
G01 X201.556 Y224.721
G01 X198.536 Y226.282
G01 X196.135 Y227.711
G01 X197.009 Y231.060
G01 X198.077 Y234.269
G01 X199.071 Y236.746
G01 X199.762 Y239.527
G01 X200.601 Y242.209
G01 X201.578 Y244.782
G01 X202.007 Y245.781
G01 X202.581 Y248.169
G01 X203.272 Y250.490
G01 X204.075 Y252.739
G01 X204.942 Y254.816
G01 X204.506 Y257.135
G01 X204.192 Y259.508
G01 X204.002 Y261.929
G01 X203.940 Y264.347
G01 X203.454 Y267.046
G01 X203.124 Y269.826
G01 X202.958 Y272.678
G01 X202.939 Y273.877
G01 X202.386 Y277.174
G01 X202.048 Y280.581
G01 X201.937 Y283.408
G01 X205.223 Y284.502
G01 X208.496 Y285.357
G01 X211.194 Y285.889
G01 X213.906 Y286.826
G01 X216.615 Y287.586
G01 X219.310 Y288.172
G01 X220.451 Y288.369
G01 X222.773 Y289.191
G01 X225.104 Y289.879
G01 X227.436 Y290.434
G01 X229.707 Y290.849
G01 X231.431 Y292.494
G01 X233.268 Y294.066
G01 X235.215 Y295.559
G01 X237.220 Y296.933
G01 X239.245 Y298.835
G01 X241.426 Y300.649
G01 X243.760 Y302.363
G01 X244.732 Y303.016
G01 X247.235 Y305.310
G01 X249.950 Y307.480
G01 X252.245 Y309.100
G01 X254.968 Y306.927
G01 X257.484 Y304.634
G01 X259.428 Y302.631
G01 X261.711 Y300.851
G01 X263.842 Y298.977
G01 X265.818 Y297.020
G01 X266.612 Y296.163
G01 X268.588 Y294.645
G01 X270.455 Y293.046
G01 X272.211 Y291.372
G01 X273.796 Y289.695
G01 X276.152 Y289.134
G01 X278.510 Y288.436
G01 X280.862 Y287.600
G01 X283.069 Y286.682
G01 X285.814 Y286.006
G01 X288.571 Y285.147
G01 X291.328 Y284.102
G01 X292.341 Y283.669
G01 X295.685 Y282.802
G01 X299.041 Y281.685
G01 X301.614 Y280.656
G01 X301.268 Y277.140
G01 X300.706 Y273.734
G01 X300.089 Y271.026
G01 X299.833 Y268.097
G01 X299.414 Y265.245
G01 X298.837 Y262.479
G01 X298.564 Y261.396
G01 X298.361 Y258.870
G01 X298.029 Y256.392
G01 X297.572 Y253.969
G01 X297.039 Y251.766
G01 X297.863 Y249.447
G01 X298.571 Y247.051
G01 X299.158 Y244.584
G01 X299.584 Y242.268
G01 X300.523 Y239.559
G01 X301.313 Y236.741
G01 X301.945 Y233.820
G01 X302.129 Y232.770
G01 X303.233 Y229.456
G01 X304.134 Y225.994
G01 X304.674 Y223.271
G01 X301.482 Y221.621
G01 X298.265 Y220.217
G01 X295.690 Y219.272
G01 X293.052 Y217.870
G01 X290.388 Y216.651
G01 X287.711 Y215.614
G01 X286.707 Y215.272
G01 X284.445 Y214.049
G01 X282.152 Y212.964
G01 X279.837 Y212.015
G01 X277.724 Y211.273
G01 X276.214 Y209.301
G01 X274.576 Y207.386
G01 X272.813 Y205.536
G01 X271.089 Y203.903
G01 X269.319 Y201.627
G01 X267.376 Y199.418
G01 X265.261 Y197.285
G01 X264.453 Y196.534
G01 X262.269 Y193.794
G01 X259.851 Y191.144
G01 X257.817 Y189.164
G01 X254.657 Y190.964
G01 X251.691 Y192.922
G01 X249.501 Y194.565
G01 X246.861 Y196.029
G01 X244.364 Y197.615
G01 X242.014 Y199.312
G01 X241.184 Y199.966
G01 X238.909 Y201.205
G01 X236.734 Y202.546
G01 X234.664 Y203.980
G01 X232.867 Y205.367
G01 X230.396 Y205.578
G01 X227.905 Y205.926
G01 X225.402 Y206.413
G01 X223.750 Y206.811
G01 X220.930 Y207.069
G01 X218.073 Y207.503
G01 X215.192 Y208.116
G01 X214.633 Y208.255
G01 X211.214 Y208.530
G01 X207.741 Y209.044
G01 X204.229 Y209.802
G01 X203.236 Y210.060
G01 X202.970 Y213.667
G01 X202.940 Y217.201
G01 X203.140 Y220.648
G01 X203.236 Y221.599
G01 X203.048 Y224.550
G01 X203.033 Y227.450
G01 X203.188 Y230.289
G01 X203.236 Y230.829
G01 X203.056 Y233.396
G01 X203.013 Y235.934
G01 X203.105 Y238.435
G01 X203.236 Y240.060
G01 X202.066 Y242.247
G01 X200.999 Y244.525
G01 X200.042 Y246.890
G01 X199.451 Y248.563
G01 X198.127 Y251.072
G01 X196.931 Y253.708
G01 X195.872 Y256.463
G01 X195.665 Y257.066
G01 X194.026 Y260.094
G01 X192.558 Y263.298
G01 X191.274 Y266.670
G01 X190.933 Y267.695
G01 X193.811 Y269.885
G01 X196.758 Y271.838
G01 X199.756 Y273.551
G01 X200.690 Y274.031
G01 X203.062 Y275.799
G01 X205.487 Y277.393
G01 X207.952 Y278.813
G01 X208.496 Y279.101
G01 X210.553 Y280.653
G01 X212.660 Y282.074
G01 X214.810 Y283.364
G01 X216.302 Y284.170
G01 X217.506 Y286.357
G01 X218.844 Y288.508
G01 X220.316 Y290.613
G01 X221.414 Y292.041
G01 X222.810 Y294.541
G01 X224.384 Y297.003
G01 X226.136 Y299.415
G01 X226.525 Y299.911
G01 X228.192 Y302.972
G01 X230.104 Y305.985
G01 X232.261 Y308.932
G01 X232.914 Y309.750
G01 X236.331 Y308.525
G01 X239.586 Y307.113
G01 X242.669 Y305.528
G01 X243.630 Y304.978
G01 X246.421 Y303.945
G01 X249.094 Y302.774
G01 X251.644 Y301.473
G01 X252.204 Y301.161
G01 X254.645 Y300.274
G01 X257.005 Y299.272
G01 X259.278 Y298.162
G01 X260.777 Y297.344
G01 X263.303 Y297.528
G01 X265.871 Y297.576
G01 X268.477 Y297.485
G01 X270.239 Y297.344
G01 X273.142 Y297.537
G01 X276.112 Y297.555
G01 X279.138 Y297.394
G01 X279.700 Y297.344
G01 X283.234 Y297.615
G01 X286.862 Y297.650
G01 X290.571 Y297.438
G01 X291.527 Y297.344
G01 X292.368 Y293.770
G01 X292.963 Y290.232
G01 X293.315 Y286.744
G01 X293.377 Y285.663
G01 X294.037 Y282.721
G01 X294.516 Y279.801
G01 X294.816 Y276.916
G01 X294.857 Y276.318
G01 X295.450 Y273.748
G01 X295.900 Y271.185
G01 X296.209 Y268.635
G01 X296.337 Y266.973
G01 X297.891 Y264.920
G01 X299.352 Y262.756
G01 X300.715 Y260.484
G01 X301.532 Y258.973
G01 X303.300 Y256.606
G01 X304.956 Y254.086
G01 X306.490 Y251.420
G01 X306.727 Y250.973
G01 X308.906 Y248.119
G01 X310.936 Y245.052
G01 X312.802 Y241.783
G01 X313.221 Y240.974
G01 X310.640 Y238.281
G01 X307.951 Y235.819
G01 X305.173 Y233.591
G01 X304.361 Y232.996
G01 X302.217 Y230.806
G01 X299.993 Y228.785
G01 X297.699 Y226.934
G01 X297.272 Y226.613
G01 X295.410 Y224.688
G01 X293.475 Y222.889
G01 X291.474 Y221.217
G01 X290.184 Y220.231
G01 X289.298 Y217.784
G01 X288.267 Y215.354
G01 X287.090 Y212.949
G01 X286.273 Y211.447
G01 X285.241 Y208.653
G01 X284.021 Y205.870
G01 X282.610 Y203.110
G01 X282.362 Y202.663
G01 X281.148 Y199.263
G01 X279.675 Y195.872
G01 X277.942 Y192.508
G01 X277.473 Y191.683
G01 X273.759 Y192.391
G01 X270.183 Y193.319
G01 X266.757 Y194.455
G01 X265.863 Y194.793
G01 X262.825 Y195.405
G01 X259.885 Y196.180
G01 X257.052 Y197.107
G01 X256.576 Y197.282
G01 X253.923 Y197.799
G01 X251.336 Y198.448
G01 X248.823 Y199.223
G01 X247.288 Y199.771
G01 X244.745 Y199.179
G01 X242.138 Y198.718
G01 X239.474 Y198.392
G01 X237.715 Y198.254
G01 X234.807 Y197.596
G01 X231.806 Y197.102
G01 X228.721 Y196.779
G01 X228.142 Y196.738
G01 X224.670 Y195.988
G01 X221.074 Y195.455
G01 X218.569 Y195.222
G01 X216.176 Y194.843
G01 X214.795 Y198.451
G01 X213.684 Y202.057
G01 X213.181 Y204.061
G01 X211.992 Y207.076
G01 X211.008 Y210.094
G01 X210.225 Y213.103
G01 X210.186 Y213.279
G01 X209.142 Y215.870
G01 X208.255 Y218.474
G01 X207.524 Y221.081
G01 X207.191 Y222.497
G01 X206.442 Y224.801
G01 X204.560 Y226.610
G01 X202.752 Y228.543
G01 X201.026 Y230.598
G01 X199.905 Y232.061
G01 X197.767 Y234.141
G01 X195.715 Y236.388
G01 X193.762 Y238.799
G01 X193.368 Y239.321
G01 X190.843 Y241.827
G01 X188.432 Y244.555
G01 X186.831 Y246.581
G01 X185.197 Y248.396
G01 X187.471 Y251.522
G01 X189.890 Y254.422
G01 X191.345 Y255.988
G01 X193.224 Y258.629
G01 X195.218 Y261.100
G01 X197.314 Y263.397
G01 X197.493 Y263.580
G01 X199.096 Y265.868
G01 X200.796 Y268.032
G01 X202.583 Y270.067
G01 X203.641 Y271.172
G01 X205.178 Y273.071
G01 X205.670 Y275.644
G01 X206.308 Y278.223
G01 X207.094 Y280.800
G01 X207.726 Y282.581
G01 X208.308 Y285.526
G01 X209.080 Y288.490
G01 X210.045 Y291.461
G01 X210.275 Y292.092
G01 X211.007 Y295.606
G01 X211.991 Y299.145
G01 X212.823 Y301.602
G01 X213.460 Y303.980
G01 X217.326 Y303.777
G01 X221.082 Y303.328
G01 X223.252 Y302.951
G01 X226.500 Y302.813
G01 X229.668 Y302.487
G01 X232.746 Y301.981
G01 X233.044 Y301.922
G01 X235.850 Y301.822
G01 X238.604 Y301.575
G01 X241.299 Y301.184
G01 X242.837 Y300.893
G01 X245.285 Y300.635
G01 X247.739 Y301.635
G01 X250.279 Y302.514
G01 X252.901 Y303.267
G01 X254.722 Y303.702
G01 X257.548 Y304.832
G01 X260.495 Y305.811
G01 X263.557 Y306.629
G01 X264.160 Y306.768
G01 X267.557 Y308.086
G01 X271.117 Y309.203
G01 X273.597 Y309.834
G01 X275.956 Y310.601
G01 X277.906 Y307.220
G01 X279.590 Y303.798
G01 X280.461 Y301.760
G01 X282.130 Y298.932
G01 X283.596 Y296.068
G01 X284.861 Y293.181
G01 X284.966 Y292.918
G01 X286.427 Y290.481
G01 X287.734 Y288.005
G01 X288.888 Y285.500
G01 X289.471 Y284.076
G01 X290.597 Y281.866
G01 X292.790 Y280.316
G01 X294.926 Y278.626
G01 X296.998 Y276.798
G01 X297.814 Y276.022
G01 X300.358 Y274.284
G01 X302.843 Y272.357
G01 X305.257 Y270.243
G01 X306.834 Y268.718
G01 X309.944 Y266.530
G01 X312.971 Y264.080
G01 X315.855 Y261.413
G01 X314.121 Y257.895
G01 X312.206 Y254.576
G01 X310.125 Y251.464
G01 X310.051 Y251.361
G01 X308.660 Y248.450
G01 X307.130 Y245.678
G01 X305.474 Y243.052
G01 X304.248 Y241.309
G01 X303.009 Y238.815
G01 X301.658 Y236.422
G01 X300.202 Y234.133
G01 X299.605 Y233.267
G01 X299.496 Y230.550
G01 X299.237 Y227.804
G01 X298.827 Y225.038
G01 X298.627 Y223.961
G01 X298.552 Y220.850
G01 X298.285 Y217.684
G01 X297.822 Y214.477
G01 X297.404 Y212.329
G01 X297.261 Y208.501
G01 X296.852 Y204.600
G01 X296.181 Y200.697
G01 X292.230 Y200.230
G01 X288.348 Y200.028
G01 X284.552 Y200.082
G01 X284.501 Y200.085
G01 X281.259 Y199.661
G01 X278.061 Y199.433
G01 X274.917 Y199.394
G01 X272.821 Y199.472
G01 X270.024 Y199.150
G01 X267.251 Y198.978
G01 X264.511 Y198.954
G01 X263.476 Y198.983
G01 X261.126 Y197.587
G01 X258.670 Y196.301
G01 X256.115 Y195.132
G01 X255.075 Y194.702
G01 X252.418 Y193.065
G01 X249.611 Y191.560
G01 X246.663 Y190.196
G01 X244.574 Y189.352
G01 X241.284 Y187.384
G01 X237.788 Y185.598
G01 X234.097 Y184.010
G01 X234.073 Y184.001
G01 X231.507 Y187.086
G01 X229.205 Y190.258
G01 X227.167 Y193.499
G01 X227.146 Y193.536
G01 X225.011 Y196.038
G01 X223.065 Y198.611
G01 X221.310 Y201.242
G01 X220.218 Y203.071
G01 X218.416 Y205.248
G01 X216.755 Y207.487
G01 X215.237 Y209.779
G01 X214.676 Y210.699
G01 X212.225 Y211.909
G01 X209.808 Y213.266
G01 X207.435 Y214.770
G01 X206.449 Y215.449
G01 X203.690 Y216.828
G01 X200.965 Y218.397
G01 X198.284 Y220.155
G01 X198.222 Y220.199
G01 X194.921 Y221.802
G01 X191.657 Y223.660
G01 X188.448 Y225.772
G01 X187.938 Y226.136
G01 X185.881 Y227.324
G01 X187.071 Y231.163
G01 X188.477 Y234.830
G01 X190.087 Y238.312
G01 X190.136 Y238.410
G01 X191.151 Y241.578
G01 X192.329 Y244.617
G01 X193.541 Y247.279
G01 X194.410 Y250.052
G01 X195.414 Y252.732
G01 X196.544 Y255.315
G01 X196.945 Y256.148
G01 X197.797 Y258.365
G01 X197.474 Y261.085
G01 X197.294 Y263.855
G01 X197.262 Y266.670
G01 X197.296 Y267.923
G01 X196.947 Y270.999
G01 X196.777 Y274.151
G01 X196.791 Y277.369
G01 X196.795 Y277.482
G01 X196.338 Y281.144
G01 X196.116 Y284.915
G01 X196.140 Y288.780
G01 X196.169 Y289.430
G01 X196.043 Y291.819
G01 X199.913 Y292.915
G01 X203.755 Y293.735
G01 X207.554 Y294.286
G01 X207.746 Y294.307
G01 X210.959 Y295.183
G01 X214.154 Y295.853
G01 X217.108 Y296.297
G01 X219.915 Y297.080
G01 X222.718 Y297.702
G01 X225.508 Y298.163
G01 X226.471 Y298.287
G01 X228.811 Y298.784
G01 X230.934 Y300.551
G01 X233.180 Y302.225
G01 X235.545 Y303.799
G01 X236.612 Y304.452
G01 X239.029 Y306.441
G01 X241.609 Y308.321
G01 X244.347 Y310.080
G01 X244.414 Y310.120
G01 X247.274 Y312.529
G01 X250.358 Y314.796
G01 X253.657 Y316.906
G01 X254.165 Y317.205
G01 X256.116 Y318.622
G01 X259.159 Y315.959
G01 X261.956 Y313.167
G01 X264.502 Y310.266
G01 X264.639 Y310.099
G01 X267.142 Y307.864
G01 X269.462 Y305.531
G01 X271.457 Y303.280
G01 X273.663 Y301.334
G01 X275.731 Y299.301
G01 X277.657 Y297.191
G01 X278.276 Y296.462
G01 X279.980 Y294.757
G01 X282.656 Y293.926
G01 X285.322 Y292.938
G01 X287.967 Y291.794
G01 X289.049 Y291.276
G01 X292.078 Y290.317
G01 X295.105 Y289.157
G01 X298.116 Y287.796
G01 X298.119 Y287.795
G01 X301.750 Y286.689
G01 X305.384 Y285.314
G01 X309.003 Y283.669
G01 X309.455 Y283.443
G01 X311.722 Y282.573
G01 X311.136 Y278.521
G01 X310.307 Y274.607
G01 X309.246 Y270.846
G01 X309.197 Y270.695
G01 X308.677 Y267.333
G01 X307.974 Y264.073
G01 X307.178 Y261.193
G01 X306.739 Y258.241
G01 X306.150 Y255.358
G01 X305.417 Y252.554
G01 X305.158 Y251.691
G01 X304.653 Y249.316
G01 X305.422 Y246.581
G01 X306.052 Y243.770
G01 X306.538 Y240.888
G01 X306.688 Y239.744
G01 X307.542 Y236.644
G01 X308.224 Y233.436
G01 X308.722 Y230.172
G01 X309.781 Y226.487
G01 X310.615 Y222.653
G01 X311.211 Y218.683
G01 X311.265 Y218.207
G01 X311.774 Y215.814
G01 X308.002 Y214.075
G01 X304.213 Y212.622
G01 X300.426 Y211.450
G01 X300.354 Y211.431
G01 X297.208 Y210.017
G01 X294.046 Y208.817
G01 X291.219 Y207.924
G01 X288.468 Y206.669
G01 X285.695 Y205.581
G01 X282.909 Y204.658
G01 X282.083 Y204.417
G01 X279.799 Y203.540
G01 X277.910 Y201.390
G01 X275.881 Y199.316
G01 X273.715 Y197.326
G01 X272.829 Y196.570
G01 X270.684 Y194.154
G01 X268.355 Y191.823
G01 X265.859 Y189.600
G01 X263.339 Y186.697
G01 X260.572 Y183.901
G01 X257.561 Y181.229
G01 X257.146 Y180.887
G01 X255.404 Y179.145
G01 X251.855 Y181.384
G01 X248.540 Y183.796
G01 X245.465 Y186.361
G01 X245.436 Y186.387
G01 X242.512 Y188.272
G01 X239.762 Y190.286
G01 X237.461 Y192.181
G01 X234.894 Y193.814
G01 X232.456 Y195.557
G01 X230.152 Y197.402
G01 X229.486 Y197.975
G01 X227.493 Y199.423
G01 X224.658 Y199.836
G01 X221.810 Y200.407
G01 X218.959 Y201.138
G01 X217.781 Y201.488
G01 X214.586 Y201.970
G01 X211.363 Y202.651
G01 X208.123 Y203.536
G01 X208.069 Y203.552
G01 X204.263 Y204.082
G01 X200.412 Y204.877
G01 X196.533 Y205.943
G01 X195.930 Y206.132
G01 X193.502 Y206.648
G01 X193.445 Y210.859
G01 X193.661 Y214.967
G01 X194.138 Y218.956
G01 X194.152 Y219.042
G01 X194.138 Y222.527
G01 X194.328 Y225.937
G01 X194.671 Y228.957
G01 X194.641 Y232.001
G01 X194.773 Y234.997
G01 X195.064 Y237.936
G01 X195.191 Y238.872
G01 X195.321 Y241.351
G01 X194.075 Y243.948
G01 X192.955 Y246.647
G01 X191.967 Y249.442
G01 X191.140 Y252.242
G01 X189.716 Y255.268
G01 X188.451 Y258.439
G01 X187.355 Y261.746
G01 X186.959 Y263.134
G01 X185.270 Y266.839
G01 X183.798 Y270.739
G01 X182.778 Y274.026
G01 X186.310 Y276.355
G01 X189.903 Y278.398
G01 X192.882 Y279.859
G01 X195.785 Y281.822
G01 X198.740 Y283.574
G01 X201.733 Y285.115
G01 X202.985 Y285.693
G01 X205.463 Y287.395
G01 X207.992 Y288.941
G01 X210.565 Y290.330
G01 X213.089 Y291.526
G01 X214.597 Y294.001
G01 X216.260 Y296.426
G01 X218.077 Y298.791
G01 X219.995 Y301.032
G01 X221.772 Y303.900
G01 X223.761 Y306.712
G01 X225.958 Y309.456
G01 X226.902 Y310.538
G01 X229.113 Y314.010
G01 X231.612 Y317.405
G01 X233.808 Y320.044
G01 X237.698 Y318.345
G01 X241.381 Y316.439
G01 X244.278 Y314.709
G01 X247.521 Y313.336
G01 X250.616 Y311.804
G01 X253.555 Y310.125
G01 X254.747 Y309.375
G01 X257.544 Y308.215
G01 X260.238 Y306.925
G01 X262.825 Y305.514
G01 X265.216 Y304.041
G01 X268.150 Y304.124
G01 X271.127 Y304.047
G01 X274.140 Y303.806
G01 X277.033 Y303.421
G01 X280.454 Y303.492
G01 X283.945 Y303.352
G01 X287.493 Y302.995
G01 X288.850 Y302.802
G01 X293.027 Y302.837
G01 X297.296 Y302.584
G01 X300.668 Y302.183
G01 X301.367 Y297.953
G01 X301.778 Y293.785
G01 X301.904 Y290.414
G01 X302.525 Y286.905
G01 X302.929 Y283.435
G01 X303.122 Y280.015
G01 X303.141 Y278.646
G01 X303.697 Y275.629
G01 X304.086 Y272.627
G01 X304.312 Y269.649
G01 X304.378 Y266.877
G01 X306.067 Y264.427
G01 X307.645 Y261.851
G01 X309.102 Y259.155
G01 X310.337 Y256.557
G01 X312.282 Y253.689
G01 X314.087 Y250.646
G01 X315.739 Y247.434
G01 X316.295 Y246.237
G01 X318.623 Y242.713
G01 X320.758 Y238.953
G01 X322.253 Y235.917
G01 X319.041 Y232.988
G01 X315.722 Y230.339
G01 X312.992 Y228.417
G01 X310.349 Y225.953
G01 X307.620 Y223.695
G01 X304.818 Y221.646
G01 X303.731 Y220.918
G01 X301.473 Y218.782
G01 X299.136 Y216.796
G01 X296.729 Y214.963
G01 X294.470 Y213.419
G01 X293.324 Y210.643
G01 X292.010 Y207.893
G01 X290.529 Y205.179
G01 X289.022 Y202.727
G01 X287.667 Y199.513
G01 X286.088 Y196.322
G01 X284.285 Y193.167
G01 X283.575 Y192.034
G01 X281.880 Y188.147
G01 X279.883 Y184.292
G01 X278.127 Y181.342
G01 X273.872 Y182.455
G01 X269.797 Y183.813
G01 X266.714 Y185.051
G01 X263.173 Y185.934
G01 X259.759 Y187.005
G01 X256.483 Y188.252
G01 X255.301 Y188.759
G01 X252.256 Y189.495
G01 X249.295 Y190.380
G01 X246.427 Y191.408
G01 X243.889 Y192.467
G01 X240.929 Y191.915
G01 X237.901 Y191.517
G01 X234.813 Y191.278
G01 X231.871 Y191.204
G01 X228.436 Y190.589
G01 X224.899 Y190.172
G01 X221.270 Y189.964
G01 X219.854 Y189.941
G01 X215.673 Y189.243
G01 X211.353 Y188.816
G01 X207.837 Y188.678
G01 X206.444 Y192.874
G01 X205.358 Y197.053
G01 X204.710 Y200.349
G01 X203.516 Y203.812
G01 X202.550 Y207.269
G01 X201.809 Y210.707
G01 X201.582 Y212.021
G01 X200.537 Y214.981
G01 X199.664 Y217.950
G01 X198.961 Y220.919
G01 X198.455 Y223.693
G01 X196.379 Y225.872
G01 X194.395 Y228.193
G01 X192.511 Y230.652
G01 X190.798 Y233.148
G01 X188.408 Y235.694
G01 X186.130 Y238.434
G01 X183.975 Y241.364
G01 X183.142 Y242.603
G01 X180.272 Y245.734
G01 X177.554 Y249.130
G01 X175.485 Y252.059
G01 X178.245 Y255.515
G01 X181.158 Y258.706
G01 X183.626 Y261.100
G01 X185.878 Y263.988
G01 X188.250 Y266.683
G01 X190.728 Y269.180
G01 X191.767 Y270.142
G01 X193.679 Y272.632
G01 X195.693 Y274.984
G01 X197.800 Y277.193
G01 X199.908 Y279.183
G01 X200.663 Y282.086
G01 X201.584 Y284.983
G01 X202.672 Y287.866
G01 X202.936 Y288.504
G01 X203.739 Y291.800
G01 X204.754 Y295.108
G01 X205.985 Y298.414
G01 X206.722 Y300.154
G01 X207.739 Y304.134
G01 X209.046 Y308.130
G01 X210.507 Y311.805
G01 X211.264 Y314.135
G01 X215.673 Y313.703
G01 X219.943 Y312.999
G01 X223.364 Y312.218
G01 X227.023 Y311.902
G01 X230.586 Y311.380
G01 X234.042 Y310.661
G01 X235.463 Y310.302
G01 X238.608 Y310.053
G01 X241.693 Y309.643
G01 X244.711 Y309.077
G01 X247.562 Y308.386
G01 X250.436 Y309.343
G01 X253.399 Y310.156
G01 X256.442 Y310.819
G01 X257.092 Y310.939
G01 X260.333 Y312.075
G01 X263.702 Y313.035
G01 X267.189 Y313.811
G01 X269.006 Y314.131
G01 X272.950 Y315.462
G01 X277.069 Y316.555
G01 X280.919 Y317.324
G01 X283.301 Y317.962
G01 X285.355 Y314.000
G01 X287.103 Y310.005
G01 X288.318 Y306.695
G01 X290.060 Y303.422
G01 X291.577 Y300.118
G01 X292.867 Y296.797
G01 X293.334 Y295.428
G01 X294.854 Y292.622
G01 X296.204 Y289.779
G01 X297.385 Y286.907
G01 X298.351 Y284.161
G01 X300.750 Y282.244
G01 X303.077 Y280.173
G01 X305.320 Y277.950
G01 X305.732 Y277.514
G01 X308.485 Y275.384
G01 X311.160 Y273.049
G01 X313.742 Y270.511
G01 X314.960 Y269.206
G01 X318.264 Y266.588
G01 X321.461 Y263.691
G01 X324.187 Y260.897
G01 X326.033 Y259.236
G01 X323.798 Y255.307
G01 X321.367 Y251.621
G01 X319.270 Y248.822
G01 X317.449 Y245.536
G01 X315.475 Y242.425
G01 X313.364 Y239.497
G01 X312.507 Y238.409
G01 X310.960 Y235.569
G01 X309.287 Y232.853
G01 X307.496 Y230.266
G01 X305.745 Y227.995
G01 X305.483 Y224.886
G01 X305.048 Y221.750
G01 X304.437 Y218.598
G01 X303.912 Y216.421
G01 X303.588 Y212.853
G01 X303.041 Y209.239
G01 X302.265 Y205.591
G01 X302.078 Y204.846
G01 X301.647 Y200.578
G01 X300.917 Y196.248
G01 X300.245 Y193.272
G01 X299.879 Y190.957
G01 X295.290 Y190.716
G01 X290.802 Y190.778
G01 X288.160 Y190.957
G01 X284.314 Y190.716
G01 X280.538 Y190.706
G01 X276.846 Y190.920
G01 X276.441 Y190.957
G01 X273.124 Y190.725
G01 X269.849 Y190.674
G01 X266.626 Y190.800
G01 X264.722 Y190.957
G01 X262.379 Y190.957
G01 X259.617 Y189.477
G01 X256.739 Y188.128
G01 X253.751 Y186.918
G01 X251.602 Y186.159
G01 X248.427 Y184.483
G01 X245.092 Y182.969
G01 X241.605 Y181.629
G01 X240.825 Y181.360
G01 X237.008 Y179.396
G01 X232.978 Y177.646
G01 X230.048 Y176.562
G01 X227.892 Y175.603
G01 X225.171 Y179.346
G01 X222.762 Y183.171
G01 X221.467 Y185.496
G01 X219.157 Y188.606
G01 X217.081 Y191.784
G01 X215.240 Y195.014
G01 X215.042 Y195.390
G01 X213.033 Y198.054
G01 X211.199 Y200.781
G01 X209.543 Y203.561
G01 X208.617 Y205.284
G01 X207.332 Y207.262
G01 X204.586 Y208.771
G01 X201.886 Y210.448
G01 X199.244 Y212.292
G01 X197.373 Y213.730
G01 X194.238 Y215.478
G01 X191.151 Y217.448
G01 X188.127 Y219.640
G01 X187.414 Y220.198
G01 X183.685 Y222.327
G01 X180.020 Y224.753
G01 X177.454 Y226.665
G01 X175.463 Y227.959
G01 X177.121 Y232.287
G01 X179.018 Y236.397
G01 X180.293 Y238.807
G01 X181.641 Y242.441
G01 X183.175 Y245.916
G01 X184.880 Y249.222
G01 X185.123 Y249.655
G01 X186.261 Y252.792
G01 X187.548 Y255.816
G01 X188.975 Y258.721
G01 X189.953 Y260.504
G01 X190.919 Y262.673
G01 X190.686 Y265.804
G01 X190.621 Y268.987
G01 X190.727 Y272.214
G01 X190.919 Y274.627
G01 X190.675 Y278.221
G01 X190.645 Y281.896
G01 X190.836 Y285.641
G01 X190.919 Y286.580
G01 X190.671 Y290.891
G01 X190.710 Y295.312
G01 X190.919 Y298.533
G01 X190.919 Y300.923
G01 X195.453 Y301.892
G01 X199.936 Y302.543
G01 X202.725 Y302.793
G01 X206.512 Y303.644
G01 X210.265 Y304.253
G01 X213.972 Y304.627
G01 X214.531 Y304.663
G01 X217.789 Y305.419
G01 X221.035 Y305.990
G01 X224.259 Y306.377
G01 X226.337 Y306.533
G01 X228.698 Y306.907
G01 X231.216 Y308.822
G01 X233.872 Y310.625
G01 X236.659 Y312.307
G01 X238.788 Y313.460
G01 X241.699 Y315.644
G01 X244.798 Y317.691
G01 X248.078 Y319.588
G01 X248.878 Y320.012
G01 X252.401 Y322.597
G01 X256.175 Y324.999
G01 X258.968 Y326.565
G01 X260.987 Y327.876
G01 X264.285 Y324.583
G01 X267.288 Y321.161
G01 X269.037 Y318.935
G01 X271.831 Y316.203
G01 X274.404 Y313.366
G01 X276.753 Y310.441
G01 X277.087 Y309.994
G01 X279.517 Y307.651
G01 X281.783 Y305.217
G01 X283.882 Y302.702
G01 X285.138 Y301.053
G01 X286.748 Y299.265
G01 X289.763 Y298.180
G01 X292.760 Y296.917
G01 X295.726 Y295.474
G01 X297.811 Y294.339
G01 X301.272 Y293.069
G01 X304.722 Y291.563
G01 X308.143 Y289.819
G01 X308.873 Y289.414
G01 X313.012 Y287.845
G01 X317.134 Y285.961
G01 X319.935 Y284.489
G01 X322.148 Y283.503
G01 X321.171 Y278.894
G01 X319.921 Y274.464
G01 X319.014 Y271.807
G01 X318.233 Y267.930
G01 X317.242 Y264.183
G01 X316.052 Y260.577
G01 X315.880 Y260.110
G01 X315.228 Y256.755
G01 X314.408 Y253.488
G01 X313.428 Y250.318
G01 X312.746 Y248.413
G01 X312.119 Y246.074
G01 X312.859 Y242.917
G01 X313.436 Y239.678
G01 X313.844 Y236.367
G01 X314.025 Y234.036
G01 X314.852 Y230.404
G01 X315.472 Y226.654
G01 X315.877 Y222.797
G01 X315.932 Y221.999
G01 X316.877 Y217.637
G01 X317.546 Y213.118
G01 X317.838 Y209.962
G01 X318.220 Y207.554
G01 X313.765 Y205.843
G01 X309.313 Y204.464
G01 X306.629 Y203.788
G01 X302.906 Y202.315
G01 X299.179 Y201.092
G01 X295.463 Y200.118
G01 X295.038 Y200.022
G01 X291.833 Y198.727
G01 X288.612 Y197.625
G01 X285.385 Y196.713
G01 X283.447 Y196.256
G01 X281.128 Y195.502
G01 X278.870 Y193.149
G01 X276.454 Y190.888
G01 X273.885 Y188.729
G01 X272.013 Y187.295
G01 X269.408 Y184.614
G01 X266.591 Y182.041
G01 X263.567 Y179.591
G01 X262.898 Y179.088
G01 X259.749 Y175.913
G01 X256.318 Y172.882
G01 X253.783 Y170.880
G01 X251.960 Y169.239
G01 X248.065 Y172.068
G01 X244.452 Y175.078
G01 X242.428 Y176.958
G01 X239.141 Y179.294
G01 X236.065 Y181.771
G01 X233.204 Y184.376
G01 X232.896 Y184.677
G01 X230.049 Y186.669
G01 X227.356 Y188.780
G01 X224.822 Y191.001
G01 X223.363 Y192.396
G01 X221.457 Y193.940
G01 X218.250 Y194.551
G01 X215.036 Y195.345
G01 X211.824 Y196.322
G01 X209.534 Y197.135
G01 X205.866 Y197.858
G01 X202.175 Y198.817
G01 X198.474 Y200.015
G01 X197.611 Y200.329
G01 X193.233 Y201.239
G01 X188.824 Y202.463
G01 X185.688 Y203.524
G01 X183.303 Y204.163
G01 X183.553 Y208.984
G01 X184.110 Y213.667
G01 X184.593 Y216.439
G01 X184.760 Y220.474
G01 X185.161 Y224.410
G01 X185.787 Y228.234
G01 X185.883 Y228.715
G01 X186.002 Y232.189
G01 X186.304 Y235.599
G01 X186.784 Y238.936
G01 X187.174 Y240.992
G01 X187.432 Y243.447
G01 X186.196 Y246.470
G01 X185.108 Y249.599
G01 X184.176 Y252.826
G01 X183.593 Y255.261
G01 X182.198 Y258.736
G01 X180.987 Y262.361
G01 X179.974 Y266.124
G01 X179.755 Y267.075
G01 X178.126 Y271.255
G01 X176.745 Y275.635
G01 X175.916 Y278.888
G01 X175.148 Y281.251
G01 X179.327 Y283.669
G01 X183.557 Y285.755
G01 X186.216 Y286.891
G01 X189.692 Y288.950
G01 X193.211 Y290.760
G01 X196.760 Y292.321
G01 X197.284 Y292.530
G01 X200.265 Y294.326
G01 X203.293 Y295.933
G01 X206.356 Y297.352
G01 X208.352 Y298.170
G01 X210.566 Y299.297
G01 X212.450 Y301.980
G01 X214.503 Y304.594
G01 X216.724 Y307.129
G01 X217.970 Y308.440
G01 X220.129 Y311.478
G01 X222.511 Y314.441
G01 X225.114 Y317.315
G01 X225.373 Y317.583
G01 X227.962 Y321.154
G01 X230.844 Y324.629
G01 X232.777 Y326.726
G01 X235.739 Y330.383
G01 X240.060 Y328.158
G01 X244.127 Y325.709
G01 X245.927 Y324.501
G01 X249.599 Y322.654
G01 X253.079 Y320.631
G01 X256.116 Y318.619
G01 X259.309 Y317.039
G01 X262.363 Y315.314
G01 X265.270 Y313.454
G01 X266.304 Y312.736
G01 X269.139 Y311.143
G01 X270.380 Y310.383
G01 X273.692 Y310.262
G01 X277.041 Y309.959
G01 X280.416 Y309.470
G01 X282.153 Y309.146
G01 X285.923 Y308.986
G01 X289.753 Y308.595
G01 X293.629 Y307.966
G01 X293.927 Y307.908
G01 X298.388 Y307.677
G01 X302.929 Y307.143
G01 X305.700 Y306.671
G01 X310.409 Y306.176
G01 X310.899 Y301.296
G01 X311.061 Y296.509
G01 X311.029 Y294.354
G01 X311.482 Y290.227
G01 X311.682 Y286.165
G01 X311.648 Y282.532
G01 X312.066 Y278.953
G01 X312.283 Y275.412
G01 X312.305 Y271.921
G01 X312.268 Y270.710
G01 X312.478 Y267.426
G01 X312.516 Y265.981
G01 X314.237 Y263.101
G01 X315.824 Y260.090
G01 X317.268 Y256.954
G01 X317.924 Y255.368
G01 X319.863 Y252.081
G01 X321.639 Y248.616
G01 X323.239 Y244.983
G01 X323.331 Y244.754
G01 X325.589 Y240.847
G01 X327.633 Y236.707
G01 X328.739 Y234.141
G01 X330.902 Y229.895
G01 X327.028 Y226.791
G01 X323.051 Y224.015
G01 X321.266 Y222.894
G01 X318.010 Y220.235
G01 X314.670 Y217.828
G01 X311.629 Y215.892
G01 X308.820 Y213.566
G01 X305.935 Y211.432
G01 X302.984 Y209.492
G01 X301.992 Y208.891
G01 X299.322 Y206.905
G01 X298.137 Y206.090
G01 X296.647 Y203.054
G01 X294.972 Y200.061
G01 X293.115 Y197.120
G01 X292.145 Y195.710
G01 X290.434 Y192.275
G01 X288.485 Y188.879
G01 X286.298 Y185.540
G01 X286.152 Y185.331
G01 X284.097 Y181.295
G01 X281.730 Y177.310
G01 X280.159 Y174.951
G01 X277.762 Y170.800
G01 X273.001 Y172.374
G01 X268.463 Y174.218
G01 X266.573 Y175.095
G01 X262.534 Y176.388
G01 X258.663 Y177.892
G01 X255.384 Y179.390
G01 X251.878 Y180.486
G01 X248.493 Y181.753
G01 X245.237 Y183.181
G01 X244.194 Y183.685
G01 X241.057 Y184.849
G01 X239.719 Y185.403
G01 X236.354 Y184.998
G01 X232.926 Y184.770
G01 X229.443 Y184.725
G01 X227.676 Y184.772
G01 X223.861 Y184.334
G01 X219.951 Y184.117
G01 X215.958 Y184.130
G01 X215.634 Y184.141
G01 X211.130 Y183.664
G01 X206.500 Y183.477
G01 X203.592 Y183.510
G01 X198.775 Y183.257
G01 X197.495 Y188.130
G01 X196.566 Y192.961
G01 X196.268 Y195.053
G01 X195.148 Y199.156
G01 X194.297 Y203.234
G01 X193.761 Y206.848
G01 X192.767 Y210.390
G01 X191.983 Y213.924
G01 X191.405 Y217.438
G01 X191.253 Y218.643
G01 X190.520 Y221.910
G01 X190.251 Y223.361
G01 X188.077 Y225.961
G01 X186.018 Y228.711
G01 X184.081 Y231.605
G01 X183.119 Y233.177
G01 X180.671 Y236.138
G01 X178.357 Y239.300
G01 X176.190 Y242.656
G01 X175.988 Y242.992
G01 X173.130 Y246.514
G01 X170.445 Y250.300
G01 X168.857 Y252.807
G01 X166.004 Y256.733
G01 X169.393 Y260.463
G01 X172.939 Y263.877
G01 X174.583 Y265.312
G01 X177.414 Y268.488
G01 X180.369 Y271.424
G01 X183.162 Y273.891
G01 X185.591 Y276.655
G01 X188.128 Y279.239
G01 X190.760 Y281.640
G01 X191.741 Y282.470
G01 X194.082 Y284.867
G01 X195.173 Y285.901
G01 X196.171 Y289.151
G01 X197.359 Y292.388
G01 X198.737 Y295.601
G01 X199.547 Y297.297
G01 X200.703 Y300.983
G01 X202.101 Y304.667
G01 X203.746 Y308.333
G01 X203.921 Y308.692
G01 X205.328 Y313.039
G01 X207.054 Y317.384
G01 X208.295 Y320.087
G01 X210.045 Y324.645
G01 X215.026 Y323.834
G01 X219.828 Y322.720
G01 X221.984 Y322.107
G01 X226.200 Y321.462
G01 X230.283 Y320.581
G01 X233.923 Y319.569
G01 X237.579 Y319.035
G01 X241.143 Y318.313
G01 X244.606 Y317.411
G01 X245.862 Y317.032
G01 X249.166 Y316.370
G01 X250.638 Y316.017
G01 X253.938 Y316.957
G01 X257.332 Y317.731
G01 X260.812 Y318.330
G01 X262.649 Y318.570
G01 X266.411 Y319.619
G01 X270.306 Y320.459
G01 X274.322 Y321.081
G01 X274.660 Y321.123
G01 X279.125 Y322.323
G01 X283.766 Y323.251
G01 X286.671 Y323.676
G01 X291.476 Y324.697
G01 X293.521 Y320.046
G01 X295.214 Y315.380
G01 X295.876 Y313.233
G01 X297.644 Y309.313
G01 X299.141 Y305.376
G01 X300.277 Y301.769
G01 X301.834 Y298.379
G01 X303.181 Y294.962
G01 X304.320 Y291.532
G01 X304.677 Y290.306
G01 X305.935 Y287.139
G01 X306.438 Y285.720
G01 X309.054 Y283.435
G01 X311.581 Y280.979
G01 X314.006 Y278.354
G01 X315.172 Y276.985
G01 X318.135 Y274.369
G01 X320.993 Y271.525
G01 X323.732 Y268.459
G01 X323.907 Y268.250
G01 X327.383 Y265.123
G01 X330.723 Y261.698
G01 X332.642 Y259.515
G01 X336.136 Y256.021
G01 X333.316 Y251.725
G01 X330.289 Y247.721
G01 X328.875 Y246.028
G01 X326.521 Y242.368
G01 X324.003 Y238.929
G01 X321.614 Y236.034
G01 X319.593 Y232.845
G01 X317.435 Y229.820
G01 X315.150 Y226.964
G01 X314.353 Y226.040
G01 X312.359 Y223.230
G01 X311.449 Y222.043
G01 X310.952 Y218.572
G01 X310.260 Y215.084
G01 X309.371 Y211.589
G01 X308.865 Y209.888
G01 X308.279 Y205.950
G01 X307.445 Y201.975
G01 X306.357 Y197.979
G01 X306.282 Y197.733
G01 X305.548 Y193.090
G01 X304.489 Y188.397
G01 X303.698 Y185.578
G01 X302.665 Y180.716
G01 X297.469 Y180.743
G01 X292.408 Y181.107
G01 X290.255 Y181.366
G01 X285.860 Y181.348
G01 X281.563 Y181.591
G01 X277.846 Y182.017
G01 X274.038 Y181.975
G01 X270.293 Y182.139
G01 X266.624 Y182.504
G01 X265.436 Y182.667
G01 X261.968 Y182.810
G01 X260.473 Y182.927
G01 X257.278 Y181.467
G01 X253.965 Y180.162
G01 X250.541 Y179.019
G01 X249.451 Y178.697
G01 X245.855 Y177.074
G01 X242.098 Y175.637
G01 X238.430 Y174.466
G01 X234.225 Y172.608
G01 X229.810 Y170.987
G01 X227.408 Y170.235
G01 X222.453 Y168.269
G01 X220.796 Y167.697
G01 X217.982 Y172.123
G01 X215.530 Y176.620
G01 X214.893 Y177.921
G01 X212.463 Y181.669
G01 X210.315 Y185.478
G01 X208.990 Y188.144
G01 X206.856 Y191.389
G01 X204.940 Y194.691
G01 X203.242 Y198.037
G01 X203.087 Y198.368
G01 X201.247 Y201.368
G01 X199.587 Y204.422
G01 X199.546 Y204.503
G01 X196.580 Y206.385
G01 X193.681 Y208.451
G01 X190.857 Y210.698
G01 X189.938 Y211.483
G01 X186.618 Y213.614
G01 X183.366 Y215.980
G01 X180.331 Y218.463
G01 X176.481 Y220.977
G01 X172.715 Y223.795
G01 X170.724 Y225.443
G01 X166.372 Y228.530
G01 X164.960 Y229.631
G01 X167.141 Y234.407
G01 X169.578 Y238.919
G01 X170.351 Y240.211
G01 X172.171 Y244.293
G01 X174.194 Y248.172
G01 X175.742 Y250.792
G01 X177.300 Y254.349
G01 X179.024 Y257.756
G01 X180.904 Y261.004
G01 X181.133 Y261.373
G01 X182.646 Y264.550
G01 X184.302 Y267.606
G01 X184.368 Y267.721
G01 X184.331 Y271.239
G01 X184.483 Y274.803
G01 X184.828 Y278.402
G01 X184.993 Y279.649
G01 X184.971 Y283.607
G01 X185.184 Y287.637
G01 X185.618 Y291.577
G01 X185.629 Y296.198
G01 X185.943 Y300.915
G01 X186.243 Y303.505
G01 X186.463 Y308.869
G01 X186.619 Y310.662
G01 X191.814 Y311.437
G01 X196.928 Y311.853
G01 X198.498 Y311.911
G01 X202.917 Y312.609
G01 X207.277 Y313.027
G01 X210.377 Y313.159
G01 X214.216 Y313.792
G01 X218.021 Y314.203
G01 X221.778 Y314.398
G01 X222.256 Y314.408
G01 X225.756 Y314.872
G01 X229.234 Y315.149
G01 X229.383 Y315.157
G01 X232.334 Y317.119
G01 X235.429 Y318.945
G01 X238.661 Y320.627
G01 X239.787 Y321.164
G01 X243.125 Y323.358
G01 X246.653 Y325.392
G01 X250.192 Y327.171
G01 X254.114 Y329.704
G01 X258.285 Y332.032
G01 X260.596 Y333.178
G01 X265.266 Y335.944
G01 X266.839 Y336.782
G01 X270.334 Y332.827
G01 X273.484 Y328.746
G01 X274.399 Y327.445
G01 X277.409 Y324.099
G01 X280.152 Y320.648
G01 X281.960 Y318.109
G01 X284.601 Y315.210
G01 X287.036 Y312.220
G01 X289.263 Y309.151
G01 X289.520 Y308.772
G01 X291.836 Y306.064
G01 X293.982 Y303.273
G01 X294.057 Y303.170
G01 X297.346 Y301.746
G01 X300.600 Y300.125
G01 X303.807 Y298.308
G01 X304.823 Y297.685
G01 X308.524 Y296.060
G01 X312.193 Y294.184
G01 X315.589 Y292.199
G01 X319.899 Y290.265
G01 X324.171 Y288.007
G01 X326.356 Y286.713
G01 X331.273 Y284.275
G01 X332.816 Y283.422
G01 X331.387 Y278.286
G01 X329.661 Y273.374
G01 X329.082 Y271.930
G01 X327.900 Y267.536
G01 X326.483 Y263.313
G01 X325.348 Y260.438
G01 X324.342 Y256.601
G01 X323.146 Y252.889
G01 X321.767 Y249.310
G01 X321.614 Y248.946
G01 X320.591 Y245.490
G01 X319.404 Y242.131
G01 X319.373 Y242.051
G01 X319.975 Y238.479
G01 X320.391 Y234.830
G01 X320.614 Y231.113
G01 X320.644 Y229.965
G01 X321.301 Y225.940
G01 X321.729 Y221.804
G01 X321.914 Y217.878
G01 X322.643 Y213.176
G01 X323.079 Y208.327
G01 X323.184 Y205.792
G01 X323.821 Y200.306
G01 X323.946 Y198.540
G01 X318.803 Y196.925
G01 X313.686 Y195.685
G01 X312.208 Y195.395
G01 X307.832 Y193.979
G01 X303.471 Y192.857
G01 X300.469 Y192.250
G01 X296.666 Y190.991
G01 X292.864 Y189.965
G01 X289.075 Y189.166
G01 X288.730 Y189.104
G01 X285.244 Y188.071
G01 X281.751 Y187.231
G01 X281.687 Y187.217
G01 X279.005 Y184.755
G01 X276.157 Y182.407
G01 X273.148 Y180.184
G01 X272.189 Y179.525
G01 X269.161 Y176.773
G01 X265.916 Y174.152
G01 X262.690 Y171.834
G01 X259.137 Y168.654
G01 X255.302 Y165.641
G01 X253.192 Y164.142
G01 X248.934 Y160.615
G01 X247.493 Y159.527
G01 X243.305 Y162.987
G01 X239.450 Y166.632
G01 X238.410 Y167.705
G01 X234.816 Y170.622
G01 X231.479 Y173.687
G01 X229.327 Y175.883
G01 X226.185 Y178.399
G01 X223.238 Y181.041
G01 X220.493 Y183.796
G01 X220.244 Y184.062
G01 X217.469 Y186.430
G01 X214.853 Y188.910
G01 X214.794 Y188.969
G01 X211.266 Y189.876
G01 X207.744 Y190.985
G01 X204.239 Y192.297
G01 X203.104 Y192.767
G01 X199.147 Y193.805
G01 X195.182 Y195.097
G01 X191.414 Y196.565
G01 X186.813 Y197.811
G01 X182.198 Y199.384
G01 X179.724 Y200.364
G01 X174.446 Y202.013
G01 X172.710 Y202.643
G01 X173.331 Y208.052
G01 X174.289 Y213.283
G01 X174.633 Y214.783
G01 X175.121 Y219.392
G01 X175.874 Y223.866
G01 X176.556 Y226.923
G01 X176.952 Y230.931
G01 X177.562 Y234.843
G01 X178.376 Y238.649
G01 X178.479 Y239.064
G01 X178.952 Y242.681
G01 X179.606 Y246.226
G01 X179.632 Y246.348
G01 X178.470 Y249.802
G01 X177.479 Y253.362
G01 X176.668 Y257.018
G01 X176.433 Y258.288
G01 X175.145 Y262.178
G01 X174.066 Y266.213
G01 X173.234 Y270.228
G01 X171.767 Y274.778
G01 X170.568 Y279.520
G01 X170.034 Y282.168
G01 X168.536 Y287.514
G01 X168.115 Y289.332
G01 X172.989 Y291.759
G01 X177.898 Y293.807
G01 X179.407 Y294.359
G01 X183.539 Y296.463
G01 X187.702 Y298.270
G01 X190.700 Y299.387
G01 X194.279 Y301.240
G01 X197.896 Y302.862
G01 X201.534 Y304.256
G01 X201.992 Y304.415
G01 X205.290 Y305.991
G01 X208.625 Y307.377
G01 X208.768 Y307.431
G01 X211.042 Y310.303
G01 X213.501 Y313.088
G01 X216.141 Y315.774
G01 X217.085 Y316.669
G01 X219.664 Y319.891
G01 X222.481 Y323.016
G01 X225.403 Y325.907
G01 X228.447 Y329.647
G01 X231.800 Y333.265
G01 X233.721 Y335.145
G01 X237.424 Y339.352
G01 X238.711 Y340.687
G01 X243.416 Y337.914
G01 X247.820 Y334.904
G01 X249.136 Y333.917
G01 X253.167 Y331.588
G01 X256.967 Y329.071
G01 X259.562 Y327.147
G01 X263.084 Y325.142
G01 X266.434 Y322.980
G01 X269.603 Y320.674
G01 X269.987 Y320.377
G01 X273.127 Y318.455
G01 X276.127 Y316.398
G01 X276.242 Y316.315
G01 X279.919 Y315.950
G01 X283.622 Y315.381
G01 X287.341 Y314.606
G01 X287.938 Y314.462
G01 X292.048 Y314.035
G01 X296.206 Y313.356
G01 X299.634 Y312.609
G01 X304.384 Y312.082
G01 X309.197 Y311.234
G01 X311.331 Y310.757
G01 X316.847 Y310.017
G01 X320.688 Y309.275
G01 X320.902 Y303.757
G01 X320.751 Y298.365
G01 X320.688 Y297.433
G01 X320.909 Y292.691
G01 X320.841 Y288.044
G01 X320.688 Y285.591
G01 X320.907 Y281.440
G01 X320.894 Y277.356
G01 X320.688 Y273.749
G01 X320.839 Y269.989
G01 X320.793 Y266.273
G01 X320.688 Y264.275
G01 X322.401 Y260.956
G01 X323.957 Y257.502
G01 X325.346 Y253.922
G01 X325.531 Y253.397
G01 X327.429 Y249.679
G01 X329.140 Y245.783
G01 X330.374 Y242.518
G01 X332.536 Y238.208
G01 X334.463 Y233.669
G01 X335.218 Y231.640
G01 X337.620 Y226.570
G01 X339.093 Y222.937
G01 X334.530 Y219.718
G01 X329.874 Y216.879
G01 X329.106 Y216.452
G01 X325.206 Y213.654
G01 X321.227 Y211.155
G01 X319.119 Y209.966
G01 X315.721 Y207.496
G01 X312.251 Y205.261
G01 X309.132 Y203.481
G01 X306.030 Y201.285
G01 X302.857 Y199.281
G01 X301.143 Y198.292
G01 X299.279 Y195.025
G01 X297.216 Y191.819
G01 X294.955 Y188.684
G01 X294.621 Y188.250
G01 X292.526 Y184.615
G01 X290.179 Y181.041
G01 X288.100 Y178.208
G01 X285.654 Y174.033
G01 X282.888 Y169.930
G01 X281.579 Y168.166
G01 X278.628 Y163.378
G01 X276.362 Y160.133
G01 X271.131 Y162.225
G01 X266.172 Y164.607
G01 X265.423 Y165.003
G01 X260.917 Y166.763
G01 X256.622 Y168.756
G01 X254.485 Y169.873
G01 X250.536 Y171.387
G01 X246.748 Y173.091
G01 X243.546 Y174.743
G01 X239.997 Y176.156
G01 X236.571 Y177.733
G01 X234.795 Y178.639
G01 X231.034 Y178.422
G01 X227.216 Y178.405
G01 X223.351 Y178.592
G01 X222.756 Y178.639
G01 X218.564 Y178.415
G01 X214.287 Y178.435
G01 X210.716 Y178.639
G01 X205.883 Y178.415
G01 X200.936 Y178.498
G01 X198.677 Y178.639
G01 X193.056 Y178.505
G01 X189.045 Y178.639
G01 X187.946 Y184.186
G01 X187.239 Y189.663
G01 X187.162 Y190.530
G01 X186.180 Y195.281
G01 X185.509 Y199.980
G01 X185.279 Y202.422
G01 X184.395 Y206.564
G01 X183.759 Y210.676
G01 X183.395 Y214.313
G01 X182.645 Y218.061
G01 X182.101 Y221.795
G01 X181.888 Y223.826
G01 X179.657 Y226.861
G01 X177.561 Y230.053
G01 X175.612 Y233.395
G01 X175.295 Y233.978
G01 X172.822 Y237.372
G01 X170.507 Y240.971
G01 X168.702 Y244.131
G01 X165.877 Y248.066
G01 X163.248 Y252.265
G01 X162.109 Y254.283
G01 X158.927 Y258.933
G01 X156.835 Y262.405
G01 X160.888 Y266.350
G01 X165.096 Y269.928
G01 X165.831 Y270.505
G01 X169.279 Y273.916
G01 X172.854 Y277.041
G01 X174.827 Y278.605
G01 X177.819 Y281.603
G01 X180.920 Y284.378
G01 X183.823 Y286.705
G01 X186.559 Y289.377
G01 X189.395 Y291.871
G01 X191.020 Y293.185
G01 X192.353 Y296.721
G01 X193.893 Y300.229
G01 X195.640 Y303.697
G01 X195.970 Y304.304
G01 X197.476 Y308.246
G01 X199.242 Y312.168
G01 X200.921 Y315.422
G01 X202.693 Y319.965
G01 X204.797 Y324.486
G01 X205.871 Y326.541
G01 X208.055 Y331.783
G01 X209.831 Y335.436
G01 X215.356 Y334.185
G01 X220.657 Y332.604
G01 X221.588 Y332.286
G01 X226.338 Y331.250
G01 X230.917 Y329.952
G01 X233.344 Y329.136
G01 X237.503 Y328.257
G01 X241.535 Y327.163
G01 X245.100 Y325.986
G01 X248.850 Y325.143
G01 X252.505 Y324.117
G01 X254.505 Y323.466
G01 X258.229 Y324.280
G01 X262.044 Y324.904
G01 X265.939 Y325.329
G01 X266.592 Y325.380
G01 X270.759 Y326.272
G01 X275.053 Y326.932
G01 X278.678 Y327.294
G01 X283.504 Y328.291
G01 X288.495 Y328.994
G01 X290.764 Y329.209
G01 X296.411 Y330.242
G01 X300.433 Y330.740
G01 X302.404 Y325.391
G01 X303.976 Y320.050
G01 X304.214 Y319.102
G01 X305.945 Y314.519
G01 X307.360 Y309.937
G01 X307.996 Y307.464
G01 X309.535 Y303.462
G01 X310.824 Y299.450
G01 X311.777 Y295.826
G01 X313.124 Y292.187
G01 X314.264 Y288.527
G01 X314.802 Y286.516
G01 X317.542 Y283.806
G01 X320.170 Y280.914
G01 X322.674 Y277.844
G01 X323.034 Y277.373
G01 X326.083 Y274.330
G01 X329.005 Y271.053
G01 X331.266 Y268.231
G01 X334.764 Y264.689
G01 X338.103 Y260.847
G01 X339.498 Y259.088
G01 X343.475 Y254.875
G01 X346.084 Y251.774
G01 X342.635 Y247.162
G01 X338.973 Y242.892
G01 X338.342 Y242.213
G01 X335.408 Y238.225
G01 X332.302 Y234.505
G01 X330.599 Y232.652
G01 X328.053 Y229.145
G01 X325.361 Y225.845
G01 X322.857 Y223.091
G01 X320.513 Y219.947
G01 X318.038 Y216.968
G01 X316.663 Y215.442
G01 X315.875 Y211.638
G01 X314.872 Y207.829
G01 X313.651 Y204.027
G01 X313.462 Y203.495
G01 X312.564 Y199.253
G01 X311.398 Y194.990
G01 X310.261 Y191.548
G01 X309.190 Y186.661
G01 X307.780 Y181.743
G01 X307.060 Y179.601
G01 X305.687 Y173.949
G01 X304.499 Y170.044
G01 X298.696 Y170.430
G01 X293.067 Y171.185
G01 X292.198 Y171.337
G01 X287.211 Y171.628
G01 X282.357 Y172.214
G01 X279.897 Y172.629
G01 X275.535 Y172.857
G01 X271.268 Y173.322
G01 X267.597 Y173.922
G01 X263.658 Y174.178
G01 X259.786 Y174.634
G01 X257.756 Y174.957
G01 X254.125 Y173.541
G01 X250.374 Y172.304
G01 X246.512 Y171.253
G01 X245.931 Y171.114
G01 X241.878 Y169.554
G01 X237.662 Y168.207
G01 X234.105 Y167.272
G01 X229.421 Y165.506
G01 X224.526 Y164.008
G01 X222.279 Y163.429
G01 X216.792 Y161.500
G01 X212.819 Y160.356
G01 X209.967 Y165.459
G01 X207.522 Y170.618
G01 X207.174 Y171.435
G01 X204.691 Y175.793
G01 X202.529 Y180.201
G01 X201.529 Y182.514
G01 X199.336 Y186.306
G01 X197.396 Y190.148
G01 X195.884 Y193.592
G01 X193.948 Y197.040
G01 X192.219 Y200.541
G01 X191.368 Y202.456
G01 X188.216 Y204.738
G01 X185.150 Y207.218
G01 X182.180 Y209.890
G01 X182.139 Y209.929
G01 X178.662 Y212.469
G01 X175.274 Y215.255
G01 X172.911 Y217.402
G01 X168.957 Y220.328
G01 X165.110 Y223.565
G01 X163.682 Y224.875
G01 X159.104 Y228.318
G01 X154.665 Y232.152
G01 X154.453 Y232.348
G01 X157.105 Y237.515
G01 X160.026 Y242.378
G01 X161.578 Y244.689
G01 X163.853 Y249.061
G01 X166.337 Y253.196
G01 X167.516 Y254.973
G01 X169.497 Y258.835
G01 X171.654 Y262.515
G01 X173.453 Y265.257
G01 X175.296 Y268.744
G01 X177.294 Y272.086
G01 X178.203 Y273.485
G01 X178.400 Y277.377
G01 X178.809 Y281.307
G01 X179.433 Y285.261
G01 X179.451 Y285.357
G01 X179.687 Y289.670
G01 X180.180 Y294.042
G01 X180.699 Y297.229
G01 X181.000 Y302.160
G01 X181.622 Y307.171
G01 X181.947 Y309.101
G01 X182.343 Y314.847
G01 X183.146 Y320.691
G01 X183.195 Y320.973
G01 X188.975 Y321.565
G01 X194.648 Y321.766
G01 X197.500 Y321.723
G01 X202.410 Y322.198
G01 X207.238 Y322.368
G01 X209.421 Y322.347
G01 X213.747 Y322.791
G01 X218.018 Y322.987
G01 X221.342 Y322.972
G01 X225.282 Y323.327
G01 X229.187 Y323.473
G01 X230.879 Y323.472
G01 X234.274 Y325.440
G01 X237.817 Y327.250
G01 X241.499 Y328.890
G01 X241.571 Y328.920
G01 X245.348 Y331.089
G01 X249.317 Y333.072
G01 X252.263 Y334.368
G01 X256.603 Y336.823
G01 X261.189 Y339.050
G01 X262.955 Y339.816
G01 X268.042 Y342.640
G01 X273.435 Y345.173
G01 X273.647 Y345.264
G01 X277.308 Y340.717
G01 X280.583 Y336.048
G01 X282.112 Y333.614
G01 X285.202 Y329.731
G01 X287.990 Y325.752
G01 X289.165 Y323.906
G01 X291.911 Y320.494
G01 X294.419 Y316.994
G01 X296.218 Y314.197
G01 X298.681 Y311.060
G01 X300.948 Y307.837
G01 X301.861 Y306.431
G01 X305.397 Y304.636
G01 X308.879 Y302.628
G01 X312.296 Y300.408
G01 X312.308 Y300.400
G01 X316.224 Y298.391
G01 X320.089 Y296.117
G01 X322.754 Y294.368
G01 X327.223 Y292.040
G01 X331.632 Y289.377
G01 X333.200 Y288.337
G01 X338.390 Y285.580
G01 X343.501 Y282.404
G01 X343.647 Y282.306
G01 X341.809 Y276.709
G01 X339.655 Y271.372
G01 X338.459 Y268.792
G01 X336.869 Y264.040
G01 X335.031 Y259.490
G01 X334.137 Y257.531
G01 X332.756 Y253.327
G01 X331.169 Y249.277
G01 X329.814 Y246.270
G01 X328.509 Y242.456
G01 X327.025 Y238.762
G01 X326.356 Y237.260
G01 X326.778 Y233.281
G01 X326.991 Y229.230
G01 X326.990 Y225.152
G01 X327.441 Y220.738
G01 X327.639 Y216.222
G01 X327.625 Y213.044
G01 X328.108 Y207.994
G01 X328.277 Y202.811
G01 X328.259 Y200.935
G01 X328.776 Y195.049
G01 X328.896 Y188.999
G01 X328.894 Y188.827
G01 X323.141 Y187.306
G01 X317.435 Y186.198
G01 X314.662 Y185.802
G01 X309.763 Y184.536
G01 X304.900 Y183.593
G01 X302.802 Y183.281
G01 X298.486 Y182.140
G01 X294.187 Y181.259
G01 X290.942 Y180.760
G01 X287.002 Y179.770
G01 X283.065 Y178.998
G01 X281.454 Y178.743
G01 X278.332 Y176.210
G01 X275.037 Y173.815
G01 X271.594 Y171.580
G01 X268.127 Y168.789
G01 X264.438 Y166.155
G01 X261.734 Y164.416
G01 X257.755 Y161.254
G01 X253.494 Y158.283
G01 X251.874 Y157.252
G01 X247.215 Y153.609
G01 X242.203 Y150.208
G01 X242.014 Y150.089
G01 X237.576 Y154.112
G01 X233.513 Y158.322
G01 X231.673 Y160.430
G01 X227.923 Y163.868
G01 X224.464 Y167.451
G01 X223.055 Y169.048
G01 X219.733 Y172.058
G01 X216.640 Y175.196
G01 X214.437 Y177.666
G01 X211.452 Y180.438
G01 X208.652 Y183.327
G01 X207.543 Y184.560
G01 X203.717 Y185.798
G01 X199.911 Y187.256
G01 X196.139 Y188.935
G01 X196.106 Y188.950
G01 X191.878 Y190.336
G01 X187.660 Y191.994
G01 X184.670 Y193.340
G01 X179.852 Y194.953
G01 X175.039 Y196.906
G01 X173.234 Y197.730
G01 X167.639 Y199.651
G01 X162.056 Y202.000
G01 X161.797 Y202.120
G01 X162.754 Y208.045
G01 X164.073 Y213.756
G01 X164.854 Y216.499
G01 X165.693 Y221.522
G01 X166.815 Y226.379
G01 X167.400 Y228.481
G01 X168.115 Y232.909
G01 X169.060 Y237.214
G01 X169.947 Y240.464
G01 X170.645 Y244.478
G01 X171.542 Y248.400
G01 X171.985 Y250.049
G01 X170.937 Y253.934
G01 X170.085 Y257.922
G01 X169.437 Y262.003
G01 X169.425 Y262.093
G01 X168.282 Y266.400
G01 X167.371 Y270.848
G01 X166.865 Y274.136
G01 X165.589 Y279.068
G01 X164.602 Y284.182
G01 X164.305 Y286.180
G01 X162.863 Y291.939
G01 X161.788 Y297.923
G01 X161.745 Y298.223
G01 X167.235 Y300.649
G01 X172.743 Y302.657
G01 X175.539 Y303.518
