;  Created by Sandify
;  https://sandify.org
;  Version: 0.2.6
;
;  Machine type: Rectangular
;    Min X (mm): 0
;    Max X (mm): 500
;    Min Y (mm): 0
;    Max Y (mm): 500
;  Content type: shape
;  Layer:
;    Shape: FileImport
;    Name: Fractal2.thr
;    From file:: Fractal2.thr
;    Aspect Ratio: true
;    Comments: 
;    Visible: true
;    Initial width: 10
;    Initial height: 10
;    X offset: 0
;    Y offset: 0
;    Rotate (degrees): 0
;    Reverse path: false
;    Fine tuning:
;      Connect to next layer: line
;      Draw portion of path (%): 100
;      Backtrack at end (%): 0
;      Rotate starting point (%): 0
;  Reverse export path: false
;
; File name: 'Fractal2'
; File type: gcode
;

G01 X250.000 Y250.000
G01 X249.899 Y252.048
G01 X249.598 Y254.082
G01 X249.097 Y256.086
G01 X248.661 Y257.379
G01 X241.519 Y296.737
G01 X238.058 Y301.327
G01 X234.128 Y305.678
G01 X233.994 Y305.814
G01 X228.657 Y312.643
G01 X224.965 Y316.707
G01 X216.973 Y326.380
G01 X213.636 Y329.926
G01 X208.781 Y335.592
G01 X198.795 Y344.203
G01 X194.463 Y347.482
G01 X189.093 Y351.941
G01 X177.332 Y359.086
G01 X172.473 Y361.646
G01 X166.241 Y365.285
G01 X148.645 Y376.004
G01 X146.396 Y377.221
G01 X144.412 Y378.414
G01 X122.865 Y391.198
G01 X99.991 Y402.270
G01 X77.357 Y413.097
G01 X99.991 Y402.270
G01 X89.504 Y425.063
G01 X99.991 Y402.270
G01 X122.865 Y391.198
G01 X114.244 Y415.104
G01 X92.672 Y427.916
G01 X114.244 Y415.104
G01 X105.842 Y438.745
G01 X114.244 Y415.104
G01 X122.865 Y391.198
G01 X144.412 Y378.414
G01 X136.034 Y402.025
G01 X114.244 Y415.104
G01 X92.672 Y427.916
G01 X114.244 Y415.104
G01 X105.842 Y438.745
G01 X114.244 Y415.104
G01 X136.034 Y402.025
G01 X129.590 Y426.609
G01 X109.254 Y441.303
G01 X129.590 Y426.609
G01 X123.342 Y450.908
G01 X129.590 Y426.609
G01 X136.034 Y402.025
G01 X144.412 Y378.414
G01 X162.649 Y367.549
G01 X164.256 Y366.479
G01 X166.241 Y365.285
G01 X161.483 Y385.332
G01 X161.021 Y387.846
G01 X160.499 Y390.102
G01 X140.633 Y405.367
G01 X119.244 Y419.091
G01 X98.065 Y432.543
G01 X119.244 Y419.091
G01 X111.553 Y442.973
G01 X119.244 Y419.091
G01 X140.633 Y405.367
G01 X134.928 Y430.132
G01 X115.040 Y445.428
G01 X134.928 Y430.132
G01 X129.409 Y454.607
G01 X134.928 Y430.132
G01 X140.633 Y405.367
G01 X160.499 Y390.102
G01 X155.000 Y414.545
G01 X134.928 Y430.132
G01 X115.040 Y445.428
G01 X134.928 Y430.132
G01 X129.409 Y454.607
G01 X134.928 Y430.132
G01 X155.000 Y414.545
G01 X151.538 Y439.721
G01 X133.101 Y456.739
G01 X151.538 Y439.721
G01 X148.235 Y464.593
G01 X151.538 Y439.721
G01 X155.000 Y414.545
G01 X160.499 Y390.102
G01 X165.197 Y369.400
G01 X165.719 Y367.541
G01 X166.241 Y365.285
G01 X179.541 Y357.724
G01 X182.861 Y355.580
G01 X189.093 Y351.941
G01 X188.374 Y365.684
G01 X188.423 Y371.175
G01 X188.172 Y378.388
G01 X172.772 Y392.077
G01 X170.778 Y393.675
G01 X169.038 Y395.204
G01 X150.120 Y411.629
G01 X129.590 Y426.609
G01 X109.254 Y441.303
G01 X129.590 Y426.609
G01 X123.342 Y450.908
G01 X129.590 Y426.609
G01 X150.120 Y411.629
G01 X145.906 Y436.691
G01 X126.969 Y453.149
G01 X145.906 Y436.691
G01 X141.861 Y461.453
G01 X145.906 Y436.691
G01 X150.120 Y411.629
G01 X169.038 Y395.204
G01 X165.011 Y419.932
G01 X145.906 Y436.691
G01 X126.969 Y453.149
G01 X145.906 Y436.691
G01 X141.861 Y461.453
G01 X145.906 Y436.691
G01 X165.011 Y419.932
G01 X163.060 Y445.270
G01 X145.674 Y463.360
G01 X163.060 Y445.270
G01 X161.251 Y470.295
G01 X163.060 Y445.270
G01 X165.011 Y419.932
G01 X169.038 Y395.204
G01 X185.042 Y381.257
G01 X186.432 Y379.917
G01 X188.172 Y378.388
G01 X187.070 Y398.963
G01 X187.064 Y401.519
G01 X186.954 Y403.832
G01 X170.132 Y422.398
G01 X151.538 Y439.721
G01 X133.101 Y456.739
G01 X151.538 Y439.721
G01 X148.235 Y464.593
G01 X151.538 Y439.721
G01 X170.132 Y422.398
G01 X168.941 Y447.784
G01 X152.103 Y466.385
G01 X168.941 Y447.784
G01 X167.881 Y472.851
G01 X168.941 Y447.784
G01 X170.132 Y422.398
G01 X186.954 Y403.832
G01 X185.907 Y428.863
G01 X168.941 Y447.784
G01 X152.103 Y466.385
G01 X168.941 Y447.784
G01 X167.881 Y472.851
G01 X168.941 Y447.784
G01 X185.907 Y428.863
G01 X186.996 Y454.254
G01 X171.894 Y474.289
G01 X186.996 Y454.254
G01 X188.187 Y479.315
G01 X186.996 Y454.254
G01 X185.907 Y428.863
G01 X186.954 Y403.832
G01 X187.880 Y382.624
G01 X188.061 Y380.701
G01 X188.172 Y378.388
G01 X188.527 Y363.092
G01 X188.842 Y359.154
G01 X189.093 Y351.941
G01 X200.724 Y342.501
G01 X203.412 Y340.051
G01 X208.781 Y335.592
G01 X208.275 Y348.769
G01 X208.412 Y354.200
G01 X208.274 Y361.178
G01 X197.978 Y370.309
G01 X193.654 Y373.694
G01 X188.172 Y378.388
G01 X172.772 Y392.077
G01 X170.778 Y393.675
G01 X169.038 Y395.204
G01 X150.120 Y411.629
G01 X129.590 Y426.609
G01 X109.254 Y441.303
G01 X129.590 Y426.609
G01 X123.342 Y450.908
G01 X129.590 Y426.609
G01 X150.120 Y411.629
G01 X145.906 Y436.691
G01 X126.969 Y453.149
G01 X145.906 Y436.691
G01 X141.861 Y461.453
G01 X145.906 Y436.691
G01 X150.120 Y411.629
G01 X169.038 Y395.204
G01 X165.011 Y419.932
G01 X145.906 Y436.691
G01 X126.969 Y453.149
G01 X145.906 Y436.691
G01 X141.861 Y461.453
G01 X145.906 Y436.691
G01 X165.011 Y419.932
G01 X163.060 Y445.270
G01 X145.674 Y463.360
G01 X163.060 Y445.270
G01 X161.251 Y470.295
G01 X163.060 Y445.270
G01 X165.011 Y419.932
G01 X169.038 Y395.204
G01 X185.042 Y381.257
G01 X186.432 Y379.917
G01 X188.172 Y378.388
G01 X187.070 Y398.963
G01 X187.064 Y401.519
G01 X186.954 Y403.832
G01 X170.132 Y422.398
G01 X151.538 Y439.721
G01 X133.101 Y456.739
G01 X151.538 Y439.721
G01 X148.235 Y464.593
G01 X151.538 Y439.721
G01 X170.132 Y422.398
G01 X168.941 Y447.784
G01 X152.103 Y466.385
G01 X168.941 Y447.784
G01 X167.881 Y472.851
G01 X168.941 Y447.784
G01 X170.132 Y422.398
G01 X186.954 Y403.832
G01 X185.907 Y428.863
G01 X168.941 Y447.784
G01 X152.103 Y466.385
G01 X168.941 Y447.784
G01 X167.881 Y472.851
G01 X168.941 Y447.784
G01 X185.907 Y428.863
G01 X186.996 Y454.254
G01 X171.894 Y474.289
G01 X186.996 Y454.254
G01 X188.187 Y479.315
G01 X186.996 Y454.254
G01 X185.907 Y428.863
G01 X186.954 Y403.832
G01 X187.880 Y382.624
G01 X188.061 Y380.701
G01 X188.172 Y378.388
G01 X199.908 Y368.573
G01 X202.792 Y365.872
G01 X208.274 Y361.178
G01 X210.021 Y374.829
G01 X211.049 Y380.223
G01 X212.090 Y387.365
G01 X199.382 Y403.583
G01 X197.705 Y405.512
G01 X196.266 Y407.327
G01 X180.585 Y426.866
G01 X163.060 Y445.270
G01 X145.674 Y463.360
G01 X163.060 Y445.270
G01 X161.251 Y470.295
G01 X163.060 Y445.270
G01 X180.585 Y426.866
G01 X180.914 Y452.277
G01 X165.219 Y471.852
G01 X180.914 Y452.277
G01 X181.355 Y477.363
G01 X180.914 Y452.277
G01 X180.585 Y426.866
G01 X196.266 Y407.327
G01 X196.719 Y432.376
G01 X180.914 Y452.277
G01 X165.219 Y471.852
G01 X180.914 Y452.277
G01 X181.355 Y477.363
G01 X180.914 Y452.277
G01 X196.719 Y432.376
G01 X199.324 Y457.656
G01 X185.447 Y478.559
G01 X199.324 Y457.656
G01 X202.012 Y482.601
G01 X199.324 Y457.656
G01 X196.719 Y432.376
G01 X196.266 Y407.327
G01 X209.523 Y390.746
G01 X210.651 Y389.179
G01 X212.090 Y387.365
G01 X214.680 Y407.805
G01 X215.131 Y410.321
G01 X215.435 Y412.617
G01 X202.199 Y433.889
G01 X186.996 Y454.254
G01 X171.894 Y474.289
G01 X186.996 Y454.254
G01 X188.187 Y479.315
G01 X186.996 Y454.254
G01 X202.199 Y433.889
G01 X205.559 Y459.079
G01 X192.314 Y480.388
G01 X205.559 Y459.079
G01 X208.992 Y483.933
G01 X205.559 Y459.079
G01 X202.199 Y433.889
G01 X215.435 Y412.617
G01 X218.875 Y437.433
G01 X205.559 Y459.079
G01 X192.314 Y480.388
G01 X205.559 Y459.079
G01 X208.992 Y483.933
G01 X205.559 Y459.079
G01 X218.875 Y437.433
G01 X224.479 Y462.221
G01 X213.198 Y484.631
G01 X224.479 Y462.221
G01 X230.127 Y486.667
G01 X224.479 Y462.221
G01 X218.875 Y437.433
G01 X215.435 Y412.617
G01 X212.559 Y391.584
G01 X212.394 Y389.660
G01 X212.090 Y387.365
G01 X209.709 Y372.251
G01 X209.315 Y368.320
G01 X208.274 Y361.178
G01 X208.403 Y346.199
G01 X208.643 Y342.570
G01 X208.781 Y335.592
G01 X218.614 Y324.294
G01 X220.109 Y322.372
G01 X224.965 Y316.707
G01 X224.618 Y329.250
G01 X224.798 Y334.116
G01 X224.726 Y341.576
G01 X216.438 Y351.833
G01 X212.761 Y355.832
G01 X208.274 Y361.178
G01 X197.978 Y370.309
G01 X193.654 Y373.694
G01 X188.172 Y378.388
G01 X172.772 Y392.077
G01 X170.778 Y393.675
G01 X169.038 Y395.204
G01 X150.120 Y411.629
G01 X129.590 Y426.609
G01 X109.254 Y441.303
G01 X129.590 Y426.609
G01 X123.342 Y450.908
G01 X129.590 Y426.609
G01 X150.120 Y411.629
G01 X145.906 Y436.691
G01 X126.969 Y453.149
G01 X145.906 Y436.691
G01 X141.861 Y461.453
G01 X145.906 Y436.691
G01 X150.120 Y411.629
G01 X169.038 Y395.204
G01 X165.011 Y419.932
G01 X145.906 Y436.691
G01 X126.969 Y453.149
G01 X145.906 Y436.691
G01 X141.861 Y461.453
G01 X145.906 Y436.691
G01 X165.011 Y419.932
G01 X163.060 Y445.270
G01 X145.674 Y463.360
G01 X163.060 Y445.270
G01 X161.251 Y470.295
G01 X163.060 Y445.270
G01 X165.011 Y419.932
G01 X169.038 Y395.204
G01 X185.042 Y381.257
G01 X186.432 Y379.917
G01 X188.172 Y378.388
G01 X187.070 Y398.963
G01 X187.064 Y401.519
G01 X186.954 Y403.832
G01 X170.132 Y422.398
G01 X151.538 Y439.721
G01 X133.101 Y456.739
G01 X151.538 Y439.721
G01 X148.235 Y464.593
G01 X151.538 Y439.721
G01 X170.132 Y422.398
G01 X168.941 Y447.784
G01 X152.103 Y466.385
G01 X168.941 Y447.784
G01 X167.881 Y472.851
G01 X168.941 Y447.784
G01 X170.132 Y422.398
G01 X186.954 Y403.832
G01 X185.907 Y428.863
G01 X168.941 Y447.784
G01 X152.103 Y466.385
G01 X168.941 Y447.784
G01 X167.881 Y472.851
G01 X168.941 Y447.784
G01 X185.907 Y428.863
G01 X186.996 Y454.254
G01 X171.894 Y474.289
G01 X186.996 Y454.254
G01 X188.187 Y479.315
G01 X186.996 Y454.254
G01 X185.907 Y428.863
G01 X186.954 Y403.832
G01 X187.880 Y382.624
G01 X188.061 Y380.701
G01 X188.172 Y378.388
G01 X199.908 Y368.573
G01 X202.792 Y365.872
G01 X208.274 Y361.178
G01 X210.021 Y374.829
G01 X211.049 Y380.223
G01 X212.090 Y387.365
G01 X199.382 Y403.583
G01 X197.705 Y405.512
G01 X196.266 Y407.327
G01 X180.585 Y426.866
G01 X163.060 Y445.270
G01 X145.674 Y463.360
G01 X163.060 Y445.270
G01 X161.251 Y470.295
G01 X163.060 Y445.270
G01 X180.585 Y426.866
G01 X180.914 Y452.277
G01 X165.219 Y471.852
G01 X180.914 Y452.277
G01 X181.355 Y477.363
G01 X180.914 Y452.277
G01 X180.585 Y426.866
G01 X196.266 Y407.327
G01 X196.719 Y432.376
G01 X180.914 Y452.277
G01 X165.219 Y471.852
G01 X180.914 Y452.277
G01 X181.355 Y477.363
G01 X180.914 Y452.277
G01 X196.719 Y432.376
G01 X199.324 Y457.656
G01 X185.447 Y478.559
G01 X199.324 Y457.656
G01 X202.012 Y482.601
G01 X199.324 Y457.656
G01 X196.719 Y432.376
G01 X196.266 Y407.327
G01 X209.523 Y390.746
G01 X210.651 Y389.179
G01 X212.090 Y387.365
G01 X214.680 Y407.805
G01 X215.131 Y410.321
G01 X215.435 Y412.617
G01 X202.199 Y433.889
G01 X186.996 Y454.254
G01 X171.894 Y474.289
G01 X186.996 Y454.254
G01 X188.187 Y479.315
G01 X186.996 Y454.254
G01 X202.199 Y433.889
G01 X205.559 Y459.079
G01 X192.314 Y480.388
G01 X205.559 Y459.079
G01 X208.992 Y483.933
G01 X205.559 Y459.079
G01 X202.199 Y433.889
G01 X215.435 Y412.617
G01 X218.875 Y437.433
G01 X205.559 Y459.079
G01 X192.314 Y480.388
G01 X205.559 Y459.079
G01 X208.992 Y483.933
G01 X205.559 Y459.079
G01 X218.875 Y437.433
G01 X224.479 Y462.221
G01 X213.198 Y484.631
G01 X224.479 Y462.221
G01 X230.127 Y486.667
G01 X224.479 Y462.221
G01 X218.875 Y437.433
G01 X215.435 Y412.617
G01 X212.559 Y391.584
G01 X212.394 Y389.660
G01 X212.090 Y387.365
G01 X209.709 Y372.251
G01 X209.315 Y368.320
G01 X208.274 Y361.178
G01 X218.033 Y349.813
G01 X220.240 Y346.922
G01 X224.726 Y341.576
G01 X226.581 Y354.632
G01 X227.686 Y359.951
G01 X228.796 Y366.842
G01 X220.296 Y377.664
G01 X216.646 Y381.768
G01 X212.090 Y387.365
G01 X199.382 Y403.583
G01 X197.705 Y405.512
G01 X196.266 Y407.327
G01 X180.585 Y426.866
G01 X163.060 Y445.270
G01 X145.674 Y463.360
G01 X163.060 Y445.270
G01 X161.251 Y470.295
G01 X163.060 Y445.270
G01 X180.585 Y426.866
G01 X180.914 Y452.277
G01 X165.219 Y471.852
G01 X180.914 Y452.277
G01 X181.355 Y477.363
G01 X180.914 Y452.277
G01 X180.585 Y426.866
G01 X196.266 Y407.327
G01 X196.719 Y432.376
G01 X180.914 Y452.277
G01 X165.219 Y471.852
G01 X180.914 Y452.277
G01 X181.355 Y477.363
G01 X180.914 Y452.277
G01 X196.719 Y432.376
G01 X199.324 Y457.656
G01 X185.447 Y478.559
G01 X199.324 Y457.656
G01 X202.012 Y482.601
G01 X199.324 Y457.656
G01 X196.719 Y432.376
G01 X196.266 Y407.327
G01 X209.523 Y390.746
G01 X210.651 Y389.179
G01 X212.090 Y387.365
G01 X214.680 Y407.805
G01 X215.131 Y410.321
G01 X215.435 Y412.617
G01 X202.199 Y433.889
G01 X186.996 Y454.254
G01 X171.894 Y474.289
G01 X186.996 Y454.254
G01 X188.187 Y479.315
G01 X186.996 Y454.254
G01 X202.199 Y433.889
G01 X205.559 Y459.079
G01 X192.314 Y480.388
G01 X205.559 Y459.079
G01 X208.992 Y483.933
G01 X205.559 Y459.079
G01 X202.199 Y433.889
G01 X215.435 Y412.617
G01 X218.875 Y437.433
G01 X205.559 Y459.079
G01 X192.314 Y480.388
G01 X205.559 Y459.079
G01 X208.992 Y483.933
G01 X205.559 Y459.079
G01 X218.875 Y437.433
G01 X224.479 Y462.221
G01 X213.198 Y484.631
G01 X224.479 Y462.221
G01 X230.127 Y486.667
G01 X224.479 Y462.221
G01 X218.875 Y437.433
G01 X215.435 Y412.617
G01 X212.559 Y391.584
G01 X212.394 Y389.660
G01 X212.090 Y387.365
G01 X221.885 Y375.612
G01 X224.240 Y372.439
G01 X228.796 Y366.842
G01 X232.952 Y379.961
G01 X234.927 Y385.085
G01 X237.226 Y391.926
G01 X227.619 Y410.153
G01 X226.313 Y412.351
G01 X225.222 Y414.393
G01 X213.281 Y436.418
G01 X199.324 Y457.656
G01 X185.447 Y478.559
G01 X199.324 Y457.656
G01 X202.012 Y482.601
G01 X199.324 Y457.656
G01 X213.281 Y436.418
G01 X218.142 Y461.363
G01 X206.195 Y483.425
G01 X218.142 Y461.363
G01 X223.055 Y485.967
G01 X218.142 Y461.363
G01 X213.281 Y436.418
G01 X225.222 Y414.393
G01 X230.140 Y438.959
G01 X218.142 Y461.363
G01 X206.195 Y483.425
G01 X218.142 Y461.363
G01 X223.055 Y485.967
G01 X218.142 Y461.363
G01 X230.140 Y438.959
G01 X237.217 Y463.367
G01 X227.296 Y486.412
G01 X237.217 Y463.367
G01 X244.316 Y487.432
G01 X237.217 Y463.367
G01 X230.140 Y438.959
G01 X225.222 Y414.393
G01 X235.305 Y395.712
G01 X236.135 Y393.969
G01 X237.226 Y391.926
G01 X243.425 Y411.576
G01 X244.317 Y413.971
G01 X245.027 Y416.176
G01 X235.801 Y439.469
G01 X224.479 Y462.221
G01 X213.198 Y484.631
G01 X224.479 Y462.221
G01 X230.127 Y486.667
G01 X224.479 Y462.221
G01 X235.801 Y439.469
G01 X243.606 Y463.654
G01 X234.378 Y486.986
G01 X243.606 Y463.654
G01 X251.421 Y487.496
G01 X243.606 Y463.654
G01 X235.801 Y439.469
G01 X245.027 Y416.176
G01 X252.842 Y439.979
G01 X243.606 Y463.654
G01 X234.378 Y486.986
G01 X243.606 Y463.654
G01 X251.421 Y487.496
G01 X243.606 Y463.654
G01 X252.842 Y439.979
G01 X262.783 Y463.367
G01 X255.684 Y487.432
G01 X262.783 Y463.367
G01 X272.704 Y486.412
G01 X262.783 Y463.367
G01 X252.842 Y439.979
G01 X245.027 Y416.176
G01 X238.441 Y395.994
G01 X237.936 Y394.131
G01 X237.226 Y391.926
G01 X232.185 Y377.481
G01 X231.095 Y373.683
G01 X228.796 Y366.842
G01 X226.249 Y352.080
G01 X225.836 Y348.467
G01 X224.726 Y341.576
G01 X224.755 Y326.599
G01 X224.893 Y324.168
G01 X224.965 Y316.707
G01 X230.743 Y310.126
G01 X233.994 Y305.814
G01 X237.938 Y301.471
G01 X241.414 Y296.888
G01 X241.519 Y296.737
G01 X243.146 Y302.250
G01 X245.296 Y307.704
G01 X245.374 Y307.879
G01 X247.970 Y316.148
G01 X250.000 Y321.250
G01 X245.917 Y333.115
G01 X244.039 Y337.607
G01 X241.484 Y344.618
G01 X235.160 Y356.189
G01 X232.257 Y360.781
G01 X228.796 Y366.842
G01 X220.296 Y377.664
G01 X216.646 Y381.768
G01 X212.090 Y387.365
G01 X199.382 Y403.583
G01 X197.705 Y405.512
G01 X196.266 Y407.327
G01 X180.585 Y426.866
G01 X163.060 Y445.270
G01 X145.674 Y463.360
G01 X163.060 Y445.270
G01 X161.251 Y470.295
G01 X163.060 Y445.270
G01 X180.585 Y426.866
G01 X180.914 Y452.277
G01 X165.219 Y471.852
G01 X180.914 Y452.277
G01 X181.355 Y477.363
G01 X180.914 Y452.277
G01 X180.585 Y426.866
G01 X196.266 Y407.327
G01 X196.719 Y432.376
G01 X180.914 Y452.277
G01 X165.219 Y471.852
G01 X180.914 Y452.277
G01 X181.355 Y477.363
G01 X180.914 Y452.277
G01 X196.719 Y432.376
G01 X199.324 Y457.656
G01 X185.447 Y478.559
G01 X199.324 Y457.656
G01 X202.012 Y482.601
G01 X199.324 Y457.656
G01 X196.719 Y432.376
G01 X196.266 Y407.327
G01 X209.523 Y390.746
G01 X210.651 Y389.179
G01 X212.090 Y387.365
G01 X214.680 Y407.805
G01 X215.131 Y410.321
G01 X215.435 Y412.617
G01 X202.199 Y433.889
G01 X186.996 Y454.254
G01 X171.894 Y474.289
G01 X186.996 Y454.254
G01 X188.187 Y479.315
G01 X186.996 Y454.254
G01 X202.199 Y433.889
G01 X205.559 Y459.079
G01 X192.314 Y480.388
G01 X205.559 Y459.079
G01 X208.992 Y483.933
G01 X205.559 Y459.079
G01 X202.199 Y433.889
G01 X215.435 Y412.617
G01 X218.875 Y437.433
G01 X205.559 Y459.079
G01 X192.314 Y480.388
G01 X205.559 Y459.079
G01 X208.992 Y483.933
G01 X205.559 Y459.079
G01 X218.875 Y437.433
G01 X224.479 Y462.221
G01 X213.198 Y484.631
G01 X224.479 Y462.221
G01 X230.127 Y486.667
G01 X224.479 Y462.221
G01 X218.875 Y437.433
G01 X215.435 Y412.617
G01 X212.559 Y391.584
G01 X212.394 Y389.660
G01 X212.090 Y387.365
G01 X221.885 Y375.612
G01 X224.240 Y372.439
G01 X228.796 Y366.842
G01 X232.952 Y379.961
G01 X234.927 Y385.085
G01 X237.226 Y391.926
G01 X227.619 Y410.153
G01 X226.313 Y412.351
G01 X225.222 Y414.393
G01 X213.281 Y436.418
G01 X199.324 Y457.656
G01 X185.447 Y478.559
G01 X199.324 Y457.656
G01 X202.012 Y482.601
G01 X199.324 Y457.656
G01 X213.281 Y436.418
G01 X218.142 Y461.363
G01 X206.195 Y483.425
G01 X218.142 Y461.363
G01 X223.055 Y485.967
G01 X218.142 Y461.363
G01 X213.281 Y436.418
G01 X225.222 Y414.393
G01 X230.140 Y438.959
G01 X218.142 Y461.363
G01 X206.195 Y483.425
G01 X218.142 Y461.363
G01 X223.055 Y485.967
G01 X218.142 Y461.363
G01 X230.140 Y438.959
G01 X237.217 Y463.367
G01 X227.296 Y486.412
G01 X237.217 Y463.367
G01 X244.316 Y487.432
G01 X237.217 Y463.367
G01 X230.140 Y438.959
G01 X225.222 Y414.393
G01 X235.305 Y395.712
G01 X236.135 Y393.969
G01 X237.226 Y391.926
G01 X243.425 Y411.576
G01 X244.317 Y413.971
G01 X245.027 Y416.176
G01 X235.801 Y439.469
G01 X224.479 Y462.221
G01 X213.198 Y484.631
G01 X224.479 Y462.221
G01 X230.127 Y486.667
G01 X224.479 Y462.221
G01 X235.801 Y439.469
G01 X243.606 Y463.654
G01 X234.378 Y486.986
G01 X243.606 Y463.654
G01 X251.421 Y487.496
G01 X243.606 Y463.654
G01 X235.801 Y439.469
G01 X245.027 Y416.176
G01 X252.842 Y439.979
G01 X243.606 Y463.654
G01 X234.378 Y486.986
G01 X243.606 Y463.654
G01 X251.421 Y487.496
G01 X243.606 Y463.654
G01 X252.842 Y439.979
G01 X262.783 Y463.367
G01 X255.684 Y487.432
G01 X262.783 Y463.367
G01 X272.704 Y486.412
G01 X262.783 Y463.367
G01 X252.842 Y439.979
G01 X245.027 Y416.176
G01 X238.441 Y395.994
G01 X237.936 Y394.131
G01 X237.226 Y391.926
G01 X232.185 Y377.481
G01 X231.095 Y373.683
G01 X228.796 Y366.842
G01 X236.369 Y353.917
G01 X238.024 Y350.679
G01 X241.484 Y344.618
G01 X245.640 Y357.132
G01 X247.678 Y362.168
G01 X250.000 Y368.750
G01 X243.568 Y380.917
G01 X240.710 Y385.606
G01 X237.226 Y391.926
G01 X227.619 Y410.153
G01 X226.313 Y412.351
G01 X225.222 Y414.393
G01 X213.281 Y436.418
G01 X199.324 Y457.656
G01 X185.447 Y478.559
G01 X199.324 Y457.656
G01 X202.012 Y482.601
G01 X199.324 Y457.656
G01 X213.281 Y436.418
G01 X218.142 Y461.363
G01 X206.195 Y483.425
G01 X218.142 Y461.363
G01 X223.055 Y485.967
G01 X218.142 Y461.363
G01 X213.281 Y436.418
G01 X225.222 Y414.393
G01 X230.140 Y438.959
G01 X218.142 Y461.363
G01 X206.195 Y483.425
G01 X218.142 Y461.363
G01 X223.055 Y485.967
G01 X218.142 Y461.363
G01 X230.140 Y438.959
G01 X237.217 Y463.367
G01 X227.296 Y486.412
G01 X237.217 Y463.367
G01 X244.316 Y487.432
G01 X237.217 Y463.367
G01 X230.140 Y438.959
G01 X225.222 Y414.393
G01 X235.305 Y395.712
G01 X236.135 Y393.969
G01 X237.226 Y391.926
G01 X243.425 Y411.576
G01 X244.317 Y413.971
G01 X245.027 Y416.176
G01 X235.801 Y439.469
G01 X224.479 Y462.221
G01 X213.198 Y484.631
G01 X224.479 Y462.221
G01 X230.127 Y486.667
G01 X224.479 Y462.221
G01 X235.801 Y439.469
G01 X243.606 Y463.654
G01 X234.378 Y486.986
G01 X243.606 Y463.654
G01 X251.421 Y487.496
G01 X243.606 Y463.654
G01 X235.801 Y439.469
G01 X245.027 Y416.176
G01 X252.842 Y439.979
G01 X243.606 Y463.654
G01 X234.378 Y486.986
G01 X243.606 Y463.654
G01 X251.421 Y487.496
G01 X243.606 Y463.654
G01 X252.842 Y439.979
G01 X262.783 Y463.367
G01 X255.684 Y487.432
G01 X262.783 Y463.367
G01 X272.704 Y486.412
G01 X262.783 Y463.367
G01 X252.842 Y439.979
G01 X245.027 Y416.176
G01 X238.441 Y395.994
G01 X237.936 Y394.131
G01 X237.226 Y391.926
G01 X244.766 Y378.613
G01 X246.516 Y375.071
G01 X250.000 Y368.750
G01 X256.432 Y380.917
G01 X259.290 Y385.606
G01 X262.774 Y391.926
G01 X256.575 Y411.576
G01 X255.683 Y413.971
G01 X254.973 Y416.176
G01 X247.158 Y439.979
G01 X237.217 Y463.367
G01 X227.296 Y486.412
G01 X237.217 Y463.367
G01 X244.316 Y487.432
G01 X237.217 Y463.367
G01 X247.158 Y439.979
G01 X256.394 Y463.654
G01 X248.579 Y487.496
G01 X256.394 Y463.654
G01 X265.622 Y486.986
G01 X256.394 Y463.654
G01 X247.158 Y439.979
G01 X254.973 Y416.176
G01 X264.199 Y439.469
G01 X256.394 Y463.654
G01 X248.579 Y487.496
G01 X256.394 Y463.654
G01 X265.622 Y486.986
G01 X256.394 Y463.654
G01 X264.199 Y439.469
G01 X275.521 Y462.221
G01 X269.873 Y486.667
G01 X275.521 Y462.221
G01 X286.802 Y484.631
G01 X275.521 Y462.221
G01 X264.199 Y439.469
G01 X254.973 Y416.176
G01 X261.559 Y395.994
G01 X262.064 Y394.131
G01 X262.774 Y391.926
G01 X272.381 Y410.153
G01 X273.687 Y412.351
G01 X274.778 Y414.393
G01 X269.860 Y438.959
G01 X262.783 Y463.367
G01 X255.684 Y487.432
G01 X262.783 Y463.367
G01 X272.704 Y486.412
G01 X262.783 Y463.367
G01 X269.860 Y438.959
G01 X281.858 Y461.363
G01 X276.945 Y485.967
G01 X281.858 Y461.363
G01 X293.805 Y483.425
G01 X281.858 Y461.363
G01 X269.860 Y438.959
G01 X274.778 Y414.393
G01 X286.719 Y436.418
G01 X281.858 Y461.363
G01 X276.945 Y485.967
G01 X281.858 Y461.363
G01 X293.805 Y483.425
G01 X281.858 Y461.363
G01 X286.719 Y436.418
G01 X300.676 Y457.656
G01 X297.988 Y482.601
G01 X300.676 Y457.656
G01 X314.553 Y478.559
G01 X300.676 Y457.656
G01 X286.719 Y436.418
G01 X274.778 Y414.393
G01 X264.695 Y395.712
G01 X263.865 Y393.969
G01 X262.774 Y391.926
G01 X255.234 Y378.613
G01 X253.484 Y375.071
G01 X250.000 Y368.750
G01 X244.857 Y354.681
G01 X243.807 Y351.199
G01 X241.484 Y344.618
G01 X246.721 Y330.585
G01 X247.445 Y328.260
G01 X250.000 Y321.250
G01 X254.083 Y333.115
G01 X255.961 Y337.607
G01 X258.516 Y344.618
G01 X254.360 Y357.132
G01 X252.322 Y362.168
G01 X250.000 Y368.750
G01 X243.568 Y380.917
G01 X240.710 Y385.606
G01 X237.226 Y391.926
G01 X227.619 Y410.153
G01 X226.313 Y412.351
G01 X225.222 Y414.393
G01 X213.281 Y436.418
G01 X199.324 Y457.656
G01 X185.447 Y478.559
G01 X199.324 Y457.656
G01 X202.012 Y482.601
G01 X199.324 Y457.656
G01 X213.281 Y436.418
G01 X218.142 Y461.363
G01 X206.195 Y483.425
G01 X218.142 Y461.363
G01 X223.055 Y485.967
G01 X218.142 Y461.363
G01 X213.281 Y436.418
G01 X225.222 Y414.393
G01 X230.140 Y438.959
G01 X218.142 Y461.363
G01 X206.195 Y483.425
G01 X218.142 Y461.363
G01 X223.055 Y485.967
G01 X218.142 Y461.363
G01 X230.140 Y438.959
G01 X237.217 Y463.367
G01 X227.296 Y486.412
G01 X237.217 Y463.367
G01 X244.316 Y487.432
G01 X237.217 Y463.367
G01 X230.140 Y438.959
G01 X225.222 Y414.393
G01 X235.305 Y395.712
G01 X236.135 Y393.969
G01 X237.226 Y391.926
G01 X243.425 Y411.576
G01 X244.317 Y413.971
G01 X245.027 Y416.176
G01 X235.801 Y439.469
G01 X224.479 Y462.221
G01 X213.198 Y484.631
G01 X224.479 Y462.221
G01 X230.127 Y486.667
G01 X224.479 Y462.221
G01 X235.801 Y439.469
G01 X243.606 Y463.654
G01 X234.378 Y486.986
G01 X243.606 Y463.654
G01 X251.421 Y487.496
G01 X243.606 Y463.654
G01 X235.801 Y439.469
G01 X245.027 Y416.176
G01 X252.842 Y439.979
G01 X243.606 Y463.654
G01 X234.378 Y486.986
G01 X243.606 Y463.654
G01 X251.421 Y487.496
G01 X243.606 Y463.654
G01 X252.842 Y439.979
G01 X262.783 Y463.367
G01 X255.684 Y487.432
G01 X262.783 Y463.367
G01 X272.704 Y486.412
G01 X262.783 Y463.367
G01 X252.842 Y439.979
G01 X245.027 Y416.176
G01 X238.441 Y395.994
G01 X237.936 Y394.131
G01 X237.226 Y391.926
G01 X244.766 Y378.613
G01 X246.516 Y375.071
G01 X250.000 Y368.750
G01 X256.432 Y380.917
G01 X259.290 Y385.606
G01 X262.774 Y391.926
G01 X256.575 Y411.576
G01 X255.683 Y413.971
G01 X254.973 Y416.176
G01 X247.158 Y439.979
G01 X237.217 Y463.367
G01 X227.296 Y486.412
G01 X237.217 Y463.367
G01 X244.316 Y487.432
G01 X237.217 Y463.367
G01 X247.158 Y439.979
G01 X256.394 Y463.654
G01 X248.579 Y487.496
G01 X256.394 Y463.654
G01 X265.622 Y486.986
G01 X256.394 Y463.654
G01 X247.158 Y439.979
G01 X254.973 Y416.176
G01 X264.199 Y439.469
G01 X256.394 Y463.654
G01 X248.579 Y487.496
G01 X256.394 Y463.654
G01 X265.622 Y486.986
G01 X256.394 Y463.654
G01 X264.199 Y439.469
G01 X275.521 Y462.221
G01 X269.873 Y486.667
G01 X275.521 Y462.221
G01 X286.802 Y484.631
G01 X275.521 Y462.221
G01 X264.199 Y439.469
G01 X254.973 Y416.176
G01 X261.559 Y395.994
G01 X262.064 Y394.131
G01 X262.774 Y391.926
G01 X272.381 Y410.153
G01 X273.687 Y412.351
G01 X274.778 Y414.393
G01 X269.860 Y438.959
G01 X262.783 Y463.367
G01 X255.684 Y487.432
G01 X262.783 Y463.367
G01 X272.704 Y486.412
G01 X262.783 Y463.367
G01 X269.860 Y438.959
G01 X281.858 Y461.363
G01 X276.945 Y485.967
G01 X281.858 Y461.363
G01 X293.805 Y483.425
G01 X281.858 Y461.363
G01 X269.860 Y438.959
G01 X274.778 Y414.393
G01 X286.719 Y436.418
G01 X281.858 Y461.363
G01 X276.945 Y485.967
G01 X281.858 Y461.363
G01 X293.805 Y483.425
G01 X281.858 Y461.363
G01 X286.719 Y436.418
G01 X300.676 Y457.656
G01 X297.988 Y482.601
G01 X300.676 Y457.656
G01 X314.553 Y478.559
G01 X300.676 Y457.656
G01 X286.719 Y436.418
G01 X274.778 Y414.393
G01 X264.695 Y395.712
G01 X263.865 Y393.969
G01 X262.774 Y391.926
G01 X255.234 Y378.613
G01 X253.484 Y375.071
G01 X250.000 Y368.750
G01 X255.143 Y354.681
G01 X256.193 Y351.199
G01 X258.516 Y344.618
G01 X264.840 Y356.189
G01 X267.743 Y360.781
G01 X271.204 Y366.842
G01 X267.048 Y379.961
G01 X265.073 Y385.085
G01 X262.774 Y391.926
G01 X256.575 Y411.576
G01 X255.683 Y413.971
G01 X254.973 Y416.176
G01 X247.158 Y439.979
G01 X237.217 Y463.367
G01 X227.296 Y486.412
G01 X237.217 Y463.367
G01 X244.316 Y487.432
G01 X237.217 Y463.367
G01 X247.158 Y439.979
G01 X256.394 Y463.654
G01 X248.579 Y487.496
G01 X256.394 Y463.654
G01 X265.622 Y486.986
G01 X256.394 Y463.654
G01 X247.158 Y439.979
G01 X254.973 Y416.176
G01 X264.199 Y439.469
G01 X256.394 Y463.654
G01 X248.579 Y487.496
G01 X256.394 Y463.654
G01 X265.622 Y486.986
G01 X256.394 Y463.654
G01 X264.199 Y439.469
G01 X275.521 Y462.221
G01 X269.873 Y486.667
G01 X275.521 Y462.221
G01 X286.802 Y484.631
G01 X275.521 Y462.221
G01 X264.199 Y439.469
G01 X254.973 Y416.176
G01 X261.559 Y395.994
G01 X262.064 Y394.131
G01 X262.774 Y391.926
G01 X272.381 Y410.153
G01 X273.687 Y412.351
G01 X274.778 Y414.393
G01 X269.860 Y438.959
G01 X262.783 Y463.367
G01 X255.684 Y487.432
G01 X262.783 Y463.367
G01 X272.704 Y486.412
G01 X262.783 Y463.367
G01 X269.860 Y438.959
G01 X281.858 Y461.363
G01 X276.945 Y485.967
G01 X281.858 Y461.363
G01 X293.805 Y483.425
G01 X281.858 Y461.363
G01 X269.860 Y438.959
G01 X274.778 Y414.393
G01 X286.719 Y436.418
G01 X281.858 Y461.363
G01 X276.945 Y485.967
G01 X281.858 Y461.363
G01 X293.805 Y483.425
G01 X281.858 Y461.363
G01 X286.719 Y436.418
G01 X300.676 Y457.656
G01 X297.988 Y482.601
G01 X300.676 Y457.656
G01 X314.553 Y478.559
G01 X300.676 Y457.656
G01 X286.719 Y436.418
G01 X274.778 Y414.393
G01 X264.695 Y395.712
G01 X263.865 Y393.969
G01 X262.774 Y391.926
G01 X267.815 Y377.481
G01 X268.905 Y373.683
G01 X271.204 Y366.842
G01 X279.704 Y377.664
G01 X283.354 Y381.768
G01 X287.910 Y387.365
G01 X285.320 Y407.805
G01 X284.869 Y410.321
G01 X284.565 Y412.617
G01 X281.125 Y437.433
G01 X275.521 Y462.221
G01 X269.873 Y486.667
G01 X275.521 Y462.221
G01 X286.802 Y484.631
G01 X275.521 Y462.221
G01 X281.125 Y437.433
G01 X294.441 Y459.079
G01 X291.008 Y483.933
G01 X294.441 Y459.079
G01 X307.686 Y480.388
G01 X294.441 Y459.079
G01 X281.125 Y437.433
G01 X284.565 Y412.617
G01 X297.801 Y433.889
G01 X294.441 Y459.079
G01 X291.008 Y483.933
G01 X294.441 Y459.079
G01 X307.686 Y480.388
G01 X294.441 Y459.079
G01 X297.801 Y433.889
G01 X313.004 Y454.254
G01 X311.813 Y479.315
G01 X313.004 Y454.254
G01 X328.106 Y474.289
G01 X313.004 Y454.254
G01 X297.801 Y433.889
G01 X284.565 Y412.617
G01 X287.441 Y391.584
G01 X287.606 Y389.660
G01 X287.910 Y387.365
G01 X300.618 Y403.583
G01 X302.295 Y405.512
G01 X303.734 Y407.327
G01 X303.281 Y432.376
G01 X300.676 Y457.656
G01 X297.988 Y482.601
G01 X300.676 Y457.656
G01 X314.553 Y478.559
G01 X300.676 Y457.656
G01 X303.281 Y432.376
G01 X319.086 Y452.277
G01 X318.645 Y477.363
G01 X319.086 Y452.277
G01 X334.781 Y471.852
G01 X319.086 Y452.277
G01 X303.281 Y432.376
G01 X303.734 Y407.327
G01 X319.415 Y426.866
G01 X319.086 Y452.277
G01 X318.645 Y477.363
G01 X319.086 Y452.277
G01 X334.781 Y471.852
G01 X319.086 Y452.277
G01 X319.415 Y426.866
G01 X336.940 Y445.270
G01 X338.749 Y470.295
G01 X336.940 Y445.270
G01 X354.326 Y463.360
G01 X336.940 Y445.270
G01 X319.415 Y426.866
G01 X303.734 Y407.327
G01 X290.477 Y390.746
G01 X289.349 Y389.179
G01 X287.910 Y387.365
G01 X278.115 Y375.612
G01 X275.760 Y372.439
G01 X271.204 Y366.842
G01 X263.631 Y353.917
G01 X261.976 Y350.679
G01 X258.516 Y344.618
G01 X253.279 Y330.585
G01 X252.555 Y328.260
G01 X250.000 Y321.250
G01 X246.902 Y313.059
G01 X245.374 Y307.879
G01 X243.207 Y302.428
G01 X241.563 Y296.915
G01 X241.519 Y296.737
G01 X249.554 Y252.460
G01 X249.704 Y252.255
G01 X249.834 Y252.042
G01 X249.941 Y251.822
G01 X250.027 Y251.598
G01 X250.090 Y251.369
G01 X250.132 Y251.139
G01 X250.150 Y250.909
G01 X250.147 Y250.680
G01 X250.122 Y250.454
G01 X250.075 Y250.233
G01 X250.007 Y250.018
G01 X250.000 Y250.000
G01 X250.039 Y250.090
G01 X250.088 Y250.176
G01 X250.144 Y250.257
G01 X250.209 Y250.332
G01 X250.281 Y250.402
G01 X250.360 Y250.465
G01 X250.447 Y250.522
G01 X250.539 Y250.570
G01 X250.637 Y250.611
G01 X250.740 Y250.643
G01 X250.848 Y250.667
G01 X250.960 Y250.681
G01 X251.075 Y250.686
G01 X251.192 Y250.681
G01 X251.312 Y250.666
G01 X251.432 Y250.641
G01 X251.554 Y250.606
G01 X251.674 Y250.560
G01 X251.794 Y250.504
G01 X251.913 Y250.437
G01 X252.028 Y250.359
G01 X252.141 Y250.272
G01 X252.249 Y250.174
G01 X252.353 Y250.066
G01 X252.452 Y249.949
G01 X252.497 Y249.888
G01 X297.452 Y247.869
G01 X302.697 Y250.222
G01 X307.814 Y253.084
G01 X307.976 Y253.185
G01 X315.822 Y256.868
G01 X320.605 Y259.564
G01 X331.815 Y265.203
G01 X336.014 Y267.667
G01 X342.618 Y271.139
G01 X353.236 Y278.959
G01 X357.396 Y282.453
G01 X362.938 Y286.696
G01 X372.522 Y296.572
G01 X376.098 Y300.740
G01 X381.033 Y306.006
G01 X395.399 Y320.776
G01 X397.085 Y322.697
G01 X398.690 Y324.366
G01 X415.948 Y342.528
G01 X431.833 Y362.365
G01 X447.425 Y382.022
G01 X431.833 Y362.365
G01 X456.388 Y367.517
G01 X431.833 Y362.365
G01 X415.948 Y342.528
G01 X441.173 Y345.613
G01 X458.464 Y363.793
G01 X441.173 Y345.613
G01 X466.091 Y348.544
G01 X441.173 Y345.613
G01 X415.948 Y342.528
G01 X398.690 Y324.366
G01 X423.574 Y327.280
G01 X441.173 Y345.613
G01 X458.464 Y363.793
G01 X441.173 Y345.613
G01 X466.091 Y348.544
G01 X441.173 Y345.613
G01 X423.574 Y327.280
G01 X448.974 Y328.092
G01 X467.825 Y344.649
G01 X448.974 Y328.092
G01 X474.055 Y328.777
G01 X448.974 Y328.092
G01 X423.574 Y327.280
G01 X398.690 Y324.366
G01 X384.039 Y309.004
G01 X382.638 Y307.675
G01 X381.033 Y306.006
G01 X401.636 Y306.183
G01 X404.190 Y306.074
G01 X406.506 Y306.081
G01 X425.808 Y322.053
G01 X443.948 Y339.851
G01 X461.775 Y357.506
G01 X443.948 Y339.851
G01 X468.942 Y342.035
G01 X443.948 Y339.851
G01 X425.808 Y322.053
G01 X451.221 Y322.104
G01 X470.559 Y338.090
G01 X451.221 Y322.104
G01 X476.311 Y322.039
G01 X451.221 Y322.104
G01 X425.808 Y322.053
G01 X406.506 Y306.081
G01 X431.559 Y306.003
G01 X451.221 Y322.104
G01 X470.559 Y338.090
G01 X451.221 Y322.104
G01 X476.311 Y322.039
G01 X451.221 Y322.104
G01 X431.559 Y306.003
G01 X456.875 Y303.777
G01 X477.568 Y317.964
G01 X456.875 Y303.777
G01 X481.857 Y301.462
G01 X456.875 Y303.777
G01 X431.559 Y306.003
G01 X406.506 Y306.081
G01 X385.277 Y306.108
G01 X383.348 Y306.013
G01 X381.033 Y306.006
G01 X370.701 Y294.721
G01 X367.873 Y291.962
G01 X362.938 Y286.696
G01 X376.497 Y284.339
G01 X381.839 Y283.069
G01 X388.927 Y281.709
G01 X405.700 Y293.676
G01 X407.702 Y295.265
G01 X409.579 Y296.621
G01 X429.802 Y311.410
G01 X448.974 Y328.092
G01 X467.825 Y344.649
G01 X448.974 Y328.092
G01 X474.055 Y328.777
G01 X448.974 Y328.092
G01 X429.802 Y311.410
G01 X455.173 Y309.941
G01 X475.433 Y324.742
G01 X455.173 Y309.941
G01 X480.214 Y308.375
G01 X455.173 Y309.941
G01 X429.802 Y311.410
G01 X409.579 Y296.621
G01 X434.583 Y295.045
G01 X455.173 Y309.941
G01 X475.433 Y324.742
G01 X455.173 Y309.941
G01 X480.214 Y308.375
G01 X455.173 Y309.941
G01 X434.583 Y295.045
G01 X459.720 Y291.308
G01 X481.225 Y304.233
G01 X459.720 Y291.308
G01 X484.520 Y287.504
G01 X459.720 Y291.308
G01 X434.583 Y295.045
G01 X409.579 Y296.621
G01 X392.421 Y284.122
G01 X390.805 Y283.065
G01 X388.927 Y281.709
G01 X409.231 Y278.205
G01 X411.724 Y277.642
G01 X414.004 Y277.235
G01 X435.848 Y289.503
G01 X456.875 Y303.777
G01 X477.568 Y317.964
G01 X456.875 Y303.777
G01 X481.857 Y301.462
G01 X456.875 Y303.777
G01 X435.848 Y289.503
G01 X460.862 Y285.016
G01 X482.744 Y297.292
G01 X460.862 Y285.016
G01 X485.537 Y280.472
G01 X460.862 Y285.016
G01 X435.848 Y289.503
G01 X414.004 Y277.235
G01 X438.641 Y272.685
G01 X460.862 Y285.016
G01 X482.744 Y297.292
G01 X460.862 Y285.016
G01 X485.537 Y280.472
G01 X460.862 Y285.016
G01 X438.641 Y272.685
G01 X463.152 Y265.974
G01 X486.046 Y276.238
G01 X463.152 Y265.974
G01 X487.320 Y259.235
G01 X463.152 Y265.974
G01 X438.641 Y272.685
G01 X414.004 Y277.235
G01 X393.121 Y281.051
G01 X391.207 Y281.302
G01 X388.927 Y281.709
G01 X373.936 Y284.766
G01 X370.026 Y285.336
G01 X362.938 Y286.696
G01 X351.146 Y277.457
G01 X348.160 Y275.382
G01 X342.618 Y271.139
G01 X355.577 Y268.701
G01 X360.842 Y267.358
G01 X367.675 Y265.940
G01 X378.868 Y273.947
G01 X383.131 Y277.409
G01 X388.927 Y281.709
G01 X405.700 Y293.676
G01 X407.702 Y295.265
G01 X409.579 Y296.621
G01 X429.802 Y311.410
G01 X448.974 Y328.092
G01 X467.825 Y344.649
G01 X448.974 Y328.092
G01 X474.055 Y328.777
G01 X448.974 Y328.092
G01 X429.802 Y311.410
G01 X455.173 Y309.941
G01 X475.433 Y324.742
G01 X455.173 Y309.941
G01 X480.214 Y308.375
G01 X455.173 Y309.941
G01 X429.802 Y311.410
G01 X409.579 Y296.621
G01 X434.583 Y295.045
G01 X455.173 Y309.941
G01 X475.433 Y324.742
G01 X455.173 Y309.941
G01 X480.214 Y308.375
G01 X455.173 Y309.941
G01 X434.583 Y295.045
G01 X459.720 Y291.308
G01 X481.225 Y304.233
G01 X459.720 Y291.308
G01 X484.520 Y287.504
G01 X459.720 Y291.308
G01 X434.583 Y295.045
G01 X409.579 Y296.621
G01 X392.421 Y284.122
G01 X390.805 Y283.065
G01 X388.927 Y281.709
G01 X409.231 Y278.205
G01 X411.724 Y277.642
G01 X414.004 Y277.235
G01 X435.848 Y289.503
G01 X456.875 Y303.777
G01 X477.568 Y317.964
G01 X456.875 Y303.777
G01 X481.857 Y301.462
G01 X456.875 Y303.777
G01 X435.848 Y289.503
G01 X460.862 Y285.016
G01 X482.744 Y297.292
G01 X460.862 Y285.016
G01 X485.537 Y280.472
G01 X460.862 Y285.016
G01 X435.848 Y289.503
G01 X414.004 Y277.235
G01 X438.641 Y272.685
G01 X460.862 Y285.016
G01 X482.744 Y297.292
G01 X460.862 Y285.016
G01 X485.537 Y280.472
G01 X460.862 Y285.016
G01 X438.641 Y272.685
G01 X463.152 Y265.974
G01 X486.046 Y276.238
G01 X463.152 Y265.974
G01 X487.320 Y259.235
G01 X463.152 Y265.974
G01 X438.641 Y272.685
G01 X414.004 Y277.235
G01 X393.121 Y281.051
G01 X391.207 Y281.302
G01 X388.927 Y281.709
G01 X376.747 Y272.451
G01 X373.471 Y270.241
G01 X367.675 Y265.940
G01 X380.595 Y261.200
G01 X385.625 Y258.997
G01 X392.357 Y256.393
G01 X410.996 Y265.173
G01 X413.250 Y266.379
G01 X415.339 Y267.378
G01 X437.878 Y278.318
G01 X459.720 Y291.308
G01 X481.225 Y304.233
G01 X459.720 Y291.308
G01 X484.520 Y287.504
G01 X459.720 Y291.308
G01 X437.878 Y278.318
G01 X462.579 Y272.343
G01 X485.156 Y283.288
G01 X462.579 Y272.343
G01 X486.938 Y266.331
G01 X462.579 Y272.343
G01 X437.878 Y278.318
G01 X415.339 Y267.378
G01 X439.660 Y261.363
G01 X462.579 Y272.343
G01 X485.156 Y283.288
G01 X462.579 Y272.343
G01 X486.938 Y266.331
G01 X462.579 Y272.343
G01 X439.660 Y261.363
G01 X463.726 Y253.198
G01 X487.193 Y262.075
G01 X463.726 Y253.198
G01 X487.448 Y245.026
G01 X463.726 Y253.198
G01 X439.660 Y261.363
G01 X415.339 Y267.378
G01 X396.225 Y258.143
G01 X394.446 Y257.392
G01 X392.357 Y256.393
G01 X411.708 Y249.320
G01 X414.061 Y248.320
G01 X416.231 Y247.513
G01 X439.915 Y255.684
G01 X463.152 Y265.974
G01 X486.046 Y276.238
G01 X463.152 Y265.974
G01 X487.320 Y259.235
G01 X463.152 Y265.974
G01 X439.915 Y255.684
G01 X463.726 Y246.802
G01 X487.448 Y254.974
G01 X463.726 Y246.802
G01 X487.193 Y237.925
G01 X463.726 Y246.802
G01 X439.915 Y255.684
G01 X416.231 Y247.513
G01 X439.660 Y238.637
G01 X463.726 Y246.802
G01 X487.448 Y254.974
G01 X463.726 Y246.802
G01 X487.193 Y237.925
G01 X463.726 Y246.802
G01 X439.660 Y238.637
G01 X462.579 Y227.657
G01 X486.938 Y233.669
G01 X462.579 Y227.657
G01 X485.156 Y216.712
G01 X462.579 Y227.657
G01 X439.660 Y238.637
G01 X416.231 Y247.513
G01 X396.366 Y254.997
G01 X394.527 Y255.586
G01 X392.357 Y256.393
G01 X378.152 Y262.078
G01 X374.407 Y263.336
G01 X367.675 Y265.940
G01 X353.043 Y269.148
G01 X349.452 Y269.722
G01 X342.618 Y271.139
G01 X329.416 Y264.067
G01 X327.209 Y263.037
G01 X320.605 Y259.564
G01 X332.911 Y257.111
G01 X337.615 Y255.853
G01 X344.904 Y254.262
G01 X356.748 Y260.060
G01 X361.465 Y262.755
G01 X367.675 Y265.940
G01 X378.868 Y273.947
G01 X383.131 Y277.409
G01 X388.927 Y281.709
G01 X405.700 Y293.676
G01 X407.702 Y295.265
G01 X409.579 Y296.621
G01 X429.802 Y311.410
G01 X448.974 Y328.092
G01 X467.825 Y344.649
G01 X448.974 Y328.092
G01 X474.055 Y328.777
G01 X448.974 Y328.092
G01 X429.802 Y311.410
G01 X455.173 Y309.941
G01 X475.433 Y324.742
G01 X455.173 Y309.941
G01 X480.214 Y308.375
G01 X455.173 Y309.941
G01 X429.802 Y311.410
G01 X409.579 Y296.621
G01 X434.583 Y295.045
G01 X455.173 Y309.941
G01 X475.433 Y324.742
G01 X455.173 Y309.941
G01 X480.214 Y308.375
G01 X455.173 Y309.941
G01 X434.583 Y295.045
G01 X459.720 Y291.308
G01 X481.225 Y304.233
G01 X459.720 Y291.308
G01 X484.520 Y287.504
G01 X459.720 Y291.308
G01 X434.583 Y295.045
G01 X409.579 Y296.621
G01 X392.421 Y284.122
G01 X390.805 Y283.065
G01 X388.927 Y281.709
G01 X409.231 Y278.205
G01 X411.724 Y277.642
G01 X414.004 Y277.235
G01 X435.848 Y289.503
G01 X456.875 Y303.777
G01 X477.568 Y317.964
G01 X456.875 Y303.777
G01 X481.857 Y301.462
G01 X456.875 Y303.777
G01 X435.848 Y289.503
G01 X460.862 Y285.016
G01 X482.744 Y297.292
G01 X460.862 Y285.016
G01 X485.537 Y280.472
G01 X460.862 Y285.016
G01 X435.848 Y289.503
G01 X414.004 Y277.235
G01 X438.641 Y272.685
G01 X460.862 Y285.016
G01 X482.744 Y297.292
G01 X460.862 Y285.016
G01 X485.537 Y280.472
G01 X460.862 Y285.016
G01 X438.641 Y272.685
G01 X463.152 Y265.974
G01 X486.046 Y276.238
G01 X463.152 Y265.974
G01 X487.320 Y259.235
G01 X463.152 Y265.974
G01 X438.641 Y272.685
G01 X414.004 Y277.235
G01 X393.121 Y281.051
G01 X391.207 Y281.302
G01 X388.927 Y281.709
G01 X376.747 Y272.451
G01 X373.471 Y270.241
G01 X367.675 Y265.940
G01 X380.595 Y261.200
G01 X385.625 Y258.997
G01 X392.357 Y256.393
G01 X410.996 Y265.173
G01 X413.250 Y266.379
G01 X415.339 Y267.378
G01 X437.878 Y278.318
G01 X459.720 Y291.308
G01 X481.225 Y304.233
G01 X459.720 Y291.308
G01 X484.520 Y287.504
G01 X459.720 Y291.308
G01 X437.878 Y278.318
G01 X462.579 Y272.343
G01 X485.156 Y283.288
G01 X462.579 Y272.343
G01 X486.938 Y266.331
G01 X462.579 Y272.343
G01 X437.878 Y278.318
G01 X415.339 Y267.378
G01 X439.660 Y261.363
G01 X462.579 Y272.343
G01 X485.156 Y283.288
G01 X462.579 Y272.343
G01 X486.938 Y266.331
G01 X462.579 Y272.343
G01 X439.660 Y261.363
G01 X463.726 Y253.198
G01 X487.193 Y262.075
G01 X463.726 Y253.198
G01 X487.448 Y245.026
G01 X463.726 Y253.198
G01 X439.660 Y261.363
G01 X415.339 Y267.378
G01 X396.225 Y258.143
G01 X394.446 Y257.392
G01 X392.357 Y256.393
G01 X411.708 Y249.320
G01 X414.061 Y248.320
G01 X416.231 Y247.513
G01 X439.915 Y255.684
G01 X463.152 Y265.974
G01 X486.046 Y276.238
G01 X463.152 Y265.974
G01 X487.320 Y259.235
G01 X463.152 Y265.974
G01 X439.915 Y255.684
G01 X463.726 Y246.802
G01 X487.448 Y254.974
G01 X463.726 Y246.802
G01 X487.193 Y237.925
G01 X463.726 Y246.802
G01 X439.915 Y255.684
G01 X416.231 Y247.513
G01 X439.660 Y238.637
G01 X463.726 Y246.802
G01 X487.448 Y254.974
G01 X463.726 Y246.802
G01 X487.193 Y237.925
G01 X463.726 Y246.802
G01 X439.660 Y238.637
G01 X462.579 Y227.657
G01 X486.938 Y233.669
G01 X462.579 Y227.657
G01 X485.156 Y216.712
G01 X462.579 Y227.657
G01 X439.660 Y238.637
G01 X416.231 Y247.513
G01 X396.366 Y254.997
G01 X394.527 Y255.586
G01 X392.357 Y256.393
G01 X378.152 Y262.078
G01 X374.407 Y263.336
G01 X367.675 Y265.940
G01 X354.424 Y258.956
G01 X351.115 Y257.447
G01 X344.904 Y254.262
G01 X357.220 Y249.549
G01 X362.160 Y247.288
G01 X368.630 Y244.672
G01 X381.073 Y250.551
G01 X385.886 Y253.197
G01 X392.357 Y256.393
G01 X410.996 Y265.173
G01 X413.250 Y266.379
G01 X415.339 Y267.378
G01 X437.878 Y278.318
G01 X459.720 Y291.308
G01 X481.225 Y304.233
G01 X459.720 Y291.308
G01 X484.520 Y287.504
G01 X459.720 Y291.308
G01 X437.878 Y278.318
G01 X462.579 Y272.343
G01 X485.156 Y283.288
G01 X462.579 Y272.343
G01 X486.938 Y266.331
G01 X462.579 Y272.343
G01 X437.878 Y278.318
G01 X415.339 Y267.378
G01 X439.660 Y261.363
G01 X462.579 Y272.343
G01 X485.156 Y283.288
G01 X462.579 Y272.343
G01 X486.938 Y266.331
G01 X462.579 Y272.343
G01 X439.660 Y261.363
G01 X463.726 Y253.198
G01 X487.193 Y262.075
G01 X463.726 Y253.198
G01 X487.448 Y245.026
G01 X463.726 Y253.198
G01 X439.660 Y261.363
G01 X415.339 Y267.378
G01 X396.225 Y258.143
G01 X394.446 Y257.392
G01 X392.357 Y256.393
G01 X411.708 Y249.320
G01 X414.061 Y248.320
G01 X416.231 Y247.513
G01 X439.915 Y255.684
G01 X463.152 Y265.974
G01 X486.046 Y276.238
G01 X463.152 Y265.974
G01 X487.320 Y259.235
G01 X463.152 Y265.974
G01 X439.915 Y255.684
G01 X463.726 Y246.802
G01 X487.448 Y254.974
G01 X463.726 Y246.802
G01 X487.193 Y237.925
G01 X463.726 Y246.802
G01 X439.915 Y255.684
G01 X416.231 Y247.513
G01 X439.660 Y238.637
G01 X463.726 Y246.802
G01 X487.448 Y254.974
G01 X463.726 Y246.802
G01 X487.193 Y237.925
G01 X463.726 Y246.802
G01 X439.660 Y238.637
G01 X462.579 Y227.657
G01 X486.938 Y233.669
G01 X462.579 Y227.657
G01 X485.156 Y216.712
G01 X462.579 Y227.657
G01 X439.660 Y238.637
G01 X416.231 Y247.513
G01 X396.366 Y254.997
G01 X394.527 Y255.586
G01 X392.357 Y256.393
G01 X378.719 Y249.458
G01 X375.101 Y247.869
G01 X368.630 Y244.672
G01 X380.496 Y237.701
G01 X385.052 Y234.636
G01 X391.210 Y230.872
G01 X411.118 Y236.182
G01 X413.551 Y236.967
G01 X415.785 Y237.576
G01 X439.915 Y244.316
G01 X463.726 Y253.198
G01 X487.193 Y262.075
G01 X463.726 Y253.198
G01 X487.448 Y245.026
G01 X463.726 Y253.198
G01 X439.915 Y244.316
G01 X463.152 Y234.026
G01 X487.320 Y240.765
G01 X463.152 Y234.026
G01 X486.046 Y223.762
G01 X463.152 Y234.026
G01 X439.915 Y244.316
G01 X415.785 Y237.576
G01 X438.641 Y227.315
G01 X463.152 Y234.026
G01 X487.320 Y240.765
G01 X463.152 Y234.026
G01 X486.046 Y223.762
G01 X463.152 Y234.026
G01 X438.641 Y227.315
G01 X460.862 Y214.984
G01 X485.537 Y219.528
G01 X460.862 Y214.984
G01 X482.744 Y202.708
G01 X460.862 Y214.984
G01 X438.641 Y227.315
G01 X415.785 Y237.576
G01 X395.329 Y231.903
G01 X393.444 Y231.481
G01 X391.210 Y230.872
G01 X408.988 Y220.456
G01 X411.125 Y219.053
G01 X413.116 Y217.871
G01 X437.878 Y221.682
G01 X462.579 Y227.657
G01 X486.938 Y233.669
G01 X462.579 Y227.657
G01 X485.156 Y216.712
G01 X462.579 Y227.657
G01 X437.878 Y221.682
G01 X459.720 Y208.692
G01 X484.520 Y212.496
G01 X459.720 Y208.692
G01 X481.225 Y195.767
G01 X459.720 Y208.692
G01 X437.878 Y221.682
G01 X413.116 Y217.871
G01 X434.583 Y204.955
G01 X459.720 Y208.692
G01 X484.520 Y212.496
G01 X459.720 Y208.692
G01 X481.225 Y195.767
G01 X459.720 Y208.692
G01 X434.583 Y204.955
G01 X455.173 Y190.059
G01 X480.214 Y191.625
G01 X455.173 Y190.059
G01 X475.433 Y175.258
G01 X455.173 Y190.059
G01 X434.583 Y204.955
G01 X413.116 Y217.871
G01 X394.906 Y228.782
G01 X393.202 Y229.690
G01 X391.210 Y230.872
G01 X378.249 Y239.001
G01 X374.789 Y240.909
G01 X368.630 Y244.672
G01 X354.806 Y250.441
G01 X351.375 Y251.647
G01 X344.904 Y254.262
G01 X330.296 Y257.568
G01 X327.895 Y257.974
G01 X320.605 Y259.564
G01 X312.904 Y255.395
G01 X307.976 Y253.185
G01 X302.865 Y250.306
G01 X297.623 Y247.937
G01 X297.452 Y247.869
G01 X302.465 Y245.055
G01 X307.304 Y241.746
G01 X307.457 Y241.631
G01 X314.941 Y237.259
G01 X319.464 Y234.145
G01 X331.940 Y235.486
G01 X336.737 Y236.317
G01 X344.140 Y237.248
G01 X356.829 Y240.838
G01 X361.951 Y242.647
G01 X368.630 Y244.672
G01 X381.073 Y250.551
G01 X385.886 Y253.197
G01 X392.357 Y256.393
G01 X410.996 Y265.173
G01 X413.250 Y266.379
G01 X415.339 Y267.378
G01 X437.878 Y278.318
G01 X459.720 Y291.308
G01 X481.225 Y304.233
G01 X459.720 Y291.308
G01 X484.520 Y287.504
G01 X459.720 Y291.308
G01 X437.878 Y278.318
G01 X462.579 Y272.343
G01 X485.156 Y283.288
G01 X462.579 Y272.343
G01 X486.938 Y266.331
G01 X462.579 Y272.343
G01 X437.878 Y278.318
G01 X415.339 Y267.378
G01 X439.660 Y261.363
G01 X462.579 Y272.343
G01 X485.156 Y283.288
G01 X462.579 Y272.343
G01 X486.938 Y266.331
G01 X462.579 Y272.343
G01 X439.660 Y261.363
G01 X463.726 Y253.198
G01 X487.193 Y262.075
G01 X463.726 Y253.198
G01 X487.448 Y245.026
G01 X463.726 Y253.198
G01 X439.660 Y261.363
G01 X415.339 Y267.378
G01 X396.225 Y258.143
G01 X394.446 Y257.392
G01 X392.357 Y256.393
G01 X411.708 Y249.320
G01 X414.061 Y248.320
G01 X416.231 Y247.513
G01 X439.915 Y255.684
G01 X463.152 Y265.974
G01 X486.046 Y276.238
G01 X463.152 Y265.974
G01 X487.320 Y259.235
G01 X463.152 Y265.974
G01 X439.915 Y255.684
G01 X463.726 Y246.802
G01 X487.448 Y254.974
G01 X463.726 Y246.802
G01 X487.193 Y237.925
G01 X463.726 Y246.802
G01 X439.915 Y255.684
G01 X416.231 Y247.513
G01 X439.660 Y238.637
G01 X463.726 Y246.802
G01 X487.448 Y254.974
G01 X463.726 Y246.802
G01 X487.193 Y237.925
G01 X463.726 Y246.802
G01 X439.660 Y238.637
G01 X462.579 Y227.657
G01 X486.938 Y233.669
G01 X462.579 Y227.657
G01 X485.156 Y216.712
G01 X462.579 Y227.657
G01 X439.660 Y238.637
G01 X416.231 Y247.513
G01 X396.366 Y254.997
G01 X394.527 Y255.586
G01 X392.357 Y256.393
G01 X378.719 Y249.458
G01 X375.101 Y247.869
G01 X368.630 Y244.672
G01 X380.496 Y237.701
G01 X385.052 Y234.636
G01 X391.210 Y230.872
G01 X411.118 Y236.182
G01 X413.551 Y236.967
G01 X415.785 Y237.576
G01 X439.915 Y244.316
G01 X463.726 Y253.198
G01 X487.193 Y262.075
G01 X463.726 Y253.198
G01 X487.448 Y245.026
G01 X463.726 Y253.198
G01 X439.915 Y244.316
G01 X463.152 Y234.026
G01 X487.320 Y240.765
G01 X463.152 Y234.026
G01 X486.046 Y223.762
G01 X463.152 Y234.026
G01 X439.915 Y244.316
G01 X415.785 Y237.576
G01 X438.641 Y227.315
G01 X463.152 Y234.026
G01 X487.320 Y240.765
G01 X463.152 Y234.026
G01 X486.046 Y223.762
G01 X463.152 Y234.026
G01 X438.641 Y227.315
G01 X460.862 Y214.984
G01 X485.537 Y219.528
G01 X460.862 Y214.984
G01 X482.744 Y202.708
G01 X460.862 Y214.984
G01 X438.641 Y227.315
G01 X415.785 Y237.576
G01 X395.329 Y231.903
G01 X393.444 Y231.481
G01 X391.210 Y230.872
G01 X408.988 Y220.456
G01 X411.125 Y219.053
G01 X413.116 Y217.871
G01 X437.878 Y221.682
G01 X462.579 Y227.657
G01 X486.938 Y233.669
G01 X462.579 Y227.657
G01 X485.156 Y216.712
G01 X462.579 Y227.657
G01 X437.878 Y221.682
G01 X459.720 Y208.692
G01 X484.520 Y212.496
G01 X459.720 Y208.692
G01 X481.225 Y195.767
G01 X459.720 Y208.692
G01 X437.878 Y221.682
G01 X413.116 Y217.871
G01 X434.583 Y204.955
G01 X459.720 Y208.692
G01 X484.520 Y212.496
G01 X459.720 Y208.692
G01 X481.225 Y195.767
G01 X459.720 Y208.692
G01 X434.583 Y204.955
G01 X455.173 Y190.059
G01 X480.214 Y191.625
G01 X455.173 Y190.059
G01 X475.433 Y175.258
G01 X455.173 Y190.059
G01 X434.583 Y204.955
G01 X413.116 Y217.871
G01 X394.906 Y228.782
G01 X393.202 Y229.690
G01 X391.210 Y230.872
G01 X378.249 Y239.001
G01 X374.789 Y240.909
G01 X368.630 Y244.672
G01 X354.345 Y240.166
G01 X350.819 Y239.273
G01 X344.140 Y237.248
G01 X355.416 Y230.411
G01 X359.873 Y227.304
G01 X365.773 Y223.576
G01 X379.065 Y227.139
G01 X384.273 Y228.882
G01 X391.210 Y230.872
G01 X411.118 Y236.182
G01 X413.551 Y236.967
G01 X415.785 Y237.576
G01 X439.915 Y244.316
G01 X463.726 Y253.198
G01 X487.193 Y262.075
G01 X463.726 Y253.198
G01 X487.448 Y245.026
G01 X463.726 Y253.198
G01 X439.915 Y244.316
G01 X463.152 Y234.026
G01 X487.320 Y240.765
G01 X463.152 Y234.026
G01 X486.046 Y223.762
G01 X463.152 Y234.026
G01 X439.915 Y244.316
G01 X415.785 Y237.576
G01 X438.641 Y227.315
G01 X463.152 Y234.026
G01 X487.320 Y240.765
G01 X463.152 Y234.026
G01 X486.046 Y223.762
G01 X463.152 Y234.026
G01 X438.641 Y227.315
G01 X460.862 Y214.984
G01 X485.537 Y219.528
G01 X460.862 Y214.984
G01 X482.744 Y202.708
G01 X460.862 Y214.984
G01 X438.641 Y227.315
G01 X415.785 Y237.576
G01 X395.329 Y231.903
G01 X393.444 Y231.481
G01 X391.210 Y230.872
G01 X408.988 Y220.456
G01 X411.125 Y219.053
G01 X413.116 Y217.871
G01 X437.878 Y221.682
G01 X462.579 Y227.657
G01 X486.938 Y233.669
G01 X462.579 Y227.657
G01 X485.156 Y216.712
G01 X462.579 Y227.657
G01 X437.878 Y221.682
G01 X459.720 Y208.692
G01 X484.520 Y212.496
G01 X459.720 Y208.692
G01 X481.225 Y195.767
G01 X459.720 Y208.692
G01 X437.878 Y221.682
G01 X413.116 Y217.871
G01 X434.583 Y204.955
G01 X459.720 Y208.692
G01 X484.520 Y212.496
G01 X459.720 Y208.692
G01 X481.225 Y195.767
G01 X459.720 Y208.692
G01 X434.583 Y204.955
G01 X455.173 Y190.059
G01 X480.214 Y191.625
G01 X455.173 Y190.059
G01 X475.433 Y175.258
G01 X455.173 Y190.059
G01 X434.583 Y204.955
G01 X413.116 Y217.871
G01 X394.906 Y228.782
G01 X393.202 Y229.690
G01 X391.210 Y230.872
G01 X376.553 Y226.484
G01 X372.710 Y225.565
G01 X365.773 Y223.576
G01 X376.203 Y214.598
G01 X380.138 Y210.768
G01 X385.526 Y205.965
G01 X406.062 Y207.636
G01 X408.596 Y207.973
G01 X410.903 Y208.174
G01 X435.848 Y210.497
G01 X460.862 Y214.984
G01 X485.537 Y219.528
G01 X460.862 Y214.984
G01 X482.744 Y202.708
G01 X460.862 Y214.984
G01 X435.848 Y210.497
G01 X456.875 Y196.223
G01 X481.857 Y198.538
G01 X456.875 Y196.223
G01 X477.568 Y182.036
G01 X456.875 Y196.223
G01 X435.848 Y210.497
G01 X410.903 Y208.174
G01 X431.559 Y193.997
G01 X456.875 Y196.223
G01 X481.857 Y198.538
G01 X456.875 Y196.223
G01 X477.568 Y182.036
G01 X456.875 Y196.223
G01 X431.559 Y193.997
G01 X451.221 Y177.896
G01 X476.311 Y177.961
G01 X451.221 Y177.896
G01 X470.559 Y161.910
G01 X451.221 Y177.896
G01 X431.559 Y193.997
G01 X410.903 Y208.174
G01 X389.762 Y206.244
G01 X387.833 Y206.166
G01 X385.526 Y205.965
G01 X401.158 Y192.543
G01 X403.009 Y190.781
G01 X404.758 Y189.262
G01 X429.802 Y188.590
G01 X455.173 Y190.059
G01 X480.214 Y191.625
G01 X455.173 Y190.059
G01 X475.433 Y175.258
G01 X455.173 Y190.059
G01 X429.802 Y188.590
G01 X448.974 Y171.908
G01 X474.055 Y171.223
G01 X448.974 Y171.908
G01 X467.825 Y155.351
G01 X448.974 Y171.908
G01 X429.802 Y188.590
G01 X404.758 Y189.262
G01 X423.574 Y172.720
G01 X448.974 Y171.908
G01 X474.055 Y171.223
G01 X448.974 Y171.908
G01 X467.825 Y155.351
G01 X448.974 Y171.908
G01 X423.574 Y172.720
G01 X441.173 Y154.387
G01 X466.091 Y151.456
G01 X441.173 Y154.387
G01 X458.464 Y136.207
G01 X441.173 Y154.387
G01 X423.574 Y172.720
G01 X404.758 Y189.262
G01 X388.789 Y203.249
G01 X387.274 Y204.447
G01 X385.526 Y205.965
G01 X374.224 Y216.278
G01 X371.160 Y218.773
G01 X365.773 Y223.576
G01 X353.201 Y231.720
G01 X350.040 Y233.519
G01 X344.140 Y237.248
G01 X329.295 Y235.265
G01 X326.867 Y235.076
G01 X319.464 Y234.145
G01 X330.122 Y227.524
G01 X334.084 Y224.694
G01 X340.350 Y220.643
G01 X353.476 Y221.910
G01 X358.839 Y222.776
G01 X365.773 Y223.576
G01 X379.065 Y227.139
G01 X384.273 Y228.882
G01 X391.210 Y230.872
G01 X411.118 Y236.182
G01 X413.551 Y236.967
G01 X415.785 Y237.576
G01 X439.915 Y244.316
G01 X463.726 Y253.198
G01 X487.193 Y262.075
G01 X463.726 Y253.198
G01 X487.448 Y245.026
G01 X463.726 Y253.198
G01 X439.915 Y244.316
G01 X463.152 Y234.026
G01 X487.320 Y240.765
G01 X463.152 Y234.026
G01 X486.046 Y223.762
G01 X463.152 Y234.026
G01 X439.915 Y244.316
G01 X415.785 Y237.576
G01 X438.641 Y227.315
G01 X463.152 Y234.026
G01 X487.320 Y240.765
G01 X463.152 Y234.026
G01 X486.046 Y223.762
G01 X463.152 Y234.026
G01 X438.641 Y227.315
G01 X460.862 Y214.984
G01 X485.537 Y219.528
G01 X460.862 Y214.984
G01 X482.744 Y202.708
G01 X460.862 Y214.984
G01 X438.641 Y227.315
G01 X415.785 Y237.576
G01 X395.329 Y231.903
G01 X393.444 Y231.481
G01 X391.210 Y230.872
G01 X408.988 Y220.456
G01 X411.125 Y219.053
G01 X413.116 Y217.871
G01 X437.878 Y221.682
G01 X462.579 Y227.657
G01 X486.938 Y233.669
G01 X462.579 Y227.657
G01 X485.156 Y216.712
G01 X462.579 Y227.657
G01 X437.878 Y221.682
G01 X459.720 Y208.692
G01 X484.520 Y212.496
G01 X459.720 Y208.692
G01 X481.225 Y195.767
G01 X459.720 Y208.692
G01 X437.878 Y221.682
G01 X413.116 Y217.871
G01 X434.583 Y204.955
G01 X459.720 Y208.692
G01 X484.520 Y212.496
G01 X459.720 Y208.692
G01 X481.225 Y195.767
G01 X459.720 Y208.692
G01 X434.583 Y204.955
G01 X455.173 Y190.059
G01 X480.214 Y191.625
G01 X455.173 Y190.059
G01 X475.433 Y175.258
G01 X455.173 Y190.059
G01 X434.583 Y204.955
G01 X413.116 Y217.871
G01 X394.906 Y228.782
G01 X393.202 Y229.690
G01 X391.210 Y230.872
G01 X376.553 Y226.484
G01 X372.710 Y225.565
G01 X365.773 Y223.576
G01 X376.203 Y214.598
G01 X380.138 Y210.768
G01 X385.526 Y205.965
G01 X406.062 Y207.636
G01 X408.596 Y207.973
G01 X410.903 Y208.174
G01 X435.848 Y210.497
G01 X460.862 Y214.984
G01 X485.537 Y219.528
G01 X460.862 Y214.984
G01 X482.744 Y202.708
G01 X460.862 Y214.984
G01 X435.848 Y210.497
G01 X456.875 Y196.223
G01 X481.857 Y198.538
G01 X456.875 Y196.223
G01 X477.568 Y182.036
G01 X456.875 Y196.223
G01 X435.848 Y210.497
G01 X410.903 Y208.174
G01 X431.559 Y193.997
G01 X456.875 Y196.223
G01 X481.857 Y198.538
G01 X456.875 Y196.223
G01 X477.568 Y182.036
G01 X456.875 Y196.223
G01 X431.559 Y193.997
G01 X451.221 Y177.896
G01 X476.311 Y177.961
G01 X451.221 Y177.896
G01 X470.559 Y161.910
G01 X451.221 Y177.896
G01 X431.559 Y193.997
G01 X410.903 Y208.174
G01 X389.762 Y206.244
G01 X387.833 Y206.166
G01 X385.526 Y205.965
G01 X401.158 Y192.543
G01 X403.009 Y190.781
G01 X404.758 Y189.262
G01 X429.802 Y188.590
G01 X455.173 Y190.059
G01 X480.214 Y191.625
G01 X455.173 Y190.059
G01 X475.433 Y175.258
G01 X455.173 Y190.059
G01 X429.802 Y188.590
G01 X448.974 Y171.908
G01 X474.055 Y171.223
G01 X448.974 Y171.908
G01 X467.825 Y155.351
G01 X448.974 Y171.908
G01 X429.802 Y188.590
G01 X404.758 Y189.262
G01 X423.574 Y172.720
G01 X448.974 Y171.908
G01 X474.055 Y171.223
G01 X448.974 Y171.908
G01 X467.825 Y155.351
G01 X448.974 Y171.908
G01 X423.574 Y172.720
G01 X441.173 Y154.387
G01 X466.091 Y151.456
G01 X441.173 Y154.387
G01 X458.464 Y136.207
G01 X441.173 Y154.387
G01 X423.574 Y172.720
G01 X404.758 Y189.262
G01 X388.789 Y203.249
G01 X387.274 Y204.447
G01 X385.526 Y205.965
G01 X374.224 Y216.278
G01 X371.160 Y218.773
G01 X365.773 Y223.576
G01 X350.912 Y221.693
G01 X347.284 Y221.443
G01 X340.350 Y220.643
G01 X350.224 Y211.903
G01 X354.055 Y208.051
G01 X359.194 Y203.328
G01 X372.909 Y204.460
G01 X378.344 Y205.246
G01 X385.526 Y205.965
G01 X406.062 Y207.636
G01 X408.596 Y207.973
G01 X410.903 Y208.174
G01 X435.848 Y210.497
G01 X460.862 Y214.984
G01 X485.537 Y219.528
G01 X460.862 Y214.984
G01 X482.744 Y202.708
G01 X460.862 Y214.984
G01 X435.848 Y210.497
G01 X456.875 Y196.223
G01 X481.857 Y198.538
G01 X456.875 Y196.223
G01 X477.568 Y182.036
G01 X456.875 Y196.223
G01 X435.848 Y210.497
G01 X410.903 Y208.174
G01 X431.559 Y193.997
G01 X456.875 Y196.223
G01 X481.857 Y198.538
G01 X456.875 Y196.223
G01 X477.568 Y182.036
G01 X456.875 Y196.223
G01 X431.559 Y193.997
G01 X451.221 Y177.896
G01 X476.311 Y177.961
G01 X451.221 Y177.896
G01 X470.559 Y161.910
G01 X451.221 Y177.896
G01 X431.559 Y193.997
G01 X410.903 Y208.174
G01 X389.762 Y206.244
G01 X387.833 Y206.166
G01 X385.526 Y205.965
G01 X401.158 Y192.543
G01 X403.009 Y190.781
G01 X404.758 Y189.262
G01 X429.802 Y188.590
G01 X455.173 Y190.059
G01 X480.214 Y191.625
G01 X455.173 Y190.059
G01 X475.433 Y175.258
G01 X455.173 Y190.059
G01 X429.802 Y188.590
G01 X448.974 Y171.908
G01 X474.055 Y171.223
G01 X448.974 Y171.908
G01 X467.825 Y155.351
G01 X448.974 Y171.908
G01 X429.802 Y188.590
G01 X404.758 Y189.262
G01 X423.574 Y172.720
G01 X448.974 Y171.908
G01 X474.055 Y171.223
G01 X448.974 Y171.908
G01 X467.825 Y155.351
G01 X448.974 Y171.908
G01 X423.574 Y172.720
G01 X441.173 Y154.387
G01 X466.091 Y151.456
G01 X441.173 Y154.387
G01 X458.464 Y136.207
G01 X441.173 Y154.387
G01 X423.574 Y172.720
G01 X404.758 Y189.262
G01 X388.789 Y203.249
G01 X387.274 Y204.447
G01 X385.526 Y205.965
G01 X370.321 Y204.264
G01 X366.375 Y204.047
G01 X359.194 Y203.328
G01 X367.854 Y192.633
G01 X371.042 Y188.161
G01 X375.485 Y182.474
G01 X395.989 Y180.450
G01 X398.543 Y180.330
G01 X400.848 Y180.116
G01 X425.808 Y177.947
G01 X451.221 Y177.896
G01 X476.311 Y177.961
G01 X451.221 Y177.896
G01 X470.559 Y161.910
G01 X451.221 Y177.896
G01 X425.808 Y177.947
G01 X443.948 Y160.149
G01 X468.942 Y157.965
G01 X443.948 Y160.149
G01 X461.775 Y142.494
G01 X443.948 Y160.149
G01 X425.808 Y177.947
G01 X400.848 Y180.116
G01 X418.641 Y162.478
G01 X443.948 Y160.149
G01 X468.942 Y157.965
G01 X443.948 Y160.149
G01 X461.775 Y142.494
G01 X443.948 Y160.149
G01 X418.641 Y162.478
G01 X435.113 Y143.125
G01 X459.811 Y138.710
G01 X435.113 Y143.125
G01 X451.286 Y123.943
G01 X435.113 Y143.125
G01 X418.641 Y162.478
G01 X400.848 Y180.116
G01 X379.703 Y181.992
G01 X377.791 Y182.259
G01 X375.485 Y182.474
G01 X388.469 Y166.476
G01 X389.976 Y164.411
G01 X391.426 Y162.605
G01 X415.948 Y157.472
G01 X441.173 Y154.387
G01 X466.091 Y151.456
G01 X441.173 Y154.387
G01 X458.464 Y136.207
G01 X441.173 Y154.387
G01 X415.948 Y157.472
G01 X431.833 Y137.635
G01 X456.388 Y132.483
G01 X431.833 Y137.635
G01 X447.425 Y117.978
G01 X431.833 Y137.635
G01 X415.948 Y157.472
G01 X391.426 Y162.605
G01 X406.985 Y142.969
G01 X431.833 Y137.635
G01 X456.388 Y132.483
G01 X431.833 Y137.635
G01 X447.425 Y117.978
G01 X431.833 Y137.635
G01 X406.985 Y142.969
G01 X421.029 Y121.788
G01 X445.023 Y114.456
G01 X421.029 Y121.788
G01 X434.796 Y100.813
G01 X421.029 Y121.788
G01 X406.985 Y142.969
G01 X391.426 Y162.605
G01 X378.211 Y179.219
G01 X376.934 Y180.667
G01 X375.485 Y182.474
G01 X366.207 Y194.639
G01 X363.637 Y197.641
G01 X359.194 Y203.328
G01 X348.278 Y213.587
G01 X345.490 Y215.921
G01 X340.350 Y220.643
G01 X327.835 Y228.871
G01 X325.730 Y230.095
G01 X319.464 Y234.145
G01 X312.167 Y238.988
G01 X307.457 Y241.631
G01 X302.625 Y244.956
G01 X297.616 Y247.786
G01 X297.452 Y247.869
G01 X252.497 Y249.888
G01 X252.391 Y250.010
G01 X252.278 Y250.122
G01 X252.161 Y250.222
G01 X252.039 Y250.311
G01 X251.914 Y250.389
G01 X251.787 Y250.456
G01 X251.658 Y250.511
G01 X251.528 Y250.554
G01 X251.398 Y250.586
G01 X251.269 Y250.607
G01 X251.142 Y250.617
G01 X251.017 Y250.615
G01 X250.895 Y250.603
G01 X250.777 Y250.581
G01 X250.663 Y250.549
G01 X250.555 Y250.507
G01 X250.452 Y250.456
G01 X250.356 Y250.396
G01 X250.267 Y250.328
G01 X250.186 Y250.253
G01 X250.113 Y250.171
G01 X250.049 Y250.082
G01 X250.000 Y250.000
G01 X250.016 Y250.033
G01 X250.028 Y250.067
G01 X250.037 Y250.103
G01 X250.043 Y250.140
G01 X250.045 Y250.177
G01 X250.043 Y250.215
G01 X250.038 Y250.252
G01 X250.029 Y250.290
G01 X250.017 Y250.328
G01 X250.001 Y250.365
G01 X249.981 Y250.401
G01 X249.958 Y250.436
G01 X249.931 Y250.469
G01 X249.901 Y250.501
G01 X249.868 Y250.531
G01 X249.832 Y250.559
G01 X249.792 Y250.584
G01 X249.750 Y250.607
G01 X249.705 Y250.627
G01 X249.657 Y250.644
G01 X249.608 Y250.658
G01 X249.556 Y250.668
G01 X249.502 Y250.675
G01 X249.446 Y250.678
G01 X249.389 Y250.677
G01 X249.331 Y250.672
G01 X249.272 Y250.663
G01 X249.212 Y250.649
G01 X249.152 Y250.632
G01 X249.092 Y250.610
G01 X249.032 Y250.583
G01 X248.972 Y250.552
G01 X248.913 Y250.517
G01 X248.855 Y250.477
G01 X248.799 Y250.432
G01 X248.744 Y250.384
G01 X248.692 Y250.330
G01 X248.641 Y250.273
G01 X248.594 Y250.211
G01 X248.549 Y250.146
G01 X248.507 Y250.076
G01 X248.468 Y250.003
G01 X248.434 Y249.926
G01 X248.403 Y249.846
G01 X248.376 Y249.762
G01 X248.354 Y249.676
G01 X248.337 Y249.587
G01 X248.324 Y249.495
G01 X248.316 Y249.401
G01 X248.314 Y249.306
G01 X248.317 Y249.208
G01 X248.326 Y249.109
G01 X248.340 Y249.010
G01 X248.360 Y248.909
G01 X248.387 Y248.808
G01 X248.419 Y248.708
G01 X248.457 Y248.607
G01 X248.501 Y248.507
G01 X248.552 Y248.409
G01 X248.609 Y248.311
G01 X248.671 Y248.216
G01 X248.740 Y248.123
G01 X248.815 Y248.032
G01 X248.896 Y247.944
G01 X248.982 Y247.859
G01 X249.075 Y247.778
G01 X249.172 Y247.701
G01 X249.275 Y247.628
G01 X249.335 Y247.590
G01 X237.363 Y204.212
G01 X238.490 Y198.574
G01 X240.142 Y192.950
G01 X240.204 Y192.769
G01 X242.049 Y184.300
G01 X243.613 Y179.037
G01 X246.616 Y166.854
G01 X248.084 Y162.211
G01 X250.000 Y155.000
G01 X255.261 Y142.908
G01 X257.742 Y138.075
G01 X260.645 Y131.728
G01 X268.141 Y120.187
G01 X271.408 Y115.773
G01 X275.444 Y109.790
G01 X286.647 Y92.498
G01 X288.145 Y90.426
G01 X289.415 Y88.490
G01 X303.281 Y67.624
G01 X319.086 Y47.723
G01 X334.781 Y28.148
G01 X319.086 Y47.723
G01 X318.645 Y22.637
G01 X319.086 Y47.723
G01 X303.281 Y67.624
G01 X300.676 Y42.344
G01 X314.553 Y21.441
G01 X300.676 Y42.344
G01 X297.988 Y17.399
G01 X300.676 Y42.344
G01 X303.281 Y67.624
G01 X289.415 Y88.490
G01 X286.719 Y63.582
G01 X300.676 Y42.344
G01 X314.553 Y21.441
G01 X300.676 Y42.344
G01 X297.988 Y17.399
G01 X300.676 Y42.344
G01 X286.719 Y63.582
G01 X281.858 Y38.637
G01 X293.805 Y16.575
G01 X281.858 Y38.637
G01 X276.945 Y14.033
G01 X281.858 Y38.637
G01 X286.719 Y63.582
G01 X289.415 Y88.490
G01 X277.698 Y106.192
G01 X276.714 Y107.854
G01 X275.444 Y109.790
G01 X271.032 Y89.664
G01 X270.358 Y87.198
G01 X269.849 Y84.939
G01 X281.125 Y62.567
G01 X294.441 Y40.921
G01 X307.686 Y19.612
G01 X294.441 Y40.921
G01 X291.008 Y16.067
G01 X294.441 Y40.921
G01 X281.125 Y62.567
G01 X275.521 Y37.779
G01 X286.802 Y15.369
G01 X275.521 Y37.779
G01 X269.873 Y13.333
G01 X275.521 Y37.779
G01 X281.125 Y62.567
G01 X269.849 Y84.939
G01 X264.199 Y60.531
G01 X275.521 Y37.779
G01 X286.802 Y15.369
G01 X275.521 Y37.779
G01 X269.873 Y13.333
G01 X275.521 Y37.779
G01 X264.199 Y60.531
G01 X256.394 Y36.346
G01 X265.622 Y13.014
G01 X256.394 Y36.346
G01 X248.579 Y12.504
G01 X256.394 Y36.346
G01 X264.199 Y60.531
G01 X269.849 Y84.939
G01 X274.599 Y105.630
G01 X274.936 Y107.531
G01 X275.444 Y109.790
G01 X266.742 Y122.374
G01 X264.681 Y125.745
G01 X260.645 Y131.728
G01 X255.330 Y119.034
G01 X252.903 Y114.108
G01 X250.000 Y107.500
G01 X257.935 Y88.485
G01 X259.039 Y86.180
G01 X259.942 Y84.048
G01 X269.860 Y61.041
G01 X281.858 Y38.637
G01 X293.805 Y16.575
G01 X281.858 Y38.637
G01 X276.945 Y14.033
G01 X281.858 Y38.637
G01 X269.860 Y61.041
G01 X262.783 Y36.633
G01 X272.704 Y13.588
G01 X262.783 Y36.633
G01 X255.684 Y12.568
G01 X262.783 Y36.633
G01 X269.860 Y61.041
G01 X259.942 Y84.048
G01 X252.842 Y60.021
G01 X262.783 Y36.633
G01 X272.704 Y13.588
G01 X262.783 Y36.633
G01 X255.684 Y12.568
G01 X262.783 Y36.633
G01 X252.842 Y60.021
G01 X243.606 Y36.346
G01 X251.421 Y12.504
G01 X243.606 Y36.346
G01 X234.378 Y13.014
G01 X243.606 Y36.346
G01 X252.842 Y60.021
G01 X259.942 Y84.048
G01 X251.575 Y103.557
G01 X250.904 Y105.368
G01 X250.000 Y107.500
G01 X242.065 Y88.485
G01 X240.961 Y86.180
G01 X240.058 Y84.048
G01 X247.158 Y60.021
G01 X256.394 Y36.346
G01 X265.622 Y13.014
G01 X256.394 Y36.346
G01 X248.579 Y12.504
G01 X256.394 Y36.346
G01 X247.158 Y60.021
G01 X237.217 Y36.633
G01 X244.316 Y12.568
G01 X237.217 Y36.633
G01 X227.296 Y13.588
G01 X237.217 Y36.633
G01 X247.158 Y60.021
G01 X240.058 Y84.048
G01 X230.140 Y61.041
G01 X237.217 Y36.633
G01 X244.316 Y12.568
G01 X237.217 Y36.633
G01 X227.296 Y13.588
G01 X237.217 Y36.633
G01 X230.140 Y61.041
G01 X218.142 Y38.637
G01 X223.055 Y14.033
G01 X218.142 Y38.637
G01 X206.195 Y16.575
G01 X218.142 Y38.637
G01 X230.140 Y61.041
G01 X240.058 Y84.048
G01 X248.425 Y103.557
G01 X249.096 Y105.368
G01 X250.000 Y107.500
G01 X256.316 Y121.435
G01 X257.742 Y125.120
G01 X260.645 Y131.728
G01 X254.262 Y145.280
G01 X252.903 Y148.653
G01 X250.000 Y155.000
G01 X244.739 Y142.908
G01 X242.258 Y138.075
G01 X239.355 Y131.728
G01 X244.670 Y119.034
G01 X247.097 Y114.108
G01 X250.000 Y107.500
G01 X257.935 Y88.485
G01 X259.039 Y86.180
G01 X259.942 Y84.048
G01 X269.860 Y61.041
G01 X281.858 Y38.637
G01 X293.805 Y16.575
G01 X281.858 Y38.637
G01 X276.945 Y14.033
G01 X281.858 Y38.637
G01 X269.860 Y61.041
G01 X262.783 Y36.633
G01 X272.704 Y13.588
G01 X262.783 Y36.633
G01 X255.684 Y12.568
G01 X262.783 Y36.633
G01 X269.860 Y61.041
G01 X259.942 Y84.048
G01 X252.842 Y60.021
G01 X262.783 Y36.633
G01 X272.704 Y13.588
G01 X262.783 Y36.633
G01 X255.684 Y12.568
G01 X262.783 Y36.633
G01 X252.842 Y60.021
G01 X243.606 Y36.346
G01 X251.421 Y12.504
G01 X243.606 Y36.346
G01 X234.378 Y13.014
G01 X243.606 Y36.346
G01 X252.842 Y60.021
G01 X259.942 Y84.048
G01 X251.575 Y103.557
G01 X250.904 Y105.368
G01 X250.000 Y107.500
G01 X242.065 Y88.485
G01 X240.961 Y86.180
G01 X240.058 Y84.048
G01 X247.158 Y60.021
G01 X256.394 Y36.346
G01 X265.622 Y13.014
G01 X256.394 Y36.346
G01 X248.579 Y12.504
G01 X256.394 Y36.346
G01 X247.158 Y60.021
G01 X237.217 Y36.633
G01 X244.316 Y12.568
G01 X237.217 Y36.633
G01 X227.296 Y13.588
G01 X237.217 Y36.633
G01 X247.158 Y60.021
G01 X240.058 Y84.048
G01 X230.140 Y61.041
G01 X237.217 Y36.633
G01 X244.316 Y12.568
G01 X237.217 Y36.633
G01 X227.296 Y13.588
G01 X237.217 Y36.633
G01 X230.140 Y61.041
G01 X218.142 Y38.637
G01 X223.055 Y14.033
G01 X218.142 Y38.637
G01 X206.195 Y16.575
G01 X218.142 Y38.637
G01 X230.140 Y61.041
G01 X240.058 Y84.048
G01 X248.425 Y103.557
G01 X249.096 Y105.368
G01 X250.000 Y107.500
G01 X243.684 Y121.435
G01 X242.258 Y125.120
G01 X239.355 Y131.728
G01 X231.859 Y120.187
G01 X228.592 Y115.773
G01 X224.556 Y109.790
G01 X228.968 Y89.664
G01 X229.642 Y87.198
G01 X230.151 Y84.939
G01 X235.801 Y60.531
G01 X243.606 Y36.346
G01 X251.421 Y12.504
G01 X243.606 Y36.346
G01 X234.378 Y13.014
G01 X243.606 Y36.346
G01 X235.801 Y60.531
G01 X224.479 Y37.779
G01 X230.127 Y13.333
G01 X224.479 Y37.779
G01 X213.198 Y15.369
G01 X224.479 Y37.779
G01 X235.801 Y60.531
G01 X230.151 Y84.939
G01 X218.875 Y62.567
G01 X224.479 Y37.779
G01 X230.127 Y13.333
G01 X224.479 Y37.779
G01 X213.198 Y15.369
G01 X224.479 Y37.779
G01 X218.875 Y62.567
G01 X205.559 Y40.921
G01 X208.992 Y16.067
G01 X205.559 Y40.921
G01 X192.314 Y19.612
G01 X205.559 Y40.921
G01 X218.875 Y62.567
G01 X230.151 Y84.939
G01 X225.401 Y105.630
G01 X225.064 Y107.531
G01 X224.556 Y109.790
G01 X213.353 Y92.498
G01 X211.855 Y90.426
G01 X210.585 Y88.490
G01 X213.281 Y63.582
G01 X218.142 Y38.637
G01 X223.055 Y14.033
G01 X218.142 Y38.637
G01 X206.195 Y16.575
G01 X218.142 Y38.637
G01 X213.281 Y63.582
G01 X199.324 Y42.344
G01 X202.012 Y17.399
G01 X199.324 Y42.344
G01 X185.447 Y21.441
G01 X199.324 Y42.344
G01 X213.281 Y63.582
G01 X210.585 Y88.490
G01 X196.719 Y67.624
G01 X199.324 Y42.344
G01 X202.012 Y17.399
G01 X199.324 Y42.344
G01 X185.447 Y21.441
G01 X199.324 Y42.344
G01 X196.719 Y67.624
G01 X180.914 Y47.723
G01 X181.355 Y22.637
G01 X180.914 Y47.723
G01 X165.219 Y28.148
G01 X180.914 Y47.723
G01 X196.719 Y67.624
G01 X210.585 Y88.490
G01 X222.302 Y106.192
G01 X223.286 Y107.854
G01 X224.556 Y109.790
G01 X233.258 Y122.374
G01 X235.319 Y125.745
G01 X239.355 Y131.728
G01 X245.738 Y145.280
G01 X247.097 Y148.653
G01 X250.000 Y155.000
G01 X246.043 Y169.445
G01 X245.529 Y171.826
G01 X243.613 Y179.037
G01 X238.483 Y167.586
G01 X236.210 Y163.280
G01 X233.037 Y156.527
G01 X236.055 Y143.690
G01 X237.632 Y138.491
G01 X239.355 Y131.728
G01 X244.670 Y119.034
G01 X247.097 Y114.108
G01 X250.000 Y107.500
G01 X257.935 Y88.485
G01 X259.039 Y86.180
G01 X259.942 Y84.048
G01 X269.860 Y61.041
G01 X281.858 Y38.637
G01 X293.805 Y16.575
G01 X281.858 Y38.637
G01 X276.945 Y14.033
G01 X281.858 Y38.637
G01 X269.860 Y61.041
G01 X262.783 Y36.633
G01 X272.704 Y13.588
G01 X262.783 Y36.633
G01 X255.684 Y12.568
G01 X262.783 Y36.633
G01 X269.860 Y61.041
G01 X259.942 Y84.048
G01 X252.842 Y60.021
G01 X262.783 Y36.633
G01 X272.704 Y13.588
G01 X262.783 Y36.633
G01 X255.684 Y12.568
G01 X262.783 Y36.633
G01 X252.842 Y60.021
G01 X243.606 Y36.346
G01 X251.421 Y12.504
G01 X243.606 Y36.346
G01 X234.378 Y13.014
G01 X243.606 Y36.346
G01 X252.842 Y60.021
G01 X259.942 Y84.048
G01 X251.575 Y103.557
G01 X250.904 Y105.368
G01 X250.000 Y107.500
G01 X242.065 Y88.485
G01 X240.961 Y86.180
G01 X240.058 Y84.048
G01 X247.158 Y60.021
G01 X256.394 Y36.346
G01 X265.622 Y13.014
G01 X256.394 Y36.346
G01 X248.579 Y12.504
G01 X256.394 Y36.346
G01 X247.158 Y60.021
G01 X237.217 Y36.633
G01 X244.316 Y12.568
G01 X237.217 Y36.633
G01 X227.296 Y13.588
G01 X237.217 Y36.633
G01 X247.158 Y60.021
G01 X240.058 Y84.048
G01 X230.140 Y61.041
G01 X237.217 Y36.633
G01 X244.316 Y12.568
G01 X237.217 Y36.633
G01 X227.296 Y13.588
G01 X237.217 Y36.633
G01 X230.140 Y61.041
G01 X218.142 Y38.637
G01 X223.055 Y14.033
G01 X218.142 Y38.637
G01 X206.195 Y16.575
G01 X218.142 Y38.637
G01 X230.140 Y61.041
G01 X240.058 Y84.048
G01 X248.425 Y103.557
G01 X249.096 Y105.368
G01 X250.000 Y107.500
G01 X243.684 Y121.435
G01 X242.258 Y125.120
G01 X239.355 Y131.728
G01 X231.859 Y120.187
G01 X228.592 Y115.773
G01 X224.556 Y109.790
G01 X228.968 Y89.664
G01 X229.642 Y87.198
G01 X230.151 Y84.939
G01 X235.801 Y60.531
G01 X243.606 Y36.346
G01 X251.421 Y12.504
G01 X243.606 Y36.346
G01 X234.378 Y13.014
G01 X243.606 Y36.346
G01 X235.801 Y60.531
G01 X224.479 Y37.779
G01 X230.127 Y13.333
G01 X224.479 Y37.779
G01 X213.198 Y15.369
G01 X224.479 Y37.779
G01 X235.801 Y60.531
G01 X230.151 Y84.939
G01 X218.875 Y62.567
G01 X224.479 Y37.779
G01 X230.127 Y13.333
G01 X224.479 Y37.779
G01 X213.198 Y15.369
G01 X224.479 Y37.779
G01 X218.875 Y62.567
G01 X205.559 Y40.921
G01 X208.992 Y16.067
G01 X205.559 Y40.921
G01 X192.314 Y19.612
G01 X205.559 Y40.921
G01 X218.875 Y62.567
G01 X230.151 Y84.939
G01 X225.401 Y105.630
G01 X225.064 Y107.531
G01 X224.556 Y109.790
G01 X213.353 Y92.498
G01 X211.855 Y90.426
G01 X210.585 Y88.490
G01 X213.281 Y63.582
G01 X218.142 Y38.637
G01 X223.055 Y14.033
G01 X218.142 Y38.637
G01 X206.195 Y16.575
G01 X218.142 Y38.637
G01 X213.281 Y63.582
G01 X199.324 Y42.344
G01 X202.012 Y17.399
G01 X199.324 Y42.344
G01 X185.447 Y21.441
G01 X199.324 Y42.344
G01 X213.281 Y63.582
G01 X210.585 Y88.490
G01 X196.719 Y67.624
G01 X199.324 Y42.344
G01 X202.012 Y17.399
G01 X199.324 Y42.344
G01 X185.447 Y21.441
G01 X199.324 Y42.344
G01 X196.719 Y67.624
G01 X180.914 Y47.723
G01 X181.355 Y22.637
G01 X180.914 Y47.723
G01 X165.219 Y28.148
G01 X180.914 Y47.723
G01 X196.719 Y67.624
G01 X210.585 Y88.490
G01 X222.302 Y106.192
G01 X223.286 Y107.854
G01 X224.556 Y109.790
G01 X233.258 Y122.374
G01 X235.319 Y125.745
G01 X239.355 Y131.728
G01 X235.495 Y146.202
G01 X234.760 Y149.763
G01 X233.037 Y156.527
G01 X225.702 Y145.569
G01 X222.398 Y141.256
G01 X218.408 Y135.529
G01 X221.371 Y122.090
G01 X222.879 Y116.810
G01 X224.556 Y109.790
G01 X228.968 Y89.664
G01 X229.642 Y87.198
G01 X230.151 Y84.939
G01 X235.801 Y60.531
G01 X243.606 Y36.346
G01 X251.421 Y12.504
G01 X243.606 Y36.346
G01 X234.378 Y13.014
G01 X243.606 Y36.346
G01 X235.801 Y60.531
G01 X224.479 Y37.779
G01 X230.127 Y13.333
G01 X224.479 Y37.779
G01 X213.198 Y15.369
G01 X224.479 Y37.779
G01 X235.801 Y60.531
G01 X230.151 Y84.939
G01 X218.875 Y62.567
G01 X224.479 Y37.779
G01 X230.127 Y13.333
G01 X224.479 Y37.779
G01 X213.198 Y15.369
G01 X224.479 Y37.779
G01 X218.875 Y62.567
G01 X205.559 Y40.921
G01 X208.992 Y16.067
G01 X205.559 Y40.921
G01 X192.314 Y19.612
G01 X205.559 Y40.921
G01 X218.875 Y62.567
G01 X230.151 Y84.939
G01 X225.401 Y105.630
G01 X225.064 Y107.531
G01 X224.556 Y109.790
G01 X213.353 Y92.498
G01 X211.855 Y90.426
G01 X210.585 Y88.490
G01 X213.281 Y63.582
G01 X218.142 Y38.637
G01 X223.055 Y14.033
G01 X218.142 Y38.637
G01 X206.195 Y16.575
G01 X218.142 Y38.637
G01 X213.281 Y63.582
G01 X199.324 Y42.344
G01 X202.012 Y17.399
G01 X199.324 Y42.344
G01 X185.447 Y21.441
G01 X199.324 Y42.344
G01 X213.281 Y63.582
G01 X210.585 Y88.490
G01 X196.719 Y67.624
G01 X199.324 Y42.344
G01 X202.012 Y17.399
G01 X199.324 Y42.344
G01 X185.447 Y21.441
G01 X199.324 Y42.344
G01 X196.719 Y67.624
G01 X180.914 Y47.723
G01 X181.355 Y22.637
G01 X180.914 Y47.723
G01 X165.219 Y28.148
G01 X180.914 Y47.723
G01 X196.719 Y67.624
G01 X210.585 Y88.490
G01 X222.302 Y106.192
G01 X223.286 Y107.854
G01 X224.556 Y109.790
G01 X220.829 Y124.629
G01 X220.085 Y128.510
G01 X218.408 Y135.529
G01 X208.972 Y125.512
G01 X204.969 Y121.753
G01 X199.929 Y116.587
G01 X200.677 Y95.996
G01 X200.900 Y93.450
G01 X200.997 Y91.136
G01 X202.199 Y66.111
G01 X205.559 Y40.921
G01 X208.992 Y16.067
G01 X205.559 Y40.921
G01 X192.314 Y19.612
G01 X205.559 Y40.921
G01 X202.199 Y66.111
G01 X186.996 Y45.746
G01 X188.187 Y20.685
G01 X186.996 Y45.746
G01 X171.894 Y25.711
G01 X186.996 Y45.746
G01 X202.199 Y66.111
G01 X200.997 Y91.136
G01 X185.907 Y71.137
G01 X186.996 Y45.746
G01 X188.187 Y20.685
G01 X186.996 Y45.746
G01 X171.894 Y25.711
G01 X186.996 Y45.746
G01 X185.907 Y71.137
G01 X168.941 Y52.216
G01 X167.881 Y27.149
G01 X168.941 Y52.216
G01 X152.103 Y33.615
G01 X168.941 Y52.216
G01 X185.907 Y71.137
G01 X200.997 Y91.136
G01 X200.018 Y112.342
G01 X200.026 Y114.273
G01 X199.929 Y116.587
G01 X185.819 Y101.572
G01 X183.975 Y99.802
G01 X182.380 Y98.123
G01 X180.585 Y73.134
G01 X180.914 Y47.723
G01 X181.355 Y22.637
G01 X180.914 Y47.723
G01 X165.219 Y28.148
G01 X180.914 Y47.723
G01 X180.585 Y73.134
G01 X163.060 Y54.730
G01 X161.251 Y29.705
G01 X163.060 Y54.730
G01 X145.674 Y36.640
G01 X163.060 Y54.730
G01 X180.585 Y73.134
G01 X182.380 Y98.123
G01 X165.011 Y80.068
G01 X163.060 Y54.730
G01 X161.251 Y29.705
G01 X163.060 Y54.730
G01 X145.674 Y36.640
G01 X163.060 Y54.730
G01 X165.011 Y80.068
G01 X145.906 Y63.309
G01 X141.861 Y38.547
G01 X145.906 Y63.309
G01 X126.969 Y46.851
G01 X145.906 Y63.309
G01 X165.011 Y80.068
G01 X182.380 Y98.123
G01 X197.069 Y113.449
G01 X198.334 Y114.908
G01 X199.929 Y116.587
G01 X210.739 Y127.414
G01 X213.368 Y130.363
G01 X218.408 Y135.529
G01 X227.108 Y147.724
G01 X229.047 Y150.800
G01 X233.037 Y156.527
G01 X239.510 Y170.033
G01 X240.440 Y172.284
G01 X243.613 Y179.037
G01 X241.262 Y187.473
G01 X240.204 Y192.769
G01 X238.535 Y198.392
G01 X237.391 Y204.030
G01 X237.363 Y204.212
G01 X233.505 Y199.950
G01 X229.201 Y195.969
G01 X229.055 Y195.845
G01 X223.128 Y189.522
G01 X219.086 Y185.806
G01 X217.617 Y173.344
G01 X217.359 Y168.482
G01 X216.619 Y161.058
G01 X217.296 Y147.889
G01 X217.920 Y142.492
G01 X218.408 Y135.529
G01 X221.371 Y122.090
G01 X222.879 Y116.810
G01 X224.556 Y109.790
G01 X228.968 Y89.664
G01 X229.642 Y87.198
G01 X230.151 Y84.939
G01 X235.801 Y60.531
G01 X243.606 Y36.346
G01 X251.421 Y12.504
G01 X243.606 Y36.346
G01 X234.378 Y13.014
G01 X243.606 Y36.346
G01 X235.801 Y60.531
G01 X224.479 Y37.779
G01 X230.127 Y13.333
G01 X224.479 Y37.779
G01 X213.198 Y15.369
G01 X224.479 Y37.779
G01 X235.801 Y60.531
G01 X230.151 Y84.939
G01 X218.875 Y62.567
G01 X224.479 Y37.779
G01 X230.127 Y13.333
G01 X224.479 Y37.779
G01 X213.198 Y15.369
G01 X224.479 Y37.779
G01 X218.875 Y62.567
G01 X205.559 Y40.921
G01 X208.992 Y16.067
G01 X205.559 Y40.921
G01 X192.314 Y19.612
G01 X205.559 Y40.921
G01 X218.875 Y62.567
G01 X230.151 Y84.939
G01 X225.401 Y105.630
G01 X225.064 Y107.531
G01 X224.556 Y109.790
G01 X213.353 Y92.498
G01 X211.855 Y90.426
G01 X210.585 Y88.490
G01 X213.281 Y63.582
G01 X218.142 Y38.637
G01 X223.055 Y14.033
G01 X218.142 Y38.637
G01 X206.195 Y16.575
G01 X218.142 Y38.637
G01 X213.281 Y63.582
G01 X199.324 Y42.344
G01 X202.012 Y17.399
G01 X199.324 Y42.344
G01 X185.447 Y21.441
G01 X199.324 Y42.344
G01 X213.281 Y63.582
G01 X210.585 Y88.490
G01 X196.719 Y67.624
G01 X199.324 Y42.344
G01 X202.012 Y17.399
G01 X199.324 Y42.344
G01 X185.447 Y21.441
G01 X199.324 Y42.344
G01 X196.719 Y67.624
G01 X180.914 Y47.723
G01 X181.355 Y22.637
G01 X180.914 Y47.723
G01 X165.219 Y28.148
G01 X180.914 Y47.723
G01 X196.719 Y67.624
G01 X210.585 Y88.490
G01 X222.302 Y106.192
G01 X223.286 Y107.854
G01 X224.556 Y109.790
G01 X220.829 Y124.629
G01 X220.085 Y128.510
G01 X218.408 Y135.529
G01 X208.972 Y125.512
G01 X204.969 Y121.753
G01 X199.929 Y116.587
G01 X200.677 Y95.996
G01 X200.900 Y93.450
G01 X200.997 Y91.136
G01 X202.199 Y66.111
G01 X205.559 Y40.921
G01 X208.992 Y16.067
G01 X205.559 Y40.921
G01 X192.314 Y19.612
G01 X205.559 Y40.921
G01 X202.199 Y66.111
G01 X186.996 Y45.746
G01 X188.187 Y20.685
G01 X186.996 Y45.746
G01 X171.894 Y25.711
G01 X186.996 Y45.746
G01 X202.199 Y66.111
G01 X200.997 Y91.136
G01 X185.907 Y71.137
G01 X186.996 Y45.746
G01 X188.187 Y20.685
G01 X186.996 Y45.746
G01 X171.894 Y25.711
G01 X186.996 Y45.746
G01 X185.907 Y71.137
G01 X168.941 Y52.216
G01 X167.881 Y27.149
G01 X168.941 Y52.216
G01 X152.103 Y33.615
G01 X168.941 Y52.216
G01 X185.907 Y71.137
G01 X200.997 Y91.136
G01 X200.018 Y112.342
G01 X200.026 Y114.273
G01 X199.929 Y116.587
G01 X185.819 Y101.572
G01 X183.975 Y99.802
G01 X182.380 Y98.123
G01 X180.585 Y73.134
G01 X180.914 Y47.723
G01 X181.355 Y22.637
G01 X180.914 Y47.723
G01 X165.219 Y28.148
G01 X180.914 Y47.723
G01 X180.585 Y73.134
G01 X163.060 Y54.730
G01 X161.251 Y29.705
G01 X163.060 Y54.730
G01 X145.674 Y36.640
G01 X163.060 Y54.730
G01 X180.585 Y73.134
G01 X182.380 Y98.123
G01 X165.011 Y80.068
G01 X163.060 Y54.730
G01 X161.251 Y29.705
G01 X163.060 Y54.730
G01 X145.674 Y36.640
G01 X163.060 Y54.730
G01 X165.011 Y80.068
G01 X145.906 Y63.309
G01 X141.861 Y38.547
G01 X145.906 Y63.309
G01 X126.969 Y46.851
G01 X145.906 Y63.309
G01 X165.011 Y80.068
G01 X182.380 Y98.123
G01 X197.069 Y113.449
G01 X198.334 Y114.908
G01 X199.929 Y116.587
G01 X210.739 Y127.414
G01 X213.368 Y130.363
G01 X218.408 Y135.529
G01 X217.194 Y150.460
G01 X217.107 Y154.095
G01 X216.619 Y161.058
G01 X207.445 Y151.586
G01 X203.424 Y147.932
G01 X198.476 Y143.010
G01 X198.992 Y129.258
G01 X199.533 Y123.793
G01 X199.929 Y116.587
G01 X200.677 Y95.996
G01 X200.900 Y93.450
G01 X200.997 Y91.136
G01 X202.199 Y66.111
G01 X205.559 Y40.921
G01 X208.992 Y16.067
G01 X205.559 Y40.921
G01 X192.314 Y19.612
G01 X205.559 Y40.921
G01 X202.199 Y66.111
G01 X186.996 Y45.746
G01 X188.187 Y20.685
G01 X186.996 Y45.746
G01 X171.894 Y25.711
G01 X186.996 Y45.746
G01 X202.199 Y66.111
G01 X200.997 Y91.136
G01 X185.907 Y71.137
G01 X186.996 Y45.746
G01 X188.187 Y20.685
G01 X186.996 Y45.746
G01 X171.894 Y25.711
G01 X186.996 Y45.746
G01 X185.907 Y71.137
G01 X168.941 Y52.216
G01 X167.881 Y27.149
G01 X168.941 Y52.216
G01 X152.103 Y33.615
G01 X168.941 Y52.216
G01 X185.907 Y71.137
G01 X200.997 Y91.136
G01 X200.018 Y112.342
G01 X200.026 Y114.273
G01 X199.929 Y116.587
G01 X185.819 Y101.572
G01 X183.975 Y99.802
G01 X182.380 Y98.123
G01 X180.585 Y73.134
G01 X180.914 Y47.723
G01 X181.355 Y22.637
G01 X180.914 Y47.723
G01 X165.219 Y28.148
G01 X180.914 Y47.723
G01 X180.585 Y73.134
G01 X163.060 Y54.730
G01 X161.251 Y29.705
G01 X163.060 Y54.730
G01 X145.674 Y36.640
G01 X163.060 Y54.730
G01 X180.585 Y73.134
G01 X182.380 Y98.123
G01 X165.011 Y80.068
G01 X163.060 Y54.730
G01 X161.251 Y29.705
G01 X163.060 Y54.730
G01 X145.674 Y36.640
G01 X163.060 Y54.730
G01 X165.011 Y80.068
G01 X145.906 Y63.309
G01 X141.861 Y38.547
G01 X145.906 Y63.309
G01 X126.969 Y46.851
G01 X145.906 Y63.309
G01 X165.011 Y80.068
G01 X182.380 Y98.123
G01 X197.069 Y113.449
G01 X198.334 Y114.908
G01 X199.929 Y116.587
G01 X198.912 Y131.852
G01 X198.873 Y135.804
G01 X198.476 Y143.010
G01 X187.403 Y134.839
G01 X182.793 Y131.854
G01 X176.912 Y127.671
G01 X173.971 Y107.278
G01 X173.736 Y104.733
G01 X173.418 Y102.439
G01 X170.132 Y77.602
G01 X168.941 Y52.216
G01 X167.881 Y27.149
G01 X168.941 Y52.216
G01 X152.103 Y33.615
G01 X168.941 Y52.216
G01 X170.132 Y77.602
G01 X151.538 Y60.279
G01 X148.235 Y35.407
G01 X151.538 Y60.279
G01 X133.101 Y43.261
G01 X151.538 Y60.279
G01 X170.132 Y77.602
G01 X173.418 Y102.439
G01 X155.000 Y85.455
G01 X151.538 Y60.279
G01 X148.235 Y35.407
G01 X151.538 Y60.279
G01 X133.101 Y43.261
G01 X151.538 Y60.279
G01 X155.000 Y85.455
G01 X134.928 Y69.868
G01 X129.409 Y45.393
G01 X134.928 Y69.868
G01 X115.040 Y54.572
G01 X134.928 Y69.868
G01 X155.000 Y85.455
G01 X173.418 Y102.439
G01 X176.241 Y123.479
G01 X176.594 Y125.377
G01 X176.912 Y127.671
G01 X160.348 Y115.417
G01 X158.217 Y114.004
G01 X156.348 Y112.638
G01 X150.120 Y88.371
G01 X145.906 Y63.309
G01 X141.861 Y38.547
G01 X145.906 Y63.309
G01 X126.969 Y46.851
G01 X145.906 Y63.309
G01 X150.120 Y88.371
G01 X129.590 Y73.391
G01 X123.342 Y49.092
G01 X129.590 Y73.391
G01 X109.254 Y58.697
G01 X129.590 Y73.391
G01 X150.120 Y88.371
G01 X156.348 Y112.638
G01 X136.034 Y97.975
G01 X129.590 Y73.391
G01 X123.342 Y49.092
G01 X129.590 Y73.391
G01 X109.254 Y58.697
G01 X129.590 Y73.391
G01 X136.034 Y97.975
G01 X114.244 Y84.896
G01 X105.842 Y61.255
G01 X114.244 Y84.896
G01 X92.672 Y72.084
G01 X114.244 Y84.896
G01 X136.034 Y97.975
G01 X156.348 Y112.638
G01 X173.538 Y125.094
G01 X175.042 Y126.304
G01 X176.912 Y127.671
G01 X189.481 Y136.394
G01 X192.595 Y138.827
G01 X198.476 Y143.010
G01 X209.214 Y153.455
G01 X211.671 Y156.136
G01 X216.619 Y161.058
G01 X217.990 Y175.972
G01 X218.346 Y178.381
G01 X219.086 Y185.806
G01 X210.259 Y176.888
G01 X206.618 Y173.655
G01 X201.275 Y168.447
G01 X199.589 Y155.369
G01 X199.239 Y149.947
G01 X198.476 Y143.010
G01 X198.992 Y129.258
G01 X199.533 Y123.793
G01 X199.929 Y116.587
G01 X200.677 Y95.996
G01 X200.900 Y93.450
G01 X200.997 Y91.136
G01 X202.199 Y66.111
G01 X205.559 Y40.921
G01 X208.992 Y16.067
G01 X205.559 Y40.921
G01 X192.314 Y19.612
G01 X205.559 Y40.921
G01 X202.199 Y66.111
G01 X186.996 Y45.746
G01 X188.187 Y20.685
G01 X186.996 Y45.746
G01 X171.894 Y25.711
G01 X186.996 Y45.746
G01 X202.199 Y66.111
G01 X200.997 Y91.136
G01 X185.907 Y71.137
G01 X186.996 Y45.746
G01 X188.187 Y20.685
G01 X186.996 Y45.746
G01 X171.894 Y25.711
G01 X186.996 Y45.746
G01 X185.907 Y71.137
G01 X168.941 Y52.216
G01 X167.881 Y27.149
G01 X168.941 Y52.216
G01 X152.103 Y33.615
G01 X168.941 Y52.216
G01 X185.907 Y71.137
G01 X200.997 Y91.136
G01 X200.018 Y112.342
G01 X200.026 Y114.273
G01 X199.929 Y116.587
G01 X185.819 Y101.572
G01 X183.975 Y99.802
G01 X182.380 Y98.123
G01 X180.585 Y73.134
G01 X180.914 Y47.723
G01 X181.355 Y22.637
G01 X180.914 Y47.723
G01 X165.219 Y28.148
G01 X180.914 Y47.723
G01 X180.585 Y73.134
G01 X163.060 Y54.730
G01 X161.251 Y29.705
G01 X163.060 Y54.730
G01 X145.674 Y36.640
G01 X163.060 Y54.730
G01 X180.585 Y73.134
G01 X182.380 Y98.123
G01 X165.011 Y80.068
G01 X163.060 Y54.730
G01 X161.251 Y29.705
G01 X163.060 Y54.730
G01 X145.674 Y36.640
G01 X163.060 Y54.730
G01 X165.011 Y80.068
G01 X145.906 Y63.309
G01 X141.861 Y38.547
G01 X145.906 Y63.309
G01 X126.969 Y46.851
G01 X145.906 Y63.309
G01 X165.011 Y80.068
G01 X182.380 Y98.123
G01 X197.069 Y113.449
G01 X198.334 Y114.908
G01 X199.929 Y116.587
G01 X198.912 Y131.852
G01 X198.873 Y135.804
G01 X198.476 Y143.010
G01 X187.403 Y134.839
G01 X182.793 Y131.854
G01 X176.912 Y127.671
G01 X173.971 Y107.278
G01 X173.736 Y104.733
G01 X173.418 Y102.439
G01 X170.132 Y77.602
G01 X168.941 Y52.216
G01 X167.881 Y27.149
G01 X168.941 Y52.216
G01 X152.103 Y33.615
G01 X168.941 Y52.216
G01 X170.132 Y77.602
G01 X151.538 Y60.279
G01 X148.235 Y35.407
G01 X151.538 Y60.279
G01 X133.101 Y43.261
G01 X151.538 Y60.279
G01 X170.132 Y77.602
G01 X173.418 Y102.439
G01 X155.000 Y85.455
G01 X151.538 Y60.279
G01 X148.235 Y35.407
G01 X151.538 Y60.279
G01 X133.101 Y43.261
G01 X151.538 Y60.279
G01 X155.000 Y85.455
G01 X134.928 Y69.868
G01 X129.409 Y45.393
G01 X134.928 Y69.868
G01 X115.040 Y54.572
G01 X134.928 Y69.868
G01 X155.000 Y85.455
G01 X173.418 Y102.439
G01 X176.241 Y123.479
G01 X176.594 Y125.377
G01 X176.912 Y127.671
G01 X160.348 Y115.417
G01 X158.217 Y114.004
G01 X156.348 Y112.638
G01 X150.120 Y88.371
G01 X145.906 Y63.309
G01 X141.861 Y38.547
G01 X145.906 Y63.309
G01 X126.969 Y46.851
G01 X145.906 Y63.309
G01 X150.120 Y88.371
G01 X129.590 Y73.391
G01 X123.342 Y49.092
G01 X129.590 Y73.391
G01 X109.254 Y58.697
G01 X129.590 Y73.391
G01 X150.120 Y88.371
G01 X156.348 Y112.638
G01 X136.034 Y97.975
G01 X129.590 Y73.391
G01 X123.342 Y49.092
G01 X129.590 Y73.391
G01 X109.254 Y58.697
G01 X129.590 Y73.391
G01 X136.034 Y97.975
G01 X114.244 Y84.896
G01 X105.842 Y61.255
G01 X114.244 Y84.896
G01 X92.672 Y72.084
G01 X114.244 Y84.896
G01 X136.034 Y97.975
G01 X156.348 Y112.638
G01 X173.538 Y125.094
G01 X175.042 Y126.304
G01 X176.912 Y127.671
G01 X189.481 Y136.394
G01 X192.595 Y138.827
G01 X198.476 Y143.010
G01 X199.947 Y157.917
G01 X200.511 Y161.510
G01 X201.275 Y168.447
G01 X190.556 Y160.766
G01 X185.948 Y157.889
G01 X180.201 Y153.929
G01 X178.252 Y140.306
G01 X177.809 Y134.832
G01 X176.912 Y127.671
G01 X173.971 Y107.278
G01 X173.736 Y104.733
G01 X173.418 Y102.439
G01 X170.132 Y77.602
G01 X168.941 Y52.216
G01 X167.881 Y27.149
G01 X168.941 Y52.216
G01 X152.103 Y33.615
G01 X168.941 Y52.216
G01 X170.132 Y77.602
G01 X151.538 Y60.279
G01 X148.235 Y35.407
G01 X151.538 Y60.279
G01 X133.101 Y43.261
G01 X151.538 Y60.279
G01 X170.132 Y77.602
G01 X173.418 Y102.439
G01 X155.000 Y85.455
G01 X151.538 Y60.279
G01 X148.235 Y35.407
G01 X151.538 Y60.279
G01 X133.101 Y43.261
G01 X151.538 Y60.279
G01 X155.000 Y85.455
G01 X134.928 Y69.868
G01 X129.409 Y45.393
G01 X134.928 Y69.868
G01 X115.040 Y54.572
G01 X134.928 Y69.868
G01 X155.000 Y85.455
G01 X173.418 Y102.439
G01 X176.241 Y123.479
G01 X176.594 Y125.377
G01 X176.912 Y127.671
G01 X160.348 Y115.417
G01 X158.217 Y114.004
G01 X156.348 Y112.638
G01 X150.120 Y88.371
G01 X145.906 Y63.309
G01 X141.861 Y38.547
G01 X145.906 Y63.309
G01 X126.969 Y46.851
G01 X145.906 Y63.309
G01 X150.120 Y88.371
G01 X129.590 Y73.391
G01 X123.342 Y49.092
G01 X129.590 Y73.391
G01 X109.254 Y58.697
G01 X129.590 Y73.391
G01 X150.120 Y88.371
G01 X156.348 Y112.638
G01 X136.034 Y97.975
G01 X129.590 Y73.391
G01 X123.342 Y49.092
G01 X129.590 Y73.391
G01 X109.254 Y58.697
G01 X129.590 Y73.391
G01 X136.034 Y97.975
G01 X114.244 Y84.896
G01 X105.842 Y61.255
G01 X114.244 Y84.896
G01 X92.672 Y72.084
G01 X114.244 Y84.896
G01 X136.034 Y97.975
G01 X156.348 Y112.638
G01 X173.538 Y125.094
G01 X175.042 Y126.304
G01 X176.912 Y127.671
G01 X178.637 Y142.873
G01 X179.304 Y146.768
G01 X180.201 Y153.929
G01 X167.846 Y147.867
G01 X162.777 Y145.753
G01 X156.244 Y142.687
G01 X149.709 Y123.147
G01 X149.023 Y120.685
G01 X148.301 Y118.484
G01 X140.633 Y94.633
G01 X134.928 Y69.868
G01 X129.409 Y45.393
G01 X134.928 Y69.868
G01 X115.040 Y54.572
G01 X134.928 Y69.868
G01 X140.633 Y94.633
G01 X119.244 Y80.909
G01 X111.553 Y57.027
G01 X119.244 Y80.909
G01 X98.065 Y67.457
G01 X119.244 Y80.909
G01 X140.633 Y94.633
G01 X148.301 Y118.484
G01 X127.146 Y105.062
G01 X119.244 Y80.909
G01 X111.553 Y57.027
G01 X119.244 Y80.909
G01 X98.065 Y67.457
G01 X119.244 Y80.909
G01 X127.146 Y105.062
G01 X104.613 Y93.310
G01 X94.813 Y70.214
G01 X104.613 Y93.310
G01 X82.314 Y81.811
G01 X104.613 Y93.310
G01 X127.146 Y105.062
G01 X148.301 Y118.484
G01 X154.836 Y138.682
G01 X155.522 Y140.487
G01 X156.244 Y142.687
G01 X137.758 Y133.588
G01 X135.410 Y132.578
G01 X133.326 Y131.567
G01 X122.865 Y108.802
G01 X114.244 Y84.896
G01 X105.842 Y61.255
G01 X114.244 Y84.896
G01 X92.672 Y72.084
G01 X114.244 Y84.896
G01 X122.865 Y108.802
G01 X99.991 Y97.730
G01 X89.504 Y74.937
G01 X99.991 Y97.730
G01 X77.357 Y86.903
G01 X99.991 Y97.730
G01 X122.865 Y108.802
G01 X133.326 Y131.567
G01 X110.720 Y120.767
G01 X99.991 Y97.730
G01 X89.504 Y74.937
G01 X99.991 Y97.730
G01 X77.357 Y86.903
G01 X99.991 Y97.730
G01 X110.720 Y120.767
G01 X86.945 Y111.789
G01 X74.457 Y90.028
G01 X86.945 Y111.789
G01 X63.432 Y103.035
G01 X86.945 Y111.789
G01 X110.720 Y120.767
G01 X133.326 Y131.567
G01 X152.464 Y140.754
G01 X154.160 Y141.676
G01 X156.244 Y142.687
G01 X170.169 Y149.026
G01 X173.667 Y150.863
G01 X180.201 Y153.929
G01 X192.631 Y162.289
G01 X195.527 Y164.488
G01 X201.275 Y168.447
G01 X212.081 Y178.818
G01 X213.742 Y180.598
G01 X219.086 Y185.806
G01 X225.431 Y191.842
G01 X229.055 Y195.845
G01 X233.373 Y199.817
G01 X237.246 Y204.070
G01 X237.363 Y204.212
G01 X249.335 Y247.590
G01 X249.464 Y247.604
G01 X249.590 Y247.626
G01 X249.712 Y247.653
G01 X249.831 Y247.687
G01 X249.946 Y247.727
G01 X250.056 Y247.772
G01 X250.162 Y247.822
G01 X250.263 Y247.878
G01 X250.359 Y247.938
G01 X250.450 Y248.002
G01 X250.536 Y248.070
G01 X250.615 Y248.142
G01 X250.689 Y248.216
G01 X250.758 Y248.294
G01 X250.820 Y248.373
G01 X250.877 Y248.455
G01 X250.927 Y248.538
G01 X250.972 Y248.622
G01 X251.011 Y248.707
G01 X251.043 Y248.792
G01 X251.070 Y248.878
G01 X251.091 Y248.963
G01 X251.106 Y249.047
G01 X251.116 Y249.130
G01 X251.121 Y249.212
G01 X251.120 Y249.292
G01 X251.114 Y249.370
G01 X251.103 Y249.446
G01 X251.087 Y249.519
G01 X251.067 Y249.589
G01 X251.043 Y249.656
G01 X251.015 Y249.720
G01 X250.984 Y249.780
G01 X250.949 Y249.836
G01 X250.911 Y249.888
G01 X250.870 Y249.936
G01 X250.827 Y249.980
G01 X250.782 Y250.020
G01 X250.735 Y250.055
G01 X250.687 Y250.085
G01 X250.637 Y250.111
G01 X250.587 Y250.132
G01 X250.536 Y250.149
G01 X250.485 Y250.161
G01 X250.434 Y250.168
G01 X250.384 Y250.171
G01 X250.335 Y250.169
G01 X250.287 Y250.163
G01 X250.241 Y250.153
G01 X250.196 Y250.138
G01 X250.153 Y250.120
G01 X250.113 Y250.098
G01 X250.075 Y250.072
G01 X250.041 Y250.043
G01 X250.009 Y250.010
G01 X250.000 Y250.000
G01 X250.042 Y250.055
G01 X250.078 Y250.114
G01 X250.108 Y250.177
G01 X250.133 Y250.243
G01 X250.151 Y250.311
G01 X250.162 Y250.382
G01 X250.167 Y250.455
G01 X250.165 Y250.528
G01 X250.157 Y250.603
G01 X250.141 Y250.677
G01 X250.118 Y250.752
G01 X250.089 Y250.826
G01 X250.052 Y250.898
G01 X250.009 Y250.969
G01 X249.958 Y251.037
G01 X249.901 Y251.103
G01 X249.838 Y251.165
G01 X249.768 Y251.224
G01 X249.692 Y251.278
G01 X249.610 Y251.328
G01 X249.523 Y251.373
G01 X249.430 Y251.412
G01 X249.332 Y251.445
G01 X249.230 Y251.472
G01 X249.124 Y251.492
G01 X249.014 Y251.505
G01 X248.900 Y251.511
G01 X248.784 Y251.509
G01 X248.666 Y251.499
G01 X248.545 Y251.481
G01 X248.423 Y251.455
G01 X248.301 Y251.420
G01 X248.178 Y251.377
G01 X248.055 Y251.325
G01 X247.934 Y251.264
G01 X247.813 Y251.194
G01 X247.799 Y251.185
G01 X208.172 Y272.509
G01 X202.425 Y272.665
G01 X196.574 Y272.306
G01 X196.383 Y272.285
G01 X187.717 Y272.371
G01 X182.237 Y272.017
G01 X169.691 Y271.801
G01 X164.838 Y271.403
G01 X157.382 Y271.139
G01 X144.423 Y268.701
G01 X139.158 Y267.358
G01 X132.325 Y265.940
G01 X119.405 Y261.200
G01 X114.375 Y258.997
G01 X107.643 Y256.393
G01 X88.292 Y249.320
G01 X85.939 Y248.320
G01 X83.769 Y247.513
G01 X60.340 Y238.637
G01 X37.421 Y227.657
G01 X14.844 Y216.712
G01 X37.421 Y227.657
G01 X13.062 Y233.669
G01 X37.421 Y227.657
G01 X60.340 Y238.637
G01 X36.274 Y246.802
G01 X12.807 Y237.925
G01 X36.274 Y246.802
G01 X12.552 Y254.974
G01 X36.274 Y246.802
G01 X60.340 Y238.637
G01 X83.769 Y247.513
G01 X60.085 Y255.684
G01 X36.274 Y246.802
G01 X12.807 Y237.925
G01 X36.274 Y246.802
G01 X12.552 Y254.974
G01 X36.274 Y246.802
G01 X60.085 Y255.684
G01 X36.848 Y265.974
G01 X12.680 Y259.235
G01 X36.848 Y265.974
G01 X13.954 Y276.238
G01 X36.848 Y265.974
G01 X60.085 Y255.684
G01 X83.769 Y247.513
G01 X103.634 Y254.997
G01 X105.473 Y255.586
G01 X107.643 Y256.393
G01 X89.004 Y265.173
G01 X86.750 Y266.379
G01 X84.661 Y267.378
G01 X60.340 Y261.363
G01 X36.274 Y253.198
G01 X12.552 Y245.026
G01 X36.274 Y253.198
G01 X12.807 Y262.075
G01 X36.274 Y253.198
G01 X60.340 Y261.363
G01 X37.421 Y272.343
G01 X13.062 Y266.331
G01 X37.421 Y272.343
G01 X14.844 Y283.288
G01 X37.421 Y272.343
G01 X60.340 Y261.363
G01 X84.661 Y267.378
G01 X62.122 Y278.318
G01 X37.421 Y272.343
G01 X13.062 Y266.331
G01 X37.421 Y272.343
G01 X14.844 Y283.288
G01 X37.421 Y272.343
G01 X62.122 Y278.318
G01 X40.280 Y291.308
G01 X15.480 Y287.504
G01 X40.280 Y291.308
G01 X18.775 Y304.233
G01 X40.280 Y291.308
G01 X62.122 Y278.318
G01 X84.661 Y267.378
G01 X103.775 Y258.143
G01 X105.554 Y257.392
G01 X107.643 Y256.393
G01 X121.848 Y262.078
G01 X125.593 Y263.336
G01 X132.325 Y265.940
G01 X121.132 Y273.947
G01 X116.869 Y277.409
G01 X111.073 Y281.709
G01 X90.769 Y278.205
G01 X88.276 Y277.642
G01 X85.996 Y277.235
G01 X61.359 Y272.685
G01 X36.848 Y265.974
G01 X12.680 Y259.235
G01 X36.848 Y265.974
G01 X13.954 Y276.238
G01 X36.848 Y265.974
G01 X61.359 Y272.685
G01 X39.138 Y285.016
G01 X14.463 Y280.472
G01 X39.138 Y285.016
G01 X17.256 Y297.292
G01 X39.138 Y285.016
G01 X61.359 Y272.685
G01 X85.996 Y277.235
G01 X64.152 Y289.503
G01 X39.138 Y285.016
G01 X14.463 Y280.472
G01 X39.138 Y285.016
G01 X17.256 Y297.292
G01 X39.138 Y285.016
G01 X64.152 Y289.503
G01 X43.125 Y303.777
G01 X18.143 Y301.462
G01 X43.125 Y303.777
G01 X22.432 Y317.964
G01 X43.125 Y303.777
G01 X64.152 Y289.503
G01 X85.996 Y277.235
G01 X106.879 Y281.051
G01 X108.793 Y281.302
G01 X111.073 Y281.709
G01 X94.300 Y293.676
G01 X92.298 Y295.265
G01 X90.421 Y296.621
G01 X65.417 Y295.045
G01 X40.280 Y291.308
G01 X15.480 Y287.504
G01 X40.280 Y291.308
G01 X18.775 Y304.233
G01 X40.280 Y291.308
G01 X65.417 Y295.045
G01 X44.827 Y309.941
G01 X19.786 Y308.375
G01 X44.827 Y309.941
G01 X24.567 Y324.742
G01 X44.827 Y309.941
G01 X65.417 Y295.045
G01 X90.421 Y296.621
G01 X70.198 Y311.410
G01 X44.827 Y309.941
G01 X19.786 Y308.375
G01 X44.827 Y309.941
G01 X24.567 Y324.742
G01 X44.827 Y309.941
G01 X70.198 Y311.410
G01 X51.026 Y328.092
G01 X25.945 Y328.777
G01 X51.026 Y328.092
G01 X32.175 Y344.649
G01 X51.026 Y328.092
G01 X70.198 Y311.410
G01 X90.421 Y296.621
G01 X107.579 Y284.122
G01 X109.195 Y283.065
G01 X111.073 Y281.709
G01 X123.253 Y272.451
G01 X126.529 Y270.241
G01 X132.325 Y265.940
G01 X146.957 Y269.148
G01 X150.548 Y269.722
G01 X157.382 Y271.139
G01 X146.764 Y278.959
G01 X142.604 Y282.453
G01 X137.062 Y286.696
G01 X123.503 Y284.339
G01 X118.161 Y283.069
G01 X111.073 Y281.709
G01 X90.769 Y278.205
G01 X88.276 Y277.642
G01 X85.996 Y277.235
G01 X61.359 Y272.685
G01 X36.848 Y265.974
G01 X12.680 Y259.235
G01 X36.848 Y265.974
G01 X13.954 Y276.238
G01 X36.848 Y265.974
G01 X61.359 Y272.685
G01 X39.138 Y285.016
G01 X14.463 Y280.472
G01 X39.138 Y285.016
G01 X17.256 Y297.292
G01 X39.138 Y285.016
G01 X61.359 Y272.685
G01 X85.996 Y277.235
G01 X64.152 Y289.503
G01 X39.138 Y285.016
G01 X14.463 Y280.472
G01 X39.138 Y285.016
G01 X17.256 Y297.292
G01 X39.138 Y285.016
G01 X64.152 Y289.503
G01 X43.125 Y303.777
G01 X18.143 Y301.462
G01 X43.125 Y303.777
G01 X22.432 Y317.964
G01 X43.125 Y303.777
G01 X64.152 Y289.503
G01 X85.996 Y277.235
G01 X106.879 Y281.051
G01 X108.793 Y281.302
G01 X111.073 Y281.709
G01 X94.300 Y293.676
G01 X92.298 Y295.265
G01 X90.421 Y296.621
G01 X65.417 Y295.045
G01 X40.280 Y291.308
G01 X15.480 Y287.504
G01 X40.280 Y291.308
G01 X18.775 Y304.233
G01 X40.280 Y291.308
G01 X65.417 Y295.045
G01 X44.827 Y309.941
G01 X19.786 Y308.375
G01 X44.827 Y309.941
G01 X24.567 Y324.742
G01 X44.827 Y309.941
G01 X65.417 Y295.045
G01 X90.421 Y296.621
G01 X70.198 Y311.410
G01 X44.827 Y309.941
G01 X19.786 Y308.375
G01 X44.827 Y309.941
G01 X24.567 Y324.742
G01 X44.827 Y309.941
G01 X70.198 Y311.410
G01 X51.026 Y328.092
G01 X25.945 Y328.777
G01 X51.026 Y328.092
G01 X32.175 Y344.649
G01 X51.026 Y328.092
G01 X70.198 Y311.410
G01 X90.421 Y296.621
G01 X107.579 Y284.122
G01 X109.195 Y283.065
G01 X111.073 Y281.709
G01 X126.064 Y284.766
G01 X129.974 Y285.336
G01 X137.062 Y286.696
G01 X127.478 Y296.572
G01 X123.902 Y300.740
G01 X118.967 Y306.006
G01 X98.364 Y306.183
G01 X95.810 Y306.074
G01 X93.494 Y306.081
G01 X68.441 Y306.003
G01 X43.125 Y303.777
G01 X18.143 Y301.462
G01 X43.125 Y303.777
G01 X22.432 Y317.964
G01 X43.125 Y303.777
G01 X68.441 Y306.003
G01 X48.779 Y322.104
G01 X23.689 Y322.039
G01 X48.779 Y322.104
G01 X29.441 Y338.090
G01 X48.779 Y322.104
G01 X68.441 Y306.003
G01 X93.494 Y306.081
G01 X74.192 Y322.053
G01 X48.779 Y322.104
G01 X23.689 Y322.039
G01 X48.779 Y322.104
G01 X29.441 Y338.090
G01 X48.779 Y322.104
G01 X74.192 Y322.053
G01 X56.052 Y339.851
G01 X31.058 Y342.035
G01 X56.052 Y339.851
G01 X38.225 Y357.506
G01 X56.052 Y339.851
G01 X74.192 Y322.053
G01 X93.494 Y306.081
G01 X114.723 Y306.108
G01 X116.652 Y306.013
G01 X118.967 Y306.006
G01 X104.601 Y320.776
G01 X102.915 Y322.697
G01 X101.310 Y324.366
G01 X76.426 Y327.280
G01 X51.026 Y328.092
G01 X25.945 Y328.777
G01 X51.026 Y328.092
G01 X32.175 Y344.649
G01 X51.026 Y328.092
G01 X76.426 Y327.280
G01 X58.827 Y345.613
G01 X33.909 Y348.544
G01 X58.827 Y345.613
G01 X41.536 Y363.793
G01 X58.827 Y345.613
G01 X76.426 Y327.280
G01 X101.310 Y324.366
G01 X84.052 Y342.528
G01 X58.827 Y345.613
G01 X33.909 Y348.544
G01 X58.827 Y345.613
G01 X41.536 Y363.793
G01 X58.827 Y345.613
G01 X84.052 Y342.528
G01 X68.167 Y362.365
G01 X43.612 Y367.517
G01 X68.167 Y362.365
G01 X52.575 Y382.022
G01 X68.167 Y362.365
G01 X84.052 Y342.528
G01 X101.310 Y324.366
G01 X115.961 Y309.004
G01 X117.362 Y307.675
G01 X118.967 Y306.006
G01 X129.299 Y294.721
G01 X132.127 Y291.962
G01 X137.062 Y286.696
G01 X148.854 Y277.457
G01 X151.840 Y275.382
G01 X157.382 Y271.139
G01 X172.345 Y271.783
G01 X174.781 Y271.754
G01 X182.237 Y272.017
G01 X172.215 Y279.567
G01 X168.523 Y282.741
G01 X162.645 Y287.337
G01 X149.459 Y287.252
G01 X144.039 Y286.871
G01 X137.062 Y286.696
G01 X123.503 Y284.339
G01 X118.161 Y283.069
G01 X111.073 Y281.709
G01 X90.769 Y278.205
G01 X88.276 Y277.642
G01 X85.996 Y277.235
G01 X61.359 Y272.685
G01 X36.848 Y265.974
G01 X12.680 Y259.235
G01 X36.848 Y265.974
G01 X13.954 Y276.238
G01 X36.848 Y265.974
G01 X61.359 Y272.685
G01 X39.138 Y285.016
G01 X14.463 Y280.472
G01 X39.138 Y285.016
G01 X17.256 Y297.292
G01 X39.138 Y285.016
G01 X61.359 Y272.685
G01 X85.996 Y277.235
G01 X64.152 Y289.503
G01 X39.138 Y285.016
G01 X14.463 Y280.472
G01 X39.138 Y285.016
G01 X17.256 Y297.292
G01 X39.138 Y285.016
G01 X64.152 Y289.503
G01 X43.125 Y303.777
G01 X18.143 Y301.462
G01 X43.125 Y303.777
G01 X22.432 Y317.964
G01 X43.125 Y303.777
G01 X64.152 Y289.503
G01 X85.996 Y277.235
G01 X106.879 Y281.051
G01 X108.793 Y281.302
G01 X111.073 Y281.709
G01 X94.300 Y293.676
G01 X92.298 Y295.265
G01 X90.421 Y296.621
G01 X65.417 Y295.045
G01 X40.280 Y291.308
G01 X15.480 Y287.504
G01 X40.280 Y291.308
G01 X18.775 Y304.233
G01 X40.280 Y291.308
G01 X65.417 Y295.045
G01 X44.827 Y309.941
G01 X19.786 Y308.375
G01 X44.827 Y309.941
G01 X24.567 Y324.742
G01 X44.827 Y309.941
G01 X65.417 Y295.045
G01 X90.421 Y296.621
G01 X70.198 Y311.410
G01 X44.827 Y309.941
G01 X19.786 Y308.375
G01 X44.827 Y309.941
G01 X24.567 Y324.742
G01 X44.827 Y309.941
G01 X70.198 Y311.410
G01 X51.026 Y328.092
G01 X25.945 Y328.777
G01 X51.026 Y328.092
G01 X32.175 Y344.649
G01 X51.026 Y328.092
G01 X70.198 Y311.410
G01 X90.421 Y296.621
G01 X107.579 Y284.122
G01 X109.195 Y283.065
G01 X111.073 Y281.709
G01 X126.064 Y284.766
G01 X129.974 Y285.336
G01 X137.062 Y286.696
G01 X127.478 Y296.572
G01 X123.902 Y300.740
G01 X118.967 Y306.006
G01 X98.364 Y306.183
G01 X95.810 Y306.074
G01 X93.494 Y306.081
G01 X68.441 Y306.003
G01 X43.125 Y303.777
G01 X18.143 Y301.462
G01 X43.125 Y303.777
G01 X22.432 Y317.964
G01 X43.125 Y303.777
G01 X68.441 Y306.003
G01 X48.779 Y322.104
G01 X23.689 Y322.039
G01 X48.779 Y322.104
G01 X29.441 Y338.090
G01 X48.779 Y322.104
G01 X68.441 Y306.003
G01 X93.494 Y306.081
G01 X74.192 Y322.053
G01 X48.779 Y322.104
G01 X23.689 Y322.039
G01 X48.779 Y322.104
G01 X29.441 Y338.090
G01 X48.779 Y322.104
G01 X74.192 Y322.053
G01 X56.052 Y339.851
G01 X31.058 Y342.035
G01 X56.052 Y339.851
G01 X38.225 Y357.506
G01 X56.052 Y339.851
G01 X74.192 Y322.053
G01 X93.494 Y306.081
G01 X114.723 Y306.108
G01 X116.652 Y306.013
G01 X118.967 Y306.006
G01 X104.601 Y320.776
G01 X102.915 Y322.697
G01 X101.310 Y324.366
G01 X76.426 Y327.280
G01 X51.026 Y328.092
G01 X25.945 Y328.777
G01 X51.026 Y328.092
G01 X32.175 Y344.649
G01 X51.026 Y328.092
G01 X76.426 Y327.280
G01 X58.827 Y345.613
G01 X33.909 Y348.544
G01 X58.827 Y345.613
G01 X41.536 Y363.793
G01 X58.827 Y345.613
G01 X76.426 Y327.280
G01 X101.310 Y324.366
G01 X84.052 Y342.528
G01 X58.827 Y345.613
G01 X33.909 Y348.544
G01 X58.827 Y345.613
G01 X41.536 Y363.793
G01 X58.827 Y345.613
G01 X84.052 Y342.528
G01 X68.167 Y362.365
G01 X43.612 Y367.517
G01 X68.167 Y362.365
G01 X52.575 Y382.022
G01 X68.167 Y362.365
G01 X84.052 Y342.528
G01 X101.310 Y324.366
G01 X115.961 Y309.004
G01 X117.362 Y307.675
G01 X118.967 Y306.006
G01 X129.299 Y294.721
G01 X132.127 Y291.962
G01 X137.062 Y286.696
G01 X152.032 Y287.239
G01 X155.668 Y287.162
G01 X162.645 Y287.337
G01 X153.594 Y296.927
G01 X150.124 Y301.108
G01 X145.429 Y306.272
G01 X131.668 Y306.374
G01 X126.184 Y306.079
G01 X118.967 Y306.006
G01 X98.364 Y306.183
G01 X95.810 Y306.074
G01 X93.494 Y306.081
G01 X68.441 Y306.003
G01 X43.125 Y303.777
G01 X18.143 Y301.462
G01 X43.125 Y303.777
G01 X22.432 Y317.964
G01 X43.125 Y303.777
G01 X68.441 Y306.003
G01 X48.779 Y322.104
G01 X23.689 Y322.039
G01 X48.779 Y322.104
G01 X29.441 Y338.090
G01 X48.779 Y322.104
G01 X68.441 Y306.003
G01 X93.494 Y306.081
G01 X74.192 Y322.053
G01 X48.779 Y322.104
G01 X23.689 Y322.039
G01 X48.779 Y322.104
G01 X29.441 Y338.090
G01 X48.779 Y322.104
G01 X74.192 Y322.053
G01 X56.052 Y339.851
G01 X31.058 Y342.035
G01 X56.052 Y339.851
G01 X38.225 Y357.506
G01 X56.052 Y339.851
