;  Created by Sandify
;  https://sandify.org
;  Version: 0.2.6
;
;  Machine type: Rectangular
;    Min X (mm): 0
;    Max X (mm): 500
;    Min Y (mm): 0
;    Max Y (mm): 500
;  Content type: shape
;  Layer:
;    Shape: FileImport
;    Name: goulet_pnuttrellis_ee.thr
;    From file:: goulet_pnuttrellis_ee.thr
;    Aspect Ratio: true
;    Comments: 
;    Visible: true
;    Initial width: 10
;    Initial height: 10
;    X offset: 0
;    Y offset: 0
;    Rotate (degrees): 0
;    Reverse path: false
;    Fine tuning:
;      Connect to next layer: line
;      Draw portion of path (%): 100
;      Backtrack at end (%): 0
;      Rotate starting point (%): 0
;  Reverse export path: false
;
; File name: 'pnuttrellis'
; File type: gcode
;

G01 X250.000 Y500.000
G01 X262.257 Y499.495
G01 X272.797 Y498.577
G01 X284.881 Y496.554
G01 X295.197 Y494.337
G01 X306.899 Y490.841
G01 X316.811 Y487.374
G01 X327.932 Y482.479
G01 X337.274 Y477.839
G01 X347.629 Y471.649
G01 X356.248 Y465.934
G01 X365.671 Y458.577
G01 X373.433 Y451.904
G01 X381.785 Y443.539
G01 X388.575 Y436.055
G01 X395.742 Y426.852
G01 X401.473 Y418.708
G01 X407.370 Y408.854
G01 X411.981 Y400.211
G01 X416.563 Y389.904
G01 X420.022 Y380.941
G01 X423.274 Y370.378
G01 X425.583 Y361.258
G01 X427.517 Y350.631
G01 X428.693 Y341.535
G01 X429.378 Y331.034
G01 X429.493 Y322.087
G01 X429.006 Y311.876
G01 X428.135 Y303.254
G01 X426.605 Y293.482
G01 X424.862 Y285.264
G01 X422.422 Y276.043
G01 X419.937 Y268.355
G01 X416.771 Y259.769
G01 X413.694 Y252.635
G01 X409.979 Y244.720
G01 X406.467 Y238.179
G01 X402.379 Y230.932
G01 X398.594 Y224.982
G01 X394.332 Y218.347
G01 X390.419 Y212.900
G01 X386.133 Y206.784
G01 X382.231 Y201.776
G01 X378.046 Y196.046
G01 X374.236 Y191.330
G01 X370.224 Y185.829
G01 X366.574 Y181.289
G01 X362.748 Y175.859
G01 X359.238 Y171.335
G01 X355.542 Y165.834
G01 X352.133 Y161.232
G01 X348.458 Y155.556
G01 X345.031 Y150.771
G01 X341.229 Y144.867
G01 X337.667 Y139.887
G01 X333.564 Y133.763
G01 X329.702 Y128.585
G01 X325.133 Y122.297
G01 X320.851 Y117.005
G01 X315.663 Y110.671
G01 X310.813 Y105.354
G01 X304.892 Y99.111
G01 X299.410 Y93.922
G01 X292.679 Y87.941
G01 X286.483 Y83.009
G01 X278.906 Y77.474
G01 X272.008 Y72.983
G01 X263.597 Y68.081
G01 X255.984 Y64.174
G01 X246.791 Y60.080
G01 X238.535 Y56.915
G01 X228.648 Y53.785
G01 X219.856 Y51.498
G01 X209.398 Y49.491
G01 X200.145 Y48.205
G01 X189.264 Y47.428
G01 X179.728 Y47.231
G01 X168.599 Y47.781
G01 X158.891 Y48.748
G01 X147.700 Y50.683
G01 X138.032 Y52.849
G01 X126.980 Y56.198
G01 X117.481 Y59.587
G01 X106.769 Y64.338
G01 X97.655 Y68.912
G01 X87.490 Y75.030
G01 X78.896 Y80.771
G01 X69.468 Y88.178
G01 X61.595 Y94.981
G01 X53.090 Y103.575
G01 X46.056 Y111.374
G01 X38.635 Y121.021
G01 X32.605 Y129.654
G01 X26.414 Y140.197
G01 X21.477 Y149.564
G01 X16.634 Y160.825
G01 X12.903 Y170.721
G01 X9.495 Y182.505
G01 X7.021 Y192.803
G01 X5.108 Y204.905
G01 X3.941 Y215.378
G01 X3.545 Y227.585
G01 X3.687 Y238.097
G01 X4.806 Y250.196
G01 X6.244 Y260.515
G01 X8.831 Y272.299
G01 X11.522 Y282.297
G01 X15.509 Y293.567
G01 X19.379 Y303.053
G01 X24.666 Y313.626
G01 X29.606 Y322.428
G01 X36.062 Y332.143
G01 X41.977 Y340.169
G01 X49.451 Y348.887
G01 X56.175 Y355.991
G01 X64.496 Y363.606
G01 X71.907 Y369.737
G01 X80.899 Y376.166
G01 X88.807 Y381.235
G01 X98.267 Y386.445
G01 X106.536 Y390.458
G01 X116.280 Y394.434
G01 X124.712 Y397.370
G01 X134.547 Y400.150
G01 X143.019 Y402.066
G01 X152.776 Y403.705
G01 X161.107 Y404.650
G01 X170.622 Y405.267
G01 X178.717 Y405.354
G01 X187.865 Y405.070
G01 X195.590 Y404.412
G01 X204.276 Y403.394
G01 X211.593 Y402.134
G01 X219.762 Y400.561
G01 X226.605 Y398.860
G01 X234.249 Y396.923
G01 X240.655 Y394.939
G01 X247.815 Y392.811
G01 X253.802 Y390.696
G01 X260.564 Y388.547
G01 X266.245 Y386.431
G01 X272.734 Y384.372
G01 X278.211 Y382.347
G01 X284.574 Y380.437
G01 X289.963 Y378.546
G01 X296.353 Y376.786
G01 X301.812 Y375.008
G01 X308.360 Y373.323
G01 X313.971 Y371.594
G01 X320.775 Y369.857
G01 X326.640 Y368.052
G01 X333.751 Y366.106
G01 X339.875 Y364.093
G01 X347.283 Y361.750
G01 X353.671 Y359.357
G01 X361.327 Y356.447
G01 X367.893 Y353.543
G01 X375.692 Y349.907
G01 X382.367 Y346.345
G01 X390.174 Y341.856
G01 X396.801 Y337.555
G01 X404.449 Y332.122
G01 X410.907 Y326.990
G01 X418.226 Y320.569
G01 X424.335 Y314.603
G01 X431.137 Y307.184
G01 X436.760 Y300.359
G01 X442.860 Y291.973
G01 X447.813 Y284.360
G01 X453.033 Y275.078
G01 X457.187 Y266.711
G01 X461.378 Y256.638
G01 X464.592 Y247.657
G01 X467.596 Y236.927
G01 X469.755 Y227.414
G01 X471.464 Y216.188
G01 X472.475 Y206.309
G01 X472.808 Y194.765
G01 X472.611 Y184.703
G01 X471.498 Y173.039
G01 X470.042 Y162.923
G01 X467.466 Y151.341
G01 X464.754 Y141.393
G01 X460.717 Y130.104
G01 X456.750 Y120.459
G01 X451.299 Y109.666
G01 X446.147 Y100.542
G01 X439.350 Y90.446
G01 X433.057 Y81.971
G01 X425.021 Y72.757
G01 X417.721 Y65.122
G01 X408.577 Y56.958
G01 X400.355 Y50.267
G01 X390.259 Y43.299
G01 X381.297 Y37.700
G01 X370.427 Y32.048
G01 X360.842 Y27.610
G01 X349.391 Y23.365
G01 X339.399 Y20.175
G01 X327.570 Y17.398
G01 X317.304 Y15.484
G01 X305.307 Y14.204
G01 X294.996 Y13.589
G01 X283.043 Y13.795
G01 X272.819 Y14.455
G01 X261.115 Y16.119
G01 X251.201 Y18.016
G01 X239.941 Y21.055
G01 X230.453 Y24.117
G01 X219.814 Y28.438
G01 X210.923 Y32.569
G01 X201.065 Y38.054
G01 X192.921 Y43.133
G01 X183.970 Y49.614
G01 X176.635 Y55.515
G01 X168.696 Y62.839
G01 X162.285 Y69.396
G01 X155.422 Y77.373
G01 X149.949 Y84.453
G01 X144.200 Y92.907
G01 X139.712 Y100.321
G01 X135.057 Y109.049
G01 X131.507 Y116.663
G01 X127.908 Y125.494
G01 X125.268 Y133.128
G01 X122.635 Y141.895
G01 X120.806 Y149.447
G01 X119.019 Y158.008
G01 X117.897 Y165.331
G01 X116.795 Y173.575
G01 X116.233 Y180.619
G01 X115.653 Y188.485
G01 X115.510 Y195.177
G01 X115.253 Y202.640
G01 X115.356 Y209.002
G01 X115.253 Y216.097
G01 X115.459 Y222.142
G01 X115.354 Y228.949
G01 X115.538 Y234.785
G01 X115.331 Y241.425
G01 X115.415 Y247.136
G01 X115.060 Y253.754
G01 X115.016 Y259.495
G01 X114.537 Y266.240
G01 X114.396 Y272.110
G01 X113.884 Y279.114
G01 X113.735 Y285.248
G01 X113.330 Y292.608
G01 X113.302 Y299.068
G01 X113.173 Y306.838
G01 X113.413 Y313.640
G01 X113.745 Y321.824
G01 X114.419 Y328.989
G01 X115.394 Y337.539
G01 X116.652 Y344.982
G01 X118.437 Y353.806
G01 X120.424 Y361.470
G01 X123.149 Y370.449
G01 X125.959 Y378.185
G01 X129.728 Y387.162
G01 X133.458 Y394.865
G01 X138.338 Y403.669
G01 X143.017 Y411.148
G01 X149.037 Y419.590
G01 X154.703 Y426.714
G01 X161.847 Y434.615
G01 X168.447 Y441.199
G01 X176.674 Y448.360
G01 X184.192 Y454.264
G01 X193.415 Y460.518
G01 X201.733 Y465.572
G01 X211.836 Y470.758
G01 X220.884 Y474.853
G01 X231.728 Y478.827
G01 X241.332 Y481.828
G01 X252.747 Y484.471
G01 X262.803 Y486.298
G01 X274.604 Y487.526
G01 X284.899 Y488.109
G01 X296.885 Y487.862
G01 X307.291 Y487.161
G01 X319.255 Y485.410
G01 X329.565 Y483.409
G01 X341.295 Y480.165
G01 X351.305 Y476.894
G01 X362.592 Y472.194
G01 X372.170 Y467.680
G01 X382.812 Y461.596
G01 X391.744 Y455.934
G01 X401.554 Y448.569
G01 X409.724 Y441.829
G01 X418.532 Y433.312
G01 X425.764 Y425.647
G01 X433.420 Y416.132
G01 X439.626 Y407.646
G01 X446.010 Y397.308
G01 X451.068 Y388.199
G01 X456.088 Y377.229
G01 X459.952 Y367.622
G01 X463.541 Y356.219
G01 X466.146 Y346.335
G01 X468.285 Y334.710
G01 X469.637 Y324.684
G01 X470.323 Y313.040
G01 X470.426 Y303.094
G01 X469.698 Y291.633
G01 X468.596 Y281.891
G01 X466.524 Y270.802
G01 X464.293 Y261.469
G01 X460.985 Y250.924
G01 X457.715 Y242.096
G01 X453.286 Y232.245
G01 X449.101 Y224.085
G01 X443.706 Y215.047
G01 X438.723 Y207.613
G01 X432.539 Y199.477
G01 X426.924 Y192.851
G01 X420.118 Y185.672
G01 X414.034 Y179.905
G01 X406.799 Y173.692
G01 X400.382 Y168.755
G01 X392.902 Y163.480
G01 X386.334 Y159.360
G01 X378.785 Y154.948
G01 X372.183 Y151.552
G01 X364.708 Y147.898
G01 X358.217 Y145.143
G01 X350.945 Y142.093
G01 X344.634 Y139.826
G01 X337.635 Y137.218
G01 X331.582 Y135.305
G01 X324.886 Y132.955
G01 X319.075 Y131.228
G01 X312.650 Y128.974
G01 X307.069 Y127.305
G01 X300.838 Y125.002
G01 X295.382 Y123.265
G01 X289.219 Y120.830
G01 X283.801 Y118.972
G01 X277.556 Y116.380
G01 X272.020 Y114.381
G01 X265.540 Y111.673
G01 X259.783 Y109.590
G01 X252.931 Y106.873
G01 X246.814 Y104.797
G01 X239.485 Y102.208
G01 X232.958 Y100.277
G01 X225.092 Y98.000
G01 X218.083 Y96.370
G01 X209.666 Y94.588
G01 X202.192 Y93.421
G01 X193.256 Y92.313
G01 X185.375 Y91.766
G01 X175.996 Y91.501
G01 X167.747 Y91.713
G01 X158.038 Y92.442
G01 X149.571 Y93.536
G01 X139.677 Y95.375
G01 X131.082 Y97.450
G01 X121.162 Y100.477
G01 X112.624 Y103.578
G01 X102.871 Y107.854
G01 X94.520 Y112.041
G01 X85.117 Y117.570
G01 X77.150 Y122.815
G01 X68.294 Y129.578
G01 X60.845 Y135.878
G01 X52.724 Y143.818
G01 X45.988 Y151.083
G01 X38.784 Y160.108
G01 X32.880 Y168.286
G01 X26.752 Y178.273
G01 X21.840 Y187.209
G01 X16.933 Y198.011
G01 X13.107 Y207.612
G01 X9.540 Y219.059
G01 X6.912 Y229.126
G01 X4.779 Y241.028
G01 X3.407 Y251.440
G01 X2.762 Y263.594
G01 X2.689 Y274.125
G01 X3.568 Y286.319
G01 X4.813 Y296.834
G01 X7.208 Y308.857
G01 X9.753 Y319.147
G01 X13.628 Y330.786
G01 X17.421 Y340.648
G01 X22.706 Y351.702
G01 X27.694 Y361.012
G01 X34.290 Y371.291
G01 X40.355 Y379.848
G01 X48.135 Y389.181
G01 X55.186 Y396.885
G01 X64.002 Y405.121
G01 X71.871 Y411.814
G01 X81.544 Y418.837
G01 X90.109 Y424.458
G01 X100.459 Y430.170
G01 X109.519 Y434.619
G01 X120.345 Y438.961
G01 X129.767 Y442.220
G01 X140.868 Y445.162
G01 X150.435 Y447.200
G01 X161.606 Y448.756
G01 X171.186 Y449.606
G01 X182.237 Y449.807
G01 X191.625 Y449.503
G01 X202.373 Y448.425
G01 X211.460 Y447.039
G01 X221.741 Y444.789
G01 X230.352 Y442.427
G01 X240.029 Y439.141
G01 X248.093 Y435.918
G01 X257.061 Y431.736
G01 X264.458 Y427.791
G01 X272.646 Y422.904
G01 X279.363 Y418.386
G01 X286.739 Y412.965
G01 X292.728 Y408.043
G01 X299.306 Y402.279
G01 X304.619 Y397.092
G01 X310.457 Y391.168
G01 X315.143 Y385.879
G01 X320.339 Y379.946
G01 X324.479 Y374.690
G01 X329.173 Y368.880
G01 X332.916 Y363.735
G01 X337.265 Y358.127
G01 X340.735 Y353.172
G01 X344.912 Y347.796
G01 X348.274 Y343.022
G01 X352.433 Y337.842
G01 X355.802 Y333.230
G01 X360.067 Y328.157
G01 X363.556 Y323.598
G01 X367.994 Y318.497
G01 X371.636 Y313.891
G01 X376.256 Y308.603
G01 X380.063 Y303.791
G01 X384.818 Y298.156
G01 X388.721 Y293.026
G01 X393.495 Y286.895
G01 X397.400 Y281.302
G01 X402.057 Y274.565
G01 X405.819 Y268.449
G01 X410.179 Y261.032
G01 X413.656 Y254.314
G01 X417.545 Y246.190
G01 X420.569 Y238.889
G01 X423.789 Y230.078
G01 X426.199 Y222.189
G01 X428.586 Y212.750
G01 X430.234 Y204.372
G01 X431.631 Y194.405
G01 X432.393 Y185.594
G01 X432.659 Y175.230
G01 X432.418 Y166.130
G01 X431.458 Y155.523
G01 X430.142 Y146.295
G01 X427.880 Y135.624
G01 X425.426 Y126.384
G01 X421.819 Y115.840
G01 X418.214 Y106.800
G01 X413.258 Y96.582
G01 X408.491 Y87.870
G01 X402.218 Y78.174
G01 X396.349 Y70.000
G01 X388.821 Y61.021
G01 X381.887 Y53.511
G01 X373.197 Y45.433
G01 X365.323 Y38.776
G01 X355.597 Y31.766
G01 X346.861 Y26.071
G01 X336.251 Y20.271
G01 X326.834 Y15.675
G01 X315.511 Y11.214
G01 X305.522 Y7.800
G01 X293.679 Y4.766
G01 X283.336 Y2.616
G01 X271.175 Y1.075
G01 X260.609 Y0.225
G01 X248.342 Y0.210
G01 X237.786 Y0.679
G01 X225.626 Y2.186
G01 X215.215 Y3.964
G01 X203.375 Y6.960
G01 X193.336 Y9.998
G01 X182.018 Y14.418
G01 X172.476 Y18.664
G01 X161.868 Y24.408
G01 X153.003 Y29.758
G01 X143.276 Y36.708
G01 X135.249 Y43.036
G01 X126.551 Y51.041
G01 X119.442 Y58.240
G01 X111.892 Y67.131
G01 X105.828 Y75.015
G01 X99.515 Y84.607
G01 X94.535 Y93.052
G01 X89.520 Y103.156
G01 X85.688 Y111.954
G01 X81.993 Y122.371
G01 X79.301 Y131.394
G01 X76.914 Y141.928
G01 X75.351 Y150.964
G01 X74.220 Y161.426
G01 X73.726 Y170.360
G01 X73.783 Y180.584
G01 X74.290 Y189.236
G01 X75.403 Y199.064
G01 X76.794 Y207.348
G01 X78.837 Y216.663
G01 X80.991 Y224.449
G01 X83.793 Y233.163
G01 X86.568 Y240.421
G01 X89.949 Y248.486
G01 X93.177 Y255.154
G01 X96.945 Y262.570
G01 X100.476 Y268.690
G01 X104.455 Y275.500
G01 X108.127 Y281.094
G01 X112.150 Y287.387
G01 X115.844 Y292.568
G01 X119.780 Y298.472
G01 X123.384 Y303.347
G01 X127.159 Y309.012
G01 X130.613 Y313.704
G01 X134.207 Y319.291
G01 X137.522 Y323.959
G01 X140.982 Y329.611
G01 X144.192 Y334.354
G01 X147.623 Y340.181
G01 X150.843 Y345.107
G01 X154.391 Y351.168
G01 X157.737 Y356.296
G01 X161.577 Y362.588
G01 X165.216 Y367.925
G01 X169.515 Y374.400
G01 X173.570 Y379.866
G01 X178.486 Y386.414
G01 X183.105 Y391.931
G01 X188.755 Y398.424
G01 X194.009 Y403.846
G01 X200.482 Y410.103
G01 X206.464 Y415.290
G01 X213.799 Y421.142
G01 X220.500 Y425.921
G01 X228.695 Y431.180
G01 X236.135 Y435.410
G01 X245.146 Y439.893
G01 X253.241 Y443.400
G01 X262.987 Y446.940
G01 X271.693 Y449.597
G01 X282.058 Y452.056
G01 X291.227 Y453.738
G01 X302.064 Y454.972
G01 X311.604 Y455.570
G01 X322.747 Y455.491
G01 X332.486 Y454.935
G01 X343.749 Y453.476
G01 X353.500 Y451.722
G01 X364.685 Y448.848
G01 X374.321 Y445.867
G01 X385.223 Y441.573
G01 X394.522 Y437.388
G01 X404.937 Y431.707
G01 X413.766 Y426.335
G01 X423.501 Y419.336
G01 X431.657 Y412.875
G01 X440.520 Y404.650
G01 X447.880 Y397.157
G01 X455.702 Y387.833
G01 X462.092 Y379.463
G01 X468.725 Y369.192
G01 X474.055 Y360.043
G01 X479.372 Y348.998
G01 X483.519 Y339.269
G01 X487.424 Y327.640
G01 X490.333 Y317.456
G01 X492.759 Y305.447
G01 X494.370 Y295.033
G01 X495.282 Y282.854
G01 X495.583 Y272.345
G01 X494.980 Y260.209
G01 X493.982 Y249.838
G01 X491.898 Y237.956
G01 X489.634 Y227.852
G01 X486.125 Y216.424
G01 X482.667 Y206.805
G01 X477.837 Y196.016
G01 X473.267 Y186.991
G01 X467.228 Y177.011
G01 X461.673 Y168.760
G01 X454.579 Y159.731
G01 X448.151 Y152.329
G01 X440.158 Y144.369
G01 X433.012 Y137.930
G01 X424.303 Y131.123
G01 X416.619 Y125.722
G01 X407.388 Y120.115
G01 X399.298 Y115.755
G01 X389.727 Y111.372
G01 X381.426 Y108.083
G01 X371.717 Y104.889
G01 X363.335 Y102.615
G01 X353.659 Y100.559
G01 X345.378 Y99.258
G01 X335.895 Y98.242
G01 X327.810 Y97.815
G01 X318.658 Y97.710
G01 X310.913 Y98.039
G01 X302.193 Y98.684
G01 X294.829 Y99.630
G01 X286.600 Y100.856
G01 X279.691 Y102.264
G01 X271.972 Y103.878
G01 X265.487 Y105.591
G01 X258.243 Y107.411
G01 X252.172 Y109.267
G01 X245.325 Y111.129
G01 X239.559 Y113.002
G01 X232.989 Y114.787
G01 X227.445 Y116.576
G01 X221.006 Y118.211
G01 X215.528 Y119.874
G01 X209.070 Y121.362
G01 X203.553 Y122.903
G01 X196.939 Y124.308
G01 X191.245 Y125.799
G01 X184.374 Y127.245
G01 X178.438 Y128.800
G01 X171.251 Y130.445
G01 X165.049 Y132.198
G01 X157.548 Y134.224
G01 X151.064 Y136.344
G01 X143.290 Y138.924
G01 X136.605 Y141.546
G01 X128.661 Y144.850
G01 X121.843 Y148.126
G01 X113.852 Y152.279
G01 X107.049 Y156.296
G01 X99.174 Y161.397
G01 X92.501 Y166.249
G01 X84.915 Y172.353
G01 X78.559 Y178.055
G01 X71.453 Y185.181
G01 X65.550 Y191.763
G01 X59.094 Y199.880
G01 X53.818 Y207.276
G01 X48.209 Y216.328
G01 X43.704 Y224.511
G01 X39.094 Y234.398
G01 X35.507 Y243.235
G01 X32.048 Y253.827
G01 X29.487 Y263.240
G01 X27.295 Y274.384
G01 X25.863 Y284.189
G01 X25.046 Y295.707
G01 X24.821 Y305.790
G01 X25.435 Y317.492
G01 X26.456 Y327.638
G01 X28.537 Y339.318
G01 X30.828 Y349.397
G01 X34.383 Y360.847
G01 X37.937 Y370.652
G01 X42.928 Y381.665
G01 X47.689 Y390.999
G01 X54.051 Y401.374
G01 X59.977 Y410.109
G01 X67.615 Y419.656
G01 X74.585 Y427.594
G01 X83.374 Y436.139
G01 X91.304 Y443.173
G01 X101.096 Y450.563
G01 X109.812 Y456.537
G01 X120.432 Y462.645
G01 X129.820 Y467.486
G01 X141.082 Y472.212
G01 X150.930 Y475.822
G01 X162.629 Y479.100
G01 X172.805 Y481.449
G01 X184.737 Y483.235
G01 X195.013 Y484.286
G01 X206.963 Y484.588
G01 X217.206 Y484.362
G01 X228.970 Y483.199
G01 X238.955 Y481.727
G01 X250.335 Y479.168
G01 X259.944 Y476.512
G01 X270.757 Y472.639
G01 X279.792 Y468.892
G01 X289.877 Y463.840
G01 X298.250 Y459.108
G01 X307.467 Y453.007
G01 X315.027 Y447.432
G01 X323.270 Y440.452
G01 X329.970 Y434.159
G01 X337.165 Y426.480
G01 X342.933 Y419.640
G01 X349.038 Y411.441
G01 X353.839 Y404.226
G01 X358.857 Y395.700
G01 X362.725 Y388.242
G01 X366.695 Y379.571
G01 X369.657 Y372.056
G01 X372.662 Y363.412
G01 X374.812 Y355.946
G01 X376.962 Y347.469
G01 X378.395 Y340.201
G01 X379.842 Y332.009
G01 X380.698 Y324.993
G01 X381.615 Y317.160
G01 X382.045 Y310.482
G01 X382.618 Y303.036
G01 X382.785 Y296.676
G01 X383.188 Y289.591
G01 X383.238 Y283.542
G01 X383.630 Y276.745
G01 X383.693 Y270.907
G01 X384.182 Y264.282
G01 X384.342 Y258.572
G01 X384.979 Y251.976
G01 X385.268 Y246.242
G01 X386.032 Y239.523
G01 X386.420 Y233.664
G01 X387.229 Y226.689
G01 X387.638 Y220.566
G01 X388.356 Y213.229
G01 X388.659 Y206.792
G01 X389.120 Y199.034
G01 X389.169 Y192.211
G01 X389.184 Y184.021
G01 X388.816 Y176.850
G01 X388.201 Y168.269
G01 X387.255 Y160.765
G01 X385.849 Y151.870
G01 X384.193 Y144.126
G01 X381.852 Y135.040
G01 X379.373 Y127.191
G01 X375.985 Y118.064
G01 X372.583 Y110.212
G01 X368.084 Y101.207
G01 X363.728 Y93.533
G01 X358.071 Y84.844
G01 X352.713 Y77.484
G01 X345.908 Y69.291
G01 X339.592 Y62.437
G01 X331.676 Y54.934
G01 X324.415 Y48.718
G01 X315.468 Y42.073
G01 X307.373 Y36.665
G01 X297.497 Y31.060
G01 X288.631 Y26.588
G01 X277.966 Y22.157
G01 X268.497 Y18.751
G01 X257.205 Y15.623
G01 X247.236 Y13.369
G01 X235.497 Y11.641
G01 X225.237 Y10.622
G01 X213.251 Y10.361
G01 X202.825 Y10.622
G01 X190.797 Y11.862
G01 X180.435 Y13.418
G01 X168.578 Y16.161
G01 X158.414 Y19.012
G01 X146.938 Y23.228
G01 X137.200 Y27.320
G01 X126.308 Y32.946
G01 X117.123 Y38.237
G01 X107.009 Y45.179
G01 X98.560 Y51.566
G01 X89.400 Y59.703
G01 X81.850 Y67.054
G01 X73.795 Y76.234
G01 X67.233 Y84.448
G01 X60.417 Y94.507
G01 X54.979 Y103.395
G01 X49.497 Y114.141
G01 X45.229 Y123.574
G01 X41.158 Y134.814
G01 X38.134 Y144.578
G01 X35.504 Y156.102
G01 X33.727 Y166.062
G01 X32.552 Y177.668
G01 X32.031 Y187.601
G01 X32.268 Y199.082
G01 X32.952 Y208.861
G01 X34.551 Y220.028
G01 X36.384 Y229.448
G01 X39.246 Y240.124
G01 X42.142 Y249.082
G01 X46.149 Y259.112
G01 X49.984 Y267.442
G01 X54.985 Y276.701
G01 X59.643 Y284.341
G01 X65.487 Y292.730
G01 X70.810 Y299.570
G01 X77.300 Y307.034
G01 X83.144 Y313.069
G01 X90.109 Y319.584
G01 X96.296 Y324.776
G01 X103.542 Y330.367
G01 X109.940 Y334.774
G01 X117.297 Y339.501
G01 X123.751 Y343.173
G01 X131.062 Y347.142
G01 X137.429 Y350.172
G01 X144.565 Y353.528
G01 X150.775 Y356.061
G01 X157.658 Y358.962
G01 X163.626 Y361.128
G01 X170.216 Y363.760
G01 X175.948 Y365.731
G01 X182.270 Y368.258
G01 X187.775 Y370.165
G01 X193.903 Y372.729
G01 X199.280 Y374.695
G01 X205.335 Y377.390
G01 X210.668 Y379.478
G01 X216.798 Y382.332
G01 X222.245 Y384.562
G01 X228.604 Y387.541
G01 X234.268 Y389.865
G01 X240.998 Y392.874
G01 X247.021 Y395.209
G01 X254.233 Y398.105
G01 X260.673 Y400.309
G01 X268.435 Y402.917
G01 X275.368 Y404.843
G01 X283.703 Y406.988
G01 X291.105 Y408.473
G01 X299.985 Y409.957
G01 X307.853 Y410.839
G01 X317.213 Y411.501
G01 X325.443 Y411.638
G01 X335.175 Y411.323
G01 X343.702 Y410.590
G01 X353.665 Y409.171
G01 X362.341 Y407.464
G01 X372.377 Y404.857
G01 X381.038 Y402.118
G01 X390.963 Y398.259
G01 X399.484 Y394.431
G01 X409.115 Y389.308
G01 X417.299 Y384.407
G01 X426.432 Y378.024
G01 X434.140 Y372.044
G01 X442.590 Y364.457
G01 X449.628 Y357.484
G01 X457.212 Y348.774
G01 X463.459 Y340.855
G01 X470.005 Y331.137
G01 X475.292 Y322.418
G01 X480.652 Y311.833
G01 X484.880 Y302.403
G01 X488.929 Y291.117
G01 X491.981 Y281.170
G01 X494.620 Y269.370
G01 X496.435 Y259.026
G01 X497.592 Y246.910
G01 X498.110 Y236.392
G01 X497.750 Y224.171
G01 X496.954 Y213.613
G01 X495.071 Y201.500
G01 X492.971 Y191.135
G01 X489.594 Y179.342
G01 X486.216 Y169.303
G01 X481.405 Y158.035
G01 X476.827 Y148.544
G01 X470.673 Y137.994
G01 X464.964 Y129.167
G01 X457.589 Y119.511
G01 X450.871 Y111.515
G01 X442.414 Y102.911
G01 X434.837 Y95.890
G01 X425.471 Y88.462
G01 X417.152 Y82.482
G01 X407.052 Y76.338
G01 X398.188 Y71.510
G01 X387.557 Y66.711
G01 X378.283 Y63.054
G01 X367.317 Y59.642
G01 X357.847 Y57.198
G01 X346.749 Y55.174
G01 X337.211 Y53.923
G01 X326.179 Y53.253
G01 X316.787 Y53.159
G01 X306.005 Y53.774
G01 X296.868 Y54.769
G01 X286.499 Y56.585
G01 X277.796 Y58.583
G01 X267.988 Y61.456
G01 X259.794 Y64.336
G01 X250.658 Y68.129
G01 X243.099 Y71.754
G01 X234.712 Y76.288
G01 X227.809 Y80.517
G01 X220.210 Y85.624
G01 X214.018 Y90.291
G01 X207.201 Y95.765
G01 X201.671 Y100.718
G01 X195.588 Y106.393
G01 X190.695 Y111.471
G01 X185.252 Y117.178
G01 X180.882 Y122.266
G01 X175.946 Y127.871
G01 X171.997 Y132.842
G01 X167.412 Y138.258
G01 X163.725 Y143.070
G01 X159.324 Y148.264
G01 X155.762 Y152.891
G01 X151.387 Y157.890
G01 X147.825 Y162.355
G01 X143.350 Y167.243
G01 X139.672 Y171.651
G01 X135.021 Y176.559
G01 X131.187 Y181.006
G01 X126.344 Y186.092
G01 X122.334 Y190.737
G01 X117.347 Y196.167
G01 X113.232 Y201.127
G01 X108.202 Y207.050
G01 X104.063 Y212.472
G01 X99.121 Y219.005
G01 X95.099 Y224.954
G01 X90.430 Y232.180
G01 X86.672 Y238.745
G01 X82.445 Y246.696
G01 X79.119 Y253.862
G01 X75.524 Y262.529
G01 X72.777 Y270.309
G01 X69.990 Y279.639
G01 X67.987 Y287.939
G01 X66.173 Y297.838
G01 X65.041 Y306.607
G01 X64.330 Y316.952
G01 X64.182 Y326.034
G01 X64.690 Y336.672
G01 X65.615 Y345.969
G01 X67.422 Y356.727
G01 X69.477 Y366.041
G01 X72.635 Y376.726
G01 X75.863 Y385.932
G01 X80.378 Y396.352
G01 X84.770 Y405.260
G01 X90.626 Y415.213
G01 X96.142 Y423.629
G01 X103.285 Y432.918
G01 X109.895 Y440.713
G01 X118.234 Y449.153
G01 X125.819 Y456.137
G01 X135.237 Y463.556
G01 X143.723 Y469.619
G01 X154.078 Y475.862
G01 X163.292 Y480.851
G01 X174.415 Y485.790
G01 X184.250 Y489.626
G01 X195.954 Y493.160
G01 X206.196 Y495.746
G01 X218.281 Y497.802
G01 X228.801 Y499.100
G01 X241.049 Y499.840
G01 X251.626 Y499.995
G01 X263.879 Y499.405
G01 X274.423 Y498.412
G01 X286.491 Y496.293
G01 X296.774 Y493.997
G01 X308.445 Y490.399
G01 X318.337 Y486.843
G01 X329.408 Y481.838
G01 X338.691 Y477.112
G01 X348.977 Y470.812
G01 X357.541 Y464.999
G01 X366.873 Y457.531
G01 X374.539 Y450.776
G01 X382.780 Y442.308
G01 X389.476 Y434.732
G01 X396.509 Y425.435
G01 X402.126 Y417.208
G01 X407.864 Y407.268
G01 X412.326 Y398.574
G01 X416.732 Y388.202
G01 X420.039 Y379.182
G01 X423.089 Y368.571
G01 X425.217 Y359.436
G01 X426.938 Y348.787
G01 X427.929 Y339.665
G01 X428.379 Y329.169
G01 X428.290 Y320.261
G01 X427.566 Y310.089
G01 X426.488 Y301.495
G01 X424.704 Y291.792
G01 X422.749 Y283.670
G01 X420.065 Y274.557
G01 X417.368 Y266.961
G01 X413.956 Y258.518
G01 X410.680 Y251.542
G01 X406.739 Y243.807
G01 X403.040 Y237.437
G01 X398.753 Y230.402
G01 X394.805 Y224.650
G01 X390.380 Y218.255
G01 X386.336 Y213.029
G01 X381.933 Y207.171
G01 X377.943 Y202.395
G01 X373.698 Y196.928
G01 X369.849 Y192.445
G01 X365.839 Y187.198
G01 X362.203 Y182.878
G01 X358.441 Y177.676
G01 X354.997 Y173.347
G01 X351.421 Y168.036
G01 X348.115 Y163.580
G01 X344.606 Y158.044
G01 X341.334 Y153.382
G01 X337.725 Y147.567
G01 X334.321 Y142.643
G01 X330.426 Y136.554
G01 X326.750 Y131.409
G01 X322.385 Y125.117
G01 X318.263 Y119.800
G01 X313.269 Y113.419
G01 X308.590 Y108.065
G01 X302.840 Y101.757
G01 X297.484 Y96.491
G01 X290.901 Y90.421
G01 X284.837 Y85.417
G01 X277.381 Y79.791
G01 X270.560 Y75.208
G01 X262.245 Y70.204
G01 X254.722 Y66.216
G01 X245.601 Y62.029
G01 X237.398 Y58.782
G01 X227.561 Y55.567
G01 X218.805 Y53.207
G01 X208.380 Y51.125
G01 X199.149 Y49.774
G01 X188.289 Y48.937
G01 X178.764 Y48.690
G01 X167.645 Y49.193
G01 X157.941 Y50.121
G01 X146.757 Y52.025
G01 X137.089 Y54.166
G01 X126.042 Y57.498
G01 X116.543 Y60.874
G01 X105.836 Y65.621
G01 X96.725 Y70.193
G01 X86.572 Y76.320
G01 X77.987 Y82.071
G01 X68.579 Y89.497
G01 X60.706 Y96.334
G01 X52.230 Y104.953
G01 X45.238 Y112.756
G01 X37.858 Y122.432
G01 X31.851 Y131.111
G01 X25.715 Y141.686
G01 X20.838 Y151.056
G01 X16.063 Y162.346
G01 X12.385 Y172.288
G01 X9.060 Y184.096
G01 X6.664 Y194.387
G01 X4.846 Y206.503
G01 X3.760 Y217.009
G01 X3.474 Y229.218
G01 X3.710 Y239.703
G01 X4.945 Y251.789
G01 X6.486 Y262.116
G01 X9.203 Y273.869
G01 X11.997 Y283.810
G01 X16.116 Y295.029
G01 X20.096 Y304.465
G01 X25.518 Y314.965
G01 X30.570 Y323.696
G01 X37.160 Y333.313
G01 X43.185 Y341.247
G01 X50.788 Y349.843
G01 X57.615 Y356.834
G01 X66.057 Y364.301
G01 X73.563 Y370.297
G01 X82.662 Y376.552
G01 X90.653 Y381.465
G01 X100.203 Y386.477
G01 X108.536 Y390.313
G01 X118.346 Y394.071
G01 X126.840 Y396.821
G01 X136.720 Y399.355
G01 X145.194 Y401.051
G01 X154.961 Y402.436
G01 X163.304 Y403.160
G01 X172.798 Y403.503
G01 X180.838 Y403.353
G01 X189.926 Y402.799
G01 X197.598 Y401.906
G01 X206.186 Y400.611
G01 X213.385 Y399.118
G01 X221.414 Y397.291
G01 X228.136 Y395.372
G01 X235.604 Y393.200
G01 X241.828 Y391.026
G01 X248.780 Y388.708
G01 X254.588 Y386.433
G01 X261.119 Y384.141
G01 X266.578 Y381.917
G01 X272.826 Y379.779
G01 X278.088 Y377.695
G01 X284.215 Y375.775
G01 X289.400 Y373.886
G01 X295.571 Y372.179
G01 X300.845 Y370.456
G01 X307.209 Y368.884
G01 X312.668 Y367.259
G01 X319.326 Y365.679
G01 X325.075 Y364.012
G01 X332.086 Y362.251
G01 X338.133 Y360.398
G01 X345.483 Y358.253
G01 X351.833 Y356.028
G01 X359.464 Y353.312
G01 X366.037 Y350.563
G01 X373.849 Y347.115
G01 X380.532 Y343.717
G01 X388.369 Y339.393
G01 X395.048 Y335.216
G01 X402.750 Y329.930
G01 X409.248 Y324.928
G01 X416.625 Y318.627
G01 X422.803 Y312.741
G01 X429.675 Y305.421
G01 X435.349 Y298.688
G01 X441.510 Y290.377
G01 X446.529 Y282.801
G01 X451.813 Y273.576
G01 X456.015 Y265.269
G01 X460.253 Y255.235
G01 X463.515 Y246.259
G01 X466.562 Y235.554
G01 X468.753 Y226.078
G01 X470.492 Y214.867
G01 X471.528 Y204.997
G01 X471.875 Y193.462
G01 X471.689 Y183.405
G01 X470.577 Y171.748
G01 X469.121 Y161.635
G01 X466.533 Y150.062
G01 X463.810 Y140.119
G01 X459.750 Y128.842
G01 X455.762 Y119.208
G01 X450.277 Y108.434
G01 X445.096 Y99.327
G01 X438.258 Y89.261
G01 X431.931 Y80.812
G01 X423.848 Y71.640
G01 X416.490 Y64.026
G01 X407.296 Y55.918
G01 X399.053 Y49.293
G01 X388.909 Y42.395
G01 X379.888 Y36.847
G01 X368.973 Y31.281
G01 X359.376 Y26.929
G01 X347.888 Y22.786
G01 X337.846 Y19.679
G01 X325.990 Y17.021
G01 X315.731 Y15.215
G01 X303.724 Y14.062
G01 X293.386 Y13.555
G01 X281.440 Y13.907
G01 X271.253 Y14.690
G01 X259.576 Y16.503
G01 X249.670 Y18.530
G01 X238.460 Y21.731
G01 X229.047 Y24.921
G01 X218.483 Y29.402
G01 X209.667 Y33.668
G01 X199.910 Y39.314
G01 X191.865 Y44.526
G01 X183.044 Y51.164
G01 X175.832 Y57.193
G01 X168.053 Y64.665
G01 X161.789 Y71.340
G01 X155.114 Y79.451
G01 X149.812 Y86.635
G01 X144.278 Y95.206
G01 X139.985 Y102.708
G01 X135.572 Y111.528
G01 X132.236 Y119.207
G01 X128.897 Y128.099
G01 X126.481 Y135.788
G01 X124.133 Y144.588
G01 X122.557 Y152.134
G01 X121.055 Y160.684
G01 X120.180 Y167.998
G01 X119.370 Y176.195
G01 X119.062 Y183.163
G01 X118.754 Y190.935
G01 X118.844 Y197.543
G01 X118.838 Y204.871
G01 X119.152 Y211.085
G01 X119.254 Y218.006
G01 X119.631 Y223.902
G01 X119.679 Y230.506
G01 X119.986 Y236.144
G01 X119.865 Y242.563
G01 X120.014 Y248.093
G01 X119.676 Y254.487
G01 X119.637 Y260.022
G01 X119.112 Y266.555
G01 X118.924 Y272.261
G01 X118.308 Y279.078
G01 X118.063 Y285.046
G01 X117.515 Y292.251
G01 X117.359 Y298.587
G01 X117.060 Y306.240
G01 X117.153 Y312.952
G01 X117.306 Y321.053
G01 X117.825 Y328.160
G01 X118.622 Y336.661
G01 X119.729 Y344.074
G01 X121.343 Y352.878
G01 X123.187 Y360.536
G01 X125.757 Y369.517
G01 X128.441 Y377.266
G01 X132.074 Y386.264
G01 X135.694 Y393.993
G01 X140.463 Y402.824
G01 X145.065 Y410.351
G01 X150.992 Y418.833
G01 X156.570 Y425.981
G01 X163.644 Y433.918
G01 X170.206 Y440.552
G01 X178.379 Y447.753
G01 X185.840 Y453.678
G01 X195.026 Y459.960
G01 X203.338 Y465.051
G01 X213.419 Y470.260
G01 X222.430 Y474.367
G01 X233.259 Y478.350
G01 X242.879 Y481.365
G01 X254.287 Y484.010
G01 X264.317 Y485.833
G01 X276.113 Y487.045
G01 X286.430 Y487.614
G01 X298.413 Y487.342
G01 X308.792 Y486.621
G01 X320.748 Y484.833
G01 X331.051 Y482.799
G01 X342.765 Y479.505
G01 X352.761 Y476.192
G01 X364.023 Y471.435
G01 X373.578 Y466.872
G01 X384.183 Y460.724
G01 X393.080 Y455.008
G01 X402.839 Y447.575
G01 X410.962 Y440.778
G01 X419.702 Y432.192
G01 X426.872 Y424.471
G01 X434.445 Y414.889
G01 X440.576 Y406.351
G01 X446.859 Y395.952
G01 X451.838 Y386.774
G01 X456.737 Y375.751
G01 X460.485 Y366.129
G01 X463.939 Y354.687
G01 X466.432 Y344.754
G01 X468.415 Y333.105
G01 X469.630 Y323.091
G01 X470.152 Y311.445
G01 X470.114 Y301.484
G01 X469.205 Y290.042
G01 X467.952 Y280.351
G01 X465.699 Y269.308
G01 X463.308 Y260.004
G01 X459.804 Y249.534
G01 X456.378 Y240.803
G01 X451.763 Y231.055
G01 X447.412 Y222.978
G01 X441.826 Y214.077
G01 X436.698 Y206.791
G01 X430.333 Y198.822
G01 X424.574 Y192.354
G01 X417.604 Y185.374
G01 X411.390 Y179.791
G01 X404.010 Y173.806
G01 X397.481 Y169.079
G01 X389.885 Y164.058
G01 X383.232 Y160.168
G01 X375.599 Y156.032
G01 X368.940 Y152.883
G01 X361.420 Y149.519
G01 X354.907 Y147.019
G01 X347.636 Y144.260
G01 X341.343 Y142.247
G01 X334.396 Y139.916
G01 X328.389 Y138.238
G01 X321.792 Y136.142
G01 X316.093 Y134.636
G01 X309.815 Y132.587
G01 X304.357 Y131.088
G01 X298.308 Y128.936
G01 X293.030 Y127.328
G01 X287.073 Y124.980
G01 X281.823 Y123.184
G01 X275.794 Y120.613
G01 X270.455 Y118.628
G01 X264.185 Y115.885
G01 X258.589 Y113.758
G01 X251.929 Y110.951
G01 X245.983 Y108.797
G01 X238.820 Y106.088
G01 X232.410 Y104.044
G01 X224.678 Y101.620
G01 X217.789 Y99.864
G01 X209.476 Y97.928
G01 X202.079 Y96.627
G01 X193.215 Y95.363
G01 X185.385 Y94.682
G01 X176.052 Y94.271
G01 X167.832 Y94.358
G01 X158.147 Y94.952
G01 X149.689 Y95.933
G01 X139.801 Y97.656
G01 X131.203 Y99.633
G01 X121.277 Y102.560
G01 X112.725 Y105.580
G01 X102.958 Y109.776
G01 X94.589 Y113.898
G01 X85.172 Y119.369
G01 X77.170 Y124.580
G01 X68.294 Y131.297
G01 X60.842 Y137.548
G01 X52.710 Y145.459
G01 X45.946 Y152.722
G01 X38.734 Y161.730
G01 X32.837 Y169.877
G01 X26.714 Y179.859
G01 X21.795 Y188.814
G01 X16.901 Y199.617
G01 X13.095 Y209.198
G01 X9.556 Y220.649
G01 X6.947 Y230.745
G01 X4.852 Y242.651
G01 X3.516 Y253.043
G01 X2.924 Y265.197
G01 X2.896 Y275.753
G01 X3.837 Y287.942
G01 X5.132 Y298.426
G01 X7.601 Y310.433
G01 X10.207 Y320.707
G01 X14.164 Y332.319
G01 X18.025 Y342.155
G01 X23.397 Y353.166
G01 X28.459 Y362.436
G01 X35.145 Y372.656
G01 X41.284 Y381.158
G01 X49.154 Y390.414
G01 X56.279 Y398.047
G01 X65.181 Y406.187
G01 X73.120 Y412.791
G01 X82.873 Y419.698
G01 X91.500 Y425.215
G01 X101.918 Y430.792
G01 X111.050 Y435.131
G01 X121.934 Y439.313
G01 X131.374 Y442.423
G01 X142.510 Y445.196
G01 X152.118 Y447.090
G01 X163.307 Y448.450
G01 X172.868 Y449.128
G01 X183.908 Y449.129
G01 X193.296 Y448.650
G01 X204.006 Y447.356
G01 X213.025 Y445.787
G01 X223.237 Y443.320
G01 X231.793 Y440.768
G01 X241.368 Y437.254
G01 X249.310 Y433.846
G01 X258.141 Y429.449
G01 X265.423 Y425.315
G01 X273.438 Y420.215
G01 X279.976 Y415.533
G01 X287.148 Y409.925
G01 X292.961 Y404.841
G01 X299.301 Y398.905
G01 X304.385 Y393.594
G01 X309.963 Y387.536
G01 X314.412 Y382.145
G01 X319.332 Y376.121
G01 X323.227 Y370.801
G01 X327.640 Y364.952
G01 X331.137 Y359.787
G01 X335.215 Y354.193
G01 X338.448 Y349.263
G01 X342.383 Y343.960
G01 X345.537 Y339.261
G01 X349.496 Y334.206
G01 X352.695 Y329.710
G01 X356.811 Y324.805
G01 X360.179 Y320.396
G01 X364.528 Y315.493
G01 X368.111 Y311.048
G01 X372.701 Y305.971
G01 X376.484 Y301.350
G01 X381.258 Y295.924
G01 X385.195 Y290.956
G01 X390.036 Y285.022
G01 X393.999 Y279.602
G01 X398.745 Y273.038
G01 X402.601 Y267.047
G01 X407.077 Y259.777
G01 X410.651 Y253.189
G01 X414.660 Y245.184
G01 X417.796 Y237.957
G01 X421.145 Y229.235
G01 X423.663 Y221.430
G01 X426.166 Y212.058
G01 X427.918 Y203.707
G01 X429.428 Y193.781
G01 X430.284 Y185.017
G01 X430.647 Y174.678
G01 X430.488 Y165.591
G01 X429.608 Y154.996
G01 X428.359 Y145.772
G01 X426.160 Y135.104
G01 X423.758 Y125.860
G01 X420.199 Y115.314
G01 X416.632 Y106.267
G01 X411.708 Y96.046
G01 X406.964 Y87.329
G01 X400.708 Y77.632
G01 X394.852 Y69.456
G01 X387.329 Y60.481
G01 X380.397 Y52.975
G01 X371.702 Y44.911
G01 X363.802 Y38.251
G01 X354.064 Y31.263
G01 X345.337 Y25.600
G01 X334.710 Y19.837
G01 X325.256 Y15.263
G01 X313.916 Y10.848
G01 X303.938 Y7.483
G01 X292.079 Y4.511
G01 X281.701 Y2.411
G01 X269.531 Y0.945
G01 X258.984 Y0.161
G01 X246.717 Y0.231
G01 X236.140 Y0.775
G01 X223.994 Y2.379
G01 X213.622 Y4.235
G01 X201.809 Y7.336
G01 X191.775 Y10.470
G01 X180.502 Y15.002
G01 X171.028 Y19.332
G01 X160.483 Y25.189
G01 X151.680 Y30.633
G01 X142.039 Y37.696
G01 X134.092 Y44.117
G01 X125.501 Y52.231
G01 X118.491 Y59.517
G01 X111.071 Y68.510
G01 X105.126 Y76.474
G01 X98.966 Y86.157
G01 X94.123 Y94.669
G01 X89.284 Y104.848
G01 X85.608 Y113.700
G01 X82.109 Y124.172
G01 X79.589 Y133.230
G01 X77.413 Y143.793
G01 X76.032 Y152.863
G01 X75.138 Y163.331
G01 X74.850 Y172.236
G01 X75.146 Y182.431
G01 X75.860 Y191.064
G01 X77.232 Y200.833
G01 X78.840 Y209.031
G01 X81.131 Y218.249
G01 X83.500 Y225.952
G01 X86.555 Y234.532
G01 X89.535 Y241.642
G01 X93.145 Y249.537
G01 X96.570 Y256.057
G01 X100.550 Y263.268
G01 X104.247 Y269.183
G01 X108.397 Y275.759
G01 X112.215 Y281.153
G01 X116.369 Y287.192
G01 X120.154 Y292.132
G01 X124.161 Y297.775
G01 X127.814 Y302.418
G01 X131.599 Y307.830
G01 X135.049 Y312.300
G01 X138.588 Y317.657
G01 X141.845 Y322.128
G01 X145.191 Y327.587
G01 X148.298 Y332.168
G01 X151.570 Y337.847
G01 X154.650 Y342.654
G01 X158.006 Y348.620
G01 X161.187 Y353.675
G01 X164.821 Y359.922
G01 X168.285 Y365.229
G01 X172.381 Y371.699
G01 X176.275 Y377.184
G01 X180.994 Y383.770
G01 X185.441 Y389.316
G01 X190.917 Y395.868
G01 X196.043 Y401.360
G01 X202.364 Y407.699
G01 X208.211 Y412.952
G01 X215.421 Y418.890
G01 X222.041 Y423.760
G01 X230.136 Y429.114
G01 X237.483 Y433.421
G01 X246.418 Y437.991
G01 X254.476 Y441.583
G01 X264.168 Y445.210
G01 X272.816 Y447.937
G01 X283.143 Y450.463
G01 X292.309 Y452.206
G01 X303.124 Y453.503
G01 X312.630 Y454.154
G01 X323.759 Y454.121
G01 X333.493 Y453.603
G01 X344.748 Y452.175
G01 X354.498 Y450.447
G01 X365.678 Y447.589
G01 X375.313 Y444.621
G01 X386.209 Y440.331
G01 X395.505 Y436.147
G01 X405.909 Y430.457
G01 X414.730 Y425.076
G01 X424.447 Y418.058
G01 X432.587 Y411.579
G01 X441.421 Y403.328
G01 X448.756 Y395.811
G01 X456.538 Y386.456
G01 X462.893 Y378.059
G01 X469.473 Y367.755
G01 X474.757 Y358.580
G01 X480.006 Y347.502
G01 X484.103 Y337.726
G01 X487.926 Y326.069
G01 X490.757 Y315.889
G01 X493.088 Y303.861
G01 X494.620 Y293.411
G01 X495.422 Y281.224
G01 X495.628 Y270.740
G01 X494.909 Y258.611
G01 X493.809 Y248.229
G01 X491.593 Y236.371
G01 X489.223 Y226.320
G01 X485.583 Y214.936
G01 X482.006 Y205.341
G01 X477.035 Y194.621
G01 X472.358 Y185.683
G01 X466.185 Y175.794
G01 X460.506 Y167.609
G01 X453.272 Y158.699
G01 X446.747 Y151.425
G01 X438.628 Y143.608
G01 X431.381 Y137.300
G01 X422.558 Y130.662
G01 X414.786 Y125.413
G01 X405.458 Y120.000
G01 X397.294 Y115.813
G01 X387.646 Y111.649
G01 X379.291 Y108.554
G01 X369.530 Y105.599
G01 X361.119 Y103.536
G01 X351.419 Y101.738
G01 X343.135 Y100.662
G01 X333.664 Y99.916
G01 X325.605 Y99.725
G01 X316.502 Y99.893
G01 X308.799 Y100.460
G01 X300.166 Y101.384
G01 X292.912 Y102.565
G01 X284.812 Y104.050
G01 X278.014 Y105.681
G01 X270.460 Y107.539
G01 X264.149 Y109.450
G01 X257.105 Y111.469
G01 X251.206 Y113.493
G01 X244.583 Y115.507
G01 X239.035 Y117.498
G01 X232.702 Y119.370
G01 X227.356 Y121.228
G01 X221.153 Y122.886
G01 X215.893 Y124.554
G01 X209.655 Y125.997
G01 X204.312 Y127.495
G01 X197.888 Y128.795
G01 X192.364 Y130.187
G01 X185.644 Y131.482
G01 X179.829 Y132.903
G01 X172.752 Y134.367
G01 X166.633 Y135.964
G01 X159.199 Y137.796
G01 X152.762 Y139.750
G01 X145.016 Y142.134
G01 X138.343 Y144.590
G01 X130.397 Y147.708
G01 X123.565 Y150.830
G01 X115.548 Y154.815
G01 X108.713 Y158.694
G01 X100.791 Y163.647
G01 X94.070 Y168.379
G01 X86.433 Y174.362
G01 X80.011 Y179.981
G01 X72.839 Y187.005
G01 X66.888 Y193.492
G01 X60.376 Y201.532
G01 X55.035 Y208.887
G01 X49.365 Y217.881
G01 X44.816 Y226.002
G01 X40.160 Y235.848
G01 X36.524 Y244.678
G01 X33.023 Y255.243
G01 X30.431 Y264.617
G01 X28.215 Y275.744
G01 X26.760 Y285.562
G01 X25.926 Y297.071
G01 X25.688 Y307.126
G01 X26.303 Y318.820
G01 X27.329 Y328.986
G01 X29.421 Y340.660
G01 X31.717 Y350.710
G01 X35.296 Y362.149
G01 X38.871 Y371.944
G01 X43.895 Y382.940
G01 X48.686 Y392.258
G01 X55.091 Y402.605
G01 X61.055 Y411.314
G01 X68.740 Y420.822
G01 X75.750 Y428.724
G01 X84.591 Y437.215
G01 X92.564 Y444.201
G01 X102.406 Y451.523
G01 X111.163 Y457.436
G01 X121.832 Y463.460
G01 X131.257 Y468.226
G01 X142.559 Y472.854
G01 X152.459 Y476.386
G01 X164.191 Y479.546
G01 X174.364 Y481.786
G01 X186.312 Y483.446
G01 X196.620 Y484.388
G01 X208.570 Y484.544
G01 X218.781 Y484.193
G01 X230.524 Y482.882
G01 X240.507 Y481.280
G01 X251.843 Y478.557
G01 X261.383 Y475.768
G01 X272.128 Y471.735
G01 X281.116 Y467.844
G01 X291.104 Y462.622
G01 X299.364 Y457.761
G01 X308.459 Y451.503
G01 X315.921 Y445.785
G01 X324.008 Y438.645
G01 X330.548 Y432.238
G01 X337.561 Y424.417
G01 X343.163 Y417.465
G01 X349.058 Y409.142
G01 X353.668 Y401.832
G01 X358.449 Y393.203
G01 X362.104 Y385.669
G01 X365.814 Y376.923
G01 X368.545 Y369.359
G01 X371.272 Y360.673
G01 X373.178 Y353.188
G01 X375.039 Y344.707
G01 X376.219 Y337.452
G01 X377.376 Y329.297
G01 X377.982 Y322.332
G01 X378.621 Y314.582
G01 X378.814 Y307.977
G01 X379.130 Y300.655
G01 X379.079 Y294.432
G01 X379.270 Y287.513
G01 X379.141 Y281.606
G01 X379.374 Y275.006
G01 X379.306 Y269.360
G01 X379.701 Y262.952
G01 X379.788 Y257.422
G01 X380.399 Y251.047
G01 X380.673 Y245.519
G01 X381.475 Y239.014
G01 X381.905 Y233.321
G01 X382.809 Y226.536
G01 X383.306 Y220.585
G01 X384.158 Y213.409
G01 X384.581 Y207.086
G01 X385.207 Y199.452
G01 X385.401 Y192.741
G01 X385.588 Y184.642
G01 X385.368 Y177.521
G01 X384.934 Y168.994
G01 X384.144 Y161.541
G01 X382.908 Y152.674
G01 X381.393 Y144.942
G01 X379.206 Y135.859
G01 X376.854 Y128.004
G01 X373.602 Y118.863
G01 X370.310 Y110.991
G01 X365.926 Y101.958
G01 X361.664 Y94.253
G01 X356.100 Y85.531
G01 X350.816 Y78.138
G01 X344.085 Y69.909
G01 X337.825 Y63.019
G01 X329.965 Y55.481
G01 X322.744 Y49.232
G01 X313.834 Y42.562
G01 X305.747 Y37.118
G01 X295.896 Y31.490
G01 X287.066 Y27.007
G01 X276.415 Y22.569
G01 X266.932 Y19.148
G01 X255.647 Y16.019
G01 X245.704 Y13.769
G01 X233.969 Y12.058
G01 X223.686 Y11.052
G01 X211.702 Y10.817
G01 X201.303 Y11.100
G01 X189.282 Y12.379
G01 X178.902 Y13.973
G01 X167.057 Y16.765
G01 X156.929 Y19.649
G01 X145.476 Y23.925
G01 X135.736 Y28.079
G01 X124.880 Y33.772
G01 X115.749 Y39.105
G01 X105.683 Y46.118
G01 X97.279 Y52.563
G01 X88.183 Y60.771
G01 X80.691 Y68.181
G01 X72.719 Y77.432
G01 X66.231 Y85.703
G01 X59.514 Y95.828
G01 X54.165 Y104.766
G01 X48.800 Y115.569
G01 X44.635 Y125.045
G01 X40.698 Y136.329
G01 X37.792 Y146.124
G01 X35.313 Y157.678
G01 X33.668 Y167.654
G01 X32.654 Y179.268
G01 X32.271 Y189.223
G01 X32.691 Y200.692
G01 X33.530 Y210.427
G01 X35.311 Y221.555
G01 X37.304 Y230.953
G01 X40.364 Y241.563
G01 X43.420 Y250.431
G01 X47.619 Y260.366
G01 X51.624 Y268.620
G01 X56.823 Y277.750
G01 X61.632 Y285.249
G01 X67.658 Y293.479
G01 X73.142 Y300.184
G01 X79.810 Y307.454
G01 X85.781 Y313.296
G01 X92.895 Y319.590
G01 X99.214 Y324.592
G01 X106.591 Y329.930
G01 X113.074 Y334.098
G01 X120.527 Y338.553
G01 X127.048 Y341.981
G01 X134.415 Y345.664
G01 X140.814 Y348.440
G01 X147.962 Y351.504
G01 X154.165 Y353.782
G01 X161.010 Y356.402
G01 X166.929 Y358.325
G01 X173.430 Y360.702
G01 X179.071 Y362.455
G01 X185.257 Y364.767
G01 X190.634 Y366.493
G01 X196.586 Y368.900
G01 X201.803 Y370.736
G01 X207.655 Y373.334
G01 X212.824 Y375.351
G01 X218.739 Y378.176
G01 X223.989 Y380.386
G01 X230.137 Y383.391
G01 X235.637 Y385.752
G01 X242.172 Y388.842
G01 X248.021 Y391.249
G01 X255.062 Y394.256
G01 X261.380 Y396.566
G01 X269.002 Y399.317
G01 X275.810 Y401.365
G01 X284.035 Y403.656
G01 X291.371 Y405.273
G01 X300.173 Y406.912
G01 X307.968 Y407.925
G01 X317.273 Y408.727
G01 X325.487 Y408.984
G01 X335.191 Y408.806
G01 X343.685 Y408.189
G01 X353.637 Y406.888
G01 X362.312 Y405.277
G01 X372.350 Y402.769
G01 X381.020 Y400.111
G01 X390.955 Y396.334
G01 X399.492 Y392.571
G01 X409.140 Y387.511
G01 X417.343 Y382.661
G01 X426.490 Y376.323
G01 X434.214 Y370.377
G01 X442.677 Y362.820
G01 X449.729 Y355.868
G01 X457.317 Y347.175
G01 X463.570 Y339.267
G01 X470.111 Y329.554
G01 X475.405 Y320.815
G01 X480.752 Y310.230
G01 X484.960 Y300.819
G01 X488.980 Y289.528
G01 X492.015 Y279.552
G01 X494.616 Y267.746
G01 X496.393 Y257.420
G01 X497.498 Y245.301
G01 X497.972 Y234.757
G01 X497.550 Y222.538
G01 X496.702 Y212.009
G01 X494.746 Y199.908
G01 X492.577 Y189.532
G01 X489.117 Y177.763
G01 X485.677 Y167.772
G01 X480.778 Y156.542
G01 X476.115 Y147.065
G01 X469.866 Y136.572
G01 X464.092 Y127.819
G01 X456.623 Y118.236
G01 X449.829 Y110.307
G01 X441.281 Y101.796
G01 X433.631 Y94.860
G01 X424.180 Y87.545
G01 X415.794 Y81.668
G01 X405.619 Y75.657
G01 X396.698 Y70.949
G01 X386.005 Y66.303
G01 X376.686 Y62.783
G01 X365.676 Y59.543
G01 X356.178 Y57.250
G01 X345.058 Y55.414
G01 X335.512 Y54.326
G01 X324.482 Y53.857
G01 X315.082 Y53.937
G01 X304.328 Y54.774
G01 X295.250 Y55.956
G01 X284.943 Y57.990
G01 X276.286 Y60.179
G01 X266.570 Y63.285
G01 X258.491 Y66.354
G01 X249.482 Y70.367
G01 X242.030 Y74.183
G01 X233.806 Y78.939
G01 X227.075 Y83.339
G01 X219.672 Y88.643
G01 X213.649 Y93.481
G01 X207.062 Y99.137
G01 X201.756 Y104.223
G01 X195.926 Y110.040
G01 X191.252 Y115.239
G01 X186.083 Y121.051
G01 X181.968 Y126.204
G01 X177.310 Y131.860
G01 X173.597 Y136.871
G01 X169.284 Y142.285
G01 X165.842 Y147.071
G01 X161.687 Y152.203
G01 X158.337 Y156.765
G01 X154.167 Y161.647
G01 X150.780 Y166.004
G01 X146.460 Y170.729
G01 X142.908 Y174.992
G01 X138.354 Y179.706
G01 X134.595 Y183.985
G01 X129.792 Y188.861
G01 X125.807 Y193.328
G01 X120.807 Y198.547
G01 X116.672 Y203.332
G01 X111.586 Y209.055
G01 X107.390 Y214.314
G01 X102.365 Y220.670
G01 X98.255 Y226.492
G01 X93.475 Y233.566
G01 X89.624 Y239.996
G01 X85.283 Y247.824
G01 X81.847 Y254.912
G01 X78.127 Y263.483
G01 X75.278 Y271.175
G01 X72.378 Y280.433
G01 X70.272 Y288.703
G01 X68.347 Y298.555
G01 X67.124 Y307.273
G01 X66.323 Y317.587
G01 X66.098 Y326.671
G01 X66.522 Y337.296
G01 X67.375 Y346.568
G01 X69.122 Y357.318
G01 X71.132 Y366.653
G01 X74.241 Y377.340
G01 X77.421 Y386.531
G01 X81.905 Y396.953
G01 X86.272 Y405.866
G01 X92.111 Y415.819
G01 X97.615 Y424.237
G01 X104.753 Y433.520
G01 X111.361 Y441.312
G01 X119.705 Y449.740
G01 X127.296 Y456.715
G01 X136.727 Y464.111
G01 X145.225 Y470.155
G01 X155.598 Y476.364
G01 X164.827 Y481.323
G01 X175.970 Y486.214
G01 X185.820 Y490.007
G01 X197.542 Y493.481
G01 X207.821 Y496.020
G01 X219.918 Y498.002
G01 X230.421 Y499.232
G01 X242.674 Y499.893
G01 X253.276 Y499.979
G01 X265.525 Y499.302
G01 X276.037 Y498.238
G01 X288.088 Y496.024
G01 X298.376 Y493.641
G01 X310.013 Y489.936
G01 X319.847 Y486.298
G01 X330.868 Y481.186
G01 X340.123 Y476.359
G01 X350.337 Y469.944
G01 X358.812 Y464.050
G01 X368.053 Y456.474
G01 X375.652 Y449.615
G01 X383.775 Y441.039
G01 X390.347 Y433.395
G01 X397.242 Y424.000
G01 X402.732 Y415.697
G01 X408.308 Y405.672
G01 X412.625 Y396.916
G01 X416.845 Y386.475
G01 X419.988 Y377.408
G01 X422.831 Y366.750
G01 X424.778 Y357.588
G01 X426.273 Y346.918
G01 X427.068 Y337.792
G01 X427.277 Y327.304
G01 X426.980 Y318.418
G01 X426.002 Y308.287
G01 X424.706 Y299.744
G01 X422.666 Y290.120
G01 X420.489 Y282.062
G01 X417.537 Y273.064
G01 X414.620 Y265.601
G01 X410.956 Y257.313
G01 X407.462 Y250.471
G01 X403.274 Y242.930
G01 X399.382 Y236.759
G01 X394.884 Y229.952
G01 X390.756 Y224.400
G01 X386.150 Y218.265
G01 X381.974 Y213.289
G01 X377.448 Y207.709
G01 X373.356 Y203.172
G01 X369.043 Y197.991
G01 X365.159 Y193.773
G01 X361.156 Y188.799
G01 X357.529 Y184.707
G01 X353.840 Y179.750
G01 X350.477 Y175.641
G01 X347.039 Y170.529
G01 X343.858 Y166.240
G01 X340.537 Y160.847
G01 X337.429 Y156.299
G01 X334.038 Y150.570
G01 X330.822 Y145.709
G01 X327.158 Y139.650
G01 X323.676 Y134.518
G01 X319.540 Y128.206
G01 X315.608 Y122.860
G01 X310.825 Y116.424
G01 X306.319 Y111.012
G01 X300.757 Y104.620
G01 X295.552 Y99.273
G01 X289.127 Y93.106
G01 X283.174 Y87.999
G01 X275.849 Y82.261
G01 X269.145 Y77.585
G01 X260.931 Y72.477
G01 X253.467 Y68.386
G01 X244.421 Y64.089
G01 X236.291 Y60.753
G01 X226.508 Y57.446
G01 X217.768 Y55.001
G01 X207.377 Y52.833
G01 X198.188 Y51.413
G01 X187.349 Y50.510
G01 X177.814 Y50.208
G01 X166.703 Y50.655
G01 X157.023 Y51.534
G01 X145.844 Y53.405
G01 X136.155 Y55.525
G01 X125.109 Y58.834
G01 X115.630 Y62.185
G01 X104.929 Y66.926
G01 X95.800 Y71.508
G01 X85.654 Y77.640
G01 X77.095 Y83.382
G01 X67.706 Y90.826
G01 X59.849 Y97.679
G01 X51.400 Y106.321
G01 X44.431 Y114.144
G01 X37.093 Y123.850
G01 X31.122 Y132.554
G01 X25.040 Y143.159
G01 X20.211 Y152.553
G01 X15.504 Y163.871
G01 X11.885 Y173.835
G01 X8.643 Y185.666
G01 X6.320 Y195.973
G01 X4.597 Y208.103
G01 X3.593 Y218.616
G01 X3.414 Y230.827
G01 X3.745 Y241.332
G01 X5.102 Y253.405
G01 X6.745 Y263.689
G01 X9.589 Y275.410
G01 X12.497 Y285.341
G01 X16.753 Y296.506
G01 X20.839 Y305.865
G01 X26.395 Y316.289
G01 X31.572 Y324.968
G01 X38.302 Y334.482
G01 X44.426 Y342.302
G01 X52.159 Y350.771
G01 X59.107 Y357.661
G01 X67.673 Y364.972
G01 X75.260 Y370.812
G01 X84.466 Y376.889
G01 X92.557 Y381.651
G01 X102.201 Y386.453
G01 X110.584 Y390.092
G01 X120.463 Y393.619
G01 X129.002 Y396.163
G01 X138.925 Y398.443
G01 X147.419 Y399.916
G01 X157.196 Y401.030
G01 X165.530 Y401.517
G01 X174.998 Y401.575
G01 X182.999 Y401.178
G01 X192.022 Y400.332
G01 X199.619 Y399.188
G01 X208.100 Y397.604
G01 X215.187 Y395.866
G01 X223.068 Y393.763
G01 X229.642 Y391.612
G01 X236.920 Y389.193
G01 X242.978 Y386.807
G01 X249.706 Y384.278
G01 X255.292 Y381.836
G01 X261.574 Y379.394
G01 X266.819 Y377.047
G01 X272.805 Y374.824
G01 X277.824 Y372.684
G01 X283.695 Y370.758
G01 X288.670 Y368.868
G01 X294.609 Y367.229
G01 X299.674 Y365.577
G01 X305.840 Y364.136
G01 X311.150 Y362.625
G01 X317.660 Y361.226
G01 X323.278 Y359.723
G01 X330.186 Y358.169
G01 X336.171 Y356.490
G01 X343.468 Y354.568
G01 X349.771 Y352.538
G01 X357.390 Y350.041
G01 X363.964 Y347.476
G01 X371.797 Y344.233
G01 X378.508 Y341.003
G01 X386.390 Y336.863
G01 X393.117 Y332.834
G01 X400.882 Y327.707
G01 X407.443 Y322.832
G01 X414.892 Y316.662
G01 X421.139 Y310.880
G01 X428.086 Y303.665
G01 X433.831 Y297.013
G01 X440.066 Y288.783
G01 X445.153 Y281.269
G01 X450.500 Y272.101
G01 X454.767 Y263.817
G01 X459.067 Y253.824
G01 X462.376 Y244.897
G01 X465.468 Y234.219
G01 X467.702 Y224.738
G01 X469.475 Y213.542
G01 X470.538 Y203.703
G01 X470.903 Y192.178
G01 X470.730 Y182.101
G01 X469.625 Y170.450
G01 X468.176 Y160.362
G01 X465.577 Y148.797
G01 X462.836 Y138.837
G01 X458.756 Y127.571
G01 X454.760 Y117.967
G01 X449.242 Y107.213
G01 X444.020 Y98.103
G01 X437.141 Y88.066
G01 X430.795 Y79.663
G01 X422.665 Y70.533
G01 X415.269 Y62.957
G01 X406.027 Y54.904
G01 X397.745 Y48.328
G01 X387.552 Y41.502
G01 X378.492 Y36.017
G01 X367.534 Y30.538
G01 X357.904 Y26.263
G01 X346.380 Y22.222
G01 X336.312 Y19.204
G01 X324.431 Y16.664
G01 X314.157 Y14.961
G01 X302.140 Y13.941
G01 X291.800 Y13.549
G01 X279.861 Y14.042
G01 X269.666 Y14.949
G01 X258.018 Y16.918
G01 X248.169 Y19.075
G01 X237.011 Y22.434
G01 X227.631 Y25.765
G01 X217.147 Y30.418
G01 X208.431 Y34.816
G01 X198.780 Y40.622
G01 X190.818 Y45.978
G01 X182.136 Y52.783
G01 X175.071 Y58.932
G01 X167.457 Y66.552
G01 X161.331 Y73.361
G01 X154.857 Y81.616
G01 X149.750 Y88.894
G01 X144.441 Y97.581
G01 X140.340 Y105.188
G01 X136.185 Y114.108
G01 X133.088 Y121.839
G01 X130.028 Y130.797
G01 X127.859 Y138.526
G01 X125.808 Y147.358
G01 X124.493 Y154.912
G01 X123.299 Y163.453
G01 X122.693 Y170.739
G01 X122.193 Y178.882
G01 X122.151 Y185.784
G01 X122.141 Y193.456
G01 X122.485 Y199.959
G01 X122.748 Y207.140
G01 X123.290 Y213.211
G01 X123.614 Y219.943
G01 X124.177 Y225.662
G01 X124.385 Y232.044
G01 X124.823 Y237.495
G01 X124.789 Y243.674
G01 X125.004 Y248.979
G01 X124.676 Y255.131
G01 X124.637 Y260.471
G01 X124.049 Y266.776
G01 X123.799 Y272.278
G01 X123.060 Y278.896
G01 X122.704 Y284.714
G01 X121.987 Y291.758
G01 X121.682 Y297.952
G01 X121.194 Y305.481
G01 X121.124 Y312.116
G01 X121.069 Y320.137
G01 X121.410 Y327.173
G01 X122.010 Y335.626
G01 X122.953 Y343.028
G01 X124.377 Y351.819
G01 X126.058 Y359.460
G01 X128.462 Y368.447
G01 X131.014 Y376.230
G01 X134.497 Y385.259
G01 X137.986 Y393.005
G01 X142.632 Y401.874
G01 X147.134 Y409.442
G01 X152.961 Y417.969
G01 X158.460 Y425.163
G01 X165.456 Y433.145
G01 X171.958 Y439.823
G01 X180.074 Y447.066
G01 X187.492 Y453.031
G01 X196.639 Y459.349
G01 X204.922 Y464.474
G01 X214.977 Y469.710
G01 X223.971 Y473.842
G01 X234.786 Y477.839
G01 X244.397 Y480.867
G01 X255.797 Y483.511
G01 X265.847 Y485.337
G01 X277.640 Y486.542
G01 X287.932 Y487.103
G01 X299.910 Y486.805
G01 X310.309 Y486.058
G01 X322.257 Y484.233
G01 X332.529 Y482.173
G01 X344.229 Y478.832
G01 X354.234 Y475.469
G01 X365.472 Y470.656
G01 X374.981 Y466.055
G01 X385.548 Y459.843
G01 X394.431 Y454.058
G01 X404.137 Y446.557
G01 X412.193 Y439.720
G01 X420.864 Y431.064
G01 X427.988 Y423.268
G01 X435.473 Y413.618
G01 X441.511 Y405.045
G01 X447.691 Y394.586
G01 X452.578 Y385.362
G01 X457.354 Y374.287
G01 X460.994 Y364.627
G01 X464.310 Y353.147
G01 X466.681 Y343.189
G01 X468.508 Y331.518
G01 X469.587 Y321.494
G01 X469.939 Y309.847
G01 X469.755 Y299.894
G01 X468.664 Y288.475
G01 X467.255 Y278.815
G01 X464.813 Y267.822
G01 X462.262 Y258.572
G01 X458.566 Y248.180
G01 X454.969 Y239.509
G01 X450.152 Y229.872
G01 X445.643 Y221.923
G01 X439.867 Y213.165
G01 X434.570 Y205.997
G01 X428.015 Y198.208
G01 X422.115 Y191.922
G01 X414.978 Y185.151
G01 X408.616 Y179.748
G01 X401.082 Y174.009
G01 X394.449 Y169.516
G01 X386.731 Y164.766
G01 X379.974 Y161.111
G01 X372.249 Y157.273
G01 X365.543 Y154.397
G01 X357.980 Y151.340
G01 X351.431 Y149.107
G01 X344.159 Y146.665
G01 X337.897 Y144.934
G01 X331.005 Y142.904
G01 X325.062 Y141.487
G01 X318.573 Y139.663
G01 X312.982 Y138.389
G01 X306.864 Y136.563
G01 X301.555 Y135.250
G01 X295.706 Y133.258
G01 X290.607 Y131.779
G01 X284.876 Y129.517
G01 X279.824 Y127.786
G01 X274.031 Y125.228
G01 X268.892 Y123.245
G01 X262.851 Y120.448
G01 X257.445 Y118.265
G01 X250.992 Y115.355
G01 X245.201 Y113.099
G01 X238.214 Y110.243
G01 X231.958 Y108.072
G01 X224.370 Y105.485
G01 X217.574 Y103.580
G01 X209.366 Y101.465
G01 X202.063 Y100.012
G01 X193.276 Y98.579
G01 X185.479 Y97.752
G01 X176.190 Y97.173
G01 X168.014 Y97.119
G01 X158.352 Y97.568
G01 X149.884 Y98.430
G01 X139.996 Y100.021
G01 X131.409 Y101.884
G01 X121.476 Y104.706
G01 X112.890 Y107.647
G01 X103.100 Y111.752
G01 X94.725 Y115.791
G01 X85.286 Y121.194
G01 X77.261 Y126.353
G01 X68.362 Y133.020
G01 X60.887 Y139.232
G01 X52.739 Y147.111
G01 X45.959 Y154.351
G01 X38.736 Y163.340
G01 X32.828 Y171.475
G01 X26.704 Y181.448
G01 X21.784 Y190.399
G01 X16.901 Y201.201
G01 X13.104 Y210.784
G01 X9.589 Y222.238
G01 X7.001 Y232.338
G01 X4.944 Y244.248
G01 X3.639 Y254.668
G01 X3.097 Y266.824
G01 X3.113 Y277.354
G01 X4.116 Y289.538
G01 X5.467 Y300.039
G01 X8.009 Y312.031
G01 X10.672 Y322.265
G01 X14.709 Y333.849
G01 X18.647 Y343.681
G01 X24.109 Y354.648
G01 X29.232 Y363.855
G01 X36.010 Y374.014
G01 X42.239 Y382.479
G01 X50.201 Y391.655
G01 X57.384 Y399.196
G01 X66.372 Y407.239
G01 X74.398 Y413.769
G01 X84.234 Y420.554
G01 X92.906 Y425.947
G01 X103.394 Y431.383
G01 X112.578 Y435.597
G01 X123.516 Y439.619
G01 X132.994 Y442.588
G01 X144.166 Y445.180
G01 X153.796 Y446.916
G01 X164.998 Y448.080
G01 X174.559 Y448.588
G01 X185.586 Y448.379
G01 X194.949 Y447.719
G01 X205.618 Y446.201
G01 X214.587 Y444.442
G01 X224.724 Y441.746
G01 X233.201 Y439.000
G01 X242.667 Y435.254
G01 X250.500 Y431.652
G01 X259.185 Y427.026
G01 X266.326 Y422.703
G01 X274.158 Y417.386
G01 X280.539 Y412.515
G01 X287.490 Y406.698
G01 X293.085 Y401.456
G01 X299.175 Y395.347
G01 X304.040 Y389.887
G01 X309.336 Y383.683
G01 X313.521 Y378.193
G01 X318.145 Y372.074
G01 X321.783 Y366.674
G01 X325.890 Y360.777
G01 X329.109 Y355.600
G01 X332.898 Y350.025
G01 X335.887 Y345.117
G01 X339.558 Y339.892
G01 X342.479 Y335.284
G01 X346.223 Y330.368
G01 X349.249 Y325.991
G01 X353.212 Y321.274
G01 X356.448 Y317.041
G01 X360.710 Y312.357
G01 X364.227 Y308.102
G01 X368.797 Y303.259
G01 X372.572 Y298.836
G01 X377.381 Y293.640
G01 X381.359 Y288.863
G01 X386.281 Y283.142
G01 X390.321 Y277.897
G01 X395.182 Y271.520
G01 X399.143 Y265.680
G01 X403.752 Y258.567
G01 X407.446 Y252.101
G01 X411.596 Y244.222
G01 X414.858 Y237.090
G01 X418.343 Y228.464
G01 X420.984 Y220.710
G01 X423.626 Y211.403
G01 X425.493 Y203.117
G01 X427.119 Y193.236
G01 X428.077 Y184.481
G01 X428.550 Y174.165
G01 X428.483 Y165.110
G01 X427.691 Y154.527
G01 X426.510 Y145.283
G01 X424.385 Y134.613
G01 X422.048 Y125.384
G01 X418.541 Y114.835
G01 X415.005 Y105.759
G01 X410.120 Y95.530
G01 X405.417 Y86.822
G01 X399.180 Y77.124
G01 X393.323 Y68.925
G01 X385.808 Y59.952
G01 X378.897 Y52.462
G01 X370.199 Y44.409
G01 X362.294 Y37.758
G01 X352.545 Y30.792
G01 X343.808 Y25.146
G01 X333.166 Y19.416
G01 X323.699 Y14.872
G01 X312.342 Y10.505
G01 X302.350 Y7.182
G01 X290.477 Y4.270
G01 X280.089 Y2.223
G01 X267.910 Y0.829
G01 X257.360 Y0.108
G01 X245.093 Y0.264
G01 X234.521 Y0.883
G01 X222.387 Y2.582
G01 X212.007 Y4.525
G01 X200.223 Y7.732
G01 X190.243 Y10.948
G01 X179.016 Y15.591
G01 X169.564 Y20.023
G01 X159.088 Y25.999
G01 X150.370 Y31.527
G01 X140.815 Y38.702
G01 X132.931 Y45.230
G01 X124.454 Y53.458
G01 X117.564 Y60.819
G01 X110.278 Y69.912
G01 X104.440 Y77.975
G01 X98.441 Y87.751
G01 X93.754 Y96.314
G01 X89.094 Y106.566
G01 X85.570 Y115.491
G01 X82.279 Y126.021
G01 X79.947 Y135.093
G01 X77.997 Y145.688
G01 X76.813 Y154.770
G01 X76.160 Y165.241
G01 X76.080 Y174.132
G01 X76.632 Y184.298
G01 X77.567 Y192.888
G01 X79.200 Y202.592
G01 X81.032 Y210.715
G01 X83.590 Y219.830
G01 X86.186 Y227.426
G01 X89.503 Y235.864
G01 X92.703 Y242.832
G01 X96.562 Y250.544
G01 X100.193 Y256.890
G01 X104.396 Y263.881
G01 X108.282 Y269.604
G01 X112.623 Y275.929
G01 X116.584 Y281.078
G01 X120.873 Y286.844
G01 X124.770 Y291.550
G01 X128.857 Y296.910
G01 X132.557 Y301.291
G01 X136.346 Y306.430
G01 X139.797 Y310.671
G01 X143.273 Y315.780
G01 X146.458 Y320.028
G01 X149.675 Y325.282
G01 X152.671 Y329.703
G01 X155.761 Y335.231
G01 X158.673 Y339.906
G01 X161.818 Y345.775
G01 X164.824 Y350.769
G01 X168.226 Y356.979
G01 X171.487 Y362.255
G01 X175.353 Y368.734
G01 X179.057 Y374.239
G01 X183.563 Y380.873
G01 X187.835 Y386.471
G01 X193.119 Y393.097
G01 X198.091 Y398.663
G01 X204.249 Y405.098
G01 X209.965 Y410.441
G01 X217.041 Y416.481
G01 X223.556 Y421.445
G01 X231.544 Y426.906
G01 X238.811 Y431.308
G01 X247.666 Y435.979
G01 X255.666 Y439.660
G01 X265.299 Y443.376
G01 X273.928 Y446.186
G01 X284.218 Y448.798
G01 X293.339 Y450.612
G01 X304.130 Y451.973
G01 X313.644 Y452.680
G01 X324.762 Y452.700
G01 X334.469 Y452.228
G01 X345.718 Y450.835
G01 X355.489 Y449.129
G01 X366.667 Y446.294
G01 X376.280 Y443.350
G01 X387.171 Y439.065
G01 X396.485 Y434.873
G01 X406.882 Y429.177
G01 X415.677 Y423.803
G01 X425.375 Y416.767
G01 X433.518 Y410.255
G01 X442.326 Y401.979
G01 X449.621 Y394.458
G01 X457.363 Y385.072
G01 X463.697 Y376.629
G01 X470.223 Y366.291
G01 X475.447 Y357.110
G01 X480.630 Y346.002
G01 X484.669 Y336.201
G01 X488.409 Y324.518
G01 X491.168 Y314.319
G01 X493.404 Y302.273
G01 X494.853 Y291.812
G01 X495.547 Y279.619
G01 X495.661 Y269.134
G01 X494.821 Y257.015
G01 X493.617 Y246.646
G01 X491.272 Y234.815
G01 X488.793 Y224.794
G01 X485.016 Y213.457
G01 X481.323 Y203.910
G01 X476.214 Y193.260
G01 X471.410 Y184.370
G01 X465.093 Y174.577
G01 X459.308 Y166.504
G01 X451.943 Y157.713
G01 X445.294 Y150.535
G01 X437.041 Y142.869
G01 X429.705 Y136.715
G01 X420.769 Y130.251
G01 X412.890 Y125.147
G01 X403.458 Y119.941
G01 X395.237 Y115.949
G01 X385.514 Y112.009
G01 X377.088 Y109.107
G01 X367.272 Y106.407
G01 X358.849 Y104.574
G01 X349.130 Y103.043
G01 X340.826 Y102.199
G01 X331.366 Y101.745
G01 X323.354 Y101.806
G01 X314.304 Y102.267
G01 X306.666 Y103.087
G01 X298.126 Y104.306
G01 X290.973 Y105.738
G01 X283.010 Y107.506
G01 X276.349 Y109.377
G01 X268.974 Y111.492
G01 X262.834 Y113.618
G01 X256.006 Y115.855
G01 X250.307 Y118.058
G01 X243.928 Y120.234
G01 X238.600 Y122.353
G01 X232.524 Y124.318
G01 X227.407 Y126.245
G01 X221.460 Y127.921
G01 X216.409 Y129.598
G01 X210.406 Y130.984
G01 X205.275 Y132.419
G01 X199.053 Y133.598
G01 X193.684 Y134.882
G01 X187.120 Y136.001
G01 X181.443 Y137.264
G01 X174.477 Y138.525
G01 X168.427 Y139.951
G01 X161.055 Y141.562
G01 X154.672 Y143.322
G01 X146.952 Y145.491
G01 X140.273 Y147.774
G01 X132.313 Y150.685
G01 X125.473 Y153.628
G01 X117.422 Y157.430
G01 X110.529 Y161.168
G01 X102.550 Y165.960
G01 X95.785 Y170.550
G01 X88.081 Y176.399
G01 X81.594 Y181.910
G01 X74.352 Y188.826
G01 X68.334 Y195.229
G01 X61.750 Y203.186
G01 X56.344 Y210.477
G01 X50.609 Y219.409
G01 X46.001 Y227.485
G01 X41.288 Y237.287
G01 X37.601 Y246.086
G01 X34.056 Y256.624
G01 X31.426 Y265.979
G01 X29.176 Y277.089
G01 X27.691 Y286.898
G01 X26.843 Y298.396
G01 X26.592 Y308.470
G01 X27.201 Y320.158
G01 X28.219 Y330.298
G01 X30.323 Y341.964
G01 X32.636 Y352.032
G01 X36.235 Y363.461
G01 X39.820 Y373.226
G01 X44.878 Y384.203
G01 X49.711 Y393.526
G01 X56.156 Y403.846
G01 X62.140 Y412.511
G01 X69.874 Y421.979
G01 X76.941 Y429.863
G01 X85.834 Y438.300
G01 X93.830 Y445.220
G01 X103.723 Y452.474
G01 X112.541 Y458.339
G01 X123.259 Y464.277
G01 X132.699 Y468.956
G01 X144.042 Y473.482
G01 X153.973 Y476.923
G01 X165.734 Y479.967
G01 X175.926 Y482.107
G01 X187.890 Y483.635
G01 X198.204 Y484.464
G01 X210.153 Y484.475
G01 X220.354 Y484.000
G01 X232.075 Y482.533
G01 X242.030 Y480.797
G01 X253.320 Y477.911
G01 X262.811 Y474.986
G01 X273.484 Y470.784
G01 X282.400 Y466.752
G01 X292.288 Y461.363
G01 X300.471 Y456.352
G01 X309.434 Y449.922
G01 X316.754 Y444.078
G01 X324.683 Y436.784
G01 X331.091 Y430.238
G01 X337.910 Y422.265
G01 X343.320 Y415.210
G01 X348.996 Y406.762
G01 X353.419 Y399.339
G01 X357.946 Y390.599
G01 X361.364 Y383.003
G01 X364.802 Y374.183
G01 X367.297 Y366.553
G01 X369.725 Y357.820
G01 X371.362 Y350.332
G01 X372.918 Y341.849
G01 X373.833 Y334.595
G01 X374.674 Y326.478
G01 X375.004 Y319.581
G01 X375.344 Y311.919
G01 X375.279 Y305.409
G01 X375.320 Y298.223
G01 X375.037 Y292.133
G01 X374.996 Y285.393
G01 X374.674 Y279.655
G01 X374.737 Y273.270
G01 X374.532 Y267.818
G01 X374.829 Y261.646
G01 X374.840 Y256.324
G01 X375.430 Y250.192
G01 X375.695 Y244.871
G01 X376.551 Y238.596
G01 X377.035 Y233.097
G01 X378.051 Y226.517
G01 X378.653 Y220.719
G01 X379.667 Y213.712
G01 X380.235 Y207.537
G01 X381.046 Y200.034
G01 X381.401 Y193.407
G01 X381.791 Y185.397
G01 X381.744 Y178.355
G01 X381.504 Y169.885
G01 X380.876 Y162.450
G01 X379.830 Y153.604
G01 X378.479 Y145.895
G01 X376.459 Y136.814
G01 X374.239 Y128.929
G01 X371.138 Y119.765
G01 X367.978 Y111.881
G01 X363.717 Y102.818
G01 X359.542 Y95.063
G01 X354.083 Y86.296
G01 X348.893 Y78.875
G01 X342.240 Y70.608
G01 X336.025 Y63.664
G01 X328.224 Y56.083
G01 X321.066 Y49.807
G01 X312.197 Y43.104
G01 X304.140 Y37.630
G01 X294.316 Y31.974
G01 X285.504 Y27.467
G01 X274.869 Y23.015
G01 X265.395 Y19.581
G01 X254.117 Y16.451
G01 X244.178 Y14.199
G01 X232.447 Y12.498
G01 X222.164 Y11.501
G01 X210.184 Y11.290
G01 X199.787 Y11.593
G01 X187.772 Y12.908
G01 X177.397 Y14.534
G01 X165.566 Y17.375
G01 X155.427 Y20.310
G01 X143.997 Y24.644
G01 X134.302 Y28.838
G01 X123.480 Y34.595
G01 X114.359 Y39.996
G01 X104.344 Y47.081
G01 X96.006 Y53.570
G01 X86.975 Y61.849
G01 X79.525 Y69.335
G01 X71.637 Y78.658
G01 X65.239 Y86.966
G01 X58.623 Y97.155
G01 X53.351 Y106.165
G01 X48.109 Y117.027
G01 X44.063 Y126.524
G01 X40.260 Y137.852
G01 X37.467 Y147.699
G01 X35.145 Y159.282
G01 X33.640 Y169.250
G01 X32.798 Y180.873
G01 X32.563 Y190.826
G01 X33.164 Y202.280
G01 X34.159 Y211.991
G01 X36.133 Y223.078
G01 X38.290 Y232.428
G01 X41.551 Y242.968
G01 X44.775 Y251.763
G01 X49.174 Y261.596
G01 X53.347 Y269.749
G01 X58.746 Y278.744
G01 X63.721 Y286.113
G01 X69.939 Y294.174
G01 X75.580 Y300.720
G01 X82.424 Y307.788
G01 X88.550 Y313.456
G01 X95.830 Y319.511
G01 X102.264 Y324.283
G01 X109.772 Y329.357
G01 X116.367 Y333.296
G01 X123.927 Y337.455
G01 X130.508 Y340.611
G01 X137.932 Y343.988
G01 X144.377 Y346.499
G01 X151.539 Y349.248
G01 X157.721 Y351.243
G01 X164.523 Y353.562
G01 X170.402 Y355.228
G01 X176.807 Y357.327
G01 X182.338 Y358.837
G01 X188.374 Y360.922
G01 X193.621 Y362.459
G01 X199.381 Y364.697
G01 X204.413 Y366.391
G01 X210.042 Y368.894
G01 X215.016 Y370.838
G01 X220.696 Y373.639
G01 X225.746 Y375.839
G01 X231.663 Y378.889
G01 X236.971 Y381.298
G01 X243.295 Y384.485
G01 X248.972 Y386.984
G01 X255.830 Y390.128
G01 X262.003 Y392.563
G01 X269.475 Y395.473
G01 X276.168 Y397.662
G01 X284.278 Y400.125
G01 X291.530 Y401.892
G01 X300.249 Y403.696
G01 X308.003 Y404.853
G01 X317.258 Y405.821
G01 X325.422 Y406.218
G01 X335.096 Y406.183
G01 X343.596 Y405.684
G01 X353.542 Y404.516
G01 X362.201 Y403.020
G01 X372.244 Y400.618
G01 X380.944 Y398.041
G01 X390.898 Y394.355
G01 X399.437 Y390.674
G01 X409.100 Y385.680
G01 X417.341 Y380.869
G01 X426.511 Y374.584
G01 X434.240 Y368.692
G01 X442.715 Y361.166
G01 X449.796 Y354.220
G01 X457.396 Y345.547
G01 X463.646 Y337.671
G01 X470.188 Y327.967
G01 X475.483 Y319.232
G01 X480.818 Y308.646
G01 X485.016 Y299.233
G01 X489.014 Y287.938
G01 X492.028 Y277.957
G01 X494.593 Y266.146
G01 X496.339 Y255.815
G01 X497.395 Y243.694
G01 X497.825 Y233.147
G01 X497.340 Y220.932
G01 X496.437 Y210.408
G01 X494.409 Y198.319
G01 X492.179 Y187.956
G01 X488.636 Y176.211
G01 X485.117 Y166.222
G01 X480.128 Y155.032
G01 X475.400 Y145.616
G01 X469.060 Y135.178
G01 X463.196 Y126.456
G01 X455.629 Y116.952
G01 X448.772 Y109.114
G01 X440.135 Y100.695
G01 X432.395 Y93.828
G01 X422.855 Y86.634
G01 X414.419 Y80.878
G01 X404.171 Y75.003
G01 X395.173 Y70.404
G01 X384.417 Y65.919
G01 X375.075 Y62.549
G01 X364.022 Y59.485
G01 X354.475 Y57.342
G01 X343.331 Y55.706
G01 X333.800 Y54.795
G01 X322.773 Y54.536
G01 X313.390 Y54.800
G01 X302.668 Y55.859
G01 X293.633 Y57.231
G01 X283.390 Y59.499
G01 X274.804 Y61.886
G01 X265.187 Y65.228
G01 X257.209 Y68.496
G01 X248.336 Y72.745
G01 X241.018 Y76.758
G01 X232.967 Y81.742
G01 X226.401 Y86.330
G01 X219.208 Y91.847
G01 X213.382 Y96.857
G01 X207.039 Y102.702
G01 X201.958 Y107.938
G01 X196.401 Y113.908
G01 X191.975 Y119.225
G01 X187.098 Y125.146
G01 X183.236 Y130.389
G01 X178.881 Y136.105
G01 X175.445 Y141.141
G01 X171.422 Y146.548
G01 X168.227 Y151.324
G01 X164.338 Y156.390
G01 X161.226 Y160.870
G01 X157.276 Y165.622
G01 X154.065 Y169.866
G01 X149.906 Y174.411
G01 X146.493 Y178.502
G01 X142.037 Y183.001
G01 X138.343 Y187.104
G01 X133.570 Y191.747
G01 X129.608 Y196.006
G01 X124.586 Y200.994
G01 X120.411 Y205.599
G01 X115.251 Y211.105
G01 X110.991 Y216.174
G01 X105.862 Y222.338
G01 X101.654 Y228.005
G01 X96.746 Y234.916
G01 X92.780 Y241.219
G01 X88.305 Y248.915
G01 X84.748 Y255.903
G01 X80.890 Y264.374
G01 X77.919 Y271.991
G01 X74.891 Y281.176
G01 X72.673 Y289.394
G01 X70.627 Y299.198
G01 X69.300 Y307.884
G01 X68.392 Y318.169
G01 X68.078 Y327.238
G01 X68.418 Y337.847
G01 X69.203 Y347.134
G01 X70.876 Y357.882
G01 X72.821 Y367.201
G01 X75.877 Y377.889
G01 X79.024 Y387.107
G01 X83.469 Y397.536
G01 X87.797 Y406.437
G01 X93.616 Y416.391
G01 X99.120 Y424.832
G01 X106.250 Y434.114
G01 X112.838 Y441.888
G01 X121.187 Y450.303
G01 X128.802 Y457.283
G01 X138.245 Y464.660
G01 X146.733 Y470.673
G01 X157.124 Y476.847
G01 X166.390 Y481.786
G01 X177.551 Y486.633
G01 X187.393 Y490.378
G01 X199.131 Y493.792
G01 X209.423 Y496.280
G01 X221.532 Y498.187
G01 X232.043 Y499.354
G01 X244.299 Y499.935
G01 X254.902 Y499.952
G01 X267.145 Y499.189
G01 X277.649 Y498.051
G01 X289.682 Y495.742
G01 X299.950 Y493.277
G01 X311.553 Y489.467
G01 X321.353 Y485.741
G01 X332.321 Y480.518
G01 X341.525 Y475.599
G01 X351.666 Y469.073
G01 X360.093 Y463.074
G01 X369.235 Y455.382
G01 X376.725 Y448.447
G01 X384.730 Y439.764
G01 X391.209 Y432.018
G01 X397.956 Y422.521
G01 X403.301 Y414.159
G01 X408.712 Y404.052
G01 X412.890 Y395.213
G01 X416.915 Y384.702
G01 X419.878 Y375.609
G01 X422.511 Y364.907
G01 X424.276 Y355.699
G01 X425.533 Y345.007
G01 X426.119 Y335.899
G01 X426.080 Y325.423
G01 X425.568 Y316.543
G01 X424.318 Y306.455
G01 X422.793 Y297.987
G01 X420.479 Y288.445
G01 X418.069 Y280.477
G01 X414.838 Y271.601
G01 X411.687 Y264.263
G01 X407.752 Y256.140
G01 X404.032 Y249.459
G01 X399.585 Y242.125
G01 X395.480 Y236.151
G01 X390.749 Y229.591
G01 X386.432 Y224.269
G01 X381.634 Y218.414
G01 X377.307 Y213.694
G01 X372.641 Y208.417
G01 X368.444 Y204.154
G01 X364.063 Y199.281
G01 X360.125 Y195.327
G01 X356.126 Y190.651
G01 X352.526 Y186.828
G01 X348.922 Y182.135
G01 X345.637 Y178.241
G01 X342.355 Y173.340
G01 X339.324 Y169.236
G01 X336.214 Y163.992
G01 X333.285 Y159.551
G01 X330.140 Y153.902
G01 X327.143 Y149.108
G01 X323.736 Y143.070
G01 X320.462 Y137.931
G01 X316.580 Y131.583
G01 X312.866 Y126.205
G01 X308.314 Y119.699
G01 X303.985 Y114.202
G01 X298.628 Y107.705
G01 X293.600 Y102.270
G01 X287.347 Y95.985
G01 X281.530 Y90.769
G01 X274.343 Y84.906
G01 X267.746 Y80.117
G01 X259.640 Y74.886
G01 X252.257 Y70.684
G01 X243.290 Y66.270
G01 X235.218 Y62.833
G01 X225.490 Y59.416
G01 X216.786 Y56.878
G01 X206.431 Y54.617
G01 X197.263 Y53.118
G01 X186.444 Y52.139
G01 X176.918 Y51.773
G01 X165.819 Y52.164
G01 X156.119 Y53.001
G01 X144.941 Y54.825
G01 X135.269 Y56.903
G01 X124.226 Y60.190
G01 X114.724 Y63.534
G01 X104.025 Y68.264
G01 X94.916 Y72.827
G01 X84.779 Y78.963
G01 X76.207 Y84.726
G01 X66.833 Y92.182
G01 X59.006 Y99.032
G01 X50.584 Y107.698
G01 X43.624 Y115.560
G01 X36.325 Y125.294
G01 X30.402 Y134.001
G01 X24.375 Y144.635
G01 X19.582 Y154.076
G01 X14.944 Y165.423
G01 X11.395 Y175.385
G01 X8.235 Y187.238
G01 X5.978 Y197.585
G01 X4.355 Y209.729
G01 X3.439 Y220.225
G01 X3.371 Y232.437
G01 X3.796 Y242.937
G01 X5.275 Y254.995
G01 X7.021 Y265.260
G01 X9.997 Y276.946
G01 X13.016 Y286.840
G01 X17.408 Y297.950
G01 X21.607 Y307.254
G01 X27.303 Y317.599
G01 X32.595 Y326.200
G01 X39.464 Y335.610
G01 X45.701 Y343.330
G01 X53.569 Y351.668
G01 X60.624 Y358.434
G01 X69.313 Y365.587
G01 X77.013 Y371.296
G01 X86.335 Y377.181
G01 X94.494 Y381.759
G01 X104.229 Y386.347
G01 X112.696 Y389.804
G01 X122.648 Y393.085
G01 X131.214 Y395.406
G01 X141.176 Y397.424
G01 X149.708 Y398.669
G01 X159.496 Y399.491
G01 X167.802 Y399.723
G01 X177.240 Y399.483
G01 X185.213 Y398.827
G01 X194.167 Y397.666
G01 X201.666 Y396.255
G01 X210.032 Y394.365
G01 X217.016 Y392.361
G01 X224.737 Y389.954
G01 X231.138 Y387.553
G01 X238.212 Y384.861
G01 X244.074 Y382.250
G01 X250.558 Y379.492
G01 X255.919 Y376.864
G01 X261.929 Y374.257
G01 X266.928 Y371.779
G01 X272.631 Y369.469
G01 X277.398 Y367.267
G01 X282.992 Y365.338
G01 X287.727 Y363.457
G01 X293.416 Y361.900
G01 X298.270 Y360.328
G01 X304.229 Y359.040
G01 X309.369 Y357.669
G01 X315.723 Y356.476
G01 X321.232 Y355.149
G01 X328.041 Y353.837
G01 X333.943 Y352.369
G01 X341.190 Y350.693
G01 X347.478 Y348.867
G01 X355.095 Y346.615
G01 X361.667 Y344.261
G01 X369.528 Y341.241
G01 X376.292 Y338.188
G01 X384.236 Y334.250
G01 X391.012 Y330.396
G01 X398.847 Y325.438
G01 X405.492 Y320.687
G01 X413.028 Y314.659
G01 X419.343 Y309.004
G01 X426.372 Y301.900
G01 X432.206 Y295.318
G01 X438.529 Y287.175
G01 X443.682 Y279.742
G01 X449.106 Y270.638
G01 X453.442 Y262.399
G01 X457.809 Y252.449
G01 X461.177 Y243.551
G01 X464.322 Y232.901
G01 X466.602 Y223.437
G01 X468.416 Y212.257
G01 X469.511 Y202.426
G01 X469.899 Y190.910
G01 X469.745 Y180.837
G01 X468.650 Y169.191
G01 X467.208 Y159.105
G01 X464.604 Y147.546
G01 X461.857 Y137.589
G01 X457.756 Y126.335
G01 X453.731 Y116.718
G01 X448.184 Y105.982
G01 X442.948 Y96.908
G01 X436.030 Y86.901
G01 X429.633 Y78.504
G01 X421.459 Y69.416
G01 X414.042 Y61.894
G01 X404.752 Y53.897
G01 X396.410 Y47.357
G01 X386.170 Y40.603
G01 X377.093 Y35.195
G01 X366.091 Y29.803
G01 X356.405 Y25.596
G01 X344.844 Y21.661
G01 X334.774 Y18.744
G01 X322.870 Y16.322
G01 X312.557 Y14.719
G01 X300.530 Y13.836
G01 X290.214 Y13.563
G01 X278.284 Y14.204
G01 X268.105 Y15.237
G01 X256.488 Y17.365
G01 X246.676 Y19.656
G01 X235.574 Y23.181
G01 X226.252 Y26.652
G01 X215.850 Y31.473
G01 X207.216 Y36.010
G01 X197.678 Y41.986
G01 X189.824 Y47.481
G01 X181.285 Y54.452
G01 X174.354 Y60.735
G01 X166.916 Y68.512
G01 X160.952 Y75.447
G01 X154.682 Y83.840
G01 X149.751 Y91.242
G01 X144.684 Y100.057
G01 X140.812 Y107.742
G01 X136.923 Y116.758
G01 X134.057 Y124.574
G01 X131.296 Y133.605
G01 X129.397 Y141.359
G01 X127.659 Y150.220
G01 X126.618 Y157.797
G01 X125.759 Y166.331
G01 X125.446 Y173.573
G01 X125.276 Y181.656
G01 X125.520 Y188.502
G01 X125.836 Y196.067
G01 X126.458 Y202.442
G01 X127.011 Y209.464
G01 X127.801 Y215.394
G01 X128.370 Y221.921
G01 X129.136 Y227.436
G01 X129.518 Y233.577
G01 X130.096 Y238.809
G01 X130.153 Y244.726
G01 X130.435 Y249.801
G01 X130.109 Y255.690
G01 X130.061 Y260.804
G01 X129.392 Y266.864
G01 X129.064 Y272.161
G01 X128.177 Y278.565
G01 X127.687 Y284.211
G01 X126.774 Y291.085
G01 X126.297 Y297.147
G01 X125.588 Y304.550
G01 X125.326 Y311.093
G01 X125.043 Y319.033
G01 X125.188 Y326.014
G01 X125.563 Y334.425
G01 X126.316 Y341.806
G01 X127.537 Y350.585
G01 X129.051 Y358.247
G01 X131.264 Y367.254
G01 X133.654 Y375.049
G01 X136.980 Y384.107
G01 X140.350 Y391.908
G01 X144.859 Y400.827
G01 X149.241 Y408.429
G01 X154.962 Y417.003
G01 X160.391 Y424.260
G01 X167.302 Y432.300
G01 X173.722 Y439.017
G01 X181.778 Y446.305
G01 X189.169 Y452.326
G01 X198.272 Y458.690
G01 X206.504 Y463.844
G01 X216.532 Y469.109
G01 X225.530 Y473.276
G01 X236.329 Y477.294
G01 X245.908 Y480.334
G01 X257.301 Y482.985
G01 X267.346 Y484.818
G01 X279.135 Y486.014
G01 X289.425 Y486.567
G01 X301.399 Y486.249
G01 X311.797 Y485.484
G01 X323.737 Y483.625
G01 X334.002 Y481.535
G01 X345.688 Y478.149
G01 X355.679 Y474.746
G01 X366.891 Y469.876
G01 X376.377 Y465.227
G01 X386.906 Y458.952
G01 X395.754 Y453.115
G01 X405.408 Y445.545
G01 X413.434 Y438.636
G01 X422.034 Y429.910
G01 X429.078 Y422.075
G01 X436.476 Y412.359
G01 X442.450 Y403.713
G01 X448.522 Y393.191
G01 X453.301 Y383.941
G01 X457.954 Y372.815
G01 X461.493 Y363.095
G01 X464.663 Y351.577
G01 X466.902 Y341.617
G01 X468.573 Y329.927
G01 X469.518 Y319.872
G01 X469.692 Y308.224
G01 X469.354 Y298.306
G01 X468.080 Y286.912
G01 X466.510 Y277.262
G01 X463.867 Y266.322
G01 X461.151 Y257.152
G01 X457.253 Y246.844
G01 X453.486 Y238.258
G01 X448.464 Y228.737
G01 X443.785 Y220.902
G01 X437.808 Y212.295
G01 X432.347 Y205.272
G01 X425.599 Y197.670
G01 X419.543 Y191.559
G01 X412.226 Y185.011
G01 X405.722 Y179.815
G01 X398.029 Y174.335
G01 X391.274 Y170.077
G01 X383.426 Y165.617
G01 X376.572 Y162.224
G01 X368.755 Y158.700
G01 X361.973 Y156.099
G01 X354.355 Y153.380
G01 X347.795 Y151.450
G01 X340.525 Y149.346
G01 X334.270 Y147.907
G01 X327.434 Y146.208
G01 X321.573 Y145.080
G01 X315.202 Y143.549
G01 X309.717 Y142.524
G01 X303.771 Y140.940
G01 X298.637 Y139.834
G01 X293.008 Y138.011
G01 X288.094 Y136.666
G01 X282.612 Y134.489
G01 X277.789 Y132.825
G01 X272.254 Y130.270
G01 X267.322 Y128.274
G01 X261.529 Y125.402
G01 X256.342 Y123.151
G01 X250.113 Y120.110
G01 X244.502 Y117.734
G01 X237.704 Y114.707
G01 X231.596 Y112.383
G01 X224.157 Y109.604
G01 X217.475 Y107.530
G01 X209.379 Y105.215
G01 X202.155 Y103.589
G01 X193.443 Y101.962
G01 X185.696 Y100.969
G01 X176.450 Y100.208
G01 X168.299 Y100.000
G01 X158.655 Y100.285
G01 X150.190 Y101.010
G01 X140.304 Y102.462
G01 X131.688 Y104.215
G01 X121.736 Y106.915
G01 X113.145 Y109.750
G01 X103.336 Y113.761
G01 X94.917 Y117.736
G01 X85.448 Y123.063
G01 X77.410 Y128.149
G01 X68.488 Y134.764
G01 X60.972 Y140.952
G01 X52.799 Y148.793
G01 X46.011 Y155.989
G01 X38.777 Y164.957
G01 X32.845 Y173.098
G01 X26.716 Y183.062
G01 X21.801 Y191.986
G01 X16.929 Y202.787
G01 X13.134 Y212.394
G01 X9.640 Y223.851
G01 X7.076 Y233.931
G01 X5.053 Y245.844
G01 X3.777 Y256.267
G01 X3.283 Y268.423
G01 X3.341 Y278.954
G01 X4.405 Y291.131
G01 X5.810 Y301.626
G01 X8.423 Y313.602
G01 X11.147 Y323.820
G01 X15.265 Y335.375
G01 X19.273 Y345.179
G01 X24.821 Y356.102
G01 X30.017 Y365.267
G01 X36.886 Y375.365
G01 X43.191 Y383.772
G01 X51.243 Y392.868
G01 X58.517 Y400.352
G01 X67.596 Y408.290
G01 X75.676 Y414.710
G01 X85.592 Y421.373
G01 X94.345 Y426.669
G01 X104.904 Y431.959
G01 X114.120 Y436.032
G01 X125.112 Y439.890
G01 X134.648 Y442.721
G01 X145.858 Y445.125
G01 X155.484 Y446.692
G01 X166.697 Y447.657
G01 X176.277 Y447.992
G01 X187.291 Y447.560
G01 X196.606 Y446.710
G01 X207.228 Y444.966
G01 X216.163 Y443.009
G01 X226.221 Y440.068
G01 X234.594 Y437.122
G01 X243.943 Y433.138
G01 X251.677 Y429.327
G01 X260.207 Y424.454
G01 X267.180 Y419.936
G01 X274.818 Y414.388
G01 X281.014 Y409.327
G01 X287.731 Y403.293
G01 X293.108 Y397.877
G01 X298.927 Y391.577
G01 X303.544 Y385.967
G01 X308.539 Y379.607
G01 X312.451 Y373.999
G01 X316.752 Y367.773
G01 X320.101 Y362.298
G01 X323.880 Y356.353
G01 X326.808 Y351.151
G01 X330.279 Y345.593
G01 X332.990 Y340.716
G01 X336.379 Y335.581
G01 X339.064 Y331.054
G01 X342.578 Y326.292
G01 X345.404 Y322.068
G01 X349.207 Y317.559
G01 X352.321 Y313.503
G01 X356.501 Y309.064
G01 X359.950 Y305.030
G01 X364.508 Y300.445
G01 X368.293 Y296.228
G01 X373.158 Y291.286
G01 X377.187 Y286.731
G01 X382.207 Y281.242
G01 X386.351 Y276.173
G01 X391.349 Y269.999
G01 X395.428 Y264.334
G01 X400.186 Y257.389
G01 X404.024 Y251.039
G01 X408.339 Y243.291
G01 X411.739 Y236.275
G01 X415.382 Y227.748
G01 X418.162 Y220.067
G01 X420.952 Y210.829
G01 X422.947 Y202.590
G01 X424.710 Y192.753
G01 X425.784 Y184.024
G01 X426.376 Y173.730
G01 X426.408 Y164.686
G01 X425.714 Y154.111
G01 X424.615 Y144.866
G01 X422.569 Y134.194
G01 X420.297 Y124.956
G01 X416.850 Y114.399
G01 X413.362 Y105.311
G01 X408.514 Y95.076
G01 X403.829 Y86.339
G01 X397.619 Y76.632
G01 X391.795 Y68.442
G01 X384.289 Y59.470
G01 X377.367 Y51.962
G01 X368.668 Y43.916
G01 X360.779 Y37.285
G01 X351.021 Y30.340
G01 X342.252 Y24.701
G01 X331.596 Y19.002
G01 X322.138 Y14.496
G01 X310.766 Y10.175
G01 X300.736 Y6.885
G01 X288.850 Y4.033
G01 X278.476 Y2.042
G01 X266.289 Y0.723
G01 X255.710 Y0.065
G01 X243.445 Y0.308
G01 X232.902 Y0.999
G01 X220.782 Y2.796
G01 X210.418 Y4.822
G01 X198.664 Y8.135
G01 X188.715 Y11.441
G01 X177.536 Y16.196
G01 X168.132 Y20.723
G01 X157.724 Y26.814
G01 X149.071 Y32.438
G01 X139.608 Y39.730
G01 X131.809 Y46.352
G01 X123.446 Y54.692
G01 X116.663 Y62.143
G01 X109.516 Y71.341
G01 X103.805 Y79.485
G01 X97.967 Y89.351
G01 X93.415 Y98.002
G01 X88.948 Y108.333
G01 X85.604 Y117.294
G01 X82.522 Y127.876
G01 X80.370 Y137.003
G01 X78.656 Y147.629
G01 X77.681 Y156.702
G01 X77.276 Y167.171
G01 X77.412 Y176.066
G01 X78.236 Y186.200
G01 X79.404 Y194.725
G01 X81.311 Y204.357
G01 X83.381 Y212.419
G01 X86.226 Y221.423
G01 X89.059 Y228.888
G01 X92.651 Y237.171
G01 X96.089 Y244.004
G01 X100.220 Y251.520
G01 X104.069 Y257.663
G01 X108.512 Y264.418
G01 X112.596 Y269.919
G01 X117.141 Y275.972
G01 X121.265 Y280.872
G01 X125.705 Y286.341
G01 X129.719 Y290.778
G01 X133.890 Y295.832
G01 X137.647 Y299.940
G01 X141.443 Y304.782
G01 X144.886 Y308.764
G01 X148.287 Y313.606
G01 X151.397 Y317.626
G01 X154.467 Y322.662
G01 X157.327 Y326.902
G01 X160.214 Y332.272
G01 X162.954 Y336.831
G01 X165.854 Y342.611
G01 X168.644 Y347.530
G01 X171.791 Y353.706
G01 X174.844 Y358.980
G01 X178.456 Y365.484
G01 X181.940 Y371.011
G01 X186.212 Y377.705
G01 X190.303 Y383.380
G01 X195.378 Y390.103
G01 X200.170 Y395.750
G01 X206.151 Y402.290
G01 X211.743 Y407.745
G01 X218.674 Y413.908
G01 X225.061 Y418.972
G01 X232.937 Y424.548
G01 X240.136 Y429.064
G01 X248.907 Y433.854
G01 X256.827 Y437.631
G01 X266.400 Y441.452
G01 X274.988 Y444.353
G01 X285.239 Y447.056
G01 X294.335 Y448.947
G01 X305.103 Y450.385
G01 X314.606 Y451.155
G01 X325.712 Y451.235
G01 X335.415 Y450.812
G01 X346.659 Y449.460
G01 X356.431 Y447.787
G01 X367.608 Y444.979
G01 X377.224 Y442.056
G01 X388.111 Y437.779
G01 X397.425 Y433.592
G01 X407.812 Y427.892
G01 X416.621 Y422.499
G01 X426.305 Y415.449
G01 X434.418 Y408.939
G01 X443.198 Y400.637
G01 X450.485 Y393.076
G01 X458.190 Y383.661
G01 X464.477 Y375.214
G01 X470.951 Y364.845
G01 X476.140 Y355.615
G01 X481.255 Y344.476
G01 X485.224 Y334.674
G01 X488.884 Y322.965
G01 X491.578 Y312.723
G01 X493.715 Y300.659
G01 X495.075 Y290.212
G01 X495.661 Y278.013
G01 X495.680 Y267.504
G01 X494.714 Y255.395
G01 X493.405 Y245.065
G01 X490.931 Y233.263
G01 X488.336 Y223.249
G01 X484.416 Y211.964
G01 X480.612 Y202.491
G01 X475.362 Y191.913
G01 X470.441 Y183.095
G01 X463.980 Y173.401
G01 X458.078 Y165.423
G01 X450.572 Y156.758
G01 X443.811 Y149.698
G01 X435.426 Y142.187
G01 X427.986 Y136.175
G01 X418.930 Y129.894
G01 X410.959 Y124.957
G01 X401.425 Y119.962
G01 X393.130 Y116.160
G01 X383.326 Y112.458
G01 X374.846 Y109.770
G01 X364.979 Y107.331
G01 X356.508 Y105.725
G01 X346.766 Y104.484
G01 X338.480 Y103.896
G01 X329.038 Y103.740
G01 X321.042 Y104.060
G01 X312.047 Y104.841
G01 X304.495 Y105.932
G01 X296.058 Y107.462
G01 X288.996 Y109.164
G01 X281.180 Y111.242
G01 X274.683 Y113.369
G01 X267.501 Y115.760
G01 X261.532 Y118.123
G01 X254.937 Y120.601
G01 X249.470 Y122.996
G01 X243.354 Y125.346
G01 X238.254 Y127.610
G01 X232.459 Y129.678
G01 X227.603 Y131.679
G01 X221.932 Y133.367
G01 X217.121 Y135.044
G01 X211.372 Y136.359
G01 X206.455 Y137.723
G01 X200.447 Y138.757
G01 X195.253 Y139.909
G01 X188.853 Y140.828
G01 X183.304 Y141.914
G01 X176.449 Y142.942
G01 X170.480 Y144.165
G01 X163.165 Y145.528
G01 X156.818 Y147.078
G01 X149.112 Y149.004
G01 X142.430 Y151.082
G01 X134.452 Y153.770
G01 X127.568 Y156.535
G01 X119.464 Y160.132
G01 X112.531 Y163.695
G01 X104.488 Y168.313
G01 X97.643 Y172.776
G01 X89.858 Y178.479
G01 X83.309 Y183.862
G01 X75.989 Y190.662
G01 X69.886 Y196.992
G01 X63.218 Y204.858
G01 X57.750 Y212.064
G01 X51.944 Y220.930
G01 X47.262 Y228.978
G01 X42.481 Y238.734
G01 X38.743 Y247.481
G01 X35.149 Y257.989
G01 X32.471 Y267.347
G01 X30.180 Y278.440
G01 X28.665 Y288.217
G01 X27.791 Y299.706
G01 X27.520 Y309.775
G01 X28.120 Y321.457
G01 X29.132 Y331.595
G01 X31.242 Y343.255
G01 X33.561 Y353.321
G01 X37.179 Y364.740
G01 X40.782 Y374.497
G01 X45.871 Y385.457
G01 X50.731 Y394.765
G01 X57.218 Y405.057
G01 X63.236 Y413.698
G01 X71.016 Y423.127
G01 X78.123 Y430.976
G01 X87.066 Y439.359
G01 X95.123 Y446.247
G01 X105.067 Y453.430
G01 X113.906 Y459.218
G01 X124.669 Y465.072
G01 X134.168 Y469.686
G01 X145.552 Y474.107
G01 X155.490 Y477.448
G01 X167.280 Y480.375
G01 X177.514 Y482.416
G01 X189.494 Y483.807
G01 X199.790 Y484.515
G01 X211.735 Y484.381
G01 X221.949 Y483.781
G01 X233.646 Y482.150
G01 X243.546 Y480.280
G01 X254.788 Y477.231
G01 X264.249 Y474.160
G01 X274.846 Y469.781
G01 X283.664 Y465.610
G01 X293.447 Y460.048
G01 X301.529 Y454.892
G01 X310.356 Y448.291
G01 X317.547 Y442.307
G01 X325.307 Y434.849
G01 X331.558 Y428.170
G01 X338.176 Y420.047
G01 X343.403 Y412.874
G01 X348.845 Y404.291
G01 X353.056 Y396.767
G01 X357.318 Y387.916
G01 X360.500 Y380.240
G01 X363.645 Y371.339
G01 X365.880 Y363.657
G01 X367.996 Y354.882
G01 X369.362 Y347.358
G01 X370.582 Y338.869
G01 X371.202 Y331.647
G01 X371.711 Y323.575
G01 X371.754 Y316.722
G01 X371.763 Y309.153
G01 X371.415 Y302.758
G01 X371.160 Y295.719
G01 X370.623 Y289.761
G01 X370.328 Y283.215
G01 X369.795 Y277.672
G01 X369.676 Y271.521
G01 X369.321 Y266.269
G01 X369.515 Y260.355
G01 X369.449 Y255.273
G01 X370.025 Y249.403
G01 X370.290 Y244.296
G01 X371.216 Y238.269
G01 X371.770 Y232.991
G01 X372.925 Y226.630
G01 X373.652 Y221.010
G01 X374.856 Y214.182
G01 X375.589 Y208.146
G01 X376.616 Y200.778
G01 X377.158 Y194.251
G01 X377.775 Y186.332
G01 X377.923 Y179.352
G01 X377.904 Y170.934
G01 X377.464 Y163.528
G01 X376.626 Y154.700
G01 X375.448 Y146.992
G01 X373.615 Y137.903
G01 X371.549 Y130.000
G01 X368.611 Y120.807
G01 X365.584 Y112.888
G01 X361.459 Y103.785
G01 X357.394 Y95.986
G01 X352.042 Y87.176
G01 X346.925 Y79.695
G01 X340.360 Y71.374
G01 X334.228 Y64.395
G01 X326.490 Y56.771
G01 X319.361 Y50.440
G01 X310.538 Y43.693
G01 X302.532 Y38.192
G01 X292.736 Y32.510
G01 X283.923 Y27.969
G01 X273.304 Y23.495
G01 X263.862 Y20.050
G01 X252.593 Y16.915
G01 X242.634 Y14.655
G01 X230.906 Y12.959
G01 X220.649 Y11.970
G01 X208.672 Y11.782
G01 X198.252 Y12.108
G01 X186.244 Y13.457
G01 X175.899 Y15.109
G01 X164.080 Y17.996
G01 X153.953 Y20.972
G01 X142.545 Y25.362
G01 X132.870 Y29.604
G01 X122.084 Y35.426
G01 X112.996 Y40.883
G01 X103.031 Y48.036
G01 X94.738 Y54.583
G01 X85.773 Y62.935
G01 X78.385 Y70.480
G01 X70.581 Y79.874
G01 X64.260 Y88.238
G01 X57.748 Y98.493
G01 X52.568 Y107.554
G01 X47.446 Y118.471
G01 X43.497 Y128.032
G01 X39.839 Y139.405
G01 X37.179 Y149.260
G01 X35.013 Y160.869
G01 X33.642 Y170.874
G01 X32.977 Y182.505
G01 X32.896 Y192.430
G01 X33.683 Y203.867
G01 X34.839 Y213.574
G01 X37.016 Y224.617
G01 X39.340 Y233.894
G01 X42.801 Y244.359
G01 X46.204 Y253.097
G01 X50.818 Y262.821
G01 X55.160 Y270.848
G01 X60.761 Y279.701
G01 X65.914 Y286.951
G01 X72.339 Y294.831
G01 X78.135 Y301.192
G01 X85.166 Y308.045
G01 X91.442 Y313.513
G01 X98.893 Y319.316
G01 X105.459 Y323.857
G01 X113.110 Y328.647
G01 X119.813 Y332.329
G01 X127.481 Y336.176
G01 X134.136 Y339.052
G01 X141.626 Y342.096
G01 X148.109 Y344.312
G01 X155.285 Y346.721
G01 X161.460 Y348.420
G01 X168.219 Y350.408
G01 X174.041 Y351.786
G01 X180.340 Y353.587
G01 X185.776 Y354.846
G01 X191.649 Y356.680
G01 X196.732 Y358.003
G01 X202.279 Y360.063
G01 X207.131 Y361.616
G01 X212.515 Y364.023
G01 X217.264 Y365.890
G01 X222.686 Y368.677
G01 X227.528 Y370.879
G01 X233.194 Y373.993
G01 X238.281 Y376.461
G01 X244.376 Y379.767
G01 X249.880 Y382.382
G01 X256.543 Y385.693
G01 X262.547 Y388.272
G01 X269.861 Y391.364
G01 X276.449 Y393.719
G01 X284.441 Y396.379
G01 X291.590 Y398.314
G01 X300.226 Y400.309
G01 X307.923 Y401.631
G01 X317.127 Y402.778
G01 X325.260 Y403.328
G01 X334.910 Y403.457
G01 X343.400 Y403.096
G01 X353.342 Y402.069
G01 X362.007 Y400.690
G01 X372.059 Y398.408
G01 X380.776 Y395.928
G01 X390.750 Y392.340
G01 X399.313 Y388.738
G01 X409.001 Y383.819
G01 X417.268 Y379.068
G01 X426.458 Y372.835
G01 X434.226 Y366.969
G01 X442.726 Y359.482
G01 X449.814 Y352.582
G01 X457.424 Y343.930
G01 X463.699 Y336.048
G01 X470.245 Y326.354
G01 X475.534 Y317.646
G01 X480.857 Y307.061
G01 X485.054 Y297.623
G01 X489.033 Y286.325
G01 X492.023 Y276.363
G01 X494.552 Y264.546
G01 X496.269 Y254.187
G01 X497.277 Y242.063
G01 X497.665 Y231.540
G01 X497.119 Y219.328
G01 X496.161 Y208.783
G01 X494.058 Y196.707
G01 X491.770 Y186.382
G01 X488.146 Y174.663
G01 X484.558 Y164.698
G01 X479.479 Y153.549
G01 X474.676 Y144.172
G01 X468.242 Y133.792
G01 X462.300 Y125.125
G01 X454.638 Y115.697
G01 X447.703 Y107.930
G01 X438.973 Y99.611
G01 X431.159 Y92.834
G01 X421.533 Y85.758
G01 X413.030 Y80.110
G01 X402.705 Y74.377
G01 X393.649 Y69.905
G01 X382.834 Y65.580
G01 X373.429 Y62.343
G01 X362.331 Y59.467
G01 X352.779 Y57.494
G01 X341.615 Y56.056
G01 X332.058 Y55.317
G01 X321.035 Y55.282
G01 X311.692 Y55.738
G01 X301.007 Y57.025
G01 X291.997 Y58.598
G01 X281.823 Y61.114
G01 X273.332 Y63.705
G01 X263.823 Y67.289
G01 X255.934 Y70.768
G01 X247.206 Y75.269
G01 X240.047 Y79.483
G01 X232.180 Y84.702
G01 X225.774 Y89.495
G01 X218.808 Y95.245
G01 X213.207 Y100.431
G01 X207.124 Y106.474
G01 X202.272 Y111.879
G01 X197.012 Y118.021
G01 X192.866 Y123.458
G01 X188.305 Y129.500
G01 X184.729 Y134.830
G01 X180.701 Y140.610
G01 X177.555 Y145.683
G01 X173.850 Y151.086
G01 X170.933 Y155.842
G01 X167.332 Y160.832
G01 X164.466 Y165.233
G01 X160.752 Y169.839
G01 X157.740 Y173.948
G01 X153.749 Y178.291
G01 X150.473 Y182.203
G01 X146.110 Y186.461
G01 X142.486 Y190.355
G01 X137.736 Y194.741
G01 X133.773 Y198.793
G01 X128.705 Y203.525
G01 X124.488 Y207.906
G01 X119.241 Y213.176
G01 X114.885 Y218.065
G01 X109.626 Y224.020
G01 X105.306 Y229.507
G01 X100.258 Y236.244
G01 X96.154 Y242.426
G01 X91.519 Y249.983
G01 X87.830 Y256.849
G01 X83.823 Y265.213
G01 X80.715 Y272.771
G01 X77.535 Y281.882
G01 X75.192 Y290.029
G01 X73.017 Y299.782
G01 X71.577 Y308.457
G01 X70.550 Y318.715
G01 X70.135 Y327.749
G01 X70.376 Y338.346
G01 X71.079 Y347.631
G01 X72.672 Y358.378
G01 X74.552 Y367.703
G01 X77.549 Y378.396
G01 X80.649 Y387.623
G01 X85.052 Y398.060
G01 X89.347 Y406.972
G01 X95.141 Y416.931
G01 X100.627 Y425.379
G01 X107.745 Y434.662
G01 X114.326 Y442.439
G01 X122.676 Y450.846
G01 X130.295 Y457.820
G01 X139.749 Y465.175
G01 X148.269 Y471.184
G01 X158.675 Y477.327
G01 X167.934 Y482.228
G01 X179.112 Y487.029
G01 X188.993 Y490.743
G01 X200.748 Y494.096
G01 X211.028 Y496.526
G01 X223.147 Y498.361
G01 X233.689 Y499.467
G01 X245.950 Y499.967
G01 X256.527 Y499.915
G01 X268.765 Y499.066
G01 X279.285 Y497.851
G01 X291.298 Y495.443
G01 X301.522 Y492.901
G01 X313.089 Y488.986
G01 X322.876 Y485.162
G01 X333.788 Y479.826
G01 X342.917 Y474.823
G01 X352.982 Y468.182
G01 X361.336 Y462.088
G01 X370.380 Y454.284
G01 X377.779 Y447.257
G01 X385.660 Y438.466
G01 X392.026 Y430.634
G01 X398.625 Y421.038
G01 X403.836 Y412.600
G01 X409.073 Y402.406
G01 X413.095 Y393.503
G01 X416.921 Y382.924
G01 X419.707 Y373.784
G01 X422.119 Y363.037
G01 X423.690 Y353.805
G01 X424.707 Y343.096
G01 X425.084 Y333.968
G01 X424.776 Y323.503
G01 X424.033 Y314.670
G01 X422.511 Y304.633
G01 X420.748 Y296.207
G01 X418.139 Y286.752
G01 X415.483 Y278.898
G01 X411.964 Y270.154
G01 X408.561 Y262.933
G01 X404.329 Y254.986
G01 X400.370 Y248.494
G01 X395.651 Y241.382
G01 X391.311 Y235.605
G01 X386.322 Y229.313
G01 X381.806 Y224.252
G01 X376.799 Y218.701
G01 X372.296 Y214.248
G01 X367.474 Y209.302
G01 X363.169 Y205.347
G01 X358.707 Y200.814
G01 X354.717 Y197.161
G01 X350.724 Y192.810
G01 X347.144 Y189.269
G01 X343.639 Y184.860
G01 X340.450 Y181.209
G01 X337.347 Y176.533
G01 X334.478 Y172.614
G01 X331.609 Y167.521
G01 X328.890 Y163.198
G01 X326.024 Y157.623
G01 X323.265 Y152.877
G01 X320.148 Y146.845
G01 X317.117 Y141.695
G01 X313.512 Y135.300
G01 X310.018 Y129.854
G01 X305.723 Y123.250
G01 X301.613 Y117.669
G01 X296.476 Y111.055
G01 X291.612 Y105.497
G01 X285.545 Y99.071
G01 X279.887 Y93.738
G01 X272.849 Y87.737
G01 X266.349 Y82.813
G01 X258.358 Y77.436
G01 X251.076 Y73.116
G01 X242.193 Y68.576
G01 X234.161 Y65.019
G01 X224.489 Y61.481
G01 X215.843 Y58.843
G01 X205.524 Y56.484
G01 X196.357 Y54.898
G01 X185.556 Y53.831
G01 X176.059 Y53.392
G01 X164.967 Y53.716
G01 X155.268 Y54.498
G01 X144.090 Y56.275
G01 X134.415 Y58.315
G01 X123.370 Y61.571
G01 X113.863 Y64.891
G01 X103.164 Y69.607
G01 X94.052 Y74.161
G01 X83.921 Y80.298
G01 X75.353 Y86.063
G01 X65.993 Y93.532
G01 X58.178 Y100.394
G01 X49.783 Y109.081
G01 X42.845 Y116.963
G01 X35.584 Y126.723
G01 X29.695 Y135.453
G01 X23.720 Y146.117
G01 X18.974 Y155.582
G01 X14.405 Y166.955
G01 X10.907 Y176.962
G01 X7.833 Y188.837
G01 X5.655 Y199.176
G01 X4.128 Y211.332
G01 X3.295 Y221.859
G01 X3.341 Y234.071
G01 X3.863 Y244.540
G01 X5.463 Y256.582
G01 X7.317 Y266.850
G01 X10.428 Y278.501
G01 X13.555 Y288.333
G01 X18.084 Y299.385
G01 X22.409 Y308.653
G01 X28.250 Y318.914
G01 X33.648 Y327.415
G01 X40.656 Y336.716
G01 X47.022 Y344.351
G01 X55.030 Y352.549
G01 X62.181 Y359.171
G01 X70.997 Y366.157
G01 X78.798 Y371.712
G01 X88.232 Y377.402
G01 X96.477 Y381.803
G01 X106.307 Y386.167
G01 X114.842 Y389.421
G01 X124.865 Y392.448
G01 X133.477 Y394.544
G01 X143.479 Y396.284
G01 X152.029 Y397.284
G01 X161.826 Y397.805
G01 X170.118 Y397.774
G01 X179.525 Y397.213
G01 X187.450 Y396.280
G01 X196.328 Y394.791
G01 X203.757 Y393.093
G01 X212.001 Y390.863
G01 X218.841 Y388.575
G01 X226.389 Y385.849
G01 X232.634 Y383.172
G01 X239.486 Y380.180
G01 X245.124 Y377.324
G01 X251.344 Y374.319
G01 X256.472 Y371.483
G01 X262.186 Y368.689
G01 X266.905 Y366.070
G01 X272.298 Y363.664
G01 X276.801 Y361.386
G01 X282.094 Y359.459
G01 X286.557 Y357.597
G01 X291.976 Y356.137
G01 X296.614 Y354.656
G01 X302.354 Y353.550
G01 X307.304 Y352.344
G01 X313.499 Y351.391
G01 X318.885 Y350.274
G01 X325.598 Y349.236
G01 X331.434 Y348.002
G01 X338.641 Y346.609
G01 X344.912 Y345.021
G01 X352.536 Y343.040
G01 X359.132 Y340.912
G01 X367.037 Y338.141
G01 X373.855 Y335.293
G01 X381.869 Y331.574
G01 X388.717 Y327.897
G01 X396.640 Y323.125
G01 X403.371 Y318.523
G01 X411.000 Y312.647
G01 X417.417 Y307.096
G01 X424.549 Y300.113
G01 X430.463 Y293.641
G01 X436.876 Y285.588
G01 X442.123 Y278.206
G01 X447.636 Y269.168
G01 X452.041 Y260.996
G01 X456.479 Y251.091
G01 X459.915 Y242.202
G01 X463.124 Y231.579
G01 X465.453 Y222.154
G01 X467.307 Y210.991
G01 X468.439 Y201.146
G01 X468.859 Y189.637
G01 X468.732 Y179.589
G01 X467.646 Y167.949
G01 X466.208 Y157.841
G01 X463.601 Y146.287
G01 X460.857 Y136.356
G01 X456.741 Y125.111
G01 X452.701 Y115.501
G01 X447.126 Y104.783
G01 X441.865 Y95.724
G01 X434.909 Y85.744
G01 X428.480 Y77.373
G01 X420.261 Y68.325
G01 X412.808 Y60.840
G01 X403.470 Y52.900
G01 X395.089 Y46.409
G01 X384.801 Y39.728
G01 X375.687 Y34.384
G01 X364.642 Y29.081
G01 X354.923 Y24.952
G01 X343.328 Y21.122
G01 X333.209 Y18.290
G01 X321.280 Y15.993
G01 X310.978 Y14.501
G01 X298.943 Y13.753
G01 X288.604 Y13.596
G01 X276.685 Y14.391
G01 X266.548 Y15.553
G01 X254.964 Y17.840
G01 X245.167 Y20.271
G01 X234.124 Y23.968
G01 X224.886 Y27.576
G01 X214.571 Y32.567
G01 X206.003 Y37.257
G01 X196.584 Y43.412
G01 X188.862 Y49.042
G01 X180.472 Y56.177
G01 X173.665 Y62.609
G01 X166.412 Y70.553
G01 X160.635 Y77.603
G01 X154.582 Y86.143
G01 X149.850 Y93.660
G01 X145.034 Y102.603
G01 X141.389 Y110.383
G01 X137.783 Y119.502
G01 X135.172 Y127.389
G01 X132.724 Y136.492
G01 X131.104 Y144.289
G01 X129.704 Y153.183
G01 X128.961 Y160.769
G01 X128.458 Y169.293
G01 X128.456 Y176.503
G01 X128.648 Y184.526
G01 X129.206 Y191.297
G01 X129.871 Y198.746
G01 X130.794 Y205.013
G01 X131.672 Y211.864
G01 X132.733 Y217.613
G01 X133.569 Y223.918
G01 X134.558 Y229.236
G01 X135.130 Y235.114
G01 X135.861 Y240.095
G01 X136.012 Y245.726
G01 X136.364 Y250.561
G01 X136.031 Y256.163
G01 X135.966 Y261.020
G01 X135.197 Y266.814
G01 X134.771 Y271.903
G01 X133.704 Y278.081
G01 X133.052 Y283.532
G01 X131.915 Y290.226
G01 X131.239 Y296.164
G01 X130.272 Y303.442
G01 X129.788 Y309.879
G01 X129.248 Y317.738
G01 X129.176 Y324.684
G01 X129.297 Y333.061
G01 X129.835 Y340.413
G01 X130.824 Y349.189
G01 X132.146 Y356.865
G01 X134.157 Y365.896
G01 X136.379 Y373.724
G01 X139.529 Y382.826
G01 X142.756 Y390.676
G01 X147.119 Y399.650
G01 X151.385 Y407.308
G01 X156.988 Y415.943
G01 X162.325 Y423.260
G01 X169.146 Y431.360
G01 X175.498 Y438.133
G01 X183.487 Y445.478
G01 X190.828 Y451.551
G01 X199.886 Y457.959
G01 X208.106 Y463.165
G01 X218.104 Y468.470
G01 X227.061 Y472.662
G01 X237.844 Y476.702
G01 X247.436 Y479.768
G01 X258.820 Y482.432
G01 X268.839 Y484.271
G01 X280.623 Y485.461
G01 X290.936 Y486.009
G01 X302.906 Y485.673
G01 X313.277 Y484.894
G01 X325.210 Y483.002
G01 X335.493 Y480.877
G01 X347.163 Y477.445
G01 X357.118 Y474.011
G01 X368.304 Y469.085
G01 X377.789 Y464.378
G01 X388.280 Y458.039
G01 X397.072 Y452.163
G01 X406.672 Y444.525
G01 X414.649 Y437.559
G01 X423.179 Y428.765
G01 X430.159 Y420.875
G01 X437.468 Y411.091
G01 X443.361 Y402.392
G01 X449.324 Y391.809
G01 X454.006 Y382.511
G01 X458.533 Y371.335
G01 X461.960 Y361.579
G01 X464.985 Y350.023
G01 X467.096 Y340.040
G01 X468.604 Y328.330
G01 X469.407 Y318.269
G01 X469.406 Y306.624
G01 X468.915 Y296.696
G01 X467.444 Y285.329
G01 X465.710 Y275.738
G01 X462.868 Y264.854
G01 X459.977 Y255.724
G01 X455.865 Y245.505
G01 X451.929 Y237.030
G01 X446.700 Y227.632
G01 X441.838 Y219.898
G01 X435.647 Y211.452
G01 X430.023 Y204.599
G01 X423.079 Y197.193
G01 X416.850 Y191.252
G01 X409.340 Y184.943
G01 X402.699 Y179.979
G01 X394.842 Y174.772
G01 X387.945 Y170.753
G01 X379.953 Y166.606
G01 X373.011 Y163.503
G01 X365.091 Y160.321
G01 X358.240 Y158.024
G01 X350.563 Y155.669
G01 X343.975 Y154.060
G01 X336.703 Y152.326
G01 X330.469 Y151.211
G01 X323.692 Y149.872
G01 X317.903 Y149.056
G01 X311.659 Y147.848
G01 X306.303 Y147.098
G01 X300.545 Y145.780
G01 X295.588 Y144.896
G01 X290.201 Y143.251
G01 X285.504 Y142.051
G01 X280.296 Y139.959
G01 X275.700 Y138.355
G01 X270.449 Y135.785
G01 X265.770 Y133.770
G01 X260.248 Y130.804
G01 X255.272 Y128.457
G01 X249.285 Y125.252
G01 X243.880 Y122.732
G01 X237.284 Y119.507
G01 X231.319 Y117.001
G01 X224.036 Y113.997
G01 X217.487 Y111.731
G01 X209.506 Y109.196
G01 X202.348 Y107.375
G01 X193.708 Y105.525
G01 X186.025 Y104.343
G01 X176.823 Y103.385
G01 X168.675 Y103.010
G01 X159.044 Y103.114
G01 X150.597 Y103.684
G01 X140.705 Y104.980
G01 X132.072 Y106.604
G01 X122.099 Y109.174
G01 X113.482 Y111.903
G01 X103.644 Y115.810
G01 X95.192 Y119.700
G01 X85.690 Y124.945
G01 X77.618 Y129.968
G01 X68.665 Y136.524
G01 X61.118 Y142.668
G01 X52.919 Y150.469
G01 X46.105 Y157.635
G01 X38.854 Y166.580
G01 X32.904 Y174.705
G01 X26.772 Y184.658
G01 X21.843 Y193.598
G01 X16.973 Y204.396
G01 X13.189 Y213.980
G01 X9.716 Y225.439
G01 X7.165 Y235.547
G01 X5.175 Y247.463
G01 X3.931 Y257.865
G01 X3.485 Y270.021
G01 X3.585 Y280.576
G01 X4.710 Y292.747
G01 X6.163 Y303.210
G01 X8.848 Y315.170
G01 X11.640 Y325.396
G01 X15.841 Y336.921
G01 X19.908 Y346.672
G01 X25.543 Y357.551
G01 X30.825 Y366.695
G01 X37.787 Y376.728
G01 X44.153 Y385.056
G01 X52.298 Y394.068
G01 X59.647 Y401.476
G01 X68.815 Y409.309
G01 X76.965 Y415.635
G01 X86.963 Y422.171
G01 X95.780 Y427.353
G01 X106.409 Y432.494
G01 X115.676 Y436.435
G01 X126.722 Y440.123
G01 X136.295 Y442.804
G01 X147.539 Y445.016
G01 X157.184 Y446.417
G01 X168.407 Y447.173
G01 X177.983 Y447.326
G01 X188.978 Y446.672
G01 X198.285 Y445.627
G01 X208.858 Y443.639
G01 X217.714 Y441.477
G01 X227.686 Y438.293
G01 X235.988 Y435.133
G01 X245.213 Y430.889
G01 X252.805 Y426.870
G01 X261.170 Y421.748
G01 X267.999 Y417.013
G01 X275.428 Y411.212
G01 X281.412 Y405.958
G01 X287.881 Y399.699
G01 X293.038 Y394.090
G01 X298.565 Y387.578
G01 X302.902 Y381.815
G01 X307.573 Y375.290
G01 X311.200 Y369.545
G01 X315.148 Y363.195
G01 X318.174 Y357.646
G01 X321.595 Y351.646
G01 X324.212 Y346.404
G01 X327.333 Y340.860
G01 X329.732 Y336.025
G01 X332.811 Y330.986
G01 X335.230 Y326.557
G01 X338.497 Y321.968
G01 X341.118 Y317.904
G01 X344.755 Y313.629
G01 X347.735 Y309.779
G01 X351.836 Y305.614
G01 X355.230 Y301.814
G01 X359.792 Y297.517
G01 X363.596 Y293.543
G01 X368.537 Y288.882
G01 X372.645 Y284.556
G01 X377.791 Y279.323
G01 X382.056 Y274.459
G01 X387.210 Y268.504
G01 X391.441 Y262.998
G01 X396.381 Y256.233
G01 X400.372 Y250.036
G01 X404.866 Y242.429
G01 X408.430 Y235.501
G01 X412.256 Y227.077
G01 X415.188 Y219.487
G01 X418.140 Y210.321
G01 X420.279 Y202.111
G01 X422.195 Y192.315
G01 X423.397 Y183.630
G01 X424.114 Y173.361
G01 X424.250 Y164.305
G01 X423.669 Y153.734
G01 X422.665 Y144.504
G01 X420.703 Y133.830
G01 X418.493 Y124.560
G01 X415.114 Y113.990
G01 X411.688 Y104.906
G01 X406.887 Y94.659
G01 X402.238 Y85.906
G01 X396.056 Y76.191
G01 X390.253 Y67.989
G01 X382.760 Y59.014
G01 X375.846 Y51.501
G01 X367.148 Y43.461
G01 X359.258 Y36.834
G01 X349.491 Y29.906
G01 X340.715 Y24.282
G01 X330.045 Y18.614
G01 X320.575 Y14.135
G01 X309.187 Y9.858
G01 X299.145 Y6.607
G01 X287.245 Y3.815
G01 X276.837 Y1.872
G01 X264.643 Y0.626
G01 X254.084 Y0.033
G01 X241.821 Y0.362
G01 X231.259 Y1.130
G01 X219.155 Y3.026
G01 X208.833 Y5.131
G01 X197.109 Y8.551
G01 X187.168 Y11.955
G01 X176.040 Y16.826
G01 X166.708 Y21.439
G01 X156.370 Y27.645
G01 X147.764 Y33.379
G01 X138.397 Y40.791
G01 X130.706 Y47.496
G01 X122.460 Y55.947
G01 X115.768 Y63.504
G01 X108.768 Y72.811
G01 X103.204 Y81.020
G01 X97.537 Y90.980
G01 X93.138 Y99.701
G01 X88.866 Y110.109
G01 X85.695 Y119.123
G01 X82.833 Y129.761
G01 X80.876 Y138.921
G01 X79.405 Y149.576
G01 X78.642 Y158.658
G01 X78.499 Y169.125
G01 X78.864 Y178.001
G01 X79.968 Y188.098
G01 X81.376 Y196.573
G01 X83.576 Y206.129
G01 X85.897 Y214.107
G01 X89.037 Y222.991
G01 X92.126 Y230.349
G01 X96.022 Y238.469
G01 X99.707 Y245.124
G01 X104.119 Y252.430
G01 X108.210 Y258.385
G01 X112.922 Y264.884
G01 X117.215 Y270.132
G01 X121.982 Y275.891
G01 X126.292 Y280.531
G01 X130.905 Y285.676
G01 X135.043 Y289.809
G01 X139.304 Y294.529
G01 X143.133 Y298.349
G01 X146.938 Y302.866
G01 X150.364 Y306.555
G01 X153.681 Y311.108
G01 X156.712 Y314.891
G01 X159.614 Y319.694
G01 X162.314 Y323.732
G01 X164.964 Y328.942
G01 X167.498 Y333.376
G01 X170.123 Y339.069
G01 X172.678 Y343.928
G01 X175.536 Y350.087
G01 X178.346 Y355.361
G01 X181.676 Y361.905
G01 X184.927 Y367.482
G01 X188.940 Y374.258
G01 X192.820 Y380.017
G01 X197.668 Y386.852
G01 X202.277 Y392.607
G01 X208.069 Y399.275
G01 X213.510 Y404.849
G01 X220.287 Y411.143
G01 X226.571 Y416.338
G01 X234.327 Y422.054
G01 X241.419 Y426.684
G01 X250.101 Y431.597
G01 X257.975 Y435.491
G01 X267.488 Y439.431
G01 X276.014 Y442.430
G01 X286.224 Y445.230
G01 X295.317 Y447.208
G01 X306.063 Y448.732
G01 X315.533 Y449.574
G01 X326.627 Y449.717
G01 X336.350 Y449.344
G01 X347.592 Y448.043
G01 X357.346 Y446.415
G01 X368.520 Y443.634
G01 X378.162 Y440.724
G01 X389.049 Y436.463
G01 X398.344 Y432.296
G01 X408.726 Y426.595
G01 X417.531 Y421.199
G01 X427.201 Y414.136
G01 X435.303 Y407.613
G01 X444.059 Y399.290
G01 X451.325 Y391.709
G01 X458.992 Y382.265
G01 X465.246 Y373.793
G01 X471.667 Y363.392
G01 X476.811 Y354.137
G01 X481.859 Y342.968
G01 X485.770 Y333.142
G01 X489.347 Y321.408
G01 X491.968 Y311.147
G01 X494.009 Y299.066
G01 X495.285 Y288.610
G01 X495.758 Y276.407
G01 X495.681 Y265.900
G01 X494.594 Y253.801
G01 X493.177 Y243.463
G01 X490.566 Y231.691
G01 X487.862 Y221.735
G01 X483.802 Y210.501
G01 X479.873 Y201.059
G01 X474.473 Y190.559
G01 X469.440 Y181.837
G01 X462.836 Y172.246
G01 X456.803 Y164.345
G01 X449.151 Y155.815
G01 X442.287 Y148.895
G01 X433.772 Y141.543
G01 X426.211 Y135.664
G01 X417.030 Y129.577
G01 X408.982 Y124.827
G01 X399.346 Y120.051
G01 X390.956 Y116.437
G01 X381.068 Y112.990
G01 X372.550 Y110.533
G01 X362.630 Y108.371
G01 X354.130 Y107.010
G01 X344.367 Y106.070
G01 X336.083 Y105.745
G01 X326.659 Y105.910
G01 X318.699 Y106.510
G01 X309.764 Y107.627
G01 X302.286 Y109.008
G01 X293.958 Y110.876
G01 X287.013 Y112.867
G01 X279.355 Y115.275
G01 X273.016 Y117.682
G01 X266.042 Y120.380
G01 X260.274 Y123.000
G01 X253.932 Y125.736
G01 X248.689 Y128.350
G01 X242.862 Y130.899
G01 X238.036 Y133.317
G01 X232.546 Y135.492
G01 X227.950 Y137.577
G01 X222.580 Y139.278
G01 X218.042 Y140.949
G01 X212.566 Y142.178
G01 X207.870 Y143.463
G01 X202.087 Y144.322
G01 X197.089 Y145.314
G01 X190.860 Y146.003
G01 X185.431 Y146.891
G01 X178.682 Y147.647
G01 X172.801 Y148.635
G01 X165.542 Y149.721
G01 X159.209 Y151.041
G01 X151.504 Y152.692
G01 X144.821 Y154.536
G01 X136.809 Y156.972
G01 X129.880 Y159.531
G01 X121.716 Y162.906
G01 X114.718 Y166.289
G01 X106.595 Y170.718
G01 X99.670 Y175.028
G01 X91.794 Y180.574
G01 X85.159 Y185.833
G01 X77.746 Y192.509
G01 X71.556 Y198.742
G01 X64.797 Y206.513
G01 X59.246 Y213.647
G01 X53.358 Y222.443
G01 X48.603 Y230.440
G01 X43.754 Y240.148
G01 X39.948 Y248.883
G01 X36.291 Y259.360
G01 X33.564 Y268.677
G01 X31.233 Y279.752
G01 X29.680 Y289.541
G01 X28.776 Y301.021
G01 X28.480 Y311.065
G01 X29.070 Y322.740
G01 X30.078 Y332.900
G01 X32.190 Y344.555
G01 X34.508 Y354.595
G01 X38.143 Y366.004
G01 X41.771 Y375.777
G01 X46.890 Y386.721
G01 X51.763 Y395.994
G01 X58.289 Y406.259
G01 X64.357 Y414.896
G01 X72.183 Y424.285
G01 X79.312 Y432.080
G01 X88.304 Y440.410
G01 X96.402 Y447.250
G01 X106.397 Y454.363
G01 X115.276 Y460.088
G01 X126.086 Y465.855
G01 X135.621 Y470.392
G01 X147.044 Y474.710
G01 X157.010 Y477.961
G01 X168.829 Y480.766
G01 X179.083 Y482.701
G01 X191.076 Y483.955
G01 X201.376 Y484.545
G01 X213.317 Y484.261
G01 X223.518 Y483.531
G01 X235.188 Y481.741
G01 X245.080 Y479.730
G01 X256.269 Y476.504
G01 X265.653 Y473.292
G01 X276.170 Y468.741
G01 X284.929 Y464.416
G01 X294.601 Y458.670
G01 X302.556 Y453.377
G01 X311.242 Y446.604
G01 X318.316 Y440.466
G01 X325.898 Y432.834
G01 X331.968 Y426.032
G01 X338.377 Y417.755
G01 X343.423 Y410.445
G01 X348.616 Y401.718
G01 X352.590 Y394.102
G01 X356.577 Y385.141
G01 X359.519 Y377.369
G01 X362.350 Y368.379
G01 X364.300 Y360.658
G01 X366.078 Y351.834
G01 X367.146 Y344.288
G01 X368.010 Y335.795
G01 X368.320 Y328.591
G01 X368.464 Y320.564
G01 X368.190 Y313.773
G01 X367.842 Y306.304
G01 X367.189 Y300.019
G01 X366.606 Y293.137
G01 X365.790 Y287.335
G01 X365.217 Y280.999
G01 X364.452 Y275.655
G01 X364.132 Y269.759
G01 X363.613 Y264.739
G01 X363.703 Y259.107
G01 X363.558 Y254.262
G01 X364.129 Y248.679
G01 X364.401 Y243.829
G01 X365.416 Y238.073
G01 X366.058 Y233.007
G01 X367.383 Y226.880
G01 X368.263 Y221.461
G01 X369.682 Y214.822
G01 X370.608 Y208.919
G01 X371.887 Y201.687
G01 X372.647 Y195.275
G01 X373.516 Y187.448
G01 X373.880 Y180.513
G01 X374.114 Y172.139
G01 X373.890 Y164.771
G01 X373.278 Y155.957
G01 X372.286 Y148.229
G01 X370.661 Y139.121
G01 X368.773 Y131.206
G01 X366.008 Y121.982
G01 X363.114 Y114.006
