;  Created by Sandify
;  https://sandify.org
;  Version: 0.2.6
;
;  Machine type: Rectangular
;    Min X (mm): 0
;    Max X (mm): 500
;    Min Y (mm): 0
;    Max Y (mm): 500
;  Content type: shape
;  Layer:
;    Shape: Fractal Line Writer
;    Name: fractal line writer
;    Type: Fractal Tree
;    Iterations: 4
;    Visible: true
;    Initial width: 28
;    Initial height: 25
;    X offset: 0
;    Y offset: -22
;    Rotate (degrees): 0
;    Reverse path: false
;    Fine tuning:
;      Connect to next layer: line
;      Draw portion of path (%): 100
;      Backtrack at end (%): 0
;      Rotate starting point (%): 0
;  Reverse export path: false
;
; File name: 'fractaltree'
; File type: gcode
;

G01 X250.000 Y3.000
G01 X250.000 Y8.556
G01 X246.341 Y13.056
G01 X242.683 Y17.556
G01 X246.341 Y13.056
G01 X250.000 Y8.556
G01 X253.659 Y13.056
G01 X257.317 Y17.556
G01 X253.659 Y13.056
G01 X250.000 Y8.556
G01 X250.000 Y14.111
G01 X253.659 Y18.611
G01 X250.000 Y14.111
G01 X246.341 Y18.611
G01 X250.000 Y14.111
G01 X250.000 Y19.667
G01 X246.341 Y24.167
G01 X240.418 Y25.889
G01 X234.494 Y27.611
G01 X240.418 Y25.889
G01 X246.341 Y24.167
G01 X246.341 Y29.722
G01 X246.341 Y35.278
G01 X246.341 Y29.722
G01 X246.341 Y24.167
G01 X242.683 Y28.667
G01 X242.683 Y34.222
G01 X242.683 Y28.667
G01 X236.759 Y30.389
G01 X242.683 Y28.667
G01 X239.024 Y33.167
G01 X235.365 Y37.667
G01 X229.442 Y39.389
G01 X223.518 Y41.111
G01 X229.442 Y39.389
G01 X235.365 Y37.667
G01 X235.365 Y43.222
G01 X235.365 Y48.778
G01 X235.365 Y43.222
G01 X235.365 Y37.667
G01 X231.707 Y42.167
G01 X231.707 Y47.722
G01 X231.707 Y42.167
G01 X225.783 Y43.889
G01 X231.707 Y42.167
G01 X228.048 Y46.667
G01 X231.707 Y42.167
G01 X235.365 Y37.667
G01 X239.024 Y33.167
G01 X242.683 Y28.667
G01 X246.341 Y24.167
G01 X250.000 Y19.667
G01 X253.659 Y24.167
G01 X253.659 Y29.722
G01 X253.659 Y35.278
G01 X253.659 Y29.722
G01 X253.659 Y24.167
G01 X259.582 Y25.889
G01 X265.506 Y27.611
G01 X259.582 Y25.889
G01 X253.659 Y24.167
G01 X257.317 Y28.667
G01 X263.241 Y30.389
G01 X257.317 Y28.667
G01 X257.317 Y34.222
G01 X257.317 Y28.667
G01 X260.976 Y33.167
G01 X264.635 Y37.667
G01 X264.635 Y43.222
G01 X264.635 Y48.778
G01 X264.635 Y43.222
G01 X264.635 Y37.667
G01 X270.558 Y39.389
G01 X276.482 Y41.111
G01 X270.558 Y39.389
G01 X264.635 Y37.667
G01 X268.293 Y42.167
G01 X274.217 Y43.889
G01 X268.293 Y42.167
G01 X268.293 Y47.722
G01 X268.293 Y42.167
G01 X271.952 Y46.667
G01 X268.293 Y42.167
G01 X264.635 Y37.667
G01 X260.976 Y33.167
G01 X257.317 Y28.667
G01 X253.659 Y24.167
G01 X250.000 Y19.667
G01 X250.000 Y25.222
G01 X246.341 Y29.722
G01 X242.683 Y34.222
G01 X246.341 Y29.722
G01 X250.000 Y25.222
G01 X253.659 Y29.722
G01 X257.317 Y34.222
G01 X253.659 Y29.722
G01 X250.000 Y25.222
G01 X250.000 Y30.778
G01 X253.659 Y35.278
G01 X250.000 Y30.778
G01 X246.341 Y35.278
G01 X250.000 Y30.778
G01 X250.000 Y36.333
G01 X253.659 Y40.833
G01 X253.659 Y46.389
G01 X253.659 Y51.944
G01 X253.659 Y46.389
G01 X253.659 Y40.833
G01 X259.582 Y42.556
G01 X265.506 Y44.278
G01 X259.582 Y42.556
G01 X253.659 Y40.833
G01 X257.317 Y45.333
G01 X263.241 Y47.056
G01 X257.317 Y45.333
G01 X257.317 Y50.889
G01 X257.317 Y45.333
G01 X260.976 Y49.833
G01 X257.317 Y45.333
G01 X253.659 Y40.833
G01 X250.000 Y36.333
G01 X246.341 Y40.833
G01 X240.418 Y42.556
G01 X234.494 Y44.278
G01 X240.418 Y42.556
G01 X246.341 Y40.833
G01 X246.341 Y46.389
G01 X246.341 Y51.944
G01 X246.341 Y46.389
G01 X246.341 Y40.833
G01 X242.683 Y45.333
G01 X242.683 Y50.889
G01 X242.683 Y45.333
G01 X236.759 Y47.056
G01 X242.683 Y45.333
G01 X239.024 Y49.833
G01 X242.683 Y45.333
G01 X246.341 Y40.833
G01 X250.000 Y36.333
G01 X250.000 Y41.889
G01 X246.341 Y46.389
G01 X242.683 Y50.889
G01 X246.341 Y46.389
G01 X250.000 Y41.889
G01 X253.659 Y46.389
G01 X257.317 Y50.889
G01 X253.659 Y46.389
G01 X250.000 Y41.889
G01 X250.000 Y47.444
G01 X253.659 Y51.944
G01 X250.000 Y47.444
G01 X246.341 Y51.944
G01 X250.000 Y47.444
G01 X250.000 Y53.000
G01 X246.341 Y57.500
G01 X240.418 Y59.222
G01 X234.494 Y60.944
G01 X240.418 Y59.222
G01 X246.341 Y57.500
G01 X246.341 Y63.056
G01 X246.341 Y68.611
G01 X246.341 Y63.056
G01 X246.341 Y57.500
G01 X242.683 Y62.000
G01 X242.683 Y67.556
G01 X242.683 Y62.000
G01 X236.759 Y63.722
G01 X242.683 Y62.000
G01 X239.024 Y66.500
G01 X233.100 Y68.222
G01 X227.177 Y66.500
G01 X221.253 Y64.778
G01 X227.177 Y66.500
G01 X233.100 Y68.222
G01 X229.442 Y72.722
G01 X225.783 Y77.222
G01 X229.442 Y72.722
G01 X233.100 Y68.222
G01 X227.177 Y69.944
G01 X223.518 Y74.444
G01 X227.177 Y69.944
G01 X221.253 Y68.222
G01 X227.177 Y69.944
G01 X221.253 Y71.667
G01 X215.330 Y73.389
G01 X209.406 Y71.667
G01 X203.483 Y69.944
G01 X209.406 Y71.667
G01 X215.330 Y73.389
G01 X211.671 Y77.889
G01 X208.012 Y82.389
G01 X211.671 Y77.889
G01 X215.330 Y73.389
G01 X209.406 Y75.111
G01 X205.748 Y79.611
G01 X209.406 Y75.111
G01 X203.483 Y73.389
G01 X209.406 Y75.111
G01 X203.483 Y76.833
G01 X209.406 Y75.111
G01 X215.330 Y73.389
G01 X221.253 Y71.667
G01 X227.177 Y69.944
G01 X233.100 Y68.222
G01 X239.024 Y66.500
G01 X239.024 Y72.056
G01 X235.365 Y76.556
G01 X231.707 Y81.056
G01 X235.365 Y76.556
G01 X239.024 Y72.056
G01 X242.683 Y76.556
G01 X246.341 Y81.056
G01 X242.683 Y76.556
G01 X239.024 Y72.056
G01 X239.024 Y77.611
G01 X242.683 Y82.111
G01 X239.024 Y77.611
G01 X235.365 Y82.111
G01 X239.024 Y77.611
G01 X239.024 Y83.167
G01 X239.024 Y88.722
G01 X235.365 Y93.222
G01 X231.707 Y97.722
G01 X235.365 Y93.222
G01 X239.024 Y88.722
G01 X242.683 Y93.222
G01 X246.341 Y97.722
G01 X242.683 Y93.222
G01 X239.024 Y88.722
G01 X239.024 Y94.278
G01 X242.683 Y98.778
G01 X239.024 Y94.278
G01 X235.365 Y98.778
G01 X239.024 Y94.278
G01 X239.024 Y99.833
G01 X239.024 Y94.278
G01 X239.024 Y88.722
G01 X239.024 Y83.167
G01 X239.024 Y77.611
G01 X239.024 Y72.056
G01 X239.024 Y66.500
G01 X235.365 Y71.000
G01 X229.442 Y72.722
G01 X223.518 Y74.444
G01 X229.442 Y72.722
G01 X235.365 Y71.000
G01 X235.365 Y76.556
G01 X235.365 Y82.111
G01 X235.365 Y76.556
G01 X235.365 Y71.000
G01 X231.707 Y75.500
G01 X231.707 Y81.056
G01 X231.707 Y75.500
G01 X225.783 Y77.222
G01 X231.707 Y75.500
G01 X228.048 Y80.000
G01 X228.048 Y85.556
G01 X224.389 Y90.056
G01 X220.731 Y94.556
G01 X224.389 Y90.056
G01 X228.048 Y85.556
G01 X231.707 Y90.056
G01 X235.365 Y94.556
G01 X231.707 Y90.056
G01 X228.048 Y85.556
G01 X228.048 Y91.111
G01 X231.707 Y95.611
G01 X228.048 Y91.111
G01 X224.389 Y95.611
G01 X228.048 Y91.111
G01 X228.048 Y96.667
G01 X228.048 Y91.111
G01 X228.048 Y85.556
G01 X228.048 Y80.000
G01 X222.124 Y81.722
G01 X216.201 Y80.000
G01 X210.277 Y78.278
G01 X216.201 Y80.000
G01 X222.124 Y81.722
G01 X218.466 Y86.222
G01 X214.807 Y90.722
G01 X218.466 Y86.222
G01 X222.124 Y81.722
G01 X216.201 Y83.444
G01 X212.542 Y87.944
G01 X216.201 Y83.444
G01 X210.277 Y81.722
G01 X216.201 Y83.444
G01 X210.277 Y85.167
G01 X216.201 Y83.444
G01 X222.124 Y81.722
G01 X228.048 Y80.000
G01 X224.389 Y84.500
G01 X218.466 Y86.222
G01 X212.542 Y87.944
G01 X218.466 Y86.222
G01 X224.389 Y84.500
G01 X224.389 Y90.056
G01 X224.389 Y95.611
G01 X224.389 Y90.056
G01 X224.389 Y84.500
G01 X220.731 Y89.000
G01 X220.731 Y94.556
G01 X220.731 Y89.000
G01 X214.807 Y90.722
G01 X220.731 Y89.000
G01 X217.072 Y93.500
G01 X213.413 Y98.000
G01 X207.490 Y99.722
G01 X201.566 Y101.444
G01 X207.490 Y99.722
G01 X213.413 Y98.000
G01 X213.413 Y103.556
G01 X213.413 Y109.111
G01 X213.413 Y103.556
G01 X213.413 Y98.000
G01 X209.755 Y102.500
G01 X209.755 Y108.056
G01 X209.755 Y102.500
G01 X203.831 Y104.222
G01 X209.755 Y102.500
G01 X206.096 Y107.000
G01 X200.172 Y108.722
G01 X194.249 Y107.000
G01 X188.325 Y105.278
G01 X194.249 Y107.000
G01 X200.172 Y108.722
G01 X196.514 Y113.222
G01 X192.855 Y117.722
G01 X196.514 Y113.222
G01 X200.172 Y108.722
G01 X194.249 Y110.444
G01 X190.590 Y114.944
G01 X194.249 Y110.444
G01 X188.325 Y108.722
G01 X194.249 Y110.444
G01 X188.325 Y112.167
G01 X182.402 Y113.889
G01 X176.478 Y112.167
G01 X170.555 Y110.444
G01 X176.478 Y112.167
G01 X182.402 Y113.889
G01 X178.743 Y118.389
G01 X175.084 Y122.889
G01 X178.743 Y118.389
G01 X182.402 Y113.889
G01 X176.478 Y115.611
G01 X172.820 Y120.111
G01 X176.478 Y115.611
G01 X170.555 Y113.889
G01 X176.478 Y115.611
G01 X170.555 Y117.333
G01 X176.478 Y115.611
G01 X182.402 Y113.889
G01 X188.325 Y112.167
G01 X194.249 Y110.444
G01 X200.172 Y108.722
G01 X206.096 Y107.000
G01 X206.096 Y112.556
G01 X202.437 Y117.056
G01 X198.779 Y121.556
G01 X202.437 Y117.056
G01 X206.096 Y112.556
G01 X209.755 Y117.056
G01 X213.413 Y121.556
G01 X209.755 Y117.056
G01 X206.096 Y112.556
G01 X206.096 Y118.111
G01 X209.755 Y122.611
G01 X206.096 Y118.111
G01 X202.437 Y122.611
G01 X206.096 Y118.111
G01 X206.096 Y123.667
G01 X206.096 Y129.222
G01 X202.437 Y133.722
G01 X198.779 Y138.222
G01 X202.437 Y133.722
G01 X206.096 Y129.222
G01 X209.755 Y133.722
G01 X213.413 Y138.222
G01 X209.755 Y133.722
G01 X206.096 Y129.222
G01 X206.096 Y134.778
G01 X209.755 Y139.278
G01 X206.096 Y134.778
G01 X202.437 Y139.278
G01 X206.096 Y134.778
G01 X206.096 Y140.333
G01 X206.096 Y134.778
G01 X206.096 Y129.222
G01 X206.096 Y123.667
G01 X206.096 Y118.111
G01 X206.096 Y112.556
G01 X206.096 Y107.000
G01 X202.437 Y111.500
G01 X196.514 Y113.222
G01 X190.590 Y114.944
G01 X196.514 Y113.222
G01 X202.437 Y111.500
G01 X202.437 Y117.056
G01 X202.437 Y122.611
G01 X202.437 Y117.056
G01 X202.437 Y111.500
G01 X198.779 Y116.000
G01 X198.779 Y121.556
G01 X198.779 Y116.000
G01 X192.855 Y117.722
G01 X198.779 Y116.000
G01 X195.120 Y120.500
G01 X195.120 Y126.056
G01 X191.461 Y130.556
G01 X187.803 Y135.056
G01 X191.461 Y130.556
G01 X195.120 Y126.056
G01 X198.779 Y130.556
G01 X202.437 Y135.056
G01 X198.779 Y130.556
G01 X195.120 Y126.056
G01 X195.120 Y131.611
G01 X198.779 Y136.111
G01 X195.120 Y131.611
G01 X191.461 Y136.111
G01 X195.120 Y131.611
G01 X195.120 Y137.167
G01 X195.120 Y131.611
G01 X195.120 Y126.056
G01 X195.120 Y120.500
G01 X189.196 Y122.222
G01 X183.273 Y120.500
G01 X177.349 Y118.778
G01 X183.273 Y120.500
G01 X189.196 Y122.222
G01 X185.538 Y126.722
G01 X181.879 Y131.222
G01 X185.538 Y126.722
G01 X189.196 Y122.222
G01 X183.273 Y123.944
G01 X179.614 Y128.444
G01 X183.273 Y123.944
G01 X177.349 Y122.222
G01 X183.273 Y123.944
G01 X177.349 Y125.667
G01 X183.273 Y123.944
G01 X189.196 Y122.222
G01 X195.120 Y120.500
G01 X191.461 Y125.000
G01 X185.538 Y126.722
G01 X179.614 Y128.444
G01 X185.538 Y126.722
G01 X191.461 Y125.000
G01 X191.461 Y130.556
G01 X191.461 Y136.111
G01 X191.461 Y130.556
G01 X191.461 Y125.000
G01 X187.803 Y129.500
G01 X187.803 Y135.056
G01 X187.803 Y129.500
G01 X181.879 Y131.222
G01 X187.803 Y129.500
G01 X184.144 Y134.000
G01 X187.803 Y129.500
G01 X191.461 Y125.000
G01 X195.120 Y120.500
G01 X198.779 Y116.000
G01 X202.437 Y111.500
G01 X206.096 Y107.000
G01 X209.755 Y102.500
G01 X213.413 Y98.000
G01 X217.072 Y93.500
G01 X220.731 Y89.000
G01 X224.389 Y84.500
G01 X228.048 Y80.000
G01 X231.707 Y75.500
G01 X235.365 Y71.000
G01 X239.024 Y66.500
G01 X242.683 Y62.000
G01 X246.341 Y57.500
G01 X250.000 Y53.000
G01 X253.659 Y57.500
G01 X253.659 Y63.056
G01 X253.659 Y68.611
G01 X253.659 Y63.056
G01 X253.659 Y57.500
G01 X259.582 Y59.222
G01 X265.506 Y60.944
G01 X259.582 Y59.222
G01 X253.659 Y57.500
G01 X257.317 Y62.000
G01 X263.241 Y63.722
G01 X257.317 Y62.000
G01 X257.317 Y67.556
G01 X257.317 Y62.000
G01 X260.976 Y66.500
G01 X260.976 Y72.056
G01 X257.317 Y76.556
G01 X253.659 Y81.056
G01 X257.317 Y76.556
G01 X260.976 Y72.056
G01 X264.635 Y76.556
G01 X268.293 Y81.056
G01 X264.635 Y76.556
G01 X260.976 Y72.056
G01 X260.976 Y77.611
G01 X264.635 Y82.111
G01 X260.976 Y77.611
G01 X257.317 Y82.111
G01 X260.976 Y77.611
G01 X260.976 Y83.167
G01 X260.976 Y88.722
G01 X257.317 Y93.222
G01 X253.659 Y97.722
G01 X257.317 Y93.222
G01 X260.976 Y88.722
G01 X264.635 Y93.222
G01 X268.293 Y97.722
G01 X264.635 Y93.222
G01 X260.976 Y88.722
G01 X260.976 Y94.278
G01 X264.635 Y98.778
G01 X260.976 Y94.278
G01 X257.317 Y98.778
G01 X260.976 Y94.278
G01 X260.976 Y99.833
G01 X260.976 Y94.278
G01 X260.976 Y88.722
G01 X260.976 Y83.167
G01 X260.976 Y77.611
G01 X260.976 Y72.056
G01 X260.976 Y66.500
G01 X266.900 Y68.222
G01 X270.558 Y72.722
G01 X274.217 Y77.222
G01 X270.558 Y72.722
G01 X266.900 Y68.222
G01 X272.823 Y66.500
G01 X278.747 Y64.778
G01 X272.823 Y66.500
G01 X266.900 Y68.222
G01 X272.823 Y69.944
G01 X278.747 Y68.222
G01 X272.823 Y69.944
G01 X276.482 Y74.444
G01 X272.823 Y69.944
G01 X278.747 Y71.667
G01 X284.670 Y73.389
G01 X288.329 Y77.889
G01 X291.988 Y82.389
G01 X288.329 Y77.889
G01 X284.670 Y73.389
G01 X290.594 Y71.667
G01 X296.517 Y69.944
G01 X290.594 Y71.667
G01 X284.670 Y73.389
G01 X290.594 Y75.111
G01 X296.517 Y73.389
G01 X290.594 Y75.111
G01 X294.252 Y79.611
G01 X290.594 Y75.111
G01 X296.517 Y76.833
G01 X290.594 Y75.111
G01 X284.670 Y73.389
G01 X278.747 Y71.667
G01 X272.823 Y69.944
G01 X266.900 Y68.222
G01 X260.976 Y66.500
G01 X264.635 Y71.000
G01 X264.635 Y76.556
G01 X264.635 Y82.111
G01 X264.635 Y76.556
G01 X264.635 Y71.000
G01 X270.558 Y72.722
G01 X276.482 Y74.444
G01 X270.558 Y72.722
G01 X264.635 Y71.000
G01 X268.293 Y75.500
G01 X274.217 Y77.222
G01 X268.293 Y75.500
G01 X268.293 Y81.056
G01 X268.293 Y75.500
G01 X271.952 Y80.000
G01 X277.876 Y81.722
G01 X281.534 Y86.222
G01 X285.193 Y90.722
G01 X281.534 Y86.222
G01 X277.876 Y81.722
G01 X283.799 Y80.000
G01 X289.723 Y78.278
G01 X283.799 Y80.000
G01 X277.876 Y81.722
G01 X283.799 Y83.444
G01 X289.723 Y81.722
G01 X283.799 Y83.444
G01 X287.458 Y87.944
G01 X283.799 Y83.444
G01 X289.723 Y85.167
G01 X283.799 Y83.444
G01 X277.876 Y81.722
G01 X271.952 Y80.000
G01 X271.952 Y85.556
G01 X268.293 Y90.056
G01 X264.635 Y94.556
G01 X268.293 Y90.056
G01 X271.952 Y85.556
G01 X275.611 Y90.056
G01 X279.269 Y94.556
G01 X275.611 Y90.056
G01 X271.952 Y85.556
G01 X271.952 Y91.111
G01 X275.611 Y95.611
G01 X271.952 Y91.111
G01 X268.293 Y95.611
G01 X271.952 Y91.111
G01 X271.952 Y96.667
G01 X271.952 Y91.111
G01 X271.952 Y85.556
G01 X271.952 Y80.000
G01 X275.611 Y84.500
G01 X275.611 Y90.056
G01 X275.611 Y95.611
G01 X275.611 Y90.056
G01 X275.611 Y84.500
G01 X281.534 Y86.222
G01 X287.458 Y87.944
G01 X281.534 Y86.222
G01 X275.611 Y84.500
G01 X279.269 Y89.000
G01 X285.193 Y90.722
G01 X279.269 Y89.000
G01 X279.269 Y94.556
G01 X279.269 Y89.000
G01 X282.928 Y93.500
G01 X286.587 Y98.000
G01 X286.587 Y103.556
G01 X286.587 Y109.111
G01 X286.587 Y103.556
G01 X286.587 Y98.000
G01 X292.510 Y99.722
G01 X298.434 Y101.444
G01 X292.510 Y99.722
G01 X286.587 Y98.000
G01 X290.245 Y102.500
G01 X296.169 Y104.222
G01 X290.245 Y102.500
G01 X290.245 Y108.056
G01 X290.245 Y102.500
G01 X293.904 Y107.000
G01 X293.904 Y112.556
G01 X290.245 Y117.056
G01 X286.587 Y121.556
G01 X290.245 Y117.056
G01 X293.904 Y112.556
G01 X297.563 Y117.056
G01 X301.221 Y121.556
G01 X297.563 Y117.056
G01 X293.904 Y112.556
G01 X293.904 Y118.111
G01 X297.563 Y122.611
G01 X293.904 Y118.111
G01 X290.245 Y122.611
G01 X293.904 Y118.111
G01 X293.904 Y123.667
G01 X293.904 Y129.222
G01 X290.245 Y133.722
G01 X286.587 Y138.222
G01 X290.245 Y133.722
G01 X293.904 Y129.222
G01 X297.563 Y133.722
G01 X301.221 Y138.222
G01 X297.563 Y133.722
G01 X293.904 Y129.222
G01 X293.904 Y134.778
G01 X297.563 Y139.278
G01 X293.904 Y134.778
G01 X290.245 Y139.278
G01 X293.904 Y134.778
G01 X293.904 Y140.333
G01 X293.904 Y134.778
G01 X293.904 Y129.222
G01 X293.904 Y123.667
G01 X293.904 Y118.111
G01 X293.904 Y112.556
G01 X293.904 Y107.000
G01 X299.828 Y108.722
G01 X303.486 Y113.222
G01 X307.145 Y117.722
G01 X303.486 Y113.222
G01 X299.828 Y108.722
G01 X305.751 Y107.000
G01 X311.675 Y105.278
G01 X305.751 Y107.000
G01 X299.828 Y108.722
G01 X305.751 Y110.444
G01 X311.675 Y108.722
G01 X305.751 Y110.444
G01 X309.410 Y114.944
G01 X305.751 Y110.444
G01 X311.675 Y112.167
G01 X317.598 Y113.889
G01 X321.257 Y118.389
G01 X324.916 Y122.889
G01 X321.257 Y118.389
G01 X317.598 Y113.889
G01 X323.522 Y112.167
G01 X329.445 Y110.444
G01 X323.522 Y112.167
G01 X317.598 Y113.889
G01 X323.522 Y115.611
G01 X329.445 Y113.889
G01 X323.522 Y115.611
G01 X327.180 Y120.111
G01 X323.522 Y115.611
G01 X329.445 Y117.333
G01 X323.522 Y115.611
G01 X317.598 Y113.889
G01 X311.675 Y112.167
G01 X305.751 Y110.444
G01 X299.828 Y108.722
G01 X293.904 Y107.000
G01 X297.563 Y111.500
G01 X297.563 Y117.056
G01 X297.563 Y122.611
G01 X297.563 Y117.056
G01 X297.563 Y111.500
G01 X303.486 Y113.222
G01 X309.410 Y114.944
G01 X303.486 Y113.222
G01 X297.563 Y111.500
G01 X301.221 Y116.000
G01 X307.145 Y117.722
G01 X301.221 Y116.000
G01 X301.221 Y121.556
G01 X301.221 Y116.000
G01 X304.880 Y120.500
G01 X310.804 Y122.222
G01 X314.462 Y126.722
G01 X318.121 Y131.222
G01 X314.462 Y126.722
G01 X310.804 Y122.222
G01 X316.727 Y120.500
G01 X322.651 Y118.778
G01 X316.727 Y120.500
G01 X310.804 Y122.222
G01 X316.727 Y123.944
G01 X322.651 Y122.222
G01 X316.727 Y123.944
G01 X320.386 Y128.444
G01 X316.727 Y123.944
G01 X322.651 Y125.667
G01 X316.727 Y123.944
G01 X310.804 Y122.222
G01 X304.880 Y120.500
G01 X304.880 Y126.056
G01 X301.221 Y130.556
G01 X297.563 Y135.056
G01 X301.221 Y130.556
G01 X304.880 Y126.056
G01 X308.539 Y130.556
G01 X312.197 Y135.056
G01 X308.539 Y130.556
G01 X304.880 Y126.056
G01 X304.880 Y131.611
G01 X308.539 Y136.111
G01 X304.880 Y131.611
G01 X301.221 Y136.111
G01 X304.880 Y131.611
G01 X304.880 Y137.167
G01 X304.880 Y131.611
G01 X304.880 Y126.056
G01 X304.880 Y120.500
G01 X308.539 Y125.000
G01 X308.539 Y130.556
G01 X308.539 Y136.111
G01 X308.539 Y130.556
G01 X308.539 Y125.000
G01 X314.462 Y126.722
G01 X320.386 Y128.444
G01 X314.462 Y126.722
G01 X308.539 Y125.000
G01 X312.197 Y129.500
G01 X318.121 Y131.222
G01 X312.197 Y129.500
G01 X312.197 Y135.056
G01 X312.197 Y129.500
G01 X315.856 Y134.000
G01 X312.197 Y129.500
G01 X308.539 Y125.000
G01 X304.880 Y120.500
G01 X301.221 Y116.000
G01 X297.563 Y111.500
G01 X293.904 Y107.000
G01 X290.245 Y102.500
G01 X286.587 Y98.000
G01 X282.928 Y93.500
G01 X279.269 Y89.000
G01 X275.611 Y84.500
G01 X271.952 Y80.000
G01 X268.293 Y75.500
G01 X264.635 Y71.000
G01 X260.976 Y66.500
G01 X257.317 Y62.000
G01 X253.659 Y57.500
G01 X250.000 Y53.000
G01 X250.000 Y58.556
G01 X246.341 Y63.056
G01 X242.683 Y67.556
G01 X246.341 Y63.056
G01 X250.000 Y58.556
G01 X253.659 Y63.056
G01 X257.317 Y67.556
G01 X253.659 Y63.056
G01 X250.000 Y58.556
G01 X250.000 Y64.111
G01 X253.659 Y68.611
G01 X250.000 Y64.111
G01 X246.341 Y68.611
G01 X250.000 Y64.111
G01 X250.000 Y69.667
G01 X246.341 Y74.167
G01 X240.418 Y75.889
G01 X234.494 Y77.611
G01 X240.418 Y75.889
G01 X246.341 Y74.167
G01 X246.341 Y79.722
G01 X246.341 Y85.278
G01 X246.341 Y79.722
G01 X246.341 Y74.167
G01 X242.683 Y78.667
G01 X242.683 Y84.222
G01 X242.683 Y78.667
G01 X236.759 Y80.389
G01 X242.683 Y78.667
G01 X239.024 Y83.167
G01 X235.365 Y87.667
G01 X229.442 Y89.389
G01 X223.518 Y91.111
G01 X229.442 Y89.389
G01 X235.365 Y87.667
G01 X235.365 Y93.222
G01 X235.365 Y98.778
G01 X235.365 Y93.222
G01 X235.365 Y87.667
G01 X231.707 Y92.167
G01 X231.707 Y97.722
G01 X231.707 Y92.167
G01 X225.783 Y93.889
G01 X231.707 Y92.167
G01 X228.048 Y96.667
G01 X231.707 Y92.167
G01 X235.365 Y87.667
G01 X239.024 Y83.167
G01 X242.683 Y78.667
G01 X246.341 Y74.167
G01 X250.000 Y69.667
G01 X253.659 Y74.167
G01 X253.659 Y79.722
G01 X253.659 Y85.278
G01 X253.659 Y79.722
G01 X253.659 Y74.167
G01 X259.582 Y75.889
G01 X265.506 Y77.611
G01 X259.582 Y75.889
G01 X253.659 Y74.167
G01 X257.317 Y78.667
G01 X263.241 Y80.389
G01 X257.317 Y78.667
G01 X257.317 Y84.222
G01 X257.317 Y78.667
G01 X260.976 Y83.167
G01 X264.635 Y87.667
G01 X264.635 Y93.222
G01 X264.635 Y98.778
G01 X264.635 Y93.222
G01 X264.635 Y87.667
G01 X270.558 Y89.389
G01 X276.482 Y91.111
G01 X270.558 Y89.389
G01 X264.635 Y87.667
G01 X268.293 Y92.167
G01 X274.217 Y93.889
G01 X268.293 Y92.167
G01 X268.293 Y97.722
G01 X268.293 Y92.167
G01 X271.952 Y96.667
G01 X268.293 Y92.167
G01 X264.635 Y87.667
G01 X260.976 Y83.167
G01 X257.317 Y78.667
G01 X253.659 Y74.167
G01 X250.000 Y69.667
G01 X250.000 Y75.222
G01 X246.341 Y79.722
G01 X242.683 Y84.222
G01 X246.341 Y79.722
G01 X250.000 Y75.222
G01 X253.659 Y79.722
G01 X257.317 Y84.222
G01 X253.659 Y79.722
G01 X250.000 Y75.222
G01 X250.000 Y80.778
G01 X253.659 Y85.278
G01 X250.000 Y80.778
G01 X246.341 Y85.278
G01 X250.000 Y80.778
G01 X250.000 Y86.333
G01 X253.659 Y90.833
G01 X253.659 Y96.389
G01 X253.659 Y101.944
G01 X253.659 Y96.389
G01 X253.659 Y90.833
G01 X259.582 Y92.556
G01 X265.506 Y94.278
G01 X259.582 Y92.556
G01 X253.659 Y90.833
G01 X257.317 Y95.333
G01 X263.241 Y97.056
G01 X257.317 Y95.333
G01 X257.317 Y100.889
G01 X257.317 Y95.333
G01 X260.976 Y99.833
G01 X257.317 Y95.333
G01 X253.659 Y90.833
G01 X250.000 Y86.333
G01 X246.341 Y90.833
G01 X240.418 Y92.556
G01 X234.494 Y94.278
G01 X240.418 Y92.556
G01 X246.341 Y90.833
G01 X246.341 Y96.389
G01 X246.341 Y101.944
G01 X246.341 Y96.389
G01 X246.341 Y90.833
G01 X242.683 Y95.333
G01 X242.683 Y100.889
G01 X242.683 Y95.333
G01 X236.759 Y97.056
G01 X242.683 Y95.333
G01 X239.024 Y99.833
G01 X242.683 Y95.333
G01 X246.341 Y90.833
G01 X250.000 Y86.333
G01 X250.000 Y91.889
G01 X246.341 Y96.389
G01 X242.683 Y100.889
G01 X246.341 Y96.389
G01 X250.000 Y91.889
G01 X253.659 Y96.389
G01 X257.317 Y100.889
G01 X253.659 Y96.389
G01 X250.000 Y91.889
G01 X250.000 Y97.444
G01 X253.659 Y101.944
G01 X250.000 Y97.444
G01 X246.341 Y101.944
G01 X250.000 Y97.444
G01 X250.000 Y103.000
G01 X253.659 Y107.500
G01 X253.659 Y113.056
G01 X253.659 Y118.611
G01 X253.659 Y113.056
G01 X253.659 Y107.500
G01 X259.582 Y109.222
G01 X265.506 Y110.944
G01 X259.582 Y109.222
G01 X253.659 Y107.500
G01 X257.317 Y112.000
G01 X263.241 Y113.722
G01 X257.317 Y112.000
G01 X257.317 Y117.556
G01 X257.317 Y112.000
G01 X260.976 Y116.500
G01 X260.976 Y122.056
G01 X257.317 Y126.556
G01 X253.659 Y131.056
G01 X257.317 Y126.556
G01 X260.976 Y122.056
G01 X264.635 Y126.556
G01 X268.293 Y131.056
G01 X264.635 Y126.556
G01 X260.976 Y122.056
G01 X260.976 Y127.611
G01 X264.635 Y132.111
G01 X260.976 Y127.611
G01 X257.317 Y132.111
G01 X260.976 Y127.611
G01 X260.976 Y133.167
G01 X260.976 Y138.722
G01 X257.317 Y143.222
G01 X253.659 Y147.722
G01 X257.317 Y143.222
G01 X260.976 Y138.722
G01 X264.635 Y143.222
G01 X268.293 Y147.722
G01 X264.635 Y143.222
G01 X260.976 Y138.722
G01 X260.976 Y144.278
G01 X264.635 Y148.778
G01 X260.976 Y144.278
G01 X257.317 Y148.778
G01 X260.976 Y144.278
G01 X260.976 Y149.833
G01 X260.976 Y144.278
G01 X260.976 Y138.722
G01 X260.976 Y133.167
G01 X260.976 Y127.611
G01 X260.976 Y122.056
G01 X260.976 Y116.500
G01 X266.900 Y118.222
G01 X270.558 Y122.722
G01 X274.217 Y127.222
G01 X270.558 Y122.722
G01 X266.900 Y118.222
G01 X272.823 Y116.500
G01 X278.747 Y114.778
G01 X272.823 Y116.500
G01 X266.900 Y118.222
G01 X272.823 Y119.944
G01 X278.747 Y118.222
G01 X272.823 Y119.944
G01 X276.482 Y124.444
G01 X272.823 Y119.944
G01 X278.747 Y121.667
G01 X284.670 Y123.389
G01 X288.329 Y127.889
G01 X291.988 Y132.389
G01 X288.329 Y127.889
G01 X284.670 Y123.389
G01 X290.594 Y121.667
G01 X296.517 Y119.944
G01 X290.594 Y121.667
G01 X284.670 Y123.389
G01 X290.594 Y125.111
G01 X296.517 Y123.389
G01 X290.594 Y125.111
G01 X294.252 Y129.611
G01 X290.594 Y125.111
G01 X296.517 Y126.833
G01 X290.594 Y125.111
G01 X284.670 Y123.389
G01 X278.747 Y121.667
G01 X272.823 Y119.944
G01 X266.900 Y118.222
G01 X260.976 Y116.500
G01 X264.635 Y121.000
G01 X264.635 Y126.556
G01 X264.635 Y132.111
G01 X264.635 Y126.556
G01 X264.635 Y121.000
G01 X270.558 Y122.722
G01 X276.482 Y124.444
G01 X270.558 Y122.722
G01 X264.635 Y121.000
G01 X268.293 Y125.500
G01 X274.217 Y127.222
G01 X268.293 Y125.500
G01 X268.293 Y131.056
G01 X268.293 Y125.500
G01 X271.952 Y130.000
G01 X277.876 Y131.722
G01 X281.534 Y136.222
G01 X285.193 Y140.722
G01 X281.534 Y136.222
G01 X277.876 Y131.722
G01 X283.799 Y130.000
G01 X289.723 Y128.278
G01 X283.799 Y130.000
G01 X277.876 Y131.722
G01 X283.799 Y133.444
G01 X289.723 Y131.722
G01 X283.799 Y133.444
G01 X287.458 Y137.944
G01 X283.799 Y133.444
G01 X289.723 Y135.167
G01 X283.799 Y133.444
G01 X277.876 Y131.722
G01 X271.952 Y130.000
G01 X271.952 Y135.556
G01 X268.293 Y140.056
G01 X264.635 Y144.556
G01 X268.293 Y140.056
G01 X271.952 Y135.556
G01 X275.611 Y140.056
G01 X279.269 Y144.556
G01 X275.611 Y140.056
G01 X271.952 Y135.556
G01 X271.952 Y141.111
G01 X275.611 Y145.611
G01 X271.952 Y141.111
G01 X268.293 Y145.611
G01 X271.952 Y141.111
G01 X271.952 Y146.667
G01 X271.952 Y141.111
G01 X271.952 Y135.556
G01 X271.952 Y130.000
G01 X275.611 Y134.500
G01 X275.611 Y140.056
G01 X275.611 Y145.611
G01 X275.611 Y140.056
G01 X275.611 Y134.500
G01 X281.534 Y136.222
G01 X287.458 Y137.944
G01 X281.534 Y136.222
G01 X275.611 Y134.500
G01 X279.269 Y139.000
G01 X285.193 Y140.722
G01 X279.269 Y139.000
G01 X279.269 Y144.556
G01 X279.269 Y139.000
G01 X282.928 Y143.500
G01 X279.269 Y139.000
G01 X275.611 Y134.500
G01 X271.952 Y130.000
G01 X268.293 Y125.500
G01 X264.635 Y121.000
G01 X260.976 Y116.500
G01 X257.317 Y112.000
G01 X253.659 Y107.500
G01 X250.000 Y103.000
G01 X246.341 Y107.500
G01 X240.418 Y109.222
G01 X234.494 Y110.944
G01 X240.418 Y109.222
G01 X246.341 Y107.500
G01 X246.341 Y113.056
G01 X246.341 Y118.611
G01 X246.341 Y113.056
G01 X246.341 Y107.500
G01 X242.683 Y112.000
G01 X242.683 Y117.556
G01 X242.683 Y112.000
G01 X236.759 Y113.722
G01 X242.683 Y112.000
G01 X239.024 Y116.500
G01 X233.100 Y118.222
G01 X227.177 Y116.500
G01 X221.253 Y114.778
G01 X227.177 Y116.500
G01 X233.100 Y118.222
G01 X229.442 Y122.722
G01 X225.783 Y127.222
G01 X229.442 Y122.722
G01 X233.100 Y118.222
G01 X227.177 Y119.944
G01 X223.518 Y124.444
G01 X227.177 Y119.944
G01 X221.253 Y118.222
G01 X227.177 Y119.944
G01 X221.253 Y121.667
G01 X215.330 Y123.389
G01 X209.406 Y121.667
G01 X203.483 Y119.944
G01 X209.406 Y121.667
G01 X215.330 Y123.389
G01 X211.671 Y127.889
G01 X208.012 Y132.389
G01 X211.671 Y127.889
G01 X215.330 Y123.389
G01 X209.406 Y125.111
G01 X205.748 Y129.611
G01 X209.406 Y125.111
G01 X203.483 Y123.389
G01 X209.406 Y125.111
G01 X203.483 Y126.833
G01 X209.406 Y125.111
G01 X215.330 Y123.389
G01 X221.253 Y121.667
G01 X227.177 Y119.944
G01 X233.100 Y118.222
G01 X239.024 Y116.500
G01 X239.024 Y122.056
G01 X235.365 Y126.556
G01 X231.707 Y131.056
G01 X235.365 Y126.556
G01 X239.024 Y122.056
G01 X242.683 Y126.556
G01 X246.341 Y131.056
G01 X242.683 Y126.556
G01 X239.024 Y122.056
G01 X239.024 Y127.611
G01 X242.683 Y132.111
G01 X239.024 Y127.611
G01 X235.365 Y132.111
G01 X239.024 Y127.611
G01 X239.024 Y133.167
G01 X239.024 Y138.722
G01 X235.365 Y143.222
G01 X231.707 Y147.722
G01 X235.365 Y143.222
G01 X239.024 Y138.722
G01 X242.683 Y143.222
G01 X246.341 Y147.722
G01 X242.683 Y143.222
G01 X239.024 Y138.722
G01 X239.024 Y144.278
G01 X242.683 Y148.778
G01 X239.024 Y144.278
G01 X235.365 Y148.778
G01 X239.024 Y144.278
G01 X239.024 Y149.833
G01 X239.024 Y144.278
G01 X239.024 Y138.722
G01 X239.024 Y133.167
G01 X239.024 Y127.611
G01 X239.024 Y122.056
G01 X239.024 Y116.500
G01 X235.365 Y121.000
G01 X229.442 Y122.722
G01 X223.518 Y124.444
G01 X229.442 Y122.722
G01 X235.365 Y121.000
G01 X235.365 Y126.556
G01 X235.365 Y132.111
G01 X235.365 Y126.556
G01 X235.365 Y121.000
G01 X231.707 Y125.500
G01 X231.707 Y131.056
G01 X231.707 Y125.500
G01 X225.783 Y127.222
G01 X231.707 Y125.500
G01 X228.048 Y130.000
G01 X228.048 Y135.556
G01 X224.389 Y140.056
G01 X220.731 Y144.556
G01 X224.389 Y140.056
G01 X228.048 Y135.556
G01 X231.707 Y140.056
G01 X235.365 Y144.556
G01 X231.707 Y140.056
G01 X228.048 Y135.556
G01 X228.048 Y141.111
G01 X231.707 Y145.611
G01 X228.048 Y141.111
G01 X224.389 Y145.611
G01 X228.048 Y141.111
G01 X228.048 Y146.667
G01 X228.048 Y141.111
G01 X228.048 Y135.556
G01 X228.048 Y130.000
G01 X222.124 Y131.722
G01 X216.201 Y130.000
G01 X210.277 Y128.278
G01 X216.201 Y130.000
G01 X222.124 Y131.722
G01 X218.466 Y136.222
G01 X214.807 Y140.722
G01 X218.466 Y136.222
G01 X222.124 Y131.722
G01 X216.201 Y133.444
G01 X212.542 Y137.944
G01 X216.201 Y133.444
G01 X210.277 Y131.722
G01 X216.201 Y133.444
G01 X210.277 Y135.167
G01 X216.201 Y133.444
G01 X222.124 Y131.722
G01 X228.048 Y130.000
G01 X224.389 Y134.500
G01 X218.466 Y136.222
G01 X212.542 Y137.944
G01 X218.466 Y136.222
G01 X224.389 Y134.500
G01 X224.389 Y140.056
G01 X224.389 Y145.611
G01 X224.389 Y140.056
G01 X224.389 Y134.500
G01 X220.731 Y139.000
G01 X220.731 Y144.556
G01 X220.731 Y139.000
G01 X214.807 Y140.722
G01 X220.731 Y139.000
G01 X217.072 Y143.500
G01 X220.731 Y139.000
G01 X224.389 Y134.500
G01 X228.048 Y130.000
G01 X231.707 Y125.500
G01 X235.365 Y121.000
G01 X239.024 Y116.500
G01 X242.683 Y112.000
G01 X246.341 Y107.500
G01 X250.000 Y103.000
G01 X250.000 Y108.556
G01 X246.341 Y113.056
G01 X242.683 Y117.556
G01 X246.341 Y113.056
G01 X250.000 Y108.556
G01 X253.659 Y113.056
G01 X257.317 Y117.556
G01 X253.659 Y113.056
G01 X250.000 Y108.556
G01 X250.000 Y114.111
G01 X253.659 Y118.611
G01 X250.000 Y114.111
G01 X246.341 Y118.611
G01 X250.000 Y114.111
G01 X250.000 Y119.667
G01 X246.341 Y124.167
G01 X240.418 Y125.889
G01 X234.494 Y127.611
G01 X240.418 Y125.889
G01 X246.341 Y124.167
G01 X246.341 Y129.722
G01 X246.341 Y135.278
G01 X246.341 Y129.722
G01 X246.341 Y124.167
G01 X242.683 Y128.667
G01 X242.683 Y134.222
G01 X242.683 Y128.667
G01 X236.759 Y130.389
G01 X242.683 Y128.667
G01 X239.024 Y133.167
G01 X235.365 Y137.667
G01 X229.442 Y139.389
G01 X223.518 Y141.111
G01 X229.442 Y139.389
G01 X235.365 Y137.667
G01 X235.365 Y143.222
G01 X235.365 Y148.778
G01 X235.365 Y143.222
G01 X235.365 Y137.667
G01 X231.707 Y142.167
G01 X231.707 Y147.722
G01 X231.707 Y142.167
G01 X225.783 Y143.889
G01 X231.707 Y142.167
G01 X228.048 Y146.667
G01 X231.707 Y142.167
G01 X235.365 Y137.667
G01 X239.024 Y133.167
G01 X242.683 Y128.667
G01 X246.341 Y124.167
G01 X250.000 Y119.667
G01 X253.659 Y124.167
G01 X253.659 Y129.722
G01 X253.659 Y135.278
G01 X253.659 Y129.722
G01 X253.659 Y124.167
G01 X259.582 Y125.889
G01 X265.506 Y127.611
G01 X259.582 Y125.889
G01 X253.659 Y124.167
G01 X257.317 Y128.667
G01 X263.241 Y130.389
G01 X257.317 Y128.667
G01 X257.317 Y134.222
G01 X257.317 Y128.667
G01 X260.976 Y133.167
G01 X264.635 Y137.667
G01 X264.635 Y143.222
G01 X264.635 Y148.778
G01 X264.635 Y143.222
G01 X264.635 Y137.667
G01 X270.558 Y139.389
G01 X276.482 Y141.111
G01 X270.558 Y139.389
G01 X264.635 Y137.667
G01 X268.293 Y142.167
G01 X274.217 Y143.889
G01 X268.293 Y142.167
G01 X268.293 Y147.722
G01 X268.293 Y142.167
G01 X271.952 Y146.667
G01 X268.293 Y142.167
G01 X264.635 Y137.667
G01 X260.976 Y133.167
G01 X257.317 Y128.667
G01 X253.659 Y124.167
G01 X250.000 Y119.667
G01 X250.000 Y125.222
G01 X246.341 Y129.722
G01 X242.683 Y134.222
G01 X246.341 Y129.722
G01 X250.000 Y125.222
G01 X253.659 Y129.722
G01 X257.317 Y134.222
G01 X253.659 Y129.722
G01 X250.000 Y125.222
G01 X250.000 Y130.778
G01 X253.659 Y135.278
G01 X250.000 Y130.778
G01 X246.341 Y135.278
G01 X250.000 Y130.778
G01 X250.000 Y136.333
G01 X253.659 Y140.833
G01 X253.659 Y146.389
G01 X253.659 Y151.944
G01 X253.659 Y146.389
G01 X253.659 Y140.833
G01 X259.582 Y142.556
G01 X265.506 Y144.278
G01 X259.582 Y142.556
G01 X253.659 Y140.833
G01 X257.317 Y145.333
G01 X263.241 Y147.056
G01 X257.317 Y145.333
G01 X257.317 Y150.889
G01 X257.317 Y145.333
G01 X260.976 Y149.833
G01 X257.317 Y145.333
G01 X253.659 Y140.833
G01 X250.000 Y136.333
G01 X246.341 Y140.833
G01 X240.418 Y142.556
G01 X234.494 Y144.278
G01 X240.418 Y142.556
G01 X246.341 Y140.833
G01 X246.341 Y146.389
G01 X246.341 Y151.944
G01 X246.341 Y146.389
G01 X246.341 Y140.833
G01 X242.683 Y145.333
G01 X242.683 Y150.889
G01 X242.683 Y145.333
G01 X236.759 Y147.056
G01 X242.683 Y145.333
G01 X239.024 Y149.833
G01 X242.683 Y145.333
G01 X246.341 Y140.833
G01 X250.000 Y136.333
G01 X250.000 Y141.889
G01 X246.341 Y146.389
G01 X242.683 Y150.889
G01 X246.341 Y146.389
G01 X250.000 Y141.889
G01 X253.659 Y146.389
G01 X257.317 Y150.889
G01 X253.659 Y146.389
G01 X250.000 Y141.889
G01 X250.000 Y147.444
G01 X253.659 Y151.944
G01 X250.000 Y147.444
G01 X246.341 Y151.944
G01 X250.000 Y147.444
G01 X250.000 Y153.000
G01 X246.341 Y157.500
G01 X240.418 Y159.222
G01 X234.494 Y160.944
G01 X240.418 Y159.222
G01 X246.341 Y157.500
G01 X246.341 Y163.056
G01 X246.341 Y168.611
G01 X246.341 Y163.056
G01 X246.341 Y157.500
G01 X242.683 Y162.000
G01 X242.683 Y167.556
G01 X242.683 Y162.000
G01 X236.759 Y163.722
G01 X242.683 Y162.000
G01 X239.024 Y166.500
G01 X233.100 Y168.222
G01 X227.177 Y166.500
G01 X221.253 Y164.778
G01 X227.177 Y166.500
G01 X233.100 Y168.222
G01 X229.442 Y172.722
G01 X225.783 Y177.222
G01 X229.442 Y172.722
G01 X233.100 Y168.222
G01 X227.177 Y169.944
G01 X223.518 Y174.444
G01 X227.177 Y169.944
G01 X221.253 Y168.222
G01 X227.177 Y169.944
G01 X221.253 Y171.667
G01 X215.330 Y173.389
G01 X209.406 Y171.667
G01 X203.483 Y169.944
G01 X209.406 Y171.667
G01 X215.330 Y173.389
G01 X211.671 Y177.889
G01 X208.012 Y182.389
G01 X211.671 Y177.889
G01 X215.330 Y173.389
G01 X209.406 Y175.111
G01 X205.748 Y179.611
G01 X209.406 Y175.111
G01 X203.483 Y173.389
G01 X209.406 Y175.111
G01 X203.483 Y176.833
G01 X209.406 Y175.111
G01 X215.330 Y173.389
G01 X221.253 Y171.667
G01 X227.177 Y169.944
G01 X233.100 Y168.222
G01 X239.024 Y166.500
G01 X239.024 Y172.056
G01 X235.365 Y176.556
G01 X231.707 Y181.056
G01 X235.365 Y176.556
G01 X239.024 Y172.056
G01 X242.683 Y176.556
G01 X246.341 Y181.056
G01 X242.683 Y176.556
G01 X239.024 Y172.056
G01 X239.024 Y177.611
G01 X242.683 Y182.111
G01 X239.024 Y177.611
G01 X235.365 Y182.111
G01 X239.024 Y177.611
G01 X239.024 Y183.167
G01 X239.024 Y188.722
G01 X235.365 Y193.222
G01 X231.707 Y197.722
G01 X235.365 Y193.222
G01 X239.024 Y188.722
G01 X242.683 Y193.222
G01 X246.341 Y197.722
G01 X242.683 Y193.222
G01 X239.024 Y188.722
G01 X239.024 Y194.278
G01 X242.683 Y198.778
G01 X239.024 Y194.278
G01 X235.365 Y198.778
G01 X239.024 Y194.278
G01 X239.024 Y199.833
G01 X239.024 Y194.278
G01 X239.024 Y188.722
G01 X239.024 Y183.167
G01 X239.024 Y177.611
G01 X239.024 Y172.056
G01 X239.024 Y166.500
G01 X235.365 Y171.000
G01 X229.442 Y172.722
G01 X223.518 Y174.444
G01 X229.442 Y172.722
G01 X235.365 Y171.000
G01 X235.365 Y176.556
G01 X235.365 Y182.111
G01 X235.365 Y176.556
G01 X235.365 Y171.000
G01 X231.707 Y175.500
G01 X231.707 Y181.056
G01 X231.707 Y175.500
G01 X225.783 Y177.222
G01 X231.707 Y175.500
G01 X228.048 Y180.000
G01 X228.048 Y185.556
G01 X224.389 Y190.056
G01 X220.731 Y194.556
G01 X224.389 Y190.056
G01 X228.048 Y185.556
G01 X231.707 Y190.056
G01 X235.365 Y194.556
G01 X231.707 Y190.056
G01 X228.048 Y185.556
G01 X228.048 Y191.111
G01 X231.707 Y195.611
G01 X228.048 Y191.111
G01 X224.389 Y195.611
G01 X228.048 Y191.111
G01 X228.048 Y196.667
G01 X228.048 Y191.111
G01 X228.048 Y185.556
G01 X228.048 Y180.000
G01 X222.124 Y181.722
G01 X216.201 Y180.000
G01 X210.277 Y178.278
G01 X216.201 Y180.000
G01 X222.124 Y181.722
G01 X218.466 Y186.222
G01 X214.807 Y190.722
G01 X218.466 Y186.222
G01 X222.124 Y181.722
G01 X216.201 Y183.444
G01 X212.542 Y187.944
G01 X216.201 Y183.444
G01 X210.277 Y181.722
G01 X216.201 Y183.444
G01 X210.277 Y185.167
G01 X216.201 Y183.444
G01 X222.124 Y181.722
G01 X228.048 Y180.000
G01 X224.389 Y184.500
G01 X218.466 Y186.222
G01 X212.542 Y187.944
G01 X218.466 Y186.222
G01 X224.389 Y184.500
G01 X224.389 Y190.056
G01 X224.389 Y195.611
G01 X224.389 Y190.056
G01 X224.389 Y184.500
G01 X220.731 Y189.000
G01 X220.731 Y194.556
G01 X220.731 Y189.000
G01 X214.807 Y190.722
G01 X220.731 Y189.000
G01 X217.072 Y193.500
G01 X211.148 Y195.222
G01 X205.225 Y193.500
G01 X199.301 Y191.778
G01 X205.225 Y193.500
G01 X211.148 Y195.222
G01 X207.490 Y199.722
G01 X203.831 Y204.222
G01 X207.490 Y199.722
G01 X211.148 Y195.222
G01 X205.225 Y196.944
G01 X201.566 Y201.444
G01 X205.225 Y196.944
G01 X199.301 Y195.222
G01 X205.225 Y196.944
G01 X199.301 Y198.667
G01 X193.378 Y196.944
G01 X189.719 Y192.444
G01 X186.060 Y187.944
G01 X189.719 Y192.444
G01 X193.378 Y196.944
G01 X187.454 Y198.667
G01 X181.531 Y200.389
G01 X187.454 Y198.667
G01 X193.378 Y196.944
G01 X187.454 Y195.222
G01 X181.531 Y196.944
G01 X187.454 Y195.222
G01 X183.796 Y190.722
G01 X187.454 Y195.222
G01 X181.531 Y193.500
G01 X175.607 Y191.778
G01 X171.948 Y187.278
G01 X168.290 Y182.778
G01 X171.948 Y187.278
G01 X175.607 Y191.778
G01 X169.684 Y193.500
G01 X163.760 Y195.222
G01 X169.684 Y193.500
G01 X175.607 Y191.778
G01 X169.684 Y190.056
G01 X163.760 Y191.778
G01 X169.684 Y190.056
G01 X166.025 Y185.556
G01 X169.684 Y190.056
G01 X163.760 Y188.333
G01 X169.684 Y190.056
G01 X175.607 Y191.778
G01 X181.531 Y193.500
G01 X187.454 Y195.222
G01 X193.378 Y196.944
G01 X199.301 Y198.667
G01 X195.643 Y203.167
G01 X189.719 Y204.889
G01 X183.796 Y206.611
G01 X189.719 Y204.889
G01 X195.643 Y203.167
G01 X195.643 Y208.722
G01 X195.643 Y214.278
G01 X195.643 Y208.722
G01 X195.643 Y203.167
G01 X191.984 Y207.667
G01 X191.984 Y213.222
G01 X191.984 Y207.667
G01 X186.060 Y209.389
G01 X191.984 Y207.667
G01 X188.325 Y212.167
G01 X184.667 Y216.667
G01 X178.743 Y218.389
G01 X172.820 Y220.111
G01 X178.743 Y218.389
G01 X184.667 Y216.667
G01 X184.667 Y222.222
G01 X184.667 Y227.778
G01 X184.667 Y222.222
G01 X184.667 Y216.667
G01 X181.008 Y221.167
G01 X181.008 Y226.722
G01 X181.008 Y221.167
G01 X175.084 Y222.889
G01 X181.008 Y221.167
G01 X177.349 Y225.667
G01 X181.008 Y221.167
G01 X184.667 Y216.667
G01 X188.325 Y212.167
G01 X191.984 Y207.667
G01 X195.643 Y203.167
G01 X199.301 Y198.667
G01 X193.378 Y200.389
G01 X187.454 Y198.667
G01 X181.531 Y196.944
G01 X187.454 Y198.667
G01 X193.378 Y200.389
G01 X189.719 Y204.889
G01 X186.060 Y209.389
G01 X189.719 Y204.889
G01 X193.378 Y200.389
G01 X187.454 Y202.111
G01 X183.796 Y206.611
G01 X187.454 Y202.111
G01 X181.531 Y200.389
G01 X187.454 Y202.111
G01 X181.531 Y203.833
G01 X177.872 Y208.333
G01 X171.948 Y210.056
G01 X166.025 Y211.778
G01 X171.948 Y210.056
G01 X177.872 Y208.333
G01 X177.872 Y213.889
G01 X177.872 Y219.444
G01 X177.872 Y213.889
G01 X177.872 Y208.333
G01 X174.213 Y212.833
G01 X174.213 Y218.389
G01 X174.213 Y212.833
G01 X168.290 Y214.556
G01 X174.213 Y212.833
G01 X170.555 Y217.333
G01 X174.213 Y212.833
G01 X177.872 Y208.333
G01 X181.531 Y203.833
G01 X175.607 Y202.111
G01 X171.948 Y197.611
G01 X168.290 Y193.111
G01 X171.948 Y197.611
G01 X175.607 Y202.111
G01 X169.684 Y203.833
G01 X163.760 Y205.556
G01 X169.684 Y203.833
G01 X175.607 Y202.111
G01 X169.684 Y200.389
G01 X163.760 Y202.111
G01 X169.684 Y200.389
G01 X166.025 Y195.889
G01 X169.684 Y200.389
G01 X163.760 Y198.667
G01 X169.684 Y200.389
G01 X175.607 Y202.111
G01 X181.531 Y203.833
G01 X175.607 Y205.556
G01 X169.684 Y203.833
G01 X163.760 Y202.111
G01 X169.684 Y203.833
G01 X175.607 Y205.556
G01 X171.948 Y210.056
G01 X168.290 Y214.556
G01 X171.948 Y210.056
G01 X175.607 Y205.556
G01 X169.684 Y207.278
G01 X166.025 Y211.778
G01 X169.684 Y207.278
G01 X163.760 Y205.556
G01 X169.684 Y207.278
G01 X163.760 Y209.000
G01 X157.836 Y210.722
G01 X151.913 Y209.000
G01 X145.989 Y207.278
G01 X151.913 Y209.000
G01 X157.836 Y210.722
G01 X154.178 Y215.222
G01 X150.519 Y219.722
G01 X154.178 Y215.222
G01 X157.836 Y210.722
G01 X151.913 Y212.444
G01 X148.254 Y216.944
G01 X151.913 Y212.444
G01 X145.989 Y210.722
G01 X151.913 Y212.444
G01 X145.989 Y214.167
G01 X140.066 Y212.444
G01 X136.407 Y207.944
G01 X132.748 Y203.444
G01 X136.407 Y207.944
G01 X140.066 Y212.444
G01 X134.142 Y214.167
G01 X128.219 Y215.889
G01 X134.142 Y214.167
G01 X140.066 Y212.444
G01 X134.142 Y210.722
G01 X128.219 Y212.444
G01 X134.142 Y210.722
G01 X130.484 Y206.222
G01 X134.142 Y210.722
G01 X128.219 Y209.000
G01 X122.295 Y207.278
G01 X118.636 Y202.778
G01 X114.978 Y198.278
G01 X118.636 Y202.778
G01 X122.295 Y207.278
G01 X116.372 Y209.000
G01 X110.448 Y210.722
G01 X116.372 Y209.000
G01 X122.295 Y207.278
G01 X116.372 Y205.556
G01 X110.448 Y207.278
G01 X116.372 Y205.556
G01 X112.713 Y201.056
G01 X116.372 Y205.556
G01 X110.448 Y203.833
G01 X116.372 Y205.556
G01 X122.295 Y207.278
G01 X128.219 Y209.000
G01 X134.142 Y210.722
G01 X140.066 Y212.444
G01 X145.989 Y214.167
G01 X142.331 Y218.667
G01 X136.407 Y220.389
G01 X130.484 Y222.111
G01 X136.407 Y220.389
G01 X142.331 Y218.667
G01 X142.331 Y224.222
G01 X142.331 Y229.778
G01 X142.331 Y224.222
G01 X142.331 Y218.667
G01 X138.672 Y223.167
G01 X138.672 Y228.722
G01 X138.672 Y223.167
G01 X132.748 Y224.889
G01 X138.672 Y223.167
G01 X135.013 Y227.667
G01 X131.355 Y232.167
G01 X125.431 Y233.889
G01 X119.508 Y235.611
G01 X125.431 Y233.889
G01 X131.355 Y232.167
G01 X131.355 Y237.722
G01 X131.355 Y243.278
G01 X131.355 Y237.722
G01 X131.355 Y232.167
G01 X127.696 Y236.667
G01 X127.696 Y242.222
G01 X127.696 Y236.667
G01 X121.772 Y238.389
G01 X127.696 Y236.667
G01 X124.037 Y241.167
G01 X127.696 Y236.667
G01 X131.355 Y232.167
G01 X135.013 Y227.667
G01 X138.672 Y223.167
G01 X142.331 Y218.667
G01 X145.989 Y214.167
G01 X140.066 Y215.889
G01 X134.142 Y214.167
G01 X128.219 Y212.444
G01 X134.142 Y214.167
G01 X140.066 Y215.889
G01 X136.407 Y220.389
G01 X132.748 Y224.889
G01 X136.407 Y220.389
G01 X140.066 Y215.889
G01 X134.142 Y217.611
G01 X130.484 Y222.111
G01 X134.142 Y217.611
G01 X128.219 Y215.889
G01 X134.142 Y217.611
G01 X128.219 Y219.333
G01 X124.560 Y223.833
G01 X118.636 Y225.556
G01 X112.713 Y227.278
G01 X118.636 Y225.556
G01 X124.560 Y223.833
G01 X124.560 Y229.389
G01 X124.560 Y234.944
G01 X124.560 Y229.389
G01 X124.560 Y223.833
G01 X120.901 Y228.333
G01 X120.901 Y233.889
G01 X120.901 Y228.333
G01 X114.978 Y230.056
G01 X120.901 Y228.333
G01 X117.243 Y232.833
G01 X120.901 Y228.333
G01 X124.560 Y223.833
G01 X128.219 Y219.333
G01 X122.295 Y217.611
G01 X118.636 Y213.111
G01 X114.978 Y208.611
G01 X118.636 Y213.111
G01 X122.295 Y217.611
G01 X116.372 Y219.333
G01 X110.448 Y221.056
G01 X116.372 Y219.333
G01 X122.295 Y217.611
G01 X116.372 Y215.889
G01 X110.448 Y217.611
G01 X116.372 Y215.889
G01 X112.713 Y211.389
G01 X116.372 Y215.889
G01 X110.448 Y214.167
G01 X116.372 Y215.889
G01 X122.295 Y217.611
G01 X128.219 Y219.333
G01 X122.295 Y221.056
G01 X116.372 Y219.333
G01 X110.448 Y217.611
G01 X116.372 Y219.333
G01 X122.295 Y221.056
G01 X118.636 Y225.556
G01 X114.978 Y230.056
G01 X118.636 Y225.556
G01 X122.295 Y221.056
G01 X116.372 Y222.778
G01 X112.713 Y227.278
G01 X116.372 Y222.778
G01 X110.448 Y221.056
G01 X116.372 Y222.778
G01 X110.448 Y224.500
G01 X116.372 Y222.778
G01 X122.295 Y221.056
G01 X128.219 Y219.333
G01 X134.142 Y217.611
G01 X140.066 Y215.889
G01 X145.989 Y214.167
G01 X151.913 Y212.444
G01 X157.836 Y210.722
G01 X163.760 Y209.000
G01 X169.684 Y207.278
G01 X175.607 Y205.556
G01 X181.531 Y203.833
G01 X187.454 Y202.111
G01 X193.378 Y200.389
G01 X199.301 Y198.667
G01 X205.225 Y196.944
G01 X211.148 Y195.222
G01 X217.072 Y193.500
G01 X217.072 Y199.056
G01 X213.413 Y203.556
G01 X209.755 Y208.056
G01 X213.413 Y203.556
G01 X217.072 Y199.056
G01 X220.731 Y203.556
G01 X224.389 Y208.056
G01 X220.731 Y203.556
G01 X217.072 Y199.056
G01 X217.072 Y204.611
G01 X220.731 Y209.111
G01 X217.072 Y204.611
G01 X213.413 Y209.111
G01 X217.072 Y204.611
G01 X217.072 Y210.167
G01 X213.413 Y214.667
G01 X207.490 Y216.389
G01 X201.566 Y218.111
G01 X207.490 Y216.389
G01 X213.413 Y214.667
G01 X213.413 Y220.222
G01 X213.413 Y225.778
G01 X213.413 Y220.222
G01 X213.413 Y214.667
G01 X209.755 Y219.167
G01 X209.755 Y224.722
G01 X209.755 Y219.167
G01 X203.831 Y220.889
G01 X209.755 Y219.167
G01 X206.096 Y223.667
G01 X202.437 Y228.167
G01 X196.514 Y229.889
G01 X190.590 Y231.611
G01 X196.514 Y229.889
G01 X202.437 Y228.167
G01 X202.437 Y233.722
G01 X202.437 Y239.278
G01 X202.437 Y233.722
G01 X202.437 Y228.167
G01 X198.779 Y232.667
G01 X198.779 Y238.222
G01 X198.779 Y232.667
G01 X192.855 Y234.389
G01 X198.779 Y232.667
G01 X195.120 Y237.167
G01 X198.779 Y232.667
G01 X202.437 Y228.167
G01 X206.096 Y223.667
G01 X209.755 Y219.167
G01 X213.413 Y214.667
G01 X217.072 Y210.167
G01 X220.731 Y214.667
G01 X220.731 Y220.222
G01 X220.731 Y225.778
G01 X220.731 Y220.222
G01 X220.731 Y214.667
G01 X226.654 Y216.389
G01 X232.578 Y218.111
G01 X226.654 Y216.389
G01 X220.731 Y214.667
G01 X224.389 Y219.167
G01 X230.313 Y220.889
G01 X224.389 Y219.167
G01 X224.389 Y224.722
G01 X224.389 Y219.167
G01 X228.048 Y223.667
G01 X231.707 Y228.167
G01 X231.707 Y233.722
G01 X231.707 Y239.278
G01 X231.707 Y233.722
G01 X231.707 Y228.167
G01 X237.630 Y229.889
G01 X243.554 Y231.611
G01 X237.630 Y229.889
G01 X231.707 Y228.167
G01 X235.365 Y232.667
G01 X241.289 Y234.389
G01 X235.365 Y232.667
G01 X235.365 Y238.222
G01 X235.365 Y232.667
G01 X239.024 Y237.167
G01 X235.365 Y232.667
G01 X231.707 Y228.167
G01 X228.048 Y223.667
G01 X224.389 Y219.167
G01 X220.731 Y214.667
G01 X217.072 Y210.167
G01 X217.072 Y215.722
G01 X213.413 Y220.222
G01 X209.755 Y224.722
G01 X213.413 Y220.222
G01 X217.072 Y215.722
G01 X220.731 Y220.222
G01 X224.389 Y224.722
G01 X220.731 Y220.222
G01 X217.072 Y215.722
G01 X217.072 Y221.278
G01 X220.731 Y225.778
G01 X217.072 Y221.278
G01 X213.413 Y225.778
G01 X217.072 Y221.278
G01 X217.072 Y226.833
G01 X220.731 Y231.333
G01 X220.731 Y236.889
G01 X220.731 Y242.444
G01 X220.731 Y236.889
G01 X220.731 Y231.333
G01 X226.654 Y233.056
G01 X232.578 Y234.778
G01 X226.654 Y233.056
G01 X220.731 Y231.333
G01 X224.389 Y235.833
G01 X230.313 Y237.556
G01 X224.389 Y235.833
G01 X224.389 Y241.389
G01 X224.389 Y235.833
G01 X228.048 Y240.333
G01 X224.389 Y235.833
G01 X220.731 Y231.333
G01 X217.072 Y226.833
G01 X213.413 Y231.333
G01 X207.490 Y233.056
G01 X201.566 Y234.778
G01 X207.490 Y233.056
G01 X213.413 Y231.333
G01 X213.413 Y236.889
G01 X213.413 Y242.444
G01 X213.413 Y236.889
G01 X213.413 Y231.333
G01 X209.755 Y235.833
G01 X209.755 Y241.389
G01 X209.755 Y235.833
G01 X203.831 Y237.556
G01 X209.755 Y235.833
G01 X206.096 Y240.333
G01 X209.755 Y235.833
G01 X213.413 Y231.333
G01 X217.072 Y226.833
G01 X217.072 Y232.389
G01 X213.413 Y236.889
G01 X209.755 Y241.389
G01 X213.413 Y236.889
G01 X217.072 Y232.389
G01 X220.731 Y236.889
G01 X224.389 Y241.389
G01 X220.731 Y236.889
G01 X217.072 Y232.389
G01 X217.072 Y237.944
G01 X220.731 Y242.444
G01 X217.072 Y237.944
G01 X213.413 Y242.444
G01 X217.072 Y237.944
G01 X217.072 Y243.500
G01 X217.072 Y249.056
G01 X213.413 Y253.556
G01 X209.755 Y258.056
G01 X213.413 Y253.556
G01 X217.072 Y249.056
G01 X220.731 Y253.556
G01 X224.389 Y258.056
G01 X220.731 Y253.556
G01 X217.072 Y249.056
G01 X217.072 Y254.611
G01 X220.731 Y259.111
G01 X217.072 Y254.611
G01 X213.413 Y259.111
G01 X217.072 Y254.611
G01 X217.072 Y260.167
G01 X213.413 Y264.667
G01 X207.490 Y266.389
G01 X201.566 Y268.111
G01 X207.490 Y266.389
G01 X213.413 Y264.667
G01 X213.413 Y270.222
G01 X213.413 Y275.778
G01 X213.413 Y270.222
G01 X213.413 Y264.667
G01 X209.755 Y269.167
G01 X209.755 Y274.722
G01 X209.755 Y269.167
G01 X203.831 Y270.889
G01 X209.755 Y269.167
G01 X206.096 Y273.667
G01 X202.437 Y278.167
G01 X196.514 Y279.889
G01 X190.590 Y281.611
G01 X196.514 Y279.889
G01 X202.437 Y278.167
G01 X202.437 Y283.722
G01 X202.437 Y289.278
G01 X202.437 Y283.722
G01 X202.437 Y278.167
G01 X198.779 Y282.667
G01 X198.779 Y288.222
G01 X198.779 Y282.667
G01 X192.855 Y284.389
G01 X198.779 Y282.667
G01 X195.120 Y287.167
G01 X198.779 Y282.667
G01 X202.437 Y278.167
G01 X206.096 Y273.667
G01 X209.755 Y269.167
G01 X213.413 Y264.667
G01 X217.072 Y260.167
G01 X220.731 Y264.667
G01 X220.731 Y270.222
G01 X220.731 Y275.778
G01 X220.731 Y270.222
G01 X220.731 Y264.667
G01 X226.654 Y266.389
G01 X232.578 Y268.111
G01 X226.654 Y266.389
G01 X220.731 Y264.667
G01 X224.389 Y269.167
G01 X230.313 Y270.889
G01 X224.389 Y269.167
G01 X224.389 Y274.722
G01 X224.389 Y269.167
G01 X228.048 Y273.667
G01 X231.707 Y278.167
G01 X231.707 Y283.722
G01 X231.707 Y289.278
G01 X231.707 Y283.722
G01 X231.707 Y278.167
G01 X237.630 Y279.889
G01 X243.554 Y281.611
G01 X237.630 Y279.889
G01 X231.707 Y278.167
G01 X235.365 Y282.667
G01 X241.289 Y284.389
G01 X235.365 Y282.667
G01 X235.365 Y288.222
G01 X235.365 Y282.667
G01 X239.024 Y287.167
G01 X235.365 Y282.667
G01 X231.707 Y278.167
G01 X228.048 Y273.667
G01 X224.389 Y269.167
G01 X220.731 Y264.667
G01 X217.072 Y260.167
G01 X217.072 Y265.722
G01 X213.413 Y270.222
G01 X209.755 Y274.722
G01 X213.413 Y270.222
G01 X217.072 Y265.722
G01 X220.731 Y270.222
G01 X224.389 Y274.722
G01 X220.731 Y270.222
G01 X217.072 Y265.722
G01 X217.072 Y271.278
G01 X220.731 Y275.778
G01 X217.072 Y271.278
G01 X213.413 Y275.778
G01 X217.072 Y271.278
G01 X217.072 Y276.833
G01 X220.731 Y281.333
G01 X220.731 Y286.889
G01 X220.731 Y292.444
G01 X220.731 Y286.889
G01 X220.731 Y281.333
G01 X226.654 Y283.056
G01 X232.578 Y284.778
G01 X226.654 Y283.056
G01 X220.731 Y281.333
G01 X224.389 Y285.833
G01 X230.313 Y287.556
G01 X224.389 Y285.833
G01 X224.389 Y291.389
G01 X224.389 Y285.833
G01 X228.048 Y290.333
G01 X224.389 Y285.833
G01 X220.731 Y281.333
G01 X217.072 Y276.833
G01 X213.413 Y281.333
G01 X207.490 Y283.056
G01 X201.566 Y284.778
G01 X207.490 Y283.056
G01 X213.413 Y281.333
G01 X213.413 Y286.889
G01 X213.413 Y292.444
G01 X213.413 Y286.889
G01 X213.413 Y281.333
G01 X209.755 Y285.833
G01 X209.755 Y291.389
G01 X209.755 Y285.833
G01 X203.831 Y287.556
G01 X209.755 Y285.833
G01 X206.096 Y290.333
G01 X209.755 Y285.833
G01 X213.413 Y281.333
G01 X217.072 Y276.833
G01 X217.072 Y282.389
G01 X213.413 Y286.889
G01 X209.755 Y291.389
G01 X213.413 Y286.889
G01 X217.072 Y282.389
G01 X220.731 Y286.889
G01 X224.389 Y291.389
G01 X220.731 Y286.889
G01 X217.072 Y282.389
G01 X217.072 Y287.944
G01 X220.731 Y292.444
G01 X217.072 Y287.944
G01 X213.413 Y292.444
G01 X217.072 Y287.944
G01 X217.072 Y293.500
G01 X217.072 Y287.944
G01 X217.072 Y282.389
G01 X217.072 Y276.833
G01 X217.072 Y271.278
G01 X217.072 Y265.722
G01 X217.072 Y260.167
G01 X217.072 Y254.611
G01 X217.072 Y249.056
G01 X217.072 Y243.500
G01 X217.072 Y237.944
G01 X217.072 Y232.389
G01 X217.072 Y226.833
G01 X217.072 Y221.278
G01 X217.072 Y215.722
G01 X217.072 Y210.167
G01 X217.072 Y204.611
G01 X217.072 Y199.056
G01 X217.072 Y193.500
G01 X213.413 Y198.000
G01 X207.490 Y199.722
G01 X201.566 Y201.444
G01 X207.490 Y199.722
G01 X213.413 Y198.000
G01 X213.413 Y203.556
G01 X213.413 Y209.111
G01 X213.413 Y203.556
G01 X213.413 Y198.000
G01 X209.755 Y202.500
G01 X209.755 Y208.056
G01 X209.755 Y202.500
G01 X203.831 Y204.222
G01 X209.755 Y202.500
G01 X206.096 Y207.000
G01 X200.172 Y208.722
G01 X194.249 Y207.000
G01 X188.325 Y205.278
G01 X194.249 Y207.000
G01 X200.172 Y208.722
G01 X196.514 Y213.222
G01 X192.855 Y217.722
G01 X196.514 Y213.222
G01 X200.172 Y208.722
G01 X194.249 Y210.444
G01 X190.590 Y214.944
G01 X194.249 Y210.444
G01 X188.325 Y208.722
G01 X194.249 Y210.444
G01 X188.325 Y212.167
G01 X182.402 Y213.889
G01 X176.478 Y212.167
G01 X170.555 Y210.444
G01 X176.478 Y212.167
G01 X182.402 Y213.889
G01 X178.743 Y218.389
G01 X175.084 Y222.889
G01 X178.743 Y218.389
G01 X182.402 Y213.889
G01 X176.478 Y215.611
G01 X172.820 Y220.111
G01 X176.478 Y215.611
G01 X170.555 Y213.889
G01 X176.478 Y215.611
G01 X170.555 Y217.333
G01 X176.478 Y215.611
G01 X182.402 Y213.889
G01 X188.325 Y212.167
G01 X194.249 Y210.444
G01 X200.172 Y208.722
G01 X206.096 Y207.000
G01 X206.096 Y212.556
G01 X202.437 Y217.056
G01 X198.779 Y221.556
G01 X202.437 Y217.056
G01 X206.096 Y212.556
G01 X209.755 Y217.056
G01 X213.413 Y221.556
G01 X209.755 Y217.056
G01 X206.096 Y212.556
G01 X206.096 Y218.111
G01 X209.755 Y222.611
G01 X206.096 Y218.111
G01 X202.437 Y222.611
G01 X206.096 Y218.111
G01 X206.096 Y223.667
G01 X206.096 Y229.222
G01 X202.437 Y233.722
G01 X198.779 Y238.222
G01 X202.437 Y233.722
G01 X206.096 Y229.222
G01 X209.755 Y233.722
G01 X213.413 Y238.222
G01 X209.755 Y233.722
G01 X206.096 Y229.222
G01 X206.096 Y234.778
G01 X209.755 Y239.278
G01 X206.096 Y234.778
G01 X202.437 Y239.278
G01 X206.096 Y234.778
G01 X206.096 Y240.333
G01 X206.096 Y234.778
G01 X206.096 Y229.222
G01 X206.096 Y223.667
G01 X206.096 Y218.111
G01 X206.096 Y212.556
G01 X206.096 Y207.000
G01 X202.437 Y211.500
G01 X196.514 Y213.222
G01 X190.590 Y214.944
G01 X196.514 Y213.222
G01 X202.437 Y211.500
G01 X202.437 Y217.056
G01 X202.437 Y222.611
G01 X202.437 Y217.056
G01 X202.437 Y211.500
G01 X198.779 Y216.000
G01 X198.779 Y221.556
G01 X198.779 Y216.000
G01 X192.855 Y217.722
G01 X198.779 Y216.000
G01 X195.120 Y220.500
G01 X195.120 Y226.056
G01 X191.461 Y230.556
G01 X187.803 Y235.056
G01 X191.461 Y230.556
G01 X195.120 Y226.056
G01 X198.779 Y230.556
G01 X202.437 Y235.056
G01 X198.779 Y230.556
G01 X195.120 Y226.056
G01 X195.120 Y231.611
G01 X198.779 Y236.111
G01 X195.120 Y231.611
G01 X191.461 Y236.111
G01 X195.120 Y231.611
G01 X195.120 Y237.167
G01 X195.120 Y231.611
G01 X195.120 Y226.056
G01 X195.120 Y220.500
G01 X189.196 Y222.222
G01 X183.273 Y220.500
G01 X177.349 Y218.778
G01 X183.273 Y220.500
G01 X189.196 Y222.222
G01 X185.538 Y226.722
G01 X181.879 Y231.222
G01 X185.538 Y226.722
G01 X189.196 Y222.222
G01 X183.273 Y223.944
G01 X179.614 Y228.444
G01 X183.273 Y223.944
G01 X177.349 Y222.222
G01 X183.273 Y223.944
G01 X177.349 Y225.667
G01 X183.273 Y223.944
G01 X189.196 Y222.222
G01 X195.120 Y220.500
G01 X191.461 Y225.000
G01 X185.538 Y226.722
G01 X179.614 Y228.444
G01 X185.538 Y226.722
G01 X191.461 Y225.000
G01 X191.461 Y230.556
G01 X191.461 Y236.111
G01 X191.461 Y230.556
G01 X191.461 Y225.000
G01 X187.803 Y229.500
G01 X187.803 Y235.056
G01 X187.803 Y229.500
G01 X181.879 Y231.222
G01 X187.803 Y229.500
G01 X184.144 Y234.000
G01 X184.144 Y239.556
G01 X180.485 Y244.056
G01 X176.827 Y248.556
G01 X180.485 Y244.056
G01 X184.144 Y239.556
G01 X187.803 Y244.056
G01 X191.461 Y248.556
G01 X187.803 Y244.056
G01 X184.144 Y239.556
G01 X184.144 Y245.111
G01 X187.803 Y249.611
G01 X184.144 Y245.111
G01 X180.485 Y249.611
G01 X184.144 Y245.111
G01 X184.144 Y250.667
G01 X180.485 Y255.167
G01 X174.562 Y256.889
G01 X168.638 Y258.611
G01 X174.562 Y256.889
G01 X180.485 Y255.167
G01 X180.485 Y260.722
G01 X180.485 Y266.278
G01 X180.485 Y260.722
G01 X180.485 Y255.167
G01 X176.827 Y259.667
G01 X176.827 Y265.222
G01 X176.827 Y259.667
G01 X170.903 Y261.389
G01 X176.827 Y259.667
G01 X173.168 Y264.167
G01 X169.509 Y268.667
G01 X163.586 Y270.389
G01 X157.662 Y272.111
G01 X163.586 Y270.389
G01 X169.509 Y268.667
G01 X169.509 Y274.222
G01 X169.509 Y279.778
G01 X169.509 Y274.222
G01 X169.509 Y268.667
G01 X165.851 Y273.167
G01 X165.851 Y278.722
G01 X165.851 Y273.167
G01 X159.927 Y274.889
G01 X165.851 Y273.167
G01 X162.192 Y277.667
G01 X165.851 Y273.167
G01 X169.509 Y268.667
G01 X173.168 Y264.167
G01 X176.827 Y259.667
G01 X180.485 Y255.167
G01 X184.144 Y250.667
G01 X187.803 Y255.167
G01 X187.803 Y260.722
G01 X187.803 Y266.278
G01 X187.803 Y260.722
G01 X187.803 Y255.167
G01 X193.726 Y256.889
G01 X199.650 Y258.611
G01 X193.726 Y256.889
G01 X187.803 Y255.167
G01 X191.461 Y259.667
G01 X197.385 Y261.389
G01 X191.461 Y259.667
G01 X191.461 Y265.222
G01 X191.461 Y259.667
G01 X195.120 Y264.167
G01 X198.779 Y268.667
G01 X198.779 Y274.222
G01 X198.779 Y279.778
G01 X198.779 Y274.222
G01 X198.779 Y268.667
G01 X204.702 Y270.389
G01 X210.626 Y272.111
G01 X204.702 Y270.389
G01 X198.779 Y268.667
G01 X202.437 Y273.167
G01 X208.361 Y274.889
G01 X202.437 Y273.167
G01 X202.437 Y278.722
G01 X202.437 Y273.167
G01 X206.096 Y277.667
G01 X202.437 Y273.167
G01 X198.779 Y268.667
G01 X195.120 Y264.167
G01 X191.461 Y259.667
G01 X187.803 Y255.167
G01 X184.144 Y250.667
G01 X184.144 Y256.222
G01 X180.485 Y260.722
G01 X176.827 Y265.222
G01 X180.485 Y260.722
G01 X184.144 Y256.222
G01 X187.803 Y260.722
G01 X191.461 Y265.222
G01 X187.803 Y260.722
G01 X184.144 Y256.222
G01 X184.144 Y261.778
G01 X187.803 Y266.278
G01 X184.144 Y261.778
G01 X180.485 Y266.278
G01 X184.144 Y261.778
G01 X184.144 Y267.333
G01 X187.803 Y271.833
G01 X187.803 Y277.389
G01 X187.803 Y282.944
G01 X187.803 Y277.389
G01 X187.803 Y271.833
G01 X193.726 Y273.556
G01 X199.650 Y275.278
G01 X193.726 Y273.556
G01 X187.803 Y271.833
G01 X191.461 Y276.333
G01 X197.385 Y278.056
G01 X191.461 Y276.333
G01 X191.461 Y281.889
G01 X191.461 Y276.333
G01 X195.120 Y280.833
G01 X191.461 Y276.333
G01 X187.803 Y271.833
G01 X184.144 Y267.333
G01 X180.485 Y271.833
G01 X174.562 Y273.556
G01 X168.638 Y275.278
G01 X174.562 Y273.556
G01 X180.485 Y271.833
G01 X180.485 Y277.389
G01 X180.485 Y282.944
G01 X180.485 Y277.389
G01 X180.485 Y271.833
G01 X176.827 Y276.333
G01 X176.827 Y281.889
G01 X176.827 Y276.333
G01 X170.903 Y278.056
G01 X176.827 Y276.333
G01 X173.168 Y280.833
G01 X176.827 Y276.333
G01 X180.485 Y271.833
G01 X184.144 Y267.333
G01 X184.144 Y272.889
G01 X180.485 Y277.389
G01 X176.827 Y281.889
G01 X180.485 Y277.389
G01 X184.144 Y272.889
G01 X187.803 Y277.389
G01 X191.461 Y281.889
G01 X187.803 Y277.389
G01 X184.144 Y272.889
G01 X184.144 Y278.444
G01 X187.803 Y282.944
G01 X184.144 Y278.444
G01 X180.485 Y282.944
G01 X184.144 Y278.444
G01 X184.144 Y284.000
G01 X184.144 Y278.444
G01 X184.144 Y272.889
G01 X184.144 Y267.333
G01 X184.144 Y261.778
G01 X184.144 Y256.222
G01 X184.144 Y250.667
G01 X184.144 Y245.111
G01 X184.144 Y239.556
G01 X184.144 Y234.000
G01 X178.220 Y235.722
G01 X172.297 Y234.000
G01 X166.373 Y232.278
G01 X172.297 Y234.000
G01 X178.220 Y235.722
G01 X174.562 Y240.222
G01 X170.903 Y244.722
G01 X174.562 Y240.222
G01 X178.220 Y235.722
G01 X172.297 Y237.444
G01 X168.638 Y241.944
G01 X172.297 Y237.444
G01 X166.373 Y235.722
G01 X172.297 Y237.444
G01 X166.373 Y239.167
G01 X160.450 Y237.444
G01 X156.791 Y232.944
G01 X153.132 Y228.444
G01 X156.791 Y232.944
G01 X160.450 Y237.444
G01 X154.526 Y239.167
G01 X148.603 Y240.889
G01 X154.526 Y239.167
G01 X160.450 Y237.444
G01 X154.526 Y235.722
G01 X148.603 Y237.444
G01 X154.526 Y235.722
G01 X150.868 Y231.222
G01 X154.526 Y235.722
G01 X148.603 Y234.000
G01 X142.679 Y232.278
G01 X139.020 Y227.778
G01 X135.362 Y223.278
G01 X139.020 Y227.778
G01 X142.679 Y232.278
G01 X136.756 Y234.000
G01 X130.832 Y235.722
G01 X136.756 Y234.000
G01 X142.679 Y232.278
G01 X136.756 Y230.556
G01 X130.832 Y232.278
G01 X136.756 Y230.556
G01 X133.097 Y226.056
G01 X136.756 Y230.556
G01 X130.832 Y228.833
G01 X136.756 Y230.556
G01 X142.679 Y232.278
G01 X148.603 Y234.000
G01 X154.526 Y235.722
G01 X160.450 Y237.444
G01 X166.373 Y239.167
G01 X162.715 Y243.667
G01 X156.791 Y245.389
G01 X150.868 Y247.111
G01 X156.791 Y245.389
G01 X162.715 Y243.667
G01 X162.715 Y249.222
G01 X162.715 Y254.778
G01 X162.715 Y249.222
G01 X162.715 Y243.667
G01 X159.056 Y248.167
G01 X159.056 Y253.722
G01 X159.056 Y248.167
G01 X153.132 Y249.889
G01 X159.056 Y248.167
G01 X155.397 Y252.667
G01 X151.739 Y257.167
G01 X145.815 Y258.889
G01 X139.892 Y260.611
G01 X145.815 Y258.889
G01 X151.739 Y257.167
G01 X151.739 Y262.722
G01 X151.739 Y268.278
G01 X151.739 Y262.722
G01 X151.739 Y257.167
G01 X148.080 Y261.667
G01 X148.080 Y267.222
G01 X148.080 Y261.667
G01 X142.156 Y263.389
G01 X148.080 Y261.667
G01 X144.421 Y266.167
G01 X148.080 Y261.667
G01 X151.739 Y257.167
G01 X155.397 Y252.667
G01 X159.056 Y248.167
G01 X162.715 Y243.667
G01 X166.373 Y239.167
G01 X160.450 Y240.889
G01 X154.526 Y239.167
G01 X148.603 Y237.444
G01 X154.526 Y239.167
G01 X160.450 Y240.889
G01 X156.791 Y245.389
G01 X153.132 Y249.889
G01 X156.791 Y245.389
G01 X160.450 Y240.889
G01 X154.526 Y242.611
G01 X150.868 Y247.111
G01 X154.526 Y242.611
G01 X148.603 Y240.889
G01 X154.526 Y242.611
G01 X148.603 Y244.333
G01 X144.944 Y248.833
G01 X139.020 Y250.556
G01 X133.097 Y252.278
G01 X139.020 Y250.556
G01 X144.944 Y248.833
G01 X144.944 Y254.389
G01 X144.944 Y259.944
G01 X144.944 Y254.389
G01 X144.944 Y248.833
G01 X141.285 Y253.333
G01 X141.285 Y258.889
G01 X141.285 Y253.333
G01 X135.362 Y255.056
G01 X141.285 Y253.333
G01 X137.627 Y257.833
G01 X141.285 Y253.333
G01 X144.944 Y248.833
G01 X148.603 Y244.333
G01 X142.679 Y242.611
G01 X139.020 Y238.111
G01 X135.362 Y233.611
G01 X139.020 Y238.111
G01 X142.679 Y242.611
G01 X136.756 Y244.333
G01 X130.832 Y246.056
G01 X136.756 Y244.333
G01 X142.679 Y242.611
G01 X136.756 Y240.889
G01 X130.832 Y242.611
G01 X136.756 Y240.889
G01 X133.097 Y236.389
G01 X136.756 Y240.889
G01 X130.832 Y239.167
G01 X136.756 Y240.889
G01 X142.679 Y242.611
G01 X148.603 Y244.333
G01 X142.679 Y246.056
G01 X136.756 Y244.333
G01 X130.832 Y242.611
G01 X136.756 Y244.333
G01 X142.679 Y246.056
G01 X139.020 Y250.556
G01 X135.362 Y255.056
G01 X139.020 Y250.556
G01 X142.679 Y246.056
G01 X136.756 Y247.778
G01 X133.097 Y252.278
G01 X136.756 Y247.778
G01 X130.832 Y246.056
G01 X136.756 Y247.778
G01 X130.832 Y249.500
G01 X136.756 Y247.778
G01 X142.679 Y246.056
G01 X148.603 Y244.333
G01 X154.526 Y242.611
G01 X160.450 Y240.889
G01 X166.373 Y239.167
G01 X172.297 Y237.444
G01 X178.220 Y235.722
G01 X184.144 Y234.000
G01 X180.485 Y238.500
G01 X174.562 Y240.222
G01 X168.638 Y241.944
G01 X174.562 Y240.222
G01 X180.485 Y238.500
G01 X180.485 Y244.056
G01 X180.485 Y249.611
G01 X180.485 Y244.056
G01 X180.485 Y238.500
G01 X176.827 Y243.000
G01 X176.827 Y248.556
G01 X176.827 Y243.000
G01 X170.903 Y244.722
G01 X176.827 Y243.000
G01 X173.168 Y247.500
G01 X167.244 Y249.222
G01 X161.321 Y247.500
G01 X155.397 Y245.778
G01 X161.321 Y247.500
G01 X167.244 Y249.222
G01 X163.586 Y253.722
G01 X159.927 Y258.222
G01 X163.586 Y253.722
G01 X167.244 Y249.222
G01 X161.321 Y250.944
G01 X157.662 Y255.444
G01 X161.321 Y250.944
G01 X155.397 Y249.222
G01 X161.321 Y250.944
G01 X155.397 Y252.667
G01 X149.474 Y254.389
G01 X143.550 Y252.667
G01 X137.627 Y250.944
G01 X143.550 Y252.667
G01 X149.474 Y254.389
G01 X145.815 Y258.889
G01 X142.156 Y263.389
G01 X145.815 Y258.889
G01 X149.474 Y254.389
G01 X143.550 Y256.111
G01 X139.892 Y260.611
G01 X143.550 Y256.111
G01 X137.627 Y254.389
G01 X143.550 Y256.111
G01 X137.627 Y257.833
G01 X143.550 Y256.111
G01 X149.474 Y254.389
G01 X155.397 Y252.667
G01 X161.321 Y250.944
G01 X167.244 Y249.222
G01 X173.168 Y247.500
G01 X173.168 Y253.056
G01 X169.509 Y257.556
G01 X165.851 Y262.056
G01 X169.509 Y257.556
G01 X173.168 Y253.056
G01 X176.827 Y257.556
G01 X180.485 Y262.056
G01 X176.827 Y257.556
G01 X173.168 Y253.056
G01 X173.168 Y258.611
G01 X176.827 Y263.111
G01 X173.168 Y258.611
G01 X169.509 Y263.111
G01 X173.168 Y258.611
G01 X173.168 Y264.167
G01 X173.168 Y269.722
G01 X169.509 Y274.222
G01 X165.851 Y278.722
G01 X169.509 Y274.222
G01 X173.168 Y269.722
G01 X176.827 Y274.222
G01 X180.485 Y278.722
G01 X176.827 Y274.222
G01 X173.168 Y269.722
G01 X173.168 Y275.278
G01 X176.827 Y279.778
G01 X173.168 Y275.278
G01 X169.509 Y279.778
G01 X173.168 Y275.278
G01 X173.168 Y280.833
G01 X173.168 Y275.278
G01 X173.168 Y269.722
G01 X173.168 Y264.167
G01 X173.168 Y258.611
G01 X173.168 Y253.056
G01 X173.168 Y247.500
G01 X169.509 Y252.000
G01 X163.586 Y253.722
G01 X157.662 Y255.444
G01 X163.586 Y253.722
G01 X169.509 Y252.000
G01 X169.509 Y257.556
G01 X169.509 Y263.111
G01 X169.509 Y257.556
G01 X169.509 Y252.000
G01 X165.851 Y256.500
G01 X165.851 Y262.056
G01 X165.851 Y256.500
G01 X159.927 Y258.222
G01 X165.851 Y256.500
G01 X162.192 Y261.000
G01 X162.192 Y266.556
G01 X158.533 Y271.056
G01 X154.875 Y275.556
G01 X158.533 Y271.056
G01 X162.192 Y266.556
G01 X165.851 Y271.056
G01 X169.509 Y275.556
G01 X165.851 Y271.056
G01 X162.192 Y266.556
G01 X162.192 Y272.111
G01 X165.851 Y276.611
G01 X162.192 Y272.111
G01 X158.533 Y276.611
G01 X162.192 Y272.111
G01 X162.192 Y277.667
G01 X162.192 Y272.111
G01 X162.192 Y266.556
G01 X162.192 Y261.000
G01 X156.268 Y262.722
G01 X150.345 Y261.000
G01 X144.421 Y259.278
G01 X150.345 Y261.000
G01 X156.268 Y262.722
G01 X152.610 Y267.222
G01 X148.951 Y271.722
G01 X152.610 Y267.222
G01 X156.268 Y262.722
G01 X150.345 Y264.444
G01 X146.686 Y268.944
G01 X150.345 Y264.444
G01 X144.421 Y262.722
G01 X150.345 Y264.444
G01 X144.421 Y266.167
G01 X150.345 Y264.444
G01 X156.268 Y262.722
G01 X162.192 Y261.000
G01 X158.533 Y265.500
G01 X152.610 Y267.222
G01 X146.686 Y268.944
G01 X152.610 Y267.222
G01 X158.533 Y265.500
G01 X158.533 Y271.056
G01 X158.533 Y276.611
G01 X158.533 Y271.056
G01 X158.533 Y265.500
G01 X154.875 Y270.000
G01 X154.875 Y275.556
G01 X154.875 Y270.000
G01 X148.951 Y271.722
G01 X154.875 Y270.000
G01 X151.216 Y274.500
G01 X147.557 Y279.000
G01 X141.634 Y280.722
G01 X135.710 Y282.444
G01 X141.634 Y280.722
G01 X147.557 Y279.000
G01 X147.557 Y284.556
G01 X147.557 Y290.111
G01 X147.557 Y284.556
G01 X147.557 Y279.000
G01 X143.899 Y283.500
G01 X143.899 Y289.056
G01 X143.899 Y283.500
G01 X137.975 Y285.222
G01 X143.899 Y283.500
G01 X140.240 Y288.000
G01 X134.316 Y289.722
G01 X128.393 Y288.000
G01 X122.469 Y286.278
G01 X128.393 Y288.000
G01 X134.316 Y289.722
G01 X130.658 Y294.222
G01 X126.999 Y298.722
G01 X130.658 Y294.222
G01 X134.316 Y289.722
G01 X128.393 Y291.444
G01 X124.734 Y295.944
G01 X128.393 Y291.444
G01 X122.469 Y289.722
G01 X128.393 Y291.444
G01 X122.469 Y293.167
G01 X116.546 Y294.889
G01 X110.622 Y293.167
G01 X104.699 Y291.444
G01 X110.622 Y293.167
G01 X116.546 Y294.889
G01 X112.887 Y299.389
G01 X109.228 Y303.889
G01 X112.887 Y299.389
G01 X116.546 Y294.889
G01 X110.622 Y296.611
G01 X106.964 Y301.111
G01 X110.622 Y296.611
G01 X104.699 Y294.889
G01 X110.622 Y296.611
G01 X104.699 Y298.333
G01 X110.622 Y296.611
G01 X116.546 Y294.889
G01 X122.469 Y293.167
G01 X128.393 Y291.444
G01 X134.316 Y289.722
G01 X140.240 Y288.000
G01 X140.240 Y293.556
G01 X136.581 Y298.056
G01 X132.923 Y302.556
G01 X136.581 Y298.056
G01 X140.240 Y293.556
G01 X143.899 Y298.056
G01 X147.557 Y302.556
G01 X143.899 Y298.056
G01 X140.240 Y293.556
G01 X140.240 Y299.111
G01 X143.899 Y303.611
G01 X140.240 Y299.111
G01 X136.581 Y303.611
G01 X140.240 Y299.111
G01 X140.240 Y304.667
G01 X140.240 Y310.222
G01 X136.581 Y314.722
G01 X132.923 Y319.222
G01 X136.581 Y314.722
G01 X140.240 Y310.222
G01 X143.899 Y314.722
G01 X147.557 Y319.222
G01 X143.899 Y314.722
G01 X140.240 Y310.222
G01 X140.240 Y315.778
G01 X143.899 Y320.278
G01 X140.240 Y315.778
G01 X136.581 Y320.278
G01 X140.240 Y315.778
G01 X140.240 Y321.333
G01 X140.240 Y315.778
G01 X140.240 Y310.222
G01 X140.240 Y304.667
G01 X140.240 Y299.111
G01 X140.240 Y293.556
G01 X140.240 Y288.000
G01 X136.581 Y292.500
G01 X130.658 Y294.222
G01 X124.734 Y295.944
G01 X130.658 Y294.222
G01 X136.581 Y292.500
G01 X136.581 Y298.056
G01 X136.581 Y303.611
G01 X136.581 Y298.056
G01 X136.581 Y292.500
G01 X132.923 Y297.000
G01 X132.923 Y302.556
G01 X132.923 Y297.000
G01 X126.999 Y298.722
G01 X132.923 Y297.000
G01 X129.264 Y301.500
G01 X129.264 Y307.056
G01 X125.605 Y311.556
G01 X121.947 Y316.056
G01 X125.605 Y311.556
G01 X129.264 Y307.056
G01 X132.923 Y311.556
G01 X136.581 Y316.056
G01 X132.923 Y311.556
G01 X129.264 Y307.056
G01 X129.264 Y312.611
G01 X132.923 Y317.111
G01 X129.264 Y312.611
G01 X125.605 Y317.111
G01 X129.264 Y312.611
G01 X129.264 Y318.167
G01 X129.264 Y312.611
G01 X129.264 Y307.056
G01 X129.264 Y301.500
G01 X123.340 Y303.222
G01 X117.417 Y301.500
G01 X111.493 Y299.778
G01 X117.417 Y301.500
G01 X123.340 Y303.222
G01 X119.682 Y307.722
G01 X116.023 Y312.222
G01 X119.682 Y307.722
G01 X123.340 Y303.222
G01 X117.417 Y304.944
G01 X113.758 Y309.444
G01 X117.417 Y304.944
G01 X111.493 Y303.222
G01 X117.417 Y304.944
G01 X111.493 Y306.667
G01 X117.417 Y304.944
G01 X123.340 Y303.222
G01 X129.264 Y301.500
G01 X125.605 Y306.000
G01 X119.682 Y307.722
G01 X113.758 Y309.444
G01 X119.682 Y307.722
G01 X125.605 Y306.000
G01 X125.605 Y311.556
G01 X125.605 Y317.111
G01 X125.605 Y311.556
G01 X125.605 Y306.000
G01 X121.947 Y310.500
G01 X121.947 Y316.056
G01 X121.947 Y310.500
G01 X116.023 Y312.222
G01 X121.947 Y310.500
G01 X118.288 Y315.000
G01 X112.364 Y316.722
G01 X106.441 Y315.000
G01 X100.517 Y313.278
G01 X106.441 Y315.000
G01 X112.364 Y316.722
G01 X108.706 Y321.222
G01 X105.047 Y325.722
G01 X108.706 Y321.222
G01 X112.364 Y316.722
G01 X106.441 Y318.444
G01 X102.782 Y322.944
G01 X106.441 Y318.444
G01 X100.517 Y316.722
G01 X106.441 Y318.444
G01 X100.517 Y320.167
G01 X94.594 Y318.444
G01 X90.935 Y313.944
G01 X87.276 Y309.444
G01 X90.935 Y313.944
G01 X94.594 Y318.444
G01 X88.670 Y320.167
G01 X82.747 Y321.889
G01 X88.670 Y320.167
G01 X94.594 Y318.444
G01 X88.670 Y316.722
G01 X82.747 Y318.444
G01 X88.670 Y316.722
G01 X85.012 Y312.222
G01 X88.670 Y316.722
G01 X82.747 Y315.000
G01 X76.823 Y313.278
G01 X73.164 Y308.778
G01 X69.506 Y304.278
G01 X73.164 Y308.778
G01 X76.823 Y313.278
G01 X70.900 Y315.000
G01 X64.976 Y316.722
G01 X70.900 Y315.000
G01 X76.823 Y313.278
G01 X70.900 Y311.556
G01 X64.976 Y313.278
G01 X70.900 Y311.556
G01 X67.241 Y307.056
G01 X70.900 Y311.556
G01 X64.976 Y309.833
G01 X70.900 Y311.556
G01 X76.823 Y313.278
G01 X82.747 Y315.000
G01 X88.670 Y316.722
G01 X94.594 Y318.444
G01 X100.517 Y320.167
G01 X96.859 Y324.667
G01 X90.935 Y326.389
G01 X85.012 Y328.111
G01 X90.935 Y326.389
G01 X96.859 Y324.667
G01 X96.859 Y330.222
G01 X96.859 Y335.778
G01 X96.859 Y330.222
G01 X96.859 Y324.667
G01 X93.200 Y329.167
G01 X93.200 Y334.722
G01 X93.200 Y329.167
G01 X87.276 Y330.889
G01 X93.200 Y329.167
G01 X89.541 Y333.667
G01 X85.883 Y338.167
G01 X79.959 Y339.889
G01 X74.036 Y341.611
G01 X79.959 Y339.889
G01 X85.883 Y338.167
G01 X85.883 Y343.722
G01 X85.883 Y349.278
G01 X85.883 Y343.722
G01 X85.883 Y338.167
G01 X82.224 Y342.667
G01 X82.224 Y348.222
G01 X82.224 Y342.667
G01 X76.300 Y344.389
G01 X82.224 Y342.667
G01 X78.565 Y347.167
G01 X82.224 Y342.667
G01 X85.883 Y338.167
G01 X89.541 Y333.667
G01 X93.200 Y329.167
G01 X96.859 Y324.667
G01 X100.517 Y320.167
G01 X94.594 Y321.889
G01 X88.670 Y320.167
G01 X82.747 Y318.444
G01 X88.670 Y320.167
G01 X94.594 Y321.889
G01 X90.935 Y326.389
G01 X87.276 Y330.889
G01 X90.935 Y326.389
G01 X94.594 Y321.889
G01 X88.670 Y323.611
G01 X85.012 Y328.111
G01 X88.670 Y323.611
G01 X82.747 Y321.889
G01 X88.670 Y323.611
G01 X82.747 Y325.333
G01 X79.088 Y329.833
G01 X73.164 Y331.556
G01 X67.241 Y333.278
G01 X73.164 Y331.556
G01 X79.088 Y329.833
G01 X79.088 Y335.389
G01 X79.088 Y340.944
G01 X79.088 Y335.389
G01 X79.088 Y329.833
G01 X75.429 Y334.333
G01 X75.429 Y339.889
G01 X75.429 Y334.333
G01 X69.506 Y336.056
G01 X75.429 Y334.333
G01 X71.771 Y338.833
G01 X75.429 Y334.333
G01 X79.088 Y329.833
G01 X82.747 Y325.333
G01 X76.823 Y323.611
G01 X73.164 Y319.111
G01 X69.506 Y314.611
G01 X73.164 Y319.111
G01 X76.823 Y323.611
G01 X70.900 Y325.333
G01 X64.976 Y327.056
G01 X70.900 Y325.333
G01 X76.823 Y323.611
G01 X70.900 Y321.889
G01 X64.976 Y323.611
G01 X70.900 Y321.889
G01 X67.241 Y317.389
G01 X70.900 Y321.889
G01 X64.976 Y320.167
G01 X70.900 Y321.889
G01 X76.823 Y323.611
G01 X82.747 Y325.333
G01 X76.823 Y327.056
G01 X70.900 Y325.333
G01 X64.976 Y323.611
G01 X70.900 Y325.333
G01 X76.823 Y327.056
G01 X73.164 Y331.556
G01 X69.506 Y336.056
G01 X73.164 Y331.556
G01 X76.823 Y327.056
G01 X70.900 Y328.778
G01 X67.241 Y333.278
G01 X70.900 Y328.778
G01 X64.976 Y327.056
G01 X70.900 Y328.778
G01 X64.976 Y330.500
G01 X59.052 Y332.222
G01 X53.129 Y330.500
G01 X47.205 Y328.778
G01 X53.129 Y330.500
G01 X59.052 Y332.222
G01 X55.394 Y336.722
G01 X51.735 Y341.222
G01 X55.394 Y336.722
G01 X59.052 Y332.222
G01 X53.129 Y333.944
G01 X49.470 Y338.444
G01 X53.129 Y333.944
G01 X47.205 Y332.222
G01 X53.129 Y333.944
G01 X47.205 Y335.667
G01 X41.282 Y333.944
G01 X37.623 Y329.444
G01 X33.964 Y324.944
G01 X37.623 Y329.444
G01 X41.282 Y333.944
G01 X35.358 Y335.667
G01 X29.435 Y337.389
G01 X35.358 Y335.667
G01 X41.282 Y333.944
G01 X35.358 Y332.222
G01 X29.435 Y333.944
G01 X35.358 Y332.222
G01 X31.700 Y327.722
G01 X35.358 Y332.222
G01 X29.435 Y330.500
G01 X23.511 Y328.778
G01 X19.852 Y324.278
G01 X16.194 Y319.778
G01 X19.852 Y324.278
G01 X23.511 Y328.778
G01 X17.588 Y330.500
G01 X11.664 Y332.222
G01 X17.588 Y330.500
G01 X23.511 Y328.778
G01 X17.588 Y327.056
G01 X11.664 Y328.778
G01 X17.588 Y327.056
G01 X13.929 Y322.556
G01 X17.588 Y327.056
G01 X11.664 Y325.333
G01 X17.588 Y327.056
G01 X23.511 Y328.778
G01 X29.435 Y330.500
G01 X35.358 Y332.222
G01 X41.282 Y333.944
G01 X47.205 Y335.667
G01 X43.547 Y340.167
G01 X37.623 Y341.889
G01 X31.700 Y343.611
G01 X37.623 Y341.889
G01 X43.547 Y340.167
G01 X43.547 Y345.722
G01 X43.547 Y351.278
G01 X43.547 Y345.722
G01 X43.547 Y340.167
G01 X39.888 Y344.667
G01 X39.888 Y350.222
G01 X39.888 Y344.667
G01 X33.964 Y346.389
G01 X39.888 Y344.667
G01 X36.229 Y349.167
G01 X32.571 Y353.667
G01 X26.647 Y355.389
G01 X20.724 Y357.111
G01 X26.647 Y355.389
G01 X32.571 Y353.667
G01 X32.571 Y359.222
G01 X32.571 Y364.778
G01 X32.571 Y359.222
G01 X32.571 Y353.667
G01 X28.912 Y358.167
G01 X28.912 Y363.722
G01 X28.912 Y358.167
G01 X22.988 Y359.889
G01 X28.912 Y358.167
G01 X25.253 Y362.667
G01 X28.912 Y358.167
G01 X32.571 Y353.667
G01 X36.229 Y349.167
G01 X39.888 Y344.667
G01 X43.547 Y340.167
G01 X47.205 Y335.667
G01 X41.282 Y337.389
G01 X35.358 Y335.667
G01 X29.435 Y333.944
G01 X35.358 Y335.667
G01 X41.282 Y337.389
G01 X37.623 Y341.889
G01 X33.964 Y346.389
G01 X37.623 Y341.889
G01 X41.282 Y337.389
G01 X35.358 Y339.111
G01 X31.700 Y343.611
G01 X35.358 Y339.111
G01 X29.435 Y337.389
G01 X35.358 Y339.111
G01 X29.435 Y340.833
G01 X25.776 Y345.333
G01 X19.852 Y347.056
G01 X13.929 Y348.778
G01 X19.852 Y347.056
G01 X25.776 Y345.333
G01 X25.776 Y350.889
G01 X25.776 Y356.444
G01 X25.776 Y350.889
G01 X25.776 Y345.333
G01 X22.117 Y349.833
G01 X22.117 Y355.389
G01 X22.117 Y349.833
G01 X16.194 Y351.556
G01 X22.117 Y349.833
G01 X18.459 Y354.333
G01 X22.117 Y349.833
G01 X25.776 Y345.333
G01 X29.435 Y340.833
G01 X23.511 Y339.111
G01 X19.852 Y334.611
G01 X16.194 Y330.111
G01 X19.852 Y334.611
G01 X23.511 Y339.111
G01 X17.588 Y340.833
G01 X11.664 Y342.556
G01 X17.588 Y340.833
G01 X23.511 Y339.111
G01 X17.588 Y337.389
G01 X11.664 Y339.111
G01 X17.588 Y337.389
G01 X13.929 Y332.889
G01 X17.588 Y337.389
G01 X11.664 Y335.667
G01 X17.588 Y337.389
G01 X23.511 Y339.111
G01 X29.435 Y340.833
G01 X23.511 Y342.556
G01 X17.588 Y340.833
G01 X11.664 Y339.111
G01 X17.588 Y340.833
G01 X23.511 Y342.556
G01 X19.852 Y347.056
G01 X16.194 Y351.556
G01 X19.852 Y347.056
G01 X23.511 Y342.556
G01 X17.588 Y344.278
G01 X13.929 Y348.778
G01 X17.588 Y344.278
G01 X11.664 Y342.556
G01 X17.588 Y344.278
G01 X11.664 Y346.000
G01 X17.588 Y344.278
G01 X23.511 Y342.556
G01 X29.435 Y340.833
G01 X35.358 Y339.111
G01 X41.282 Y337.389
G01 X47.205 Y335.667
G01 X53.129 Y333.944
G01 X59.052 Y332.222
G01 X64.976 Y330.500
G01 X70.900 Y328.778
G01 X76.823 Y327.056
G01 X82.747 Y325.333
G01 X88.670 Y323.611
G01 X94.594 Y321.889
G01 X100.517 Y320.167
G01 X106.441 Y318.444
G01 X112.364 Y316.722
G01 X118.288 Y315.000
G01 X118.288 Y320.556
G01 X114.629 Y325.056
G01 X110.971 Y329.556
G01 X114.629 Y325.056
G01 X118.288 Y320.556
G01 X121.947 Y325.056
G01 X125.605 Y329.556
G01 X121.947 Y325.056
G01 X118.288 Y320.556
G01 X118.288 Y326.111
G01 X121.947 Y330.611
G01 X118.288 Y326.111
G01 X114.629 Y330.611
G01 X118.288 Y326.111
G01 X118.288 Y331.667
G01 X114.629 Y336.167
G01 X108.706 Y337.889
G01 X102.782 Y339.611
G01 X108.706 Y337.889
G01 X114.629 Y336.167
G01 X114.629 Y341.722
G01 X114.629 Y347.278
G01 X114.629 Y341.722
G01 X114.629 Y336.167
G01 X110.971 Y340.667
G01 X110.971 Y346.222
G01 X110.971 Y340.667
G01 X105.047 Y342.389
G01 X110.971 Y340.667
G01 X107.312 Y345.167
G01 X103.653 Y349.667
G01 X97.730 Y351.389
G01 X91.806 Y353.111
G01 X97.730 Y351.389
G01 X103.653 Y349.667
G01 X103.653 Y355.222
G01 X103.653 Y360.778
G01 X103.653 Y355.222
G01 X103.653 Y349.667
G01 X99.995 Y354.167
G01 X99.995 Y359.722
G01 X99.995 Y354.167
G01 X94.071 Y355.889
G01 X99.995 Y354.167
G01 X96.336 Y358.667
G01 X99.995 Y354.167
G01 X103.653 Y349.667
G01 X107.312 Y345.167
G01 X110.971 Y340.667
G01 X114.629 Y336.167
G01 X118.288 Y331.667
G01 X121.947 Y336.167
G01 X121.947 Y341.722
G01 X121.947 Y347.278
G01 X121.947 Y341.722
G01 X121.947 Y336.167
G01 X127.870 Y337.889
G01 X133.794 Y339.611
G01 X127.870 Y337.889
G01 X121.947 Y336.167
G01 X125.605 Y340.667
G01 X131.529 Y342.389
G01 X125.605 Y340.667
G01 X125.605 Y346.222
G01 X125.605 Y340.667
G01 X129.264 Y345.167
G01 X132.923 Y349.667
G01 X132.923 Y355.222
G01 X132.923 Y360.778
G01 X132.923 Y355.222
G01 X132.923 Y349.667
G01 X138.846 Y351.389
G01 X144.770 Y353.111
G01 X138.846 Y351.389
G01 X132.923 Y349.667
G01 X136.581 Y354.167
G01 X142.505 Y355.889
G01 X136.581 Y354.167
G01 X136.581 Y359.722
G01 X136.581 Y354.167
G01 X140.240 Y358.667
G01 X136.581 Y354.167
G01 X132.923 Y349.667
G01 X129.264 Y345.167
G01 X125.605 Y340.667
G01 X121.947 Y336.167
G01 X118.288 Y331.667
G01 X118.288 Y337.222
G01 X114.629 Y341.722
G01 X110.971 Y346.222
G01 X114.629 Y341.722
G01 X118.288 Y337.222
G01 X121.947 Y341.722
G01 X125.605 Y346.222
G01 X121.947 Y341.722
G01 X118.288 Y337.222
G01 X118.288 Y342.778
G01 X121.947 Y347.278
G01 X118.288 Y342.778
G01 X114.629 Y347.278
G01 X118.288 Y342.778
G01 X118.288 Y348.333
G01 X121.947 Y352.833
G01 X121.947 Y358.389
G01 X121.947 Y363.944
G01 X121.947 Y358.389
G01 X121.947 Y352.833
G01 X127.870 Y354.556
G01 X133.794 Y356.278
G01 X127.870 Y354.556
G01 X121.947 Y352.833
G01 X125.605 Y357.333
G01 X131.529 Y359.056
G01 X125.605 Y357.333
G01 X125.605 Y362.889
G01 X125.605 Y357.333
G01 X129.264 Y361.833
G01 X125.605 Y357.333
G01 X121.947 Y352.833
G01 X118.288 Y348.333
G01 X114.629 Y352.833
G01 X108.706 Y354.556
G01 X102.782 Y356.278
G01 X108.706 Y354.556
G01 X114.629 Y352.833
G01 X114.629 Y358.389
G01 X114.629 Y363.944
G01 X114.629 Y358.389
G01 X114.629 Y352.833
G01 X110.971 Y357.333
G01 X110.971 Y362.889
G01 X110.971 Y357.333
G01 X105.047 Y359.056
G01 X110.971 Y357.333
G01 X107.312 Y361.833
G01 X110.971 Y357.333
G01 X114.629 Y352.833
G01 X118.288 Y348.333
G01 X118.288 Y353.889
G01 X114.629 Y358.389
G01 X110.971 Y362.889
G01 X114.629 Y358.389
G01 X118.288 Y353.889
G01 X121.947 Y358.389
G01 X125.605 Y362.889
G01 X121.947 Y358.389
G01 X118.288 Y353.889
G01 X118.288 Y359.444
G01 X121.947 Y363.944
G01 X118.288 Y359.444
G01 X114.629 Y363.944
G01 X118.288 Y359.444
G01 X118.288 Y365.000
G01 X118.288 Y370.556
G01 X114.629 Y375.056
G01 X110.971 Y379.556
G01 X114.629 Y375.056
G01 X118.288 Y370.556
G01 X121.947 Y375.056
G01 X125.605 Y379.556
G01 X121.947 Y375.056
G01 X118.288 Y370.556
G01 X118.288 Y376.111
G01 X121.947 Y380.611
G01 X118.288 Y376.111
G01 X114.629 Y380.611
G01 X118.288 Y376.111
G01 X118.288 Y381.667
G01 X114.629 Y386.167
G01 X108.706 Y387.889
G01 X102.782 Y389.611
G01 X108.706 Y387.889
G01 X114.629 Y386.167
G01 X114.629 Y391.722
G01 X114.629 Y397.278
G01 X114.629 Y391.722
G01 X114.629 Y386.167
G01 X110.971 Y390.667
G01 X110.971 Y396.222
G01 X110.971 Y390.667
G01 X105.047 Y392.389
G01 X110.971 Y390.667
G01 X107.312 Y395.167
G01 X103.653 Y399.667
G01 X97.730 Y401.389
G01 X91.806 Y403.111
G01 X97.730 Y401.389
G01 X103.653 Y399.667
G01 X103.653 Y405.222
G01 X103.653 Y410.778
G01 X103.653 Y405.222
G01 X103.653 Y399.667
G01 X99.995 Y404.167
G01 X99.995 Y409.722
G01 X99.995 Y404.167
G01 X94.071 Y405.889
G01 X99.995 Y404.167
G01 X96.336 Y408.667
G01 X99.995 Y404.167
G01 X103.653 Y399.667
G01 X107.312 Y395.167
G01 X110.971 Y390.667
G01 X114.629 Y386.167
G01 X118.288 Y381.667
G01 X121.947 Y386.167
G01 X121.947 Y391.722
G01 X121.947 Y397.278
G01 X121.947 Y391.722
G01 X121.947 Y386.167
G01 X127.870 Y387.889
G01 X133.794 Y389.611
G01 X127.870 Y387.889
G01 X121.947 Y386.167
G01 X125.605 Y390.667
G01 X131.529 Y392.389
G01 X125.605 Y390.667
G01 X125.605 Y396.222
G01 X125.605 Y390.667
G01 X129.264 Y395.167
G01 X132.923 Y399.667
G01 X132.923 Y405.222
G01 X132.923 Y410.778
G01 X132.923 Y405.222
G01 X132.923 Y399.667
G01 X138.846 Y401.389
G01 X144.770 Y403.111
G01 X138.846 Y401.389
G01 X132.923 Y399.667
G01 X136.581 Y404.167
G01 X142.505 Y405.889
G01 X136.581 Y404.167
G01 X136.581 Y409.722
G01 X136.581 Y404.167
G01 X140.240 Y408.667
G01 X136.581 Y404.167
G01 X132.923 Y399.667
G01 X129.264 Y395.167
G01 X125.605 Y390.667
G01 X121.947 Y386.167
G01 X118.288 Y381.667
G01 X118.288 Y387.222
G01 X114.629 Y391.722
G01 X110.971 Y396.222
G01 X114.629 Y391.722
G01 X118.288 Y387.222
G01 X121.947 Y391.722
G01 X125.605 Y396.222
G01 X121.947 Y391.722
G01 X118.288 Y387.222
G01 X118.288 Y392.778
G01 X121.947 Y397.278
G01 X118.288 Y392.778
G01 X114.629 Y397.278
G01 X118.288 Y392.778
G01 X118.288 Y398.333
G01 X121.947 Y402.833
G01 X121.947 Y408.389
G01 X121.947 Y413.944
G01 X121.947 Y408.389
G01 X121.947 Y402.833
G01 X127.870 Y404.556
G01 X133.794 Y406.278
G01 X127.870 Y404.556
G01 X121.947 Y402.833
G01 X125.605 Y407.333
G01 X131.529 Y409.056
G01 X125.605 Y407.333
G01 X125.605 Y412.889
G01 X125.605 Y407.333
G01 X129.264 Y411.833
G01 X125.605 Y407.333
G01 X121.947 Y402.833
G01 X118.288 Y398.333
G01 X114.629 Y402.833
G01 X108.706 Y404.556
G01 X102.782 Y406.278
G01 X108.706 Y404.556
G01 X114.629 Y402.833
G01 X114.629 Y408.389
G01 X114.629 Y413.944
G01 X114.629 Y408.389
G01 X114.629 Y402.833
G01 X110.971 Y407.333
G01 X110.971 Y412.889
G01 X110.971 Y407.333
G01 X105.047 Y409.056
G01 X110.971 Y407.333
G01 X107.312 Y411.833
G01 X110.971 Y407.333
G01 X114.629 Y402.833
G01 X118.288 Y398.333
G01 X118.288 Y403.889
G01 X114.629 Y408.389
G01 X110.971 Y412.889
G01 X114.629 Y408.389
G01 X118.288 Y403.889
G01 X121.947 Y408.389
G01 X125.605 Y412.889
G01 X121.947 Y408.389
G01 X118.288 Y403.889
G01 X118.288 Y409.444
G01 X121.947 Y413.944
G01 X118.288 Y409.444
G01 X114.629 Y413.944
G01 X118.288 Y409.444
G01 X118.288 Y415.000
G01 X118.288 Y409.444
G01 X118.288 Y403.889
G01 X118.288 Y398.333
G01 X118.288 Y392.778
G01 X118.288 Y387.222
G01 X118.288 Y381.667
G01 X118.288 Y376.111
G01 X118.288 Y370.556
G01 X118.288 Y365.000
G01 X118.288 Y359.444
G01 X118.288 Y353.889
G01 X118.288 Y348.333
G01 X118.288 Y342.778
G01 X118.288 Y337.222
G01 X118.288 Y331.667
G01 X118.288 Y326.111
G01 X118.288 Y320.556
G01 X118.288 Y315.000
G01 X114.629 Y319.500
G01 X108.706 Y321.222
G01 X102.782 Y322.944
G01 X108.706 Y321.222
G01 X114.629 Y319.500
G01 X114.629 Y325.056
G01 X114.629 Y330.611
G01 X114.629 Y325.056
G01 X114.629 Y319.500
G01 X110.971 Y324.000
G01 X110.971 Y329.556
G01 X110.971 Y324.000
G01 X105.047 Y325.722
G01 X110.971 Y324.000
G01 X107.312 Y328.500
G01 X101.388 Y330.222
G01 X95.465 Y328.500
G01 X89.541 Y326.778
G01 X95.465 Y328.500
G01 X101.388 Y330.222
G01 X97.730 Y334.722
G01 X94.071 Y339.222
G01 X97.730 Y334.722
G01 X101.388 Y330.222
G01 X95.465 Y331.944
G01 X91.806 Y336.444
G01 X95.465 Y331.944
G01 X89.541 Y330.222
G01 X95.465 Y331.944
G01 X89.541 Y333.667
G01 X83.618 Y335.389
G01 X77.694 Y333.667
G01 X71.771 Y331.944
G01 X77.694 Y333.667
G01 X83.618 Y335.389
G01 X79.959 Y339.889
G01 X76.300 Y344.389
G01 X79.959 Y339.889
G01 X83.618 Y335.389
G01 X77.694 Y337.111
G01 X74.036 Y341.611
G01 X77.694 Y337.111
G01 X71.771 Y335.389
G01 X77.694 Y337.111
G01 X71.771 Y338.833
G01 X77.694 Y337.111
G01 X83.618 Y335.389
G01 X89.541 Y333.667
G01 X95.465 Y331.944
G01 X101.388 Y330.222
G01 X107.312 Y328.500
G01 X107.312 Y334.056
G01 X103.653 Y338.556
G01 X99.995 Y343.056
G01 X103.653 Y338.556
G01 X107.312 Y334.056
G01 X110.971 Y338.556
G01 X114.629 Y343.056
G01 X110.971 Y338.556
G01 X107.312 Y334.056
G01 X107.312 Y339.611
G01 X110.971 Y344.111
G01 X107.312 Y339.611
G01 X103.653 Y344.111
G01 X107.312 Y339.611
G01 X107.312 Y345.167
G01 X107.312 Y350.722
G01 X103.653 Y355.222
G01 X99.995 Y359.722
G01 X103.653 Y355.222
G01 X107.312 Y350.722
G01 X110.971 Y355.222
G01 X114.629 Y359.722
G01 X110.971 Y355.222
G01 X107.312 Y350.722
G01 X107.312 Y356.278
G01 X110.971 Y360.778
G01 X107.312 Y356.278
G01 X103.653 Y360.778
G01 X107.312 Y356.278
G01 X107.312 Y361.833
G01 X107.312 Y356.278
G01 X107.312 Y350.722
G01 X107.312 Y345.167
G01 X107.312 Y339.611
G01 X107.312 Y334.056
G01 X107.312 Y328.500
G01 X103.653 Y333.000
G01 X97.730 Y334.722
G01 X91.806 Y336.444
G01 X97.730 Y334.722
G01 X103.653 Y333.000
G01 X103.653 Y338.556
G01 X103.653 Y344.111
G01 X103.653 Y338.556
G01 X103.653 Y333.000
G01 X99.995 Y337.500
G01 X99.995 Y343.056
G01 X99.995 Y337.500
G01 X94.071 Y339.222
G01 X99.995 Y337.500
G01 X96.336 Y342.000
G01 X96.336 Y347.556
G01 X92.677 Y352.056
G01 X89.019 Y356.556
G01 X92.677 Y352.056
G01 X96.336 Y347.556
G01 X99.995 Y352.056
G01 X103.653 Y356.556
G01 X99.995 Y352.056
G01 X96.336 Y347.556
G01 X96.336 Y353.111
G01 X99.995 Y357.611
G01 X96.336 Y353.111
G01 X92.677 Y357.611
G01 X96.336 Y353.111
G01 X96.336 Y358.667
G01 X96.336 Y353.111
G01 X96.336 Y347.556
G01 X96.336 Y342.000
G01 X90.412 Y343.722
G01 X84.489 Y342.000
G01 X78.565 Y340.278
G01 X84.489 Y342.000
G01 X90.412 Y343.722
G01 X86.754 Y348.222
G01 X83.095 Y352.722
G01 X86.754 Y348.222
G01 X90.412 Y343.722
G01 X84.489 Y345.444
G01 X80.830 Y349.944
G01 X84.489 Y345.444
G01 X78.565 Y343.722
G01 X84.489 Y345.444
G01 X78.565 Y347.167
G01 X84.489 Y345.444
G01 X90.412 Y343.722
G01 X96.336 Y342.000
G01 X92.677 Y346.500
G01 X86.754 Y348.222
G01 X80.830 Y349.944
G01 X86.754 Y348.222
G01 X92.677 Y346.500
G01 X92.677 Y352.056
G01 X92.677 Y357.611
G01 X92.677 Y352.056
G01 X92.677 Y346.500
G01 X89.019 Y351.000
G01 X89.019 Y356.556
G01 X89.019 Y351.000
G01 X83.095 Y352.722
G01 X89.019 Y351.000
G01 X85.360 Y355.500
G01 X85.360 Y361.056
G01 X81.701 Y365.556
G01 X78.043 Y370.056
G01 X81.701 Y365.556
G01 X85.360 Y361.056
G01 X89.019 Y365.556
G01 X92.677 Y370.056
G01 X89.019 Y365.556
G01 X85.360 Y361.056
G01 X85.360 Y366.611
G01 X89.019 Y371.111
G01 X85.360 Y366.611
G01 X81.701 Y371.111
G01 X85.360 Y366.611
G01 X85.360 Y372.167
G01 X81.701 Y376.667
G01 X75.778 Y378.389
G01 X69.854 Y380.111
G01 X75.778 Y378.389
G01 X81.701 Y376.667
G01 X81.701 Y382.222
G01 X81.701 Y387.778
G01 X81.701 Y382.222
G01 X81.701 Y376.667
G01 X78.043 Y381.167
G01 X78.043 Y386.722
G01 X78.043 Y381.167
G01 X72.119 Y382.889
G01 X78.043 Y381.167
G01 X74.384 Y385.667
G01 X70.725 Y390.167
G01 X64.802 Y391.889
G01 X58.878 Y393.611
G01 X64.802 Y391.889
G01 X70.725 Y390.167
G01 X70.725 Y395.722
G01 X70.725 Y401.278
G01 X70.725 Y395.722
G01 X70.725 Y390.167
G01 X67.067 Y394.667
G01 X67.067 Y400.222
G01 X67.067 Y394.667
G01 X61.143 Y396.389
G01 X67.067 Y394.667
G01 X63.408 Y399.167
G01 X67.067 Y394.667
G01 X70.725 Y390.167
G01 X74.384 Y385.667
G01 X78.043 Y381.167
G01 X81.701 Y376.667
G01 X85.360 Y372.167
G01 X89.019 Y376.667
G01 X89.019 Y382.222
G01 X89.019 Y387.778
G01 X89.019 Y382.222
G01 X89.019 Y376.667
G01 X94.942 Y378.389
G01 X100.866 Y380.111
G01 X94.942 Y378.389
G01 X89.019 Y376.667
G01 X92.677 Y381.167
G01 X98.601 Y382.889
G01 X92.677 Y381.167
G01 X92.677 Y386.722
G01 X92.677 Y381.167
G01 X96.336 Y385.667
G01 X99.995 Y390.167
G01 X99.995 Y395.722
G01 X99.995 Y401.278
G01 X99.995 Y395.722
G01 X99.995 Y390.167
G01 X105.918 Y391.889
G01 X111.842 Y393.611
G01 X105.918 Y391.889
G01 X99.995 Y390.167
G01 X103.653 Y394.667
G01 X109.577 Y396.389
G01 X103.653 Y394.667
G01 X103.653 Y400.222
G01 X103.653 Y394.667
G01 X107.312 Y399.167
G01 X103.653 Y394.667
G01 X99.995 Y390.167
G01 X96.336 Y385.667
G01 X92.677 Y381.167
G01 X89.019 Y376.667
G01 X85.360 Y372.167
G01 X85.360 Y377.722
G01 X81.701 Y382.222
G01 X78.043 Y386.722
G01 X81.701 Y382.222
G01 X85.360 Y377.722
G01 X89.019 Y382.222
G01 X92.677 Y386.722
G01 X89.019 Y382.222
G01 X85.360 Y377.722
G01 X85.360 Y383.278
G01 X89.019 Y387.778
G01 X85.360 Y383.278
G01 X81.701 Y387.778
G01 X85.360 Y383.278
G01 X85.360 Y388.833
G01 X89.019 Y393.333
G01 X89.019 Y398.889
G01 X89.019 Y404.444
G01 X89.019 Y398.889
G01 X89.019 Y393.333
G01 X94.942 Y395.056
G01 X100.866 Y396.778
G01 X94.942 Y395.056
G01 X89.019 Y393.333
G01 X92.677 Y397.833
G01 X98.601 Y399.556
G01 X92.677 Y397.833
G01 X92.677 Y403.389
G01 X92.677 Y397.833
G01 X96.336 Y402.333
G01 X92.677 Y397.833
G01 X89.019 Y393.333
G01 X85.360 Y388.833
G01 X81.701 Y393.333
G01 X75.778 Y395.056
G01 X69.854 Y396.778
G01 X75.778 Y395.056
G01 X81.701 Y393.333
G01 X81.701 Y398.889
G01 X81.701 Y404.444
G01 X81.701 Y398.889
G01 X81.701 Y393.333
G01 X78.043 Y397.833
G01 X78.043 Y403.389
G01 X78.043 Y397.833
G01 X72.119 Y399.556
G01 X78.043 Y397.833
G01 X74.384 Y402.333
G01 X78.043 Y397.833
G01 X81.701 Y393.333
G01 X85.360 Y388.833
G01 X85.360 Y394.389
G01 X81.701 Y398.889
G01 X78.043 Y403.389
G01 X81.701 Y398.889
G01 X85.360 Y394.389
G01 X89.019 Y398.889
G01 X92.677 Y403.389
G01 X89.019 Y398.889
G01 X85.360 Y394.389
G01 X85.360 Y399.944
G01 X89.019 Y404.444
G01 X85.360 Y399.944
G01 X81.701 Y404.444
G01 X85.360 Y399.944
G01 X85.360 Y405.500
G01 X85.360 Y399.944
G01 X85.360 Y394.389
G01 X85.360 Y388.833
G01 X85.360 Y383.278
G01 X85.360 Y377.722
G01 X85.360 Y372.167
G01 X85.360 Y366.611
G01 X85.360 Y361.056
G01 X85.360 Y355.500
G01 X79.436 Y357.222
G01 X73.513 Y355.500
G01 X67.589 Y353.778
G01 X73.513 Y355.500
G01 X79.436 Y357.222
G01 X75.778 Y361.722
G01 X72.119 Y366.222
G01 X75.778 Y361.722
G01 X79.436 Y357.222
G01 X73.513 Y358.944
G01 X69.854 Y363.444
G01 X73.513 Y358.944
G01 X67.589 Y357.222
G01 X73.513 Y358.944
G01 X67.589 Y360.667
G01 X61.666 Y358.944
G01 X58.007 Y354.444
G01 X54.348 Y349.944
G01 X58.007 Y354.444
G01 X61.666 Y358.944
G01 X55.742 Y360.667
G01 X49.819 Y362.389
G01 X55.742 Y360.667
G01 X61.666 Y358.944
G01 X55.742 Y357.222
G01 X49.819 Y358.944
G01 X55.742 Y357.222
G01 X52.084 Y352.722
G01 X55.742 Y357.222
G01 X49.819 Y355.500
G01 X43.895 Y353.778
G01 X40.236 Y349.278
G01 X36.578 Y344.778
G01 X40.236 Y349.278
G01 X43.895 Y353.778
G01 X37.972 Y355.500
G01 X32.048 Y357.222
G01 X37.972 Y355.500
G01 X43.895 Y353.778
G01 X37.972 Y352.056
G01 X32.048 Y353.778
G01 X37.972 Y352.056
G01 X34.313 Y347.556
G01 X37.972 Y352.056
G01 X32.048 Y350.333
G01 X37.972 Y352.056
G01 X43.895 Y353.778
G01 X49.819 Y355.500
G01 X55.742 Y357.222
G01 X61.666 Y358.944
G01 X67.589 Y360.667
G01 X63.931 Y365.167
G01 X58.007 Y366.889
G01 X52.084 Y368.611
G01 X58.007 Y366.889
G01 X63.931 Y365.167
G01 X63.931 Y370.722
G01 X63.931 Y376.278
G01 X63.931 Y370.722
G01 X63.931 Y365.167
G01 X60.272 Y369.667
G01 X60.272 Y375.222
G01 X60.272 Y369.667
G01 X54.348 Y371.389
G01 X60.272 Y369.667
G01 X56.613 Y374.167
G01 X52.955 Y378.667
G01 X47.031 Y380.389
G01 X41.108 Y382.111
G01 X47.031 Y380.389
G01 X52.955 Y378.667
G01 X52.955 Y384.222
G01 X52.955 Y389.778
G01 X52.955 Y384.222
G01 X52.955 Y378.667
G01 X49.296 Y383.167
G01 X49.296 Y388.722
G01 X49.296 Y383.167
G01 X43.372 Y384.889
G01 X49.296 Y383.167
G01 X45.637 Y387.667
G01 X49.296 Y383.167
G01 X52.955 Y378.667
G01 X56.613 Y374.167
G01 X60.272 Y369.667
G01 X63.931 Y365.167
G01 X67.589 Y360.667
G01 X61.666 Y362.389
G01 X55.742 Y360.667
G01 X49.819 Y358.944
G01 X55.742 Y360.667
G01 X61.666 Y362.389
G01 X58.007 Y366.889
G01 X54.348 Y371.389
G01 X58.007 Y366.889
G01 X61.666 Y362.389
G01 X55.742 Y364.111
G01 X52.084 Y368.611
G01 X55.742 Y364.111
G01 X49.819 Y362.389
G01 X55.742 Y364.111
G01 X49.819 Y365.833
G01 X46.160 Y370.333
G01 X40.236 Y372.056
G01 X34.313 Y373.778
G01 X40.236 Y372.056
G01 X46.160 Y370.333
G01 X46.160 Y375.889
G01 X46.160 Y381.444
G01 X46.160 Y375.889
G01 X46.160 Y370.333
G01 X42.501 Y374.833
G01 X42.501 Y380.389
G01 X42.501 Y374.833
G01 X36.578 Y376.556
G01 X42.501 Y374.833
G01 X38.843 Y379.333
G01 X42.501 Y374.833
G01 X46.160 Y370.333
G01 X49.819 Y365.833
G01 X43.895 Y364.111
G01 X40.236 Y359.611
G01 X36.578 Y355.111
G01 X40.236 Y359.611
G01 X43.895 Y364.111
G01 X37.972 Y365.833
G01 X32.048 Y367.556
G01 X37.972 Y365.833
G01 X43.895 Y364.111
G01 X37.972 Y362.389
G01 X32.048 Y364.111
G01 X37.972 Y362.389
G01 X34.313 Y357.889
G01 X37.972 Y362.389
G01 X32.048 Y360.667
G01 X37.972 Y362.389
G01 X43.895 Y364.111
G01 X49.819 Y365.833
G01 X43.895 Y367.556
G01 X37.972 Y365.833
G01 X32.048 Y364.111
G01 X37.972 Y365.833
G01 X43.895 Y367.556
G01 X40.236 Y372.056
G01 X36.578 Y376.556
G01 X40.236 Y372.056
G01 X43.895 Y367.556
G01 X37.972 Y369.278
G01 X34.313 Y373.778
G01 X37.972 Y369.278
G01 X32.048 Y367.556
G01 X37.972 Y369.278
G01 X32.048 Y371.000
G01 X37.972 Y369.278
G01 X43.895 Y367.556
G01 X49.819 Y365.833
G01 X55.742 Y364.111
G01 X61.666 Y362.389
G01 X67.589 Y360.667
G01 X73.513 Y358.944
G01 X79.436 Y357.222
G01 X85.360 Y355.500
G01 X81.701 Y360.000
G01 X75.778 Y361.722
G01 X69.854 Y363.444
G01 X75.778 Y361.722
G01 X81.701 Y360.000
G01 X81.701 Y365.556
G01 X81.701 Y371.111
G01 X81.701 Y365.556
G01 X81.701 Y360.000
G01 X78.043 Y364.500
G01 X78.043 Y370.056
G01 X78.043 Y364.500
G01 X72.119 Y366.222
G01 X78.043 Y364.500
G01 X74.384 Y369.000
G01 X68.460 Y370.722
G01 X62.537 Y369.000
G01 X56.613 Y367.278
G01 X62.537 Y369.000
G01 X68.460 Y370.722
G01 X64.802 Y375.222
G01 X61.143 Y379.722
G01 X64.802 Y375.222
G01 X68.460 Y370.722
G01 X62.537 Y372.444
G01 X58.878 Y376.944
G01 X62.537 Y372.444
G01 X56.613 Y370.722
G01 X62.537 Y372.444
G01 X56.613 Y374.167
G01 X50.690 Y375.889
G01 X44.766 Y374.167
G01 X38.843 Y372.444
G01 X44.766 Y374.167
G01 X50.690 Y375.889
G01 X47.031 Y380.389
G01 X43.372 Y384.889
G01 X47.031 Y380.389
G01 X50.690 Y375.889
G01 X44.766 Y377.611
G01 X41.108 Y382.111
G01 X44.766 Y377.611
G01 X38.843 Y375.889
G01 X44.766 Y377.611
G01 X38.843 Y379.333
G01 X44.766 Y377.611
G01 X50.690 Y375.889
G01 X56.613 Y374.167
G01 X62.537 Y372.444
G01 X68.460 Y370.722
G01 X74.384 Y369.000
G01 X74.384 Y374.556
G01 X70.725 Y379.056
G01 X67.067 Y383.556
G01 X70.725 Y379.056
G01 X74.384 Y374.556
G01 X78.043 Y379.056
G01 X81.701 Y383.556
G01 X78.043 Y379.056
G01 X74.384 Y374.556
G01 X74.384 Y380.111
G01 X78.043 Y384.611
G01 X74.384 Y380.111
G01 X70.725 Y384.611
G01 X74.384 Y380.111
G01 X74.384 Y385.667
G01 X74.384 Y391.222
G01 X70.725 Y395.722
G01 X67.067 Y400.222
G01 X70.725 Y395.722
G01 X74.384 Y391.222
G01 X78.043 Y395.722
G01 X81.701 Y400.222
G01 X78.043 Y395.722
G01 X74.384 Y391.222
G01 X74.384 Y396.778
G01 X78.043 Y401.278
G01 X74.384 Y396.778
G01 X70.725 Y401.278
G01 X74.384 Y396.778
G01 X74.384 Y402.333
G01 X74.384 Y396.778
G01 X74.384 Y391.222
G01 X74.384 Y385.667
G01 X74.384 Y380.111
G01 X74.384 Y374.556
G01 X74.384 Y369.000
G01 X70.725 Y373.500
G01 X64.802 Y375.222
G01 X58.878 Y376.944
G01 X64.802 Y375.222
G01 X70.725 Y373.500
G01 X70.725 Y379.056
G01 X70.725 Y384.611
G01 X70.725 Y379.056
G01 X70.725 Y373.500
G01 X67.067 Y378.000
G01 X67.067 Y383.556
G01 X67.067 Y378.000
G01 X61.143 Y379.722
G01 X67.067 Y378.000
G01 X63.408 Y382.500
G01 X63.408 Y388.056
G01 X59.749 Y392.556
G01 X56.091 Y397.056
G01 X59.749 Y392.556
G01 X63.408 Y388.056
G01 X67.067 Y392.556
G01 X70.725 Y397.056
G01 X67.067 Y392.556
G01 X63.408 Y388.056
G01 X63.408 Y393.611
G01 X67.067 Y398.111
G01 X63.408 Y393.611
G01 X59.749 Y398.111
G01 X63.408 Y393.611
G01 X63.408 Y399.167
G01 X63.408 Y393.611
G01 X63.408 Y388.056
G01 X63.408 Y382.500
G01 X57.484 Y384.222
G01 X51.561 Y382.500
G01 X45.637 Y380.778
G01 X51.561 Y382.500
G01 X57.484 Y384.222
G01 X53.826 Y388.722
G01 X50.167 Y393.222
G01 X53.826 Y388.722
G01 X57.484 Y384.222
G01 X51.561 Y385.944
G01 X47.902 Y390.444
G01 X51.561 Y385.944
G01 X45.637 Y384.222
G01 X51.561 Y385.944
G01 X45.637 Y387.667
G01 X51.561 Y385.944
G01 X57.484 Y384.222
G01 X63.408 Y382.500
G01 X59.749 Y387.000
G01 X53.826 Y388.722
G01 X47.902 Y390.444
G01 X53.826 Y388.722
G01 X59.749 Y387.000
G01 X59.749 Y392.556
G01 X59.749 Y398.111
G01 X59.749 Y392.556
G01 X59.749 Y387.000
G01 X56.091 Y391.500
G01 X56.091 Y397.056
G01 X56.091 Y391.500
G01 X50.167 Y393.222
G01 X56.091 Y391.500
G01 X52.432 Y396.000
G01 X56.091 Y391.500
G01 X59.749 Y387.000
G01 X63.408 Y382.500
G01 X67.067 Y378.000
G01 X70.725 Y373.500
G01 X74.384 Y369.000
G01 X78.043 Y364.500
G01 X81.701 Y360.000
G01 X85.360 Y355.500
G01 X89.019 Y351.000
G01 X92.677 Y346.500
G01 X96.336 Y342.000
G01 X99.995 Y337.500
G01 X103.653 Y333.000
G01 X107.312 Y328.500
G01 X110.971 Y324.000
G01 X114.629 Y319.500
G01 X118.288 Y315.000
G01 X121.947 Y310.500
G01 X125.605 Y306.000
G01 X129.264 Y301.500
G01 X132.923 Y297.000
G01 X136.581 Y292.500
G01 X140.240 Y288.000
G01 X143.899 Y283.500
G01 X147.557 Y279.000
G01 X151.216 Y274.500
G01 X154.875 Y270.000
G01 X158.533 Y265.500
G01 X162.192 Y261.000
G01 X165.851 Y256.500
G01 X169.509 Y252.000
G01 X173.168 Y247.500
G01 X176.827 Y243.000
G01 X180.485 Y238.500
G01 X184.144 Y234.000
G01 X187.803 Y229.500
G01 X191.461 Y225.000
G01 X195.120 Y220.500
G01 X198.779 Y216.000
G01 X202.437 Y211.500
G01 X206.096 Y207.000
G01 X209.755 Y202.500
G01 X213.413 Y198.000
G01 X217.072 Y193.500
G01 X220.731 Y189.000
G01 X224.389 Y184.500
G01 X228.048 Y180.000
G01 X231.707 Y175.500
G01 X235.365 Y171.000
G01 X239.024 Y166.500
G01 X242.683 Y162.000
G01 X246.341 Y157.500
G01 X250.000 Y153.000
G01 X253.659 Y157.500
G01 X253.659 Y163.056
G01 X253.659 Y168.611
G01 X253.659 Y163.056
G01 X253.659 Y157.500
G01 X259.582 Y159.222
G01 X265.506 Y160.944
G01 X259.582 Y159.222
G01 X253.659 Y157.500
G01 X257.317 Y162.000
G01 X263.241 Y163.722
G01 X257.317 Y162.000
G01 X257.317 Y167.556
G01 X257.317 Y162.000
G01 X260.976 Y166.500
G01 X260.976 Y172.056
G01 X257.317 Y176.556
G01 X253.659 Y181.056
G01 X257.317 Y176.556
G01 X260.976 Y172.056
G01 X264.635 Y176.556
G01 X268.293 Y181.056
G01 X264.635 Y176.556
G01 X260.976 Y172.056
G01 X260.976 Y177.611
G01 X264.635 Y182.111
G01 X260.976 Y177.611
G01 X257.317 Y182.111
G01 X260.976 Y177.611
G01 X260.976 Y183.167
G01 X260.976 Y188.722
G01 X257.317 Y193.222
G01 X253.659 Y197.722
G01 X257.317 Y193.222
G01 X260.976 Y188.722
G01 X264.635 Y193.222
G01 X268.293 Y197.722
G01 X264.635 Y193.222
G01 X260.976 Y188.722
G01 X260.976 Y194.278
G01 X264.635 Y198.778
G01 X260.976 Y194.278
G01 X257.317 Y198.778
G01 X260.976 Y194.278
G01 X260.976 Y199.833
G01 X260.976 Y194.278
G01 X260.976 Y188.722
G01 X260.976 Y183.167
G01 X260.976 Y177.611
G01 X260.976 Y172.056
G01 X260.976 Y166.500
G01 X266.900 Y168.222
G01 X270.558 Y172.722
G01 X274.217 Y177.222
G01 X270.558 Y172.722
G01 X266.900 Y168.222
G01 X272.823 Y166.500
G01 X278.747 Y164.778
G01 X272.823 Y166.500
G01 X266.900 Y168.222
G01 X272.823 Y169.944
G01 X278.747 Y168.222
G01 X272.823 Y169.944
G01 X276.482 Y174.444
G01 X272.823 Y169.944
G01 X278.747 Y171.667
G01 X284.670 Y173.389
G01 X288.329 Y177.889
G01 X291.988 Y182.389
G01 X288.329 Y177.889
G01 X284.670 Y173.389
G01 X290.594 Y171.667
G01 X296.517 Y169.944
G01 X290.594 Y171.667
G01 X284.670 Y173.389
G01 X290.594 Y175.111
G01 X296.517 Y173.389
G01 X290.594 Y175.111
G01 X294.252 Y179.611
G01 X290.594 Y175.111
G01 X296.517 Y176.833
G01 X290.594 Y175.111
G01 X284.670 Y173.389
G01 X278.747 Y171.667
G01 X272.823 Y169.944
G01 X266.900 Y168.222
G01 X260.976 Y166.500
G01 X264.635 Y171.000
G01 X264.635 Y176.556
G01 X264.635 Y182.111
G01 X264.635 Y176.556
G01 X264.635 Y171.000
G01 X270.558 Y172.722
G01 X276.482 Y174.444
G01 X270.558 Y172.722
G01 X264.635 Y171.000
G01 X268.293 Y175.500
G01 X274.217 Y177.222
G01 X268.293 Y175.500
G01 X268.293 Y181.056
G01 X268.293 Y175.500
G01 X271.952 Y180.000
G01 X277.876 Y181.722
G01 X281.534 Y186.222
G01 X285.193 Y190.722
G01 X281.534 Y186.222
G01 X277.876 Y181.722
G01 X283.799 Y180.000
G01 X289.723 Y178.278
G01 X283.799 Y180.000
G01 X277.876 Y181.722
G01 X283.799 Y183.444
G01 X289.723 Y181.722
G01 X283.799 Y183.444
G01 X287.458 Y187.944
G01 X283.799 Y183.444
G01 X289.723 Y185.167
G01 X283.799 Y183.444
G01 X277.876 Y181.722
G01 X271.952 Y180.000
G01 X271.952 Y185.556
G01 X268.293 Y190.056
G01 X264.635 Y194.556
G01 X268.293 Y190.056
G01 X271.952 Y185.556
G01 X275.611 Y190.056
G01 X279.269 Y194.556
G01 X275.611 Y190.056
G01 X271.952 Y185.556
G01 X271.952 Y191.111
G01 X275.611 Y195.611
G01 X271.952 Y191.111
G01 X268.293 Y195.611
G01 X271.952 Y191.111
G01 X271.952 Y196.667
G01 X271.952 Y191.111
G01 X271.952 Y185.556
G01 X271.952 Y180.000
G01 X275.611 Y184.500
G01 X275.611 Y190.056
G01 X275.611 Y195.611
G01 X275.611 Y190.056
G01 X275.611 Y184.500
G01 X281.534 Y186.222
G01 X287.458 Y187.944
G01 X281.534 Y186.222
G01 X275.611 Y184.500
G01 X279.269 Y189.000
G01 X285.193 Y190.722
G01 X279.269 Y189.000
G01 X279.269 Y194.556
G01 X279.269 Y189.000
G01 X282.928 Y193.500
G01 X282.928 Y199.056
G01 X279.269 Y203.556
G01 X275.611 Y208.056
G01 X279.269 Y203.556
G01 X282.928 Y199.056
G01 X286.587 Y203.556
G01 X290.245 Y208.056
G01 X286.587 Y203.556
G01 X282.928 Y199.056
G01 X282.928 Y204.611
G01 X286.587 Y209.111
G01 X282.928 Y204.611
G01 X279.269 Y209.111
G01 X282.928 Y204.611
G01 X282.928 Y210.167
G01 X279.269 Y214.667
G01 X273.346 Y216.389
G01 X267.422 Y218.111
G01 X273.346 Y216.389
G01 X279.269 Y214.667
G01 X279.269 Y220.222
G01 X279.269 Y225.778
G01 X279.269 Y220.222
G01 X279.269 Y214.667
G01 X275.611 Y219.167
G01 X275.611 Y224.722
G01 X275.611 Y219.167
G01 X269.687 Y220.889
G01 X275.611 Y219.167
G01 X271.952 Y223.667
G01 X268.293 Y228.167
G01 X262.370 Y229.889
G01 X256.446 Y231.611
G01 X262.370 Y229.889
G01 X268.293 Y228.167
G01 X268.293 Y233.722
G01 X268.293 Y239.278
G01 X268.293 Y233.722
G01 X268.293 Y228.167
G01 X264.635 Y232.667
G01 X264.635 Y238.222
G01 X264.635 Y232.667
G01 X258.711 Y234.389
G01 X264.635 Y232.667
G01 X260.976 Y237.167
G01 X264.635 Y232.667
G01 X268.293 Y228.167
G01 X271.952 Y223.667
G01 X275.611 Y219.167
G01 X279.269 Y214.667
G01 X282.928 Y210.167
G01 X286.587 Y214.667
G01 X286.587 Y220.222
G01 X286.587 Y225.778
G01 X286.587 Y220.222
G01 X286.587 Y214.667
G01 X292.510 Y216.389
G01 X298.434 Y218.111
G01 X292.510 Y216.389
G01 X286.587 Y214.667
G01 X290.245 Y219.167
G01 X296.169 Y220.889
G01 X290.245 Y219.167
G01 X290.245 Y224.722
G01 X290.245 Y219.167
G01 X293.904 Y223.667
G01 X297.563 Y228.167
G01 X297.563 Y233.722
G01 X297.563 Y239.278
G01 X297.563 Y233.722
G01 X297.563 Y228.167
G01 X303.486 Y229.889
G01 X309.410 Y231.611
G01 X303.486 Y229.889
G01 X297.563 Y228.167
G01 X301.221 Y232.667
G01 X307.145 Y234.389
G01 X301.221 Y232.667
G01 X301.221 Y238.222
G01 X301.221 Y232.667
G01 X304.880 Y237.167
G01 X301.221 Y232.667
