;  Created by Sandify
;  https://sandify.org
;  Version: 0.2.6
;
;  Machine type: Rectangular
;    Min X (mm): 0
;    Max X (mm): 500
;    Min Y (mm): 0
;    Max Y (mm): 500
;  Content type: shape
;  Layer:
;    Shape: FileImport
;    Name: SpiralGyrations.thr
;    From file:: SpiralGyrations.thr
;    Aspect Ratio: true
;    Comments: 
;    Visible: true
;    Initial width: 10
;    Initial height: 10
;    X offset: 0
;    Y offset: 0
;    Rotate (degrees): 0
;    Reverse path: false
;    Fine tuning:
;      Connect to next layer: line
;      Draw portion of path (%): 100
;      Backtrack at end (%): 0
;      Rotate starting point (%): 0
;  Reverse export path: false
;
; File name: 'Spiral Gyrations (E) (C E)'
; File type: gcode
;

G01 X250.000 Y250.000
G01 X250.002 Y250.038
G01 X250.007 Y250.076
G01 X250.017 Y250.113
G01 X250.030 Y250.150
G01 X250.046 Y250.185
G01 X250.066 Y250.219
G01 X250.090 Y250.251
G01 X250.117 Y250.282
G01 X250.147 Y250.310
G01 X250.180 Y250.336
G01 X250.216 Y250.360
G01 X250.254 Y250.380
G01 X250.295 Y250.398
G01 X250.338 Y250.412
G01 X250.384 Y250.424
G01 X250.431 Y250.431
G01 X250.480 Y250.435
G01 X250.530 Y250.435
G01 X250.582 Y250.431
G01 X250.634 Y250.423
G01 X250.686 Y250.411
G01 X250.739 Y250.395
G01 X250.792 Y250.375
G01 X250.845 Y250.350
G01 X250.897 Y250.321
G01 X250.948 Y250.288
G01 X250.998 Y250.250
G01 X251.047 Y250.208
G01 X251.093 Y250.162
G01 X251.138 Y250.112
G01 X251.180 Y250.058
G01 X251.220 Y250.000
G01 X251.256 Y249.938
G01 X251.289 Y249.873
G01 X251.319 Y249.804
G01 X251.346 Y249.732
G01 X251.368 Y249.657
G01 X251.386 Y249.580
G01 X251.399 Y249.499
G01 X251.408 Y249.417
G01 X251.412 Y249.332
G01 X251.412 Y249.245
G01 X251.406 Y249.158
G01 X251.394 Y249.068
G01 X251.377 Y248.978
G01 X251.355 Y248.888
G01 X251.327 Y248.797
G01 X251.293 Y248.707
G01 X251.254 Y248.616
G01 X251.209 Y248.527
G01 X251.158 Y248.439
G01 X251.101 Y248.352
G01 X251.038 Y248.268
G01 X250.970 Y248.185
G01 X250.896 Y248.105
G01 X250.817 Y248.028
G01 X250.732 Y247.955
G01 X250.642 Y247.885
G01 X250.546 Y247.819
G01 X250.446 Y247.757
G01 X250.341 Y247.700
G01 X250.232 Y247.649
G01 X250.118 Y247.602
G01 X250.000 Y247.561
G01 X249.878 Y247.526
G01 X249.753 Y247.497
G01 X249.625 Y247.474
G01 X249.494 Y247.458
G01 X249.361 Y247.449
G01 X249.226 Y247.447
G01 X249.088 Y247.452
G01 X248.950 Y247.465
G01 X248.811 Y247.485
G01 X248.671 Y247.513
G01 X248.531 Y247.548
G01 X248.391 Y247.592
G01 X248.252 Y247.643
G01 X248.114 Y247.702
G01 X247.978 Y247.769
G01 X247.844 Y247.844
G01 X247.713 Y247.927
G01 X247.584 Y248.018
G01 X247.459 Y248.116
G01 X247.338 Y248.221
G01 X247.222 Y248.335
G01 X247.110 Y248.455
G01 X247.003 Y248.582
G01 X246.902 Y248.717
G01 X246.807 Y248.857
G01 X246.718 Y249.004
G01 X246.636 Y249.157
G01 X246.561 Y249.316
G01 X246.494 Y249.480
G01 X246.435 Y249.649
G01 X246.384 Y249.822
G01 X246.341 Y250.000
G01 X246.308 Y250.181
G01 X246.283 Y250.366
G01 X246.268 Y250.554
G01 X246.262 Y250.743
G01 X246.266 Y250.935
G01 X246.280 Y251.128
G01 X246.304 Y251.322
G01 X246.338 Y251.517
G01 X246.383 Y251.711
G01 X246.437 Y251.904
G01 X246.502 Y252.096
G01 X246.578 Y252.287
G01 X246.664 Y252.475
G01 X246.759 Y252.659
G01 X246.866 Y252.841
G01 X246.982 Y253.018
G01 X247.108 Y253.191
G01 X247.244 Y253.358
G01 X247.389 Y253.520
G01 X247.544 Y253.676
G01 X247.708 Y253.824
G01 X247.880 Y253.966
G01 X248.061 Y254.100
G01 X248.250 Y254.225
G01 X248.447 Y254.342
G01 X248.650 Y254.449
G01 X248.861 Y254.547
G01 X249.078 Y254.635
G01 X249.301 Y254.712
G01 X249.529 Y254.779
G01 X249.763 Y254.834
G01 X250.000 Y254.878
G01 X250.241 Y254.910
G01 X250.486 Y254.930
G01 X250.733 Y254.938
G01 X250.981 Y254.934
G01 X251.232 Y254.917
G01 X251.482 Y254.887
G01 X251.733 Y254.844
G01 X251.983 Y254.788
G01 X252.232 Y254.720
G01 X252.479 Y254.638
G01 X252.723 Y254.544
G01 X252.964 Y254.436
G01 X253.201 Y254.316
G01 X253.433 Y254.183
G01 X253.660 Y254.038
G01 X253.880 Y253.880
G01 X254.094 Y253.711
G01 X254.301 Y253.530
G01 X254.500 Y253.337
G01 X254.690 Y253.134
G01 X254.870 Y252.919
G01 X255.041 Y252.695
G01 X255.202 Y252.460
G01 X255.352 Y252.217
G01 X255.490 Y251.964
G01 X255.616 Y251.704
G01 X255.730 Y251.435
G01 X255.831 Y251.160
G01 X255.918 Y250.878
G01 X255.992 Y250.590
G01 X256.052 Y250.297
G01 X256.098 Y250.000
G01 X256.128 Y249.699
G01 X256.144 Y249.395
G01 X256.145 Y249.089
G01 X256.130 Y248.781
G01 X256.100 Y248.472
G01 X256.054 Y248.164
G01 X255.992 Y247.856
G01 X255.915 Y247.550
G01 X255.822 Y247.246
G01 X255.714 Y246.946
G01 X255.590 Y246.650
G01 X255.450 Y246.358
G01 X255.296 Y246.073
G01 X255.126 Y245.793
G01 X254.942 Y245.521
G01 X254.743 Y245.257
G01 X254.530 Y245.002
G01 X254.303 Y244.756
G01 X254.064 Y244.521
G01 X253.811 Y244.296
G01 X253.546 Y244.084
G01 X253.270 Y243.883
G01 X252.982 Y243.696
G01 X252.683 Y243.522
G01 X252.375 Y243.362
G01 X252.058 Y243.217
G01 X251.732 Y243.087
G01 X251.398 Y242.973
G01 X251.057 Y242.875
G01 X250.710 Y242.794
G01 X250.357 Y242.730
G01 X250.000 Y242.683
G01 X249.639 Y242.654
G01 X249.275 Y242.642
G01 X248.910 Y242.649
G01 X248.543 Y242.674
G01 X248.176 Y242.717
G01 X247.810 Y242.779
G01 X247.445 Y242.859
G01 X247.083 Y242.958
G01 X246.725 Y243.075
G01 X246.371 Y243.211
G01 X246.023 Y243.364
G01 X245.681 Y243.536
G01 X245.346 Y243.725
G01 X245.020 Y243.931
G01 X244.702 Y244.155
G01 X244.395 Y244.395
G01 X244.098 Y244.651
G01 X243.814 Y244.923
G01 X243.541 Y245.210
G01 X243.282 Y245.511
G01 X243.037 Y245.827
G01 X242.808 Y246.156
G01 X242.593 Y246.497
G01 X242.395 Y246.850
G01 X242.214 Y247.214
G01 X242.050 Y247.588
G01 X241.904 Y247.972
G01 X241.777 Y248.364
G01 X241.669 Y248.764
G01 X241.580 Y249.171
G01 X241.512 Y249.583
G01 X241.463 Y250.000
G01 X241.436 Y250.421
G01 X241.429 Y250.844
G01 X241.443 Y251.269
G01 X241.478 Y251.695
G01 X241.534 Y252.121
G01 X241.612 Y252.544
G01 X241.711 Y252.966
G01 X241.832 Y253.383
G01 X241.973 Y253.797
G01 X242.135 Y254.204
G01 X242.318 Y254.604
G01 X242.522 Y254.997
G01 X242.745 Y255.380
G01 X242.989 Y255.754
G01 X243.251 Y256.117
G01 X243.533 Y256.467
G01 X243.832 Y256.805
G01 X244.149 Y257.129
G01 X244.483 Y257.438
G01 X244.834 Y257.732
G01 X245.200 Y258.009
G01 X245.581 Y258.268
G01 X245.975 Y258.509
G01 X246.383 Y258.732
G01 X246.803 Y258.935
G01 X247.234 Y259.117
G01 X247.676 Y259.279
G01 X248.126 Y259.419
G01 X248.585 Y259.537
G01 X249.051 Y259.633
G01 X249.523 Y259.706
G01 X250.000 Y259.756
G01 X250.481 Y259.782
G01 X250.964 Y259.785
G01 X251.448 Y259.764
G01 X251.933 Y259.718
G01 X252.417 Y259.649
G01 X252.898 Y259.555
G01 X253.377 Y259.437
G01 X253.850 Y259.295
G01 X254.318 Y259.129
G01 X254.779 Y258.940
G01 X255.231 Y258.728
G01 X255.674 Y258.492
G01 X256.107 Y258.234
G01 X256.528 Y257.954
G01 X256.936 Y257.652
G01 X257.330 Y257.330
G01 X257.709 Y256.987
G01 X258.072 Y256.624
G01 X258.418 Y256.243
G01 X258.746 Y255.844
G01 X259.055 Y255.427
G01 X259.344 Y254.994
G01 X259.612 Y254.546
G01 X259.858 Y254.084
G01 X260.083 Y253.608
G01 X260.284 Y253.120
G01 X260.462 Y252.621
G01 X260.615 Y252.111
G01 X260.744 Y251.594
G01 X260.847 Y251.068
G01 X260.924 Y250.537
G01 X260.976 Y250.000
G01 X261.000 Y249.460
G01 X260.999 Y248.917
G01 X260.970 Y248.373
G01 X260.914 Y247.829
G01 X260.832 Y247.287
G01 X260.722 Y246.748
G01 X260.585 Y246.213
G01 X260.422 Y245.683
G01 X260.232 Y245.161
G01 X260.016 Y244.646
G01 X259.774 Y244.142
G01 X259.506 Y243.648
G01 X259.214 Y243.167
G01 X258.897 Y242.699
G01 X258.556 Y242.245
G01 X258.192 Y241.808
G01 X257.806 Y241.388
G01 X257.398 Y240.985
G01 X256.970 Y240.603
G01 X256.521 Y240.240
G01 X256.054 Y239.899
G01 X255.569 Y239.581
G01 X255.067 Y239.286
G01 X254.550 Y239.015
G01 X254.019 Y238.769
G01 X253.474 Y238.549
G01 X252.917 Y238.355
G01 X252.349 Y238.189
G01 X251.773 Y238.050
G01 X251.188 Y237.939
G01 X250.597 Y237.858
G01 X250.000 Y237.805
G01 X249.400 Y237.782
G01 X248.797 Y237.788
G01 X248.194 Y237.824
G01 X247.591 Y237.890
G01 X246.991 Y237.986
G01 X246.394 Y238.111
G01 X245.802 Y238.267
G01 X245.216 Y238.452
G01 X244.639 Y238.666
G01 X244.072 Y238.909
G01 X243.515 Y239.180
G01 X242.971 Y239.480
G01 X242.440 Y239.807
G01 X241.925 Y240.161
G01 X241.426 Y240.540
G01 X240.946 Y240.946
G01 X240.484 Y241.375
G01 X240.043 Y241.828
G01 X239.623 Y242.304
G01 X239.226 Y242.801
G01 X238.853 Y243.319
G01 X238.505 Y243.856
G01 X238.183 Y244.411
G01 X237.888 Y244.983
G01 X237.621 Y245.571
G01 X237.382 Y246.172
G01 X237.172 Y246.787
G01 X236.993 Y247.413
G01 X236.844 Y248.048
G01 X236.726 Y248.693
G01 X236.640 Y249.344
G01 X236.585 Y250.000
G01 X236.563 Y250.660
G01 X236.574 Y251.322
G01 X236.617 Y251.985
G01 X236.694 Y252.647
G01 X236.803 Y253.306
G01 X236.944 Y253.960
G01 X237.118 Y254.609
G01 X237.325 Y255.250
G01 X237.563 Y255.882
G01 X237.833 Y256.503
G01 X238.134 Y257.112
G01 X238.466 Y257.707
G01 X238.827 Y258.286
G01 X239.218 Y258.849
G01 X239.637 Y259.393
G01 X240.083 Y259.917
G01 X240.556 Y260.420
G01 X241.055 Y260.900
G01 X241.578 Y261.356
G01 X242.124 Y261.788
G01 X242.692 Y262.193
G01 X243.281 Y262.570
G01 X243.890 Y262.919
G01 X244.516 Y263.239
G01 X245.160 Y263.528
G01 X245.818 Y263.785
G01 X246.490 Y264.011
G01 X247.175 Y264.203
G01 X247.870 Y264.363
G01 X248.573 Y264.488
G01 X249.284 Y264.578
G01 X250.000 Y264.634
G01 X250.720 Y264.655
G01 X251.442 Y264.640
G01 X252.164 Y264.589
G01 X252.885 Y264.502
G01 X253.602 Y264.380
G01 X254.314 Y264.223
G01 X255.020 Y264.030
G01 X255.717 Y263.802
G01 X256.404 Y263.539
G01 X257.078 Y263.242
G01 X257.739 Y262.912
G01 X258.384 Y262.548
G01 X259.013 Y262.152
G01 X259.622 Y261.725
G01 X260.212 Y261.267
G01 X260.779 Y260.779
G01 X261.323 Y260.263
G01 X261.843 Y259.719
G01 X262.336 Y259.149
G01 X262.802 Y258.554
G01 X263.239 Y257.935
G01 X263.646 Y257.294
G01 X264.021 Y256.632
G01 X264.365 Y255.950
G01 X264.676 Y255.251
G01 X264.952 Y254.536
G01 X265.194 Y253.806
G01 X265.400 Y253.063
G01 X265.569 Y252.309
G01 X265.701 Y251.546
G01 X265.796 Y250.776
G01 X265.854 Y250.000
G01 X265.873 Y249.220
G01 X265.853 Y248.439
G01 X265.795 Y247.657
G01 X265.699 Y246.877
G01 X265.563 Y246.102
G01 X265.390 Y245.332
G01 X265.178 Y244.569
G01 X264.929 Y243.816
G01 X264.642 Y243.075
G01 X264.318 Y242.347
G01 X263.958 Y241.634
G01 X263.562 Y240.938
G01 X263.132 Y240.261
G01 X262.667 Y239.604
G01 X262.170 Y238.969
G01 X261.641 Y238.359
G01 X261.082 Y237.773
G01 X260.493 Y237.215
G01 X259.875 Y236.685
G01 X259.231 Y236.184
G01 X258.562 Y235.715
G01 X257.869 Y235.279
G01 X257.153 Y234.876
G01 X256.417 Y234.508
G01 X255.662 Y234.176
G01 X254.890 Y233.881
G01 X254.102 Y233.623
G01 X253.301 Y233.404
G01 X252.488 Y233.225
G01 X251.666 Y233.085
G01 X250.836 Y232.985
G01 X250.000 Y232.927
G01 X249.160 Y232.909
G01 X248.319 Y232.933
G01 X247.478 Y232.999
G01 X246.639 Y233.105
G01 X245.805 Y233.254
G01 X244.978 Y233.443
G01 X244.158 Y233.674
G01 X243.350 Y233.945
G01 X242.554 Y234.256
G01 X241.772 Y234.607
G01 X241.007 Y234.996
G01 X240.261 Y235.424
G01 X239.534 Y235.889
G01 X238.830 Y236.390
G01 X238.150 Y236.926
G01 X237.496 Y237.496
G01 X236.870 Y238.099
G01 X236.272 Y238.734
G01 X235.705 Y239.398
G01 X235.170 Y240.091
G01 X234.669 Y240.811
G01 X234.203 Y241.557
G01 X233.774 Y242.326
G01 X233.381 Y243.116
G01 X233.028 Y243.927
G01 X232.714 Y244.756
G01 X232.440 Y245.602
G01 X232.208 Y246.461
G01 X232.018 Y247.333
G01 X231.871 Y248.214
G01 X231.767 Y249.104
G01 X231.707 Y250.000
G01 X231.691 Y250.899
G01 X231.720 Y251.800
G01 X231.792 Y252.701
G01 X231.909 Y253.598
G01 X232.071 Y254.491
G01 X232.276 Y255.376
G01 X232.525 Y256.252
G01 X232.818 Y257.117
G01 X233.154 Y257.968
G01 X233.531 Y258.803
G01 X233.950 Y259.620
G01 X234.410 Y260.417
G01 X234.909 Y261.192
G01 X235.447 Y261.943
G01 X236.022 Y262.669
G01 X236.634 Y263.366
G01 X237.280 Y264.034
G01 X237.960 Y264.671
G01 X238.672 Y265.274
G01 X239.414 Y265.844
G01 X240.184 Y266.377
G01 X240.982 Y266.872
G01 X241.804 Y267.329
G01 X242.650 Y267.745
G01 X243.516 Y268.120
G01 X244.402 Y268.453
G01 X245.305 Y268.743
G01 X246.223 Y268.988
G01 X247.154 Y269.188
G01 X248.095 Y269.342
G01 X249.044 Y269.451
G01 X250.000 Y269.512
G01 X250.959 Y269.527
G01 X251.920 Y269.494
G01 X252.880 Y269.414
G01 X253.836 Y269.287
G01 X254.787 Y269.112
G01 X255.730 Y268.891
G01 X256.663 Y268.623
G01 X257.584 Y268.309
G01 X258.489 Y267.949
G01 X259.378 Y267.544
G01 X260.247 Y267.096
G01 X261.094 Y266.604
G01 X261.919 Y266.070
G01 X262.717 Y265.496
G01 X263.487 Y264.881
G01 X264.228 Y264.228
G01 X264.938 Y263.539
G01 X265.613 Y262.814
G01 X266.254 Y262.055
G01 X266.858 Y261.264
G01 X267.423 Y260.443
G01 X267.948 Y259.593
G01 X268.431 Y258.717
G01 X268.872 Y257.817
G01 X269.269 Y256.894
G01 X269.620 Y255.952
G01 X269.926 Y254.991
G01 X270.184 Y254.015
G01 X270.394 Y253.025
G01 X270.556 Y252.025
G01 X270.669 Y251.015
G01 X270.732 Y250.000
G01 X270.745 Y248.981
G01 X270.708 Y247.960
G01 X270.620 Y246.941
G01 X270.483 Y245.926
G01 X270.295 Y244.916
G01 X270.058 Y243.916
G01 X269.771 Y242.926
G01 X269.435 Y241.950
G01 X269.051 Y240.989
G01 X268.620 Y240.047
G01 X268.142 Y239.126
G01 X267.618 Y238.228
G01 X267.050 Y237.355
G01 X266.438 Y236.509
G01 X265.785 Y235.694
G01 X265.091 Y234.909
G01 X264.358 Y234.159
G01 X263.587 Y233.444
G01 X262.781 Y232.767
G01 X261.941 Y232.128
G01 X261.070 Y231.531
G01 X260.168 Y230.977
G01 X259.239 Y230.466
G01 X258.284 Y230.001
G01 X257.305 Y229.583
G01 X256.306 Y229.213
G01 X255.287 Y228.891
G01 X254.253 Y228.620
G01 X253.204 Y228.399
G01 X252.144 Y228.230
G01 X251.075 Y228.113
G01 X250.000 Y228.049
G01 X248.921 Y228.037
G01 X247.841 Y228.079
G01 X246.762 Y228.173
G01 X245.688 Y228.321
G01 X244.620 Y228.522
G01 X243.562 Y228.775
G01 X242.515 Y229.081
G01 X241.483 Y229.438
G01 X240.468 Y229.846
G01 X239.473 Y230.305
G01 X238.499 Y230.812
G01 X237.550 Y231.368
G01 X236.629 Y231.971
G01 X235.736 Y232.619
G01 X234.875 Y233.312
G01 X234.047 Y234.047
G01 X233.255 Y234.823
G01 X232.501 Y235.639
G01 X231.787 Y236.492
G01 X231.114 Y237.381
G01 X230.485 Y238.303
G01 X229.901 Y239.257
G01 X229.364 Y240.240
G01 X228.875 Y241.250
G01 X228.435 Y242.284
G01 X228.046 Y243.340
G01 X227.709 Y244.416
G01 X227.424 Y245.509
G01 X227.193 Y246.617
G01 X227.017 Y247.736
G01 X226.895 Y248.865
G01 X226.829 Y250.000
G01 X226.819 Y251.139
G01 X226.865 Y252.279
G01 X226.967 Y253.417
G01 X227.125 Y254.550
G01 X227.339 Y255.676
G01 X227.608 Y256.792
G01 X227.933 Y257.896
G01 X228.311 Y258.984
G01 X228.744 Y260.053
G01 X229.229 Y261.102
G01 X229.766 Y262.128
G01 X230.354 Y263.127
G01 X230.991 Y264.098
G01 X231.676 Y265.038
G01 X232.408 Y265.944
G01 X233.185 Y266.815
G01 X234.004 Y267.648
G01 X234.865 Y268.441
G01 X235.766 Y269.192
G01 X236.704 Y269.900
G01 X237.676 Y270.561
G01 X238.682 Y271.174
G01 X239.718 Y271.738
G01 X240.783 Y272.252
G01 X241.873 Y272.713
G01 X242.986 Y273.121
G01 X244.120 Y273.474
G01 X245.271 Y273.772
G01 X246.438 Y274.013
G01 X247.617 Y274.197
G01 X248.805 Y274.323
G01 X250.000 Y274.390
G01 X251.199 Y274.399
G01 X252.398 Y274.349
G01 X253.596 Y274.239
G01 X254.788 Y274.071
G01 X255.973 Y273.844
G01 X257.146 Y273.559
G01 X258.307 Y273.216
G01 X259.450 Y272.815
G01 X260.575 Y272.359
G01 X261.677 Y271.846
G01 X262.755 Y271.280
G01 X263.805 Y270.660
G01 X264.824 Y269.988
G01 X265.811 Y269.266
G01 X266.763 Y268.496
G01 X267.678 Y267.678
G01 X268.552 Y266.815
G01 X269.384 Y265.908
G01 X270.172 Y264.961
G01 X270.913 Y263.974
G01 X271.607 Y262.951
G01 X272.250 Y261.893
G01 X272.841 Y260.803
G01 X273.379 Y259.684
G01 X273.862 Y258.538
G01 X274.288 Y257.368
G01 X274.657 Y256.176
G01 X274.968 Y254.966
G01 X275.219 Y253.741
G01 X275.411 Y252.503
G01 X275.541 Y251.255
G01 X275.610 Y250.000
G01 X275.617 Y248.742
G01 X275.562 Y247.482
G01 X275.446 Y246.225
G01 X275.267 Y244.974
G01 X275.027 Y243.731
G01 X274.726 Y242.500
G01 X274.364 Y241.282
G01 X273.942 Y240.083
G01 X273.461 Y238.904
G01 X272.922 Y237.748
G01 X272.326 Y236.618
G01 X271.674 Y235.518
G01 X270.968 Y234.449
G01 X270.209 Y233.415
G01 X269.399 Y232.418
G01 X268.540 Y231.460
G01 X267.634 Y230.544
G01 X266.682 Y229.673
G01 X265.687 Y228.848
G01 X264.651 Y228.073
G01 X263.577 Y227.347
G01 X262.468 Y226.675
G01 X261.324 Y226.057
G01 X260.150 Y225.495
G01 X258.949 Y224.990
G01 X257.722 Y224.545
G01 X256.473 Y224.160
G01 X255.204 Y223.836
G01 X253.920 Y223.574
G01 X252.622 Y223.376
G01 X251.315 Y223.241
G01 X250.000 Y223.171
G01 X248.682 Y223.165
G01 X247.363 Y223.224
G01 X246.047 Y223.348
G01 X244.736 Y223.537
G01 X243.435 Y223.790
G01 X242.145 Y224.107
G01 X240.872 Y224.488
G01 X239.616 Y224.931
G01 X238.382 Y225.437
G01 X237.173 Y226.003
G01 X235.991 Y226.628
G01 X234.840 Y227.312
G01 X233.723 Y228.053
G01 X232.641 Y228.848
G01 X231.599 Y229.697
G01 X230.598 Y230.598
G01 X229.641 Y231.547
G01 X228.730 Y232.545
G01 X227.869 Y233.586
G01 X227.059 Y234.671
G01 X226.301 Y235.796
G01 X225.599 Y236.958
G01 X224.954 Y238.154
G01 X224.368 Y239.383
G01 X223.842 Y240.641
G01 X223.378 Y241.924
G01 X222.977 Y243.231
G01 X222.640 Y244.558
G01 X222.368 Y245.901
G01 X222.162 Y247.258
G01 X222.023 Y248.626
G01 X221.951 Y250.000
G01 X221.947 Y251.378
G01 X222.010 Y252.757
G01 X222.142 Y254.132
G01 X222.341 Y255.502
G01 X222.607 Y256.862
G01 X222.940 Y258.209
G01 X223.340 Y259.539
G01 X223.805 Y260.850
G01 X224.334 Y262.139
G01 X224.927 Y263.402
G01 X225.582 Y264.635
G01 X226.298 Y265.837
G01 X227.073 Y267.004
G01 X227.906 Y268.132
G01 X228.794 Y269.220
G01 X229.735 Y270.265
G01 X230.729 Y271.263
G01 X231.771 Y272.212
G01 X232.860 Y273.111
G01 X233.993 Y273.955
G01 X235.169 Y274.745
G01 X236.383 Y275.476
G01 X237.633 Y276.148
G01 X238.916 Y276.759
G01 X240.230 Y277.306
G01 X241.570 Y277.789
G01 X242.935 Y278.206
G01 X244.320 Y278.556
G01 X245.722 Y278.838
G01 X247.139 Y279.052
G01 X248.566 Y279.195
G01 X250.000 Y279.268
G01 X251.438 Y279.271
G01 X252.876 Y279.203
G01 X254.311 Y279.065
G01 X255.740 Y278.855
G01 X257.158 Y278.576
G01 X258.563 Y278.227
G01 X259.950 Y277.809
G01 X261.317 Y277.322
G01 X262.660 Y276.768
G01 X263.977 Y276.148
G01 X265.262 Y275.464
G01 X266.515 Y274.716
G01 X267.730 Y273.906
G01 X268.906 Y273.037
G01 X270.039 Y272.110
G01 X271.127 Y271.127
G01 X272.166 Y270.090
G01 X273.155 Y269.003
G01 X274.090 Y267.866
G01 X274.969 Y266.684
G01 X275.791 Y265.458
G01 X276.552 Y264.192
G01 X277.251 Y262.889
G01 X277.885 Y261.551
G01 X278.454 Y260.181
G01 X278.956 Y258.784
G01 X279.389 Y257.362
G01 X279.752 Y255.918
G01 X280.045 Y254.457
G01 X280.265 Y252.981
G01 X280.413 Y251.494
G01 X280.488 Y250.000
G01 X280.489 Y248.502
G01 X280.417 Y247.004
G01 X280.271 Y245.510
G01 X280.052 Y244.022
G01 X279.759 Y242.546
G01 X279.394 Y241.083
G01 X278.957 Y239.639
G01 X278.449 Y238.216
G01 X277.871 Y236.818
G01 X277.224 Y235.449
G01 X276.510 Y234.111
G01 X275.730 Y232.808
G01 X274.886 Y231.543
G01 X273.980 Y230.320
G01 X273.014 Y229.142
G01 X271.989 Y228.011
G01 X270.909 Y226.930
G01 X269.776 Y225.902
G01 X268.593 Y224.930
G01 X267.362 Y224.017
G01 X266.085 Y223.163
G01 X264.767 Y222.373
G01 X263.410 Y221.647
G01 X262.017 Y220.988
G01 X260.592 Y220.397
G01 X259.138 Y219.877
G01 X257.658 Y219.428
G01 X256.156 Y219.051
G01 X254.636 Y218.749
G01 X253.100 Y218.521
G01 X251.554 Y218.369
G01 X250.000 Y218.293
G01 X248.442 Y218.293
G01 X246.885 Y218.370
G01 X245.331 Y218.523
G01 X243.784 Y218.752
G01 X242.249 Y219.058
G01 X240.729 Y219.439
G01 X239.228 Y219.895
G01 X237.749 Y220.425
G01 X236.297 Y221.027
G01 X234.874 Y221.701
G01 X233.484 Y222.444
G01 X232.130 Y223.256
G01 X230.817 Y224.135
G01 X229.547 Y225.077
G01 X228.323 Y226.083
G01 X227.148 Y227.148
G01 X226.026 Y228.272
G01 X224.960 Y229.450
G01 X223.951 Y230.681
G01 X223.003 Y231.961
G01 X222.117 Y233.288
G01 X221.297 Y234.658
G01 X220.545 Y236.069
G01 X219.861 Y237.516
G01 X219.249 Y238.997
G01 X218.710 Y240.508
G01 X218.245 Y242.046
G01 X217.855 Y243.606
G01 X217.543 Y245.185
G01 X217.308 Y246.780
G01 X217.151 Y248.386
G01 X217.073 Y250.000
G01 X217.075 Y251.618
G01 X217.156 Y253.235
G01 X217.316 Y254.848
G01 X217.556 Y256.453
G01 X217.875 Y258.047
G01 X218.272 Y259.625
G01 X218.747 Y261.183
G01 X219.298 Y262.717
G01 X219.924 Y264.225
G01 X220.625 Y265.701
G01 X221.398 Y267.143
G01 X222.242 Y268.547
G01 X223.155 Y269.910
G01 X224.135 Y271.227
G01 X225.179 Y272.496
G01 X226.286 Y273.714
G01 X227.453 Y274.877
G01 X228.676 Y275.983
G01 X229.954 Y277.029
G01 X231.283 Y278.011
G01 X232.661 Y278.929
G01 X234.083 Y279.778
G01 X235.547 Y280.558
G01 X237.049 Y281.265
G01 X238.586 Y281.899
G01 X240.154 Y282.457
G01 X241.749 Y282.938
G01 X243.368 Y283.341
G01 X245.006 Y283.664
G01 X246.661 Y283.906
G01 X248.326 Y284.067
G01 X250.000 Y284.146
G01 X251.677 Y284.143
G01 X253.354 Y284.058
G01 X255.027 Y283.890
G01 X256.691 Y283.640
G01 X258.343 Y283.308
G01 X259.979 Y282.895
G01 X261.593 Y282.401
G01 X263.184 Y281.829
G01 X264.746 Y281.178
G01 X266.276 Y280.450
G01 X267.770 Y279.648
G01 X269.225 Y278.772
G01 X270.636 Y277.825
G01 X272.001 Y276.808
G01 X273.315 Y275.724
G01 X274.576 Y274.576
G01 X275.781 Y273.366
G01 X276.926 Y272.097
G01 X278.008 Y270.772
G01 X279.025 Y269.394
G01 X279.975 Y267.966
G01 X280.854 Y266.492
G01 X281.660 Y264.974
G01 X282.392 Y263.417
G01 X283.047 Y261.825
G01 X283.624 Y260.200
G01 X284.121 Y258.547
G01 X284.537 Y256.870
G01 X284.870 Y255.172
G01 X285.120 Y253.459
G01 X285.285 Y251.733
G01 X285.366 Y250.000
G01 X285.361 Y248.263
G01 X285.271 Y246.526
G01 X285.096 Y244.794
G01 X284.836 Y243.071
G01 X284.491 Y241.360
G01 X284.062 Y239.667
G01 X283.550 Y237.996
G01 X282.955 Y236.349
G01 X282.280 Y234.733
G01 X281.526 Y233.149
G01 X280.694 Y231.603
G01 X279.786 Y230.098
G01 X278.804 Y228.637
G01 X277.751 Y227.226
G01 X276.628 Y225.866
G01 X275.439 Y224.561
G01 X274.185 Y223.316
G01 X272.871 Y222.132
G01 X271.499 Y221.012
G01 X270.072 Y219.961
G01 X268.593 Y218.979
G01 X267.067 Y218.071
G01 X265.496 Y217.237
G01 X263.884 Y216.481
G01 X262.235 Y215.804
G01 X260.554 Y215.209
G01 X258.843 Y214.696
G01 X257.108 Y214.267
G01 X255.351 Y213.924
G01 X253.579 Y213.667
G01 X251.793 Y213.497
G01 X250.000 Y213.415
G01 X248.203 Y213.421
G01 X246.407 Y213.515
G01 X244.615 Y213.698
G01 X242.833 Y213.968
G01 X241.064 Y214.326
G01 X239.313 Y214.771
G01 X237.585 Y215.302
G01 X235.883 Y215.918
G01 X234.211 Y216.617
G01 X232.574 Y217.398
G01 X230.976 Y218.260
G01 X229.420 Y219.200
G01 X227.911 Y220.216
G01 X226.452 Y221.307
G01 X225.047 Y222.468
G01 X223.699 Y223.699
G01 X222.412 Y224.996
G01 X221.189 Y226.355
G01 X220.033 Y227.775
G01 X218.947 Y229.251
G01 X217.933 Y230.780
G01 X216.995 Y232.359
G01 X216.135 Y233.983
G01 X215.355 Y235.649
G01 X214.656 Y237.354
G01 X214.042 Y239.092
G01 X213.513 Y240.860
G01 X213.071 Y242.654
G01 X212.717 Y244.470
G01 X212.453 Y246.302
G01 X212.279 Y248.147
G01 X212.195 Y250.000
G01 X212.203 Y251.857
G01 X212.301 Y253.713
G01 X212.491 Y255.564
G01 X212.772 Y257.405
G01 X213.143 Y259.232
G01 X213.604 Y261.041
G01 X214.154 Y262.826
G01 X214.791 Y264.584
G01 X215.515 Y266.310
G01 X216.323 Y268.001
G01 X217.214 Y269.651
G01 X218.186 Y271.257
G01 X219.237 Y272.815
G01 X220.364 Y274.322
G01 X221.565 Y275.772
G01 X222.837 Y277.163
G01 X224.177 Y278.492
G01 X225.582 Y279.754
G01 X227.048 Y280.947
G01 X228.573 Y282.067
G01 X230.153 Y283.113
G01 X231.784 Y284.080
G01 X233.462 Y284.968
G01 X235.183 Y285.772
G01 X236.943 Y286.492
G01 X238.738 Y287.125
G01 X240.564 Y287.670
G01 X242.416 Y288.125
G01 X244.291 Y288.489
G01 X246.182 Y288.761
G01 X248.087 Y288.939
G01 X250.000 Y289.024
G01 X251.917 Y289.015
G01 X253.833 Y288.912
G01 X255.743 Y288.715
G01 X257.643 Y288.424
G01 X259.528 Y288.040
G01 X261.395 Y287.563
G01 X263.237 Y286.994
G01 X265.051 Y286.336
G01 X266.832 Y285.588
G01 X268.576 Y284.753
G01 X270.278 Y283.832
G01 X271.935 Y282.828
G01 X273.542 Y281.743
G01 X275.095 Y280.579
G01 X276.591 Y279.339
G01 X278.026 Y278.026
G01 X279.395 Y276.642
G01 X280.697 Y275.192
G01 X281.926 Y273.678
G01 X283.081 Y272.104
G01 X284.159 Y270.474
G01 X285.156 Y268.791
G01 X286.070 Y267.060
G01 X286.899 Y265.284
G01 X287.640 Y263.468
G01 X288.292 Y261.616
G01 X288.853 Y259.732
G01 X289.321 Y257.821
G01 X289.695 Y255.888
G01 X289.974 Y253.937
G01 X290.157 Y251.973
G01 X290.244 Y250.000
G01 X290.233 Y248.023
G01 X290.126 Y246.048
G01 X289.921 Y244.078
G01 X289.620 Y242.119
G01 X289.223 Y240.175
G01 X288.730 Y238.251
G01 X288.143 Y236.352
G01 X287.462 Y234.483
G01 X286.690 Y232.647
G01 X285.828 Y230.850
G01 X284.878 Y229.095
G01 X283.842 Y227.388
G01 X282.722 Y225.732
G01 X281.521 Y224.131
G01 X280.242 Y222.590
G01 X278.888 Y221.112
G01 X277.461 Y219.701
G01 X275.966 Y218.361
G01 X274.405 Y217.094
G01 X272.782 Y215.905
G01 X271.101 Y214.795
G01 X269.366 Y213.769
G01 X267.581 Y212.828
G01 X265.751 Y211.974
G01 X263.879 Y211.212
G01 X261.970 Y210.541
G01 X260.028 Y209.964
G01 X258.059 Y209.483
G01 X256.067 Y209.098
G01 X254.057 Y208.812
G01 X252.033 Y208.625
G01 X250.000 Y208.537
G01 X247.964 Y208.548
G01 X245.928 Y208.660
G01 X243.899 Y208.872
G01 X241.881 Y209.184
G01 X239.879 Y209.594
G01 X237.897 Y210.103
G01 X235.942 Y210.709
G01 X234.016 Y211.411
G01 X232.125 Y212.207
G01 X230.275 Y213.096
G01 X228.468 Y214.076
G01 X226.710 Y215.144
G01 X225.005 Y216.298
G01 X223.357 Y217.536
G01 X221.771 Y218.854
G01 X220.250 Y220.250
G01 X218.798 Y221.720
G01 X217.418 Y223.261
G01 X216.115 Y224.869
G01 X214.891 Y226.541
G01 X213.749 Y228.272
G01 X212.693 Y230.059
G01 X211.725 Y231.897
G01 X210.848 Y233.783
G01 X210.063 Y235.710
G01 X209.374 Y237.676
G01 X208.781 Y239.675
G01 X208.287 Y241.703
G01 X207.892 Y243.754
G01 X207.598 Y245.824
G01 X207.407 Y247.908
G01 X207.317 Y250.000
G01 X207.330 Y252.096
G01 X207.447 Y254.191
G01 X207.666 Y256.280
G01 X207.988 Y258.357
G01 X208.411 Y260.417
G01 X208.936 Y262.457
G01 X209.561 Y264.469
G01 X210.284 Y266.451
G01 X211.105 Y268.396
G01 X212.021 Y270.300
G01 X213.030 Y272.159
G01 X214.130 Y273.967
G01 X215.319 Y275.721
G01 X216.593 Y277.416
G01 X217.950 Y279.048
G01 X219.387 Y280.613
G01 X220.901 Y282.106
G01 X222.487 Y283.525
G01 X224.142 Y284.865
G01 X225.863 Y286.123
G01 X227.645 Y287.297
G01 X229.484 Y288.382
G01 X231.376 Y289.377
G01 X233.316 Y290.279
G01 X235.300 Y291.085
G01 X237.322 Y291.793
G01 X239.379 Y292.402
G01 X241.465 Y292.909
G01 X243.575 Y293.314
G01 X245.704 Y293.615
G01 X247.848 Y293.811
G01 X250.000 Y293.902
G01 X252.156 Y293.888
G01 X254.311 Y293.767
G01 X256.459 Y293.540
G01 X258.595 Y293.208
G01 X260.714 Y292.772
G01 X262.811 Y292.231
G01 X264.880 Y291.587
G01 X266.917 Y290.842
G01 X268.917 Y289.997
G01 X270.875 Y289.055
G01 X272.786 Y288.016
G01 X274.645 Y286.884
G01 X276.448 Y285.661
G01 X278.190 Y284.349
G01 X279.867 Y282.953
G01 X281.475 Y281.475
G01 X283.010 Y279.918
G01 X284.467 Y278.287
G01 X285.844 Y276.584
G01 X287.137 Y274.814
G01 X288.343 Y272.982
G01 X289.458 Y271.091
G01 X290.480 Y269.145
G01 X291.406 Y267.151
G01 X292.233 Y265.111
G01 X292.960 Y263.032
G01 X293.585 Y260.917
G01 X294.105 Y258.773
G01 X294.520 Y256.604
G01 X294.829 Y254.415
G01 X295.030 Y252.212
G01 X295.122 Y250.000
G01 X295.106 Y247.784
G01 X294.981 Y245.570
G01 X294.747 Y243.362
G01 X294.404 Y241.167
G01 X293.955 Y238.990
G01 X293.398 Y236.835
G01 X292.735 Y234.709
G01 X291.969 Y232.616
G01 X291.100 Y230.561
G01 X290.130 Y228.550
G01 X289.062 Y226.587
G01 X287.898 Y224.678
G01 X286.640 Y222.826
G01 X285.292 Y221.036
G01 X283.857 Y219.314
G01 X282.337 Y217.663
G01 X280.737 Y216.087
G01 X279.060 Y214.590
G01 X277.310 Y213.176
G01 X275.492 Y211.849
G01 X273.609 Y210.611
G01 X271.666 Y209.467
G01 X269.667 Y208.418
G01 X267.617 Y207.468
G01 X265.522 Y206.619
G01 X263.386 Y205.873
G01 X261.214 Y205.232
G01 X259.011 Y204.698
G01 X256.783 Y204.273
G01 X254.535 Y203.958
G01 X252.272 Y203.752
G01 X250.000 Y203.659
G01 X247.724 Y203.676
G01 X245.450 Y203.806
G01 X243.184 Y204.047
G01 X240.929 Y204.399
G01 X238.694 Y204.862
G01 X236.481 Y205.435
G01 X234.298 Y206.116
G01 X232.149 Y206.904
G01 X230.040 Y207.798
G01 X227.975 Y208.794
G01 X225.960 Y209.892
G01 X224.000 Y211.088
G01 X222.099 Y212.380
G01 X220.263 Y213.765
G01 X218.495 Y215.240
G01 X216.800 Y216.800
G01 X215.183 Y218.444
G01 X213.647 Y220.166
G01 X212.197 Y221.963
G01 X210.835 Y223.831
G01 X209.565 Y225.764
G01 X208.391 Y227.760
G01 X207.315 Y229.812
G01 X206.341 Y231.916
G01 X205.470 Y234.067
G01 X204.706 Y236.260
G01 X204.049 Y238.490
G01 X203.502 Y240.751
G01 X203.067 Y243.038
G01 X202.744 Y245.346
G01 X202.534 Y247.668
G01 X202.439 Y250.000
G01 X202.458 Y252.336
G01 X202.592 Y254.669
G01 X202.841 Y256.995
G01 X203.203 Y259.308
G01 X203.680 Y261.603
G01 X204.268 Y263.873
G01 X204.968 Y266.113
G01 X205.778 Y268.317
G01 X206.695 Y270.482
G01 X207.719 Y272.600
G01 X208.846 Y274.667
G01 X210.074 Y276.678
G01 X211.401 Y278.627
G01 X212.822 Y280.511
G01 X214.336 Y282.324
G01 X215.938 Y284.062
G01 X217.625 Y285.720
G01 X219.392 Y287.295
G01 X221.237 Y288.783
G01 X223.153 Y290.179
G01 X225.137 Y291.481
G01 X227.185 Y292.684
G01 X229.290 Y293.787
G01 X231.449 Y294.786
G01 X233.656 Y295.678
G01 X235.906 Y296.461
G01 X238.194 Y297.134
G01 X240.513 Y297.694
G01 X242.859 Y298.139
G01 X245.226 Y298.470
G01 X247.608 Y298.684
G01 X250.000 Y298.780
G01 X252.395 Y298.760
G01 X254.789 Y298.621
G01 X257.174 Y298.366
G01 X259.546 Y297.993
G01 X261.899 Y297.503
G01 X264.227 Y296.899
G01 X266.524 Y296.180
G01 X268.784 Y295.349
G01 X271.003 Y294.407
G01 X273.175 Y293.357
G01 X275.294 Y292.200
G01 X277.355 Y290.940
G01 X279.354 Y289.579
G01 X281.284 Y288.120
G01 X283.143 Y286.568
G01 X284.924 Y284.924
G01 X286.624 Y283.194
G01 X288.238 Y281.381
G01 X289.762 Y279.490
G01 X291.193 Y277.524
G01 X292.527 Y275.490
G01 X293.760 Y273.390
G01 X294.889 Y271.231
G01 X295.912 Y269.017
G01 X296.826 Y266.755
G01 X297.628 Y264.448
G01 X298.317 Y262.103
G01 X298.890 Y259.725
G01 X299.346 Y257.320
G01 X299.683 Y254.893
G01 X299.902 Y252.452
G01 X300.000 Y250.000
G01 X272.500 Y250.000
G01 X272.923 Y249.619
G01 X271.150 Y248.730
G01 X270.267 Y249.780
G01 X270.059 Y250.005
G01 X270.117 Y250.993
G01 X270.128 Y251.709
G01 X271.003 Y252.826
G01 X271.176 Y253.069
G01 X272.779 Y253.706
G01 X274.499 Y253.532
G01 X275.786 Y252.433
G01 X277.003 Y251.237
G01 X277.146 Y249.910
G01 X277.223 Y248.572
G01 X277.237 Y247.825
G01 X276.435 Y246.577
G01 X275.577 Y245.402
G01 X275.267 Y245.012
G01 X273.201 Y244.224
G01 X272.021 Y243.861
G01 X268.661 Y244.654
G01 X267.464 Y245.913
G01 X266.191 Y247.040
G01 X266.173 Y247.055
G01 X265.815 Y247.916
G01 X265.459 Y248.646
G01 X265.483 Y249.408
G01 X265.469 Y250.168
G01 X265.418 Y250.925
G01 X265.330 Y251.678
G01 X265.263 Y252.105
G01 X265.724 Y252.961
G01 X266.136 Y253.867
G01 X266.495 Y254.820
G01 X266.645 Y255.285
G01 X268.601 Y256.928
G01 X269.266 Y257.560
G01 X272.595 Y258.545
G01 X275.069 Y258.098
G01 X277.548 Y257.428
G01 X277.636 Y257.400
G01 X278.897 Y256.236
G01 X280.109 Y254.966
G01 X281.211 Y253.657
G01 X281.619 Y252.139
G01 X281.953 Y250.590
G01 X282.210 Y249.013
G01 X282.266 Y248.582
G01 X281.834 Y247.031
G01 X281.329 Y245.518
G01 X280.752 Y244.048
G01 X280.590 Y243.672
G01 X279.345 Y242.411
G01 X278.051 Y241.256
G01 X276.719 Y240.211
G01 X274.624 Y239.581
G01 X272.535 Y239.132
G01 X271.666 Y238.997
G01 X267.598 Y239.948
G01 X266.616 Y240.240
G01 X263.794 Y242.285
G01 X262.936 Y243.577
G01 X261.987 Y244.765
G01 X261.707 Y245.077
G01 X261.545 Y245.799
G01 X261.342 Y246.493
G01 X261.100 Y247.156
G01 X260.821 Y247.787
G01 X260.523 Y248.357
G01 X260.567 Y248.878
G01 X260.585 Y249.399
G01 X260.578 Y249.919
G01 X260.546 Y250.437
G01 X260.488 Y250.952
G01 X260.404 Y251.462
G01 X260.327 Y251.838
G01 X260.550 Y252.417
G01 X260.740 Y253.023
G01 X260.896 Y253.652
G01 X261.015 Y254.304
G01 X261.096 Y254.977
G01 X261.116 Y255.235
G01 X261.809 Y256.287
G01 X262.422 Y257.418
G01 X262.814 Y258.282
G01 X266.734 Y261.718
G01 X270.318 Y262.789
G01 X273.434 Y263.436
G01 X275.565 Y263.035
G01 X277.709 Y262.455
G01 X279.855 Y261.694
G01 X280.106 Y261.593
G01 X281.541 Y260.399
G01 X282.930 Y259.092
G01 X284.264 Y257.673
G01 X285.054 Y256.746
G01 X285.715 Y255.070
G01 X286.295 Y253.346
G01 X286.792 Y251.578
G01 X287.126 Y250.133
G01 X286.934 Y248.318
G01 X286.653 Y246.522
G01 X286.285 Y244.750
G01 X285.916 Y243.306
G01 X284.895 Y241.706
G01 X283.805 Y240.190
G01 X282.652 Y238.760
G01 X281.757 Y237.754
G01 X279.977 Y236.716
G01 X278.174 Y235.822
G01 X276.359 Y235.072
G01 X274.540 Y234.464
G01 X273.857 Y234.272
G01 X271.378 Y234.348
G01 X268.969 Y234.628
G01 X266.642 Y235.102
G01 X265.301 Y235.475
G01 X260.964 Y238.518
G01 X259.677 Y239.550
G01 X258.377 Y241.800
G01 X256.883 Y243.894
G01 X256.844 Y243.943
G01 X256.760 Y244.585
G01 X256.630 Y245.204
G01 X256.457 Y245.796
G01 X256.243 Y246.358
G01 X255.990 Y246.889
G01 X255.774 Y247.269
G01 X255.763 Y247.612
G01 X255.733 Y247.948
G01 X255.684 Y248.275
G01 X255.617 Y248.593
G01 X255.533 Y248.899
G01 X255.502 Y248.996
G01 X255.524 Y249.270
G01 X255.533 Y249.544
G01 X255.528 Y249.817
G01 X255.510 Y250.088
G01 X255.478 Y250.357
G01 X255.434 Y250.623
G01 X255.409 Y250.743
G01 X255.462 Y251.025
G01 X255.500 Y251.315
G01 X255.522 Y251.610
G01 X255.528 Y251.911
G01 X255.518 Y252.216
G01 X255.495 Y252.490
G01 X255.600 Y252.876
G01 X255.679 Y253.279
G01 X255.732 Y253.696
G01 X255.757 Y254.125
G01 X255.759 Y254.219
G01 X256.106 Y254.952
G01 X256.394 Y255.728
G01 X256.620 Y256.543
G01 X256.779 Y257.392
G01 X256.801 Y257.553
G01 X259.064 Y261.119
G01 X259.553 Y262.001
G01 X262.872 Y264.634
G01 X266.465 Y266.964
G01 X266.597 Y267.040
G01 X268.874 Y267.565
G01 X271.240 Y267.905
G01 X273.680 Y268.051
G01 X276.183 Y267.998
G01 X276.912 Y267.946
G01 X278.877 Y267.272
G01 X280.839 Y266.447
G01 X282.786 Y265.469
G01 X284.709 Y264.339
G01 X284.775 Y264.297
G01 X286.171 Y262.834
G01 X287.506 Y261.269
G01 X288.772 Y259.603
G01 X289.963 Y257.839
G01 X290.171 Y257.508
G01 X290.766 Y255.565
G01 X291.265 Y253.582
G01 X291.668 Y251.564
G01 X291.971 Y249.514
G01 X292.027 Y249.034
G01 X291.712 Y246.989
G01 X291.299 Y244.972
G01 X290.789 Y242.988
G01 X290.184 Y241.042
G01 X290.028 Y240.590
G01 X288.858 Y238.827
G01 X287.612 Y237.156
G01 X286.298 Y235.580
G01 X284.921 Y234.101
G01 X284.621 Y233.800
G01 X282.758 Y232.664
G01 X280.870 Y231.670
G01 X278.965 Y230.818
G01 X277.054 Y230.108
G01 X275.152 Y229.540
G01 X272.869 Y229.452
G01 X270.640 Y229.537
G01 X268.478 Y229.788
G01 X266.393 Y230.200
G01 X264.396 Y230.763
G01 X262.496 Y231.472
G01 X261.612 Y231.866
G01 X259.507 Y233.415
G01 X257.584 Y235.121
G01 X255.854 Y236.972
G01 X254.327 Y238.951
G01 X253.010 Y241.043
G01 X251.910 Y243.232
G01 X251.723 Y243.666
G01 X250.854 Y247.052
G01 X250.857 Y247.505
G01 X250.819 Y247.951
G01 X250.739 Y248.385
G01 X250.625 Y248.787
G01 X250.676 Y248.833
G01 X250.724 Y248.880
G01 X250.769 Y248.930
G01 X250.811 Y248.982
G01 X250.849 Y249.035
G01 X250.884 Y249.089
G01 X250.916 Y249.144
G01 X250.945 Y249.200
G01 X250.970 Y249.257
G01 X250.993 Y249.315
G01 X251.012 Y249.373
G01 X251.027 Y249.431
G01 X251.040 Y249.489
G01 X251.049 Y249.547
G01 X251.055 Y249.605
G01 X251.058 Y249.662
G01 X251.058 Y249.718
G01 X251.055 Y249.774
G01 X251.049 Y249.828
G01 X251.040 Y249.882
G01 X251.029 Y249.934
G01 X251.015 Y249.985
G01 X250.999 Y250.034
G01 X250.980 Y250.082
G01 X250.959 Y250.128
G01 X250.936 Y250.172
G01 X250.911 Y250.214
G01 X250.884 Y250.254
G01 X250.855 Y250.292
G01 X250.825 Y250.328
G01 X250.794 Y250.361
G01 X250.761 Y250.392
G01 X250.727 Y250.421
G01 X250.692 Y250.448
G01 X250.656 Y250.472
G01 X250.620 Y250.494
G01 X250.583 Y250.513
G01 X250.546 Y250.530
G01 X250.536 Y250.534
G01 X250.608 Y250.668
G01 X250.668 Y250.810
G01 X250.715 Y250.959
G01 X250.749 Y251.114
G01 X250.769 Y251.275
G01 X250.775 Y251.440
G01 X250.766 Y251.609
G01 X250.742 Y251.780
G01 X250.704 Y251.952
G01 X250.650 Y252.124
G01 X250.587 Y252.282
G01 X252.155 Y259.074
G01 X253.227 Y261.128
G01 X254.504 Y263.093
G01 X255.980 Y264.954
G01 X257.648 Y266.697
G01 X259.499 Y268.308
G01 X261.523 Y269.772
G01 X263.712 Y271.077
G01 X264.084 Y271.274
G01 X266.118 Y271.927
G01 X268.247 Y272.428
G01 X270.462 Y272.770
G01 X272.751 Y272.946
G01 X275.104 Y272.948
G01 X277.509 Y272.773
G01 X277.792 Y272.741
G01 X279.849 Y272.070
G01 X281.905 Y271.251
G01 X283.950 Y270.282
G01 X285.974 Y269.161
G01 X287.968 Y267.890
G01 X288.664 Y267.403
G01 X290.151 Y265.752
G01 X291.567 Y263.996
G01 X292.906 Y262.138
G01 X294.162 Y260.182
G01 X294.841 Y259.018
G01 X295.484 Y256.845
G01 X296.022 Y254.631
G01 X296.451 Y252.380
G01 X296.769 Y250.099
G01 X296.899 Y248.806
G01 X296.569 Y246.522
G01 X296.129 Y244.268
G01 X295.580 Y242.048
G01 X294.925 Y239.868
G01 X294.512 Y238.663
G01 X293.236 Y236.698
G01 X291.877 Y234.829
G01 X290.440 Y233.062
G01 X288.932 Y231.398
G01 X287.360 Y229.841
G01 X286.788 Y229.314
G01 X284.746 Y228.152
G01 X282.681 Y227.139
G01 X280.602 Y226.274
G01 X278.520 Y225.557
G01 X276.443 Y224.985
G01 X274.380 Y224.555
G01 X273.844 Y224.466
G01 X271.654 Y224.401
G01 X269.517 Y224.487
G01 X267.443 Y224.718
G01 X265.441 Y225.088
G01 X263.518 Y225.591
G01 X261.684 Y226.220
G01 X259.945 Y226.966
G01 X258.310 Y227.823
G01 X256.783 Y228.782
G01 X255.372 Y229.834
G01 X254.081 Y230.970
G01 X252.915 Y232.181
G01 X251.878 Y233.458
G01 X250.975 Y234.789
G01 X250.942 Y234.843
G01 X250.185 Y235.683
G01 X249.514 Y236.559
G01 X248.929 Y237.464
G01 X248.432 Y238.393
G01 X248.022 Y239.337
G01 X247.702 Y240.292
G01 X247.536 Y240.935
G01 X247.235 Y241.498
G01 X246.982 Y242.069
G01 X246.779 Y242.642
G01 X246.624 Y243.215
G01 X246.517 Y243.785
G01 X246.464 Y244.263
G01 X246.293 Y244.600
G01 X246.148 Y244.939
G01 X246.026 Y245.279
G01 X245.928 Y245.618
G01 X245.853 Y245.956
G01 X245.802 Y246.289
G01 X245.773 Y246.618
G01 X245.765 Y246.940
G01 X245.779 Y247.255
G01 X245.813 Y247.561
G01 X245.836 Y247.704
G01 X245.743 Y247.918
G01 X245.661 Y248.136
G01 X245.590 Y248.357
G01 X245.530 Y248.580
G01 X245.481 Y248.805
G01 X245.444 Y249.032
G01 X245.418 Y249.259
G01 X245.403 Y249.487
G01 X245.400 Y249.714
G01 X245.408 Y249.940
G01 X245.427 Y250.165
G01 X245.456 Y250.388
G01 X245.497 Y250.608
G01 X245.548 Y250.825
G01 X245.610 Y251.039
G01 X245.663 Y251.197
G01 X245.592 Y251.453
G01 X245.537 Y251.718
G01 X245.497 Y251.992
G01 X245.474 Y252.274
G01 X245.468 Y252.563
G01 X245.479 Y252.858
G01 X245.509 Y253.158
G01 X245.558 Y253.462
G01 X245.626 Y253.768
G01 X245.713 Y254.076
G01 X245.821 Y254.383
G01 X245.945 Y254.683
G01 X245.904 Y255.229
G01 X245.907 Y255.789
G01 X245.955 Y256.360
G01 X246.051 Y256.940
G01 X246.194 Y257.525
G01 X246.386 Y258.111
G01 X246.627 Y258.696
G01 X246.916 Y259.276
G01 X247.206 Y259.770
G01 X247.461 Y260.871
G01 X247.818 Y261.967
G01 X248.277 Y263.052
G01 X248.837 Y264.119
G01 X249.498 Y265.160
G01 X250.259 Y266.167
G01 X251.117 Y267.134
G01 X251.390 Y267.412
G01 X252.434 Y268.806
G01 X253.619 Y270.136
G01 X254.939 Y271.391
G01 X256.390 Y272.562
G01 X257.967 Y273.638
G01 X259.664 Y274.611
G01 X261.474 Y275.470
G01 X263.390 Y276.208
G01 X265.405 Y276.817
G01 X267.510 Y277.287
G01 X269.696 Y277.612
G01 X271.954 Y277.786
G01 X274.275 Y277.802
G01 X276.648 Y277.654
G01 X279.062 Y277.338
G01 X281.217 Y276.916
G01 X283.371 Y276.031
G01 X285.512 Y274.999
G01 X287.630 Y273.817
G01 X289.715 Y272.487
G01 X291.758 Y271.008
G01 X293.159 Y269.884
G01 X294.701 Y267.991
G01 X296.159 Y265.994
G01 X297.528 Y263.897
G01 X298.801 Y261.704
G01 X299.826 Y259.718
G01 X300.454 Y257.292
G01 X300.962 Y254.827
G01 X301.350 Y252.331
G01 X301.614 Y249.807
G01 X301.739 Y247.710
G01 X301.320 Y245.197
G01 X300.779 Y242.719
G01 X300.119 Y240.283
G01 X299.343 Y237.894
G01 X298.615 Y235.957
G01 X297.204 Y233.815
G01 X295.702 Y231.778
G01 X294.115 Y229.849
G01 X292.451 Y228.031
G01 X290.715 Y226.327
G01 X289.653 Y225.369
G01 X287.468 Y224.095
G01 X285.256 Y222.975
G01 X283.026 Y222.007
G01 X280.788 Y221.192
G01 X278.552 Y220.527
G01 X276.326 Y220.010
G01 X274.120 Y219.639
G01 X273.408 Y219.549
G01 X271.156 Y219.489
G01 X268.957 Y219.575
G01 X266.818 Y219.800
G01 X264.749 Y220.159
G01 X262.756 Y220.645
G01 X260.848 Y221.253
G01 X259.032 Y221.974
G01 X257.314 Y222.801
G01 X255.699 Y223.726
G01 X254.193 Y224.741
G01 X252.801 Y225.838
G01 X251.527 Y227.007
G01 X250.951 Y227.600
G01 X249.857 Y228.492
G01 X248.853 Y229.436
G01 X247.940 Y230.425
G01 X247.122 Y231.451
G01 X246.400 Y232.508
G01 X245.773 Y233.589
G01 X245.405 Y234.330
G01 X244.818 Y235.081
G01 X244.293 Y235.851
G01 X243.830 Y236.635
G01 X243.430 Y237.430
G01 X243.093 Y238.230
G01 X242.818 Y239.032
G01 X242.604 Y239.832
G01 X242.450 Y240.625
G01 X242.445 Y240.657
G01 X242.161 Y241.224
G01 X241.914 Y241.795
G01 X241.703 Y242.370
G01 X241.529 Y242.945
G01 X241.391 Y243.518
G01 X241.289 Y244.087
G01 X241.221 Y244.651
G01 X241.186 Y245.206
G01 X241.185 Y245.747
G01 X241.029 Y246.203
G01 X240.897 Y246.663
G01 X240.788 Y247.128
G01 X240.703 Y247.595
G01 X240.641 Y248.063
G01 X240.602 Y248.532
G01 X240.587 Y248.999
G01 X240.596 Y249.465
G01 X240.627 Y249.927
G01 X240.680 Y250.386
G01 X240.756 Y250.838
G01 X240.784 Y250.975
G01 X240.705 Y251.448
G01 X240.650 Y251.931
G01 X240.620 Y252.422
G01 X240.617 Y252.921
G01 X240.640 Y253.426
G01 X240.691 Y253.936
G01 X240.769 Y254.448
G01 X240.876 Y254.963
G01 X241.011 Y255.477
G01 X241.174 Y255.990
G01 X241.249 Y256.199
G01 X241.275 Y256.847
G01 X241.344 Y257.508
G01 X241.457 Y258.178
G01 X241.616 Y258.854
G01 X241.822 Y259.534
G01 X242.074 Y260.214
G01 X242.374 Y260.891
G01 X242.566 Y261.275
G01 X242.785 Y262.207
G01 X243.078 Y263.143
G01 X243.446 Y264.079
G01 X243.891 Y265.008
G01 X244.411 Y265.927
G01 X245.007 Y266.829
G01 X245.574 Y267.579
G01 X246.233 Y268.822
G01 X247.003 Y270.041
G01 X247.884 Y271.226
G01 X248.874 Y272.371
G01 X249.972 Y273.467
G01 X251.175 Y274.506
G01 X252.445 Y275.458
G01 X253.888 Y276.662
G01 X255.455 Y277.781
G01 X257.141 Y278.809
G01 X258.940 Y279.734
G01 X260.846 Y280.549
G01 X262.853 Y281.246
G01 X264.953 Y281.816
G01 X267.138 Y282.252
G01 X269.400 Y282.548
G01 X271.732 Y282.697
G01 X274.122 Y282.692
G01 X276.563 Y282.529
G01 X279.044 Y282.203
G01 X281.554 Y281.709
G01 X284.084 Y281.044
G01 X285.405 Y280.629
G01 X287.665 Y279.481
G01 X289.896 Y278.184
G01 X292.089 Y276.737
G01 X294.234 Y275.142
G01 X296.321 Y273.400
G01 X298.181 Y271.670
G01 X299.741 Y269.498
G01 X301.203 Y267.224
G01 X302.560 Y264.853
G01 X303.807 Y262.390
G01 X304.937 Y259.840
G01 X305.042 Y259.583
G01 X305.597 Y256.889
G01 X306.020 Y254.164
G01 X306.310 Y251.414
G01 X306.463 Y248.646
G01 X306.481 Y245.866
G01 X306.479 Y245.756
G01 X305.910 Y243.026
G01 X305.210 Y240.342
G01 X304.382 Y237.710
G01 X303.430 Y235.135
G01 X302.357 Y232.624
G01 X302.298 Y232.496
G01 X300.699 Y230.216
G01 X299.004 Y228.049
G01 X297.220 Y226.000
G01 X295.354 Y224.073
G01 X293.415 Y222.270
G01 X291.818 Y220.921
G01 X289.454 Y219.587
G01 X287.063 Y218.414
G01 X284.654 Y217.400
G01 X282.236 Y216.544
G01 X279.820 Y215.846
G01 X277.414 Y215.302
G01 X275.029 Y214.909
G01 X272.673 Y214.665
G01 X272.110 Y214.628
G01 X269.761 Y214.635
G01 X267.468 Y214.785
G01 X265.238 Y215.072
G01 X263.080 Y215.491
G01 X261.000 Y216.035
G01 X259.007 Y216.696
G01 X257.105 Y217.469
G01 X255.302 Y218.345
G01 X253.602 Y219.318
G01 X252.011 Y220.377
G01 X250.532 Y221.516
G01 X249.416 Y222.496
G01 X248.128 Y223.431
G01 X246.931 Y224.425
G01 X245.827 Y225.470
G01 X244.818 Y226.560
G01 X243.904 Y227.687
G01 X243.089 Y228.846
G01 X242.372 Y230.029
G01 X242.297 Y230.163
G01 X241.554 Y231.060
G01 X240.879 Y231.980
G01 X240.274 Y232.920
G01 X239.739 Y233.875
G01 X239.273 Y234.840
G01 X238.876 Y235.811
G01 X238.548 Y236.783
G01 X238.287 Y237.752
G01 X238.254 Y237.899
G01 X237.866 Y238.669
G01 X237.525 Y239.447
G01 X237.231 Y240.232
G01 X236.983 Y241.019
G01 X236.781 Y241.807
G01 X236.625 Y242.593
G01 X236.513 Y243.374
G01 X236.445 Y244.148
G01 X236.424 Y244.644
G01 X236.218 Y245.330
G01 X236.045 Y246.023
G01 X235.908 Y246.722
G01 X235.805 Y247.425
G01 X235.737 Y248.130
G01 X235.705 Y248.836
G01 X235.706 Y249.540
G01 X235.743 Y250.241
G01 X235.814 Y250.938
G01 X235.916 Y251.615
G01 X235.843 Y252.332
G01 X235.807 Y253.060
G01 X235.808 Y253.797
G01 X235.849 Y254.541
G01 X235.928 Y255.290
G01 X236.047 Y256.042
G01 X236.207 Y256.795
G01 X236.407 Y257.547
G01 X236.648 Y258.296
G01 X236.741 Y258.555
G01 X236.842 Y259.435
G01 X236.998 Y260.326
G01 X237.211 Y261.224
G01 X237.481 Y262.124
G01 X237.809 Y263.025
G01 X238.196 Y263.922
G01 X238.642 Y264.812
G01 X238.866 Y265.214
G01 X239.238 Y266.330
G01 X239.694 Y267.445
G01 X240.234 Y268.553
G01 X240.859 Y269.648
G01 X241.569 Y270.726
G01 X242.363 Y271.779
G01 X243.219 Y272.780
G01 X244.091 Y274.119
G01 X245.080 Y275.425
G01 X246.183 Y276.690
G01 X247.398 Y277.905
G01 X248.724 Y279.063
G01 X250.157 Y280.155
G01 X251.694 Y281.174
G01 X253.331 Y282.113
G01 X253.475 Y282.188
G01 X255.252 Y283.259
G01 X257.142 Y284.229
G01 X259.140 Y285.091
G01 X261.238 Y285.837
G01 X263.431 Y286.458
G01 X265.710 Y286.947
G01 X268.069 Y287.298
G01 X270.499 Y287.503
G01 X272.991 Y287.557
G01 X275.536 Y287.454
G01 X278.125 Y287.190
G01 X280.747 Y286.759
G01 X283.392 Y286.157
G01 X286.051 Y285.383
G01 X288.712 Y284.432
G01 X290.295 Y283.781
G01 X292.649 Y282.328
G01 X294.955 Y280.724
G01 X297.206 Y278.970
G01 X299.390 Y277.068
G01 X301.500 Y275.021
G01 X303.526 Y272.830
G01 X303.641 Y272.698
G01 X305.180 Y270.218
G01 X306.603 Y267.642
G01 X307.906 Y264.974
G01 X309.081 Y262.220
G01 X310.125 Y259.387
G01 X310.390 Y258.588
G01 X310.822 Y255.622
G01 X311.107 Y252.635
G01 X311.246 Y249.633
G01 X311.237 Y246.623
G01 X311.080 Y243.614
G01 X311.027 Y242.958
G01 X310.258 Y240.030
G01 X309.351 Y237.160
G01 X308.308 Y234.355
G01 X307.133 Y231.621
G01 X305.831 Y228.965
G01 X305.493 Y228.325
G01 X303.665 Y225.941
G01 X301.739 Y223.683
G01 X299.722 Y221.556
G01 X297.623 Y219.562
G01 X295.449 Y217.704
G01 X293.253 Y216.018
G01 X290.684 Y214.674
G01 X288.090 Y213.498
G01 X285.480 Y212.491
G01 X282.865 Y211.649
G01 X280.254 Y210.972
G01 X277.658 Y210.456
G01 X275.085 Y210.099
G01 X272.546 Y209.897
G01 X270.049 Y209.845
G01 X268.206 Y209.902
G01 X265.796 Y210.120
G01 X263.452 Y210.475
G01 X261.182 Y210.961
G01 X258.992 Y211.573
G01 X256.890 Y212.302
G01 X254.882 Y213.142
G01 X252.974 Y214.086
G01 X251.169 Y215.126
G01 X249.475 Y216.253
G01 X247.893 Y217.460
G01 X247.262 Y217.991
G01 X245.808 Y219.000
G01 X244.446 Y220.074
G01 X243.179 Y221.204
G01 X242.009 Y222.385
G01 X240.937 Y223.609
G01 X239.967 Y224.869
G01 X239.097 Y226.160
G01 X238.747 Y226.734
G01 X237.873 Y227.778
G01 X237.073 Y228.852
G01 X236.349 Y229.949
G01 X235.700 Y231.065
G01 X235.128 Y232.196
G01 X234.631 Y233.336
G01 X234.209 Y234.481
G01 X233.862 Y235.627
G01 X233.777 Y235.950
G01 X233.306 Y236.918
G01 X232.890 Y237.899
G01 X232.530 Y238.889
G01 X232.225 Y239.884
G01 X231.975 Y240.882
G01 X231.780 Y241.880
G01 X231.638 Y242.875
G01 X231.550 Y243.865
G01 X231.525 Y244.388
G01 X231.287 Y245.305
G01 X231.095 Y246.232
G01 X230.949 Y247.167
G01 X230.849 Y248.106
G01 X230.795 Y249.049
G01 X230.787 Y249.993
G01 X230.826 Y250.935
G01 X230.911 Y251.873
G01 X231.042 Y252.805
G01 X231.095 Y253.111
G01 X231.056 Y254.081
G01 X231.067 Y255.062
G01 X231.130 Y256.052
G01 X231.244 Y257.048
G01 X231.412 Y258.047
G01 X231.632 Y259.046
G01 X231.906 Y260.043
G01 X232.235 Y261.034
G01 X232.500 Y261.731
G01 X232.697 Y262.873
G01 X232.965 Y264.023
G01 X233.305 Y265.176
G01 X233.718 Y266.330
G01 X234.205 Y267.479
G01 X234.767 Y268.618
G01 X235.403 Y269.743
G01 X236.113 Y270.850
G01 X236.505 Y271.407
G01 X237.164 Y272.765
G01 X237.926 Y274.108
G01 X238.789 Y275.430
G01 X239.754 Y276.723
G01 X240.819 Y277.981
G01 X241.983 Y279.197
G01 X243.246 Y280.364
G01 X244.027 Y281.020
G01 X245.393 Y282.425
G01 X246.883 Y283.769
G01 X248.494 Y285.041
G01 X250.222 Y286.234
G01 X252.064 Y287.339
G01 X254.014 Y288.348
G01 X256.068 Y289.253
G01 X258.221 Y290.045
G01 X260.463 Y290.718
G01 X262.820 Y291.355
G01 X265.264 Y291.856
G01 X267.787 Y292.214
G01 X270.381 Y292.422
G01 X273.036 Y292.475
G01 X275.745 Y292.366
G01 X278.497 Y292.092
G01 X281.282 Y291.647
G01 X284.090 Y291.028
G01 X286.911 Y290.231
G01 X289.734 Y289.254
G01 X292.548 Y288.094
G01 X292.766 Y287.996
G01 X295.300 Y286.432
G01 X297.782 Y284.709
G01 X300.201 Y282.829
G01 X302.550 Y280.794
G01 X304.818 Y278.607
G01 X306.996 Y276.270
G01 X307.430 Y275.772
G01 X309.116 Y273.115
G01 X310.679 Y270.354
G01 X312.111 Y267.495
G01 X313.408 Y264.544
G01 X314.564 Y261.508
G01 X315.029 Y260.139
G01 X315.543 Y256.946
G01 X315.900 Y253.727
G01 X316.100 Y250.490
G01 X316.140 Y247.242
G01 X316.020 Y243.991
G01 X315.934 Y242.779
G01 X315.168 Y239.605
G01 X314.250 Y236.489
G01 X313.185 Y233.438
G01 X311.975 Y230.459
G01 X310.626 Y227.558
G01 X310.048 Y226.420
G01 X308.144 Y223.806
G01 X306.129 Y221.322
G01 X304.013 Y218.971
G01 X301.802 Y216.757
G01 X299.506 Y214.686
G01 X297.133 Y212.758
G01 X296.892 Y212.573
G01 X294.182 Y211.038
G01 X291.436 Y209.677
G01 X288.665 Y208.490
G01 X285.879 Y207.476
G01 X283.088 Y206.633
G01 X280.303 Y205.959
G01 X277.532 Y205.452
G01 X274.787 Y205.109
G01 X272.075 Y204.925
G01 X270.437 Y204.890
G01 X267.787 Y204.985
G01 X265.196 Y205.230
G01 X262.672 Y205.618
G01 X260.224 Y206.143
G01 X257.859 Y206.798
G01 X255.583 Y207.578
G01 X253.403 Y208.474
G01 X251.325 Y209.479
G01 X249.354 Y210.585
G01 X247.494 Y211.784
G01 X245.852 Y212.989
G01 X244.176 Y214.074
G01 X242.597 Y215.232
G01 X241.117 Y216.456
G01 X239.739 Y217.741
G01 X238.465 Y219.077
G01 X237.296 Y220.459
G01 X236.235 Y221.879
G01 X235.746 Y222.598
G01 X234.695 Y223.804
G01 X233.727 Y225.045
G01 X232.844 Y226.317
G01 X232.045 Y227.614
G01 X231.331 Y228.932
G01 X230.703 Y230.265
G01 X230.159 Y231.608
G01 X229.700 Y232.955
G01 X229.634 Y233.172
G01 X229.047 Y234.352
G01 X228.527 Y235.549
G01 X228.073 Y236.758
G01 X227.686 Y237.977
G01 X227.364 Y239.202
G01 X227.109 Y240.429
G01 X226.919 Y241.655
G01 X226.794 Y242.876
G01 X226.768 Y243.250
G01 X226.481 Y244.402
G01 X226.251 Y245.566
G01 X226.079 Y246.739
G01 X225.964 Y247.918
G01 X225.908 Y249.100
G01 X225.909 Y250.283
G01 X225.969 Y251.464
G01 X226.086 Y252.640
G01 X226.245 Y253.714
G01 X226.227 Y254.923
G01 X226.270 Y256.142
G01 X226.376 Y257.369
G01 X226.546 Y258.600
G01 X226.780 Y259.832
G01 X227.080 Y261.061
G01 X227.444 Y262.284
G01 X227.874 Y263.499
G01 X228.084 Y264.029
G01 X228.377 Y265.388
G01 X228.751 Y266.751
G01 X229.208 Y268.113
G01 X229.749 Y269.471
G01 X230.374 Y270.817
G01 X231.082 Y272.149
G01 X231.875 Y273.460
G01 X232.752 Y274.746
G01 X233.071 Y275.179
G01 X233.896 Y276.694
G01 X234.829 Y278.188
G01 X235.872 Y279.652
G01 X237.022 Y281.080
G01 X238.279 Y282.464
G01 X239.641 Y283.799
G01 X241.107 Y285.076
G01 X242.069 Y285.837
G01 X243.644 Y287.315
G01 X245.345 Y288.722
G01 X247.170 Y290.050
G01 X249.114 Y291.289
G01 X251.173 Y292.430
G01 X253.341 Y293.467
G01 X255.614 Y294.390
G01 X257.985 Y295.192
G01 X260.448 Y295.866
G01 X262.061 Y296.224
G01 X264.681 Y296.743
G01 X267.380 Y297.113
G01 X270.149 Y297.328
G01 X272.980 Y297.382
G01 X275.864 Y297.269
G01 X278.791 Y296.985
G01 X281.751 Y296.525
G01 X284.733 Y295.886
G01 X287.727 Y295.063
G01 X290.722 Y294.055
G01 X293.708 Y292.860
G01 X295.994 Y291.810
G01 X298.687 Y290.077
G01 X301.319 Y288.178
G01 X303.881 Y286.117
G01 X306.362 Y283.895
G01 X308.753 Y281.516
G01 X311.045 Y278.982
G01 X311.736 Y278.164
G01 X313.519 Y275.290
G01 X315.169 Y272.309
G01 X316.677 Y269.226
G01 X318.039 Y266.049
G01 X319.249 Y262.784
G01 X319.877 Y260.860
G01 X320.411 Y257.427
G01 X320.777 Y253.968
G01 X320.973 Y250.491
G01 X320.998 Y247.004
G01 X320.851 Y243.516
G01 X320.712 Y241.753
G01 X319.886 Y238.350
G01 X318.897 Y235.007
G01 X317.749 Y231.733
G01 X316.447 Y228.536
G01 X314.995 Y225.422
G01 X314.154 Y223.786
G01 X312.124 Y220.981
G01 X309.974 Y218.312
G01 X307.714 Y215.783
G01 X305.351 Y213.398
G01 X302.895 Y211.162
G01 X300.354 Y209.078
G01 X299.814 Y208.662
G01 X296.938 Y206.989
G01 X294.021 Y205.497
G01 X291.071 Y204.185
G01 X288.101 Y203.054
G01 X285.120 Y202.103
G01 X282.139 Y201.328
G01 X279.168 Y200.728
G01 X276.217 Y200.301
G01 X273.296 Y200.042
G01 X272.500 Y200.000
G01 X273.036 Y204.867
G01 X273.154 Y209.658
G01 X273.058 Y212.015
G01 X273.467 Y215.303
G01 X273.611 Y218.534
G01 X273.504 Y221.628
G01 X273.792 Y223.991
G01 X273.908 Y226.312
G01 X273.856 Y228.578
G01 X273.839 Y228.837
G01 X274.099 Y230.634
G01 X274.243 Y232.405
G01 X274.272 Y234.141
G01 X274.191 Y235.837
G01 X274.174 Y236.046
G01 X274.403 Y237.469
G01 X274.551 Y238.879
G01 X274.621 Y240.273
G01 X274.614 Y241.647
G01 X274.533 Y242.997
G01 X274.509 Y243.256
G01 X274.596 Y244.514
G01 X274.620 Y245.659
G01 X274.993 Y245.281
G01 X273.914 Y244.257
G01 X273.881 Y244.227
G01 X272.381 Y245.045
G01 X272.087 Y246.236
G01 X271.946 Y246.721
G01 X272.392 Y247.771
G01 X272.604 Y248.331
G01 X274.004 Y249.370
G01 X275.726 Y249.645
G01 X278.548 Y248.202
G01 X278.769 Y248.076
G01 X279.369 Y246.582
G01 X279.889 Y245.024
G01 X279.944 Y244.841
G01 X279.531 Y243.406
G01 X279.049 Y241.999
G01 X278.881 Y241.556
G01 X277.546 Y240.456
G01 X276.176 Y239.465
G01 X276.141 Y239.442
G01 X273.512 Y239.133
G01 X272.693 Y239.084
G01 X269.514 Y240.476
G01 X268.227 Y242.187
G01 X267.350 Y243.193
G01 X267.209 Y244.206
G01 X267.011 Y245.187
G01 X266.760 Y246.136
G01 X266.617 Y246.591
G01 X266.867 Y247.394
G01 X267.079 Y248.214
G01 X267.251 Y249.049
G01 X267.382 Y249.896
G01 X267.393 Y249.982
G01 X268.161 Y250.873
G01 X268.881 Y251.840
G01 X269.481 Y252.766
G01 X272.083 Y254.250
G01 X272.492 Y254.513
G01 X277.674 Y254.748
G01 X279.914 Y253.632
G01 X282.106 Y252.307
G01 X282.217 Y252.234
G01 X283.273 Y250.670
G01 X284.250 Y249.008
G01 X284.890 Y247.776
G01 X285.041 Y246.033
G01 X285.105 Y244.269
G01 X285.083 Y242.578
G01 X284.396 Y240.940
G01 X283.633 Y239.351
G01 X282.837 Y237.883
G01 X281.387 Y236.634
G01 X279.895 Y235.497
G01 X278.718 Y234.695
G01 X276.432 Y234.201
G01 X274.171 Y233.892
G01 X271.946 Y233.765
G01 X271.876 Y233.764
G01 X268.013 Y235.207
G01 X267.015 Y235.649
G01 X263.340 Y239.350
G01 X262.740 Y240.815
G01 X262.031 Y242.194
G01 X261.848 Y242.507
G01 X261.796 Y243.327
G01 X261.692 Y244.123
G01 X261.540 Y244.893
G01 X261.342 Y245.633
G01 X261.241 Y245.946
G01 X261.365 Y246.521
G01 X261.460 Y247.099
G01 X261.525 Y247.677
G01 X261.562 Y248.255
G01 X261.569 Y248.831
G01 X261.548 Y249.404
G01 X261.547 Y249.424
G01 X261.836 Y249.992
G01 X262.097 Y250.586
G01 X262.327 Y251.205
G01 X262.526 Y251.849
G01 X262.689 Y252.515
G01 X262.730 Y252.710
G01 X263.419 Y253.553
G01 X264.053 Y254.470
G01 X264.628 Y255.457
G01 X264.700 Y255.594
G01 X267.502 Y257.663
G01 X268.827 Y258.795
G01 X273.828 Y260.306
G01 X276.886 Y260.093
G01 X279.975 Y259.603
G01 X280.712 Y259.445
G01 X282.690 Y258.322
G01 X284.627 Y257.026
G01 X286.481 Y255.585
G01 X287.636 Y253.883
G01 X288.709 Y252.082
G01 X289.694 Y250.184
G01 X289.977 Y249.584
G01 X290.271 Y247.602
G01 X290.465 Y245.589
G01 X290.559 Y243.552
G01 X290.567 Y242.662
G01 X289.994 Y240.719
G01 X289.328 Y238.814
G01 X288.572 Y236.952
G01 X288.202 Y236.128
G01 X286.787 Y234.559
G01 X285.311 Y233.095
G01 X283.782 Y231.738
G01 X282.207 Y230.489
G01 X281.863 Y230.235
G01 X279.706 Y229.489
G01 X277.556 Y228.904
G01 X275.422 Y228.480
G01 X273.441 Y228.223
G01 X270.804 Y228.678
G01 X268.271 Y229.336
G01 X265.857 Y230.186
G01 X265.085 Y230.509
G01 X261.700 Y233.244
G01 X259.800 Y235.036
G01 X257.175 Y239.564
G01 X256.835 Y241.034
G01 X256.370 Y242.444
G01 X256.181 Y242.915
G01 X256.232 Y243.528
G01 X256.239 Y244.127
G01 X256.202 Y244.711
G01 X256.124 Y245.276
G01 X256.006 Y245.821
G01 X255.850 Y246.342
G01 X255.832 Y246.394
G01 X255.886 Y246.748
G01 X255.920 Y247.099
G01 X255.934 Y247.445
G01 X255.929 Y247.786
G01 X255.904 Y248.119
G01 X255.902 Y248.142
G01 X255.977 Y248.436
G01 X256.038 Y248.733
G01 X256.084 Y249.033
G01 X256.115 Y249.333
G01 X256.131 Y249.635
G01 X256.134 Y249.877
G01 X256.242 Y250.181
G01 X256.336 Y250.496
G01 X256.413 Y250.820
G01 X256.473 Y251.153
G01 X256.516 Y251.494
G01 X256.524 Y251.582
G01 X256.798 Y252.007
G01 X257.044 Y252.461
G01 X257.262 Y252.945
G01 X257.448 Y253.455
G01 X257.601 Y253.990
G01 X257.718 Y254.548
G01 X257.765 Y254.851
G01 X258.537 Y255.934
G01 X259.218 Y257.103
G01 X259.579 Y257.839
G01 X263.230 Y261.592
G01 X267.345 Y263.754
G01 X271.075 Y265.308
G01 X273.735 Y265.520
G01 X276.463 Y265.506
G01 X279.240 Y265.258
G01 X281.452 Y264.896
G01 X283.546 Y263.916
G01 X285.617 Y262.765
G01 X287.653 Y261.443
G01 X289.640 Y259.951
G01 X290.283 Y259.423
G01 X291.619 Y257.604
G01 X292.871 Y255.675
G01 X294.033 Y253.642
G01 X294.849 Y252.031
G01 X295.324 Y249.826
G01 X295.690 Y247.580
G01 X295.944 Y245.297
G01 X296.065 Y243.426
G01 X295.619 Y241.186
G01 X295.064 Y238.975
G01 X294.402 Y236.797
G01 X293.781 Y235.038
G01 X292.438 Y233.129
G01 X291.015 Y231.315
G01 X289.517 Y229.599
G01 X287.951 Y227.985
G01 X287.036 Y227.117
G01 X284.934 Y225.970
G01 X282.811 Y224.973
G01 X280.676 Y224.125
G01 X278.539 Y223.424
G01 X277.429 Y223.117
G01 X274.933 Y223.040
G01 X272.499 Y223.140
G01 X270.137 Y223.411
G01 X267.858 Y223.846
G01 X265.673 Y224.437
G01 X263.785 Y225.099
G01 X261.519 Y226.545
G01 X259.431 Y228.148
G01 X257.530 Y229.895
G01 X255.825 Y231.770
G01 X254.323 Y233.759
G01 X253.033 Y235.845
G01 X252.135 Y237.620
G01 X250.640 Y244.770
G01 X250.433 Y246.156
G01 X250.497 Y246.949
G01 X250.483 Y247.738
G01 X250.470 Y247.905
G01 X250.570 Y247.941
G01 X250.667 Y247.981
G01 X250.762 Y248.026
G01 X250.853 Y248.075
G01 X250.942 Y248.129
G01 X251.028 Y248.186
G01 X251.110 Y248.248
G01 X251.188 Y248.313
G01 X251.263 Y248.381
G01 X251.335 Y248.453
G01 X251.402 Y248.528
G01 X251.465 Y248.606
G01 X251.524 Y248.686
G01 X251.578 Y248.769
G01 X251.628 Y248.853
G01 X251.674 Y248.940
G01 X251.715 Y249.029
G01 X251.751 Y249.119
G01 X251.782 Y249.210
G01 X251.809 Y249.302
G01 X251.832 Y249.395
G01 X251.849 Y249.488
G01 X251.862 Y249.582
G01 X251.870 Y249.676
G01 X251.873 Y249.769
G01 X251.872 Y249.862
G01 X251.866 Y249.954
G01 X251.856 Y250.046
G01 X251.841 Y250.136
G01 X251.822 Y250.225
G01 X251.798 Y250.312
G01 X251.771 Y250.398
G01 X251.739 Y250.481
G01 X251.703 Y250.563
G01 X251.664 Y250.642
G01 X251.621 Y250.719
G01 X251.575 Y250.793
G01 X251.525 Y250.864
G01 X251.472 Y250.932
G01 X251.416 Y250.997
G01 X251.357 Y251.059
G01 X251.295 Y251.117
G01 X251.231 Y251.173
G01 X251.165 Y251.224
G01 X251.097 Y251.272
G01 X251.027 Y251.316
G01 X250.955 Y251.356
G01 X250.922 Y251.374
G01 X251.256 Y252.086
G01 X251.522 Y252.833
G01 X251.716 Y253.610
G01 X251.837 Y254.410
G01 X251.865 Y254.742
G01 X253.673 Y258.140
G01 X255.814 Y261.364
G01 X258.277 Y264.389
G01 X258.646 Y264.795
G01 X260.588 Y266.233
G01 X262.688 Y267.511
G01 X264.937 Y268.618
G01 X267.321 Y269.542
G01 X269.828 Y270.273
G01 X272.445 Y270.801
G01 X275.158 Y271.117
G01 X276.316 Y271.185
G01 X278.679 Y270.854
G01 X281.069 Y270.339
G01 X283.475 Y269.638
G01 X285.883 Y268.747
G01 X288.281 Y267.666
G01 X289.509 Y267.033
G01 X291.379 Y265.479
G01 X293.189 Y263.781
G01 X294.929 Y261.942
G01 X296.590 Y259.964
G01 X297.885 Y258.244
G01 X298.884 Y255.964
G01 X299.774 Y253.606
G01 X300.548 Y251.174
G01 X301.202 Y248.676
G01 X301.272 Y248.376
G01 X301.310 Y245.847
G01 X301.224 Y243.311
G01 X301.012 Y240.773
G01 X300.674 Y238.241
G01 X300.629 Y237.960
G01 X299.698 Y235.572
G01 X298.654 Y233.246
G01 X297.503 Y230.987
G01 X296.248 Y228.800
G01 X296.099 Y228.558
G01 X294.308 Y226.681
G01 X292.446 Y224.928
G01 X290.519 Y223.301
G01 X288.537 Y221.801
G01 X286.864 Y220.660
G01 X284.444 Y219.710
G01 X282.022 Y218.924
G01 X279.607 Y218.302
G01 X277.211 Y217.839
G01 X274.842 Y217.533
G01 X273.392 Y217.420
G01 X270.908 Y217.639
G01 X268.503 Y218.020
G01 X266.188 Y218.555
G01 X263.972 Y219.238
G01 X261.864 Y220.058
G01 X259.871 Y221.008
G01 X258.001 Y222.078
G01 X256.261 Y223.257
G01 X254.657 Y224.537
G01 X253.195 Y225.905
G01 X251.878 Y227.353
G01 X250.711 Y228.867
G01 X249.698 Y230.438
G01 X248.915 Y231.899
G01 X248.141 Y233.012
G01 X247.474 Y234.155
G01 X246.915 Y235.320
G01 X246.463 Y236.499
G01 X246.118 Y237.685
G01 X245.881 Y238.869
G01 X245.751 Y240.023
G01 X245.480 Y240.682
G01 X245.262 Y241.343
G01 X245.097 Y242.001
G01 X244.986 Y242.654
G01 X244.925 Y243.297
G01 X244.915 Y243.928
G01 X244.954 Y244.542
G01 X245.041 Y245.138
G01 X245.057 Y245.221
G01 X244.959 Y245.584
G01 X244.885 Y245.945
G01 X244.834 Y246.302
G01 X244.806 Y246.655
G01 X244.799 Y247.001
G01 X244.814 Y247.339
G01 X244.848 Y247.669
G01 X244.902 Y247.989
G01 X244.975 Y248.297
G01 X245.065 Y248.594
G01 X245.110 Y248.719
G01 X245.061 Y248.962
G01 X245.024 Y249.207
G01 X244.999 Y249.453
G01 X244.987 Y249.699
G01 X244.986 Y249.946
G01 X244.998 Y250.191
G01 X245.021 Y250.436
G01 X245.057 Y250.679
G01 X245.104 Y250.919
G01 X245.163 Y251.156
G01 X245.234 Y251.390
G01 X245.315 Y251.619
G01 X245.408 Y251.844
G01 X245.511 Y252.064
G01 X245.575 Y252.186
G01 X245.555 Y252.474
G01 X245.554 Y252.769
G01 X245.570 Y253.070
G01 X245.606 Y253.376
G01 X245.662 Y253.685
G01 X245.738 Y253.997
G01 X245.834 Y254.311
G01 X245.951 Y254.624
G01 X246.089 Y254.935
G01 X246.247 Y255.244
G01 X246.427 Y255.549
G01 X246.443 Y255.575
G01 X246.496 Y256.137
G01 X246.596 Y256.707
G01 X246.743 Y257.281
G01 X246.939 Y257.855
G01 X247.185 Y258.427
G01 X247.479 Y258.993
G01 X247.822 Y259.549
G01 X248.214 Y260.091
G01 X248.473 Y260.410
G01 X248.892 Y261.439
G01 X249.408 Y262.450
G01 X250.021 Y263.436
G01 X250.730 Y264.389
G01 X251.532 Y265.303
G01 X252.425 Y266.170
G01 X253.523 Y267.568
G01 X254.764 Y268.894
G01 X256.143 Y270.136
G01 X257.654 Y271.285
G01 X259.291 Y272.331
G01 X261.048 Y273.264
G01 X262.918 Y274.075
G01 X264.891 Y274.755
G01 X265.334 Y274.885
G01 X267.487 Y275.488
G01 X269.734 Y275.936
G01 X272.064 Y276.221
G01 X274.467 Y276.338
G01 X276.932 Y276.278
G01 X279.447 Y276.038
G01 X282.001 Y275.611
G01 X284.580 Y274.994
G01 X287.173 Y274.183
G01 X289.160 Y273.429
G01 X291.347 Y272.058
G01 X293.492 Y270.528
G01 X295.583 Y268.839
G01 X297.611 Y266.993
G01 X299.565 Y264.992
G01 X301.031 Y263.326
G01 X302.338 Y260.955
G01 X303.534 Y258.488
G01 X304.612 Y255.930
G01 X305.566 Y253.287
G01 X306.390 Y250.563
G01 X306.403 Y250.517
G01 X306.602 Y247.739
G01 X306.664 Y244.943
G01 X306.588 Y242.135
G01 X306.371 Y239.323
G01 X306.263 Y238.340
G01 X305.411 Y235.648
G01 X304.431 Y233.012
G01 X303.327 Y230.437
G01 X302.101 Y227.929
G01 X301.645 Y227.070
G01 X299.847 Y224.871
G01 X297.958 Y222.793
G01 X295.988 Y220.839
G01 X293.942 Y219.012
G01 X291.830 Y217.315
G01 X291.783 Y217.279
G01 X289.274 Y216.007
G01 X286.742 Y214.901
G01 X284.198 Y213.960
G01 X281.653 Y213.181
G01 X279.115 Y212.564
G01 X277.036 Y212.174
G01 X274.384 Y212.081
G01 X271.789 Y212.155
G01 X269.262 Y212.389
G01 X266.812 Y212.776
G01 X264.447 Y213.311
G01 X262.177 Y213.984
G01 X260.009 Y214.789
G01 X257.950 Y215.716
G01 X256.007 Y216.758
G01 X254.186 Y217.904
G01 X252.492 Y219.145
G01 X250.931 Y220.472
G01 X249.506 Y221.874
G01 X248.220 Y223.342
G01 X247.078 Y224.865
G01 X246.459 Y225.804
G01 X245.472 Y227.005
G01 X244.595 Y228.242
G01 X243.827 Y229.507
G01 X243.169 Y230.793
G01 X242.622 Y232.091
G01 X242.186 Y233.395
G01 X242.181 Y233.411
G01 X241.677 Y234.380
G01 X241.249 Y235.357
G01 X240.896 Y236.336
G01 X240.617 Y237.314
G01 X240.411 Y238.285
G01 X240.277 Y239.245
G01 X240.216 Y240.118
G01 X239.994 Y240.840
G01 X239.819 Y241.560
G01 X239.690 Y242.274
G01 X239.606 Y242.980
G01 X239.565 Y243.675
G01 X239.567 Y244.357
G01 X239.610 Y245.023
G01 X239.645 Y245.333
G01 X239.543 Y245.891
G01 X239.470 Y246.449
G01 X239.427 Y247.003
G01 X239.412 Y247.553
G01 X239.426 Y248.097
G01 X239.467 Y248.634
G01 X239.536 Y249.163
G01 X239.630 Y249.681
G01 X239.750 Y250.188
G01 X239.860 Y250.574
G01 X239.839 Y251.077
G01 X239.843 Y251.584
G01 X239.872 Y252.093
G01 X239.927 Y252.603
G01 X240.008 Y253.112
G01 X240.115 Y253.620
G01 X240.247 Y254.125
G01 X240.406 Y254.625
G01 X240.590 Y255.120
G01 X240.800 Y255.608
G01 X240.854 Y255.724
G01 X240.928 Y256.318
G01 X241.039 Y256.918
G01 X241.187 Y257.522
G01 X241.373 Y258.127
G01 X241.598 Y258.732
G01 X241.862 Y259.334
G01 X242.165 Y259.931
G01 X242.508 Y260.520
G01 X242.602 Y260.670
G01 X242.840 Y261.493
G01 X243.142 Y262.317
G01 X243.508 Y263.137
G01 X243.939 Y263.951
G01 X244.434 Y264.752
G01 X244.994 Y265.538
G01 X245.618 Y266.302
G01 X246.032 Y266.760
G01 X246.685 Y267.872
G01 X247.438 Y268.959
G01 X248.291 Y270.013
G01 X249.240 Y271.026
G01 X250.285 Y271.992
G01 X251.423 Y272.904
G01 X251.883 Y273.237
G01 X253.201 Y274.498
G01 X254.647 Y275.681
G01 X256.217 Y276.778
G01 X257.904 Y277.780
G01 X259.704 Y278.678
G01 X261.610 Y279.462
G01 X263.615 Y280.126
G01 X265.641 Y280.645
G01 X267.889 Y281.172
G01 X270.226 Y281.549
G01 X272.640 Y281.768
G01 X275.123 Y281.824
G01 X277.663 Y281.709
G01 X280.250 Y281.419
G01 X282.873 Y280.949
G01 X285.520 Y280.295
G01 X288.179 Y279.453
G01 X290.838 Y278.421
G01 X293.485 Y277.197
G01 X294.314 Y276.772
G01 X296.575 Y275.104
G01 X298.777 Y273.279
G01 X300.909 Y271.296
G01 X302.962 Y269.159
G01 X304.926 Y266.871
G01 X306.667 Y264.605
G01 X307.969 Y261.941
G01 X309.145 Y259.185
G01 X310.188 Y256.342
G01 X311.093 Y253.418
G01 X311.855 Y250.421
G01 X311.971 Y249.897
G01 X312.086 Y246.846
G01 X312.051 Y243.784
G01 X311.864 Y240.718
G01 X311.525 Y237.656
G01 X311.277 Y235.993
G01 X310.244 Y233.080
G01 X309.073 Y230.234
G01 X307.769 Y227.462
G01 X306.335 Y224.770
G01 X304.778 Y222.164
G01 X304.583 Y221.859
G01 X302.488 Y219.591
G01 X300.303 Y217.459
G01 X298.037 Y215.468
G01 X295.698 Y213.620
G01 X293.294 Y211.917
G01 X292.791 Y211.583
G01 X290.030 Y210.347
G01 X287.252 Y209.287
G01 X284.469 Y208.402
G01 X281.691 Y207.690
G01 X278.927 Y207.148
G01 X276.188 Y206.773
G01 X274.396 Y206.615
G01 X271.635 Y206.676
G01 X268.941 Y206.901
G01 X266.323 Y207.282
G01 X263.788 Y207.814
G01 X261.346 Y208.488
G01 X259.005 Y209.297
G01 X256.770 Y210.233
G01 X254.650 Y211.287
G01 X252.650 Y212.449
G01 X250.776 Y213.712
G01 X249.032 Y215.065
G01 X247.422 Y216.498
G01 X245.950 Y218.002
G01 X244.759 Y219.392
G01 X243.479 Y220.656
G01 X242.309 Y221.970
G01 X241.253 Y223.325
G01 X240.310 Y224.714
G01 X239.482 Y226.129
G01 X238.768 Y227.562
G01 X238.168 Y229.006
G01 X237.976 Y229.537
G01 X237.334 Y230.681
G01 X236.775 Y231.839
G01 X236.297 Y233.003
G01 X235.901 Y234.169
G01 X235.586 Y235.332
G01 X235.350 Y236.487
G01 X235.191 Y237.629
G01 X235.173 Y237.808
G01 X234.872 Y238.758
G01 X234.629 Y239.708
G01 X234.442 Y240.655
G01 X234.310 Y241.594
G01 X234.232 Y242.524
G01 X234.206 Y243.440
G01 X234.232 Y244.341
G01 X234.260 Y244.739
G01 X234.136 Y245.550
G01 X234.053 Y246.361
G01 X234.012 Y247.169
G01 X234.011 Y247.971
G01 X234.050 Y248.768
G01 X234.128 Y249.555
G01 X234.245 Y250.332
G01 X234.400 Y251.096
G01 X234.557 Y251.725
G01 X234.569 Y252.495
G01 X234.620 Y253.269
G01 X234.710 Y254.043
G01 X234.839 Y254.816
G01 X235.007 Y255.586
G01 X235.214 Y256.352
G01 X235.461 Y257.110
G01 X235.747 Y257.859
G01 X236.051 Y258.555
G01 X236.224 Y259.409
G01 X236.448 Y260.267
G01 X236.723 Y261.124
G01 X237.051 Y261.979
G01 X237.431 Y262.828
G01 X237.863 Y263.668
G01 X238.348 Y264.496
G01 X238.693 Y265.028
G01 X239.104 Y266.067
G01 X239.591 Y267.099
G01 X240.153 Y268.122
G01 X240.791 Y269.129
G01 X241.505 Y270.116
G01 X242.295 Y271.078
G01 X243.158 Y272.009
G01 X243.483 Y272.332
G01 X244.358 Y273.581
G01 X245.340 Y274.796
G01 X246.428 Y275.969
G01 X247.621 Y277.092
G01 X248.915 Y278.159
G01 X250.309 Y279.161
G01 X251.798 Y280.092
G01 X252.543 Y280.511
G01 X254.219 Y281.718
G01 X256.019 Y282.831
G01 X257.938 Y283.841
G01 X259.970 Y284.739
G01 X262.109 Y285.515
G01 X264.346 Y286.162
G01 X266.675 Y286.671
G01 X269.087 Y287.037
G01 X271.573 Y287.251
G01 X272.187 Y287.279
G01 X274.783 Y287.342
G01 X277.437 Y287.237
G01 X280.139 Y286.958
G01 X282.877 Y286.501
G01 X285.640 Y285.862
G01 X288.417 Y285.038
G01 X291.197 Y284.025
G01 X293.968 Y282.821
G01 X296.716 Y281.425
G01 X299.431 Y279.837
G01 X300.217 Y279.337
G01 X302.527 Y277.321
G01 X304.758 Y275.149
G01 X306.900 Y272.823
G01 X308.943 Y270.346
G01 X310.878 Y267.722
G01 X312.695 Y264.957
G01 X312.721 Y264.916
G01 X313.960 Y261.929
G01 X315.056 Y258.856
G01 X316.004 Y255.705
G01 X316.797 Y252.481
G01 X317.431 Y249.194
G01 X317.585 Y248.231
G01 X317.547 Y244.907
G01 X317.345 Y241.583
G01 X316.979 Y238.266
G01 X316.449 Y234.965
G01 X315.978 Y232.650
G01 X314.728 Y229.534
G01 X313.332 Y226.499
G01 X311.795 Y223.552
G01 X310.122 Y220.698
G01 X308.319 Y217.944
G01 X307.854 Y217.281
G01 X305.520 Y214.899
G01 X303.093 Y212.665
G01 X300.582 Y210.584
G01 X297.996 Y208.659
G01 X295.345 Y206.891
G01 X294.380 Y206.296
G01 X291.392 Y205.029
G01 X288.389 Y203.948
G01 X285.381 Y203.051
G01 X282.380 Y202.336
G01 X279.395 Y201.800
G01 X276.437 Y201.440
G01 X273.515 Y201.252
G01 X272.457 Y201.225
G01 X269.551 Y201.390
G01 X266.716 Y201.720
G01 X263.962 Y202.208
G01 X261.297 Y202.847
G01 X258.728 Y203.629
G01 X256.265 Y204.547
G01 X253.913 Y205.592
G01 X251.678 Y206.755
G01 X249.568 Y208.027
G01 X247.586 Y209.398
G01 X245.738 Y210.860
G01 X244.027 Y212.403
G01 X242.546 Y213.918
G01 X241.032 Y215.287
G01 X239.634 Y216.716
G01 X238.354 Y218.195
G01 X237.194 Y219.718
G01 X236.154 Y221.275
G01 X235.235 Y222.860
G01 X234.437 Y224.464
G01 X234.169 Y225.067
G01 X233.347 Y226.415
G01 X232.618 Y227.783
G01 X231.983 Y229.164
G01 X231.440 Y230.553
G01 X230.989 Y231.944
G01 X230.628 Y233.331
G01 X230.356 Y234.708
G01 X230.338 Y234.819
G01 X229.930 Y236.020
G01 X229.591 Y237.224
G01 X229.322 Y238.427
G01 X229.120 Y239.625
G01 X228.985 Y240.815
G01 X228.916 Y241.992
G01 X228.911 Y243.154
G01 X228.920 Y243.440
G01 X228.756 Y244.517
G01 X228.646 Y245.593
G01 X228.591 Y246.667
G01 X228.589 Y247.736
G01 X228.641 Y248.797
G01 X228.744 Y249.848
G01 X228.899 Y250.885
G01 X229.104 Y251.907
G01 X229.166 Y252.174
G01 X229.203 Y253.208
G01 X229.291 Y254.244
G01 X229.431 Y255.279
G01 X229.623 Y256.310
G01 X229.866 Y257.336
G01 X230.162 Y258.352
G01 X230.509 Y259.357
G01 X230.907 Y260.348
G01 X231.063 Y260.703
G01 X231.324 Y261.800
G01 X231.648 Y262.897
G01 X232.035 Y263.991
G01 X232.486 Y265.077
G01 X233.001 Y266.152
G01 X233.580 Y267.212
G01 X234.223 Y268.254
G01 X234.536 Y268.720
G01 X235.099 Y269.957
G01 X235.748 Y271.183
G01 X236.481 Y272.391
G01 X237.300 Y273.578
G01 X238.203 Y274.736
G01 X239.190 Y275.862
G01 X240.260 Y276.949
G01 X240.597 Y277.267
G01 X241.674 Y278.631
G01 X242.864 Y279.952
G01 X244.163 Y281.224
G01 X245.570 Y282.437
G01 X247.083 Y283.586
G01 X248.698 Y284.662
G01 X250.411 Y285.658
G01 X251.353 Y286.148
G01 X253.240 Y287.363
G01 X255.249 Y288.478
G01 X257.375 Y289.482
G01 X259.611 Y290.367
G01 X261.952 Y291.124
G01 X264.389 Y291.746
G01 X266.915 Y292.225
G01 X269.521 Y292.553
G01 X272.199 Y292.725
G01 X272.894 Y292.743
G01 X275.680 Y292.760
G01 X278.521 Y292.604
G01 X281.406 Y292.270
G01 X284.326 Y291.752
G01 X287.268 Y291.047
G01 X290.221 Y290.151
G01 X293.174 Y289.062
G01 X296.114 Y287.778
G01 X299.030 Y286.297
G01 X301.909 Y284.619
G01 X304.047 Y283.224
G01 X306.516 Y281.029
G01 X308.898 Y278.670
G01 X311.182 Y276.150
G01 X313.358 Y273.475
G01 X315.417 Y270.649
G01 X317.349 Y267.676
G01 X317.544 Y267.355
G01 X318.897 Y264.140
G01 X320.096 Y260.833
G01 X321.134 Y257.442
G01 X322.007 Y253.976
G01 X322.710 Y250.441
G01 X322.943 Y249.010
G01 X322.948 Y245.423
G01 X322.777 Y241.833
G01 X322.428 Y238.249
G01 X321.903 Y234.680
G01 X321.321 Y231.679
G01 X320.035 Y228.295
G01 X318.589 Y224.993
G01 X316.989 Y221.780
G01 X315.239 Y218.663
G01 X313.346 Y215.650
G01 X312.655 Y214.628
G01 X310.208 Y211.998
G01 X307.656 Y209.521
G01 X305.007 Y207.202
G01 X302.271 Y205.045
G01 X299.457 Y203.052
G01 X298.128 Y202.184
G01 X294.964 Y200.713
G01 X291.774 Y199.435
G01 X288.568 Y198.349
G01 X285.358 Y197.454
G01 X282.154 Y196.747
G01 X278.968 Y196.226
G01 X275.809 Y195.886
G01 X274.727 Y195.811
G01 X271.560 Y195.865
G01 X268.459 Y196.096
G01 X265.938 Y196.418
G01 X267.262 Y200.921
G01 X268.186 Y205.415
G01 X268.544 Y208.044
G01 X269.497 Y211.163
G01 X270.190 Y214.269
G01 X270.629 Y217.344
G01 X271.321 Y219.656
G01 X271.838 Y221.954
G01 X272.182 Y224.227
G01 X272.193 Y224.319
G01 X272.769 Y226.127
G01 X273.224 Y227.929
G01 X273.558 Y229.716
G01 X273.757 Y231.294
G01 X274.246 Y232.767
G01 X274.649 Y234.242
G01 X274.966 Y235.714
G01 X275.199 Y237.179
G01 X275.320 Y238.269
G01 X275.648 Y239.614
G01 X275.842 Y240.594
G01 X276.143 Y240.158
G01 X274.865 Y239.313
G01 X273.529 Y240.379
G01 X273.432 Y241.735
G01 X273.392 Y242.105
G01 X274.078 Y243.170
G01 X274.320 Y243.577
G01 X275.879 Y244.357
G01 X277.623 Y244.328
G01 X280.347 Y242.254
G01 X280.699 Y240.538
G01 X280.943 Y238.865
G01 X280.226 Y237.415
G01 X279.441 Y236.010
G01 X279.325 Y235.814
G01 X277.677 Y234.893
G01 X276.259 Y234.208
G01 X273.273 Y234.399
G01 X272.802 Y234.454
G01 X269.913 Y236.377
G01 X268.868 Y238.408
G01 X268.254 Y239.429
G01 X268.281 Y240.579
G01 X268.240 Y241.706
G01 X268.134 Y242.806
G01 X268.121 Y242.902
G01 X268.553 Y243.765
G01 X268.944 Y244.652
G01 X269.291 Y245.563
G01 X269.475 Y246.107
G01 X270.475 Y246.943
G01 X271.438 Y247.868
G01 X272.014 Y248.486
G01 X274.876 Y249.513
G01 X275.284 Y249.684
G01 X280.427 Y249.015
G01 X282.662 Y247.334
G01 X284.465 Y245.750
G01 X285.285 Y243.879
G01 X286.003 Y241.917
G01 X286.323 Y240.897
G01 X286.149 Y239.029
G01 X285.879 Y237.157
G01 X285.611 Y235.744
G01 X284.573 Y234.149
G01 X283.466 Y232.621
G01 X282.583 Y231.510
G01 X280.801 Y230.463
G01 X278.997 Y229.546
G01 X277.973 Y229.086
G01 X275.514 Y228.896
G01 X273.107 Y228.894
G01 X272.765 Y228.909
G01 X269.235 Y230.340
G01 X267.968 Y230.949
G01 X264.429 Y234.781
G01 X263.492 Y237.100
G01 X263.063 Y237.993
G01 X262.992 Y239.186
G01 X262.837 Y240.340
G01 X262.601 Y241.453
G01 X262.600 Y241.454
G01 X262.778 Y242.221
G01 X262.912 Y242.983
G01 X263.002 Y243.740
G01 X263.050 Y244.489
G01 X263.059 Y244.916
G01 X263.388 Y245.531
G01 X263.688 Y246.166
G01 X263.957 Y246.820
G01 X264.195 Y247.491
G01 X264.392 Y248.144
G01 X264.999 Y248.810
G01 X265.575 Y249.531
G01 X266.115 Y250.306
G01 X266.498 Y250.929
G01 X267.825 Y251.885
G01 X269.095 Y252.973
G01 X269.233 Y253.102
G01 X274.117 Y254.953
G01 X279.341 Y254.944
G01 X282.278 Y253.822
G01 X285.168 Y252.422
G01 X285.688 Y252.138
G01 X287.330 Y250.401
G01 X288.883 Y248.508
G01 X290.118 Y246.793
G01 X290.765 Y244.717
G01 X291.304 Y242.571
G01 X291.728 Y240.360
G01 X291.778 Y240.049
G01 X291.475 Y237.942
G01 X291.067 Y235.841
G01 X290.551 Y233.751
G01 X290.407 Y233.237
G01 X289.235 Y231.418
G01 X287.982 Y229.672
G01 X286.653 Y228.004
G01 X286.322 Y227.615
G01 X284.376 Y226.411
G01 X282.400 Y225.344
G01 X280.405 Y224.412
G01 X278.607 Y223.691
G01 X276.052 Y223.567
G01 X273.556 Y223.628
G01 X271.132 Y223.866
G01 X269.954 Y224.049
G01 X266.937 Y225.580
G01 X264.123 Y227.339
G01 X262.525 Y228.507
G01 X258.647 Y234.285
G01 X258.108 Y236.838
G01 X257.342 Y239.295
G01 X257.323 Y239.349
G01 X257.408 Y240.283
G01 X257.420 Y241.198
G01 X257.362 Y242.090
G01 X257.255 Y242.844
G01 X257.432 Y243.356
G01 X257.577 Y243.868
G01 X257.690 Y244.378
G01 X257.772 Y244.884
G01 X257.823 Y245.384
G01 X257.844 Y245.876
G01 X257.839 Y246.291
G01 X258.056 Y246.661
G01 X258.255 Y247.044
G01 X258.437 Y247.439
G01 X258.599 Y247.844
G01 X258.741 Y248.259
G01 X258.864 Y248.683
G01 X258.966 Y249.115
G01 X259.046 Y249.554
G01 X259.049 Y249.570
G01 X259.423 Y250.016
G01 X259.775 Y250.496
G01 X260.101 Y251.012
G01 X260.399 Y251.560
G01 X260.667 Y252.140
G01 X260.839 Y252.574
G01 X261.683 Y253.387
G01 X262.470 Y254.289
G01 X263.144 Y255.202
G01 X266.301 Y257.395
G01 X267.391 Y258.264
G01 X274.020 Y260.402
G01 X277.506 Y260.340
G01 X281.037 Y259.959
G01 X282.672 Y259.674
G01 X285.042 Y258.530
G01 X287.373 Y257.176
G01 X289.651 Y255.612
G01 X291.480 Y254.167
G01 X292.902 Y252.191
G01 X294.227 Y250.086
G01 X295.446 Y247.856
G01 X295.991 Y246.742
G01 X296.464 Y244.406
G01 X296.816 Y242.017
G01 X297.045 Y239.579
G01 X297.119 Y238.125
G01 X296.611 Y235.787
G01 X295.987 Y233.471
G01 X295.248 Y231.182
G01 X294.728 Y229.769
G01 X293.323 Y227.782
G01 X291.832 Y225.884
G01 X290.260 Y224.079
G01 X289.254 Y223.015
G01 X287.108 Y221.711
G01 X284.932 Y220.552
G01 X282.732 Y219.536
G01 X280.519 Y218.664
G01 X279.904 Y218.447
G01 X277.299 Y218.207
G01 X274.744 Y218.144
G01 X272.252 Y218.252
G01 X269.831 Y218.525
G01 X269.497 Y218.576
G01 X266.851 Y219.606
G01 X264.356 Y220.815
G01 X262.023 Y222.190
G01 X259.861 Y223.719
G01 X258.921 Y224.476
G01 X256.699 Y227.315
G01 X254.780 Y230.304
G01 X253.263 Y233.220
G01 X251.843 Y240.050
G01 X251.954 Y241.739
G01 X251.905 Y243.410
G01 X251.893 Y243.547
G01 X252.022 Y244.183
G01 X252.093 Y244.815
G01 X252.109 Y245.284
G01 X252.229 Y245.607
G01 X252.322 Y245.931
G01 X252.390 Y246.252
G01 X252.432 Y246.570
G01 X252.449 Y246.883
G01 X252.449 Y247.000
G01 X252.545 Y247.177
G01 X252.630 Y247.357
G01 X252.703 Y247.537
G01 X252.765 Y247.719
G01 X252.816 Y247.900
G01 X252.856 Y248.081
G01 X252.885 Y248.261
G01 X252.903 Y248.438
G01 X252.912 Y248.614
G01 X252.912 Y248.688
G01 X253.001 Y248.821
G01 X253.083 Y248.960
G01 X253.160 Y249.105
G01 X253.229 Y249.254
G01 X253.291 Y249.408
G01 X253.346 Y249.566
G01 X253.393 Y249.729
G01 X253.433 Y249.895
G01 X253.464 Y250.064
G01 X253.486 Y250.236
G01 X253.495 Y250.338
G01 X253.635 Y250.532
G01 X253.763 Y250.741
G01 X253.879 Y250.964
G01 X253.982 Y251.200
G01 X254.071 Y251.448
G01 X254.145 Y251.708
G01 X254.196 Y251.941
G01 X254.608 Y252.413
G01 X254.982 Y252.929
G01 X255.316 Y253.487
G01 X255.606 Y254.084
G01 X255.849 Y254.717
G01 X255.931 Y254.978
G01 X258.324 Y257.713
G01 X259.297 Y258.996
G01 X263.723 Y262.032
G01 X268.152 Y264.495
G01 X271.022 Y265.160
G01 X273.995 Y265.574
G01 X277.055 Y265.729
G01 X280.181 Y265.618
G01 X281.944 Y265.438
G01 X284.422 Y264.598
G01 X286.890 Y263.550
G01 X289.333 Y262.294
G01 X291.738 Y260.829
G01 X294.089 Y259.156
G01 X294.216 Y259.059
G01 X295.874 Y257.074
G01 X297.440 Y254.947
G01 X298.905 Y252.684
G01 X300.260 Y250.288
G01 X300.938 Y248.949
G01 X301.545 Y246.400
G01 X302.022 Y243.790
G01 X302.366 Y241.124
G01 X302.560 Y238.642
G01 X302.127 Y236.026
G01 X301.564 Y233.426
G01 X300.871 Y230.847
G01 X300.119 Y228.496
G01 X298.711 Y226.206
G01 X297.200 Y224.001
G01 X295.590 Y221.887
G01 X294.025 Y220.024
G01 X291.815 Y218.417
G01 X289.556 Y216.955
G01 X287.255 Y215.636
G01 X284.921 Y214.463
G01 X283.559 Y213.849
G01 X280.841 Y213.321
G01 X278.154 Y212.970
G01 X275.509 Y212.791
G01 X272.916 Y212.781
G01 X270.385 Y212.932
G01 X269.728 Y212.998
G01 X267.073 Y213.804
G01 X264.546 Y214.778
G01 X262.158 Y215.908
G01 X259.917 Y217.183
G01 X257.832 Y218.592
G01 X255.911 Y220.122
G01 X254.159 Y221.760
G01 X252.583 Y223.493
G01 X252.294 Y223.844
G01 X250.937 Y225.613
G01 X249.759 Y227.449
G01 X248.763 Y229.336
G01 X247.952 Y231.262
G01 X247.326 Y233.214
G01 X246.887 Y235.178
G01 X246.632 Y237.140
G01 X246.568 Y238.313
G01 X246.361 Y239.538
G01 X246.266 Y240.753
G01 X246.280 Y241.950
G01 X246.401 Y243.121
G01 X246.475 Y243.556
G01 X246.425 Y244.164
G01 X246.425 Y244.761
G01 X246.476 Y245.343
G01 X246.573 Y245.906
G01 X246.717 Y246.448
G01 X246.905 Y246.964
G01 X246.930 Y247.024
G01 X246.934 Y247.306
G01 X246.957 Y247.581
G01 X247.000 Y247.846
G01 X247.061 Y248.102
G01 X247.139 Y248.345
G01 X247.234 Y248.577
G01 X247.311 Y248.732
G01 X247.305 Y248.887
G01 X247.307 Y249.040
G01 X247.317 Y249.190
G01 X247.336 Y249.336
G01 X247.363 Y249.479
G01 X247.397 Y249.617
G01 X247.438 Y249.751
G01 X247.485 Y249.880
G01 X247.539 Y250.003
G01 X247.599 Y250.121
G01 X247.665 Y250.233
G01 X247.735 Y250.339
G01 X247.792 Y250.415
G01 X247.789 Y250.529
G01 X247.793 Y250.644
G01 X247.802 Y250.760
G01 X247.818 Y250.877
G01 X247.839 Y250.994
G01 X247.867 Y251.111
G01 X247.902 Y251.227
G01 X247.942 Y251.343
G01 X247.990 Y251.458
G01 X248.043 Y251.571
G01 X248.103 Y251.683
G01 X248.169 Y251.792
G01 X248.241 Y251.899
G01 X248.320 Y252.004
G01 X248.371 Y252.066
G01 X248.394 Y252.257
G01 X248.432 Y252.450
G01 X248.485 Y252.644
G01 X248.553 Y252.839
G01 X248.637 Y253.033
G01 X248.737 Y253.226
G01 X248.853 Y253.415
G01 X248.984 Y253.601
G01 X249.046 Y253.681
G01 X249.143 Y254.133
G01 X249.282 Y254.583
G01 X249.463 Y255.029
G01 X249.687 Y255.468
G01 X249.952 Y255.895
G01 X250.258 Y256.308
G01 X250.605 Y256.705
G01 X250.674 Y256.777
G01 X251.171 Y257.839
G01 X251.773 Y258.865
G01 X252.477 Y259.849
G01 X253.282 Y260.783
G01 X254.184 Y261.658
G01 X254.954 Y262.297
G01 X256.386 Y263.849
G01 X257.980 Y265.286
G01 X259.728 Y266.595
G01 X261.622 Y267.765
G01 X263.651 Y268.786
G01 X265.805 Y269.646
G01 X268.074 Y270.336
G01 X270.445 Y270.848
G01 X272.907 Y271.172
G01 X273.507 Y271.221
G01 X276.030 Y271.276
G01 X278.612 Y271.133
G01 X281.238 Y270.784
G01 X283.895 Y270.225
G01 X286.569 Y269.454
G01 X289.245 Y268.467
G01 X291.907 Y267.262
G01 X293.539 Y266.408
G01 X295.681 Y264.699
G01 X297.757 Y262.818
G01 X299.755 Y260.768
G01 X301.664 Y258.552
G01 X303.250 Y256.482
G01 X304.477 Y253.931
G01 X305.580 Y251.276
G01 X306.552 Y248.522
G01 X307.384 Y245.675
G01 X307.536 Y245.085
G01 X307.702 Y242.204
G01 X307.722 Y239.294
G01 X307.594 Y236.364
G01 X307.317 Y233.421
G01 X307.254 Y232.911
G01 X306.319 Y230.132
G01 X305.250 Y227.404
G01 X304.048 Y224.732
G01 X302.717 Y222.124
G01 X302.487 Y221.704
G01 X300.586 Y219.435
G01 X298.589 Y217.283
G01 X296.504 Y215.253
G01 X294.338 Y213.348
G01 X293.944 Y213.022
G01 X291.336 Y211.599
G01 X288.695 Y210.342
G01 X286.032 Y209.249
G01 X283.357 Y208.320
G01 X281.120 Y207.668
G01 X278.191 Y207.422
G01 X275.315 Y207.358
G01 X272.502 Y207.472
G01 X269.763 Y207.755
G01 X267.108 Y208.201
G01 X264.545 Y208.803
G01 X263.867 Y208.992
G01 X261.383 Y209.960
G01 X259.029 Y211.070
G01 X256.812 Y212.310
G01 X254.739 Y213.670
G01 X252.817 Y215.139
G01 X251.051 Y216.704
G01 X249.445 Y218.355
G01 X248.004 Y220.080
G01 X246.730 Y221.865
G01 X245.626 Y223.700
G01 X244.694 Y225.571
G01 X243.934 Y227.466
G01 X243.916 Y227.516
G01 X243.186 Y228.971
G01 X242.583 Y230.440
G01 X242.107 Y231.916
G01 X241.757 Y233.388
G01 X241.531 Y234.849
G01 X241.445 Y235.886
G01 X241.153 Y236.902
G01 X240.940 Y237.910
G01 X240.803 Y238.907
G01 X240.742 Y239.887
G01 X240.753 Y240.845
G01 X240.835 Y241.776
G01 X240.984 Y242.676
G01 X241.025 Y242.862
G01 X240.943 Y243.496
G01 X240.901 Y244.120
G01 X240.898 Y244.733
G01 X240.932 Y245.331
G01 X241.003 Y245.913
G01 X241.108 Y246.476
G01 X241.246 Y247.019
G01 X241.415 Y247.539
G01 X241.613 Y248.036
G01 X241.629 Y248.073
G01 X241.614 Y248.498
G01 X241.620 Y248.920
G01 X241.647 Y249.338
G01 X241.695 Y249.751
G01 X241.763 Y250.158
G01 X241.850 Y250.557
G01 X241.957 Y250.948
G01 X242.082 Y251.330
G01 X242.226 Y251.702
G01 X242.386 Y252.063
G01 X242.563 Y252.412
G01 X242.756 Y252.749
G01 X242.964 Y253.073
G01 X243.006 Y253.134
G01 X243.047 Y253.535
G01 X243.112 Y253.939
G01 X243.199 Y254.345
G01 X243.310 Y254.752
G01 X243.445 Y255.159
G01 X243.604 Y255.563
G01 X243.787 Y255.964
G01 X243.994 Y256.360
G01 X244.225 Y256.750
G01 X244.480 Y257.133
G01 X244.759 Y257.506
G01 X245.062 Y257.869
G01 X245.121 Y257.935
G01 X245.318 Y258.525
G01 X245.562 Y259.114
G01 X245.853 Y259.699
G01 X246.191 Y260.277
G01 X246.576 Y260.844
G01 X247.007 Y261.397
G01 X247.485 Y261.932
G01 X247.924 Y262.368
G01 X248.439 Y263.261
G01 X249.036 Y264.131
G01 X249.715 Y264.972
G01 X250.474 Y265.779
G01 X251.312 Y266.545
G01 X252.226 Y267.265
G01 X252.620 Y267.545
G01 X253.739 Y268.698
G01 X254.976 Y269.781
G01 X256.327 Y270.784
G01 X257.788 Y271.699
G01 X259.354 Y272.518
G01 X261.017 Y273.232
G01 X261.326 Y273.349
G01 X263.298 Y274.302
G01 X265.390 Y275.114
G01 X267.591 Y275.775
G01 X269.892 Y276.277
G01 X272.282 Y276.613
G01 X274.750 Y276.773
G01 X277.284 Y276.753
G01 X279.873 Y276.545
G01 X282.505 Y276.145
G01 X285.165 Y275.549
G01 X287.843 Y274.751
G01 X290.523 Y273.750
G01 X293.192 Y272.544
G01 X295.837 Y271.130
G01 X298.443 Y269.510
G01 X299.291 Y268.931
G01 X301.428 Y266.906
G01 X303.482 Y264.717
G01 X305.442 Y262.365
G01 X307.297 Y259.856
G01 X309.036 Y257.194
G01 X309.234 Y256.869
G01 X310.348 Y254.010
G01 X311.322 Y251.059
G01 X312.149 Y248.022
G01 X312.824 Y244.906
G01 X313.333 Y241.781
G01 X313.183 Y238.624
G01 X312.875 Y235.462
G01 X312.408 Y232.303
G01 X311.782 Y229.155
G01 X311.507 Y227.981
G01 X310.202 Y225.052
G01 X308.758 Y222.198
G01 X307.180 Y219.425
G01 X305.471 Y216.740
G01 X304.811 Y215.775
G01 X302.517 Y213.508
G01 X300.134 Y211.383
G01 X297.670 Y209.403
G01 X295.134 Y207.570
G01 X292.640 Y205.952
G01 X289.666 Y204.781
G01 X286.682 Y203.793
G01 X283.698 Y202.987
G01 X280.725 Y202.360
G01 X277.773 Y201.910
G01 X275.815 Y201.705
G01 X272.762 Y201.876
G01 X269.789 Y202.227
G01 X266.907 Y202.750
G01 X264.126 Y203.437
G01 X261.453 Y204.280
G01 X258.898 Y205.270
G01 X256.469 Y206.397
G01 X254.172 Y207.650
G01 X252.014 Y209.021
G01 X250.001 Y210.497
G01 X248.137 Y212.069
G01 X246.428 Y213.724
G01 X244.876 Y215.453
G01 X243.485 Y217.242
G01 X242.256 Y219.082
G01 X241.191 Y220.959
G01 X240.963 Y221.408
G01 X239.973 Y222.969
G01 X239.113 Y224.556
G01 X238.384 Y226.160
G01 X237.785 Y227.772
G01 X237.315 Y229.382
G01 X236.972 Y230.983
G01 X236.955 Y231.080
G01 X236.500 Y232.342
G01 X236.136 Y233.601
G01 X235.862 Y234.852
G01 X235.676 Y236.089
G01 X235.577 Y237.306
G01 X235.560 Y238.498
G01 X235.625 Y239.661
G01 X235.630 Y239.713
G01 X235.483 Y240.650
G01 X235.393 Y241.576
G01 X235.357 Y242.487
G01 X235.376 Y243.382
G01 X235.445 Y244.256
G01 X235.565 Y245.107
G01 X235.732 Y245.933
G01 X235.935 Y246.698
G01 X235.924 Y247.416
G01 X235.950 Y248.128
G01 X236.011 Y248.831
G01 X236.107 Y249.524
G01 X236.237 Y250.204
G01 X236.399 Y250.870
G01 X236.594 Y251.521
G01 X236.820 Y252.155
G01 X237.075 Y252.771
G01 X237.358 Y253.366
G01 X237.441 Y253.525
G01 X237.536 Y254.168
G01 X237.665 Y254.810
G01 X237.827 Y255.449
G01 X238.023 Y256.084
G01 X238.251 Y256.712
G01 X238.513 Y257.333
G01 X238.807 Y257.944
G01 X239.134 Y258.544
G01 X239.493 Y259.131
G01 X239.883 Y259.703
G01 X240.098 Y259.992
G01 X240.361 Y260.733
G01 X240.673 Y261.471
G01 X241.035 Y262.204
G01 X241.446 Y262.928
G01 X241.908 Y263.640
G01 X242.420 Y264.338
G01 X242.981 Y265.017
G01 X243.590 Y265.675
G01 X243.824 Y265.909
G01 X244.389 Y266.863
G01 X245.033 Y267.798
G01 X245.756 Y268.709
G01 X246.557 Y269.590
G01 X247.435 Y270.436
G01 X248.387 Y271.242
G01 X249.412 Y272.001
G01 X249.809 Y272.269
G01 X250.948 Y273.381
G01 X252.195 Y274.432
G01 X253.547 Y275.414
G01 X255.001 Y276.320
G01 X256.552 Y277.142
G01 X258.195 Y277.872
G01 X258.563 Y278.017
G01 X260.455 Y279.029
G01 X262.465 Y279.918
G01 X264.587 Y280.677
G01 X266.812 Y281.296
G01 X269.130 Y281.768
G01 X271.534 Y282.084
G01 X274.013 Y282.237
G01 X276.556 Y282.222
G01 X277.178 Y282.192
G01 X279.848 Y282.025
G01 X282.564 Y281.670
G01 X285.315 Y281.123
G01 X288.087 Y280.380
G01 X290.868 Y279.437
G01 X293.645 Y278.292
G01 X296.405 Y276.943
G01 X299.135 Y275.390
G01 X301.820 Y273.632
G01 X304.367 Y271.733
G01 X306.545 Y269.444
G01 X308.626 Y266.992
G01 X310.599 Y264.383
G01 X312.455 Y261.619
G01 X314.183 Y258.708
G01 X315.492 Y256.224
G01 X316.497 Y253.039
G01 X317.344 Y249.770
G01 X318.030 Y246.425
G01 X318.547 Y243.012
G01 X318.777 Y240.911
G01 X318.546 Y237.493
G01 X318.144 Y234.076
G01 X317.571 Y230.668
G01 X316.828 Y227.278
G01 X316.349 Y225.437
G01 X314.892 Y222.284
G01 X313.286 Y219.215
G01 X311.536 Y216.237
G01 X309.646 Y213.356
G01 X308.568 Y211.842
G01 X306.076 Y209.411
G01 X303.489 Y207.132
G01 X300.813 Y205.008
G01 X298.060 Y203.043
G01 X295.237 Y201.238
G01 X294.934 Y201.056
G01 X291.752 Y199.784
G01 X288.555 Y198.704
G01 X285.354 Y197.815
G01 X282.160 Y197.115
G01 X278.984 Y196.599
G01 X276.433 Y196.316
G01 X273.187 Y196.425
G01 X270.016 Y196.720
G01 X266.931 Y197.194
G01 X263.942 Y197.839
G01 X261.058 Y198.647
G01 X258.288 Y199.609
G01 X255.639 Y200.715
G01 X253.119 Y201.956
G01 X250.735 Y203.323
G01 X248.493 Y204.804
G01 X246.397 Y206.389
G01 X244.453 Y208.067
G01 X242.665 Y209.828
G01 X241.036 Y211.660
G01 X239.567 Y213.551
G01 X238.262 Y215.491
G01 X237.747 Y216.345
G01 X236.537 Y218.001
G01 X235.459 Y219.692
G01 X234.513 Y221.410
G01 X233.700 Y223.145
G01 X233.019 Y224.888
G01 X232.467 Y226.632
G01 X232.044 Y228.367
G01 X231.919 Y229.014
G01 X231.397 Y230.437
G01 X230.970 Y231.860
G01 X230.637 Y233.277
G01 X230.395 Y234.682
G01 X230.244 Y236.069
G01 X230.179 Y237.432
G01 X230.200 Y238.768
G01 X230.236 Y239.355
G01 X230.077 Y240.499
G01 X229.981 Y241.633
G01 X229.948 Y242.753
G01 X229.976 Y243.856
G01 X230.063 Y244.939
G01 X230.207 Y245.997
G01 X230.406 Y247.030
G01 X230.657 Y248.033
G01 X230.671 Y248.081
G01 X230.703 Y249.037
G01 X230.782 Y249.985
G01 X230.907 Y250.923
G01 X231.078 Y251.849
G01 X231.294 Y252.760
G01 X231.553 Y253.655
G01 X231.855 Y254.530
G01 X232.197 Y255.385
G01 X232.580 Y256.218
G01 X232.756 Y256.566
G01 X232.957 Y257.466
G01 X233.207 Y258.362
G01 X233.503 Y259.251
G01 X233.846 Y260.131
G01 X234.237 Y261.000
G01 X234.674 Y261.854
G01 X235.157 Y262.692
G01 X235.685 Y263.511
G01 X236.259 Y264.308
G01 X236.409 Y264.503
G01 X236.856 Y265.484
G01 X237.366 Y266.455
G01 X237.942 Y267.412
G01 X238.581 Y268.352
G01 X239.284 Y269.270
G01 X240.050 Y270.162
G01 X240.878 Y271.025
G01 X241.494 Y271.608
G01 X242.317 Y272.731
G01 X243.230 Y273.824
G01 X244.233 Y274.880
G01 X245.324 Y275.893
G01 X246.500 Y276.858
G01 X247.760 Y277.767
G01 X249.101 Y278.616
G01 X249.220 Y278.686
G01 X250.654 Y279.862
G01 X252.202 Y280.963
G01 X253.859 Y281.982
G01 X255.621 Y282.910
G01 X257.483 Y283.739
G01 X259.439 Y284.462
G01 X261.484 Y285.072
G01 X261.604 Y285.103
G01 X263.874 Y285.946
G01 X266.253 Y286.646
G01 X268.732 Y287.197
G01 X271.303 Y287.589
G01 X273.956 Y287.815
G01 X276.680 Y287.868
G01 X279.465 Y287.741
G01 X282.300 Y287.430
G01 X285.172 Y286.929
G01 X288.071 Y286.233
G01 X289.181 Y285.915
G01 X292.065 Y284.920
G01 X294.942 Y283.725
G01 X297.801 Y282.331
G01 X300.628 Y280.734
G01 X303.411 Y278.937
G01 X306.136 Y276.938
G01 X308.790 Y274.741
G01 X311.361 Y272.346
G01 X312.513 Y271.177
G01 X314.553 Y268.391
G01 X316.468 Y265.455
G01 X318.248 Y262.374
G01 X319.882 Y259.156
G01 X321.363 Y255.807
G01 X321.881 Y254.507
G01 X322.690 Y250.984
G01 X323.324 Y247.392
G01 X323.780 Y243.740
G01 X324.052 Y240.038
G01 X324.134 Y237.249
G01 X323.614 Y233.583
G01 X322.913 Y229.938
G01 X322.031 Y226.322
G01 X320.969 Y222.744
G01 X320.135 Y220.308
G01 X318.340 Y217.025
G01 X316.393 Y213.846
G01 X314.299 Y210.778
G01 X312.064 Y207.828
G01 X310.434 Y205.854
G01 X307.610 Y203.415
G01 X304.694 Y201.146
G01 X301.695 Y199.049
G01 X298.624 Y197.127
G01 X295.489 Y195.383
G01 X294.700 Y194.976
G01 X291.244 Y193.807
G01 X287.782 Y192.842
G01 X284.326 Y192.079
G01 X280.888 Y191.514
G01 X277.479 Y191.145
G01 X274.109 Y190.968
G01 X272.511 Y190.949
G01 X269.143 Y191.275
G01 X265.863 Y191.787
G01 X262.679 Y192.476
G01 X259.602 Y193.334
G01 X258.741 Y193.610
G01 X260.734 Y197.818
G01 X262.337 Y202.076
G01 X262.572 Y202.808
G01 X264.115 Y205.849
G01 X265.392 Y208.923
G01 X266.403 Y212.005
G01 X267.543 Y214.290
G01 X268.500 Y216.592
G01 X269.275 Y218.899
G01 X269.276 Y218.904
G01 X270.213 Y220.707
G01 X271.021 Y222.525
G01 X271.700 Y224.351
G01 X272.150 Y225.802
G01 X272.940 Y227.285
G01 X273.639 Y228.785
G01 X274.248 Y230.299
G01 X274.765 Y231.821
G01 X275.023 Y232.701
G01 X275.626 Y234.083
G01 X275.981 Y235.000
G01 X276.202 Y234.517
G01 X274.797 Y233.907
G01 X273.666 Y235.189
G01 X273.815 Y236.675
G01 X273.831 Y236.913
G01 X274.774 Y237.938
G01 X275.000 Y238.201
G01 X276.671 Y238.698
G01 X278.384 Y238.367
G01 X279.799 Y237.345
G01 X280.663 Y235.162
G01 X281.008 Y234.132
G01 X280.466 Y232.472
G01 X279.858 Y230.881
G01 X278.370 Y229.805
G01 X277.008 Y228.924
G01 X274.554 Y228.821
G01 X273.546 Y228.834
G01 X270.515 Y230.520
G01 X268.663 Y233.457
G01 X268.582 Y235.090
G01 X268.389 Y236.674
G01 X268.349 Y236.918
G01 X268.797 Y237.944
G01 X269.189 Y238.983
G01 X269.525 Y240.030
G01 X269.566 Y240.175
G01 X270.444 Y240.962
G01 X271.290 Y241.811
G01 X272.027 Y242.635
G01 X273.877 Y243.300
G01 X275.266 Y243.911
G01 X278.748 Y243.847
G01 X283.325 Y241.403
G01 X284.760 Y239.188
G01 X285.989 Y236.945
G01 X286.121 Y234.852
G01 X286.133 Y232.716
G01 X286.099 Y231.747
G01 X285.259 Y229.941
G01 X284.328 Y228.174
G01 X283.719 Y227.120
G01 X282.080 Y225.851
G01 X280.399 Y224.687
G01 X279.476 Y224.102
G01 X277.188 Y223.640
G01 X274.927 Y223.337
G01 X274.332 Y223.283
G01 X271.397 Y224.056
G01 X269.334 Y224.761
G01 X265.411 Y228.195
G01 X263.223 Y232.930
G01 X263.136 Y234.661
G01 X262.913 Y236.339
G01 X262.901 Y236.407
G01 X263.161 Y237.430
G01 X263.352 Y238.446
G01 X263.476 Y239.449
G01 X263.507 Y239.845
G01 X263.918 Y240.569
G01 X264.291 Y241.308
G01 X264.624 Y242.060
G01 X264.919 Y242.825
G01 X264.984 Y243.010
G01 X265.598 Y243.636
G01 X266.185 Y244.305
G01 X266.744 Y245.017
G01 X267.219 Y245.693
G01 X268.296 Y246.367
G01 X269.346 Y247.137
G01 X270.057 Y247.729
G01 X272.915 Y248.539
G01 X275.030 Y249.326
G01 X280.245 Y249.035
G01 X284.025 Y247.238
G01 X286.421 Y245.872
G01 X288.155 Y243.766
G01 X289.765 Y241.481
G01 X290.522 Y240.271
G01 X291.072 Y237.979
G01 X291.493 Y235.610
G01 X291.754 Y233.436
G01 X291.280 Y231.231
G01 X290.690 Y229.032
G01 X289.982 Y226.846
G01 X289.941 Y226.730
G01 X288.574 Y224.913
G01 X287.125 Y223.175
G01 X285.599 Y221.517
G01 X285.484 Y221.398
G01 X283.411 Y220.249
G01 X281.313 Y219.233
G01 X279.230 Y218.363
G01 X276.623 Y218.185
G01 X274.071 Y218.184
G01 X271.586 Y218.354
G01 X270.572 Y218.473
G01 X267.602 Y219.894
G01 X264.824 Y221.525
G01 X263.041 Y222.753
G01 X259.051 Y228.454
G01 X257.644 Y233.495
G01 X257.652 Y235.404
G01 X257.527 Y236.989
G01 X257.775 Y237.963
G01 X257.947 Y238.929
G01 X258.044 Y239.882
G01 X258.067 Y240.443
G01 X258.362 Y241.026
G01 X258.620 Y241.615
G01 X258.841 Y242.207
G01 X259.024 Y242.800
G01 X259.172 Y243.392
G01 X259.241 Y243.736
G01 X259.579 Y244.171
G01 X259.896 Y244.625
G01 X260.192 Y245.096
G01 X260.465 Y245.583
G01 X260.715 Y246.085
G01 X260.940 Y246.601
G01 X261.002 Y246.756
G01 X261.509 Y247.212
G01 X261.997 Y247.710
G01 X262.462 Y248.250
G01 X262.903 Y248.830
G01 X263.286 Y249.402
G01 X264.252 Y250.059
G01 X265.183 Y250.809
G01 X266.013 Y251.590
G01 X268.750 Y252.797
G01 X270.727 Y253.868
G01 X277.626 Y254.823
G01 X281.735 Y253.947
G01 X285.815 Y252.679
G01 X286.021 Y252.604
G01 X288.444 Y250.887
G01 X290.779 Y248.939
G01 X292.716 Y247.070
G01 X294.044 Y244.798
G01 X295.248 Y242.389
G01 X296.319 Y239.849
G01 X296.537 Y239.269
G01 X296.800 Y236.759
G01 X296.927 Y234.198
G01 X296.913 Y231.593
G01 X296.870 Y230.585
G01 X296.101 Y228.195
G01 X295.210 Y225.834
G01 X294.198 Y223.508
G01 X293.710 Y222.488
G01 X292.040 Y220.564
G01 X290.286 Y218.737
G01 X288.455 Y217.011
G01 X287.623 Y216.281
G01 X285.280 Y215.112
G01 X282.914 Y214.090
G01 X280.535 Y213.214
G01 X279.607 Y212.913
G01 X276.857 Y212.746
G01 X274.164 Y212.756
G01 X271.539 Y212.938
G01 X269.205 Y213.249
G01 X266.401 Y214.467
G01 X263.766 Y215.867
G01 X261.310 Y217.435
G01 X259.043 Y219.156
G01 X258.767 Y219.386
G01 X256.384 Y222.713
G01 X254.351 Y226.192
G01 X253.334 Y228.270
G01 X252.102 Y235.137
G01 X252.423 Y237.374
G01 X252.530 Y239.601
G01 X252.518 Y240.361
G01 X252.818 Y241.037
G01 X253.058 Y241.718
G01 X253.238 Y242.400
G01 X253.360 Y243.078
G01 X253.423 Y243.739
G01 X253.611 Y244.102
G01 X253.772 Y244.468
G01 X253.907 Y244.835
G01 X254.015 Y245.201
G01 X254.056 Y245.371
G01 X254.223 Y245.632
G01 X254.374 Y245.899
G01 X254.509 Y246.171
G01 X254.628 Y246.445
G01 X254.731 Y246.722
G01 X254.805 Y246.952
G01 X254.974 Y247.177
G01 X255.132 Y247.412
G01 X255.279 Y247.655
G01 X255.415 Y247.906
G01 X255.538 Y248.166
G01 X255.649 Y248.432
G01 X255.666 Y248.475
G01 X255.950 Y248.708
G01 X256.225 Y248.966
G01 X256.488 Y249.247
G01 X256.738 Y249.551
G01 X256.973 Y249.879
G01 X257.192 Y250.228
G01 X257.392 Y250.598
G01 X257.574 Y250.989
G01 X257.704 Y251.318
G01 X258.379 Y251.860
G01 X259.016 Y252.472
G01 X259.612 Y253.150
G01 X260.127 Y253.841
G01 X262.592 Y255.496
G01 X264.368 Y256.920
G01 X272.558 Y259.873
G01 X276.255 Y259.987
G01 X280.009 Y259.758
G01 X283.796 Y259.183
G01 X284.660 Y259.003
G01 X287.335 Y257.765
G01 X289.967 Y256.284
G01 X292.538 Y254.564
G01 X294.993 Y252.637
G01 X296.672 Y250.442
G01 X298.240 Y248.088
G01 X299.686 Y245.581
G01 X300.999 Y242.928
G01 X301.296 Y242.262
G01 X301.813 Y239.562
G01 X302.186 Y236.792
G01 X302.411 Y233.961
G01 X302.477 Y231.896
G01 X301.897 Y229.194
G01 X301.177 Y226.506
G01 X300.318 Y223.838
G01 X299.588 Y221.870
G01 X298.003 Y219.562
G01 X296.312 Y217.342
G01 X294.518 Y215.215
G01 X293.112 Y213.686
G01 X290.747 Y212.108
G01 X288.332 Y210.674
G01 X285.875 Y209.385
G01 X284.039 Y208.526
G01 X281.196 Y207.940
G01 X278.379 Y207.530
G01 X275.599 Y207.294
G01 X272.865 Y207.225
G01 X271.954 Y207.239
G01 X269.061 Y207.912
G01 X266.287 Y208.761
G01 X263.645 Y209.778
G01 X261.143 Y210.950
G01 X258.993 Y212.144
G01 X256.670 Y214.189
G01 X254.570 Y216.366
G01 X252.701 Y218.656
G01 X251.068 Y221.042
G01 X249.677 Y223.507
G01 X248.529 Y226.033
G01 X247.628 Y228.602
G01 X247.470 Y229.147
G01 X247.042 Y232.749
G01 X246.960 Y236.334
G01 X247.221 Y239.878
G01 X247.819 Y243.355
G01 X248.625 Y246.352
G01 X249.297 Y247.968
G01 X249.401 Y247.949
G01 X249.505 Y247.935
G01 X249.610 Y247.926
G01 X249.714 Y247.922
G01 X249.817 Y247.924
G01 X249.920 Y247.931
G01 X250.021 Y247.942
G01 X250.121 Y247.959
G01 X250.220 Y247.980
G01 X250.317 Y248.007
G01 X250.412 Y248.038
G01 X250.504 Y248.073
G01 X250.594 Y248.112
G01 X250.681 Y248.156
G01 X250.766 Y248.204
G01 X250.847 Y248.256
G01 X250.926 Y248.311
G01 X251.000 Y248.369
G01 X251.072 Y248.431
G01 X251.140 Y248.496
G01 X251.204 Y248.564
G01 X251.264 Y248.635
G01 X251.320 Y248.707
G01 X251.372 Y248.782
G01 X251.419 Y248.859
G01 X251.463 Y248.938
G01 X251.502 Y249.018
G01 X251.537 Y249.100
G01 X251.568 Y249.183
G01 X251.594 Y249.266
G01 X251.616 Y249.350
G01 X251.634 Y249.434
G01 X251.647 Y249.519
G01 X251.656 Y249.603
G01 X251.660 Y249.688
G01 X251.660 Y249.771
G01 X251.657 Y249.854
G01 X251.649 Y249.936
G01 X251.637 Y250.017
G01 X251.621 Y250.096
G01 X251.601 Y250.174
G01 X251.577 Y250.251
G01 X251.550 Y250.325
G01 X251.520 Y250.397
G01 X251.486 Y250.468
G01 X251.449 Y250.535
G01 X251.409 Y250.601
G01 X251.366 Y250.663
G01 X251.320 Y250.723
G01 X251.272 Y250.780
G01 X251.221 Y250.834
G01 X251.168 Y250.885
G01 X251.113 Y250.933
G01 X251.056 Y250.978
G01 X250.998 Y251.019
G01 X250.938 Y251.057
G01 X250.919 Y251.068
G01 X255.194 Y256.592
G01 X257.436 Y258.539
G01 X259.876 Y260.276
G01 X262.500 Y261.790
G01 X265.292 Y263.066
G01 X268.233 Y264.092
G01 X271.306 Y264.856
G01 X274.492 Y265.349
G01 X277.772 Y265.561
G01 X279.000 Y265.567
G01 X281.805 Y265.111
G01 X284.630 Y264.416
G01 X287.459 Y263.478
G01 X290.274 Y262.295
G01 X293.058 Y260.866
G01 X295.199 Y259.581
G01 X297.343 Y257.630
G01 X299.401 Y255.491
G01 X301.359 Y253.168
G01 X303.203 Y250.667
G01 X304.263 Y249.062
G01 X305.367 Y246.320
G01 X306.329 Y243.467
G01 X307.142 Y240.512
G01 X307.797 Y237.461
G01 X307.806 Y237.413
G01 X307.774 Y234.415
G01 X307.586 Y231.391
G01 X307.238 Y228.347
G01 X306.729 Y225.294
G01 X306.728 Y225.285
G01 X305.557 Y222.476
G01 X304.247 Y219.723
G01 X302.800 Y217.033
G01 X301.225 Y214.420
G01 X299.080 Y212.209
G01 X296.842 Y210.123
G01 X294.518 Y208.165
G01 X292.116 Y206.337
G01 X292.115 Y206.337
G01 X289.277 Y205.060
G01 X286.417 Y203.955
G01 X283.545 Y203.020
G01 X280.670 Y202.255
G01 X278.953 Y201.877
G01 X275.838 Y201.853
G01 X272.793 Y202.015
G01 X269.827 Y202.357
G01 X266.952 Y202.871
G01 X264.175 Y203.549
G01 X263.460 Y203.754
G01 X260.728 Y205.022
G01 X258.154 Y206.442
G01 X255.746 Y208.002
G01 X253.511 Y209.689
G01 X251.456 Y211.489
G01 X249.586 Y213.389
G01 X247.907 Y215.375
G01 X246.421 Y217.433
G01 X245.131 Y219.549
G01 X244.040 Y221.709
G01 X243.147 Y223.898
G01 X242.455 Y226.101
G01 X241.960 Y228.305
G01 X241.662 Y230.496
G01 X241.614 Y231.101
G01 X241.287 Y232.708
G01 X241.097 Y234.298
G01 X241.040 Y235.863
G01 X241.114 Y237.393
G01 X241.314 Y238.879
G01 X241.513 Y239.828
G01 X241.516 Y240.791
G01 X241.593 Y241.728
G01 X241.739 Y242.634
G01 X241.953 Y243.505
G01 X242.231 Y244.335
G01 X242.502 Y244.979
G01 X242.568 Y245.535
G01 X242.670 Y246.072
G01 X242.806 Y246.588
G01 X242.973 Y247.081
G01 X243.171 Y247.549
G01 X243.398 Y247.990
G01 X243.587 Y248.305
G01 X243.634 Y248.648
G01 X243.700 Y248.982
G01 X243.782 Y249.307
G01 X243.881 Y249.620
G01 X243.995 Y249.923
G01 X244.124 Y250.213
G01 X244.266 Y250.490
G01 X244.422 Y250.754
G01 X244.589 Y251.004
G01 X244.767 Y251.239
G01 X244.955 Y251.460
G01 X244.998 Y251.507
G01 X245.051 Y251.761
G01 X245.116 Y252.012
G01 X245.195 Y252.262
