;  Created by Sandify
;  https://sandify.org
;  Version: 0.2.6
;
;  Machine type: Rectangular
;    Min X (mm): 0
;    Max X (mm): 500
;    Min Y (mm): 0
;    Max Y (mm): 500
;  Content type: shape
;  Layer:
;    Shape: FileImport
;    Name: secretgarden.thr
;    From file:: secretgarden.thr
;    Aspect Ratio: true
;    Comments: 
;    Visible: true
;    Initial width: 10
;    Initial height: 10
;    X offset: 0
;    Y offset: 0
;    Rotate (degrees): 0
;    Reverse path: false
;    Fine tuning:
;      Connect to next layer: line
;      Draw portion of path (%): 100
;      Backtrack at end (%): 0
;      Rotate starting point (%): 0
;  Reverse export path: false
;
; File name: 'secretgarden'
; File type: gcode
;

G01 X250.000 Y250.000
G01 X249.999 Y250.025
G01 X249.995 Y250.049
G01 X249.989 Y250.073
G01 X249.981 Y250.097
G01 X249.970 Y250.120
G01 X249.957 Y250.142
G01 X249.942 Y250.163
G01 X249.924 Y250.182
G01 X249.905 Y250.201
G01 X249.884 Y250.218
G01 X249.860 Y250.233
G01 X249.835 Y250.246
G01 X249.809 Y250.258
G01 X249.781 Y250.267
G01 X249.751 Y250.274
G01 X249.721 Y250.279
G01 X249.689 Y250.282
G01 X249.657 Y250.282
G01 X249.623 Y250.279
G01 X249.590 Y250.274
G01 X249.555 Y250.266
G01 X249.521 Y250.256
G01 X249.487 Y250.243
G01 X249.453 Y250.227
G01 X249.419 Y250.208
G01 X249.386 Y250.186
G01 X249.354 Y250.162
G01 X249.322 Y250.135
G01 X249.292 Y250.105
G01 X249.263 Y250.073
G01 X249.236 Y250.038
G01 X249.210 Y250.000
G01 X249.186 Y249.960
G01 X249.165 Y249.918
G01 X249.145 Y249.873
G01 X249.129 Y249.827
G01 X249.114 Y249.778
G01 X249.102 Y249.728
G01 X249.094 Y249.676
G01 X249.088 Y249.622
G01 X249.085 Y249.567
G01 X249.086 Y249.511
G01 X249.090 Y249.454
G01 X249.097 Y249.397
G01 X249.108 Y249.338
G01 X249.122 Y249.280
G01 X249.140 Y249.221
G01 X249.162 Y249.162
G01 X249.188 Y249.104
G01 X249.217 Y249.046
G01 X249.250 Y248.989
G01 X249.287 Y248.933
G01 X249.327 Y248.878
G01 X249.372 Y248.825
G01 X249.420 Y248.773
G01 X249.471 Y248.723
G01 X249.526 Y248.675
G01 X249.584 Y248.630
G01 X249.646 Y248.587
G01 X249.711 Y248.548
G01 X249.779 Y248.511
G01 X249.850 Y248.477
G01 X249.924 Y248.447
G01 X250.000 Y248.420
G01 X250.079 Y248.398
G01 X250.160 Y248.379
G01 X250.243 Y248.364
G01 X250.327 Y248.354
G01 X250.414 Y248.348
G01 X250.502 Y248.347
G01 X250.590 Y248.350
G01 X250.680 Y248.358
G01 X250.770 Y248.371
G01 X250.861 Y248.389
G01 X250.952 Y248.412
G01 X251.042 Y248.440
G01 X251.132 Y248.473
G01 X251.221 Y248.512
G01 X251.309 Y248.555
G01 X251.396 Y248.604
G01 X251.481 Y248.657
G01 X251.565 Y248.716
G01 X251.645 Y248.780
G01 X251.724 Y248.848
G01 X251.800 Y248.921
G01 X251.872 Y248.999
G01 X251.941 Y249.082
G01 X252.007 Y249.169
G01 X252.068 Y249.260
G01 X252.126 Y249.355
G01 X252.179 Y249.454
G01 X252.227 Y249.557
G01 X252.271 Y249.663
G01 X252.309 Y249.773
G01 X252.342 Y249.885
G01 X252.370 Y250.000
G01 X252.391 Y250.117
G01 X252.407 Y250.237
G01 X252.417 Y250.359
G01 X252.421 Y250.482
G01 X252.418 Y250.606
G01 X252.409 Y250.731
G01 X252.394 Y250.856
G01 X252.372 Y250.982
G01 X252.343 Y251.108
G01 X252.307 Y251.233
G01 X252.265 Y251.358
G01 X252.216 Y251.481
G01 X252.161 Y251.603
G01 X252.099 Y251.722
G01 X252.030 Y251.840
G01 X251.955 Y251.955
G01 X251.873 Y252.067
G01 X251.785 Y252.175
G01 X251.691 Y252.280
G01 X251.591 Y252.381
G01 X251.485 Y252.477
G01 X251.373 Y252.569
G01 X251.256 Y252.655
G01 X251.133 Y252.736
G01 X251.006 Y252.812
G01 X250.874 Y252.882
G01 X250.738 Y252.945
G01 X250.597 Y253.002
G01 X250.453 Y253.052
G01 X250.305 Y253.095
G01 X250.154 Y253.131
G01 X250.000 Y253.159
G01 X249.844 Y253.180
G01 X249.685 Y253.193
G01 X249.526 Y253.198
G01 X249.364 Y253.195
G01 X249.202 Y253.184
G01 X249.040 Y253.165
G01 X248.877 Y253.137
G01 X248.715 Y253.101
G01 X248.554 Y253.057
G01 X248.394 Y253.004
G01 X248.236 Y252.943
G01 X248.080 Y252.873
G01 X247.927 Y252.795
G01 X247.777 Y252.709
G01 X247.630 Y252.615
G01 X247.487 Y252.513
G01 X247.348 Y252.403
G01 X247.214 Y252.286
G01 X247.086 Y252.161
G01 X246.963 Y252.030
G01 X246.846 Y251.891
G01 X246.735 Y251.745
G01 X246.631 Y251.594
G01 X246.534 Y251.436
G01 X246.444 Y251.272
G01 X246.363 Y251.103
G01 X246.289 Y250.930
G01 X246.224 Y250.751
G01 X246.167 Y250.569
G01 X246.119 Y250.382
G01 X246.080 Y250.193
G01 X246.051 Y250.000
G01 X246.031 Y249.805
G01 X246.021 Y249.608
G01 X246.020 Y249.410
G01 X246.030 Y249.210
G01 X246.049 Y249.010
G01 X246.079 Y248.811
G01 X246.119 Y248.611
G01 X246.169 Y248.413
G01 X246.229 Y248.217
G01 X246.299 Y248.022
G01 X246.380 Y247.830
G01 X246.470 Y247.641
G01 X246.570 Y247.456
G01 X246.680 Y247.275
G01 X246.800 Y247.099
G01 X246.928 Y246.928
G01 X247.066 Y246.763
G01 X247.213 Y246.604
G01 X247.368 Y246.451
G01 X247.532 Y246.306
G01 X247.703 Y246.168
G01 X247.882 Y246.038
G01 X248.069 Y245.917
G01 X248.262 Y245.804
G01 X248.462 Y245.701
G01 X248.667 Y245.607
G01 X248.878 Y245.523
G01 X249.095 Y245.449
G01 X249.316 Y245.385
G01 X249.540 Y245.333
G01 X249.769 Y245.291
G01 X250.000 Y245.261
G01 X250.234 Y245.242
G01 X250.469 Y245.235
G01 X250.706 Y245.239
G01 X250.944 Y245.255
G01 X251.181 Y245.283
G01 X251.419 Y245.323
G01 X251.655 Y245.375
G01 X251.889 Y245.439
G01 X252.121 Y245.515
G01 X252.350 Y245.603
G01 X252.576 Y245.702
G01 X252.797 Y245.813
G01 X253.014 Y245.936
G01 X253.226 Y246.070
G01 X253.431 Y246.214
G01 X253.630 Y246.370
G01 X253.822 Y246.536
G01 X254.007 Y246.712
G01 X254.183 Y246.898
G01 X254.351 Y247.093
G01 X254.509 Y247.297
G01 X254.658 Y247.510
G01 X254.797 Y247.731
G01 X254.926 Y247.960
G01 X255.043 Y248.196
G01 X255.149 Y248.438
G01 X255.243 Y248.687
G01 X255.326 Y248.941
G01 X255.396 Y249.200
G01 X255.453 Y249.463
G01 X255.498 Y249.730
G01 X255.529 Y250.000
G01 X255.547 Y250.273
G01 X255.551 Y250.547
G01 X255.542 Y250.822
G01 X255.519 Y251.098
G01 X255.483 Y251.373
G01 X255.433 Y251.648
G01 X255.368 Y251.921
G01 X255.290 Y252.191
G01 X255.199 Y252.459
G01 X255.094 Y252.723
G01 X254.975 Y252.982
G01 X254.843 Y253.236
G01 X254.699 Y253.485
G01 X254.541 Y253.727
G01 X254.371 Y253.962
G01 X254.189 Y254.189
G01 X253.995 Y254.408
G01 X253.789 Y254.617
G01 X253.573 Y254.818
G01 X253.346 Y255.008
G01 X253.109 Y255.187
G01 X252.862 Y255.355
G01 X252.607 Y255.511
G01 X252.343 Y255.655
G01 X252.071 Y255.787
G01 X251.791 Y255.905
G01 X251.505 Y256.010
G01 X251.213 Y256.100
G01 X250.916 Y256.177
G01 X250.615 Y256.239
G01 X250.309 Y256.286
G01 X250.000 Y256.319
G01 X249.689 Y256.336
G01 X249.376 Y256.337
G01 X249.062 Y256.324
G01 X248.748 Y256.294
G01 X248.435 Y256.249
G01 X248.123 Y256.188
G01 X247.813 Y256.112
G01 X247.506 Y256.020
G01 X247.203 Y255.913
G01 X246.905 Y255.790
G01 X246.612 Y255.653
G01 X246.325 Y255.500
G01 X246.045 Y255.333
G01 X245.772 Y255.152
G01 X245.508 Y254.956
G01 X245.253 Y254.747
G01 X245.007 Y254.525
G01 X244.772 Y254.290
G01 X244.548 Y254.043
G01 X244.336 Y253.785
G01 X244.136 Y253.515
G01 X243.948 Y253.235
G01 X243.775 Y252.944
G01 X243.615 Y252.645
G01 X243.470 Y252.337
G01 X243.339 Y252.021
G01 X243.224 Y251.697
G01 X243.125 Y251.368
G01 X243.042 Y251.032
G01 X242.975 Y250.692
G01 X242.925 Y250.348
G01 X242.891 Y250.000
G01 X242.875 Y249.650
G01 X242.877 Y249.298
G01 X242.895 Y248.946
G01 X242.931 Y248.594
G01 X242.985 Y248.243
G01 X243.056 Y247.894
G01 X243.144 Y247.547
G01 X243.250 Y247.204
G01 X243.373 Y246.866
G01 X243.513 Y246.533
G01 X243.670 Y246.206
G01 X243.843 Y245.886
G01 X244.033 Y245.574
G01 X244.238 Y245.271
G01 X244.459 Y244.978
G01 X244.694 Y244.694
G01 X244.944 Y244.422
G01 X245.209 Y244.162
G01 X245.486 Y243.914
G01 X245.776 Y243.679
G01 X246.079 Y243.458
G01 X246.393 Y243.252
G01 X246.718 Y243.061
G01 X247.053 Y242.885
G01 X247.397 Y242.726
G01 X247.750 Y242.583
G01 X248.111 Y242.458
G01 X248.478 Y242.350
G01 X248.852 Y242.260
G01 X249.231 Y242.189
G01 X249.614 Y242.136
G01 X250.000 Y242.102
G01 X250.389 Y242.086
G01 X250.779 Y242.090
G01 X251.170 Y242.114
G01 X251.560 Y242.157
G01 X251.949 Y242.219
G01 X252.336 Y242.300
G01 X252.719 Y242.401
G01 X253.098 Y242.520
G01 X253.472 Y242.659
G01 X253.840 Y242.817
G01 X254.200 Y242.992
G01 X254.553 Y243.186
G01 X254.896 Y243.398
G01 X255.230 Y243.627
G01 X255.553 Y243.873
G01 X255.864 Y244.136
G01 X256.163 Y244.414
G01 X256.449 Y244.707
G01 X256.721 Y245.016
G01 X256.978 Y245.338
G01 X257.219 Y245.673
G01 X257.445 Y246.021
G01 X257.653 Y246.380
G01 X257.844 Y246.751
G01 X258.018 Y247.131
G01 X258.172 Y247.521
G01 X258.308 Y247.919
G01 X258.424 Y248.324
G01 X258.521 Y248.736
G01 X258.597 Y249.153
G01 X258.653 Y249.575
G01 X258.688 Y250.000
G01 X258.702 Y250.428
G01 X258.696 Y250.856
G01 X258.667 Y251.286
G01 X258.618 Y251.714
G01 X258.548 Y252.141
G01 X258.456 Y252.565
G01 X258.343 Y252.985
G01 X258.209 Y253.400
G01 X258.055 Y253.810
G01 X257.880 Y254.212
G01 X257.685 Y254.606
G01 X257.470 Y254.991
G01 X257.236 Y255.367
G01 X256.983 Y255.731
G01 X256.712 Y256.083
G01 X256.423 Y256.423
G01 X256.116 Y256.748
G01 X255.794 Y257.060
G01 X255.455 Y257.355
G01 X255.101 Y257.634
G01 X254.733 Y257.897
G01 X254.352 Y258.141
G01 X253.957 Y258.367
G01 X253.552 Y258.574
G01 X253.135 Y258.761
G01 X252.708 Y258.928
G01 X252.273 Y259.074
G01 X251.830 Y259.199
G01 X251.380 Y259.302
G01 X250.924 Y259.383
G01 X250.464 Y259.442
G01 X250.000 Y259.478
G01 X249.534 Y259.491
G01 X249.066 Y259.482
G01 X248.598 Y259.449
G01 X248.132 Y259.393
G01 X247.667 Y259.314
G01 X247.206 Y259.212
G01 X246.749 Y259.087
G01 X246.297 Y258.939
G01 X245.853 Y258.769
G01 X245.416 Y258.577
G01 X244.988 Y258.363
G01 X244.570 Y258.127
G01 X244.163 Y257.871
G01 X243.768 Y257.594
G01 X243.386 Y257.297
G01 X243.019 Y256.981
G01 X242.666 Y256.647
G01 X242.330 Y256.295
G01 X242.010 Y255.925
G01 X241.709 Y255.540
G01 X241.426 Y255.139
G01 X241.162 Y254.724
G01 X240.919 Y254.295
G01 X240.696 Y253.854
G01 X240.495 Y253.401
G01 X240.316 Y252.938
G01 X240.159 Y252.465
G01 X240.026 Y251.984
G01 X239.916 Y251.496
G01 X239.831 Y251.002
G01 X239.769 Y250.503
G01 X239.732 Y250.000
G01 X239.720 Y249.495
G01 X239.732 Y248.989
G01 X239.770 Y248.483
G01 X239.833 Y247.978
G01 X239.920 Y247.475
G01 X240.032 Y246.976
G01 X240.170 Y246.483
G01 X240.331 Y245.995
G01 X240.517 Y245.515
G01 X240.727 Y245.043
G01 X240.960 Y244.582
G01 X241.216 Y244.131
G01 X241.495 Y243.692
G01 X241.796 Y243.267
G01 X242.118 Y242.856
G01 X242.460 Y242.460
G01 X242.823 Y242.081
G01 X243.204 Y241.719
G01 X243.604 Y241.376
G01 X244.021 Y241.052
G01 X244.455 Y240.748
G01 X244.904 Y240.466
G01 X245.367 Y240.205
G01 X245.844 Y239.966
G01 X246.333 Y239.751
G01 X246.833 Y239.560
G01 X247.343 Y239.393
G01 X247.862 Y239.252
G01 X248.388 Y239.135
G01 X248.921 Y239.045
G01 X249.459 Y238.980
G01 X250.000 Y238.942
G01 X250.544 Y238.931
G01 X251.089 Y238.946
G01 X251.633 Y238.989
G01 X252.177 Y239.058
G01 X252.717 Y239.154
G01 X253.253 Y239.277
G01 X253.783 Y239.426
G01 X254.307 Y239.602
G01 X254.823 Y239.803
G01 X255.329 Y240.030
G01 X255.824 Y240.283
G01 X256.308 Y240.560
G01 X256.778 Y240.861
G01 X257.234 Y241.185
G01 X257.675 Y241.532
G01 X258.098 Y241.902
G01 X258.504 Y242.292
G01 X258.891 Y242.703
G01 X259.258 Y243.134
G01 X259.605 Y243.582
G01 X259.929 Y244.049
G01 X260.231 Y244.531
G01 X260.509 Y245.029
G01 X260.763 Y245.542
G01 X260.992 Y246.067
G01 X261.196 Y246.604
G01 X261.373 Y247.151
G01 X261.523 Y247.708
G01 X261.646 Y248.272
G01 X261.741 Y248.844
G01 X261.809 Y249.420
G01 X261.848 Y250.000
G01 X261.858 Y250.583
G01 X261.840 Y251.166
G01 X261.793 Y251.749
G01 X261.717 Y252.331
G01 X261.612 Y252.909
G01 X261.479 Y253.482
G01 X261.318 Y254.050
G01 X261.128 Y254.609
G01 X260.911 Y255.160
G01 X260.666 Y255.701
G01 X260.395 Y256.230
G01 X260.097 Y256.747
G01 X259.774 Y257.249
G01 X259.425 Y257.735
G01 X259.053 Y258.205
G01 X258.657 Y258.657
G01 X258.238 Y259.089
G01 X257.798 Y259.502
G01 X257.337 Y259.893
G01 X256.856 Y260.261
G01 X256.357 Y260.607
G01 X255.841 Y260.928
G01 X255.308 Y261.223
G01 X254.761 Y261.493
G01 X254.199 Y261.736
G01 X253.625 Y261.952
G01 X253.041 Y262.139
G01 X252.446 Y262.298
G01 X251.843 Y262.427
G01 X251.234 Y262.527
G01 X250.619 Y262.598
G01 X250.000 Y262.637
G01 X249.379 Y262.647
G01 X248.756 Y262.626
G01 X248.135 Y262.574
G01 X247.515 Y262.491
G01 X246.899 Y262.378
G01 X246.289 Y262.235
G01 X245.684 Y262.061
G01 X245.088 Y261.858
G01 X244.502 Y261.625
G01 X243.926 Y261.363
G01 X243.363 Y261.072
G01 X242.814 Y260.754
G01 X242.281 Y260.408
G01 X241.764 Y260.036
G01 X241.265 Y259.638
G01 X240.785 Y259.215
G01 X240.325 Y258.769
G01 X239.888 Y258.299
G01 X239.473 Y257.807
G01 X239.082 Y257.295
G01 X238.716 Y256.763
G01 X238.376 Y256.213
G01 X238.063 Y255.646
G01 X237.777 Y255.063
G01 X237.520 Y254.465
G01 X237.293 Y253.855
G01 X237.095 Y253.233
G01 X236.928 Y252.600
G01 X236.791 Y251.959
G01 X236.686 Y251.311
G01 X236.614 Y250.658
G01 X236.573 Y250.000
G01 X236.564 Y249.340
G01 X236.588 Y248.679
G01 X236.645 Y248.019
G01 X236.734 Y247.361
G01 X236.855 Y246.707
G01 X237.009 Y246.059
G01 X237.195 Y245.418
G01 X237.412 Y244.786
G01 X237.661 Y244.164
G01 X237.940 Y243.554
G01 X238.250 Y242.957
G01 X238.589 Y242.376
G01 X238.957 Y241.810
G01 X239.353 Y241.263
G01 X239.777 Y240.734
G01 X240.226 Y240.226
G01 X240.701 Y239.740
G01 X241.200 Y239.277
G01 X241.722 Y238.838
G01 X242.266 Y238.425
G01 X242.831 Y238.038
G01 X243.414 Y237.679
G01 X244.016 Y237.349
G01 X244.635 Y237.048
G01 X245.269 Y236.777
G01 X245.916 Y236.537
G01 X246.576 Y236.329
G01 X247.246 Y236.153
G01 X247.925 Y236.010
G01 X248.611 Y235.900
G01 X249.304 Y235.825
G01 X250.000 Y235.783
G01 X250.699 Y235.775
G01 X251.398 Y235.802
G01 X252.097 Y235.863
G01 X252.793 Y235.959
G01 X253.484 Y236.089
G01 X254.170 Y236.253
G01 X254.848 Y236.451
G01 X255.516 Y236.683
G01 X256.174 Y236.947
G01 X256.818 Y237.244
G01 X257.449 Y237.573
G01 X258.063 Y237.933
G01 X258.660 Y238.323
G01 X259.238 Y238.743
G01 X259.796 Y239.191
G01 X260.332 Y239.668
G01 X260.845 Y240.171
G01 X261.333 Y240.699
G01 X261.796 Y241.251
G01 X262.232 Y241.827
G01 X262.639 Y242.424
G01 X263.017 Y243.042
G01 X263.365 Y243.679
G01 X263.682 Y244.333
G01 X263.967 Y245.003
G01 X264.219 Y245.687
G01 X264.438 Y246.384
G01 X264.622 Y247.092
G01 X264.771 Y247.809
G01 X264.886 Y248.534
G01 X264.964 Y249.265
G01 X265.007 Y250.000
G01 X265.014 Y250.738
G01 X264.984 Y251.476
G01 X264.918 Y252.213
G01 X264.815 Y252.947
G01 X264.677 Y253.676
G01 X264.503 Y254.399
G01 X264.292 Y255.114
G01 X264.047 Y255.818
G01 X263.767 Y256.511
G01 X263.453 Y257.191
G01 X263.105 Y257.855
G01 X262.724 Y258.502
G01 X262.311 Y259.131
G01 X261.868 Y259.740
G01 X261.394 Y260.327
G01 X260.891 Y260.891
G01 X260.360 Y261.430
G01 X259.802 Y261.944
G01 X259.219 Y262.430
G01 X258.612 Y262.888
G01 X257.982 Y263.317
G01 X257.330 Y263.714
G01 X256.659 Y264.079
G01 X255.970 Y264.412
G01 X255.264 Y264.711
G01 X254.543 Y264.975
G01 X253.808 Y265.204
G01 X253.063 Y265.396
G01 X252.307 Y265.553
G01 X251.544 Y265.672
G01 X250.774 Y265.753
G01 X250.000 Y265.797
G01 X249.224 Y265.802
G01 X248.447 Y265.770
G01 X247.671 Y265.699
G01 X246.899 Y265.590
G01 X246.132 Y265.443
G01 X245.371 Y265.258
G01 X244.620 Y265.036
G01 X243.879 Y264.777
G01 X243.151 Y264.481
G01 X242.437 Y264.149
G01 X241.739 Y263.782
G01 X241.059 Y263.381
G01 X240.399 Y262.946
G01 X239.759 Y262.478
G01 X239.143 Y261.979
G01 X238.551 Y261.449
G01 X237.984 Y260.890
G01 X237.445 Y260.303
G01 X236.935 Y259.690
G01 X236.455 Y259.051
G01 X236.006 Y258.388
G01 X235.590 Y257.703
G01 X235.207 Y256.997
G01 X234.858 Y256.272
G01 X234.546 Y255.530
G01 X234.269 Y254.772
G01 X234.030 Y254.000
G01 X233.829 Y253.217
G01 X233.666 Y252.423
G01 X233.542 Y251.621
G01 X233.458 Y250.813
G01 X233.413 Y250.000
G01 X233.409 Y249.185
G01 X233.444 Y248.369
G01 X233.520 Y247.555
G01 X233.635 Y246.745
G01 X233.791 Y245.940
G01 X233.986 Y245.142
G01 X234.220 Y244.354
G01 X234.493 Y243.577
G01 X234.805 Y242.813
G01 X235.154 Y242.065
G01 X235.540 Y241.333
G01 X235.962 Y240.620
G01 X236.420 Y239.928
G01 X236.911 Y239.258
G01 X237.436 Y238.612
G01 X237.992 Y237.992
G01 X238.579 Y237.399
G01 X239.196 Y236.835
G01 X239.840 Y236.301
G01 X240.511 Y235.798
G01 X241.206 Y235.329
G01 X241.925 Y234.893
G01 X242.666 Y234.493
G01 X243.426 Y234.129
G01 X244.204 Y233.802
G01 X244.999 Y233.513
G01 X245.808 Y233.264
G01 X246.629 Y233.054
G01 X247.461 Y232.885
G01 X248.302 Y232.756
G01 X249.149 Y232.669
G01 X250.000 Y232.623
G01 X250.854 Y232.620
G01 X251.708 Y232.658
G01 X252.561 Y232.738
G01 X253.409 Y232.861
G01 X254.252 Y233.025
G01 X255.087 Y233.230
G01 X255.912 Y233.477
G01 X256.725 Y233.764
G01 X257.524 Y234.091
G01 X258.308 Y234.458
G01 X259.073 Y234.863
G01 X259.818 Y235.306
G01 X260.542 Y235.785
G01 X261.243 Y236.301
G01 X261.918 Y236.851
G01 X262.566 Y237.434
G01 X263.186 Y238.049
G01 X263.776 Y238.695
G01 X264.334 Y239.369
G01 X264.858 Y240.072
G01 X265.349 Y240.800
G01 X265.804 Y241.553
G01 X266.221 Y242.328
G01 X266.601 Y243.124
G01 X266.942 Y243.938
G01 X267.242 Y244.770
G01 X267.502 Y245.616
G01 X267.720 Y246.475
G01 X267.896 Y247.345
G01 X268.030 Y248.224
G01 X268.120 Y249.110
G01 X268.166 Y250.000
G01 X268.169 Y250.893
G01 X268.128 Y251.785
G01 X268.043 Y252.676
G01 X267.914 Y253.563
G01 X267.742 Y254.444
G01 X267.526 Y255.316
G01 X267.267 Y256.178
G01 X266.966 Y257.028
G01 X266.623 Y257.862
G01 X266.239 Y258.680
G01 X265.815 Y259.479
G01 X265.351 Y260.257
G01 X264.849 Y261.013
G01 X264.310 Y261.744
G01 X263.735 Y262.448
G01 X263.125 Y263.125
G01 X262.482 Y263.771
G01 X261.806 Y264.386
G01 X261.101 Y264.968
G01 X260.367 Y265.515
G01 X259.606 Y266.026
G01 X258.820 Y266.500
G01 X258.010 Y266.935
G01 X257.179 Y267.331
G01 X256.328 Y267.685
G01 X255.460 Y267.998
G01 X254.576 Y268.268
G01 X253.679 Y268.495
G01 X252.771 Y268.678
G01 X251.853 Y268.816
G01 X250.929 Y268.909
G01 X250.000 Y268.956
G01 X249.069 Y268.958
G01 X248.137 Y268.914
G01 X247.208 Y268.824
G01 X246.283 Y268.689
G01 X245.364 Y268.508
G01 X244.454 Y268.282
G01 X243.556 Y268.011
G01 X242.670 Y267.696
G01 X241.800 Y267.337
G01 X240.948 Y266.936
G01 X240.115 Y266.492
G01 X239.304 Y266.008
G01 X238.517 Y265.483
G01 X237.755 Y264.920
G01 X237.021 Y264.320
G01 X236.317 Y263.683
G01 X235.643 Y263.012
G01 X235.003 Y262.308
G01 X234.398 Y261.572
G01 X233.828 Y260.806
G01 X233.296 Y260.012
G01 X232.803 Y259.192
G01 X232.351 Y258.348
G01 X231.939 Y257.481
G01 X231.571 Y256.594
G01 X231.246 Y255.689
G01 X230.965 Y254.768
G01 X230.730 Y253.833
G01 X230.541 Y252.886
G01 X230.398 Y251.931
G01 X230.302 Y250.968
G01 X230.254 Y250.000
G01 X230.253 Y249.030
G01 X230.300 Y248.060
G01 X230.394 Y247.092
G01 X230.537 Y246.128
G01 X230.726 Y245.172
G01 X230.963 Y244.225
G01 X231.246 Y243.290
G01 X231.575 Y242.368
G01 X231.949 Y241.463
G01 X232.368 Y240.575
G01 X232.830 Y239.709
G01 X233.335 Y238.865
G01 X233.882 Y238.046
G01 X234.469 Y237.254
G01 X235.095 Y236.491
G01 X235.758 Y235.758
G01 X236.458 Y235.058
G01 X237.191 Y234.393
G01 X237.958 Y233.763
G01 X238.755 Y233.171
G01 X239.582 Y232.619
G01 X240.436 Y232.107
G01 X241.315 Y231.637
G01 X242.217 Y231.210
G01 X243.140 Y230.827
G01 X244.082 Y230.490
G01 X245.040 Y230.199
G01 X246.013 Y229.956
G01 X246.998 Y229.760
G01 X247.992 Y229.612
G01 X248.994 Y229.514
G01 X250.000 Y229.464
G01 X251.009 Y229.464
G01 X252.018 Y229.514
G01 X253.024 Y229.613
G01 X254.026 Y229.762
G01 X255.020 Y229.960
G01 X256.004 Y230.207
G01 X256.977 Y230.502
G01 X257.934 Y230.845
G01 X258.875 Y231.235
G01 X259.797 Y231.671
G01 X260.697 Y232.153
G01 X261.574 Y232.679
G01 X262.424 Y233.248
G01 X263.247 Y233.858
G01 X264.040 Y234.510
G01 X264.800 Y235.200
G01 X265.527 Y235.927
G01 X266.218 Y236.690
G01 X266.871 Y237.487
G01 X267.485 Y238.317
G01 X268.059 Y239.176
G01 X268.590 Y240.063
G01 X269.077 Y240.977
G01 X269.520 Y241.915
G01 X269.916 Y242.874
G01 X270.266 Y243.852
G01 X270.567 Y244.848
G01 X270.819 Y245.859
G01 X271.022 Y246.882
G01 X271.174 Y247.915
G01 X271.275 Y248.955
G01 X271.326 Y250.000
G01 X271.325 Y251.048
G01 X271.272 Y252.095
G01 X271.168 Y253.140
G01 X271.013 Y254.180
G01 X270.806 Y255.212
G01 X270.549 Y256.234
G01 X270.242 Y257.243
G01 X269.885 Y258.237
G01 X269.479 Y259.213
G01 X269.025 Y260.169
G01 X268.525 Y261.103
G01 X267.978 Y262.012
G01 X267.387 Y262.895
G01 X266.752 Y263.748
G01 X266.076 Y264.570
G01 X265.359 Y265.359
G01 X264.603 Y266.112
G01 X263.811 Y266.828
G01 X262.983 Y267.506
G01 X262.122 Y268.142
G01 X261.230 Y268.736
G01 X260.309 Y269.287
G01 X259.361 Y269.791
G01 X258.388 Y270.250
G01 X257.392 Y270.660
G01 X256.377 Y271.022
G01 X255.344 Y271.333
G01 X254.295 Y271.594
G01 X253.234 Y271.803
G01 X252.163 Y271.960
G01 X251.084 Y272.064
G01 X250.000 Y272.116
G01 X248.914 Y272.114
G01 X247.827 Y272.058
G01 X246.744 Y271.949
G01 X245.666 Y271.787
G01 X244.596 Y271.572
G01 X243.537 Y271.305
G01 X242.491 Y270.985
G01 X241.461 Y270.615
G01 X240.449 Y270.193
G01 X239.458 Y269.722
G01 X238.491 Y269.202
G01 X237.549 Y268.635
G01 X236.635 Y268.021
G01 X235.751 Y267.363
G01 X234.899 Y266.661
G01 X234.083 Y265.917
G01 X233.303 Y265.134
G01 X232.561 Y264.312
G01 X231.860 Y263.454
G01 X231.201 Y262.561
G01 X230.586 Y261.636
G01 X230.017 Y260.681
G01 X229.495 Y259.698
G01 X229.021 Y258.690
G01 X228.596 Y257.658
G01 X228.223 Y256.606
G01 X227.901 Y255.536
G01 X227.632 Y254.449
G01 X227.416 Y253.350
G01 X227.254 Y252.240
G01 X227.147 Y251.123
G01 X227.095 Y250.000
G01 X227.098 Y248.875
G01 X227.156 Y247.750
G01 X227.269 Y246.628
G01 X227.438 Y245.512
G01 X227.661 Y244.404
G01 X227.939 Y243.308
G01 X228.271 Y242.225
G01 X228.656 Y241.159
G01 X229.093 Y240.112
G01 X229.582 Y239.086
G01 X230.121 Y238.085
G01 X230.709 Y237.110
G01 X231.344 Y236.164
G01 X232.027 Y235.250
G01 X232.754 Y234.369
G01 X233.524 Y233.524
G01 X234.336 Y232.717
G01 X235.187 Y231.950
G01 X236.076 Y231.226
G01 X237.000 Y230.544
G01 X237.958 Y229.909
G01 X238.946 Y229.320
G01 X239.964 Y228.781
G01 X241.008 Y228.291
G01 X242.076 Y227.853
G01 X243.165 Y227.467
G01 X244.273 Y227.135
G01 X245.397 Y226.857
G01 X246.534 Y226.634
G01 X247.682 Y226.468
G01 X248.839 Y226.358
G01 X250.000 Y226.305
G01 X251.164 Y226.309
G01 X252.327 Y226.370
G01 X253.488 Y226.488
G01 X254.642 Y226.663
G01 X255.787 Y226.895
G01 X256.921 Y227.183
G01 X258.041 Y227.527
G01 X259.143 Y227.926
G01 X260.226 Y228.379
G01 X261.286 Y228.885
G01 X262.321 Y229.443
G01 X263.329 Y230.052
G01 X264.306 Y230.710
G01 X265.251 Y231.416
G01 X266.161 Y232.169
G01 X267.034 Y232.966
G01 X267.868 Y233.805
G01 X268.660 Y234.686
G01 X269.409 Y235.605
G01 X270.112 Y236.561
G01 X270.769 Y237.552
G01 X271.376 Y238.574
G01 X271.933 Y239.626
G01 X272.439 Y240.706
G01 X272.891 Y241.809
G01 X273.289 Y242.935
G01 X273.632 Y244.081
G01 X273.918 Y245.242
G01 X274.147 Y246.418
G01 X274.318 Y247.605
G01 X274.431 Y248.800
G01 X274.485 Y250.000
G01 X274.480 Y251.203
G01 X274.416 Y252.405
G01 X274.293 Y253.604
G01 X274.111 Y254.796
G01 X273.871 Y255.979
G01 X273.572 Y257.151
G01 X273.216 Y258.307
G01 X272.804 Y259.446
G01 X272.335 Y260.564
G01 X271.812 Y261.659
G01 X271.234 Y262.727
G01 X270.605 Y263.768
G01 X269.924 Y264.777
G01 X269.194 Y265.752
G01 X268.417 Y266.692
G01 X267.593 Y267.593
G01 X266.725 Y268.453
G01 X265.815 Y269.271
G01 X264.865 Y270.043
G01 X263.877 Y270.769
G01 X262.854 Y271.446
G01 X261.798 Y272.073
G01 X260.711 Y272.647
G01 X259.597 Y273.169
G01 X258.457 Y273.635
G01 X257.294 Y274.045
G01 X256.111 Y274.398
G01 X254.912 Y274.692
G01 X253.698 Y274.928
G01 X252.473 Y275.104
G01 X251.239 Y275.220
G01 X250.000 Y275.275
G01 X248.759 Y275.269
G01 X247.518 Y275.202
G01 X246.281 Y275.075
G01 X245.050 Y274.886
G01 X243.829 Y274.637
G01 X242.620 Y274.328
G01 X241.427 Y273.960
G01 X240.252 Y273.533
G01 X239.099 Y273.049
G01 X237.969 Y272.508
G01 X236.867 Y271.912
G01 X235.793 Y271.262
G01 X234.753 Y270.559
G01 X233.747 Y269.805
G01 X232.778 Y269.002
G01 X231.849 Y268.151
G01 X230.962 Y267.255
G01 X230.119 Y266.316
G01 X229.322 Y265.336
G01 X228.574 Y264.316
G01 X227.876 Y263.260
G01 X227.231 Y262.170
G01 X226.639 Y261.049
G01 X226.102 Y259.899
G01 X225.622 Y258.723
G01 X225.199 Y257.523
G01 X224.836 Y256.303
G01 X224.533 Y255.066
G01 X224.291 Y253.814
G01 X224.110 Y252.550
G01 X223.991 Y251.278
G01 X223.935 Y250.000
G01 X223.942 Y248.720
G01 X224.012 Y247.440
G01 X224.144 Y246.165
G01 X224.339 Y244.896
G01 X224.597 Y243.637
G01 X224.916 Y242.391
G01 X225.296 Y241.161
G01 X225.737 Y239.950
G01 X226.237 Y238.761
G01 X226.795 Y237.597
G01 X227.411 Y236.460
G01 X228.082 Y235.355
G01 X228.807 Y234.282
G01 X229.585 Y233.245
G01 X230.413 Y232.247
G01 X231.290 Y231.290
G01 X232.214 Y230.376
G01 X233.183 Y229.508
G01 X234.194 Y228.688
G01 X235.245 Y227.917
G01 X236.334 Y227.199
G01 X237.457 Y226.534
G01 X238.613 Y225.925
G01 X239.799 Y225.372
G01 X241.011 Y224.878
G01 X242.248 Y224.443
G01 X243.505 Y224.070
G01 X244.780 Y223.758
G01 X246.070 Y223.509
G01 X247.373 Y223.324
G01 X248.684 Y223.202
G01 X250.000 Y223.145
G01 X251.319 Y223.153
G01 X252.637 Y223.226
G01 X253.951 Y223.363
G01 X255.258 Y223.565
G01 X256.555 Y223.830
G01 X257.838 Y224.160
G01 X259.105 Y224.553
G01 X260.352 Y225.007
G01 X261.577 Y225.523
G01 X262.776 Y226.099
G01 X263.946 Y226.733
G01 X265.084 Y227.425
G01 X266.188 Y228.172
G01 X267.256 Y228.974
G01 X268.283 Y229.828
G01 X269.268 Y230.732
G01 X270.209 Y231.684
G01 X271.102 Y232.682
G01 X271.947 Y233.723
G01 X272.739 Y234.806
G01 X273.479 Y235.927
G01 X274.163 Y237.085
G01 X274.789 Y238.275
G01 X275.358 Y239.496
G01 X275.866 Y240.745
G01 X276.312 Y242.018
G01 X276.696 Y243.313
G01 X277.016 Y244.626
G01 X277.272 Y245.955
G01 X277.462 Y247.295
G01 X277.586 Y248.645
G01 X277.644 Y250.000
G01 X277.636 Y251.358
G01 X277.560 Y252.714
G01 X277.418 Y254.067
G01 X277.210 Y255.412
G01 X276.936 Y256.747
G01 X276.596 Y258.068
G01 X276.191 Y259.371
G01 X275.723 Y260.655
G01 X275.191 Y261.915
G01 X274.598 Y263.148
G01 X273.944 Y264.352
G01 X273.232 Y265.523
G01 X272.462 Y266.659
G01 X271.637 Y267.757
G01 X270.758 Y268.814
G01 X269.827 Y269.827
G01 X268.847 Y270.794
G01 X267.819 Y271.713
G01 X266.747 Y272.581
G01 X265.633 Y273.396
G01 X264.479 Y274.156
G01 X263.287 Y274.859
G01 X262.062 Y275.503
G01 X260.806 Y276.087
G01 X259.521 Y276.609
G01 X258.211 Y277.068
G01 X256.879 Y277.462
G01 X255.528 Y277.791
G01 X254.161 Y278.053
G01 X252.782 Y278.248
G01 X251.394 Y278.375
G01 X250.000 Y278.434
G01 X248.604 Y278.425
G01 X247.208 Y278.346
G01 X245.817 Y278.200
G01 X244.433 Y277.985
G01 X243.061 Y277.702
G01 X241.703 Y277.352
G01 X240.363 Y276.935
G01 X239.043 Y276.452
G01 X237.748 Y275.905
G01 X236.480 Y275.294
G01 X235.242 Y274.622
G01 X234.038 Y273.889
G01 X232.871 Y273.096
G01 X231.742 Y272.247
G01 X230.656 Y271.343
G01 X229.615 Y270.385
G01 X228.621 Y269.377
G01 X227.677 Y268.320
G01 X226.785 Y267.218
G01 X225.947 Y266.072
G01 X225.167 Y264.885
G01 X224.444 Y263.660
G01 X223.783 Y262.400
G01 X223.183 Y261.108
G01 X222.647 Y259.787
G01 X222.176 Y258.440
G01 X221.771 Y257.071
G01 X221.434 Y255.682
G01 X221.165 Y254.277
G01 X220.966 Y252.860
G01 X220.836 Y251.433
G01 X220.776 Y250.000
G01 X220.786 Y248.565
G01 X220.867 Y247.131
G01 X221.019 Y245.701
G01 X221.241 Y244.279
G01 X221.532 Y242.869
G01 X221.893 Y241.474
G01 X222.322 Y240.096
G01 X222.818 Y238.741
G01 X223.381 Y237.410
G01 X224.009 Y236.107
G01 X224.701 Y234.836
G01 X225.455 Y233.599
G01 X226.269 Y232.400
G01 X227.142 Y231.241
G01 X228.072 Y230.126
G01 X229.056 Y229.056
G01 X230.092 Y228.035
G01 X231.179 Y227.066
G01 X232.312 Y226.150
G01 X233.490 Y225.291
G01 X234.709 Y224.489
G01 X235.968 Y223.748
G01 X237.262 Y223.069
G01 X238.590 Y222.453
G01 X239.947 Y221.903
G01 X241.330 Y221.420
G01 X242.737 Y221.005
G01 X244.164 Y220.660
G01 X245.607 Y220.384
G01 X247.063 Y220.180
G01 X248.528 Y220.047
G01 X250.000 Y219.986
G01 X251.474 Y219.998
G01 X252.947 Y220.081
G01 X254.415 Y220.238
G01 X255.875 Y220.466
G01 X257.323 Y220.766
G01 X258.756 Y221.137
G01 X260.170 Y221.578
G01 X261.561 Y222.088
G01 X262.928 Y222.667
G01 X264.265 Y223.312
G01 X265.570 Y224.023
G01 X266.839 Y224.798
G01 X268.070 Y225.635
G01 X269.260 Y226.532
G01 X270.405 Y227.487
G01 X271.502 Y228.498
G01 X272.550 Y229.562
G01 X273.545 Y230.677
G01 X274.484 Y231.841
G01 X275.366 Y233.051
G01 X276.188 Y234.303
G01 X276.949 Y235.596
G01 X277.646 Y236.925
G01 X278.277 Y238.287
G01 X278.840 Y239.681
G01 X279.336 Y241.101
G01 X279.761 Y242.545
G01 X280.115 Y244.010
G01 X280.397 Y245.491
G01 X280.606 Y246.986
G01 X280.742 Y248.490
G01 X280.804 Y250.000
G01 X280.791 Y251.513
G01 X280.705 Y253.024
G01 X280.544 Y254.531
G01 X280.309 Y256.029
G01 X280.000 Y257.515
G01 X279.619 Y258.985
G01 X279.166 Y260.436
G01 X278.641 Y261.864
G01 X278.047 Y263.265
G01 X277.384 Y264.637
G01 X276.654 Y265.976
G01 X275.859 Y267.278
G01 X275.000 Y268.541
G01 X274.079 Y269.761
G01 X273.098 Y270.935
G01 X272.061 Y272.061
G01 X270.968 Y273.135
G01 X269.824 Y274.155
G01 X268.629 Y275.119
G01 X267.388 Y276.023
G01 X266.103 Y276.866
G01 X264.777 Y277.645
G01 X263.413 Y278.360
G01 X262.015 Y279.006
G01 X260.585 Y279.584
G01 X259.128 Y280.092
G01 X257.647 Y280.527
G01 X256.144 Y280.890
G01 X254.625 Y281.178
G01 X253.092 Y281.392
G01 X251.549 Y281.531
G01 X250.000 Y281.594
G01 X248.449 Y281.580
G01 X246.898 Y281.491
G01 X245.353 Y281.325
G01 X243.817 Y281.083
G01 X242.293 Y280.767
G01 X240.786 Y280.375
G01 X239.298 Y279.909
G01 X237.834 Y279.371
G01 X236.397 Y278.761
G01 X234.991 Y278.081
G01 X233.618 Y277.332
G01 X232.283 Y276.515
G01 X230.989 Y275.634
G01 X229.738 Y274.689
G01 X228.534 Y273.684
G01 X227.381 Y272.619
G01 X226.280 Y271.499
G01 X225.234 Y270.325
G01 X224.247 Y269.100
G01 X223.320 Y267.827
G01 X222.457 Y266.509
G01 X221.658 Y265.149
G01 X220.926 Y263.751
G01 X220.264 Y262.317
G01 X219.672 Y260.851
G01 X219.153 Y259.357
G01 X218.707 Y257.839
G01 X218.336 Y256.298
G01 X218.040 Y254.741
G01 X217.822 Y253.169
G01 X217.680 Y251.588
G01 X217.617 Y250.000
G01 X217.631 Y248.410
G01 X217.723 Y246.821
G01 X217.894 Y245.237
G01 X218.142 Y243.663
G01 X218.467 Y242.101
G01 X218.869 Y240.557
G01 X219.347 Y239.032
G01 X219.899 Y237.532
G01 X220.525 Y236.059
G01 X221.223 Y234.618
G01 X221.991 Y233.212
G01 X222.828 Y231.844
G01 X223.732 Y230.518
G01 X224.700 Y229.237
G01 X225.731 Y228.004
G01 X226.822 Y226.822
G01 X227.971 Y225.695
G01 X229.174 Y224.624
G01 X230.430 Y223.613
G01 X231.734 Y222.664
G01 X233.085 Y221.779
G01 X234.479 Y220.961
G01 X235.912 Y220.212
G01 X237.381 Y219.534
G01 X238.882 Y218.929
G01 X240.413 Y218.397
G01 X241.970 Y217.941
G01 X243.547 Y217.561
G01 X245.143 Y217.259
G01 X246.753 Y217.036
G01 X248.373 Y216.891
G01 X250.000 Y216.827
G01 X251.629 Y216.842
G01 X253.256 Y216.937
G01 X254.878 Y217.112
G01 X256.491 Y217.367
G01 X258.090 Y217.701
G01 X259.673 Y218.113
G01 X261.234 Y218.603
G01 X262.770 Y219.169
G01 X264.278 Y219.811
G01 X265.754 Y220.526
G01 X267.194 Y221.313
G01 X268.595 Y222.171
G01 X269.952 Y223.097
G01 X271.264 Y224.090
G01 X272.526 Y225.146
G01 X273.736 Y226.264
G01 X274.891 Y227.440
G01 X275.987 Y228.673
G01 X277.022 Y229.959
G01 X277.993 Y231.296
G01 X278.898 Y232.679
G01 X279.735 Y234.106
G01 X280.502 Y235.574
G01 X281.195 Y237.078
G01 X281.815 Y238.616
G01 X282.359 Y240.184
G01 X282.826 Y241.778
G01 X283.214 Y243.393
G01 X283.522 Y245.027
G01 X283.751 Y246.676
G01 X283.898 Y248.335
G01 X283.963 Y250.000
G01 X283.947 Y251.668
G01 X283.849 Y253.334
G01 X283.669 Y254.994
G01 X283.407 Y256.645
G01 X283.065 Y258.282
G01 X282.642 Y259.902
G01 X282.141 Y261.500
G01 X281.560 Y263.073
G01 X280.903 Y264.616
G01 X280.171 Y266.126
G01 X279.364 Y267.600
G01 X278.486 Y269.033
G01 X277.537 Y270.423
G01 X276.521 Y271.765
G01 X275.439 Y273.057
G01 X274.295 Y274.295
G01 X273.090 Y275.476
G01 X271.828 Y276.597
G01 X270.511 Y277.656
G01 X269.143 Y278.650
G01 X267.727 Y279.576
G01 X266.266 Y280.432
G01 X264.764 Y281.216
G01 X263.224 Y281.925
G01 X261.650 Y282.559
G01 X260.045 Y283.115
G01 X258.414 Y283.592
G01 X256.761 Y283.988
G01 X255.088 Y284.304
G01 X253.402 Y284.537
G01 X251.704 Y284.687
G01 X250.000 Y284.753
G01 X248.294 Y284.736
G01 X246.589 Y284.635
G01 X244.890 Y284.450
G01 X243.201 Y284.182
G01 X241.526 Y283.831
G01 X239.869 Y283.398
G01 X238.234 Y282.884
G01 X236.625 Y282.290
G01 X235.046 Y281.617
G01 X233.501 Y280.867
G01 X231.994 Y280.042
G01 X230.528 Y279.142
G01 X229.107 Y278.172
G01 X227.734 Y277.132
G01 X226.413 Y276.025
G01 X225.147 Y274.853
G01 X223.939 Y273.620
G01 X222.792 Y272.329
G01 X221.709 Y270.982
G01 X220.693 Y269.582
G01 X219.747 Y268.133
G01 X218.872 Y266.638
G01 X218.070 Y265.102
G01 X217.345 Y263.526
G01 X216.698 Y261.916
G01 X216.129 Y260.275
G01 X215.642 Y258.606
G01 X215.237 Y256.915
G01 X214.915 Y255.204
G01 X214.677 Y253.479
G01 X214.525 Y251.743
G01 X214.457 Y250.000
G01 X214.475 Y248.255
G01 X214.579 Y246.511
G01 X214.769 Y244.774
G01 X215.043 Y243.047
G01 X215.403 Y241.334
G01 X215.846 Y239.639
G01 X216.372 Y237.968
G01 X216.980 Y236.323
G01 X217.669 Y234.708
G01 X218.436 Y233.129
G01 X219.281 Y231.588
G01 X220.201 Y230.089
G01 X221.194 Y228.636
G01 X222.258 Y227.233
G01 X223.390 Y225.882
G01 X224.588 Y224.588
G01 X225.849 Y223.354
G01 X227.170 Y222.182
G01 X228.548 Y221.075
G01 X229.979 Y220.037
G01 X231.461 Y219.069
G01 X232.989 Y218.175
G01 X234.561 Y217.356
G01 X236.172 Y216.615
G01 X237.818 Y215.954
G01 X239.496 Y215.373
G01 X241.202 Y214.876
G01 X242.931 Y214.462
G01 X244.680 Y214.134
G01 X246.444 Y213.891
G01 X248.218 Y213.736
G01 X250.000 Y213.667
G01 X251.784 Y213.686
G01 X253.566 Y213.793
G01 X255.342 Y213.987
G01 X257.107 Y214.269
G01 X258.858 Y214.636
G01 X260.590 Y215.090
G01 X262.298 Y215.628
G01 X263.979 Y216.251
G01 X265.629 Y216.955
G01 X267.243 Y217.740
G01 X268.818 Y218.604
G01 X270.350 Y219.544
G01 X271.835 Y220.560
G01 X273.268 Y221.647
G01 X274.648 Y222.805
G01 X275.970 Y224.030
G01 X277.232 Y225.319
G01 X278.429 Y226.669
G01 X279.559 Y228.077
G01 X280.620 Y229.540
G01 X281.608 Y231.055
G01 X282.521 Y232.617
G01 X283.358 Y234.223
G01 X284.114 Y235.869
G01 X284.790 Y237.552
G01 X285.382 Y239.267
G01 X285.890 Y241.010
G01 X286.312 Y242.777
G01 X286.648 Y244.564
G01 X286.895 Y246.366
G01 X287.053 Y248.180
G01 X287.123 Y250.000
G01 X287.102 Y251.823
G01 X286.993 Y253.643
G01 X286.794 Y255.458
G01 X286.506 Y257.262
G01 X286.130 Y259.050
G01 X285.666 Y260.819
G01 X285.115 Y262.564
G01 X284.479 Y264.282
G01 X283.759 Y265.967
G01 X282.957 Y267.616
G01 X282.074 Y269.224
G01 X281.113 Y270.789
G01 X280.075 Y272.305
G01 X278.963 Y273.770
G01 X277.780 Y275.179
G01 X276.529 Y276.529
G01 X275.212 Y277.817
G01 X273.832 Y279.040
G01 X272.393 Y280.194
G01 X270.898 Y281.277
G01 X269.351 Y282.286
G01 X267.755 Y283.218
G01 X266.115 Y284.072
G01 X264.433 Y284.844
G01 X262.714 Y285.534
G01 X260.962 Y286.138
G01 X259.182 Y286.656
G01 X257.377 Y287.087
G01 X255.552 Y287.429
G01 X253.711 Y287.681
G01 X251.859 Y287.842
G01 X250.000 Y287.912
G01 X248.139 Y287.891
G01 X246.279 Y287.779
G01 X244.426 Y287.575
G01 X242.584 Y287.281
G01 X240.758 Y286.896
G01 X238.952 Y286.422
G01 X237.169 Y285.859
G01 X235.416 Y285.209
G01 X233.695 Y284.473
G01 X232.012 Y283.653
G01 X230.370 Y282.751
G01 X228.772 Y281.769
G01 X227.224 Y280.709
G01 X225.729 Y279.574
G01 X224.291 Y278.366
G01 X222.913 Y277.087
G01 X221.598 Y275.742
G01 X220.350 Y274.333
G01 X219.172 Y272.864
G01 X218.067 Y271.337
G01 X217.037 Y269.757
G01 X216.085 Y268.128
G01 X215.214 Y266.452
G01 X214.426 Y264.735
G01 X213.723 Y262.980
G01 X213.106 Y261.192
G01 X212.577 Y259.374
G01 X212.138 Y257.531
G01 X211.790 Y255.668
G01 X211.533 Y253.789
G01 X211.369 Y251.898
G01 X211.298 Y250.000
G01 X211.320 Y248.100
G01 X211.435 Y246.202
G01 X211.643 Y244.310
G01 X211.945 Y242.430
G01 X212.338 Y240.566
G01 X212.823 Y238.722
G01 X213.397 Y236.903
G01 X214.061 Y235.114
G01 X214.813 Y233.358
G01 X215.650 Y231.640
G01 X216.571 Y229.963
G01 X217.574 Y228.334
G01 X218.656 Y226.754
G01 X219.816 Y225.228
G01 X221.049 Y223.761
G01 X222.354 Y222.354
G01 X223.727 Y221.013
G01 X225.166 Y219.739
G01 X226.666 Y218.537
G01 X228.224 Y217.410
G01 X229.837 Y216.359
G01 X231.500 Y215.389
G01 X233.210 Y214.500
G01 X234.963 Y213.697
G01 X236.754 Y212.979
G01 X238.579 Y212.350
G01 X240.434 Y211.811
G01 X242.315 Y211.364
G01 X244.216 Y211.009
G01 X246.134 Y210.747
G01 X248.063 Y210.580
G01 X250.000 Y210.508
G01 X251.939 Y210.531
G01 X253.876 Y210.649
G01 X255.806 Y210.862
G01 X257.724 Y211.170
G01 X259.626 Y211.572
G01 X261.507 Y212.067
G01 X263.363 Y212.654
G01 X265.189 Y213.332
G01 X266.980 Y214.099
G01 X268.733 Y214.953
G01 X270.443 Y215.894
G01 X272.105 Y216.917
G01 X273.717 Y218.022
G01 X275.273 Y219.205
G01 X276.770 Y220.464
G01 X278.204 Y221.796
G01 X279.573 Y223.197
G01 X280.871 Y224.665
G01 X282.097 Y226.195
G01 X283.247 Y227.785
G01 X284.318 Y229.431
G01 X285.308 Y231.128
G01 X286.214 Y232.872
G01 X287.033 Y234.660
G01 X287.765 Y236.488
G01 X288.406 Y238.350
G01 X288.955 Y240.242
G01 X289.411 Y242.161
G01 X289.773 Y244.100
G01 X290.039 Y246.057
G01 X290.209 Y248.025
G01 X290.282 Y250.000
G01 X290.258 Y251.978
G01 X290.137 Y253.953
G01 X289.919 Y255.921
G01 X289.605 Y257.878
G01 X289.194 Y259.818
G01 X288.689 Y261.736
G01 X288.090 Y263.629
G01 X287.398 Y265.491
G01 X286.615 Y267.318
G01 X285.743 Y269.105
G01 X284.784 Y270.849
G01 X283.739 Y272.544
G01 X282.612 Y274.187
G01 X281.405 Y275.774
G01 X280.121 Y277.300
G01 X278.763 Y278.763
G01 X277.333 Y280.158
G01 X275.836 Y281.482
G01 X274.275 Y282.731
G01 X272.654 Y283.904
G01 X270.976 Y284.996
G01 X269.245 Y286.004
G01 X267.465 Y286.928
G01 X265.642 Y287.763
G01 X263.778 Y288.508
G01 X261.880 Y289.161
G01 X259.950 Y289.721
G01 X257.993 Y290.186
G01 X256.016 Y290.554
G01 X254.021 Y290.825
G01 X252.014 Y290.998
G01 X250.000 Y291.072
G01 X247.983 Y291.047
G01 X245.969 Y290.923
G01 X243.963 Y290.700
G01 X241.968 Y290.379
G01 X239.990 Y289.961
G01 X238.035 Y289.445
G01 X236.105 Y288.834
G01 X234.207 Y288.128
G01 X232.345 Y287.329
G01 X230.523 Y286.440
G01 X228.745 Y285.461
G01 X227.017 Y284.396
G01 X225.342 Y283.247
G01 X223.725 Y282.016
G01 X222.169 Y280.706
G01 X220.679 Y279.321
G01 X219.257 Y277.864
G01 X217.908 Y276.337
G01 X216.634 Y274.746
G01 X215.440 Y273.093
G01 X214.327 Y271.382
G01 X213.299 Y269.617
G01 X212.358 Y267.803
G01 X211.507 Y265.944
G01 X210.748 Y264.045
G01 X210.083 Y262.109
G01 X209.513 Y260.142
G01 X209.040 Y258.148
G01 X208.665 Y256.132
G01 X208.389 Y254.098
G01 X208.213 Y252.053
G01 X208.138 Y250.000
G01 X208.164 Y247.945
G01 X208.291 Y245.892
G01 X208.518 Y243.847
G01 X208.846 Y241.814
G01 X209.273 Y239.798
G01 X209.799 Y237.805
G01 X210.423 Y235.839
G01 X211.143 Y233.905
G01 X211.957 Y232.007
G01 X212.864 Y230.150
G01 X213.861 Y228.339
G01 X214.947 Y226.578
G01 X216.119 Y224.872
G01 X217.373 Y223.224
G01 X218.708 Y221.639
G01 X220.120 Y220.120
G01 X221.606 Y218.672
G01 X223.161 Y217.297
G01 X224.784 Y216.000
G01 X226.469 Y214.783
G01 X228.212 Y213.650
G01 X230.011 Y212.602
G01 X231.859 Y211.644
G01 X233.754 Y210.778
G01 X235.689 Y210.004
G01 X237.662 Y209.327
G01 X239.667 Y208.746
G01 X241.698 Y208.265
G01 X243.753 Y207.883
G01 X245.824 Y207.603
G01 X247.908 Y207.425
G01 X250.000 Y207.349
G01 X252.094 Y207.375
G01 X254.185 Y207.505
G01 X256.269 Y207.737
G01 X258.340 Y208.071
G01 X260.393 Y208.507
G01 X262.424 Y209.043
G01 X264.427 Y209.679
G01 X266.398 Y210.413
G01 X268.331 Y211.243
G01 X270.222 Y212.167
G01 X272.067 Y213.184
G01 X273.860 Y214.290
G01 X275.599 Y215.484
G01 X277.277 Y216.763
G01 X278.892 Y218.123
G01 X280.438 Y219.562
G01 X281.914 Y221.075
G01 X283.313 Y222.660
G01 X284.635 Y224.313
G01 X285.874 Y226.030
G01 X287.028 Y227.806
G01 X288.094 Y229.638
G01 X289.070 Y231.521
G01 X289.952 Y233.451
G01 X290.739 Y235.423
G01 X291.429 Y237.433
G01 X292.020 Y239.475
G01 X292.510 Y241.544
G01 X292.898 Y243.637
G01 X293.183 Y245.747
G01 X293.364 Y247.870
G01 X293.441 Y250.000
G01 X293.414 Y252.133
G01 X293.281 Y254.263
G01 X293.044 Y256.385
G01 X292.703 Y258.494
G01 X292.259 Y260.585
G01 X291.712 Y262.653
G01 X291.065 Y264.693
G01 X290.317 Y266.700
G01 X289.471 Y268.669
G01 X288.529 Y270.594
G01 X287.494 Y272.473
G01 X286.366 Y274.299
G01 X285.150 Y276.069
G01 X283.848 Y277.778
G01 X282.462 Y279.422
G01 X280.997 Y280.997
G01 X279.455 Y282.499
G01 X277.841 Y283.924
G01 X276.157 Y285.269
G01 X274.409 Y286.531
G01 X272.600 Y287.705
G01 X270.734 Y288.791
G01 X268.816 Y289.784
G01 X266.851 Y290.682
G01 X264.843 Y291.483
G01 X262.797 Y292.185
G01 X260.717 Y292.786
G01 X258.610 Y293.284
G01 X256.479 Y293.679
G01 X254.331 Y293.969
G01 X252.169 Y294.153
G01 X250.000 Y294.231
G01 X247.828 Y294.202
G01 X245.660 Y294.067
G01 X243.499 Y293.826
G01 X241.352 Y293.478
G01 X239.223 Y293.025
G01 X237.117 Y292.468
G01 X235.041 Y291.808
G01 X232.998 Y291.047
G01 X230.994 Y290.185
G01 X229.033 Y289.226
G01 X227.121 Y288.171
G01 X225.262 Y287.023
G01 X223.460 Y285.784
G01 X221.721 Y284.458
G01 X220.048 Y283.047
G01 X218.445 Y281.555
G01 X216.916 Y279.986
G01 X215.465 Y278.342
G01 X214.097 Y276.628
G01 X212.813 Y274.848
G01 X211.617 Y273.006
G01 X210.513 Y271.106
G01 X209.502 Y269.154
G01 X208.588 Y267.153
G01 X207.773 Y265.109
G01 X207.059 Y263.026
G01 X206.448 Y260.909
G01 X205.941 Y258.764
G01 X205.540 Y256.595
G01 X205.245 Y254.408
G01 X205.058 Y252.208
G01 X204.979 Y250.000
G01 X205.009 Y247.790
G01 X205.147 Y245.582
G01 X205.393 Y243.383
G01 X205.747 Y241.198
G01 X206.209 Y239.031
G01 X206.776 Y236.888
G01 X207.448 Y234.775
G01 X208.224 Y232.696
G01 X209.101 Y230.656
G01 X210.077 Y228.661
G01 X211.151 Y226.715
G01 X212.320 Y224.823
G01 X213.581 Y222.990
G01 X214.931 Y221.220
G01 X216.367 Y219.517
G01 X217.886 Y217.886
G01 X219.484 Y216.331
G01 X221.157 Y214.855
G01 X222.902 Y213.462
G01 X224.713 Y212.156
G01 X226.588 Y210.940
G01 X228.521 Y209.816
G01 X230.508 Y208.788
G01 X232.545 Y207.859
G01 X234.625 Y207.030
G01 X236.745 Y206.304
G01 X238.899 Y205.682
G01 X241.082 Y205.166
G01 X243.289 Y204.758
G01 X245.515 Y204.459
G01 X247.753 Y204.269
G01 X250.000 Y204.189
G01 X252.249 Y204.220
G01 X254.495 Y204.361
G01 X256.733 Y204.612
G01 X258.957 Y204.973
G01 X261.161 Y205.442
G01 X263.341 Y206.020
G01 X265.491 Y206.704
G01 X267.607 Y207.494
G01 X269.682 Y208.387
G01 X271.711 Y209.381
G01 X273.691 Y210.474
G01 X275.616 Y211.663
G01 X277.481 Y212.947
G01 X279.281 Y214.321
G01 X281.013 Y215.782
G01 X282.672 Y217.328
G01 X284.254 Y218.954
G01 X285.756 Y220.656
G01 X287.172 Y222.431
G01 X288.501 Y224.275
G01 X289.738 Y226.182
G01 X290.880 Y228.149
G01 X291.926 Y230.171
G01 X292.871 Y232.242
G01 X293.714 Y234.359
G01 X294.452 Y236.516
G01 X295.084 Y238.707
G01 X295.608 Y240.928
G01 X296.023 Y243.173
G01 X296.327 Y245.437
G01 X296.520 Y247.715
G01 X296.601 Y250.000
G01 X296.569 Y252.288
G01 X296.425 Y254.573
G01 X296.170 Y256.849
G01 X295.802 Y259.111
G01 X295.324 Y261.353
G01 X294.736 Y263.570
G01 X294.039 Y265.757
G01 X293.236 Y267.909
G01 X292.327 Y270.019
G01 X291.316 Y272.084
G01 X290.204 Y274.097
G01 X288.993 Y276.054
G01 X287.688 Y277.951
G01 X286.290 Y279.782
G01 X284.803 Y281.544
G01 X283.231 Y283.231
G01 X281.577 Y284.840
G01 X279.845 Y286.366
G01 X278.039 Y287.807
G01 X276.164 Y289.157
G01 X274.224 Y290.415
G01 X272.223 Y291.577
G01 X270.167 Y292.640
G01 X268.060 Y293.601
G01 X265.907 Y294.458
G01 X263.714 Y295.208
G01 X261.485 Y295.851
G01 X259.226 Y296.383
G01 X256.943 Y296.804
G01 X254.640 Y297.113
G01 X252.324 Y297.309
G01 X250.000 Y297.390
G01 X247.673 Y297.358
G01 X245.350 Y297.211
G01 X243.036 Y296.951
G01 X240.735 Y296.577
G01 X238.455 Y296.090
G01 X236.200 Y295.492
G01 X233.976 Y294.783
G01 X231.789 Y293.966
G01 X229.643 Y293.041
G01 X227.544 Y292.012
G01 X225.497 Y290.881
G01 X223.507 Y289.650
G01 X221.578 Y288.322
G01 X219.717 Y286.900
G01 X217.926 Y285.388
G01 X216.211 Y283.789
G01 X214.575 Y282.107
G01 X213.023 Y280.346
G01 X211.559 Y278.510
G01 X210.186 Y276.603
G01 X208.907 Y274.630
G01 X207.726 Y272.596
G01 X206.646 Y270.505
G01 X205.670 Y268.362
G01 X204.799 Y266.173
G01 X204.036 Y263.943
G01 X203.383 Y261.677
G01 X202.842 Y259.380
G01 X202.414 Y257.059
G01 X202.101 Y254.718
G01 X201.902 Y252.363
G01 X201.820 Y250.000
G01 X201.853 Y247.635
G01 X202.003 Y245.273
G01 X202.268 Y242.920
G01 X202.649 Y240.581
G01 X203.144 Y238.263
G01 X203.753 Y235.971
G01 X204.473 Y233.710
G01 X205.305 Y231.487
G01 X206.245 Y229.305
G01 X207.291 Y227.172
G01 X208.441 Y225.091
G01 X209.693 Y223.068
G01 X211.043 Y221.108
G01 X212.489 Y219.216
G01 X214.026 Y217.395
G01 X215.652 Y215.652
G01 X217.362 Y213.990
G01 X219.153 Y212.413
G01 X221.020 Y210.925
G01 X222.958 Y209.529
G01 X224.964 Y208.230
G01 X227.032 Y207.030
G01 X229.158 Y205.932
G01 X231.335 Y204.940
G01 X233.561 Y204.055
G01 X235.828 Y203.280
G01 X238.131 Y202.617
G01 X240.466 Y202.068
G01 X242.825 Y201.633
G01 X245.205 Y201.315
G01 X247.598 Y201.113
G01 X250.000 Y201.030
G01 X252.404 Y201.064
G01 X254.805 Y201.217
G01 X257.196 Y201.487
G01 X259.573 Y201.874
G01 X261.929 Y202.378
G01 X264.258 Y202.997
G01 X266.556 Y203.730
G01 X268.816 Y204.575
G01 X271.032 Y205.531
G01 X273.201 Y206.594
G01 X275.315 Y207.764
G01 X277.371 Y209.037
G01 X279.363 Y210.409
G01 X281.286 Y211.878
G01 X283.135 Y213.441
G01 X284.906 Y215.094
G01 X286.595 Y216.832
G01 X288.198 Y218.652
G01 X289.710 Y220.549
G01 X291.128 Y222.519
G01 X292.448 Y224.558
G01 X293.667 Y226.660
G01 X294.782 Y228.820
G01 X295.790 Y231.033
G01 X296.689 Y233.295
G01 X297.476 Y235.598
G01 X298.149 Y237.939
G01 X298.707 Y240.312
G01 X299.148 Y242.710
G01 X299.471 Y245.128
G01 X299.675 Y247.560
G01 X299.760 Y250.000
G01 X299.725 Y252.443
G01 X299.570 Y254.882
G01 X299.295 Y257.312
G01 X298.901 Y259.727
G01 X298.388 Y262.121
G01 X297.759 Y264.488
G01 X297.014 Y266.822
G01 X296.155 Y269.118
G01 X295.183 Y271.370
G01 X294.102 Y273.573
G01 X292.913 Y275.721
G01 X291.620 Y277.810
G01 X290.225 Y279.833
G01 X288.732 Y281.787
G01 X287.144 Y283.665
G01 X285.465 Y285.465
G01 X283.699 Y287.181
G01 X281.849 Y288.808
G01 X279.921 Y290.344
G01 X277.919 Y291.784
G01 X275.848 Y293.125
G01 X273.713 Y294.363
G01 X271.518 Y295.496
G01 X269.269 Y296.520
G01 X266.972 Y297.432
G01 X264.631 Y298.231
G01 X262.253 Y298.915
G01 X259.843 Y299.482
G01 X257.406 Y299.929
G01 X254.950 Y300.257
G01 X252.479 Y300.464
G01 X250.000 Y300.550
G01 X247.518 Y300.514
G01 X245.040 Y300.356
G01 X242.572 Y300.076
G01 X240.119 Y299.675
G01 X237.687 Y299.155
G01 X235.283 Y298.515
G01 X232.912 Y297.758
G01 X230.580 Y296.884
G01 X228.292 Y295.897
G01 X226.055 Y294.799
G01 X223.873 Y293.591
G01 X221.751 Y292.277
G01 X219.696 Y290.860
G01 X217.712 Y289.343
G01 X215.804 Y287.729
G01 X213.977 Y286.023
G01 X212.234 Y284.229
G01 X210.581 Y282.350
G01 X209.021 Y280.392
G01 X207.559 Y278.358
G01 X206.197 Y276.254
G01 X204.940 Y274.085
G01 X203.790 Y271.856
G01 X202.751 Y269.571
G01 X201.824 Y267.238
G01 X201.013 Y264.860
G01 X200.319 Y262.445
G01 X199.744 Y259.997
G01 X199.289 Y257.522
G01 X198.957 Y255.027
G01 X198.747 Y252.518
G01 X198.660 Y250.000
G01 X198.697 Y247.480
G01 X198.858 Y244.963
G01 X199.143 Y242.456
G01 X199.550 Y239.965
G01 X200.079 Y237.495
G01 X200.729 Y235.054
G01 X201.499 Y232.646
G01 X202.386 Y230.278
G01 X203.389 Y227.954
G01 X204.505 Y225.682
G01 X205.732 Y223.467
G01 X207.066 Y221.313
G01 X208.506 Y219.226
G01 X210.047 Y217.211
G01 X211.685 Y215.274
G01 X213.418 Y213.418
G01 X215.241 Y211.649
G01 X217.149 Y209.970
G01 X219.138 Y208.387
G01 X221.203 Y206.902
G01 X223.340 Y205.520
G01 X225.543 Y204.244
G01 X227.807 Y203.076
G01 X230.126 Y202.021
G01 X232.496 Y201.080
G01 X234.911 Y200.257
G01 X237.364 Y199.552
G01 X239.849 Y198.969
G01 X242.362 Y198.508
G01 X244.895 Y198.171
G01 X247.443 Y197.958
G01 X250.000 Y197.870
G01 X252.559 Y197.909
G01 X255.114 Y198.072
G01 X257.660 Y198.361
G01 X260.189 Y198.775
G01 X262.696 Y199.313
G01 X265.175 Y199.973
G01 X267.620 Y200.755
G01 X270.025 Y201.656
G01 X272.383 Y202.675
G01 X274.690 Y203.808
G01 X276.940 Y205.054
G01 X279.126 Y206.410
G01 X281.245 Y207.871
G01 X283.290 Y209.436
G01 X285.257 Y211.100
G01 X287.140 Y212.860
G01 X288.936 Y214.710
G01 X290.640 Y216.648
G01 X292.248 Y218.667
G01 X293.755 Y220.764
G01 X295.158 Y222.934
G01 X296.453 Y225.170
G01 X297.638 Y227.469
G01 X298.709 Y229.824
G01 X299.663 Y232.230
G01 X300.499 Y234.681
G01 X301.214 Y237.172
G01 X301.806 Y239.695
G01 X302.273 Y242.246
G01 X302.615 Y244.818
G01 X302.831 Y247.405
G01 X302.919 Y250.000
G01 X302.880 Y252.598
G01 X302.714 Y255.192
G01 X302.420 Y257.776
G01 X301.999 Y260.343
G01 X301.453 Y262.888
G01 X300.782 Y265.405
G01 X299.989 Y267.886
G01 X299.074 Y270.327
G01 X298.039 Y272.721
G01 X296.888 Y275.062
G01 X295.623 Y277.346
G01 X294.247 Y279.565
G01 X292.763 Y281.715
G01 X291.174 Y283.791
G01 X289.485 Y285.787
G01 X287.699 Y287.699
G01 X285.820 Y289.522
G01 X283.854 Y291.251
G01 X281.803 Y292.882
G01 X279.675 Y294.411
G01 X277.472 Y295.835
G01 X275.202 Y297.150
G01 X272.869 Y298.352
G01 X270.478 Y299.438
G01 X268.036 Y300.407
G01 X265.548 Y301.255
G01 X263.020 Y301.980
G01 X260.459 Y302.580
G01 X257.870 Y303.055
G01 X255.260 Y303.401
G01 X252.634 Y303.620
G01 X250.000 Y303.709
G01 X247.363 Y303.669
G01 X244.731 Y303.500
G01 X242.108 Y303.201
G01 X239.503 Y302.774
G01 X236.920 Y302.219
G01 X234.366 Y301.538
G01 X231.848 Y300.732
G01 X229.371 Y299.803
G01 X226.941 Y298.753
G01 X224.565 Y297.585
G01 X222.248 Y296.301
G01 X219.996 Y294.904
G01 X217.814 Y293.397
G01 X215.708 Y291.785
G01 X213.682 Y290.070
G01 X211.743 Y288.257
G01 X209.893 Y286.351
G01 X208.139 Y284.355
G01 X206.484 Y282.274
G01 X204.932 Y280.113
G01 X203.487 Y277.879
G01 X202.154 Y275.574
G01 X200.934 Y273.206
G01 X199.832 Y270.780
G01 X198.849 Y268.302
G01 X197.989 Y265.777
G01 X197.254 Y263.212
G01 X196.645 Y260.613
G01 X196.164 Y257.986
G01 X195.813 Y255.337
G01 X195.591 Y252.673
G01 X195.501 Y250.000
G01 X195.542 Y247.325
G01 X195.714 Y244.653
G01 X196.018 Y241.992
G01 X196.451 Y239.349
G01 X197.014 Y236.728
G01 X197.706 Y234.137
G01 X198.524 Y231.582
G01 X199.467 Y229.069
G01 X200.533 Y226.604
G01 X201.718 Y224.193
G01 X203.022 Y221.842
G01 X204.439 Y219.557
G01 X205.968 Y217.344
G01 X207.605 Y215.207
G01 X209.345 Y213.152
G01 X211.184 Y211.184
G01 X213.119 Y209.308
G01 X215.144 Y207.528
G01 X217.256 Y205.849
G01 X219.448 Y204.275
G01 X221.715 Y202.810
G01 X224.053 Y201.457
G01 X226.456 Y200.220
G01 X228.917 Y199.102
G01 X231.432 Y198.106
G01 X233.993 Y197.234
G01 X236.596 Y196.488
G01 X239.233 Y195.870
G01 X241.898 Y195.383
G01 X244.586 Y195.026
G01 X247.288 Y194.802
G01 X250.000 Y194.711
G01 X252.714 Y194.753
G01 X255.424 Y194.928
G01 X258.123 Y195.236
G01 X260.806 Y195.677
G01 X263.464 Y196.248
G01 X266.093 Y196.950
G01 X268.684 Y197.780
G01 X271.234 Y198.737
G01 X273.734 Y199.819
G01 X276.179 Y201.022
G01 X278.564 Y202.344
G01 X280.881 Y203.783
G01 X283.127 Y205.334
G01 X285.294 Y206.994
G01 X287.378 Y208.759
G01 X289.374 Y210.626
G01 X291.277 Y212.588
G01 X293.082 Y214.643
G01 X294.785 Y216.785
G01 X296.381 Y219.009
G01 X297.867 Y221.309
G01 X299.239 Y223.681
G01 X300.494 Y226.118
G01 X301.628 Y228.615
G01 X302.638 Y231.166
G01 X303.522 Y233.764
G01 X304.278 Y236.404
G01 X304.904 Y239.079
G01 X305.399 Y241.782
G01 X305.760 Y244.508
G01 X305.987 Y247.250
G01 X306.079 Y250.000
G01 X306.036 Y252.753
G01 X305.858 Y255.502
G01 X305.545 Y258.239
G01 X305.098 Y260.960
G01 X304.518 Y263.656
G01 X303.806 Y266.322
G01 X302.963 Y268.951
G01 X301.992 Y271.536
G01 X300.895 Y274.072
G01 X299.675 Y276.552
G01 X298.333 Y278.970
G01 X296.874 Y281.320
G01 X295.301 Y283.597
G01 X293.617 Y285.795
G01 X291.826 Y287.909
G01 X289.933 Y289.933
G01 X287.942 Y291.863
G01 X285.858 Y293.693
G01 X283.685 Y295.420
G01 X281.430 Y297.038
G01 X279.097 Y298.545
G01 X276.691 Y299.936
G01 X274.219 Y301.208
G01 X271.687 Y302.357
G01 X269.100 Y303.382
G01 X266.465 Y304.278
G01 X263.788 Y305.045
G01 X261.075 Y305.679
G01 X258.333 Y306.180
G01 X255.569 Y306.546
G01 X252.789 Y306.775
G01 X250.000 Y306.869
G01 X247.208 Y306.825
G01 X244.421 Y306.644
G01 X241.645 Y306.326
G01 X238.886 Y305.873
G01 X236.152 Y305.284
G01 X233.449 Y304.562
G01 X230.783 Y303.707
G01 X228.162 Y302.722
G01 X225.591 Y301.609
G01 X223.076 Y300.371
G01 X220.624 Y299.011
G01 X218.241 Y297.531
G01 X215.932 Y295.935
G01 X213.704 Y294.227
G01 X211.561 Y292.411
G01 X209.509 Y290.491
G01 X207.552 Y288.472
G01 X205.697 Y286.359
G01 X203.946 Y284.156
G01 X202.305 Y281.869
G01 X200.778 Y279.503
G01 X199.367 Y277.064
G01 X198.078 Y274.557
G01 X196.913 Y271.989
G01 X195.875 Y269.366
G01 X194.966 Y266.694
G01 X194.189 Y263.980
G01 X193.546 Y261.229
G01 X193.039 Y258.449
G01 X192.668 Y255.647
G01 X192.436 Y252.828
G01 X192.342 Y250.000
G01 X192.386 Y247.170
G01 X192.570 Y244.344
G01 X192.892 Y241.529
G01 X193.353 Y238.732
G01 X193.950 Y235.960
G01 X194.683 Y233.220
G01 X195.549 Y230.517
G01 X196.548 Y227.860
G01 X197.677 Y225.253
G01 X198.932 Y222.704
G01 X200.312 Y220.218
G01 X201.813 Y217.802
G01 X203.431 Y215.462
G01 X205.162 Y213.203
G01 X207.004 Y211.030
G01 X208.950 Y208.950
G01 X210.997 Y206.967
G01 X213.140 Y205.086
G01 X215.374 Y203.312
G01 X217.692 Y201.648
G01 X220.091 Y200.100
G01 X222.564 Y198.671
G01 X225.105 Y197.364
G01 X227.708 Y196.183
G01 X230.368 Y195.131
G01 X233.076 Y194.210
G01 X235.828 Y193.423
G01 X238.617 Y192.772
G01 X241.435 Y192.258
G01 X244.276 Y191.882
G01 X247.133 Y191.647
G01 X250.000 Y191.552
G01 X252.869 Y191.597
G01 X255.734 Y191.784
G01 X258.587 Y192.111
G01 X261.422 Y192.578
G01 X264.232 Y193.184
G01 X267.010 Y193.927
G01 X269.749 Y194.806
G01 X272.443 Y195.818
G01 X275.085 Y196.963
G01 X277.669 Y198.236
G01 X280.188 Y199.634
G01 X282.637 Y201.156
G01 X285.009 Y202.796
G01 X287.298 Y204.552
G01 X289.500 Y206.418
G01 X291.608 Y208.392
G01 X293.618 Y210.467
G01 X295.525 Y212.639
G01 X297.323 Y214.903
G01 X299.008 Y217.254
G01 X300.577 Y219.685
G01 X302.026 Y222.192
G01 X303.350 Y224.767
G01 X304.546 Y227.406
G01 X305.613 Y230.101
G01 X306.546 Y232.847
G01 X307.343 Y235.636
G01 X308.003 Y238.462
G01 X308.524 Y241.319
G01 X308.904 Y244.198
G01 X309.142 Y247.095
G01 X309.238 Y250.000
G01 X309.191 Y252.908
G01 X309.002 Y255.811
G01 X308.670 Y258.703
G01 X308.197 Y261.576
G01 X307.583 Y264.424
G01 X306.829 Y267.239
G01 X305.938 Y270.015
G01 X304.911 Y272.745
G01 X303.751 Y275.423
G01 X302.461 Y278.041
G01 X301.043 Y280.594
G01 X299.501 Y283.075
G01 X297.838 Y285.479
G01 X296.059 Y287.799
G01 X294.167 Y290.031
G01 X292.167 Y292.167
G01 X290.064 Y294.203
G01 X287.862 Y296.135
G01 X285.567 Y297.957
G01 X283.185 Y299.665
G01 X280.721 Y301.255
G01 X278.181 Y302.722
G01 X275.570 Y304.064
G01 X272.896 Y305.276
G01 X270.165 Y306.356
G01 X267.382 Y307.301
G01 X264.556 Y308.109
G01 X261.692 Y308.778
G01 X258.797 Y309.305
G01 X255.879 Y309.690
G01 X252.944 Y309.931
G01 X250.000 Y310.028
G01 X247.053 Y309.980
G01 X244.111 Y309.788
G01 X241.181 Y309.451
G01 X238.270 Y308.971
G01 X235.384 Y308.349
G01 X232.532 Y307.585
G01 X229.719 Y306.682
G01 X226.953 Y305.641
G01 X224.240 Y304.465
G01 X221.587 Y303.158
G01 X219.000 Y301.721
G01 X216.486 Y300.158
G01 X214.050 Y298.473
G01 X211.699 Y296.669
G01 X209.439 Y294.752
G01 X207.275 Y292.725
G01 X205.211 Y290.594
G01 X203.254 Y288.363
G01 X201.408 Y286.038
G01 X199.678 Y283.624
G01 X198.068 Y281.127
G01 X196.581 Y278.553
G01 X195.222 Y275.908
G01 X193.994 Y273.198
G01 X192.900 Y270.431
G01 X191.943 Y267.611
G01 X191.125 Y264.748
G01 X190.448 Y261.846
G01 X189.914 Y258.913
G01 X189.524 Y255.956
G01 X189.280 Y252.983
G01 X189.182 Y250.000
G01 X189.231 Y247.015
G01 X189.426 Y244.034
G01 X189.767 Y241.065
G01 X190.254 Y238.116
G01 X190.885 Y235.192
G01 X191.659 Y232.303
G01 X192.575 Y229.453
G01 X193.629 Y226.650
G01 X194.821 Y223.902
G01 X196.146 Y221.214
G01 X197.602 Y218.594
G01 X199.186 Y216.047
G01 X200.893 Y213.580
G01 X202.720 Y211.198
G01 X204.663 Y208.909
G01 X206.716 Y206.716
G01 X208.875 Y204.626
G01 X211.136 Y202.644
G01 X213.492 Y200.774
G01 X215.937 Y199.021
G01 X218.467 Y197.390
G01 X221.075 Y195.885
G01 X223.754 Y194.508
G01 X226.499 Y193.264
G01 X229.303 Y192.156
G01 X232.159 Y191.187
G01 X235.061 Y190.358
G01 X238.000 Y189.673
G01 X240.971 Y189.132
G01 X243.966 Y188.738
G01 X246.978 Y188.491
G01 X250.000 Y188.392
G01 X253.024 Y188.442
G01 X256.043 Y188.640
G01 X259.051 Y188.986
G01 X262.038 Y189.479
G01 X264.999 Y190.119
G01 X267.927 Y190.903
G01 X270.813 Y191.831
G01 X273.652 Y192.900
G01 X276.436 Y194.107
G01 X279.158 Y195.449
G01 X281.812 Y196.924
G01 X284.392 Y198.529
G01 X286.891 Y200.259
G01 X289.303 Y202.110
G01 X291.622 Y204.077
G01 X293.842 Y206.158
G01 X295.959 Y208.345
G01 X297.967 Y210.635
G01 X299.860 Y213.021
G01 X301.635 Y215.498
G01 X303.287 Y218.061
G01 X304.812 Y220.702
G01 X306.206 Y223.417
G01 X307.465 Y226.197
G01 X308.587 Y229.037
G01 X309.569 Y231.930
G01 X310.408 Y234.869
G01 X311.102 Y237.846
G01 X311.649 Y240.855
G01 X312.048 Y243.889
G01 X312.298 Y246.940
G01 X312.397 Y250.000
G01 X312.347 Y253.063
G01 X312.146 Y256.121
G01 X311.795 Y259.166
G01 X311.295 Y262.192
G01 X310.647 Y265.191
G01 X309.852 Y268.156
G01 X308.913 Y271.079
G01 X307.830 Y273.954
G01 X306.607 Y276.773
G01 X305.247 Y279.530
G01 X303.753 Y282.218
G01 X302.128 Y284.831
G01 X300.376 Y287.361
G01 X298.501 Y289.804
G01 X296.508 Y292.152
G01 X294.401 Y294.401
G01 X292.185 Y296.544
G01 X289.866 Y298.577
G01 X287.449 Y300.495
G01 X284.940 Y302.292
G01 X282.345 Y303.965
G01 X279.670 Y305.509
G01 X276.921 Y306.920
G01 X274.105 Y308.195
G01 X271.229 Y309.331
G01 X268.299 Y310.325
G01 X265.323 Y311.174
G01 X262.308 Y311.876
G01 X259.261 Y312.430
G01 X256.189 Y312.834
G01 X253.099 Y313.087
G01 X250.000 Y313.187
G01 X246.898 Y313.136
G01 X243.802 Y312.932
G01 X240.718 Y312.577
G01 X237.654 Y312.070
G01 X234.617 Y311.413
G01 X231.615 Y310.608
G01 X228.655 Y309.656
G01 X225.744 Y308.560
G01 X222.889 Y307.321
G01 X220.097 Y305.944
G01 X217.376 Y304.430
G01 X214.730 Y302.785
G01 X212.168 Y301.010
G01 X209.695 Y299.112
G01 X207.317 Y297.093
G01 X205.041 Y294.959
G01 X202.870 Y292.716
G01 X200.812 Y290.367
G01 X198.871 Y287.920
G01 X197.051 Y285.379
G01 X195.358 Y282.751
G01 X193.795 Y280.042
G01 X192.366 Y277.259
G01 X191.075 Y274.407
G01 X189.925 Y271.495
G01 X188.919 Y268.529
G01 X188.060 Y265.515
G01 X187.349 Y262.462
G01 X186.789 Y259.377
G01 X186.380 Y256.266
G01 X186.125 Y253.138
G01 X186.023 Y250.000
G01 X186.075 Y246.860
G01 X186.282 Y243.724
G01 X186.642 Y240.602
G01 X187.155 Y237.499
G01 X187.820 Y234.425
G01 X188.636 Y231.385
G01 X189.600 Y228.389
G01 X190.710 Y225.441
G01 X191.965 Y222.551
G01 X193.360 Y219.725
G01 X194.892 Y216.970
G01 X196.559 Y214.292
G01 X198.355 Y211.698
G01 X200.278 Y209.194
G01 X202.322 Y206.787
G01 X204.482 Y204.482
G01 X206.754 Y202.285
G01 X209.131 Y200.202
G01 X211.609 Y198.236
G01 X214.182 Y196.394
G01 X216.843 Y194.680
G01 X219.585 Y193.098
G01 X222.404 Y191.652
G01 X225.290 Y190.346
G01 X228.239 Y189.182
G01 X231.242 Y188.164
G01 X234.293 Y187.294
G01 X237.384 Y186.574
G01 X240.508 Y186.007
G01 X243.657 Y185.594
G01 X246.823 Y185.336
G01 X250.000 Y185.233
G01 X253.179 Y185.286
G01 X256.353 Y185.496
G01 X259.514 Y185.861
G01 X262.655 Y186.381
G01 X265.767 Y187.054
G01 X268.844 Y187.880
G01 X271.878 Y188.856
G01 X274.861 Y189.981
G01 X277.786 Y191.251
G01 X280.647 Y192.663
G01 X283.436 Y194.215
G01 X286.147 Y195.902
G01 X288.773 Y197.721
G01 X291.307 Y199.667
G01 X293.743 Y201.736
G01 X296.076 Y203.924
G01 X298.300 Y206.223
G01 X300.409 Y208.630
G01 X302.398 Y211.139
G01 X304.262 Y213.743
G01 X305.997 Y216.437
G01 X307.598 Y219.213
G01 X309.062 Y222.066
G01 X310.384 Y224.988
G01 X311.562 Y227.973
G01 X312.592 Y231.013
G01 X313.472 Y234.101
G01 X314.200 Y237.230
G01 X314.774 Y240.392
G01 X315.192 Y243.579
G01 X315.453 Y246.784
G01 X315.557 Y250.000
G01 X315.503 Y253.218
G01 X315.290 Y256.431
G01 X314.921 Y259.630
G01 X314.394 Y262.809
G01 X313.712 Y265.959
G01 X312.876 Y269.073
G01 X311.887 Y272.144
G01 X310.749 Y275.163
G01 X309.463 Y278.124
G01 X308.034 Y281.020
G01 X306.463 Y283.843
G01 X304.755 Y286.586
G01 X302.913 Y289.243
G01 X300.943 Y291.808
G01 X298.849 Y294.274
G01 X296.635 Y296.635
G01 X294.307 Y298.885
G01 X291.871 Y301.020
G01 X289.332 Y303.032
G01 X286.696 Y304.919
G01 X283.969 Y306.675
G01 X281.159 Y308.295
G01 X278.272 Y309.776
G01 X275.314 Y311.114
G01 X272.293 Y312.306
G01 X269.216 Y313.348
G01 X266.091 Y314.239
G01 X262.924 Y314.975
G01 X259.724 Y315.555
G01 X256.498 Y315.978
G01 X253.254 Y316.242
G01 X250.000 Y316.347
G01 X246.743 Y316.291
G01 X243.492 Y316.076
G01 X240.254 Y315.702
G01 X237.037 Y315.169
G01 X233.849 Y314.478
G01 X230.698 Y313.632
G01 X227.590 Y312.631
G01 X224.535 Y311.479
G01 X221.538 Y310.177
G01 X218.608 Y308.730
G01 X215.751 Y307.140
G01 X212.975 Y305.412
G01 X210.286 Y303.548
G01 X207.691 Y301.554
G01 X205.196 Y299.434
G01 X202.807 Y297.193
G01 X200.529 Y294.837
G01 X198.370 Y292.372
G01 X196.333 Y289.802
G01 X194.424 Y287.134
G01 X192.648 Y284.375
G01 X191.009 Y281.532
G01 X189.510 Y278.610
G01 X188.156 Y275.616
G01 X186.951 Y272.559
G01 X185.896 Y269.446
G01 X184.995 Y266.283
G01 X184.250 Y263.078
G01 X183.663 Y259.840
G01 X183.236 Y256.576
G01 X182.969 Y253.293
G01 X182.863 Y250.000
G01 X182.920 Y246.705
G01 X183.138 Y243.415
G01 X183.517 Y240.138
G01 X184.057 Y236.883
G01 X184.756 Y233.657
G01 X185.613 Y230.468
G01 X186.625 Y227.324
G01 X187.792 Y224.232
G01 X189.108 Y221.200
G01 X190.573 Y218.236
G01 X192.182 Y215.345
G01 X193.932 Y212.536
G01 X195.818 Y209.816
G01 X197.836 Y207.190
G01 X199.981 Y204.665
G01 X202.248 Y202.248
G01 X204.632 Y199.944
G01 X207.127 Y197.759
G01 X209.727 Y195.699
G01 X212.427 Y193.768
G01 X215.218 Y191.970
G01 X218.096 Y190.312
G01 X221.053 Y188.796
G01 X224.081 Y187.427
G01 X227.175 Y186.207
G01 X230.325 Y185.140
G01 X233.525 Y184.229
G01 X236.767 Y183.476
G01 X240.044 Y182.882
G01 X243.347 Y182.450
G01 X246.668 Y182.180
G01 X250.000 Y182.074
G01 X253.334 Y182.131
G01 X256.663 Y182.352
G01 X259.978 Y182.736
G01 X263.271 Y183.282
G01 X266.535 Y183.990
G01 X269.761 Y184.857
G01 X272.942 Y185.882
G01 X276.070 Y187.062
G01 X279.137 Y188.394
G01 X282.137 Y189.877
G01 X285.061 Y191.505
G01 X287.902 Y193.275
G01 X290.655 Y195.183
G01 X293.311 Y197.225
G01 X295.865 Y199.396
G01 X298.310 Y201.690
G01 X300.641 Y204.102
G01 X302.851 Y206.626
G01 X304.936 Y209.257
G01 X306.889 Y211.988
G01 X308.707 Y214.812
G01 X310.385 Y217.724
G01 X311.918 Y220.715
G01 X313.303 Y223.779
G01 X314.537 Y226.908
G01 X315.616 Y230.096
G01 X316.537 Y233.333
G01 X317.299 Y236.613
G01 X317.899 Y239.928
G01 X318.336 Y243.269
G01 X318.609 Y246.629
G01 X318.716 Y250.000
G01 X318.658 Y253.373
G01 X318.434 Y256.740
G01 X318.046 Y260.094
G01 X317.493 Y263.425
G01 X316.777 Y266.727
G01 X315.899 Y269.990
G01 X314.862 Y273.208
G01 X313.668 Y276.372
G01 X312.320 Y279.475
G01 X310.820 Y282.509
G01 X309.173 Y285.467
G01 X307.382 Y288.341
G01 X305.451 Y291.125
G01 X303.385 Y293.812
G01 X301.190 Y296.396
G01 X298.869 Y298.869
G01 X296.429 Y301.226
G01 X293.875 Y303.462
G01 X291.214 Y305.570
G01 X288.451 Y307.546
G01 X285.594 Y309.384
G01 X282.649 Y311.081
G01 X279.623 Y312.632
G01 X276.523 Y314.033
G01 X273.358 Y315.280
G01 X270.134 Y316.371
G01 X266.859 Y317.303
G01 X263.541 Y318.074
G01 X260.188 Y318.680
G01 X256.808 Y319.122
G01 X253.409 Y319.398
G01 X250.000 Y319.506
G01 X246.588 Y319.447
G01 X243.182 Y319.220
G01 X239.790 Y318.827
G01 X236.421 Y318.267
G01 X233.081 Y317.543
G01 X229.780 Y316.655
G01 X226.526 Y315.606
G01 X223.326 Y314.398
G01 X220.187 Y313.034
G01 X217.119 Y311.517
G01 X214.127 Y309.850
G01 X211.220 Y308.038
G01 X208.404 Y306.086
G01 X205.687 Y303.996
G01 X203.074 Y301.775
G01 X200.573 Y299.427
G01 X198.189 Y296.959
G01 X195.928 Y294.376
G01 X193.796 Y291.684
G01 X191.797 Y288.890
G01 X189.938 Y286.000
G01 X188.222 Y283.021
G01 X186.654 Y279.960
G01 X185.238 Y276.826
G01 X183.976 Y273.624
G01 X182.873 Y270.363
G01 X181.931 Y267.051
G01 X181.152 Y263.695
G01 X180.538 Y260.304
G01 X180.092 Y256.885
G01 X179.813 Y253.448
G01 X179.704 Y250.000
G01 X179.764 Y246.550
G01 X179.993 Y243.105
G01 X180.392 Y239.675
G01 X180.958 Y236.267
G01 X181.691 Y232.890
G01 X182.589 Y229.551
G01 X183.651 Y226.260
G01 X184.873 Y223.023
G01 X186.252 Y219.850
G01 X187.787 Y216.746
G01 X189.472 Y213.721
G01 X191.305 Y210.781
G01 X193.280 Y207.934
G01 X195.393 Y205.186
G01 X197.640 Y202.544
G01 X200.014 Y200.014
G01 X202.510 Y197.603
G01 X205.123 Y195.317
G01 X207.845 Y193.161
G01 X210.671 Y191.141
G01 X213.594 Y189.261
G01 X216.607 Y187.526
G01 X219.702 Y185.940
G01 X222.872 Y184.508
G01 X226.110 Y183.232
G01 X229.408 Y182.117
G01 X232.758 Y181.164
G01 X236.151 Y180.377
G01 X239.580 Y179.757
G01 X243.037 Y179.306
G01 X246.513 Y179.025
G01 X250.000 Y178.914
G01 X253.489 Y178.975
G01 X256.972 Y179.207
G01 X260.441 Y179.610
G01 X263.887 Y180.183
G01 X267.302 Y180.925
G01 X270.678 Y181.833
G01 X274.006 Y182.907
G01 X277.279 Y184.143
G01 X280.488 Y185.538
G01 X283.626 Y187.090
G01 X286.685 Y188.795
G01 X289.658 Y190.648
G01 X292.537 Y192.646
G01 X295.316 Y194.783
G01 X297.987 Y197.055
G01 X300.544 Y199.456
G01 X302.982 Y201.980
G01 X305.293 Y204.622
G01 X307.473 Y207.375
G01 X309.516 Y210.233
G01 X311.417 Y213.188
G01 X313.171 Y216.234
G01 X314.774 Y219.364
G01 X316.222 Y222.570
G01 X317.511 Y225.844
G01 X318.639 Y229.179
G01 X319.602 Y232.566
G01 X320.398 Y235.997
G01 X321.024 Y239.465
G01 X321.480 Y242.960
G01 X321.764 Y246.474
G01 X321.876 Y250.000
G01 X321.814 Y253.528
G01 X321.579 Y257.050
G01 X321.171 Y260.557
G01 X320.591 Y264.041
G01 X319.841 Y267.494
G01 X318.922 Y270.907
G01 X317.837 Y274.272
G01 X316.587 Y277.581
G01 X315.176 Y280.826
G01 X313.606 Y283.998
G01 X311.883 Y287.091
G01 X310.009 Y290.096
G01 X307.989 Y293.007
G01 X305.828 Y295.817
G01 X303.531 Y298.517
G01 X301.103 Y301.103
G01 X298.550 Y303.567
G01 X295.879 Y305.904
G01 X293.096 Y308.108
G01 X290.206 Y310.173
G01 X287.218 Y312.094
G01 X284.138 Y313.867
G01 X280.973 Y315.488
G01 X277.732 Y316.952
G01 X274.422 Y318.255
G01 X271.051 Y319.395
G01 X267.626 Y320.368
G01 X264.157 Y321.172
G01 X260.651 Y321.806
G01 X257.118 Y322.266
G01 X253.564 Y322.553
G01 X250.000 Y322.665
G01 X246.433 Y322.603
G01 X242.873 Y322.365
G01 X239.327 Y321.952
G01 X235.804 Y321.366
G01 X232.314 Y320.607
G01 X228.863 Y319.678
G01 X225.462 Y318.580
G01 X222.117 Y317.317
G01 X218.837 Y315.890
G01 X215.629 Y314.303
G01 X212.503 Y312.560
G01 X209.465 Y310.665
G01 X206.522 Y308.623
G01 X203.682 Y306.438
G01 X200.952 Y304.116
G01 X198.339 Y301.661
G01 X195.848 Y299.081
G01 X193.485 Y296.380
G01 X191.258 Y293.566
G01 X189.170 Y290.645
G01 X187.228 Y287.624
G01 X185.436 Y284.510
G01 X183.798 Y281.311
G01 X182.319 Y278.035
G01 X181.001 Y274.688
G01 X179.849 Y271.280
G01 X178.866 Y267.818
G01 X178.053 Y264.311
G01 X177.413 Y260.767
G01 X176.948 Y257.195
G01 X176.658 Y253.603
G01 X176.545 Y250.000
G01 X176.609 Y246.395
G01 X176.849 Y242.795
G01 X177.267 Y239.211
G01 X177.859 Y235.650
G01 X178.626 Y232.122
G01 X179.566 Y228.634
G01 X180.676 Y225.195
G01 X181.954 Y221.814
G01 X183.396 Y218.499
G01 X185.001 Y215.257
G01 X186.762 Y212.097
G01 X188.678 Y209.026
G01 X190.742 Y206.052
G01 X192.951 Y203.181
G01 X195.299 Y200.422
G01 X197.780 Y197.780
G01 X200.389 Y195.262
G01 X203.119 Y192.875
G01 X205.963 Y190.624
G01 X208.916 Y188.514
G01 X211.970 Y186.551
G01 X215.117 Y184.739
G01 X218.351 Y183.084
G01 X221.663 Y181.589
G01 X225.046 Y180.258
G01 X228.491 Y179.094
G01 X231.990 Y178.100
G01 X235.535 Y177.278
G01 X239.117 Y176.632
G01 X242.728 Y176.162
G01 X246.358 Y175.869
G01 X250.000 Y175.755
G01 X253.644 Y175.820
G01 X257.282 Y176.063
G01 X260.905 Y176.485
G01 X264.504 Y177.085
G01 X268.070 Y177.860
G01 X271.595 Y178.810
G01 X275.071 Y179.932
G01 X278.488 Y181.224
G01 X281.839 Y182.682
G01 X285.115 Y184.304
G01 X288.309 Y186.085
G01 X291.413 Y188.021
G01 X294.419 Y190.108
G01 X297.320 Y192.341
G01 X300.109 Y194.714
G01 X302.778 Y197.222
G01 X305.323 Y199.858
G01 X307.736 Y202.618
G01 X310.011 Y205.493
G01 X312.143 Y208.477
G01 X314.127 Y211.564
G01 X315.957 Y214.745
G01 X317.630 Y218.013
G01 X319.141 Y221.361
G01 X320.486 Y224.780
G01 X321.662 Y228.261
G01 X322.667 Y231.798
G01 X323.496 Y235.381
G01 X324.150 Y239.001
G01 X324.624 Y242.650
G01 X324.920 Y246.319
G01 X325.035 Y250.000
G01 X324.969 Y253.683
G01 X324.723 Y257.360
G01 X324.296 Y261.021
G01 X323.690 Y264.658
G01 X322.906 Y268.262
G01 X321.946 Y271.824
G01 X320.811 Y275.337
G01 X319.506 Y278.790
G01 X318.032 Y282.177
G01 X316.393 Y285.488
G01 X314.592 Y288.715
G01 X312.636 Y291.852
G01 X310.526 Y294.889
G01 X308.270 Y297.821
G01 X305.872 Y300.639
G01 X303.337 Y303.337
G01 X300.672 Y305.908
G01 X297.884 Y308.346
G01 X294.978 Y310.645
G01 X291.961 Y312.800
G01 X288.842 Y314.804
G01 X285.627 Y316.654
G01 X282.324 Y318.344
G01 X278.941 Y319.871
G01 X275.486 Y321.230
G01 X271.968 Y322.418
G01 X268.394 Y323.433
G01 X264.773 Y324.271
G01 X261.115 Y324.931
G01 X257.427 Y325.411
G01 X253.719 Y325.709
G01 X250.000 Y325.825
G01 X246.278 Y325.758
G01 X242.563 Y325.509
G01 X238.863 Y325.077
G01 X235.188 Y324.465
G01 X231.546 Y323.672
G01 X227.946 Y322.702
G01 X224.397 Y321.555
G01 X220.908 Y320.235
G01 X217.486 Y318.746
G01 X214.140 Y317.089
G01 X210.879 Y315.270
G01 X207.709 Y313.292
G01 X204.640 Y311.161
G01 X201.678 Y308.880
G01 X198.831 Y306.457
G01 X196.105 Y303.895
G01 X193.507 Y301.203
G01 X191.043 Y298.385
G01 X188.720 Y295.448
G01 X186.544 Y292.400
G01 X184.518 Y289.248
G01 X182.650 Y286.000
G01 X180.942 Y282.662
G01 X179.400 Y279.244
G01 X178.027 Y275.752
G01 X176.826 Y272.197
G01 X175.801 Y268.586
G01 X174.954 Y264.928
G01 X174.288 Y261.231
G01 X173.803 Y257.505
G01 X173.502 Y253.758
G01 X173.385 Y250.000
G01 X173.453 Y246.239
G01 X173.705 Y242.486
G01 X174.141 Y238.747
G01 X174.761 Y235.034
G01 X175.562 Y231.354
G01 X176.543 Y227.717
G01 X177.701 Y224.131
G01 X179.035 Y220.605
G01 X180.540 Y217.148
G01 X182.214 Y213.768
G01 X184.053 Y210.473
G01 X186.051 Y207.271
G01 X188.205 Y204.170
G01 X190.509 Y201.177
G01 X192.958 Y198.300
G01 X195.546 Y195.546
G01 X198.267 Y192.921
G01 X201.114 Y190.433
G01 X204.081 Y188.086
G01 X207.161 Y185.887
G01 X210.346 Y183.841
G01 X213.628 Y181.953
G01 X217.000 Y180.228
G01 X220.454 Y178.670
G01 X223.981 Y177.283
G01 X227.574 Y176.070
G01 X231.222 Y175.035
G01 X234.918 Y174.180
G01 X238.653 Y173.507
G01 X242.418 Y173.017
G01 X246.203 Y172.713
G01 X250.000 Y172.596
G01 X253.799 Y172.664
G01 X257.592 Y172.919
G01 X261.368 Y173.360
G01 X265.120 Y173.986
G01 X268.838 Y174.796
G01 X272.512 Y175.787
G01 X276.135 Y176.958
G01 X279.697 Y178.305
G01 X283.190 Y179.826
G01 X286.605 Y181.518
G01 X289.933 Y183.375
G01 X293.168 Y185.394
G01 X296.301 Y187.570
G01 X299.324 Y189.898
G01 X302.230 Y192.373
G01 X305.012 Y194.988
G01 X307.664 Y197.737
G01 X310.178 Y200.613
G01 X312.549 Y203.611
G01 X314.770 Y206.722
G01 X316.837 Y209.940
G01 X318.744 Y213.256
G01 X320.486 Y216.663
G01 X322.060 Y220.152
G01 X323.461 Y223.715
G01 X324.686 Y227.344
G01 X325.731 Y231.030
G01 X326.595 Y234.764
G01 X327.275 Y238.537
G01 X327.769 Y242.340
G01 X328.075 Y246.164
G01 X328.194 Y250.000
G01 X328.125 Y253.838
G01 X327.867 Y257.669
G01 X327.421 Y261.484
G01 X326.789 Y265.274
G01 X325.971 Y269.030
G01 X324.969 Y272.742
G01 X323.786 Y276.401
G01 X322.425 Y279.999
G01 X320.888 Y283.527
G01 X319.179 Y286.977
G01 X317.302 Y290.339
G01 X315.262 Y293.607
G01 X313.064 Y296.771
G01 X310.712 Y299.825
G01 X308.212 Y302.761
G01 X305.571 Y305.571
G01 X302.794 Y308.249
G01 X299.888 Y310.788
G01 X296.860 Y313.183
G01 X293.717 Y315.427
G01 X290.466 Y317.514
G01 X287.117 Y319.440
G01 X283.675 Y321.200
G01 X280.150 Y322.789
G01 X276.551 Y324.204
G01 X272.885 Y325.441
G01 X269.162 Y326.497
G01 X265.390 Y327.370
G01 X261.579 Y328.056
G01 X257.737 Y328.555
G01 X253.874 Y328.864
G01 X250.000 Y328.984
G01 X246.123 Y328.914
G01 X242.253 Y328.653
G01 X238.400 Y328.202
G01 X234.572 Y327.563
G01 X230.778 Y326.737
G01 X227.029 Y325.725
G01 X223.333 Y324.530
G01 X219.699 Y323.154
G01 X216.135 Y321.602
G01 X212.651 Y319.875
G01 X209.254 Y317.980
G01 X205.954 Y315.919
G01 X202.758 Y313.698
G01 X199.674 Y311.323
G01 X196.709 Y308.798
G01 X193.871 Y306.129
G01 X191.166 Y303.324
G01 X188.601 Y300.389
G01 X186.183 Y297.330
G01 X183.917 Y294.155
G01 X181.808 Y290.872
G01 X179.863 Y287.489
G01 X178.086 Y284.013
G01 X176.481 Y280.453
G01 X175.052 Y276.817
G01 X173.803 Y273.114
G01 X172.736 Y269.354
G01 X171.856 Y265.544
G01 X171.163 Y261.694
G01 X170.659 Y257.814
G01 X170.347 Y253.913
G01 X170.226 Y250.000
G01 X170.297 Y246.084
G01 X170.561 Y242.176
G01 X171.016 Y238.284
G01 X171.662 Y234.418
G01 X172.497 Y230.587
G01 X173.519 Y226.800
G01 X174.727 Y223.067
G01 X176.116 Y219.396
G01 X177.684 Y215.797
G01 X179.428 Y212.278
G01 X181.343 Y208.848
G01 X183.424 Y205.515
G01 X185.667 Y202.288
G01 X188.067 Y199.173
G01 X190.617 Y196.178
G01 X193.312 Y193.312
G01 X196.145 Y190.580
G01 X199.110 Y187.990
G01 X202.199 Y185.548
G01 X205.406 Y183.260
G01 X208.722 Y181.131
G01 X212.139 Y179.167
G01 X215.650 Y177.372
G01 X219.245 Y175.751
G01 X222.917 Y174.308
G01 X226.657 Y173.047
G01 X230.455 Y171.970
G01 X234.302 Y171.081
G01 X238.190 Y170.381
G01 X242.108 Y169.873
G01 X246.048 Y169.558
G01 X250.000 Y169.436
G01 X253.954 Y169.509
G01 X257.901 Y169.775
G01 X261.832 Y170.235
G01 X265.736 Y170.887
G01 X269.605 Y171.731
G01 X273.429 Y172.764
G01 X277.199 Y173.983
G01 X280.906 Y175.386
G01 X284.540 Y176.970
G01 X288.094 Y178.731
G01 X291.558 Y180.665
G01 X294.923 Y182.767
G01 X298.183 Y185.033
G01 X301.328 Y187.456
G01 X304.352 Y190.032
G01 X307.246 Y192.754
G01 X310.005 Y195.615
G01 X312.620 Y198.609
G01 X315.086 Y201.729
G01 X317.397 Y204.967
G01 X319.546 Y208.315
G01 X321.530 Y211.767
G01 X323.342 Y215.312
G01 X324.979 Y218.943
G01 X326.435 Y222.651
G01 X327.709 Y226.427
G01 X328.796 Y230.263
G01 X329.694 Y234.148
G01 X330.400 Y238.074
G01 X330.913 Y242.031
G01 X331.231 Y246.009
G01 X331.354 Y250.000
G01 X331.280 Y253.993
G01 X331.011 Y257.979
G01 X330.546 Y261.948
G01 X329.887 Y265.891
G01 X329.035 Y269.797
G01 X327.992 Y273.659
G01 X326.761 Y277.465
G01 X325.343 Y281.208
G01 X323.744 Y284.878
G01 X321.965 Y288.466
G01 X320.012 Y291.964
G01 X317.889 Y295.362
G01 X315.602 Y298.653
G01 X313.154 Y301.829
G01 X310.553 Y304.882
G01 X307.805 Y307.805
G01 X304.916 Y310.590
G01 X301.892 Y313.231
G01 X298.742 Y315.721
G01 X295.472 Y318.054
G01 X292.091 Y320.224
G01 X288.606 Y322.226
G01 X285.026 Y324.056
G01 X281.359 Y325.708
G01 X277.615 Y327.179
G01 X273.802 Y328.465
G01 X269.929 Y329.562
G01 X266.006 Y330.468
G01 X262.042 Y331.181
G01 X258.047 Y331.699
G01 X254.029 Y332.020
G01 X250.000 Y332.144
G01 X245.968 Y332.069
G01 X241.944 Y331.797
G01 X237.936 Y331.328
G01 X233.955 Y330.662
G01 X230.011 Y329.801
G01 X226.112 Y328.748
G01 X222.268 Y327.504
G01 X218.489 Y326.073
G01 X214.784 Y324.458
G01 X211.161 Y322.662
G01 X207.630 Y320.690
G01 X204.199 Y318.546
G01 X200.876 Y316.236
G01 X197.669 Y313.765
G01 X194.587 Y311.139
G01 X191.637 Y308.363
G01 X188.825 Y305.446
G01 X186.159 Y302.393
G01 X183.645 Y299.212
G01 X181.290 Y295.911
G01 X179.099 Y292.497
G01 X177.077 Y288.978
G01 X175.230 Y285.364
G01 X173.562 Y281.662
G01 X172.077 Y277.881
G01 X170.779 Y274.031
G01 X169.672 Y270.121
G01 X168.757 Y266.160
G01 X168.038 Y262.158
G01 X167.515 Y258.124
G01 X167.191 Y254.068
G01 X167.067 Y250.000
G01 X167.142 Y245.929
G01 X167.417 Y241.866
G01 X167.891 Y237.820
G01 X168.563 Y233.801
G01 X169.432 Y229.819
G01 X170.496 Y225.883
G01 X171.752 Y222.002
G01 X173.197 Y218.187
G01 X174.828 Y214.446
G01 X176.642 Y210.789
G01 X178.633 Y207.224
G01 X180.797 Y203.760
G01 X183.130 Y200.406
G01 X185.625 Y197.168
G01 X188.276 Y194.057
G01 X191.078 Y191.078
G01 X194.024 Y188.240
G01 X197.106 Y185.548
G01 X200.317 Y183.011
G01 X203.650 Y180.633
G01 X207.097 Y178.421
G01 X210.650 Y176.380
G01 X214.299 Y174.516
G01 X218.036 Y172.832
G01 X221.853 Y171.334
G01 X225.739 Y170.024
G01 X229.687 Y168.906
G01 X233.686 Y167.982
G01 X237.726 Y167.256
G01 X241.799 Y166.729
G01 X245.893 Y166.402
G01 X250.000 Y166.277
G01 X254.109 Y166.353
G01 X258.211 Y166.631
G01 X262.296 Y167.110
G01 X266.353 Y167.789
G01 X270.373 Y168.666
G01 X274.347 Y169.740
G01 X278.264 Y171.008
G01 X282.115 Y172.467
G01 X285.891 Y174.114
G01 X289.583 Y175.945
G01 X293.182 Y177.955
G01 X296.679 Y180.140
G01 X300.065 Y182.495
G01 X303.333 Y185.014
G01 X306.474 Y187.691
G01 X309.480 Y190.520
G01 X312.346 Y193.493
G01 X315.062 Y196.605
G01 X317.624 Y199.847
G01 X320.024 Y203.212
G01 X322.256 Y206.691
G01 X324.316 Y210.277
G01 X326.198 Y213.961
G01 X327.897 Y217.734
G01 X329.410 Y221.587
G01 X330.732 Y225.510
G01 X331.861 Y229.495
G01 X332.792 Y233.532
G01 X333.525 Y237.610
G01 X334.057 Y241.721
G01 X334.387 Y245.854
G01 X334.513 Y250.000
G01 X334.436 Y254.148
G01 X334.155 Y258.289
G01 X333.672 Y262.412
G01 X332.986 Y266.507
G01 X332.100 Y270.565
G01 X331.016 Y274.576
G01 X329.735 Y278.530
G01 X328.262 Y282.417
G01 X326.600 Y286.229
G01 X324.752 Y289.956
G01 X322.722 Y293.588
G01 X320.516 Y297.117
G01 X318.139 Y300.535
G01 X315.597 Y303.834
G01 X312.894 Y307.004
G01 X310.039 Y310.039
G01 X307.037 Y312.931
G01 X303.896 Y315.673
G01 X300.624 Y318.258
G01 X297.227 Y320.680
G01 X293.715 Y322.934
G01 X290.095 Y325.013
G01 X286.377 Y326.912
G01 X282.568 Y328.627
G01 X278.679 Y330.154
G01 X274.719 Y331.488
G01 X270.697 Y332.627
G01 X266.623 Y333.567
G01 X262.506 Y334.306
G01 X258.356 Y334.843
G01 X254.184 Y335.175
G01 X250.000 Y335.303
G01 X245.813 Y335.225
G01 X241.634 Y334.941
G01 X237.473 Y334.453
G01 X233.339 Y333.761
G01 X229.243 Y332.866
G01 X225.195 Y331.771
G01 X221.204 Y330.479
G01 X217.280 Y328.992
G01 X213.433 Y327.314
G01 X209.672 Y325.448
G01 X206.006 Y323.400
G01 X202.444 Y321.173
G01 X198.994 Y318.774
G01 X195.665 Y316.207
G01 X192.465 Y313.480
G01 X189.403 Y310.597
G01 X186.484 Y307.568
G01 X183.717 Y304.397
G01 X181.107 Y301.094
G01 X178.663 Y297.666
G01 X176.389 Y294.121
G01 X174.291 Y290.467
G01 X172.374 Y286.714
G01 X170.643 Y282.871
G01 X169.103 Y278.946
G01 X167.756 Y274.948
G01 X166.607 Y270.889
G01 X165.658 Y266.777
G01 X164.912 Y262.622
G01 X164.371 Y258.434
G01 X164.036 Y254.223
G01 X163.907 Y250.000
G01 X163.986 Y245.774
G01 X164.273 Y241.557
G01 X164.766 Y237.357
G01 X165.465 Y233.185
G01 X166.368 Y229.051
G01 X167.473 Y224.966
G01 X168.777 Y220.938
G01 X170.278 Y216.978
G01 X171.972 Y213.096
G01 X173.855 Y209.300
G01 X175.923 Y205.600
G01 X178.170 Y202.005
G01 X180.592 Y198.523
G01 X183.182 Y195.164
G01 X185.935 Y191.935
G01 X188.844 Y188.844
G01 X191.902 Y185.899
G01 X195.102 Y183.106
G01 X198.435 Y180.473
G01 X201.895 Y178.006
G01 X205.473 Y175.711
G01 X209.160 Y173.594
G01 X212.948 Y171.660
G01 X216.827 Y169.913
G01 X220.788 Y168.359
G01 X224.822 Y167.000
G01 X228.919 Y165.841
G01 X233.069 Y164.884
G01 X237.263 Y164.131
G01 X241.489 Y163.585
G01 X245.738 Y163.247
G01 X250.000 Y163.117
G01 X254.264 Y163.197
G01 X258.521 Y163.487
G01 X262.759 Y163.985
G01 X266.969 Y164.690
G01 X271.141 Y165.601
G01 X275.264 Y166.717
G01 X279.328 Y168.034
G01 X283.324 Y169.549
G01 X287.242 Y171.258
G01 X291.073 Y173.159
G01 X294.806 Y175.245
G01 X298.434 Y177.514
G01 X301.947 Y179.958
G01 X305.337 Y182.572
G01 X308.595 Y185.350
G01 X311.714 Y188.286
G01 X314.687 Y191.371
G01 X317.505 Y194.600
G01 X320.161 Y197.965
G01 X322.651 Y201.456
G01 X324.966 Y205.067
G01 X327.102 Y208.788
G01 X329.054 Y212.610
G01 X330.816 Y216.525
G01 X332.385 Y220.522
G01 X333.756 Y224.593
G01 X334.925 Y228.727
G01 X335.891 Y232.915
G01 X336.650 Y237.147
G01 X337.201 Y241.411
G01 X337.542 Y245.699
G01 X337.672 Y250.000
G01 X337.591 Y254.303
G01 X337.299 Y258.598
G01 X336.797 Y262.875
G01 X336.085 Y267.123
G01 X335.165 Y271.333
G01 X334.039 Y275.493
G01 X332.710 Y279.594
G01 X331.181 Y283.626
G01 X329.456 Y287.580
G01 X327.538 Y291.445
G01 X325.432 Y295.212
G01 X323.143 Y298.873
G01 X320.677 Y302.418
G01 X318.039 Y305.838
G01 X315.235 Y309.126
G01 X312.273 Y312.273
G01 X309.159 Y315.272
G01 X305.901 Y318.115
G01 X302.506 Y320.796
G01 X298.982 Y323.307
G01 X295.339 Y325.644
G01 X291.584 Y327.799
G01 X287.728 Y329.768
G01 X283.777 Y331.546
G01 X279.744 Y333.128
G01 X275.636 Y334.511
G01 X271.465 Y335.691
G01 X267.239 Y336.666
G01 X262.969 Y337.432
G01 X258.666 Y337.987
G01 X254.339 Y338.331
G01 X250.000 Y338.462
G01 X245.658 Y338.380
G01 X241.324 Y338.085
G01 X237.009 Y337.578
G01 X232.723 Y336.859
G01 X228.475 Y335.931
G01 X224.278 Y334.795
G01 X220.140 Y333.454
G01 X216.071 Y331.911
G01 X212.083 Y330.170
G01 X208.183 Y328.234
G01 X204.382 Y326.109
G01 X200.688 Y323.800
G01 X197.112 Y321.311
G01 X193.661 Y318.649
G01 X190.344 Y315.821
G01 X187.169 Y312.831
G01 X184.143 Y309.689
G01 X181.274 Y306.402
G01 X178.570 Y302.976
G01 X176.036 Y299.421
G01 X173.679 Y295.745
G01 X171.504 Y291.957
G01 X169.518 Y288.065
G01 X167.724 Y284.080
G01 X166.128 Y280.010
G01 X164.733 Y275.866
G01 X163.542 Y271.656
G01 X162.560 Y267.393
G01 X161.787 Y263.085
G01 X161.227 Y258.743
G01 X160.880 Y254.378
G01 X160.748 Y250.000
G01 X160.831 Y245.619
G01 X161.129 Y241.247
G01 X161.641 Y236.893
G01 X162.366 Y232.569
G01 X163.303 Y228.284
G01 X164.449 Y224.049
G01 X165.803 Y219.874
G01 X167.359 Y215.769
G01 X169.116 Y211.745
G01 X171.069 Y207.811
G01 X173.213 Y203.976
G01 X175.543 Y200.250
G01 X178.054 Y196.641
G01 X180.740 Y193.160
G01 X183.594 Y189.813
G01 X186.610 Y186.610
G01 X189.780 Y183.558
G01 X193.097 Y180.664
G01 X196.553 Y177.935
G01 X200.140 Y175.379
G01 X203.849 Y173.001
G01 X207.671 Y170.808
G01 X211.597 Y168.804
G01 X215.618 Y166.995
G01 X219.724 Y165.384
G01 X223.905 Y163.977
G01 X228.152 Y162.776
G01 X232.453 Y161.785
G01 X236.799 Y161.006
G01 X241.179 Y160.441
G01 X245.583 Y160.091
G01 X250.000 Y159.958
G01 X254.419 Y160.042
G01 X258.830 Y160.343
G01 X263.223 Y160.859
G01 X267.586 Y161.591
G01 X271.908 Y162.537
G01 X276.181 Y163.694
G01 X280.392 Y165.059
G01 X284.533 Y166.630
G01 X288.593 Y168.402
G01 X292.562 Y170.372
G01 X296.430 Y172.536
G01 X300.189 Y174.887
G01 X303.829 Y177.420
G01 X307.341 Y180.130
G01 X310.717 Y183.009
G01 X313.949 Y186.051
G01 X317.028 Y189.250
G01 X319.947 Y192.596
G01 X322.699 Y196.083
G01 X325.278 Y199.701
G01 X327.676 Y203.443
G01 X329.889 Y207.299
G01 X331.910 Y211.259
G01 X333.735 Y215.316
G01 X335.359 Y219.458
G01 X336.779 Y223.676
G01 X337.990 Y227.960
G01 X338.990 Y232.299
G01 X339.775 Y236.683
G01 X340.345 Y241.102
G01 X340.698 Y245.544
G01 X340.832 Y250.000
G01 X340.747 Y254.458
G01 X340.444 Y258.908
G01 X339.922 Y263.339
G01 X339.183 Y267.740
G01 X338.229 Y272.100
G01 X337.062 Y276.410
G01 X335.685 Y280.659
G01 X334.100 Y284.835
G01 X332.312 Y288.931
G01 X330.324 Y292.934
G01 X328.142 Y296.836
G01 X325.770 Y300.628
G01 X323.214 Y304.300
G01 X320.481 Y307.842
G01 X317.576 Y311.248
G01 X314.507 Y314.507
G01 X311.281 Y317.613
G01 X307.905 Y320.557
G01 X304.388 Y323.333
G01 X300.738 Y325.934
G01 X296.963 Y328.354
G01 X293.074 Y330.585
G01 X289.078 Y332.624
G01 X284.987 Y334.465
G01 X280.808 Y336.103
G01 X276.553 Y337.535
G01 X272.232 Y338.756
G01 X267.855 Y339.764
G01 X263.433 Y340.557
G01 X258.976 Y341.131
G01 X254.494 Y341.487
G01 X250.000 Y341.622
G01 X245.503 Y341.536
G01 X241.015 Y341.230
G01 X236.545 Y340.703
G01 X232.106 Y339.958
G01 X227.708 Y338.996
G01 X223.361 Y337.818
G01 X219.075 Y336.428
G01 X214.862 Y334.830
G01 X210.732 Y333.026
G01 X206.694 Y331.021
G01 X202.758 Y328.819
G01 X198.933 Y326.427
G01 X195.230 Y323.849
G01 X191.657 Y321.092
G01 X188.222 Y318.161
G01 X184.934 Y315.066
G01 X181.802 Y311.811
G01 X178.832 Y308.406
G01 X176.032 Y304.858
G01 X173.409 Y301.176
G01 X170.969 Y297.369
G01 X168.718 Y293.446
G01 X166.662 Y289.416
G01 X164.805 Y285.289
G01 X163.153 Y281.074
G01 X161.709 Y276.783
G01 X160.478 Y272.424
G01 X159.461 Y268.009
G01 X158.662 Y263.549
G01 X158.083 Y259.053
G01 X157.725 Y254.533
G01 X157.589 Y250.000
G01 X157.675 Y245.464
G01 X157.984 Y240.937
G01 X158.516 Y236.430
G01 X159.267 Y231.952
G01 X160.238 Y227.516
G01 X161.426 Y223.131
G01 X162.828 Y218.809
G01 X164.441 Y214.560
G01 X166.260 Y210.394
G01 X168.283 Y206.321
G01 X170.503 Y202.351
G01 X172.916 Y198.494
G01 X175.517 Y194.759
G01 X178.298 Y191.156
G01 X181.253 Y187.692
G01 X184.376 Y184.376
G01 X187.658 Y181.217
G01 X191.093 Y178.222
G01 X194.671 Y175.398
G01 X198.385 Y172.752
G01 X202.225 Y170.291
G01 X206.182 Y168.021
G01 X210.246 Y165.948
G01 X214.409 Y164.076
G01 X218.660 Y162.410
G01 X222.988 Y160.954
G01 X227.384 Y159.712
G01 X231.837 Y158.686
G01 X236.335 Y157.881
G01 X240.870 Y157.297
G01 X245.428 Y156.936
G01 X250.000 Y156.799
G01 X254.574 Y156.886
G01 X259.140 Y157.198
G01 X263.686 Y157.734
G01 X268.202 Y158.493
G01 X272.676 Y159.472
G01 X277.098 Y160.670
G01 X281.457 Y162.084
G01 X285.742 Y163.711
G01 X289.944 Y165.546
G01 X294.051 Y167.586
G01 X298.055 Y169.826
G01 X301.944 Y172.260
G01 X305.711 Y174.882
G01 X309.345 Y177.687
G01 X312.839 Y180.668
G01 X316.183 Y183.817
G01 X319.369 Y187.128
G01 X322.389 Y190.592
G01 X325.237 Y194.201
G01 X327.904 Y197.946
G01 X330.386 Y201.818
G01 X332.675 Y205.809
G01 X334.766 Y209.909
G01 X336.654 Y214.107
G01 X338.334 Y218.394
G01 X339.802 Y222.759
G01 X341.055 Y227.192
G01 X342.088 Y231.683
G01 X342.901 Y236.220
G01 X343.489 Y240.792
G01 X343.853 Y245.389
G01 X343.991 Y250.000
G01 X343.903 Y254.613
G01 X343.588 Y259.218
G01 X343.047 Y263.802
G01 X342.282 Y268.356
G01 X341.294 Y272.868
G01 X340.086 Y277.327
G01 X338.659 Y281.723
G01 X337.019 Y286.044
G01 X335.168 Y290.281
G01 X333.110 Y294.423
G01 X330.852 Y298.461
G01 X328.397 Y302.383
G01 X325.752 Y306.182
G01 X322.923 Y309.847
G01 X319.917 Y313.369
G01 X316.741 Y316.741
G01 X313.402 Y319.954
G01 X309.909 Y323.000
G01 X306.270 Y325.871
G01 X302.493 Y328.561
G01 X298.588 Y331.063
G01 X294.563 Y333.372
G01 X290.429 Y335.480
G01 X286.196 Y337.384
G01 X281.873 Y339.078
G01 X277.470 Y340.558
G01 X273.000 Y341.821
G01 X268.472 Y342.863
G01 X263.896 Y343.682
G01 X259.285 Y344.275
G01 X254.649 Y344.642
G01 X250.000 Y344.781
G01 X245.348 Y344.691
G01 X240.705 Y344.374
G01 X236.082 Y343.828
G01 X231.490 Y343.057
G01 X226.940 Y342.060
G01 X222.444 Y340.841
G01 X218.011 Y339.403
G01 X213.653 Y337.749
G01 X209.381 Y335.882
G01 X205.204 Y333.807
G01 X201.133 Y331.529
G01 X197.178 Y329.054
G01 X193.348 Y326.387
G01 X189.652 Y323.534
G01 X186.100 Y320.502
G01 X182.700 Y317.300
G01 X179.461 Y313.933
G01 X176.390 Y310.410
G01 X173.495 Y306.740
G01 X170.782 Y302.932
G01 X168.259 Y298.994
G01 X165.932 Y294.935
G01 X163.806 Y290.767
G01 X161.887 Y286.498
G01 X160.179 Y282.139
G01 X158.686 Y277.700
G01 X157.413 Y273.192
G01 X156.362 Y268.626
G01 X155.537 Y264.012
G01 X154.939 Y259.363
G01 X154.569 Y254.688
G01 X154.429 Y250.000
G01 X154.520 Y245.309
G01 X154.840 Y240.628
G01 X155.390 Y235.966
G01 X156.169 Y231.336
G01 X157.174 Y226.748
G01 X158.403 Y222.214
G01 X159.853 Y217.745
G01 X161.522 Y213.351
G01 X163.404 Y209.043
G01 X165.496 Y204.832
G01 X167.793 Y200.727
G01 X170.290 Y196.739
G01 X172.979 Y192.877
G01 X175.856 Y189.151
G01 X178.912 Y185.570
G01 X182.142 Y182.142
G01 X185.537 Y178.876
G01 X189.089 Y175.779
G01 X192.789 Y172.860
G01 X196.629 Y170.125
G01 X200.600 Y167.582
G01 X204.692 Y165.235
G01 X208.895 Y163.092
G01 X213.200 Y161.157
G01 X217.595 Y159.435
G01 X222.071 Y157.930
G01 X226.616 Y156.647
G01 X231.220 Y155.588
G01 X235.872 Y154.756
G01 X240.560 Y154.152
G01 X245.273 Y153.780
G01 X250.000 Y153.639
G01 X254.729 Y153.731
G01 X259.450 Y154.054
G01 X264.150 Y154.609
G01 X268.818 Y155.394
G01 X273.444 Y156.407
G01 X278.015 Y157.647
G01 X282.521 Y159.110
G01 X286.951 Y160.792
G01 X291.294 Y162.690
G01 X295.540 Y164.800
G01 X299.679 Y167.116
G01 X303.700 Y169.633
G01 X307.593 Y172.345
G01 X311.350 Y175.245
G01 X314.960 Y178.327
G01 X318.417 Y181.583
G01 X321.709 Y185.006
G01 X324.831 Y188.588
G01 X327.774 Y192.319
G01 X330.531 Y196.191
G01 X333.096 Y200.194
G01 X335.461 Y204.320
G01 X337.622 Y208.558
G01 X339.573 Y212.898
G01 X341.309 Y217.329
G01 X342.826 Y221.842
G01 X344.119 Y226.424
G01 X345.187 Y231.066
G01 X346.026 Y235.756
G01 X346.634 Y240.482
G01 X347.009 Y245.234
G01 X347.150 Y250.000
G01 X347.058 Y254.768
G01 X346.732 Y259.527
G01 X346.172 Y264.266
G01 X345.381 Y268.972
G01 X344.359 Y273.636
G01 X343.109 Y278.244
G01 X341.634 Y282.787
G01 X339.938 Y287.253
G01 X338.024 Y291.632
G01 X335.897 Y295.913
G01 X333.562 Y300.085
G01 X331.024 Y304.138
G01 X328.290 Y308.064
G01 X325.365 Y311.851
G01 X322.258 Y315.491
G01 X318.975 Y318.975
G01 X315.524 Y322.295
G01 X311.913 Y325.442
G01 X308.152 Y328.409
G01 X304.248 Y331.188
G01 X300.212 Y333.773
G01 X296.052 Y336.158
G01 X291.780 Y338.336
G01 X287.405 Y340.303
G01 X282.937 Y342.052
G01 X278.388 Y343.581
G01 X273.768 Y344.885
G01 X269.088 Y345.962
G01 X264.360 Y346.807
G01 X259.595 Y347.420
G01 X254.804 Y347.798
G01 X250.000 Y347.940
G01 X245.193 Y347.847
G01 X240.395 Y347.518
G01 X235.618 Y346.954
G01 X230.874 Y346.155
G01 X226.172 Y345.125
G01 X221.526 Y343.865
G01 X216.947 Y342.378
G01 X212.444 Y340.667
G01 X208.030 Y338.738
G01 X203.715 Y336.593
G01 X199.509 Y334.239
G01 X195.423 Y331.681
G01 X191.466 Y328.924
G01 X187.648 Y325.976
G01 X183.979 Y322.843
G01 X180.466 Y319.534
G01 X177.120 Y316.054
G01 X173.948 Y312.415
G01 X170.957 Y308.622
G01 X168.155 Y304.687
G01 X165.549 Y300.618
G01 X163.145 Y296.425
G01 X160.950 Y292.118
G01 X158.968 Y287.707
G01 X157.204 Y283.203
G01 X155.663 Y278.617
G01 X154.348 Y273.959
G01 X153.264 Y269.242
G01 X152.412 Y264.476
G01 X151.794 Y259.672
G01 X151.413 Y254.843
G01 X151.270 Y250.000
G01 X151.364 Y245.154
G01 X151.696 Y240.318
G01 X152.265 Y235.502
G01 X153.070 Y230.719
G01 X154.109 Y225.981
G01 X155.379 Y221.297
G01 X156.879 Y216.681
G01 X158.603 Y212.142
G01 X160.548 Y207.692
G01 X162.710 Y203.343
G01 X165.083 Y199.103
G01 X167.663 Y194.984
G01 X170.441 Y190.995
G01 X173.413 Y187.147
G01 X176.571 Y183.448
G01 X179.908 Y179.908
G01 X183.415 Y176.535
G01 X187.084 Y173.337
G01 X190.907 Y170.323
G01 X194.874 Y167.498
G01 X198.976 Y164.872
G01 X203.203 Y162.449
G01 X207.545 Y160.236
G01 X211.991 Y158.238
G01 X216.531 Y156.460
G01 X221.154 Y154.907
G01 X225.849 Y153.582
G01 X230.604 Y152.489
G01 X235.408 Y151.630
G01 X240.250 Y151.008
G01 X245.118 Y150.625
G01 X250.000 Y150.480
G01 X254.884 Y150.575
G01 X259.760 Y150.910
G01 X264.613 Y151.484
G01 X269.435 Y152.295
G01 X274.211 Y153.343
G01 X278.932 Y154.624
G01 X283.585 Y156.135
G01 X288.160 Y157.873
G01 X292.645 Y159.834
G01 X297.030 Y162.014
G01 X301.303 Y164.406
G01 X305.455 Y167.006
G01 X309.475 Y169.807
G01 X313.354 Y172.803
G01 X317.082 Y175.986
G01 X320.651 Y179.349
G01 X324.050 Y182.885
G01 X327.273 Y186.583
G01 X330.312 Y190.437
G01 X333.158 Y194.435
G01 X335.806 Y198.570
G01 X338.248 Y202.831
G01 X340.478 Y207.207
G01 X342.492 Y211.689
G01 X344.283 Y216.265
G01 X345.849 Y220.925
G01 X347.184 Y225.657
G01 X348.286 Y230.450
G01 X349.151 Y235.292
G01 X349.778 Y240.173
G01 X350.164 Y245.079
G01 X350.310 Y250.000
G01 X350.214 Y254.923
G01 X349.876 Y259.837
G01 X349.297 Y264.729
G01 X348.479 Y269.589
G01 X347.423 Y274.403
G01 X346.132 Y279.161
G01 X344.609 Y283.852
G01 X342.857 Y288.462
G01 X340.880 Y292.983
G01 X338.683 Y297.402
G01 X336.272 Y301.709
G01 X333.651 Y305.894
G01 X330.827 Y309.946
G01 X327.808 Y313.855
G01 X324.599 Y317.613
G01 X321.209 Y321.209
G01 X317.646 Y324.636
G01 X313.918 Y327.884
G01 X310.034 Y330.946
G01 X306.003 Y333.815
G01 X301.836 Y336.483
G01 X297.542 Y338.944
G01 X293.131 Y341.192
G01 X288.614 Y343.222
G01 X284.001 Y345.027
G01 X279.305 Y346.605
G01 X274.535 Y347.950
G01 X269.704 Y349.060
G01 X264.824 Y349.932
G01 X259.905 Y350.564
G01 X254.960 Y350.953
G01 X250.000 Y351.100
G01 X245.038 Y351.003
G01 X240.086 Y350.662
G01 X235.155 Y350.079
G01 X230.257 Y349.254
G01 X225.405 Y348.190
G01 X220.609 Y346.888
G01 X215.882 Y345.352
G01 X211.235 Y343.586
G01 X206.679 Y341.594
G01 X202.226 Y339.380
G01 X197.885 Y336.949
G01 X193.667 Y334.308
G01 X189.584 Y331.462
G01 X185.644 Y328.418
G01 X181.857 Y325.184
G01 X178.232 Y321.768
G01 X174.779 Y318.176
G01 X171.505 Y314.419
G01 X168.419 Y310.504
G01 X165.528 Y306.442
G01 X162.839 Y302.242
G01 X160.359 Y297.914
G01 X158.094 Y293.468
G01 X156.049 Y288.916
G01 X154.229 Y284.267
G01 X152.640 Y279.534
G01 X151.284 Y274.727
G01 X150.165 Y269.858
G01 X149.287 Y264.939
G01 X148.650 Y259.982
G01 X148.258 Y254.998
G01 X148.110 Y250.000
G01 X148.209 Y244.999
G01 X148.552 Y240.008
G01 X149.140 Y235.039
G01 X149.971 Y230.103
G01 X151.044 Y225.213
G01 X152.356 Y220.380
G01 X153.904 Y215.616
G01 X155.684 Y210.933
G01 X157.692 Y206.342
G01 X159.924 Y201.853
G01 X162.374 Y197.479
G01 X165.036 Y193.229
G01 X167.904 Y189.113
G01 X170.971 Y185.143
G01 X174.231 Y181.327
G01 X177.674 Y177.674
G01 X181.293 Y174.194
G01 X185.080 Y170.895
G01 X189.025 Y167.785
G01 X193.119 Y164.871
G01 X197.352 Y162.162
G01 X201.714 Y159.663
G01 X206.194 Y157.380
G01 X210.782 Y155.319
G01 X215.467 Y153.486
G01 X220.237 Y151.884
G01 X225.081 Y150.518
G01 X229.988 Y149.390
G01 X234.945 Y148.505
G01 X239.940 Y147.864
G01 X244.963 Y147.469
G01 X250.000 Y147.321
G01 X255.039 Y147.420
G01 X260.069 Y147.766
G01 X265.077 Y148.359
G01 X270.051 Y149.197
G01 X274.979 Y150.278
G01 X279.849 Y151.600
G01 X284.650 Y153.160
G01 X289.369 Y154.954
G01 X293.996 Y156.978
G01 X298.519 Y159.227
G01 X302.927 Y161.696
G01 X307.210 Y164.379
G01 X311.357 Y167.269
G01 X315.358 Y170.361
G01 X319.204 Y173.645
G01 X322.885 Y177.115
G01 X326.391 Y180.763
G01 X329.716 Y184.579
G01 X332.850 Y188.555
G01 X335.785 Y192.680
G01 X338.516 Y196.946
G01 X341.034 Y201.341
G01 X343.334 Y205.856
G01 X345.411 Y210.480
G01 X347.258 Y215.200
G01 X348.872 Y220.007
G01 X350.249 Y224.889
G01 X351.384 Y229.833
G01 X352.276 Y234.829
G01 X352.922 Y239.863
G01 X353.320 Y244.924
G01 X353.469 Y250.000
G01 X353.369 Y255.078
G01 X353.020 Y260.147
G01 X352.423 Y265.193
G01 X351.578 Y270.205
G01 X350.488 Y275.171
G01 X349.156 Y280.079
G01 X347.584 Y284.916
G01 X345.776 Y289.672
G01 X343.736 Y294.334
G01 X341.469 Y298.891
G01 X338.981 Y303.333
G01 X336.278 Y307.649
G01 X333.365 Y311.828
G01 X330.250 Y315.859
G01 X326.940 Y319.734
G01 X323.443 Y323.443
G01 X319.767 Y326.977
G01 X315.922 Y330.326
G01 X311.916 Y333.484
G01 X307.759 Y336.442
G01 X303.460 Y339.193
G01 X299.031 Y341.731
G01 X294.482 Y344.048
G01 X289.823 Y346.140
G01 X285.066 Y348.002
G01 X280.222 Y349.628
G01 X275.303 Y351.015
G01 X270.321 Y352.159
G01 X265.287 Y353.057
G01 X260.214 Y353.708
G01 X255.115 Y354.109
G01 X250.000 Y354.259
G01 X244.883 Y354.158
G01 X239.776 Y353.806
G01 X234.691 Y353.204
G01 X229.641 Y352.353
G01 X224.637 Y351.254
G01 X219.692 Y349.911
G01 X214.818 Y348.327
G01 X210.026 Y346.505
G01 X205.329 Y344.450
G01 X200.736 Y342.166
G01 X196.261 Y339.659
G01 X191.912 Y336.935
G01 X187.702 Y333.999
G01 X183.640 Y330.860
G01 X179.735 Y327.525
G01 X175.998 Y324.002
G01 X172.438 Y320.298
G01 X169.063 Y316.423
G01 X165.882 Y312.386
G01 X162.901 Y308.197
G01 X160.129 Y303.866
G01 X157.573 Y299.403
G01 X155.238 Y294.819
G01 X153.130 Y290.125
G01 X151.255 Y285.332
G01 X149.616 Y280.451
G01 X148.219 Y275.495
G01 X147.066 Y270.475
G01 X146.161 Y265.403
G01 X145.506 Y260.292
G01 X145.102 Y255.153
G01 X144.951 Y250.000
G01 X145.053 Y244.844
G01 X145.408 Y239.699
G01 X146.015 Y234.575
G01 X146.873 Y229.487
G01 X147.980 Y224.445
G01 X149.333 Y219.463
G01 X150.929 Y214.552
G01 X152.765 Y209.724
G01 X154.836 Y204.991
G01 X157.137 Y200.364
G01 X159.664 Y195.854
G01 X162.409 Y191.473
G01 X165.366 Y187.231
G01 X168.529 Y183.138
G01 X171.890 Y179.205
G01 X175.440 Y175.440
G01 X179.172 Y171.853
G01 X183.076 Y168.453
G01 X187.143 Y165.247
G01 X191.364 Y162.245
G01 X195.728 Y159.452
G01 X200.224 Y156.876
G01 X204.843 Y154.524
G01 X209.573 Y152.400
G01 X214.402 Y150.511
G01 X219.320 Y148.860
G01 X224.313 Y147.453
G01 X229.371 Y146.292
G01 X234.481 Y145.380
G01 X239.631 Y144.720
G01 X244.808 Y144.313
G01 X250.000 Y144.161
G01 X255.194 Y144.264
G01 X260.379 Y144.622
G01 X265.541 Y145.234
G01 X270.667 Y146.098
G01 X275.747 Y147.213
G01 X280.766 Y148.577
G01 X285.714 Y150.185
G01 X290.578 Y152.035
G01 X295.347 Y154.122
G01 X300.008 Y156.441
G01 X304.552 Y158.986
G01 X308.965 Y161.752
G01 X313.239 Y164.732
G01 X317.363 Y167.918
G01 X321.326 Y171.304
G01 X325.119 Y174.881
G01 X328.732 Y178.641
G01 X332.158 Y182.575
G01 X335.387 Y186.673
G01 X338.412 Y190.925
G01 X341.226 Y195.322
G01 X343.820 Y199.852
G01 X346.190 Y204.505
G01 X348.330 Y209.271
G01 X350.233 Y214.136
G01 X351.895 Y219.090
G01 X353.313 Y224.121
G01 X354.483 Y229.217
G01 X355.401 Y234.365
G01 X356.066 Y239.553
G01 X356.475 Y244.769
G01 X356.629 Y250.000
G01 X356.525 Y255.233
G01 X356.164 Y260.456
G01 X355.548 Y265.657
G01 X354.677 Y270.821
G01 X353.553 Y275.939
G01 X352.179 Y280.996
G01 X350.558 Y285.980
G01 X348.694 Y290.881
G01 X346.592 Y295.685
G01 X344.256 Y300.381
G01 X341.691 Y304.958
G01 X338.905 Y309.404
G01 X335.903 Y313.710
G01 X332.692 Y317.864
G01 X329.281 Y321.856
G01 X325.677 Y325.677
G01 X321.889 Y329.317
G01 X317.926 Y332.768
G01 X313.798 Y336.022
G01 X309.514 Y339.069
G01 X305.085 Y341.903
G01 X300.520 Y344.517
G01 X295.832 Y346.904
G01 X291.032 Y349.059
G01 X286.130 Y350.977
G01 X281.139 Y352.651
G01 X276.071 Y354.080
G01 X270.937 Y355.258
G01 X265.751 Y356.183
G01 X260.524 Y356.852
G01 X255.270 Y357.264
G01 X250.000 Y357.418
G01 X244.728 Y357.314
G01 X239.466 Y356.950
G01 X234.228 Y356.329
G01 X229.024 Y355.451
G01 X223.869 Y354.319
G01 X218.775 Y352.935
G01 X213.754 Y351.302
G01 X208.817 Y349.424
G01 X203.978 Y347.306
G01 X199.247 Y344.952
G01 X194.636 Y342.369
G01 X190.157 Y339.561
G01 X185.820 Y336.537
G01 X181.635 Y333.303
G01 X177.614 Y329.866
G01 X173.764 Y326.236
G01 X170.097 Y322.420
G01 X166.621 Y318.427
G01 X163.344 Y314.268
G01 X160.274 Y309.953
G01 X157.420 Y305.491
G01 X154.787 Y300.893
G01 X152.382 Y296.170
G01 X150.211 Y291.334
G01 X148.280 Y286.396
G01 X146.593 Y281.368
G01 X145.154 Y276.262
G01 X143.968 Y271.091
G01 X143.036 Y265.867
G01 X142.362 Y260.601
G01 X141.947 Y255.308
G01 X141.792 Y250.000
G01 X141.897 Y244.689
G01 X142.264 Y239.389
G01 X142.890 Y234.112
G01 X143.774 Y228.870
G01 X144.915 Y223.678
G01 X146.309 Y218.546
G01 X147.954 Y213.488
G01 X149.846 Y208.515
G01 X151.980 Y203.640
G01 X154.351 Y198.875
G01 X156.954 Y194.230
G01 X159.782 Y189.718
G01 X162.829 Y185.349
G01 X166.087 Y181.134
G01 X169.549 Y177.083
G01 X173.206 Y173.206
G01 X177.050 Y169.512
G01 X181.072 Y166.010
G01 X185.261 Y162.710
G01 X189.608 Y159.618
G01 X194.103 Y156.742
G01 X198.735 Y154.090
G01 X203.492 Y151.668
G01 X208.364 Y149.481
G01 X213.338 Y147.536
G01 X218.403 Y145.837
G01 X223.546 Y144.388
G01 X228.755 Y143.193
G01 X234.018 Y142.255
G01 X239.321 Y141.576
G01 X244.653 Y141.158
G01 X250.000 Y141.002
G01 X255.349 Y141.109
G01 X260.689 Y141.478
G01 X266.004 Y142.108
G01 X271.284 Y142.999
G01 X276.514 Y144.149
G01 X281.683 Y145.554
G01 X286.779 Y147.211
G01 X291.787 Y149.116
G01 X296.698 Y151.266
G01 X301.498 Y153.655
G01 X306.176 Y156.276
G01 X310.721 Y159.125
G01 X315.121 Y162.194
G01 X319.367 Y165.476
G01 X323.447 Y168.963
G01 X327.353 Y172.647
G01 X331.073 Y176.520
G01 X334.600 Y180.570
G01 X337.925 Y184.791
G01 X341.039 Y189.170
G01 X343.935 Y193.697
G01 X346.607 Y198.363
G01 X349.046 Y203.155
G01 X351.248 Y208.062
G01 X353.208 Y213.072
G01 X354.919 Y218.173
G01 X356.378 Y223.354
G01 X357.582 Y228.601
G01 X358.526 Y233.902
G01 X359.210 Y239.244
G01 X359.631 Y244.614
G01 X359.788 Y250.000
G01 X359.680 Y255.388
G01 X359.308 Y260.766
G01 X358.673 Y266.120
G01 X357.775 Y271.438
G01 X356.617 Y276.706
G01 X355.202 Y281.913
G01 X353.533 Y287.045
G01 X351.613 Y292.090
G01 X349.448 Y297.035
G01 X347.042 Y301.870
G01 X344.401 Y306.582
G01 X341.532 Y311.159
G01 X338.440 Y315.592
G01 X335.134 Y319.868
G01 X331.622 Y323.978
G01 X327.911 Y327.911
G01 X324.011 Y331.658
G01 X319.931 Y335.211
G01 X315.680 Y338.559
G01 X311.269 Y341.696
G01 X306.709 Y344.613
G01 X302.010 Y347.303
G01 X297.183 Y349.760
G01 X292.241 Y351.978
G01 X287.194 Y353.951
G01 X282.056 Y355.675
G01 X276.838 Y357.144
G01 X271.553 Y358.356
G01 X266.214 Y359.308
G01 X260.834 Y359.996
G01 X255.425 Y360.420
G01 X250.000 Y360.578
G01 X244.573 Y360.469
G01 X239.157 Y360.094
G01 X233.764 Y359.454
G01 X228.408 Y358.550
G01 X223.102 Y357.384
G01 X217.858 Y355.958
G01 X212.689 Y354.277
G01 X207.608 Y352.343
G01 X202.627 Y350.162
G01 X197.758 Y347.739
G01 X193.012 Y345.079
G01 X188.402 Y342.188
G01 X183.938 Y339.075
G01 X179.631 Y335.745
G01 X175.492 Y332.207
G01 X171.530 Y328.470
G01 X167.756 Y324.541
G01 X164.179 Y320.432
G01 X160.806 Y316.150
G01 X157.647 Y311.708
G01 X154.710 Y307.115
G01 X152.000 Y302.382
G01 X149.526 Y297.521
G01 X147.292 Y292.543
G01 X145.305 Y287.460
G01 X143.570 Y282.285
G01 X142.090 Y277.030
G01 X140.869 Y271.707
G01 X139.911 Y266.330
G01 X139.218 Y260.911
G01 X138.791 Y255.463
