;  Created by Sandify
;  https://sandify.org
;  Version: 0.2.6
;
;  Machine type: Rectangular
;    Min X (mm): 0
;    Max X (mm): 500
;    Min Y (mm): 0
;    Max Y (mm): 500
;  Content type: shape
;  Layer:
;    Shape: FileImport
;    Name: ChartresLabyrinthe.thr
;    From file:: ChartresLabyrinthe.thr
;    Aspect Ratio: true
;    Comments: 
;    Visible: true
;    Initial width: 10
;    Initial height: 10
;    X offset: 0
;    Y offset: 0
;    Rotate (degrees): 0
;    Reverse path: false
;    Fine tuning:
;      Connect to next layer: line
;      Draw portion of path (%): 100
;      Backtrack at end (%): 0
;      Rotate starting point (%): 0
;  Reverse export path: false
;
; File name: 'ChartresLabyrinthe (C C)'
; File type: gcode
;

G01 X250.000 Y250.000
G01 X250.158 Y250.008
G01 X250.316 Y250.031
G01 X250.471 Y250.070
G01 X250.622 Y250.124
G01 X250.769 Y250.193
G01 X250.911 Y250.276
G01 X251.046 Y250.374
G01 X251.173 Y250.486
G01 X251.291 Y250.610
G01 X251.399 Y250.748
G01 X251.497 Y250.897
G01 X251.583 Y251.058
G01 X251.657 Y251.229
G01 X251.717 Y251.409
G01 X251.763 Y251.598
G01 X251.795 Y251.795
G01 X251.811 Y251.998
G01 X251.812 Y252.208
G01 X251.796 Y252.421
G01 X251.763 Y252.638
G01 X251.713 Y252.858
G01 X251.645 Y253.078
G01 X251.560 Y253.299
G01 X251.457 Y253.518
G01 X251.336 Y253.734
G01 X251.197 Y253.947
G01 X251.041 Y254.155
G01 X250.867 Y254.357
G01 X250.675 Y254.551
G01 X250.467 Y254.737
G01 X250.241 Y254.912
G01 X250.119 Y254.999
G01 X250.133 Y303.100
G01 X250.133 Y305.525
G01 X250.135 Y306.250
G01 X250.136 Y325.400
G01 X250.129 Y349.250
G01 X250.135 Y373.100
G01 X250.137 Y374.750
G01 X250.126 Y376.500
G01 X250.575 Y377.799
G01 X252.119 Y378.433
G01 X258.423 Y378.245
G01 X260.939 Y378.084
G01 X265.478 Y377.615
G01 X271.722 Y376.707
G01 X277.915 Y375.495
G01 X284.040 Y373.979
G01 X290.085 Y372.165
G01 X291.652 Y371.642
G01 X297.575 Y369.463
G01 X303.384 Y366.996
G01 X303.539 Y366.925
G01 X309.217 Y364.166
G01 X314.752 Y361.131
G01 X318.008 Y359.176
G01 X323.287 Y355.713
G01 X328.390 Y351.995
G01 X333.304 Y348.031
G01 X336.156 Y345.540
G01 X340.748 Y341.205
G01 X345.121 Y336.649
G01 X347.018 Y334.526
G01 X351.055 Y329.669
G01 X354.850 Y324.619
G01 X358.392 Y319.389
G01 X358.575 Y319.103
G01 X361.835 Y313.692
G01 X364.825 Y308.128
G01 X365.459 Y306.859
G01 X368.122 Y301.130
G01 X370.130 Y296.248
G01 X372.255 Y290.298
G01 X373.390 Y286.673
G01 X375.056 Y280.578
G01 X375.964 Y276.637
G01 X377.151 Y270.429
G01 X377.698 Y266.811
G01 X381.227 Y261.154
G01 X384.996 Y257.865
G01 X390.210 Y258.211
G01 X393.252 Y259.986
G01 X393.843 Y267.152
G01 X393.878 Y267.801
G01 X393.089 Y273.311
G01 X391.772 Y280.304
G01 X391.187 Y282.923
G01 X389.388 Y289.808
G01 X387.805 Y294.949
G01 X385.433 Y301.656
G01 X382.735 Y308.240
G01 X382.121 Y309.620
G01 X379.027 Y316.026
G01 X375.623 Y322.273
G01 X374.304 Y324.511
G01 X370.498 Y330.520
G01 X368.730 Y333.106
G01 X364.501 Y338.825
G01 X359.997 Y344.330
G01 X357.414 Y347.254
G01 X352.505 Y352.400
G01 X347.351 Y357.299
G01 X344.599 Y359.726
G01 X339.092 Y364.224
G01 X335.092 Y367.222
G01 X329.237 Y371.256
G01 X324.361 Y374.306
G01 X318.167 Y377.797
G01 X311.810 Y380.979
G01 X307.888 Y382.753
G01 X301.301 Y385.423
G01 X294.590 Y387.767
G01 X292.542 Y388.410
G01 X285.697 Y390.320
G01 X278.767 Y391.893
G01 X275.876 Y392.444
G01 X268.856 Y393.542
G01 X261.790 Y394.294
G01 X260.415 Y394.400
G01 X253.316 Y394.712
G01 X253.199 Y394.715
G01 X251.315 Y396.069
G01 X250.221 Y397.400
G01 X250.135 Y399.775
G01 X250.132 Y415.625
G01 X250.132 Y438.350
G01 X250.124 Y455.975
G01 X250.132 Y469.375
G01 X250.933 Y472.073
G01 X253.054 Y474.554
G01 X255.986 Y475.846
G01 X266.027 Y475.356
G01 X277.066 Y474.298
G01 X282.443 Y473.583
G01 X293.377 Y471.735
G01 X303.687 Y469.479
G01 X314.394 Y466.588
G01 X324.946 Y463.174
G01 X335.318 Y459.247
G01 X339.391 Y457.542
G01 X349.473 Y452.917
G01 X359.315 Y447.803
G01 X359.775 Y447.548
G01 X369.336 Y441.924
G01 X378.610 Y435.837
G01 X381.975 Y433.463
G01 X390.824 Y426.774
G01 X399.335 Y419.658
G01 X403.885 Y415.549
G01 X411.832 Y407.808
G01 X418.884 Y400.256
G01 X426.053 Y391.788
G01 X430.664 Y385.864
G01 X437.120 Y376.840
G01 X443.125 Y367.510
G01 X448.665 Y357.896
G01 X449.314 Y356.695
G01 X454.317 Y346.791
G01 X458.829 Y336.652
G01 X462.112 Y328.293
G01 X465.708 Y317.793
G01 X468.784 Y307.130
G01 X470.181 Y301.507
G01 X472.443 Y290.641
G01 X474.013 Y280.837
G01 X475.411 Y269.821
G01 X475.859 Y264.905
G01 X476.235 Y253.803
G01 X476.067 Y242.700
G01 X475.832 Y238.019
G01 X474.986 Y226.951
G01 X473.792 Y217.251
G01 X471.915 Y206.310
G01 X470.797 Y200.972
G01 X468.126 Y190.197
G01 X465.844 Y182.426
G01 X462.269 Y171.916
G01 X458.182 Y161.595
G01 X456.949 Y158.746
G01 X452.231 Y148.696
G01 X447.026 Y138.890
G01 X445.247 Y135.784
G01 X439.407 Y126.342
G01 X434.910 Y119.713
G01 X428.295 Y110.797
G01 X423.327 Y104.658
G01 X415.987 Y96.329
G01 X412.470 Y92.615
G01 X404.551 Y84.832
G01 X399.339 Y80.105
G01 X390.811 Y72.996
G01 X387.811 Y70.659
G01 X378.845 Y64.113
G01 X369.569 Y58.015
G01 X369.391 Y57.904
G01 X359.822 Y52.277
G01 X353.155 Y48.719
G01 X343.155 Y43.900
G01 X332.930 Y39.577
G01 X322.505 Y35.761
G01 X320.609 Y35.129
G01 X309.976 Y31.939
G01 X303.821 Y30.348
G01 X292.978 Y27.971
G01 X285.336 Y26.628
G01 X274.331 Y25.182
G01 X270.818 Y24.835
G01 X264.179 Y24.846
G01 X259.669 Y25.758
G01 X257.742 Y29.486
G01 X258.300 Y35.035
G01 X263.255 Y40.519
G01 X269.888 Y41.044
G01 X280.120 Y42.252
G01 X282.552 Y42.614
G01 X292.689 Y44.461
G01 X294.908 Y44.935
G01 X304.916 Y47.385
G01 X314.792 Y50.324
G01 X317.149 Y51.104
G01 X326.831 Y54.630
G01 X336.328 Y58.626
G01 X342.264 Y61.409
G01 X351.406 Y66.164
G01 X360.305 Y71.361
G01 X366.090 Y75.066
G01 X374.534 Y80.973
G01 X382.678 Y87.287
G01 X384.641 Y88.908
G01 X392.383 Y95.708
G01 X399.783 Y102.880
G01 X403.245 Y106.490
G01 X410.102 Y114.183
G01 X416.573 Y122.202
G01 X420.409 Y127.363
G01 X426.221 Y135.872
G01 X431.609 Y144.656
G01 X432.157 Y145.606
G01 X437.059 Y154.670
G01 X441.512 Y163.964
G01 X445.452 Y173.335
G01 X448.978 Y183.018
G01 X452.025 Y192.862
G01 X453.418 Y198.036
G01 X455.709 Y208.083
G01 X457.153 Y215.995
G01 X458.992 Y226.152
G01 X459.926 Y232.852
G01 X460.090 Y243.187
G01 X459.925 Y249.894
G01 X459.677 Y260.195
G01 X459.395 Y264.912
G01 X458.394 Y275.167
G01 X457.770 Y279.830
G01 X456.056 Y289.988
G01 X453.845 Y300.051
G01 X452.374 Y305.703
G01 X449.381 Y315.561
G01 X447.608 Y320.702
G01 X443.891 Y330.309
G01 X439.707 Y339.721
G01 X437.803 Y343.632
G01 X432.983 Y352.734
G01 X427.722 Y361.589
G01 X427.618 Y361.753
G01 X422.079 Y370.064
G01 X415.981 Y378.363
G01 X414.856 Y379.804
G01 X408.278 Y387.728
G01 X402.490 Y394.094
G01 X395.236 Y401.402
G01 X391.760 Y404.662
G01 X384.000 Y411.431
G01 X382.686 Y412.513
G01 X374.538 Y418.809
G01 X374.045 Y419.170
G01 X365.595 Y425.052
G01 X364.927 Y425.492
G01 X356.166 Y430.901
G01 X354.821 Y431.680
G01 X345.780 Y436.605
G01 X342.253 Y438.373
G01 X332.894 Y442.662
G01 X323.336 Y446.487
G01 X321.855 Y447.032
G01 X312.101 Y450.320
G01 X309.871 Y450.998
G01 X299.936 Y453.693
G01 X299.200 Y453.872
G01 X291.270 Y455.599
G01 X281.132 Y457.376
G01 X278.847 Y457.706
G01 X272.427 Y457.818
G01 X268.311 Y455.661
G01 X265.764 Y452.211
G01 X266.778 Y446.686
G01 X268.192 Y443.999
G01 X270.777 Y442.532
G01 X274.256 Y441.949
G01 X283.645 Y440.527
G01 X287.565 Y439.793
G01 X296.836 Y437.736
G01 X303.103 Y436.071
G01 X312.169 Y433.241
G01 X317.277 Y431.428
G01 X326.102 Y427.918
G01 X334.745 Y423.979
G01 X338.024 Y422.348
G01 X346.381 Y417.831
G01 X354.506 Y412.909
G01 X355.827 Y412.056
G01 X363.651 Y406.668
G01 X367.534 Y403.777
G01 X374.947 Y397.835
G01 X380.625 Y392.858
G01 X387.485 Y386.284
G01 X394.015 Y379.380
G01 X396.225 Y376.883
G01 X402.274 Y369.555
G01 X406.969 Y363.321
G01 X412.352 Y355.491
G01 X416.124 Y349.466
G01 X420.804 Y341.195
G01 X424.391 Y334.132
G01 X428.320 Y325.478
G01 X431.818 Y316.641
G01 X432.822 Y313.848
G01 X435.734 Y304.801
G01 X436.609 Y301.745
G01 X438.937 Y292.530
G01 X440.409 Y285.416
G01 X441.994 Y276.040
G01 X442.743 Y270.215
G01 X442.199 Y263.881
G01 X440.787 Y259.527
G01 X437.243 Y256.331
G01 X433.365 Y257.026
G01 X429.416 Y259.643
G01 X426.823 Y264.905
G01 X425.879 Y273.564
G01 X424.913 Y279.898
G01 X423.223 Y288.442
G01 X421.292 Y296.246
G01 X418.816 Y304.595
G01 X417.084 Y309.687
G01 X413.939 Y317.807
G01 X412.328 Y321.558
G01 X408.621 Y329.437
G01 X407.451 Y331.730
G01 X403.241 Y339.351
G01 X398.736 Y346.641
G01 X393.815 Y353.822
G01 X392.431 Y355.713
G01 X387.060 Y362.565
G01 X383.637 Y366.594
G01 X377.755 Y373.011
G01 X371.565 Y379.132
G01 X370.668 Y379.970
G01 X364.136 Y385.723
G01 X359.322 Y389.617
G01 X352.331 Y394.800
G01 X348.082 Y397.700
G01 X340.717 Y402.334
G01 X333.723 Y406.287
G01 X325.949 Y410.197
G01 X317.993 Y413.720
G01 X316.101 Y414.491
G01 X307.950 Y417.536
G01 X306.421 Y418.057
G01 X298.102 Y420.608
G01 X292.821 Y422.000
G01 X284.346 Y423.975
G01 X282.571 Y424.334
G01 X275.208 Y425.448
G01 X271.509 Y425.134
G01 X268.624 Y423.227
G01 X265.805 Y418.912
G01 X265.957 Y415.884
G01 X267.333 Y413.056
G01 X274.860 Y409.112
G01 X274.967 Y409.052
G01 X279.778 Y408.248
G01 X287.462 Y406.607
G01 X295.105 Y404.591
G01 X302.639 Y402.202
G01 X303.966 Y401.739
G01 X311.347 Y398.908
G01 X318.579 Y395.719
G01 X319.136 Y395.455
G01 X326.197 Y391.901
G01 X331.165 Y389.131
G01 X337.894 Y384.981
G01 X341.109 Y382.832
G01 X347.525 Y378.212
G01 X353.018 Y373.857
G01 X358.976 Y368.658
G01 X364.672 Y363.173
G01 X370.092 Y357.415
G01 X372.903 Y354.193
G01 X377.875 Y348.043
G01 X382.539 Y341.655
G01 X385.437 Y337.327
G01 X389.566 Y330.580
G01 X393.359 Y323.639
G01 X396.807 Y316.519
G01 X397.364 Y315.278
G01 X400.400 Y307.973
G01 X403.074 Y300.527
G01 X403.570 Y299.006
G01 X405.790 Y291.412
G01 X407.634 Y283.717
G01 X408.449 Y279.652
G01 X410.093 Y271.893
G01 X411.237 Y264.908
G01 X411.405 Y256.962
G01 X411.225 Y249.887
G01 X411.037 Y241.975
G01 X410.461 Y234.082
G01 X410.333 Y232.827
G01 X409.297 Y224.980
G01 X407.878 Y217.194
G01 X407.310 Y214.574
G01 X405.383 Y206.898
G01 X403.573 Y200.839
G01 X400.976 Y193.363
G01 X398.090 Y186.197
G01 X394.795 Y179.001
G01 X392.321 Y174.142
G01 X388.427 Y167.250
G01 X384.200 Y160.557
G01 X384.054 Y160.339
G01 X379.494 Y153.870
G01 X376.160 Y149.534
G01 X371.078 Y143.465
G01 X369.020 Y141.170
G01 X363.537 Y135.461
G01 X361.409 Y133.391
G01 X356.378 Y128.784
G01 X350.293 Y123.721
G01 X345.545 Y120.105
G01 X339.056 Y115.573
G01 X332.488 Y111.446
G01 X325.590 Y107.565
G01 X323.070 Y106.256
G01 X315.929 Y102.844
G01 X312.540 Y101.372
G01 X305.172 Y98.482
G01 X302.052 Y97.382
G01 X294.495 Y95.032
G01 X293.049 Y94.629
G01 X285.374 Y92.703
G01 X284.081 Y92.418
G01 X276.307 Y90.936
G01 X275.414 Y90.791
G01 X267.572 Y89.735
G01 X265.966 Y89.568
G01 X259.188 Y87.535
G01 X256.873 Y83.242
G01 X257.912 Y77.331
G01 X260.393 Y73.731
G01 X267.131 Y73.379
G01 X275.777 Y74.432
G01 X280.545 Y75.199
G01 X289.085 Y76.908
G01 X290.833 Y77.312
G01 X299.261 Y79.510
G01 X305.675 Y81.484
G01 X313.876 Y84.419
G01 X320.025 Y86.924
G01 X327.943 Y90.556
G01 X334.586 Y93.979
G01 X342.146 Y98.308
G01 X349.484 Y103.003
G01 X351.304 Y104.248
G01 X358.334 Y109.394
G01 X364.578 Y114.434
G01 X371.092 Y120.220
G01 X372.707 Y121.745
G01 X378.852 Y127.920
G01 X384.687 Y134.390
G01 X386.794 Y136.891
G01 X392.179 Y143.739
G01 X396.787 Y150.201
G01 X401.507 Y157.523
G01 X405.862 Y165.069
G01 X406.513 Y166.275
G01 X410.433 Y174.056
G01 X413.308 Y180.453
G01 X416.512 Y188.554
G01 X419.315 Y196.802
G01 X419.543 Y197.535
G01 X421.913 Y205.917
G01 X422.396 Y207.848
G01 X424.257 Y216.357
G01 X424.261 Y216.377
G01 X425.664 Y224.973
G01 X426.043 Y227.897
G01 X428.580 Y235.413
G01 X431.753 Y236.890
G01 X435.346 Y237.749
G01 X441.167 Y236.058
G01 X442.753 Y230.874
G01 X441.992 Y224.332
G01 X440.501 Y214.943
G01 X440.384 Y214.312
G01 X438.416 Y205.010
G01 X435.993 Y195.816
G01 X435.981 Y195.774
G01 X433.096 Y186.713
G01 X429.770 Y177.806
G01 X429.674 Y177.567
G01 X425.904 Y168.838
G01 X423.285 Y163.388
G01 X418.827 Y154.990
G01 X414.687 Y147.983
G01 X409.483 Y140.025
G01 X403.895 Y132.332
G01 X400.452 Y127.961
G01 X394.283 Y120.725
G01 X387.766 Y113.801
G01 X386.997 Y113.029
G01 X380.111 Y106.472
G01 X372.912 Y100.260
G01 X369.584 Y97.590
G01 X361.962 Y91.905
G01 X360.055 Y90.572
G01 X352.099 Y85.364
G01 X346.475 Y82.006
G01 X338.116 Y77.475
G01 X335.777 Y76.300
G01 X327.145 Y72.313
G01 X319.989 Y69.387
G01 X311.043 Y66.170
G01 X301.949 Y63.396
G01 X297.940 Y62.326
G01 X288.670 Y60.213
G01 X281.160 Y58.848
G01 X271.744 Y57.549
G01 X262.274 Y56.714
G01 X256.505 Y56.434
G01 X247.000 Y56.371
G01 X245.913 Y56.393
G01 X236.418 Y56.827
G01 X226.956 Y57.726
G01 X224.588 Y58.025
G01 X215.201 Y59.514
G01 X205.898 Y61.462
G01 X204.387 Y61.824
G01 X195.209 Y64.289
G01 X186.163 Y67.201
G01 X183.860 Y68.022
G01 X175.014 Y71.495
G01 X166.349 Y75.398
G01 X160.822 Y78.162
G01 X152.503 Y82.754
G01 X144.419 Y87.748
G01 X141.178 Y89.909
G01 X133.459 Y95.449
G01 X126.022 Y101.360
G01 X120.365 Y106.277
G01 X113.476 Y112.819
G01 X106.918 Y119.690
G01 X104.863 Y121.987
G01 X98.765 Y129.269
G01 X93.031 Y136.841
G01 X90.515 Y140.424
G01 X85.331 Y148.382
G01 X80.543 Y156.584
G01 X77.753 Y161.834
G01 X73.645 Y170.397
G01 X69.962 Y179.150
G01 X69.415 Y180.562
G01 X66.234 Y189.509
G01 X63.496 Y198.601
G01 X61.750 Y205.448
G01 X59.791 Y214.739
G01 X58.290 Y224.114
G01 X58.222 Y224.618
G01 X57.561 Y229.760
G01 X56.010 Y234.294
G01 X53.737 Y236.892
G01 X48.127 Y238.949
G01 X43.183 Y238.263
G01 X40.943 Y233.915
G01 X41.599 Y226.922
G01 X42.726 Y218.358
G01 X44.529 Y208.226
G01 X44.579 Y207.976
G01 X46.876 Y197.944
G01 X49.291 Y189.255
G01 X52.513 Y179.480
G01 X55.336 Y172.025
G01 X59.385 Y162.562
G01 X63.810 Y153.472
G01 X68.770 Y144.452
G01 X74.168 Y135.687
G01 X74.331 Y135.436
G01 X80.154 Y126.948
G01 X86.388 Y118.755
G01 X87.777 Y117.039
G01 X94.670 Y109.396
G01 X101.922 Y102.109
G01 X102.137 Y101.903
G01 X109.341 Y94.560
G01 X112.261 Y91.780
G01 X120.182 Y85.202
G01 X126.939 Y80.082
G01 X135.425 Y74.248
G01 X140.339 Y71.141
G01 X149.241 Y65.965
G01 X158.387 Y61.232
G01 X158.600 Y61.128
G01 X167.973 Y56.860
G01 X177.544 Y53.057
G01 X178.929 Y52.551
G01 X188.703 Y49.302
G01 X198.040 Y46.684
G01 X208.074 Y44.357
G01 X208.694 Y44.230
G01 X218.840 Y42.451
G01 X223.957 Y41.747
G01 X229.985 Y40.630
G01 X234.962 Y37.682
G01 X237.523 Y36.264
G01 X238.727 Y32.592
G01 X238.817 Y28.332
G01 X235.363 Y25.502
G01 X231.567 Y24.628
G01 X225.762 Y25.203
G01 X215.473 Y26.552
G01 X204.550 Y28.515
G01 X202.976 Y28.844
G01 X192.185 Y31.434
G01 X186.740 Y32.956
G01 X176.166 Y36.322
G01 X172.181 Y37.741
G01 X164.570 Y40.688
G01 X154.413 Y45.153
G01 X153.797 Y45.443
G01 X143.875 Y50.410
G01 X140.337 Y52.332
G01 X130.776 Y57.960
G01 X121.503 Y64.050
G01 X118.394 Y66.241
G01 X109.543 Y72.929
G01 X101.031 Y80.042
G01 X98.463 Y82.332
G01 X90.418 Y89.970
G01 X82.758 Y97.993
G01 X79.347 Y101.832
G01 X72.292 Y110.392
G01 X65.666 Y119.287
G01 X65.337 Y119.753
G01 X59.180 Y128.978
G01 X54.422 Y136.851
G01 X49.106 Y146.584
G01 X46.093 Y152.659
G01 X41.572 Y162.785
G01 X37.554 Y173.121
G01 X36.574 Y175.896
G01 X33.195 Y186.457
G01 X31.403 Y192.926
G01 X28.875 Y203.723
G01 X26.881 Y214.631
G01 X26.044 Y220.427
G01 X24.863 Y231.452
G01 X24.278 Y241.037
G01 X24.129 Y252.123
G01 X24.203 Y255.920
G01 X24.765 Y266.992
G01 X24.853 Y268.121
G01 X26.013 Y279.146
G01 X26.370 Y281.768
G01 X28.198 Y292.703
G01 X30.120 Y301.695
G01 X32.939 Y312.416
G01 X34.118 Y316.357
G01 X37.634 Y326.870
G01 X37.643 Y326.894
G01 X41.672 Y337.221
G01 X42.103 Y338.244
G01 X46.683 Y348.338
G01 X47.960 Y350.935
G01 X53.156 Y360.727
G01 X55.182 Y364.255
G01 X60.617 Y373.055
G01 X64.936 Y379.458
G01 X69.906 Y386.287
G01 X76.810 Y394.960
G01 X78.431 Y396.876
G01 X85.816 Y405.086
G01 X92.861 Y412.221
G01 X98.450 Y417.454
G01 X106.849 Y424.688
G01 X107.656 Y425.347
G01 X116.306 Y432.028
G01 X125.399 Y438.369
G01 X127.880 Y439.987
G01 X137.349 Y445.750
G01 X142.618 Y448.689
G01 X152.488 Y453.735
G01 X156.068 Y455.417
G01 X166.261 Y459.779
G01 X170.454 Y461.405
G01 X180.923 Y465.053
G01 X188.994 Y467.480
G01 X198.459 Y469.942
G01 X204.498 Y470.632
G01 X208.986 Y470.645
G01 X213.612 Y469.631
G01 X215.400 Y467.743
G01 X216.295 Y465.024
G01 X215.510 Y460.924
G01 X214.375 Y458.681
G01 X212.234 Y457.440
G01 X207.346 Y455.265
G01 X197.749 Y453.034
G01 X187.849 Y450.226
G01 X182.008 Y448.318
G01 X172.365 Y444.728
G01 X167.542 Y442.726
G01 X159.465 Y439.066
G01 X150.297 Y434.396
G01 X145.680 Y431.824
G01 X136.884 Y426.487
G01 X135.316 Y425.471
G01 X126.844 Y419.633
G01 X122.075 Y416.066
G01 X114.080 Y409.589
G01 X106.456 Y402.767
G01 X99.133 Y395.539
G01 X93.431 Y389.388
G01 X86.781 Y381.537
G01 X81.102 Y374.161
G01 X75.213 Y365.724
G01 X74.200 Y364.179
G01 X68.414 Y355.645
G01 X66.693 Y352.923
G01 X62.316 Y343.579
G01 X59.413 Y336.627
G01 X55.106 Y327.284
G01 X53.592 Y323.684
G01 X50.474 Y313.875
G01 X50.461 Y313.832
G01 X47.801 Y305.397
G01 X45.281 Y295.419
G01 X45.129 Y294.741
G01 X43.203 Y284.631
G01 X43.091 Y283.945
G01 X41.737 Y273.745
G01 X41.528 Y271.720
G01 X41.675 Y265.153
G01 X43.059 Y260.358
G01 X47.491 Y256.870
G01 X51.391 Y257.493
G01 X54.221 Y260.310
G01 X57.313 Y266.886
G01 X57.696 Y270.794
G01 X58.965 Y280.202
G01 X59.653 Y284.227
G01 X61.561 Y293.525
G01 X62.845 Y298.749
G01 X65.462 Y307.873
G01 X66.756 Y311.848
G01 X70.011 Y320.765
G01 X70.311 Y321.522
G01 X74.037 Y330.253
G01 X75.720 Y333.846
G01 X80.044 Y342.296
G01 X80.434 Y343.011
G01 X85.203 Y351.219
G01 X86.276 Y352.946
G01 X91.539 Y360.845
G01 X93.544 Y363.646
G01 X99.309 Y371.186
G01 X102.275 Y374.784
G01 X108.575 Y381.882
G01 X110.156 Y383.558
G01 X116.863 Y390.275
G01 X117.763 Y391.128
G01 X124.847 Y397.446
G01 X124.982 Y397.560
G01 X131.961 Y403.200
G01 X139.620 Y408.808
G01 X140.960 Y409.731
G01 X148.929 Y414.889
G01 X150.038 Y415.563
G01 X158.282 Y420.269
G01 X159.120 Y420.717
G01 X167.606 Y424.971
G01 X173.480 Y427.618
G01 X182.287 Y431.159
G01 X184.559 Y431.992
G01 X193.485 Y435.257
G01 X199.506 Y437.184
G01 X205.775 Y438.045
G01 X209.517 Y436.737
G01 X212.756 Y434.886
G01 X214.766 Y431.945
G01 X215.054 Y428.257
G01 X212.941 Y424.738
G01 X209.484 Y422.506
G01 X201.072 Y420.298
G01 X193.479 Y417.918
G01 X185.308 Y414.942
G01 X177.293 Y411.569
G01 X170.933 Y408.554
G01 X163.252 Y404.477
G01 X155.781 Y400.028
G01 X148.537 Y395.218
G01 X146.079 Y393.466
G01 X139.165 Y388.194
G01 X132.518 Y382.590
G01 X126.153 Y376.665
G01 X124.750 Y375.278
G01 X118.754 Y368.981
G01 X113.074 Y362.398
G01 X107.724 Y355.544
G01 X107.330 Y355.012
G01 X102.349 Y347.885
G01 X100.392 Y344.866
G01 X95.917 Y337.410
G01 X91.814 Y329.745
G01 X88.091 Y321.887
G01 X87.498 Y320.534
G01 X84.223 Y312.479
G01 X81.347 Y304.273
G01 X80.330 Y301.022
G01 X78.031 Y292.635
G01 X76.146 Y284.146
G01 X75.083 Y278.194
G01 X73.572 Y269.615
G01 X72.927 Y264.911
G01 X72.609 Y256.198
G01 X72.720 Y247.489
G01 X72.928 Y243.270
G01 X73.471 Y234.590
G01 X73.633 Y232.840
G01 X74.677 Y224.206
G01 X76.143 Y215.632
G01 X76.753 Y212.659
G01 X78.794 Y204.203
G01 X81.248 Y195.858
G01 X82.435 Y192.288
G01 X85.457 Y184.131
G01 X88.774 Y176.353
G01 X92.572 Y168.525
G01 X96.749 Y160.893
G01 X97.242 Y160.047
G01 X101.840 Y152.660
G01 X106.795 Y145.507
G01 X106.871 Y145.403
G01 X112.167 Y138.499
G01 X117.795 Y131.863
G01 X118.829 Y130.712
G01 X124.828 Y124.408
G01 X127.618 Y121.677
G01 X134.062 Y115.827
G01 X137.495 Y112.935
G01 X144.346 Y107.567
G01 X148.285 Y104.717
G01 X155.536 Y99.902
G01 X159.624 Y97.405
G01 X167.212 Y93.138
G01 X170.048 Y91.666
G01 X177.913 Y87.934
G01 X181.825 Y86.250
G01 X189.942 Y83.102
G01 X190.913 Y82.756
G01 X199.187 Y80.046
G01 X207.585 Y77.745
G01 X207.744 Y77.706
G01 X213.660 Y76.362
G01 X222.243 Y74.910
G01 X224.054 Y74.659
G01 X231.565 Y74.239
G01 X236.769 Y74.874
G01 X240.213 Y77.903
G01 X239.865 Y82.982
G01 X237.270 Y87.347
G01 X231.918 Y89.817
G01 X224.084 Y90.919
G01 X223.017 Y91.100
G01 X215.252 Y92.615
G01 X210.561 Y93.725
G01 X202.945 Y95.864
G01 X198.817 Y97.194
G01 X191.381 Y99.890
G01 X187.690 Y101.384
G01 X180.479 Y104.634
G01 X175.995 Y106.876
G01 X169.062 Y110.679
G01 X164.098 Y113.684
G01 X157.522 Y118.077
G01 X154.192 Y120.485
G01 X147.960 Y125.352
G01 X142.092 Y130.413
G01 X136.354 Y135.852
G01 X130.890 Y141.566
G01 X129.616 Y142.982
G01 X124.522 Y149.028
G01 X121.527 Y152.883
G01 X116.916 Y159.304
G01 X114.795 Y162.498
G01 X110.676 Y169.245
G01 X107.846 Y174.361
G01 X104.306 Y181.427
G01 X101.792 Y187.044
G01 X98.892 Y194.395
G01 X96.356 Y201.880
G01 X95.635 Y204.257
G01 X93.576 Y211.886
G01 X92.951 Y214.553
G01 X91.423 Y222.305
G01 X91.294 Y223.069
G01 X90.634 Y225.753
G01 X90.322 Y230.002
G01 X90.940 Y234.123
G01 X91.853 Y236.463
G01 X93.756 Y238.057
G01 X96.709 Y238.792
G01 X99.534 Y238.241
G01 X104.165 Y235.546
G01 X106.648 Y229.932
G01 X107.805 Y222.922
G01 X108.493 Y219.530
G01 X110.151 Y212.621
G01 X112.145 Y205.801
G01 X114.408 Y199.259
G01 X117.051 Y192.662
G01 X120.015 Y186.203
G01 X120.782 Y184.656
G01 X124.144 Y178.394
G01 X127.809 Y172.305
G01 X128.437 Y171.327
G01 X132.433 Y165.449
G01 X136.034 Y160.636
G01 X140.543 Y155.140
G01 X142.905 Y152.470
G01 X147.819 Y147.332
G01 X152.980 Y142.442
G01 X153.328 Y142.130
G01 X158.728 Y137.505
G01 X163.097 Y134.083
G01 X168.884 Y129.950
G01 X174.867 Y126.106
G01 X177.963 Y124.275
G01 X184.219 Y120.892
G01 X185.775 Y120.111
G01 X192.220 Y117.104
G01 X198.065 Y114.700
G01 X204.767 Y112.315
G01 X208.613 Y111.110
G01 X215.476 Y109.238
G01 X222.423 Y107.706
G01 X228.782 Y106.611
G01 X235.843 Y105.733
G01 X242.938 Y105.202
G01 X246.607 Y105.065
G01 X253.723 Y105.073
G01 X258.982 Y105.303
G01 X266.072 Y105.903
G01 X270.692 Y106.484
G01 X277.709 Y107.672
G01 X284.659 Y109.203
G01 X284.762 Y109.228
G01 X291.627 Y111.104
G01 X297.903 Y113.141
G01 X304.565 Y115.647
G01 X311.096 Y118.476
G01 X313.224 Y119.482
G01 X319.552 Y122.741
G01 X325.712 Y126.307
G01 X327.329 Y127.311
G01 X333.256 Y131.254
G01 X337.095 Y134.040
G01 X342.680 Y138.453
G01 X347.670 Y142.795
G01 X352.813 Y147.717
G01 X357.708 Y152.885
G01 X360.893 Y156.539
G01 X365.345 Y162.092
G01 X368.844 Y166.884
G01 X372.779 Y172.815
G01 X376.419 Y178.933
G01 X377.782 Y181.415
G01 X380.994 Y187.767
G01 X383.889 Y194.270
G01 X385.042 Y197.124
G01 X387.474 Y203.814
G01 X389.425 Y210.088
G01 X391.118 Y217.000
G01 X392.470 Y223.982
G01 X392.480 Y224.043
G01 X392.570 Y230.112
G01 X390.601 Y235.225
G01 X386.617 Y238.799
G01 X380.340 Y237.632
G01 X377.626 Y232.834
G01 X376.642 Y226.590
G01 X375.352 Y220.401
G01 X375.260 Y220.009
G01 X373.637 Y213.899
G01 X371.717 Y207.876
G01 X371.568 Y207.447
G01 X369.333 Y201.534
G01 X366.811 Y195.737
G01 X366.455 Y194.975
G01 X363.615 Y189.328
G01 X360.501 Y183.826
G01 X357.121 Y178.484
G01 X356.586 Y177.689
G01 X352.909 Y172.546
G01 X348.985 Y167.590
G01 X346.654 Y164.868
G01 X342.360 Y160.228
G01 X337.844 Y155.804
G01 X336.762 Y154.806
G01 X331.987 Y150.664
G01 X327.014 Y146.761
G01 X324.501 Y144.933
G01 X319.256 Y141.404
G01 X313.844 Y138.137
G01 X311.070 Y136.598
G01 X305.427 Y133.750
G01 X299.755 Y131.225
G01 X293.867 Y128.927
G01 X287.873 Y126.920
G01 X284.273 Y125.870
G01 X278.141 Y124.337
G01 X272.420 Y123.192
G01 X266.166 Y122.284
G01 X264.642 Y122.110
G01 X258.497 Y124.111
G01 X256.397 Y129.620
G01 X256.416 Y133.877
G01 X261.658 Y138.081
G01 X267.136 Y138.787
G01 X269.424 Y139.164
G01 X274.842 Y140.242
G01 X280.200 Y141.584
G01 X283.947 Y142.692
G01 X289.172 Y144.487
G01 X294.302 Y146.536
G01 X298.122 Y148.256
G01 X303.060 Y150.734
G01 X307.870 Y153.451
G01 X312.541 Y156.402
G01 X315.647 Y158.548
G01 X320.056 Y161.879
G01 X324.295 Y165.422
G01 X325.708 Y166.684
G01 X329.705 Y170.500
G01 X333.509 Y174.506
G01 X337.113 Y178.695
G01 X339.435 Y181.629
G01 X342.682 Y186.100
G01 X345.705 Y190.724
G01 X348.499 Y195.492
G01 X349.561 Y197.456
G01 X352.019 Y202.405
G01 X354.231 Y207.468
G01 X354.482 Y208.086
G01 X356.405 Y213.266
G01 X358.071 Y218.534
G01 X359.477 Y223.876
G01 X359.622 Y224.494
G01 X360.741 Y229.904
G01 X361.594 Y235.362
G01 X361.777 Y236.828
G01 X362.278 Y242.329
G01 X362.508 Y247.848
G01 X362.525 Y249.898
G01 X362.394 Y255.420
G01 X361.993 Y260.928
G01 X361.534 Y264.899
G01 X360.661 Y270.352
G01 X359.520 Y275.756
G01 X358.190 Y280.841
G01 X356.546 Y286.112
G01 X354.850 Y290.776
G01 X352.716 Y295.868
G01 X350.334 Y300.849
G01 X347.711 Y305.707
G01 X347.670 Y305.779
G01 X344.806 Y310.498
G01 X341.714 Y315.071
G01 X340.843 Y316.276
G01 X337.473 Y320.647
G01 X333.894 Y324.847
G01 X332.459 Y326.419
G01 X328.602 Y330.364
G01 X324.587 Y334.087
G01 X320.371 Y337.645
G01 X317.987 Y339.507
G01 X313.505 Y342.723
G01 X310.490 Y344.706
G01 X305.770 Y347.560
G01 X305.564 Y347.677
G01 X300.704 Y350.286
G01 X298.586 Y351.329
G01 X293.550 Y353.578
G01 X289.378 Y355.223
G01 X284.168 Y357.028
G01 X282.751 Y357.471
G01 X277.433 Y358.930
G01 X275.586 Y359.372
G01 X269.925 Y359.057
G01 X269.592 Y359.029
G01 X266.387 Y356.977
G01 X264.772 Y353.400
G01 X265.758 Y347.586
G01 X270.028 Y344.341
G01 X270.615 Y343.863
G01 X273.058 Y343.293
G01 X277.612 Y342.064
G01 X280.146 Y341.275
G01 X284.589 Y339.686
G01 X288.052 Y338.273
G01 X292.343 Y336.310
G01 X296.532 Y334.139
G01 X296.787 Y333.999
G01 X300.858 Y331.611
G01 X304.807 Y329.025
G01 X306.482 Y327.842
G01 X310.234 Y324.977
G01 X311.323 Y324.089
G01 X314.864 Y321.009
G01 X318.279 Y317.750
G01 X321.125 Y314.774
G01 X324.229 Y311.215
G01 X326.533 Y308.326
G01 X329.303 Y304.500
G01 X331.343 Y301.406
G01 X333.779 Y297.360
G01 X335.761 Y293.693
G01 X337.802 Y289.432
G01 X339.631 Y285.076
G01 X339.868 Y284.464
G01 X341.467 Y280.018
G01 X342.158 Y277.852
G01 X343.414 Y273.297
G01 X344.444 Y268.685
G01 X344.460 Y268.607
G01 X344.789 Y263.881
G01 X344.828 Y262.889
G01 X343.866 Y258.499
G01 X340.950 Y256.395
G01 X335.781 Y256.480
G01 X330.857 Y257.451
G01 X329.494 Y261.282
G01 X329.103 Y262.279
G01 X328.405 Y266.145
G01 X328.036 Y267.844
G01 X327.057 Y271.649
G01 X325.894 Y275.401
G01 X324.979 Y277.966
G01 X323.517 Y281.611
G01 X321.877 Y285.180
G01 X321.535 Y285.870
G01 X319.679 Y289.332
G01 X317.655 Y292.697
G01 X317.309 Y293.238
G01 X315.093 Y296.479
G01 X313.773 Y298.259
G01 X311.329 Y301.330
G01 X309.205 Y303.766
G01 X306.489 Y306.600
G01 X303.637 Y309.297
G01 X301.499 Y311.154
G01 X298.426 Y313.594
G01 X297.029 Y314.624
G01 X293.802 Y316.854
G01 X290.469 Y318.922
G01 X290.066 Y319.157
G01 X286.618 Y321.027
G01 X283.844 Y322.378
G01 X280.252 Y323.951
G01 X278.057 Y324.812
G01 X274.164 Y325.510
G01 X273.489 Y325.611
G01 X269.581 Y326.014
G01 X269.032 Y326.055
G01 X265.182 Y323.090
G01 X263.881 Y319.222
G01 X265.441 Y314.605
G01 X268.036 Y311.864
G01 X269.004 Y310.747
G01 X271.966 Y309.752
G01 X274.876 Y308.613
G01 X275.130 Y308.506
G01 X277.974 Y307.209
G01 X280.751 Y305.774
G01 X283.455 Y304.205
G01 X284.375 Y303.629
G01 X286.970 Y301.885
G01 X289.477 Y300.016
G01 X291.432 Y298.418
G01 X293.758 Y296.327
G01 X295.978 Y294.124
G01 X296.230 Y293.860
G01 X298.334 Y291.546
G01 X300.323 Y289.130
G01 X300.950 Y288.316
G01 X302.776 Y285.775
G01 X304.476 Y283.147
G01 X305.854 Y280.782
G01 X307.306 Y278.008
G01 X308.620 Y275.166
G01 X309.427 Y273.214
G01 X310.501 Y270.272
G01 X311.429 Y267.280
G01 X312.209 Y264.247
G01 X312.782 Y261.489
G01 X313.280 Y258.396
G01 X313.624 Y255.282
G01 X313.784 Y252.904
G01 X313.850 Y249.771
G01 X313.761 Y246.638
G01 X313.520 Y243.513
G01 X313.222 Y241.065
G01 X312.714 Y237.972
G01 X312.054 Y234.908
G01 X311.245 Y231.879
G01 X310.468 Y229.416
G01 X309.385 Y226.474
G01 X308.159 Y223.589
G01 X306.793 Y220.767
G01 X305.290 Y218.015
G01 X304.654 Y216.940
G01 X302.966 Y214.299
G01 X301.151 Y211.743
G01 X299.212 Y209.279
G01 X298.871 Y208.870
G01 X296.794 Y206.522
G01 X294.604 Y204.278
G01 X292.307 Y202.144
G01 X289.907 Y200.126
G01 X288.309 Y198.888
G01 X285.755 Y197.070
G01 X283.115 Y195.379
G01 X280.395 Y193.820
G01 X279.093 Y193.135
G01 X276.264 Y191.783
G01 X273.373 Y190.572
G01 X270.426 Y189.504
G01 X270.006 Y189.365
G01 X266.982 Y188.547
G01 X265.957 Y188.305
G01 X263.075 Y186.799
G01 X262.401 Y186.474
G01 X259.880 Y184.137
G01 X257.501 Y181.384
G01 X256.994 Y177.964
G01 X259.573 Y173.068
G01 X262.641 Y171.714
G01 X266.585 Y171.875
G01 X268.044 Y171.985
G01 X271.850 Y172.964
G01 X275.604 Y174.129
G01 X276.144 Y174.313
G01 X279.831 Y175.677
G01 X283.446 Y177.219
G01 X284.117 Y177.529
G01 X287.632 Y179.290
G01 X290.665 Y180.990
G01 X294.003 Y183.069
G01 X297.234 Y185.309
G01 X298.053 Y185.915
G01 X301.140 Y188.350
G01 X304.103 Y190.933
G01 X304.116 Y190.946
G01 X306.958 Y193.664
G01 X309.662 Y196.518
G01 X309.808 Y196.680
G01 X312.353 Y199.679
G01 X314.747 Y202.799
G01 X315.025 Y203.184
G01 X317.232 Y206.438
G01 X318.846 Y209.058
G01 X320.772 Y212.486
G01 X322.323 Y215.571
G01 X323.925 Y219.161
G01 X324.679 Y221.034
G01 X326.011 Y224.734
G01 X327.068 Y228.172
G01 X327.909 Y232.011
G01 X328.081 Y232.932
G01 X329.507 Y236.622
G01 X332.595 Y238.621
G01 X336.058 Y239.466
G01 X340.987 Y238.788
G01 X343.936 Y236.867
G01 X344.784 Y232.840
G01 X344.030 Y229.101
G01 X342.892 Y224.512
G01 X342.116 Y221.838
G01 X340.633 Y217.348
G01 X338.931 Y212.936
G01 X338.144 Y211.091
G01 X336.129 Y206.812
G01 X334.458 Y203.630
G01 X332.081 Y199.541
G01 X330.034 Y196.354
G01 X327.305 Y192.492
G01 X324.391 Y188.768
G01 X323.674 Y187.907
G01 X320.538 Y184.367
G01 X318.143 Y181.884
G01 X314.719 Y178.622
G01 X312.745 Y176.881
G01 X309.082 Y173.890
G01 X305.276 Y171.083
G01 X305.156 Y170.999
G01 X301.207 Y168.398
G01 X297.135 Y165.993
G01 X296.552 Y165.671
G01 X292.358 Y163.488
G01 X289.576 Y162.180
G01 X285.219 Y160.344
G01 X280.777 Y158.724
G01 X277.285 Y157.620
G01 X272.717 Y156.401
G01 X268.096 Y155.407
G01 X263.431 Y154.641
G01 X263.247 Y154.615
G01 X258.550 Y154.089
G01 X253.833 Y153.794
G01 X250.134 Y153.725
G01 X245.410 Y153.834
G01 X241.298 Y154.119
G01 X236.606 Y154.674
G01 X232.143 Y155.421
G01 X227.524 Y156.411
G01 X222.959 Y157.627
G01 X222.532 Y157.753
G01 X218.042 Y159.223
G01 X213.631 Y160.911
G01 X213.184 Y161.096
G01 X208.872 Y163.020
G01 X204.659 Y165.154
G01 X204.115 Y165.448
G01 X200.022 Y167.801
G01 X197.231 Y169.564
G01 X193.357 Y172.263
G01 X190.942 Y174.094
G01 X187.298 Y177.094
G01 X184.544 Y179.570
G01 X181.167 Y182.867
G01 X177.967 Y186.312
G01 X174.942 Y189.934
G01 X173.551 Y191.728
G01 X170.784 Y195.549
G01 X168.208 Y199.502
G01 X167.052 Y201.423
G01 X164.780 Y205.557
G01 X162.712 Y209.797
G01 X162.584 Y210.079
G01 X160.742 Y214.421
G01 X159.115 Y218.848
G01 X158.963 Y219.296
G01 X157.566 Y223.800
G01 X156.444 Y228.145
G01 X154.751 Y232.600
G01 X151.402 Y236.820
G01 X147.196 Y238.460
G01 X143.673 Y238.473
G01 X140.153 Y236.901
G01 X139.243 Y234.404
G01 X139.303 Y231.091
G01 X140.125 Y226.789
G01 X141.396 Y221.426
G01 X141.919 Y219.506
G01 X143.530 Y214.235
G01 X144.442 Y211.601
G01 X146.454 Y206.468
G01 X148.714 Y201.440
G01 X150.707 Y197.485
G01 X153.396 Y192.672
G01 X156.318 Y187.996
G01 X158.822 Y184.356
G01 X162.140 Y179.952
G01 X164.101 Y177.547
G01 X167.752 Y173.413
G01 X171.602 Y169.462
G01 X173.729 Y167.438
G01 X177.872 Y163.795
G01 X180.412 Y161.732
G01 X184.821 Y158.415
G01 X189.388 Y155.319
G01 X191.380 Y154.067
G01 X196.153 Y151.298
G01 X201.057 Y148.766
G01 X204.229 Y147.287
G01 X209.320 Y145.155
G01 X214.511 Y143.276
G01 X217.234 Y142.404
G01 X222.553 Y140.925
G01 X226.641 Y139.977
G01 X231.417 Y138.057
G01 X236.646 Y134.819
G01 X237.020 Y134.603
G01 X239.143 Y131.948
G01 X239.079 Y127.210
G01 X238.023 Y123.516
G01 X234.231 Y122.244
G01 X227.982 Y123.172
G01 X226.346 Y123.467
G01 X220.169 Y124.794
G01 X215.572 Y125.990
G01 X209.531 Y127.837
G01 X203.588 Y129.978
G01 X198.107 Y132.253
G01 X192.396 Y134.950
G01 X186.825 Y137.924
G01 X183.955 Y139.597
G01 X178.622 Y142.978
G01 X173.462 Y146.617
G01 X169.793 Y149.446
G01 X164.960 Y153.508
G01 X160.333 Y157.802
G01 X155.923 Y162.318
G01 X154.264 Y164.136
G01 X150.166 Y168.937
G01 X146.309 Y173.933
G01 X145.981 Y174.383
G01 X142.403 Y179.582
G01 X139.084 Y184.951
G01 X136.061 Y190.423
G01 X133.288 Y196.091
G01 X131.423 Y200.356
G01 X129.140 Y206.238
G01 X127.148 Y212.224
G01 X126.609 Y214.038
G01 X124.993 Y220.136
G01 X123.678 Y226.306
G01 X122.667 Y232.533
G01 X122.627 Y232.831
G01 X121.954 Y239.102
G01 X121.698 Y242.860
G01 X121.503 Y249.165
G01 X121.617 Y255.471
G01 X121.785 Y258.553
G01 X122.370 Y264.833
G01 X123.262 Y271.076
G01 X123.578 Y272.876
G01 X124.853 Y279.051
G01 X126.429 Y285.157
G01 X127.214 Y287.809
G01 X129.217 Y293.788
G01 X131.212 Y298.941
G01 X133.756 Y304.711
G01 X136.420 Y310.045
G01 X139.503 Y315.546
G01 X142.852 Y320.889
G01 X143.821 Y322.331
G01 X147.498 Y327.454
G01 X150.891 Y331.750
G01 X155.021 Y336.515
G01 X156.630 Y338.249
G01 X160.861 Y342.521
G01 X165.508 Y346.783
G01 X165.897 Y347.121
G01 X170.764 Y351.131
G01 X173.648 Y353.326
G01 X178.673 Y357.154
G01 X181.840 Y359.375
G01 X187.433 Y362.329
G01 X191.337 Y364.187
G01 X196.894 Y367.184
G01 X199.809 Y368.618
G01 X205.880 Y370.420
G01 X206.690 Y370.636
G01 X211.849 Y370.138
G01 X214.388 Y367.967
G01 X215.076 Y365.354
G01 X215.329 Y362.765
G01 X214.926 Y360.334
G01 X213.747 Y358.240
G01 X209.808 Y354.808
G01 X204.714 Y352.709
G01 X202.994 Y351.934
G01 X198.049 Y349.504
G01 X195.763 Y348.277
G01 X191.006 Y345.497
G01 X188.317 Y343.783
G01 X183.798 Y340.632
G01 X180.434 Y338.063
G01 X176.197 Y334.543
G01 X174.945 Y333.433
G01 X170.941 Y329.650
G01 X169.036 Y327.713
G01 X165.320 Y323.646
G01 X164.565 Y322.769
G01 X161.098 Y318.490
G01 X158.390 Y314.823
G01 X155.320 Y310.250
G01 X153.646 Y307.536
G01 X150.939 Y302.739
G01 X150.734 Y302.351
G01 X148.273 Y297.423
G01 X146.057 Y292.379
G01 X146.031 Y292.314
G01 X144.080 Y287.161
G01 X143.735 Y286.163
G01 X142.088 Y280.905
G01 X141.590 Y279.108
G01 X140.292 Y273.753
G01 X139.655 Y270.594
G01 X139.196 Y265.098
G01 X139.140 Y264.078
G01 X139.883 Y260.850
G01 X142.256 Y258.130
G01 X146.079 Y257.267
G01 X150.663 Y258.505
G01 X153.150 Y261.237
G01 X155.138 Y264.901
G01 X155.676 Y267.995
G01 X156.673 Y272.601
G01 X156.873 Y273.414
G01 X158.148 Y277.951
G01 X159.283 Y281.409
G01 X160.934 Y285.822
G01 X162.799 Y290.149
G01 X162.949 Y290.474
G01 X165.040 Y294.696
G01 X167.137 Y298.474
G01 X169.615 Y302.482
G01 X171.496 Y305.256
G01 X174.302 Y309.041
G01 X175.366 Y310.380
G01 X178.418 Y313.969
G01 X180.781 Y316.519
G01 X184.129 Y319.835
G01 X186.182 Y321.717
G01 X189.778 Y324.762
G01 X191.309 Y325.969
G01 X194.891 Y329.068
G01 X195.589 Y329.637
G01 X199.723 Y331.950
G01 X201.006 Y332.615
G01 X205.677 Y333.863
G01 X205.697 Y333.868
G01 X210.179 Y334.237
G01 X214.255 Y331.397
G01 X215.340 Y328.542
G01 X214.947 Y323.770
G01 X212.109 Y320.583
G01 X211.531 Y319.887
G01 X208.148 Y317.915
G01 X206.657 Y316.973
G01 X203.423 Y314.766
G01 X200.306 Y312.406
G01 X197.303 Y309.893
G01 X195.112 Y307.891
G01 X192.337 Y305.128
G01 X189.702 Y302.232
G01 X188.903 Y301.295
G01 X186.460 Y298.236
G01 X184.245 Y295.170
G01 X182.108 Y291.889
G01 X180.284 Y288.778
G01 X178.465 Y285.310
G01 X176.819 Y281.758
G01 X176.146 Y280.161
G01 X174.755 Y276.500
G01 X173.546 Y272.776
G01 X172.567 Y269.188
G01 X171.704 Y265.368
G01 X171.209 Y262.651
G01 X170.683 Y258.770
G01 X170.468 Y256.529
G01 X170.243 Y252.619
G01 X170.200 Y249.889
G01 X170.291 Y245.973
G01 X170.574 Y242.066
G01 X170.722 Y240.675
G01 X171.275 Y236.796
G01 X172.017 Y232.949
G01 X172.042 Y232.838
G01 X172.966 Y229.030
G01 X174.054 Y225.338
G01 X175.344 Y221.637
G01 X176.814 Y218.003
G01 X176.834 Y217.957
G01 X178.494 Y214.405
G01 X180.238 Y211.098
G01 X182.222 Y207.716
G01 X184.369 Y204.435
G01 X184.920 Y203.648
G01 X187.263 Y200.503
G01 X189.759 Y197.477
G01 X190.229 Y196.940
G01 X192.904 Y194.071
G01 X195.717 Y191.337
G01 X196.599 Y190.533
G01 X199.573 Y187.974
G01 X202.427 Y185.744
G01 X205.632 Y183.480
G01 X208.945 Y181.376
G01 X211.910 Y179.678
G01 X215.455 Y177.994
G01 X217.548 Y177.097
G01 X221.092 Y175.407
G01 X222.933 Y174.612
G01 X226.671 Y173.398
G01 X230.464 Y172.370
G01 X230.583 Y172.341
G01 X234.085 Y171.573
G01 X237.173 Y171.618
G01 X238.881 Y172.342
G01 X240.116 Y174.166
G01 X240.889 Y176.487
G01 X240.530 Y179.861
G01 X238.619 Y183.542
G01 X236.043 Y186.183
G01 X233.192 Y187.918
G01 X231.714 Y188.903
G01 X228.743 Y189.886
G01 X226.134 Y190.886
G01 X223.263 Y192.128
G01 X220.455 Y193.510
G01 X219.750 Y193.884
G01 X217.039 Y195.446
G01 X214.409 Y197.139
G01 X214.271 Y197.234
G01 X211.728 Y199.056
G01 X209.279 Y201.000
G01 X206.928 Y203.062
G01 X205.079 Y204.836
G01 X202.924 Y207.102
G01 X200.884 Y209.470
G01 X199.936 Y210.654
G01 X198.073 Y213.164
G01 X196.336 Y215.761
G01 X195.211 Y217.604
G01 X193.695 Y220.335
G01 X192.314 Y223.137
G01 X191.073 Y226.003
G01 X190.985 Y226.224
G01 X189.897 Y229.151
G01 X188.954 Y232.127
G01 X188.158 Y235.146
G01 X188.066 Y235.538
G01 X187.438 Y238.596
G01 X186.961 Y241.681
G01 X186.636 Y244.784
G01 X186.551 Y245.998
G01 X186.431 Y249.116
G01 X186.464 Y252.236
G01 X186.651 Y255.351
G01 X186.851 Y257.346
G01 X187.295 Y260.435
G01 X187.890 Y263.497
G01 X188.634 Y266.527
G01 X188.876 Y267.392
G01 X189.803 Y270.370
G01 X190.875 Y273.299
G01 X191.324 Y274.408
G01 X192.593 Y277.258
G01 X193.999 Y280.042
G01 X194.674 Y281.268
G01 X196.275 Y283.945
G01 X198.006 Y286.540
G01 X198.842 Y287.702
G01 X200.753 Y290.167
G01 X202.784 Y292.535
G01 X202.925 Y292.692
G01 X205.077 Y294.950
G01 X207.337 Y297.100
G01 X209.549 Y299.013
G01 X212.002 Y300.939
G01 X214.548 Y302.742
G01 X216.947 Y304.278
G01 X219.650 Y305.834
G01 X222.426 Y307.256
G01 X223.786 Y307.892
G01 X226.652 Y309.124
G01 X228.004 Y309.649
G01 X230.437 Y312.314
G01 X230.823 Y312.708
G01 X230.844 Y318.237
G01 X230.843 Y324.656
G01 X230.849 Y338.297
G01 X230.842 Y355.169
G01 X230.851 Y366.740
G01 X230.848 Y380.350
G01 X230.843 Y388.153
G01 X228.748 Y391.589
G01 X224.007 Y392.372
G01 X217.052 Y390.925
G01 X216.909 Y390.891
G01 X210.036 Y389.098
G01 X207.606 Y388.377
G01 X200.868 Y386.130
G01 X195.824 Y384.202
G01 X189.310 Y381.369
G01 X185.167 Y379.363
G01 X178.897 Y376.026
G01 X177.301 Y375.112
G01 X171.250 Y371.394
G01 X168.238 Y369.386
G01 X162.479 Y365.231
G01 X161.318 Y364.340
G01 X155.814 Y359.851
G01 X151.485 Y355.985
G01 X146.403 Y351.024
G01 X143.614 Y348.082
G01 X138.930 Y342.744
G01 X135.503 Y338.479
G01 X131.300 Y332.754
G01 X130.216 Y331.179
G01 X126.378 Y325.204
G01 X123.370 Y320.021
G01 X120.087 Y313.723
G01 X119.362 Y312.223
G01 X116.466 Y305.738
G01 X113.892 Y299.119
G01 X113.363 Y297.629
G01 X111.181 Y290.870
G01 X109.333 Y284.012
G01 X108.598 Y280.836
G01 X107.255 Y273.860
G01 X106.707 Y270.312
G01 X105.883 Y263.256
G01 X105.824 Y262.591
G01 X104.254 Y260.514
G01 X101.131 Y257.839
G01 X98.149 Y257.281
G01 X93.647 Y257.842
G01 X90.731 Y259.473
G01 X89.741 Y264.900
G01 X90.515 Y271.664
G01 X91.770 Y279.464
G01 X93.406 Y287.192
G01 X93.568 Y287.869
G01 X95.626 Y295.496
G01 X98.056 Y303.012
G01 X98.428 Y304.062
G01 X101.263 Y311.435
G01 X104.457 Y318.659
G01 X107.418 Y324.613
G01 X111.250 Y331.519
G01 X115.417 Y338.229
G01 X119.909 Y344.727
G01 X121.136 Y346.389
G01 X126.020 Y352.596
G01 X131.204 Y358.556
G01 X136.222 Y363.804
G01 X141.943 Y369.250
G01 X147.924 Y374.408
G01 X152.843 Y378.286
G01 X159.251 Y382.905
G01 X165.877 Y387.204
G01 X172.707 Y391.174
G01 X174.923 Y392.367
G01 X181.999 Y395.879
G01 X189.239 Y399.040
G01 X196.625 Y401.842
G01 X202.607 Y403.814
G01 X210.229 Y405.888
G01 X217.939 Y407.584
G01 X225.721 Y408.900
G01 X227.893 Y409.197
G01 X229.972 Y410.707
G01 X231.515 Y416.477
G01 X231.230 Y448.489
G01 X230.979 Y477.030
G01 X231.221 Y499.294
G01 X227.982 Y499.029
G01 X223.976 Y498.642
G01 X224.950 Y489.569
G01 X223.976 Y498.642
G01 X211.807 Y497.065
G01 X199.730 Y494.894
G01 X198.133 Y494.560
G01 X200.031 Y485.610
G01 X198.133 Y494.560
G01 X186.196 Y491.721
G01 X174.412 Y488.299
G01 X172.835 Y487.793
G01 X175.659 Y479.090
G01 X172.835 Y487.793
G01 X161.260 Y483.720
G01 X149.898 Y479.084
G01 X148.383 Y478.416
G01 X152.112 Y470.033
G01 X148.383 Y478.416
G01 X137.297 Y473.155
G01 X126.484 Y467.356
G01 X125.046 Y466.533
G01 X129.632 Y458.586
G01 X125.046 Y466.533
G01 X114.572 Y460.141
G01 X104.424 Y453.243
G01 X103.081 Y452.274
G01 X108.492 Y444.865
G01 X103.081 Y452.274
G01 X93.332 Y444.821
G01 X83.962 Y436.899
G01 X82.746 Y435.812
G01 X88.884 Y428.993
G01 X82.746 Y435.812
G01 X73.830 Y427.381
G01 X65.338 Y418.523
G01 X64.226 Y417.296
G01 X71.044 Y411.156
G01 X64.226 Y417.296
G01 X56.241 Y407.979
G01 X48.723 Y398.282
G01 X47.745 Y396.945
G01 X55.167 Y391.552
G01 X47.745 Y396.945
G01 X40.778 Y386.844
G01 X34.315 Y376.413
G01 X33.483 Y374.981
G01 X41.429 Y370.394
G01 X33.483 Y374.981
G01 X27.611 Y364.206
G01 X22.275 Y353.157
G01 X21.597 Y351.646
G01 X29.979 Y347.915
G01 X21.597 Y351.646
G01 X16.884 Y340.316
G01 X12.733 Y328.769
G01 X12.217 Y327.195
G01 X20.943 Y324.362
G01 X12.217 Y327.195
G01 X8.715 Y315.435
G01 X5.795 Y303.517
G01 X5.446 Y301.898
G01 X14.421 Y299.993
G01 X5.446 Y301.898
G01 X3.194 Y289.835
G01 X1.537 Y277.677
G01 X1.359 Y276.030
G01 X10.459 Y275.078
G01 X1.359 Y276.030
G01 X0.381 Y263.799
G01 X0.005 Y251.534
G01 X0.000 Y249.903
G01 X9.150 Y249.882
G01 X0.000 Y249.903
G01 X0.306 Y237.636
G01 X1.213 Y225.399
G01 X1.382 Y223.751
G01 X10.456 Y224.709
G01 X1.382 Y223.751
G01 X2.969 Y211.584
G01 X5.152 Y199.509
G01 X5.492 Y197.888
G01 X14.416 Y199.790
G01 X5.492 Y197.888
G01 X8.343 Y185.953
G01 X11.777 Y174.173
G01 X12.277 Y172.620
G01 X20.937 Y175.414
G01 X12.277 Y172.620
G01 X16.360 Y161.048
G01 X21.006 Y149.691
G01 X21.676 Y148.177
G01 X29.987 Y151.883
G01 X21.676 Y148.177
G01 X26.947 Y137.096
G01 X32.756 Y126.287
G01 X33.567 Y124.872
G01 X41.436 Y129.394
G01 X33.567 Y124.872
G01 X39.968 Y114.403
G01 X46.874 Y104.261
G01 X47.844 Y102.918
G01 X55.162 Y108.242
G01 X47.844 Y102.918
G01 X55.305 Y93.176
G01 X63.234 Y83.812
G01 X64.323 Y82.596
G01 X71.060 Y88.639
G01 X64.323 Y82.596
G01 X72.760 Y73.687
G01 X81.625 Y65.203
G01 X82.835 Y64.108
G01 X88.887 Y70.803
G01 X82.835 Y64.108
G01 X92.157 Y56.130
G01 X101.860 Y48.618
G01 X103.198 Y47.641
G01 X108.482 Y54.926
G01 X103.198 Y47.641
G01 X113.304 Y40.682
G01 X123.739 Y34.227
G01 X125.150 Y33.407
G01 X129.644 Y41.205
G01 X125.150 Y33.407
G01 X135.928 Y27.542
G01 X146.981 Y22.213
G01 X148.469 Y21.545
G01 X152.114 Y29.747
G01 X148.469 Y21.545
G01 X159.801 Y16.839
G01 X171.351 Y12.694
G01 X172.901 Y12.186
G01 X175.661 Y20.699
G01 X172.901 Y12.186
G01 X184.663 Y8.689
G01 X196.582 Y5.774
G01 X198.177 Y5.430
G01 X200.032 Y14.186
G01 X198.177 Y5.430
G01 X210.240 Y3.182
G01 X222.398 Y1.528
G01 X224.716 Y1.282
G01 X224.948 Y10.230
G01 X224.020 Y1.354
G01 X236.252 Y0.378
G01 X248.517 Y0.004
G01 X250.123 Y0.000
G01 X250.143 Y8.900
G01 X250.123 Y0.000
G01 X262.390 Y0.307
G01 X274.627 Y1.216
G01 X276.250 Y1.382
G01 X275.315 Y10.233
G01 X276.250 Y1.382
G01 X288.417 Y2.969
G01 X300.492 Y5.152
G01 X302.089 Y5.487
G01 X300.240 Y14.167
G01 X302.089 Y5.487
G01 X314.024 Y8.337
G01 X325.804 Y11.770
G01 X327.334 Y12.262
G01 X324.611 Y20.709
G01 X327.334 Y12.262
G01 X338.906 Y16.343
G01 X350.264 Y20.986
G01 X351.756 Y21.646
G01 X348.143 Y29.752
G01 X351.756 Y21.646
G01 X362.838 Y26.914
G01 X373.648 Y32.719
G01 X375.042 Y33.518
G01 X370.636 Y41.193
G01 X375.042 Y33.518
G01 X385.514 Y39.914
G01 X395.659 Y46.817
G01 X396.982 Y47.771
G01 X391.778 Y54.930
G01 X396.982 Y47.771
G01 X406.727 Y55.227
G01 X416.096 Y63.152
G01 X417.311 Y64.240
G01 X411.389 Y70.816
G01 X417.311 Y64.240
G01 X426.225 Y72.673
G01 X434.713 Y81.533
G01 X436.276 Y83.263
G01 X429.215 Y88.645
G01 X435.792 Y82.724
G01 X443.776 Y92.042
G01 X451.293 Y101.740
G01 X452.256 Y103.057
G01 X445.082 Y108.239
G01 X452.256 Y103.057
G01 X459.223 Y113.158
G01 X465.685 Y123.589
G01 X466.493 Y124.977
G01 X458.829 Y129.403
G01 X466.493 Y124.977
G01 X472.367 Y135.751
G01 X477.705 Y146.799
G01 X478.374 Y148.287
G01 X470.279 Y151.866
G01 X478.374 Y148.287
G01 X483.089 Y159.616
G01 X487.244 Y171.162
G01 X487.745 Y172.688
G01 X479.329 Y175.424
G01 X487.745 Y172.688
G01 X491.252 Y184.446
G01 X494.178 Y196.363
G01 X494.523 Y197.957
G01 X485.838 Y199.781
G01 X494.523 Y197.957
G01 X496.782 Y210.018
G01 X498.447 Y222.176
G01 X498.620 Y223.772
G01 X489.794 Y224.704
G01 X498.620 Y223.772
G01 X499.608 Y236.003
G01 X499.994 Y248.268
G01 X500.000 Y249.899
G01 X491.125 Y249.903
G01 X500.000 Y249.899
G01 X499.704 Y262.166
G01 X498.806 Y274.404
G01 X498.568 Y276.723
G01 X489.792 Y275.076
G01 X498.642 Y276.027
G01 X497.065 Y288.196
G01 X494.893 Y300.273
G01 X494.565 Y301.845
G01 X485.859 Y299.999
G01 X494.565 Y301.845
G01 X491.727 Y313.783
G01 X488.306 Y325.567
G01 X487.583 Y327.810
G01 X479.318 Y324.367
G01 X487.808 Y327.120
G01 X483.737 Y338.696
G01 X479.103 Y350.058
G01 X478.446 Y351.551
G01 X470.290 Y347.926
G01 X478.446 Y351.551
G01 X473.188 Y362.638
G01 X467.392 Y373.454
G01 X466.206 Y375.519
G01 X458.840 Y370.378
G01 X466.582 Y374.870
G01 X460.194 Y385.346
G01 X453.299 Y395.497
G01 X451.934 Y397.386
G01 X445.096 Y391.530
G01 X452.346 Y396.820
G01 X444.898 Y406.572
G01 X436.980 Y415.947
G01 X435.894 Y417.163
G01 X429.218 Y411.128
G01 X435.894 Y417.163
G01 X427.467 Y426.083
G01 X418.614 Y434.579
G01 X416.866 Y436.160
G01 X411.379 Y428.991
G01 X417.406 Y435.675
G01 X408.093 Y443.666
G01 X398.400 Y451.190
G01 X397.084 Y452.154
G01 X391.774 Y444.856
G01 X397.084 Y452.154
G01 X386.988 Y459.128
G01 X376.561 Y465.597
G01 X375.152 Y466.419
G01 X370.621 Y458.584
G01 X375.152 Y466.419
G01 X364.382 Y472.299
G01 X353.336 Y477.644
G01 X351.826 Y478.323
G01 X348.162 Y470.048
G01 X351.826 Y478.323
G01 X340.500 Y483.045
G01 X328.956 Y487.204
G01 X327.407 Y487.715
G01 X324.597 Y479.086
G01 X327.407 Y487.715
G01 X315.649 Y491.226
G01 X303.734 Y494.157
G01 X301.381 Y494.663
G01 X300.242 Y485.603
G01 X302.115 Y494.508
G01 X290.055 Y496.770
G01 X277.898 Y498.439
G01 X275.555 Y498.690
G01 X275.320 Y489.566
G01 X276.276 Y498.615
G01 X264.046 Y499.605
G01 X251.781 Y499.994
G01 X250.125 Y500.000
G01 X250.145 Y490.875
G01 X250.125 Y500.000
G01 X237.858 Y499.705
G01 X236.556 Y499.638
G01 X224.324 Y498.678
G01 X212.152 Y497.119
G01 X211.454 Y497.011
G01 X212.861 Y487.995
G01 X211.454 Y497.011
G01 X199.381 Y494.822
G01 X187.429 Y492.043
G01 X185.827 Y491.623
G01 X188.175 Y482.780
G01 X185.827 Y491.623
G01 X174.048 Y488.183
G01 X162.452 Y484.170
G01 X160.903 Y483.584
G01 X164.164 Y475.035
G01 X160.903 Y483.584
G01 X149.549 Y478.931
G01 X138.437 Y473.727
G01 X136.957 Y472.983
G01 X141.105 Y464.799
G01 X136.957 Y472.983
G01 X126.152 Y467.167
G01 X115.645 Y460.829
G01 X114.251 Y459.934
G01 X119.253 Y452.242
G01 X114.251 Y459.934
G01 X104.114 Y453.020
G01 X94.328 Y445.617
G01 X93.055 Y444.597
G01 X98.814 Y437.456
G01 X93.055 Y444.597
G01 X83.695 Y436.662
G01 X74.736 Y428.277
G01 X73.559 Y427.112
G01 X80.035 Y420.612
G01 X73.559 Y427.112
G01 X65.081 Y418.241
G01 X57.049 Y408.965
G01 X56.000 Y407.683
G01 X63.120 Y401.896
G01 X56.000 Y407.683
G01 X48.496 Y397.974
G01 X41.478 Y387.908
G01 X40.569 Y386.524
G01 X48.255 Y381.513
G01 X40.569 Y386.524
G01 X34.123 Y376.083
G01 X28.196 Y365.339
G01 X27.437 Y363.867
G01 X35.605 Y359.688
G01 X27.437 Y363.867
G01 X22.118 Y352.809
G01 X17.348 Y341.503
G01 X16.746 Y339.960
G01 X25.307 Y336.658
G01 X16.746 Y339.960
G01 X12.613 Y328.406
G01 X9.052 Y316.664
G01 X8.616 Y315.066
G01 X17.474 Y312.678
G01 X8.616 Y315.066
G01 X5.714 Y303.144
G01 X3.400 Y291.093
G01 X3.134 Y289.458
G01 X12.194 Y288.010
G01 X3.134 Y289.458
G01 X1.495 Y277.298
G01 X0.455 Y265.071
G01 X0.362 Y263.443
G01 X9.497 Y262.927
G01 X0.362 Y263.443
G01 X0.003 Y251.177
G01 X0.246 Y238.909
G01 X0.325 Y237.255
G01 X9.463 Y237.721
G01 X0.325 Y237.255
G01 X1.251 Y225.019
G01 X2.777 Y212.844
G01 X3.028 Y211.206
G01 X12.043 Y212.622
G01 X3.028 Y211.206
G01 X5.229 Y199.135
G01 X8.020 Y187.186
G01 X8.441 Y185.584
G01 X17.258 Y187.935
G01 X8.441 Y185.584
G01 X11.893 Y173.809
G01 X15.918 Y162.217
G01 X16.496 Y160.692
G01 X25.004 Y163.920
G01 X16.496 Y160.692
G01 X21.160 Y149.342
G01 X26.374 Y138.234
G01 X27.120 Y136.755
G01 X35.233 Y140.877
G01 X27.120 Y136.755
G01 X32.945 Y125.956
G01 X39.293 Y115.455
G01 X40.175 Y114.082
G01 X47.805 Y118.996
G01 X40.175 Y114.082
G01 X47.097 Y103.951
G01 X54.508 Y94.171
G01 X55.545 Y92.879
G01 X62.584 Y98.567
G01 X55.545 Y92.879
G01 X63.488 Y83.527
G01 X71.881 Y74.575
G01 X73.030 Y73.417
G01 X79.436 Y79.809
G01 X73.030 Y73.417
G01 X81.908 Y64.946
G01 X91.190 Y56.921
G01 X92.454 Y55.889
G01 X98.160 Y62.881
G01 X92.454 Y55.889
G01 X102.168 Y48.392
G01 X112.238 Y41.381
G01 X113.603 Y40.487
G01 X118.533 Y48.016
G01 X113.603 Y40.487
G01 X124.047 Y34.047
G01 X134.795 Y28.126
G01 X136.268 Y27.368
G01 X140.362 Y35.383
G01 X136.268 Y27.368
G01 X147.329 Y22.056
G01 X158.637 Y17.292
G01 X160.158 Y16.701
G01 X163.383 Y25.077
G01 X160.158 Y16.701
G01 X171.713 Y12.574
G01 X183.457 Y9.018
G01 X185.031 Y8.589
G01 X187.357 Y17.232
G01 X185.031 Y8.589
G01 X196.955 Y5.692
G01 X209.006 Y3.384
G01 X210.617 Y3.122
G01 X212.027 Y11.960
G01 X210.617 Y3.122
G01 X222.778 Y1.487
G01 X235.005 Y0.450
G01 X237.332 Y0.321
G01 X237.110 Y9.270
G01 X236.608 Y0.359
G01 X248.874 Y0.003
G01 X261.142 Y0.248
G01 X262.771 Y0.326
G01 X262.317 Y9.215
G01 X262.771 Y0.326
G01 X275.007 Y1.254
G01 X287.182 Y2.780
G01 X288.794 Y3.028
G01 X287.413 Y11.821
G01 X288.794 Y3.028
G01 X300.866 Y5.229
G01 X312.815 Y8.020
G01 X314.393 Y8.435
G01 X312.107 Y17.011
G01 X314.393 Y8.435
G01 X326.168 Y11.886
G01 X337.760 Y15.910
G01 X339.262 Y16.479
G01 X336.094 Y24.769
G01 X339.262 Y16.479
G01 X350.613 Y21.140
G01 X361.722 Y26.352
G01 X363.179 Y27.086
G01 X359.161 Y35.000
G01 X363.179 Y27.086
G01 X373.980 Y32.908
G01 X384.483 Y39.253
G01 X385.834 Y40.121
G01 X381.026 Y47.551
G01 X385.834 Y40.121
G01 X395.969 Y47.039
G01 X405.752 Y54.446
G01 X407.025 Y55.467
G01 X401.466 Y62.353
G01 X407.025 Y55.467
G01 X416.381 Y63.406
G01 X425.336 Y71.794
G01 X426.478 Y72.925
G01 X420.230 Y79.193
G01 X426.478 Y72.925
G01 X434.954 Y81.797
G01 X442.984 Y91.075
G01 X444.473 Y92.901
G01 X437.149 Y97.919
G01 X444.017 Y92.338
G01 X451.519 Y102.048
G01 X458.536 Y112.114
G01 X459.418 Y113.457
G01 X452.005 Y118.290
G01 X459.418 Y113.457
G01 X465.866 Y123.897
G01 X471.793 Y134.641
G01 X472.541 Y136.090
G01 X464.663 Y140.123
G01 X472.541 Y136.090
G01 X477.862 Y147.147
G01 X482.635 Y158.452
G01 X483.218 Y159.948
G01 X474.962 Y163.136
G01 X483.218 Y159.948
G01 X487.356 Y171.500
G01 X490.922 Y183.241
G01 X491.352 Y184.815
G01 X482.808 Y187.122
G01 X491.352 Y184.815
G01 X494.260 Y196.736
G01 X496.579 Y208.785
G01 X496.839 Y210.371
G01 X488.076 Y211.777
G01 X496.839 Y210.371
G01 X498.486 Y222.530
G01 X499.535 Y234.756
G01 X499.629 Y236.384
G01 X490.767 Y236.868
G01 X499.629 Y236.384
G01 X499.996 Y248.650
G01 X499.761 Y260.918
G01 X499.685 Y262.547
G01 X490.822 Y262.078
G01 X499.685 Y262.547
G01 X498.768 Y274.784
G01 X497.253 Y286.960
G01 X496.897 Y289.265
G01 X488.217 Y287.176
G01 X497.010 Y288.548
G01 X494.821 Y300.622
G01 X492.042 Y312.574
G01 X491.629 Y314.152
G01 X483.027 Y311.868
G01 X491.629 Y314.152
G01 X488.190 Y325.931
G01 X484.177 Y337.527
G01 X483.342 Y339.730
G01 X475.262 Y335.874
G01 X483.601 Y339.053
G01 X478.950 Y350.408
G01 X473.748 Y361.521
G01 X473.015 Y362.979
G01 X465.064 Y358.924
G01 X473.015 Y362.979
G01 X467.203 Y373.786
G01 X460.867 Y384.294
G01 X459.579 Y386.297
G01 X452.482 Y380.790
G01 X459.987 Y385.667
G01 X453.077 Y395.807
G01 X445.678 Y405.596
G01 X444.218 Y407.414
G01 X437.685 Y401.219
G01 X444.658 Y406.870
G01 X436.727 Y416.232
G01 X428.345 Y425.194
G01 X427.198 Y426.354
G01 X420.836 Y419.988
G01 X427.198 Y426.354
G01 X418.331 Y434.836
G01 X409.059 Y442.873
G01 X407.234 Y444.364
G01 X402.135 Y436.911
G01 X407.797 Y443.907
G01 X398.093 Y451.416
G01 X388.031 Y458.440
G01 X386.668 Y459.337
G01 X381.734 Y451.780
G01 X386.668 Y459.337
G01 X376.232 Y465.790
G01 X365.491 Y471.724
G01 X364.042 Y472.473
G01 X359.914 Y464.420
G01 X364.042 Y472.473
G01 X352.989 Y477.801
G01 X341.687 Y482.580
G01 X340.144 Y483.182
G01 X336.903 Y474.733
G01 X340.144 Y483.182
G01 X328.594 Y487.325
G01 X316.854 Y490.895
G01 X315.281 Y491.326
G01 X312.911 Y482.566
G01 X315.281 Y491.326
G01 X303.361 Y494.239
G01 X291.312 Y496.563
G01 X288.937 Y496.949
G01 X288.257 Y487.843
G01 X289.703 Y496.827
G01 X277.543 Y498.478
G01 X265.318 Y499.530
G01 X262.941 Y499.665
G01 X263.167 Y490.540
G01 X263.665 Y499.626
G01 X251.399 Y499.996
G01 X239.131 Y499.764
G01 X237.477 Y499.686
G01 X237.958 Y490.574
G01 X237.477 Y499.686
G01 X234.431 Y499.515
G01 X231.239 Y499.295
G01 X231.164 Y499.289
G01 X230.942 Y484.728
G01 X231.018 Y471.689
G01 X231.510 Y416.476
G01 X229.967 Y410.706
G01 X227.888 Y409.197
G01 X220.090 Y407.987
G01 X212.358 Y406.396
G01 X204.710 Y404.427
G01 X202.603 Y403.813
G01 X195.113 Y401.302
G01 X187.755 Y398.427
G01 X180.547 Y395.194
G01 X174.919 Y392.365
G01 X168.028 Y388.503
G01 X161.335 Y384.307
G01 X154.856 Y379.789
G01 X152.852 Y378.293
G01 X146.674 Y373.372
G01 X140.745 Y368.153
G01 X136.218 Y363.801
G01 X130.771 Y358.081
G01 X125.612 Y352.100
G01 X121.133 Y346.385
G01 X116.559 Y339.946
G01 X112.306 Y333.290
G01 X108.385 Y326.433
G01 X107.415 Y324.609
G01 X103.926 Y317.523
G01 X100.789 Y310.274
G01 X98.432 Y304.073
G01 X95.950 Y296.574
G01 X93.839 Y288.962
G01 X93.571 Y287.880
G01 X91.901 Y280.159
G01 X90.611 Y272.365
G01 X90.516 Y271.675
G01 X89.741 Y264.896
G01 X90.731 Y259.469
G01 X93.646 Y257.837
G01 X98.150 Y257.292
G01 X101.132 Y257.850
G01 X104.254 Y260.524
G01 X105.825 Y262.601
G01 X106.617 Y269.661
G01 X106.707 Y270.307
G01 X107.876 Y277.314
G01 X108.597 Y280.832
G01 X110.290 Y287.730
G01 X112.320 Y294.537
G01 X113.362 Y297.625
G01 X115.863 Y304.272
G01 X118.688 Y310.789
G01 X119.360 Y312.220
G01 X122.570 Y318.555
G01 X123.368 Y320.017
G01 X126.956 Y326.146
G01 X130.214 Y331.175
G01 X134.341 Y336.955
G01 X135.500 Y338.476
G01 X139.980 Y343.987
G01 X143.611 Y348.079
G01 X148.552 Y353.181
G01 X151.482 Y355.982
G01 X156.801 Y360.689
G01 X161.315 Y364.337
G01 X167.032 Y368.551
G01 X168.247 Y369.392
G01 X174.203 Y373.260
G01 X177.297 Y375.110
G01 X183.524 Y378.526
G01 X185.163 Y379.361
G01 X191.582 Y382.400
G01 X195.820 Y384.201
G01 X202.470 Y386.698
G01 X207.602 Y388.375
G01 X214.443 Y390.289
G01 X216.905 Y390.890
G01 X223.858 Y392.344
G01 X224.002 Y392.371
G01 X228.744 Y391.588
G01 X230.853 Y388.154
G01 X230.844 Y380.350
G01 X230.847 Y366.739
G01 X230.850 Y355.171
G01 X230.846 Y338.296
G01 X230.841 Y324.656
G01 X230.842 Y318.237
G01 X230.821 Y312.708
G01 X228.356 Y310.056
G01 X228.002 Y309.648
G01 X225.109 Y308.481
G01 X223.785 Y307.891
G01 X220.976 Y306.535
G01 X218.237 Y305.043
G01 X216.945 Y304.277
G01 X214.322 Y302.590
G01 X211.784 Y300.776
G01 X209.552 Y299.016
G01 X207.196 Y296.972
G01 X204.943 Y294.816
G01 X202.928 Y292.695
G01 X200.890 Y290.334
G01 X198.970 Y287.876
G01 X198.841 Y287.701
G01 X197.053 Y285.145
G01 X195.392 Y282.505
G01 X194.674 Y281.266
G01 X193.206 Y278.514
G01 X191.875 Y275.693
G01 X191.326 Y274.412
G01 X190.199 Y271.504
G01 X189.216 Y268.544
G01 X188.877 Y267.396
G01 X188.090 Y264.378
G01 X187.452 Y261.324
G01 X186.964 Y258.242
G01 X186.851 Y257.344
G01 X186.566 Y254.237
G01 X186.435 Y251.119
G01 X186.456 Y247.999
G01 X186.551 Y245.996
G01 X186.817 Y242.887
G01 X187.235 Y239.794
G01 X187.804 Y236.725
G01 X188.066 Y235.537
G01 X188.843 Y232.513
G01 X189.767 Y229.531
G01 X190.837 Y226.597
G01 X190.983 Y226.228
G01 X192.213 Y223.357
G01 X193.583 Y220.550
G01 X195.089 Y217.813
G01 X195.212 Y217.602
G01 X196.860 Y214.948
G01 X198.636 Y212.377
G01 X199.937 Y210.653
G01 X201.920 Y208.237
G01 X204.020 Y205.921
G01 X205.075 Y204.839
G01 X207.341 Y202.685
G01 X209.710 Y200.643
G01 X212.176 Y198.721
G01 X214.272 Y197.233
G01 X216.898 Y195.533
G01 X219.605 Y193.963
G01 X219.752 Y193.883
G01 X222.542 Y192.467
G01 X225.398 Y191.189
G01 X226.130 Y190.887
G01 X229.055 Y189.775
G01 X231.716 Y188.902
G01 X234.494 Y187.099
G01 X236.039 Y186.184
G01 X238.621 Y183.542
G01 X240.532 Y179.861
G01 X240.884 Y176.488
G01 X240.118 Y174.166
G01 X238.876 Y172.343
G01 X237.168 Y171.619
G01 X234.080 Y171.575
G01 X230.585 Y172.340
G01 X226.791 Y173.363
G01 X223.050 Y174.571
G01 X222.935 Y174.611
G01 X219.344 Y176.214
G01 X217.550 Y177.096
G01 X213.962 Y178.677
G01 X211.912 Y179.677
G01 X208.512 Y181.638
G01 X205.213 Y183.763
G01 X202.429 Y185.743
G01 X199.342 Y188.164
G01 X196.601 Y190.531
G01 X193.747 Y193.223
G01 X191.029 Y196.052
G01 X190.230 Y196.938
G01 X187.707 Y199.942
G01 X185.336 Y203.065
G01 X184.916 Y203.652
G01 X182.730 Y206.908
G01 X180.706 Y210.266
G01 X180.240 Y211.096
G01 X178.415 Y214.566
G01 X176.835 Y217.955
G01 X175.362 Y221.588
G01 X174.070 Y225.288
G01 X174.055 Y225.336
G01 X172.948 Y229.095
G01 X172.041 Y232.843
G01 X171.293 Y236.689
G01 X170.734 Y240.567
G01 X170.722 Y240.672
G01 X170.370 Y244.574
G01 X170.211 Y248.488
G01 X170.200 Y249.895
G01 X170.291 Y253.811
G01 X170.467 Y256.527
G01 X170.883 Y260.421
G01 X171.210 Y262.657
G01 X171.940 Y266.505
G01 X172.566 Y269.186
G01 X173.601 Y272.962
G01 X174.820 Y276.683
G01 X176.145 Y280.158
G01 X177.714 Y283.746
G01 X179.457 Y287.252
G01 X180.287 Y288.783
G01 X182.274 Y292.157
G01 X184.248 Y295.175
G01 X186.544 Y298.347
G01 X188.907 Y301.300
G01 X191.498 Y304.236
G01 X194.229 Y307.041
G01 X195.110 Y307.889
G01 X198.016 Y310.512
G01 X200.304 Y312.405
G01 X203.426 Y314.768
G01 X206.655 Y316.972
G01 X209.993 Y319.018
G01 X211.529 Y319.886
G01 X214.318 Y323.096
G01 X214.945 Y323.769
G01 X215.338 Y328.541
G01 X214.253 Y331.396
G01 X210.177 Y334.236
G01 X205.695 Y333.867
G01 X201.024 Y332.619
G01 X201.004 Y332.613
G01 X196.840 Y330.365
G01 X195.587 Y329.635
G01 X191.973 Y326.568
G01 X191.307 Y325.968
G01 X187.650 Y322.996
G01 X186.180 Y321.715
G01 X182.738 Y318.497
G01 X180.786 Y316.524
G01 X177.605 Y313.048
G01 X175.364 Y310.378
G01 X172.491 Y306.643
G01 X171.495 Y305.253
G01 X168.878 Y301.335
G01 X167.141 Y298.480
G01 X164.862 Y294.356
G01 X162.948 Y290.471
G01 X161.067 Y286.151
G01 X159.400 Y281.744
G01 X159.283 Y281.406
G01 X157.837 Y276.921
G01 X156.875 Y273.420
G01 X155.838 Y268.823
G01 X155.676 Y267.992
G01 X155.138 Y264.899
G01 X153.149 Y261.234
G01 X150.664 Y258.512
G01 X146.079 Y257.264
G01 X142.256 Y258.126
G01 X139.884 Y260.857
G01 X139.140 Y264.074
G01 X139.549 Y269.571
G01 X139.655 Y270.591
G01 X140.798 Y275.980
G01 X141.589 Y279.105
G01 X143.148 Y284.389
G01 X143.734 Y286.159
G01 X145.636 Y291.330
G01 X146.029 Y292.311
G01 X148.242 Y297.356
G01 X150.699 Y302.286
G01 X150.732 Y302.348
G01 X153.420 Y307.156
G01 X153.645 Y307.533
G01 X156.584 Y312.192
G01 X158.388 Y314.821
G01 X161.679 Y319.238
G01 X164.570 Y322.775
G01 X168.244 Y326.879
G01 X169.041 Y327.718
G01 X172.952 Y331.597
G01 X174.950 Y333.439
G01 X179.135 Y337.021
G01 X180.441 Y338.068
G01 X184.837 Y341.386
G01 X188.314 Y343.781
G01 X192.990 Y346.695
G01 X195.760 Y348.276
G01 X200.647 Y350.819
G01 X202.991 Y351.932
G01 X208.049 Y354.116
G01 X209.805 Y354.807
G01 X213.744 Y358.239
G01 X214.923 Y360.333
G01 X215.337 Y362.768
G01 X215.072 Y365.353
G01 X214.384 Y367.966
G01 X211.858 Y370.141
G01 X206.686 Y370.635
G01 X200.607 Y368.874
G01 X199.806 Y368.617
G01 X194.168 Y365.758
G01 X191.345 Y364.191
G01 X185.664 Y361.433
G01 X181.848 Y359.380
G01 X176.704 Y355.700
G01 X173.656 Y353.331
G01 X168.677 Y349.461
G01 X165.904 Y347.127
G01 X161.240 Y342.884
G01 X160.858 Y342.518
G01 X156.628 Y338.246
G01 X152.410 Y333.559
G01 X150.888 Y331.748
G01 X146.996 Y326.786
G01 X143.819 Y322.328
G01 X140.398 Y317.031
G01 X137.241 Y311.572
G01 X136.424 Y310.053
G01 X133.614 Y304.408
G01 X131.211 Y298.938
G01 X128.952 Y293.050
G01 X127.213 Y287.805
G01 X125.506 Y281.735
G01 X124.099 Y275.588
G01 X123.577 Y272.872
G01 X122.596 Y266.643
G01 X121.922 Y260.372
G01 X121.786 Y258.562
G01 X121.520 Y252.261
G01 X121.564 Y245.954
G01 X121.699 Y242.857
G01 X122.188 Y236.568
G01 X122.626 Y232.840
G01 X123.621 Y226.610
G01 X124.921 Y220.437
G01 X126.522 Y214.336
G01 X126.610 Y214.035
G01 X128.513 Y208.020
G01 X130.709 Y202.105
G01 X131.419 Y200.365
G01 X133.984 Y194.600
G01 X136.063 Y190.419
G01 X139.116 Y184.896
G01 X142.437 Y179.529
G01 X145.983 Y174.380
G01 X149.819 Y169.367
G01 X153.896 Y164.548
G01 X154.267 Y164.133
G01 X158.590 Y159.534
G01 X163.134 Y155.153
G01 X167.888 Y150.999
G01 X169.796 Y149.443
G01 X174.821 Y145.622
G01 X180.028 Y142.051
G01 X183.958 Y139.595
G01 X189.450 Y136.479
G01 X195.089 Y133.635
G01 X198.110 Y132.251
G01 X203.947 Y129.839
G01 X209.896 Y127.716
G01 X215.575 Y125.989
G01 X221.698 Y124.436
G01 X226.337 Y123.469
G01 X232.574 Y122.460
G01 X234.235 Y122.244
G01 X238.027 Y123.515
G01 X239.070 Y127.210
G01 X239.147 Y131.948
G01 X237.012 Y134.604
G01 X231.764 Y137.830
G01 X231.420 Y138.056
G01 X226.633 Y139.979
G01 X221.263 Y141.258
G01 X217.237 Y142.403
G01 X212.000 Y144.149
G01 X206.856 Y146.150
G01 X204.221 Y147.290
G01 X199.241 Y149.669
G01 X194.384 Y152.288
G01 X191.383 Y154.066
G01 X186.752 Y157.066
G01 X182.274 Y160.289
G01 X180.415 Y161.730
G01 X176.167 Y165.250
G01 X173.732 Y167.435
G01 X169.779 Y171.284
G01 X166.021 Y175.322
G01 X164.103 Y177.544
G01 X160.664 Y181.856
G01 X158.817 Y184.363
G01 X155.714 Y188.921
G01 X152.838 Y193.625
G01 X150.709 Y197.482
G01 X148.251 Y202.418
G01 X146.039 Y207.467
G01 X144.443 Y211.598
G01 X142.702 Y216.829
G01 X141.920 Y219.503
G01 X140.554 Y224.843
G01 X140.126 Y226.786
G01 X139.304 Y231.087
G01 X139.242 Y234.412
G01 X140.154 Y236.898
G01 X143.673 Y238.470
G01 X147.196 Y238.456
G01 X151.401 Y236.827
G01 X154.752 Y232.597
G01 X156.444 Y228.142
G01 X157.630 Y223.578
G01 X158.964 Y219.293
G01 X160.570 Y214.859
G01 X162.391 Y210.508
G01 X162.585 Y210.077
G01 X164.639 Y205.830
G01 X166.898 Y201.689
G01 X167.049 Y201.429
G01 X169.532 Y197.417
G01 X172.209 Y193.532
G01 X173.553 Y191.726
G01 X176.492 Y188.034
G01 X177.963 Y186.317
G01 X181.174 Y182.859
G01 X184.546 Y179.568
G01 X188.072 Y176.431
G01 X190.944 Y174.092
G01 X194.731 Y171.273
G01 X197.226 Y169.568
G01 X201.236 Y167.075
G01 X204.109 Y165.451
G01 X208.308 Y163.291
G01 X212.608 Y161.339
G01 X213.187 Y161.095
G01 X217.590 Y159.385
G01 X222.072 Y157.892
G01 X222.525 Y157.755
G01 X227.085 Y156.518
G01 X231.699 Y155.506
G01 X232.136 Y155.422
G01 X236.797 Y154.647
G01 X241.301 Y154.119
G01 X246.016 Y153.807
G01 X250.137 Y153.725
G01 X254.861 Y153.839
G01 X259.575 Y154.184
G01 X263.249 Y154.616
G01 X267.915 Y155.373
G01 X272.539 Y156.358
G01 X277.109 Y157.569
G01 X277.288 Y157.621
G01 X281.788 Y159.071
G01 X286.211 Y160.741
G01 X289.578 Y162.182
G01 X293.840 Y164.229
G01 X296.546 Y165.667
G01 X300.634 Y168.043
G01 X304.601 Y170.616
G01 X305.158 Y171.001
G01 X308.968 Y173.802
G01 X312.636 Y176.787
G01 X312.747 Y176.883
G01 X316.259 Y180.050
G01 X318.145 Y181.886
G01 X321.405 Y185.311
G01 X323.676 Y187.909
G01 X326.633 Y191.599
G01 X329.407 Y195.430
G01 X330.030 Y196.349
G01 X332.566 Y200.340
G01 X334.459 Y203.632
G01 X336.633 Y207.832
G01 X338.145 Y211.093
G01 X339.939 Y215.469
G01 X341.515 Y219.927
G01 X342.117 Y221.840
G01 X343.388 Y226.394
G01 X344.031 Y229.104
G01 X344.783 Y232.833
G01 X343.936 Y236.861
G01 X340.987 Y238.791
G01 X336.057 Y239.460
G01 X332.595 Y238.624
G01 X329.506 Y236.616
G01 X328.082 Y232.935
G01 X327.287 Y229.087
G01 X327.067 Y228.166
G01 X325.903 Y224.411
G01 X324.677 Y221.029
G01 X323.166 Y217.400
G01 X322.324 Y215.573
G01 X320.548 Y212.065
G01 X318.847 Y209.060
G01 X316.767 Y205.724
G01 X315.026 Y203.186
G01 X312.651 Y200.051
G01 X310.125 Y197.037
G01 X309.810 Y196.682
G01 X307.113 Y193.820
G01 X304.279 Y191.094
G01 X304.118 Y190.947
G01 X301.155 Y188.363
G01 X298.069 Y185.927
G01 X298.055 Y185.916
G01 X294.853 Y183.635
G01 X291.542 Y181.515
G01 X290.660 Y180.987
G01 X287.225 Y179.075
G01 X284.119 Y177.530
G01 X280.518 Y175.954
G01 X276.844 Y174.556
G01 X276.146 Y174.314
G01 X272.401 Y173.122
G01 X268.602 Y172.116
G01 X268.046 Y171.985
G01 X264.096 Y171.750
G01 X262.636 Y171.713
G01 X259.575 Y173.069
G01 X256.997 Y177.964
G01 X257.497 Y181.383
G01 X259.882 Y184.137
G01 X262.403 Y186.475
G01 X265.310 Y187.950
G01 X265.959 Y188.306
G01 X268.994 Y189.074
G01 X270.002 Y189.364
G01 X272.956 Y190.411
G01 X275.855 Y191.602
G01 X278.693 Y192.934
G01 X279.094 Y193.136
G01 X281.850 Y194.632
G01 X284.528 Y196.261
G01 X287.123 Y198.020
G01 X288.306 Y198.885
G01 X290.768 Y200.827
G01 X293.131 Y202.886
G01 X295.391 Y205.059
G01 X297.542 Y207.341
G01 X298.868 Y208.867
G01 X300.827 Y211.314
G01 X302.664 Y213.854
G01 X304.374 Y216.482
G01 X304.655 Y216.942
G01 X306.211 Y219.664
G01 X307.632 Y222.458
G01 X308.914 Y225.319
G01 X310.054 Y228.240
G01 X310.468 Y229.418
G01 X311.399 Y232.412
G01 X312.182 Y235.447
G01 X312.814 Y238.517
G01 X313.222 Y241.067
G01 X313.584 Y244.179
G01 X313.793 Y247.306
G01 X313.848 Y250.440
G01 X313.784 Y252.906
G01 X313.555 Y256.031
G01 X313.174 Y259.141
G01 X312.783 Y261.485
G01 X312.138 Y264.550
G01 X311.343 Y267.580
G01 X310.400 Y270.566
G01 X309.429 Y273.209
G01 X308.210 Y276.094
G01 X306.851 Y278.914
G01 X305.854 Y280.784
G01 X304.268 Y283.483
G01 X302.553 Y286.100
G01 X300.949 Y288.318
G01 X299.000 Y290.764
G01 X296.932 Y293.112
G01 X296.229 Y293.861
G01 X294.021 Y296.077
G01 X291.707 Y298.181
G01 X291.430 Y298.419
G01 X288.999 Y300.387
G01 X286.475 Y302.232
G01 X284.373 Y303.630
G01 X281.696 Y305.246
G01 X278.944 Y306.728
G01 X276.123 Y308.073
G01 X275.128 Y308.507
G01 X272.223 Y309.658
G01 X269.265 Y310.665
G01 X269.003 Y310.747
G01 X266.498 Y313.528
G01 X265.439 Y314.606
G01 X263.886 Y319.221
G01 X265.187 Y323.089
G01 X269.029 Y326.056
G01 X272.935 Y325.680
G01 X273.486 Y325.611
G01 X277.380 Y324.947
G01 X278.062 Y324.810
G01 X281.699 Y323.343
G01 X283.842 Y322.379
G01 X287.360 Y320.644
G01 X290.064 Y319.158
G01 X293.410 Y317.109
G01 X296.650 Y314.898
G01 X297.034 Y314.621
G01 X300.159 Y312.248
G01 X301.503 Y311.151
G01 X304.448 Y308.557
G01 X307.262 Y305.821
G01 X309.203 Y303.768
G01 X311.770 Y300.798
G01 X313.772 Y298.261
G01 X316.076 Y295.083
G01 X317.312 Y293.233
G01 X319.362 Y289.884
G01 X321.246 Y286.438
G01 X321.538 Y285.865
G01 X323.212 Y282.312
G01 X324.709 Y278.681
G01 X324.981 Y277.960
G01 X326.272 Y274.250
G01 X327.379 Y270.481
G01 X328.035 Y267.846
G01 X328.817 Y263.996
G01 X329.102 Y262.281
G01 X330.514 Y258.480
G01 X330.857 Y257.454
G01 X335.780 Y256.482
G01 X340.950 Y256.398
G01 X343.866 Y258.502
G01 X344.828 Y262.892
G01 X344.548 Y267.617
G01 X344.459 Y268.610
G01 X343.432 Y273.223
G01 X342.180 Y277.779
G01 X342.157 Y277.855
G01 X340.664 Y282.338
G01 X339.871 Y284.458
G01 X338.072 Y288.826
G01 X336.060 Y293.101
G01 X335.760 Y293.695
G01 X333.501 Y297.844
G01 X331.341 Y301.409
G01 X328.721 Y305.338
G01 X326.532 Y308.328
G01 X323.567 Y312.004
G01 X321.123 Y314.776
G01 X317.850 Y318.178
G01 X314.862 Y321.011
G01 X311.321 Y324.091
G01 X307.611 Y327.010
G01 X306.480 Y327.844
G01 X302.587 Y330.513
G01 X298.567 Y332.987
G01 X296.793 Y333.995
G01 X292.610 Y336.179
G01 X288.325 Y338.155
G01 X288.049 Y338.274
G01 X283.672 Y340.035
G01 X280.144 Y341.276
G01 X275.624 Y342.630
G01 X273.055 Y343.293
G01 X270.613 Y343.863
G01 X266.382 Y347.134
G01 X265.755 Y347.586
G01 X264.769 Y353.401
G01 X266.384 Y356.978
G01 X269.600 Y359.027
G01 X275.256 Y359.363
G01 X275.582 Y359.373
G01 X280.923 Y358.004
G01 X282.747 Y357.472
G01 X287.981 Y355.735
G01 X289.386 Y355.220
G01 X294.507 Y353.174
G01 X298.583 Y351.330
G01 X303.496 Y348.825
G01 X305.561 Y347.679
G01 X310.287 Y344.835
G01 X310.487 Y344.707
G01 X315.070 Y341.638
G01 X317.985 Y339.509
G01 X322.295 Y336.065
G01 X324.584 Y334.089
G01 X328.629 Y330.337
G01 X332.457 Y326.421
G01 X336.116 Y322.290
G01 X339.567 Y317.984
G01 X340.841 Y316.279
G01 X343.993 Y311.748
G01 X346.919 Y307.067
G01 X347.668 Y305.782
G01 X350.295 Y300.926
G01 X352.680 Y295.947
G01 X354.819 Y290.856
G01 X354.849 Y290.779
G01 X356.724 Y285.585
G01 X358.192 Y280.833
G01 X359.583 Y275.489
G01 X360.710 Y270.083
G01 X361.534 Y264.902
G01 X362.131 Y259.412
G01 X362.457 Y253.898
G01 X362.525 Y249.890
G01 X362.395 Y244.369
G01 X361.993 Y238.859
G01 X361.777 Y236.831
G01 X360.996 Y231.362
G01 X359.948 Y225.938
G01 X359.623 Y224.497
G01 X358.247 Y219.147
G01 X356.610 Y213.870
G01 X354.716 Y208.680
G01 X354.479 Y208.079
G01 X352.296 Y203.003
G01 X349.866 Y198.040
G01 X349.562 Y197.459
G01 X346.864 Y192.637
G01 X343.933 Y187.954
G01 X340.775 Y183.419
G01 X339.430 Y181.623
G01 X335.967 Y177.317
G01 X332.297 Y173.186
G01 X328.429 Y169.241
G01 X325.710 Y166.687
G01 X321.531 Y163.072
G01 X317.179 Y159.667
G01 X315.650 Y158.549
G01 X311.080 Y155.444
G01 X306.363 Y152.567
G01 X301.512 Y149.925
G01 X298.115 Y148.253
G01 X293.064 Y146.015
G01 X287.910 Y144.027
G01 X283.951 Y142.693
G01 X278.642 Y141.165
G01 X273.265 Y139.900
G01 X269.428 Y139.165
G01 X263.966 Y138.345
G01 X261.662 Y138.081
G01 X256.419 Y133.877
G01 X256.401 Y129.620
G01 X258.501 Y124.112
G01 X264.646 Y122.111
G01 X270.910 Y122.944
G01 X272.424 Y123.192
G01 X278.619 Y124.445
G01 X284.277 Y125.871
G01 X290.326 Y127.702
G01 X296.278 Y129.828
G01 X299.758 Y131.227
G01 X305.532 Y133.800
G01 X311.073 Y136.600
G01 X316.564 Y139.734
G01 X321.894 Y143.133
G01 X324.493 Y144.928
G01 X329.559 Y148.709
G01 X334.433 Y152.735
G01 X336.765 Y154.809
G01 X341.331 Y159.181
G01 X345.677 Y163.772
G01 X346.648 Y164.861
G01 X350.709 Y169.706
G01 X354.527 Y174.744
G01 X356.588 Y177.692
G01 X360.008 Y183.009
G01 X363.162 Y188.488
G01 X366.044 Y194.114
G01 X366.457 Y194.979
G01 X369.016 Y200.759
G01 X371.289 Y206.659
G01 X371.565 Y207.439
G01 X373.507 Y213.455
G01 X375.151 Y219.559
G01 X375.261 Y220.013
G01 X376.569 Y226.198
G01 X377.573 Y232.438
G01 X377.626 Y232.837
G01 X380.340 Y237.636
G01 X386.617 Y238.803
G01 X390.601 Y235.229
G01 X392.570 Y230.116
G01 X392.481 Y224.047
G01 X391.133 Y217.065
G01 X389.442 Y210.152
G01 X389.426 Y210.092
G01 X387.300 Y203.299
G01 X385.038 Y197.114
G01 X382.281 Y190.552
G01 X379.204 Y184.133
G01 X377.784 Y181.418
G01 X374.265 Y175.231
G01 X370.447 Y169.223
G01 X368.847 Y166.887
G01 X364.625 Y161.156
G01 X360.896 Y156.542
G01 X356.176 Y151.213
G01 X351.201 Y146.122
G01 X347.673 Y142.798
G01 X342.295 Y138.135
G01 X337.099 Y134.043
G01 X331.304 Y129.909
G01 X327.333 Y127.314
G01 X321.220 Y123.667
G01 X314.935 Y120.325
G01 X313.227 Y119.484
G01 X306.743 Y116.548
G01 X300.123 Y113.935
G01 X297.907 Y113.143
G01 X291.134 Y110.957
G01 X284.766 Y109.229
G01 X277.817 Y107.693
G01 X270.800 Y106.500
G01 X270.696 Y106.485
G01 X263.628 Y105.657
G01 X258.971 Y105.303
G01 X251.861 Y105.037
G01 X246.611 Y105.065
G01 X239.504 Y105.415
G01 X232.424 Y106.114
G01 X228.787 Y106.611
G01 X221.778 Y107.833
G01 X214.838 Y109.397
G01 X208.617 Y111.109
G01 X201.852 Y113.307
G01 X198.069 Y114.699
G01 X191.498 Y117.422
G01 X185.766 Y120.116
G01 X179.470 Y123.424
G01 X177.955 Y124.280
G01 X171.878 Y127.975
G01 X165.990 Y131.964
G01 X163.101 Y134.081
G01 X157.527 Y138.495
G01 X153.331 Y142.127
G01 X148.154 Y147.000
G01 X143.223 Y152.122
G01 X142.898 Y152.477
G01 X138.255 Y157.861
G01 X136.027 Y160.644
G01 X131.791 Y166.352
G01 X128.439 Y171.323
G01 X124.725 Y177.383
G01 X121.313 Y183.617
G01 X120.784 Y184.652
G01 X117.744 Y191.076
G01 X115.022 Y197.640
G01 X114.410 Y199.255
G01 X112.091 Y205.971
G01 X110.105 Y212.793
G01 X108.494 Y219.526
G01 X107.169 Y226.506
G01 X106.646 Y229.942
G01 X104.165 Y235.542
G01 X99.534 Y238.237
G01 X96.708 Y238.802
G01 X93.755 Y238.068
G01 X91.854 Y236.458
G01 X90.939 Y234.134
G01 X90.321 Y230.014
G01 X90.635 Y225.748
G01 X91.295 Y223.064
G01 X92.785 Y215.305
G01 X92.952 Y214.548
G01 X94.880 Y206.885
G01 X95.636 Y204.252
G01 X98.057 Y196.729
G01 X100.844 Y189.334
G01 X101.794 Y187.039
G01 X105.062 Y179.843
G01 X107.848 Y174.357
G01 X111.719 Y167.466
G01 X114.797 Y162.494
G01 X119.254 Y155.965
G01 X121.530 Y152.879
G01 X126.438 Y146.682
G01 X129.608 Y142.990
G01 X135.004 Y137.212
G01 X140.677 Y131.705
G01 X142.083 Y130.421
G01 X148.073 Y125.260
G01 X154.183 Y120.492
G01 X160.644 Y115.933
G01 X164.088 Y113.690
G01 X170.880 Y109.639
G01 X175.999 Y106.874
G01 X183.105 Y103.401
G01 X187.694 Y101.382
G01 X195.061 Y98.504
G01 X198.822 Y97.193
G01 X206.377 Y94.850
G01 X210.550 Y93.728
G01 X218.265 Y91.980
G01 X223.022 Y91.099
G01 X230.848 Y89.945
G01 X231.923 Y89.817
G01 X237.275 Y87.347
G01 X239.853 Y82.983
G01 X240.218 Y77.903
G01 X236.757 Y74.875
G01 X231.570 Y74.239
G01 X224.059 Y74.658
G01 X215.463 Y76.021
G01 X213.648 Y76.365
G01 X207.749 Y77.705
G01 X199.350 Y79.997
G01 X191.073 Y82.699
G01 X190.918 Y82.754
G01 X182.783 Y85.854
G01 X181.830 Y86.248
G01 X173.877 Y89.790
G01 X170.037 Y91.672
G01 X162.373 Y95.802
G01 X159.614 Y97.411
G01 X152.235 Y102.030
G01 X148.274 Y104.725
G01 X141.278 Y109.904
G01 X137.485 Y112.943
G01 X130.896 Y118.629
G01 X127.609 Y121.686
G01 X121.473 Y127.858
G01 X118.821 Y130.722
G01 X113.135 Y137.309
G01 X107.780 Y144.167
G01 X106.874 Y145.399
G01 X101.914 Y152.548
G01 X97.310 Y159.932
G01 X97.245 Y160.042
G01 X93.026 Y167.652
G01 X89.185 Y175.458
G01 X88.769 Y176.365
G01 X85.362 Y184.369
G01 X82.437 Y192.283
G01 X79.806 Y200.575
G01 X77.586 Y208.985
G01 X76.751 Y212.671
G01 X75.138 Y221.219
G01 X73.947 Y229.835
G01 X73.633 Y232.835
G01 X73.004 Y241.510
G01 X72.928 Y243.265
G01 X72.610 Y251.964
G01 X72.719 Y260.677
G01 X72.926 Y264.906
G01 X74.208 Y273.532
G01 X75.082 Y278.189
G01 X76.676 Y286.738
G01 X78.687 Y295.198
G01 X80.334 Y301.034
G01 X83.052 Y309.294
G01 X86.173 Y317.410
G01 X87.503 Y320.546
G01 X91.160 Y328.434
G01 X95.200 Y336.134
G01 X99.613 Y343.625
G01 X100.389 Y344.861
G01 X105.224 Y352.088
G01 X107.338 Y355.022
G01 X112.663 Y361.895
G01 X118.318 Y368.499
G01 X124.292 Y374.818
G01 X124.746 Y375.274
G01 X131.044 Y381.269
G01 X137.629 Y386.948
G01 X144.484 Y392.297
G01 X146.089 Y393.474
G01 X153.250 Y398.406
G01 X160.645 Y402.981
G01 X168.256 Y407.188
G01 X170.929 Y408.552
G01 X178.804 Y412.241
G01 X186.850 Y415.539
G01 X193.474 Y417.916
G01 X201.778 Y420.500
G01 X209.479 Y422.505
G01 X212.953 Y424.741
G01 X215.049 Y428.256
G01 X214.760 Y431.944
G01 X212.750 Y434.885
G01 X209.512 Y436.736
G01 X205.788 Y438.048
G01 X199.500 Y437.183
G01 X190.464 Y434.208
G01 X184.554 Y431.990
G01 X175.703 Y428.559
G01 X173.474 Y427.616
G01 X164.851 Y423.647
G01 X159.132 Y420.724
G01 X150.865 Y416.059
G01 X150.033 Y415.560
G01 X142.030 Y410.456
G01 X140.971 Y409.738
G01 X133.265 Y404.196
G01 X131.956 Y403.197
G01 X124.978 Y397.557
G01 X117.888 Y391.244
G01 X117.759 Y391.124
G01 X111.010 Y384.450
G01 X110.153 Y383.554
G01 X103.768 Y376.531
G01 X102.271 Y374.780
G01 X96.326 Y367.381
G01 X93.552 Y363.657
G01 X88.148 Y355.854
G01 X86.273 Y352.941
G01 X81.419 Y344.784
G01 X80.441 Y343.023
G01 X76.081 Y334.591
G01 X75.718 Y333.840
G01 X71.814 Y325.188
G01 X70.316 Y321.535
G01 X67.023 Y312.632
G01 X66.754 Y311.843
G01 X63.940 Y302.777
G01 X62.848 Y298.762
G01 X60.681 Y289.520
G01 X59.652 Y284.221
G01 X58.185 Y274.842
G01 X57.695 Y270.788
G01 X57.313 Y266.880
G01 X54.221 Y260.304
G01 X51.391 Y257.487
G01 X47.491 Y256.864
G01 X43.059 Y260.352
G01 X41.676 Y265.168
G01 X41.530 Y271.734
G01 X42.786 Y281.947
G01 X43.090 Y283.939
G01 X44.982 Y294.056
G01 X45.132 Y294.756
G01 X47.620 Y304.742
G01 X47.800 Y305.391
G01 X50.459 Y313.826
G01 X53.576 Y323.636
G01 X53.597 Y323.698
G01 X57.733 Y333.124
G01 X59.411 Y336.621
G01 X63.441 Y346.100
G01 X66.690 Y352.917
G01 X72.348 Y361.545
G01 X74.196 Y364.174
G01 X80.010 Y372.663
G01 X81.098 Y374.156
G01 X87.393 Y382.294
G01 X93.441 Y389.399
G01 X100.470 Y396.913
G01 X106.451 Y402.762
G01 X114.120 Y409.622
G01 X122.070 Y416.062
G01 X130.372 Y422.139
G01 X135.328 Y425.480
G01 X144.077 Y430.895
G01 X145.675 Y431.821
G01 X154.722 Y436.721
G01 X159.479 Y439.073
G01 X167.536 Y442.723
G01 X177.086 Y446.553
G01 X182.022 Y448.323
G01 X191.835 Y451.420
G01 X197.743 Y453.033
G01 X207.340 Y455.264
G01 X212.228 Y457.439
G01 X214.369 Y458.680
G01 X215.525 Y460.926
G01 X216.288 Y465.023
G01 X215.394 Y467.742
G01 X213.606 Y469.630
G01 X208.979 Y470.644
G01 X204.513 Y470.635
G01 X198.453 Y469.940
G01 X189.009 Y467.485
G01 X178.411 Y464.230
G01 X170.448 Y461.402
G01 X160.171 Y457.244
G01 X156.083 Y455.424
G01 X146.125 Y450.552
G01 X142.612 Y448.686
G01 X132.992 Y443.177
G01 X127.893 Y439.995
G01 X118.718 Y433.775
G01 X116.301 Y432.024
G01 X107.651 Y425.343
G01 X99.219 Y418.147
G01 X98.445 Y417.449
G01 X92.857 Y412.216
G01 X85.811 Y405.082
G01 X78.427 Y396.871
G01 X71.427 Y388.275
G01 X69.902 Y386.282
G01 X64.945 Y379.471
G01 X60.614 Y373.049
G01 X55.179 Y364.249
G01 X49.807 Y354.552
G01 X47.967 Y350.949
G01 X43.257 Y340.915
G01 X42.100 Y338.237
G01 X38.021 Y327.930
G01 X37.648 Y326.909
G01 X34.130 Y316.397
G01 X34.116 Y316.351
G01 X31.103 Y305.682
G01 X30.119 Y301.688
G01 X27.847 Y290.837
G01 X26.369 Y281.761
G01 X25.080 Y270.750
G01 X24.853 Y268.114
G01 X24.235 Y257.045
G01 X24.203 Y255.936
G01 X24.165 Y244.849
G01 X24.278 Y241.030
G01 X24.990 Y229.965
G01 X26.042 Y220.443
G01 X27.752 Y209.487
G01 X29.998 Y198.629
G01 X31.405 Y192.920
G01 X34.469 Y182.263
G01 X36.576 Y175.890
G01 X40.459 Y165.503
G01 X44.848 Y155.318
G01 X46.096 Y152.653
G01 X51.118 Y142.765
G01 X54.426 Y136.845
G01 X60.202 Y127.378
G01 X65.341 Y119.748
G01 X71.945 Y110.836
G01 X78.978 Y102.259
G01 X79.337 Y101.844
G01 X86.812 Y93.649
G01 X94.680 Y85.830
G01 X98.451 Y82.343
G01 X106.853 Y75.100
G01 X115.601 Y68.278
G01 X118.381 Y66.251
G01 X127.550 Y60.005
G01 X137.015 Y54.216
G01 X140.323 Y52.340
G01 X150.154 Y47.196
G01 X153.803 Y45.440
G01 X163.947 Y40.945
G01 X164.577 Y40.685
G01 X172.187 Y37.738
G01 X182.696 Y34.176
G01 X186.746 Y32.954
G01 X197.468 Y30.096
G01 X202.983 Y28.843
G01 X213.891 Y26.802
G01 X215.457 Y26.554
G01 X225.768 Y25.202
G01 X231.574 Y24.627
G01 X235.369 Y25.501
G01 X238.823 Y28.332
G01 X238.733 Y32.592
G01 X237.508 Y36.265
G01 X234.947 Y37.683
G01 X229.991 Y40.629
G01 X223.963 Y41.746
G01 X213.776 Y43.275
G01 X208.700 Y44.229
G01 X198.658 Y46.526
G01 X198.046 Y46.683
G01 X188.132 Y49.477
G01 X178.915 Y52.556
G01 X169.317 Y56.293
G01 X159.915 Y60.496
G01 X158.605 Y61.126
G01 X149.454 Y65.848
G01 X140.545 Y71.014
G01 X140.344 Y71.138
G01 X131.700 Y76.734
G01 X126.944 Y80.078
G01 X118.763 Y86.332
G01 X112.266 Y91.776
G01 X104.917 Y98.984
G01 X102.142 Y101.899
G01 X94.879 Y109.175
G01 X87.976 Y116.807
G01 X87.781 Y117.034
G01 X81.461 Y125.161
G01 X75.548 Y133.587
G01 X74.334 Y135.431
G01 X68.924 Y144.189
G01 X63.950 Y153.201
G01 X63.803 Y153.485
G01 X59.303 Y162.743
G01 X55.338 Y172.020
G01 X51.747 Y181.665
G01 X49.293 Y189.249
G01 X46.567 Y199.174
G01 X44.581 Y207.970
G01 X42.766 Y218.100
G01 X42.727 Y218.352
G01 X41.600 Y226.916
G01 X40.942 Y233.930
G01 X43.183 Y238.257
G01 X48.126 Y238.963
G01 X53.738 Y236.886
G01 X56.010 Y234.288
G01 X57.562 Y229.755
G01 X58.223 Y224.612
G01 X59.700 Y215.232
G01 X61.635 Y205.937
G01 X61.751 Y205.442
G01 X64.156 Y196.257
G01 X67.008 Y187.199
G01 X69.410 Y180.575
G01 X73.024 Y171.792
G01 X77.064 Y163.198
G01 X77.756 Y161.829
G01 X82.289 Y153.484
G01 X87.227 Y145.371
G01 X90.507 Y140.436
G01 X96.068 Y132.735
G01 X101.999 Y125.317
G01 X104.854 Y121.998
G01 X111.302 Y115.022
G01 X118.085 Y108.371
G01 X120.369 Y106.273
G01 X127.572 Y100.079
G01 X135.070 Y94.245
G01 X141.183 Y89.906
G01 X149.164 Y84.751
G01 X157.389 Y79.993
G01 X160.809 Y78.169
G01 X169.344 Y73.991
G01 X178.074 Y70.236
G01 X183.865 Y68.020
G01 X192.874 Y64.994
G01 X202.021 Y62.414
G01 X204.393 Y61.823
G01 X213.679 Y59.800
G01 X223.054 Y58.236
G01 X224.574 Y58.026
G01 X234.025 Y57.010
G01 X243.513 Y56.459
G01 X245.919 Y56.393
G01 X255.424 Y56.403
G01 X256.491 Y56.434
G01 X265.981 Y56.985
G01 X275.433 Y58.002
G01 X281.166 Y58.849
G01 X290.511 Y60.595
G01 X297.945 Y62.328
G01 X307.096 Y64.906
G01 X316.109 Y67.931
G01 X319.995 Y69.389
G01 X328.778 Y73.028
G01 X335.765 Y76.294
G01 X344.185 Y80.711
G01 X346.480 Y82.009
G01 X354.607 Y86.946
G01 X360.043 Y90.564
G01 X367.734 Y96.156
G01 X369.589 Y97.593
G01 X376.923 Y103.645
G01 X383.952 Y110.049
G01 X387.001 Y113.033
G01 X393.557 Y119.920
G01 X399.767 Y127.121
G01 X400.456 Y127.965
G01 X406.262 Y135.495
G01 X411.693 Y143.300
G01 X414.690 Y147.988
G01 X419.498 Y156.192
G01 X423.288 Y163.394
G01 X427.329 Y172.001
G01 X429.677 Y177.573
G01 X433.014 Y186.476
G01 X435.910 Y195.533
G01 X435.977 Y195.761
G01 X438.402 Y204.954
G01 X440.373 Y214.255
G01 X440.385 Y214.317
G01 X441.907 Y223.702
G01 X441.993 Y224.338
G01 X442.754 Y230.879
G01 X441.168 Y236.063
G01 X435.345 Y237.736
G01 X431.752 Y236.878
G01 X428.579 Y235.400
G01 X426.043 Y227.902
G01 X424.784 Y219.284
G01 X424.259 Y216.365
G01 X422.398 Y207.855
G01 X422.398 Y207.853
G01 X420.122 Y199.444
G01 X419.539 Y197.523
G01 X416.771 Y189.263
G01 X413.601 Y181.149
G01 X413.310 Y180.458
G01 X409.701 Y172.528
G01 X406.516 Y166.280
G01 X402.219 Y158.701
G01 X397.556 Y151.342
G01 X396.790 Y150.205
G01 X391.716 Y143.123
G01 X386.797 Y136.895
G01 X381.083 Y130.319
G01 X375.052 Y124.031
G01 X372.710 Y121.749
G01 X366.269 Y115.882
G01 X364.582 Y114.438
G01 X357.793 Y108.979
G01 X351.294 Y104.241
G01 X344.014 Y99.455
G01 X336.509 Y95.033
G01 X334.575 Y93.973
G01 X326.817 Y90.011
G01 X320.014 Y86.919
G01 X311.927 Y83.680
G01 X305.680 Y81.485
G01 X297.340 Y78.970
G01 X290.838 Y77.313
G01 X282.316 Y75.517
G01 X280.550 Y75.200
G01 X271.936 Y73.911
G01 X267.137 Y73.379
G01 X260.398 Y73.731
G01 X257.900 Y77.331
G01 X256.878 Y83.242
G01 X259.193 Y87.535
G01 X265.955 Y89.566
G01 X273.808 Y90.542
G01 X275.419 Y90.791
G01 X283.200 Y92.230
G01 X284.070 Y92.416
G01 X291.761 Y94.277
G01 X293.054 Y94.630
G01 X300.632 Y96.910
G01 X302.042 Y97.379
G01 X309.468 Y100.116
G01 X312.544 Y101.374
G01 X319.762 Y104.622
G01 X323.074 Y106.258
G01 X330.039 Y110.017
G01 X332.478 Y111.440
G01 X339.178 Y115.654
G01 X345.536 Y120.098
G01 X351.804 Y124.931
G01 X356.381 Y128.787
G01 X361.412 Y133.394
G01 X366.999 Y139.001
G01 X369.012 Y141.162
G01 X374.209 Y147.133
G01 X376.163 Y149.538
G01 X380.940 Y155.850
G01 X384.057 Y160.343
G01 X388.295 Y167.029
G01 X392.199 Y173.915
G01 X392.323 Y174.146
G01 X395.860 Y181.227
G01 X398.092 Y186.202
G01 X401.044 Y193.545
G01 X403.575 Y200.844
G01 X405.802 Y208.439
G01 X407.311 Y214.579
G01 X408.860 Y222.340
G01 X410.026 Y230.168
G01 X410.333 Y232.831
G01 X410.971 Y240.720
G01 X411.221 Y248.630
G01 X411.225 Y249.891
G01 X411.406 Y257.820
G01 X411.238 Y264.896
G01 X409.934 Y272.736
G01 X408.449 Y279.656
G01 X406.803 Y287.395
G01 X404.779 Y295.044
G01 X403.569 Y299.011
G01 X400.968 Y306.483
G01 X398.005 Y313.818
G01 X397.368 Y315.268
G01 X393.981 Y322.417
G01 X390.248 Y329.391
G01 X386.177 Y336.172
G01 X385.435 Y337.331
G01 X380.979 Y343.866
G01 X376.208 Y350.174
G01 X372.910 Y354.184
G01 X367.645 Y360.085
G01 X362.097 Y365.720
G01 X356.279 Y371.075
G01 X353.014 Y373.860
G01 X346.804 Y378.755
G01 X341.105 Y382.834
G01 X334.478 Y387.145
G01 X331.174 Y389.125
G01 X324.243 Y392.928
G01 X319.146 Y395.451
G01 X311.926 Y398.668
G01 X304.557 Y401.528
G01 X303.962 Y401.741
G01 X296.448 Y404.195
G01 X288.823 Y406.277
G01 X287.458 Y406.608
G01 X279.789 Y408.246
G01 X274.962 Y409.053
G01 X267.439 Y413.002
G01 X267.328 Y413.057
G01 X265.952 Y415.885
G01 X265.817 Y418.911
G01 X268.619 Y423.227
G01 X271.503 Y425.135
G01 X275.203 Y425.449
G01 X282.583 Y424.331
G01 X291.078 Y422.442
G01 X292.816 Y422.001
G01 X301.209 Y419.708
G01 X306.416 Y418.059
G01 X314.594 Y415.088
G01 X316.096 Y414.493
G01 X324.092 Y411.061
G01 X331.911 Y407.242
G01 X333.734 Y406.281
G01 X341.302 Y401.984
G01 X348.078 Y397.702
G01 X355.217 Y392.725
G01 X359.318 Y389.620
G01 X366.047 Y384.099
G01 X370.664 Y379.974
G01 X376.896 Y373.897
G01 X382.823 Y367.521
G01 X383.645 Y366.585
G01 X389.217 Y359.896
G01 X392.438 Y355.703
G01 X397.453 Y348.587
G01 X398.733 Y346.645
G01 X403.307 Y339.237
G01 X407.449 Y331.735
G01 X411.270 Y323.911
G01 X412.333 Y321.546
G01 X415.664 Y313.501
G01 X417.082 Y309.691
G01 X419.810 Y301.421
G01 X421.291 Y296.251
G01 X423.366 Y287.793
G01 X424.912 Y279.903
G01 X426.169 Y271.285
G01 X426.822 Y264.911
G01 X429.417 Y259.631
G01 X433.365 Y257.031
G01 X437.243 Y256.336
G01 X440.787 Y259.533
G01 X442.199 Y263.887
G01 X442.742 Y270.220
G01 X441.442 Y279.641
G01 X440.408 Y285.421
G01 X438.427 Y294.718
G01 X436.607 Y301.751
G01 X433.843 Y310.845
G01 X432.826 Y313.835
G01 X429.464 Y322.725
G01 X425.669 Y331.439
G01 X424.389 Y334.138
G01 X420.051 Y342.593
G01 X416.131 Y349.454
G01 X411.039 Y357.478
G01 X406.977 Y363.310
G01 X401.228 Y370.876
G01 X396.221 Y376.887
G01 X389.811 Y383.902
G01 X383.065 Y390.593
G01 X380.621 Y392.861
G01 X373.445 Y399.088
G01 X367.530 Y403.780
G01 X359.842 Y409.362
G01 X355.822 Y412.059
G01 X347.737 Y417.047
G01 X339.417 Y421.631
G01 X338.019 Y422.350
G01 X329.452 Y426.452
G01 X320.694 Y430.128
G01 X317.290 Y431.423
G01 X308.307 Y434.506
G01 X303.097 Y436.072
G01 X293.900 Y438.439
G01 X287.559 Y439.794
G01 X278.201 Y441.409
G01 X274.269 Y441.947
G01 X270.772 Y442.533
G01 X268.186 Y443.999
G01 X266.773 Y446.686
G01 X265.758 Y452.212
G01 X268.305 Y455.662
G01 X272.421 Y457.819
G01 X278.841 Y457.707
G01 X288.998 Y456.042
G01 X291.264 Y455.600
G01 X299.214 Y453.869
G01 X309.159 Y451.208
G01 X309.885 Y450.993
G01 X319.675 Y447.813
G01 X321.849 Y447.034
G01 X331.435 Y443.282
G01 X340.826 Y439.063
G01 X342.247 Y438.376
G01 X351.379 Y433.623
G01 X354.815 Y431.683
G01 X363.616 Y426.340
G01 X364.921 Y425.495
G01 X373.394 Y419.645
G01 X374.040 Y419.173
G01 X382.206 Y412.902
G01 X382.681 Y412.517
G01 X390.496 Y405.811
G01 X391.755 Y404.666
G01 X399.174 Y397.524
G01 X402.485 Y394.098
G01 X409.383 Y386.451
G01 X414.852 Y379.809
G01 X421.023 Y371.563
G01 X422.076 Y370.069
G01 X427.615 Y361.758
G01 X432.885 Y352.909
G01 X437.714 Y343.811
G01 X437.810 Y343.618
G01 X442.187 Y334.294
G01 X446.101 Y324.766
G01 X447.606 Y320.708
G01 X450.853 Y310.931
G01 X452.372 Y305.709
G01 X454.862 Y295.712
G01 X456.858 Y285.605
G01 X457.769 Y279.836
G01 X458.999 Y269.607
G01 X459.396 Y264.898
G01 X459.874 Y254.605
G01 X459.925 Y249.900
G01 X460.090 Y239.579
G01 X459.925 Y232.837
G01 X458.410 Y222.613
G01 X457.154 Y216.001
G01 X455.249 Y205.874
G01 X453.414 Y198.022
G01 X450.619 Y188.104
G01 X447.340 Y178.334
G01 X445.447 Y173.321
G01 X441.449 Y163.823
G01 X436.990 Y154.533
G01 X432.149 Y145.594
G01 X426.807 Y136.782
G01 X421.038 Y128.243
G01 X420.400 Y127.351
G01 X414.177 Y119.137
G01 X407.558 Y111.239
G01 X403.235 Y106.480
G01 X396.008 Y99.134
G01 X388.429 Y92.151
G01 X384.630 Y88.898
G01 X376.563 Y82.486
G01 X368.191 Y76.478
G01 X366.078 Y75.058
G01 X357.354 Y69.573
G01 X348.372 Y64.522
G01 X342.250 Y61.403
G01 X332.882 Y57.112
G01 X323.314 Y53.287
G01 X317.155 Y51.106
G01 X307.314 Y48.051
G01 X297.336 Y45.482
G01 X294.915 Y44.936
G01 X284.798 Y42.979
G01 X282.537 Y42.612
G01 X272.320 Y41.285
G01 X269.894 Y41.045
G01 X263.261 Y40.519
G01 X258.307 Y35.035
G01 X257.748 Y29.486
G01 X259.676 Y25.759
G01 X264.163 Y24.845
G01 X270.824 Y24.836
G01 X281.850 Y26.110
G01 X285.342 Y26.629
G01 X296.260 Y28.632
G01 X303.805 Y30.344
G01 X314.523 Y33.233
G01 X320.615 Y35.131
G01 X331.073 Y38.855
G01 X341.336 Y43.087
G01 X351.378 Y47.818
G01 X353.161 Y48.722
G01 X362.913 Y54.026
G01 X369.378 Y57.896
G01 X378.660 Y63.985
G01 X387.632 Y70.522
G01 X387.816 Y70.663
G01 X396.462 Y77.627
G01 X399.344 Y80.109
G01 X407.500 Y87.642
G01 X412.458 Y92.603
G01 X419.986 Y100.764
G01 X423.331 Y104.663
G01 X430.254 Y113.343
G01 X434.901 Y119.700
G01 X441.072 Y128.930
G01 X445.250 Y135.790
G01 X450.609 Y145.513
G01 X455.485 Y155.487
G01 X456.951 Y158.752
G01 X461.179 Y169.016
G01 X464.899 Y179.476
G01 X465.846 Y182.432
G01 X468.902 Y193.104
G01 X470.794 Y200.957
G01 X472.934 Y211.850
G01 X473.793 Y217.258
G01 X475.116 Y228.280
G01 X475.832 Y238.003
G01 X476.231 Y249.098
G01 X476.085 Y260.203
G01 X475.858 Y264.911
G01 X474.700 Y275.958
G01 X474.015 Y280.821
G01 X472.233 Y291.776
G01 X470.179 Y301.513
G01 X467.377 Y312.252
G01 X464.051 Y322.840
G01 X462.118 Y328.278
G01 X458.013 Y338.588
G01 X453.408 Y348.684
G01 X449.311 Y356.701
G01 X443.828 Y366.348
G01 X437.879 Y375.714
G01 X431.478 Y384.777
G01 X430.674 Y385.851
G01 X423.790 Y394.553
G01 X418.894 Y400.244
G01 X411.309 Y408.341
G01 X403.897 Y415.538
G01 X395.583 Y422.883
G01 X386.919 Y429.810
G01 X381.988 Y433.453
G01 X372.828 Y439.709
G01 X363.371 Y445.507
G01 X359.789 Y447.541
G01 X349.959 Y452.679
G01 X339.889 Y457.328
G01 X339.406 Y457.536
G01 X329.112 Y461.666
G01 X318.629 Y465.286
G01 X307.981 Y468.387
G01 X303.681 Y469.481
G01 X292.844 Y471.838
G01 X282.459 Y473.581
G01 X271.449 Y474.904
G01 X266.021 Y475.356
G01 X255.980 Y475.846
G01 X253.048 Y474.554
G01 X250.926 Y472.073
G01 X250.125 Y469.375
G01 X250.138 Y455.975
G01 X250.126 Y438.350
G01 X250.128 Y415.625
G01 X250.130 Y399.775
G01 X250.217 Y397.400
G01 X251.310 Y396.069
G01 X253.209 Y394.714
G01 X260.308 Y394.407
G01 X260.411 Y394.400
G01 X267.483 Y393.715
G01 X274.514 Y392.684
G01 X275.886 Y392.442
G01 X282.847 Y391.010
G01 X289.729 Y389.239
G01 X292.538 Y388.411
G01 X299.282 Y386.167
G01 X305.908 Y383.595
G01 X307.897 Y382.749
G01 X314.346 Y379.756
G01 X320.640 Y376.451
G01 X324.357 Y374.308
G01 X330.367 Y370.510
G01 X335.088 Y367.224
G01 X340.747 Y362.919
G01 X344.596 Y359.729
G01 X349.873 Y354.962
G01 X354.910 Y349.942
G01 X357.411 Y347.257
G01 X362.061 Y341.875
G01 X366.442 Y336.272
G01 X368.736 Y333.097
G01 X372.670 Y327.171
G01 X374.302 Y324.514
G01 X377.817 Y318.330
G01 X381.026 Y311.981
G01 X382.125 Y309.611
G01 X384.891 Y303.056
G01 X387.332 Y296.373
G01 X387.803 Y294.953
G01 X389.857 Y288.141
G01 X391.189 Y282.913
G01 X392.634 Y275.946
G01 X393.088 Y273.315
G01 X393.879 Y267.791
G01 X393.318 Y260.616
G01 X393.252 Y259.990
G01 X390.210 Y258.215
G01 X384.997 Y257.856
G01 X381.226 Y261.158
G01 X377.698 Y266.815
G01 X376.688 Y273.055
G01 X375.966 Y276.628
G01 X374.493 Y282.773
G01 X373.389 Y286.677
G01 X371.441 Y292.687
G01 X370.133 Y296.240
G01 X367.707 Y302.073
G01 X365.457 Y306.862
G01 X362.528 Y312.459
G01 X359.328 Y317.905
G01 X358.573 Y319.106
G01 X355.044 Y324.346
G01 X351.263 Y329.405
G01 X347.239 Y334.273
G01 X347.016 Y334.529
G01 X342.744 Y339.181
G01 X338.249 Y343.616
G01 X336.154 Y345.543
G01 X331.357 Y349.649
G01 X326.366 Y353.516
G01 X321.191 Y357.132
G01 X318.004 Y359.178
G01 X312.561 Y362.375
G01 X306.967 Y365.301
G01 X303.536 Y366.927
G01 X297.730 Y369.401
G01 X291.809 Y371.588
G01 X291.660 Y371.639
G01 X285.640 Y373.531
G01 X279.534 Y375.125
G01 X273.358 Y376.418
G01 X267.126 Y377.406
G01 X265.475 Y377.615
G01 X260.935 Y378.084
G01 X254.635 Y378.395
G01 X252.116 Y378.433
G01 X250.571 Y377.799
G01 X250.135 Y376.500
G01 X250.134 Y374.750
G01 X250.132 Y373.100
G01 X250.136 Y349.250
G01 X250.134 Y325.400
G01 X250.132 Y305.875
G01 X250.121 Y298.800
G01 X250.126 Y282.450
G01 X248.478 Y285.592
G01 X246.510 Y287.908
G01 X245.809 Y288.648
G01 X243.614 Y290.310
G01 X243.599 Y290.320
G01 X241.308 Y291.487
G01 X240.606 Y291.808
G01 X238.248 Y292.445
G01 X237.267 Y292.665
G01 X234.921 Y292.748
G01 X232.790 Y292.713
G01 X230.528 Y292.222
G01 X229.493 Y291.956
G01 X227.389 Y291.027
G01 X226.602 Y290.646
G01 X224.751 Y289.269
G01 X223.007 Y287.832
G01 X221.561 Y285.984
G01 X220.484 Y284.463
G01 X219.508 Y282.255
G01 X219.101 Y281.220
G01 X218.679 Y278.684
G01 X218.429 Y276.184
G01 X218.394 Y275.604
G01 X218.834 Y272.809
G01 X219.094 Y271.590
G01 X220.371 Y268.604
G01 X220.583 Y268.168
G01 X222.393 Y265.630
G01 X223.420 Y264.547
G01 X223.736 Y265.799
G01 X222.737 Y266.028
G01 X220.953 Y266.284
G01 X219.532 Y266.344
G01 X216.622 Y266.081
G01 X213.809 Y265.296
G01 X213.389 Y265.159
G01 X211.437 Y264.215
G01 X209.308 Y262.770
G01 X209.136 Y262.644
G01 X207.336 Y260.938
G01 X207.293 Y260.894
G01 X205.838 Y259.024
G01 X204.707 Y256.960
G01 X204.421 Y256.394
G01 X203.702 Y254.191
G01 X203.441 Y253.282
G01 X203.167 Y250.997
G01 X203.075 Y249.891
G01 X203.232 Y247.696
G01 X203.733 Y245.436
G01 X203.890 Y244.822
G01 X204.774 Y242.659
G01 X204.884 Y242.412
G01 X206.126 Y240.386
G01 X206.382 Y239.997
G01 X207.660 Y238.495
G01 X209.295 Y237.018
G01 X211.441 Y235.582
G01 X211.707 Y235.419
G01 X214.049 Y234.373
G01 X216.248 Y233.774
G01 X218.873 Y233.456
G01 X220.879 Y233.491
G01 X221.746 Y233.588
G01 X222.642 Y233.741
G01 X223.367 Y233.893
G01 X222.838 Y234.648
G01 X222.467 Y234.238
G01 X222.174 Y233.896
G01 X221.820 Y233.461
G01 X221.479 Y233.007
G01 X220.573 Y231.611
G01 X219.884 Y230.276
G01 X219.368 Y229.024
G01 X218.959 Y227.735
G01 X218.634 Y226.238
G01 X218.434 Y224.706
G01 X218.388 Y223.074
G01 X218.554 Y220.966
G01 X218.906 Y219.294
G01 X219.612 Y217.116
G01 X220.375 Y215.531
G01 X221.518 Y213.720
G01 X223.024 Y211.931
G01 X223.076 Y211.873
G01 X224.836 Y210.374
G01 X225.586 Y209.780
G01 X227.453 Y208.676
G01 X229.458 Y207.838
G01 X231.728 Y207.292
G01 X233.015 Y207.035
G01 X235.383 Y206.958
G01 X235.719 Y206.957
G01 X238.123 Y207.298
G01 X238.922 Y207.443
G01 X241.305 Y208.304
G01 X242.129 Y208.642
G01 X244.215 Y209.865
G01 X246.388 Y211.717
G01 X246.807 Y212.109
G01 X248.763 Y214.654
G01 X248.827 Y214.745
G01 X249.878 Y216.725
G01 X250.376 Y218.002
G01 X250.788 Y219.385
G01 X249.469 Y219.405
G01 X249.709 Y218.551
G01 X249.956 Y217.825
G01 X250.428 Y216.653
G01 X251.186 Y215.170
G01 X251.898 Y214.050
G01 X253.140 Y212.456
G01 X254.520 Y211.087
G01 X255.756 Y210.088
G01 X258.020 Y208.815
G01 X259.908 Y207.900
G01 X262.295 Y207.280
G01 X263.252 Y207.074
G01 X265.632 Y206.980
G01 X266.707 Y206.980
G01 X269.012 Y207.373
G01 X269.783 Y207.532
G01 X271.953 Y208.345
G01 X272.990 Y208.777
G01 X274.954 Y210.004
G01 X275.523 Y210.385
G01 X277.233 Y211.968
G01 X277.834 Y212.564
G01 X279.250 Y214.446
G01 X279.284 Y214.493
G01 X280.399 Y216.623
G01 X280.628 Y217.099
G01 X281.333 Y219.491
G01 X281.745 Y221.219
G01 X281.872 Y223.835
G01 X281.873 Y223.894
G01 X281.510 Y226.677
G01 X281.363 Y227.498
G01 X280.226 Y230.486
G01 X279.909 Y231.204
G01 X278.972 Y232.737
G01 X277.816 Y234.230
G01 X276.859 Y235.234
G01 X276.402 Y235.650
G01 X275.746 Y234.323
G01 X275.698 Y234.232
G01 X277.074 Y233.850
G01 X278.947 Y233.539
G01 X282.016 Y233.484
G01 X285.029 Y234.055
G01 X285.720 Y234.221
G01 X288.262 Y235.297
G01 X288.927 Y235.615
G01 X291.022 Y237.091
G01 X291.597 Y237.534
G01 X293.284 Y239.313
G01 X293.871 Y239.984
G01 X295.118 Y242.005
G01 X295.592 Y242.845
G01 X296.452 Y245.031
G01 X296.534 Y245.258
G01 X296.968 Y247.533
G01 X297.160 Y248.809
G01 X297.140 Y251.123
G01 X297.128 Y251.449
G01 X296.708 Y253.737
G01 X296.613 Y254.176
G01 X295.782 Y256.378
G01 X295.227 Y257.682
G01 X294.009 Y259.631
G01 X292.381 Y261.480
G01 X292.002 Y261.880
G01 X290.004 Y263.467
G01 X289.602 Y263.761
G01 X287.499 Y264.897
G01 X284.915 Y265.804
G01 X281.776 Y266.306
G01 X281.578 Y266.329
G01 X279.494 Y266.303
G01 X278.311 Y266.163
G01 X277.469 Y266.022
G01 X276.527 Y265.798
G01 X275.954 Y265.637
G01 X276.935 Y264.625
G01 X277.572 Y265.283
G01 X278.113 Y265.904
G01 X278.596 Y266.519
G01 X280.237 Y269.213
G01 X281.215 Y271.758
G01 X281.681 Y274.477
G01 X281.882 Y276.332
G01 X281.590 Y278.812
G01 X281.130 Y281.324
G01 X281.115 Y281.393
G01 X280.132 Y283.544
G01 X279.018 Y285.660
G01 X277.530 Y287.445
G01 X276.512 Y288.566
G01 X274.665 Y289.946
G01 X273.657 Y290.641
G01 X271.540 Y291.569
G01 X269.524 Y292.340
G01 X267.194 Y292.679
G01 X265.352 Y292.859
G01 X262.918 Y292.533
G01 X260.554 Y292.074
G01 X260.279 Y292.011
G01 X257.910 Y290.936
G01 X256.503 Y290.203
G01 X254.291 Y288.402
G01 X253.209 Y287.413
G01 X251.376 Y284.948
G01 X250.700 Y283.718
G01 X250.375 Y283.023
G01 X250.128 Y282.425
G01 X250.127 Y280.500
G01 X250.125 Y280.100
G01 X250.127 Y279.800
G01 X250.124 Y275.075
G01 X250.124 Y274.100
G01 X248.942 Y274.077
G01 X247.761 Y273.996
G01 X246.587 Y273.857
G01 X245.420 Y273.661
G01 X244.265 Y273.408
G01 X243.123 Y273.098
G01 X241.998 Y272.733
G01 X240.892 Y272.313
G01 X239.808 Y271.839
G01 X238.749 Y271.313
G01 X237.717 Y270.735
G01 X236.714 Y270.107
G01 X235.744 Y269.431
G01 X234.807 Y268.708
G01 X233.908 Y267.940
G01 X233.047 Y267.129
G01 X232.227 Y266.276
G01 X231.450 Y265.385
G01 X230.717 Y264.456
G01 X230.031 Y263.492
G01 X229.393 Y262.496
G01 X228.805 Y261.470
G01 X228.267 Y260.416
G01 X227.782 Y259.337
G01 X227.351 Y258.236
G01 X226.974 Y257.115
G01 X226.653 Y255.976
G01 X226.388 Y254.823
G01 X226.179 Y253.659
G01 X226.029 Y252.486
G01 X225.935 Y251.307
G01 X225.900 Y250.124
G01 X225.900 Y249.999
G01 X225.929 Y248.816
G01 X226.016 Y247.637
G01 X226.161 Y246.463
G01 X226.363 Y245.297
G01 X226.623 Y244.143
G01 X226.938 Y243.003
G01 X227.309 Y241.880
G01 X227.735 Y240.776
G01 X228.214 Y239.695
G01 X228.746 Y238.638
G01 X229.329 Y237.609
G01 X229.962 Y236.610
G01 X230.643 Y235.643
G01 X231.371 Y234.710
G01 X232.144 Y233.815
G01 X232.960 Y232.958
G01 X233.816 Y232.142
G01 X234.712 Y231.370
G01 X235.645 Y230.642
G01 X236.612 Y229.961
G01 X237.611 Y229.328
G01 X238.640 Y228.745
G01 X239.697 Y228.213
G01 X240.778 Y227.734
G01 X241.882 Y227.308
G01 X243.005 Y226.937
G01 X244.145 Y226.622
G01 X245.299 Y226.363
G01 X246.465 Y226.161
G01 X247.639 Y226.016
G01 X248.819 Y225.929
G01 X249.999 Y225.900
G01 X251.181 Y225.929
G01 X252.361 Y226.016
G01 X253.535 Y226.161
G01 X254.701 Y226.363
G01 X255.855 Y226.622
G01 X256.995 Y226.937
G01 X258.118 Y227.308
G01 X259.222 Y227.734
G01 X260.303 Y228.213
G01 X261.360 Y228.745
G01 X262.389 Y229.328
G01 X263.388 Y229.961
G01 X264.355 Y230.642
G01 X265.288 Y231.370
G01 X266.184 Y232.142
G01 X267.040 Y232.958
G01 X267.856 Y233.815
G01 X268.629 Y234.710
G01 X269.357 Y235.643
G01 X270.038 Y236.610
G01 X270.671 Y237.609
G01 X271.254 Y238.638
G01 X271.786 Y239.695
G01 X272.265 Y240.776
G01 X272.691 Y241.880
G01 X273.062 Y243.003
G01 X273.377 Y244.143
G01 X273.637 Y245.297
G01 X273.839 Y246.463
G01 X273.984 Y247.637
G01 X274.071 Y248.816
G01 X274.100 Y249.999
G01 X274.071 Y251.181
G01 X273.984 Y252.361
G01 X273.839 Y253.535
G01 X273.637 Y254.701
G01 X273.378 Y255.855
G01 X273.063 Y256.995
G01 X272.692 Y258.118
G01 X272.266 Y259.222
G01 X271.787 Y260.303
G01 X271.255 Y261.360
G01 X270.672 Y262.389
G01 X270.039 Y263.388
G01 X269.358 Y264.355
G01 X268.630 Y265.288
G01 X267.858 Y266.184
G01 X267.042 Y267.041
G01 X266.185 Y267.856
G01 X265.290 Y268.629
G01 X264.357 Y269.357
G01 X263.390 Y270.038
G01 X262.391 Y270.671
G01 X261.362 Y271.254
G01 X260.305 Y271.786
G01 X259.224 Y272.265
G01 X258.120 Y272.691
G01 X256.997 Y273.062
G01 X255.857 Y273.377
G01 X254.703 Y273.637
G01 X253.537 Y273.839
G01 X252.363 Y273.984
G01 X251.184 Y274.071
G01 X250.129 Y274.100
G01 X248.949 Y274.009
G01 X247.779 Y273.860
G01 X247.120 Y273.751
G01 X245.969 Y273.517
G01 X244.834 Y273.227
G01 X244.065 Y272.997
G01 X242.963 Y272.615
G01 X241.885 Y272.182
G01 X241.160 Y271.855
G01 X240.122 Y271.344
G01 X239.112 Y270.784
G01 X238.439 Y270.373
G01 X237.493 Y269.718
G01 X236.584 Y269.020
G01 X235.986 Y268.521
G01 X235.136 Y267.761
G01 X234.327 Y266.962
G01 X233.797 Y266.394
G01 X233.053 Y265.541
G01 X232.354 Y264.655
G01 X231.898 Y264.027
G01 X231.285 Y263.084
G01 X230.721 Y262.115
G01 X230.362 Y261.436
G01 X229.874 Y260.433
G01 X229.437 Y259.410
G01 X229.168 Y258.698
G01 X228.828 Y257.643
G01 X228.540 Y256.576
G01 X228.375 Y255.842
G01 X228.178 Y254.760
G01 X228.035 Y253.672
G01 X227.969 Y252.928
G01 X227.917 Y251.838
G01 X227.918 Y250.750
G01 X227.950 Y250.007
G01 X228.041 Y248.929
G01 X228.185 Y247.859
G01 X228.314 Y247.128
G01 X228.536 Y246.078
G01 X228.809 Y245.042
G01 X229.025 Y244.340
G01 X229.390 Y243.338
G01 X229.803 Y242.358
G01 X230.112 Y241.700
G01 X230.603 Y240.762
G01 X231.137 Y239.853
G01 X231.526 Y239.248
G01 X232.130 Y238.390
G01 X232.774 Y237.566
G01 X233.236 Y237.023
G01 X233.935 Y236.252
G01 X234.670 Y235.519
G01 X235.192 Y235.039
G01 X235.988 Y234.379
G01 X236.812 Y233.760
G01 X237.396 Y233.359
G01 X238.259 Y232.807
G01 X239.146 Y232.299
G01 X239.768 Y231.977
G01 X240.694 Y231.555
G01 X241.637 Y231.180
G01 X242.289 Y230.951
G01 X243.255 Y230.658
G01 X244.230 Y230.413
G01 X244.901 Y230.273
G01 X245.889 Y230.111
G01 X246.879 Y229.997
G01 X247.559 Y229.948
G01 X248.551 Y229.917
G01 X249.539 Y229.936
G01 X250.216 Y229.976
G01 X251.195 Y230.067
G01 X252.165 Y230.205
G01 X252.826 Y230.327
G01 X253.775 Y230.553
G01 X254.709 Y230.825
G01 X255.339 Y231.037
G01 X256.246 Y231.375
G01 X257.132 Y231.756
G01 X257.726 Y232.041
G01 X258.565 Y232.509
G01 X259.377 Y233.016
G01 X259.915 Y233.383
G01 X260.687 Y233.936
G01 X261.429 Y234.525
G01 X261.918 Y234.947
G01 X262.599 Y235.599
G01 X263.246 Y236.281
G01 X263.670 Y236.768
G01 X264.254 Y237.498
G01 X264.799 Y238.252
G01 X265.151 Y238.785
G01 X265.636 Y239.573
G01 X266.081 Y240.381
G01 X266.362 Y240.946
G01 X266.728 Y241.788
G01 X267.051 Y242.645
G01 X267.246 Y243.237
G01 X267.496 Y244.112
G01 X267.701 Y244.995
G01 X267.815 Y245.602
G01 X267.946 Y246.494
G01 X268.031 Y247.388
