;  Created by Sandify
;  https://sandify.org
;  Version: 0.2.6
;
;  Machine type: Rectangular
;    Min X (mm): 0
;    Max X (mm): 500
;    Min Y (mm): 0
;    Max Y (mm): 500
;  Content type: shape
;  Layer:
;    Shape: FileImport
;    Name: hero_11loop2.thr
;    From file:: hero_11loop2.thr
;    Aspect Ratio: true
;    Comments: 
;    Visible: true
;    Initial width: 10
;    Initial height: 10
;    X offset: 0
;    Y offset: 0
;    Rotate (degrees): 0
;    Reverse path: false
;    Fine tuning:
;      Connect to next layer: line
;      Draw portion of path (%): 100
;      Backtrack at end (%): 0
;      Rotate starting point (%): 0
;  Reverse export path: false
;
; File name: '11loop2 (E) (C N)'
; File type: gcode
;

G01 X250.000 Y250.000
G01 X250.000 Y250.002
G01 X250.000 Y250.003
G01 X250.001 Y250.005
G01 X250.001 Y250.006
G01 X250.002 Y250.012
G01 X250.003 Y250.017
G01 X250.003 Y250.022
G01 X250.003 Y250.025
G01 X250.002 Y250.028
G01 X250.001 Y250.030
G01 X250.002 Y250.032
G01 X250.004 Y250.034
G01 X250.006 Y250.034
G01 X250.008 Y250.035
G01 X250.010 Y250.035
G01 X250.012 Y250.035
G01 X250.014 Y250.036
G01 X250.016 Y250.036
G01 X250.018 Y250.037
G01 X250.021 Y250.037
G01 X250.023 Y250.037
G01 X250.025 Y250.038
G01 X250.029 Y250.038
G01 X250.032 Y250.039
G01 X250.034 Y250.039
G01 X250.038 Y250.040
G01 X250.043 Y250.041
G01 X250.050 Y250.042
G01 X250.054 Y250.043
G01 X250.063 Y250.046
G01 X250.064 Y250.046
G01 X250.076 Y250.050
G01 X250.087 Y250.054
G01 X250.098 Y250.059
G01 X250.109 Y250.065
G01 X250.119 Y250.071
G01 X250.128 Y250.077
G01 X250.136 Y250.084
G01 X250.143 Y250.090
G01 X250.148 Y250.096
G01 X250.152 Y250.102
G01 X250.154 Y250.106
G01 X250.156 Y250.109
G01 X250.155 Y250.110
G01 X250.154 Y250.109
G01 X250.152 Y250.106
G01 X250.150 Y250.101
G01 X250.147 Y250.094
G01 X250.144 Y250.084
G01 X250.143 Y250.074
G01 X250.142 Y250.072
G01 X250.142 Y250.063
G01 X250.141 Y250.058
G01 X250.141 Y250.050
G01 X250.141 Y250.042
G01 X250.142 Y250.034
G01 X250.142 Y250.027
G01 X250.142 Y250.023
G01 X250.143 Y250.016
G01 X250.144 Y250.009
G01 X250.145 Y250.003
G01 X250.147 Y249.996
G01 X250.149 Y249.989
G01 X250.150 Y249.982
G01 X250.153 Y249.974
G01 X250.155 Y249.966
G01 X250.156 Y249.961
G01 X250.161 Y249.952
G01 X250.164 Y249.941
G01 X250.165 Y249.940
G01 X250.172 Y249.928
G01 X250.176 Y249.918
G01 X250.185 Y249.902
G01 X250.188 Y249.898
G01 X250.202 Y249.879
G01 X250.217 Y249.861
G01 X250.233 Y249.845
G01 X250.249 Y249.832
G01 X250.265 Y249.821
G01 X250.281 Y249.812
G01 X250.295 Y249.806
G01 X250.308 Y249.803
G01 X250.318 Y249.802
G01 X250.326 Y249.803
G01 X250.331 Y249.805
G01 X250.332 Y249.809
G01 X250.329 Y249.813
G01 X250.323 Y249.818
G01 X250.312 Y249.822
G01 X250.298 Y249.825
G01 X250.280 Y249.827
G01 X250.259 Y249.827
G01 X250.237 Y249.824
G01 X250.234 Y249.824
G01 X250.217 Y249.820
G01 X250.208 Y249.818
G01 X250.194 Y249.813
G01 X250.179 Y249.809
G01 X250.167 Y249.803
G01 X250.155 Y249.798
G01 X250.150 Y249.797
G01 X250.139 Y249.790
G01 X250.128 Y249.785
G01 X250.120 Y249.781
G01 X250.110 Y249.774
G01 X250.099 Y249.767
G01 X250.090 Y249.762
G01 X250.080 Y249.753
G01 X250.069 Y249.745
G01 X250.061 Y249.739
G01 X250.049 Y249.728
G01 X250.037 Y249.717
G01 X250.033 Y249.714
G01 X250.020 Y249.699
G01 X250.008 Y249.687
G01 X249.992 Y249.665
G01 X249.985 Y249.657
G01 X249.966 Y249.627
G01 X249.950 Y249.596
G01 X249.937 Y249.565
G01 X249.928 Y249.535
G01 X249.923 Y249.508
G01 X249.921 Y249.483
G01 X249.922 Y249.461
G01 X249.926 Y249.444
G01 X249.931 Y249.431
G01 X249.937 Y249.423
G01 X249.944 Y249.421
G01 X249.951 Y249.424
G01 X249.956 Y249.432
G01 X249.959 Y249.446
G01 X249.959 Y249.464
G01 X249.956 Y249.487
G01 X249.948 Y249.514
G01 X249.936 Y249.543
G01 X249.919 Y249.575
G01 X249.903 Y249.598
G01 X249.897 Y249.608
G01 X249.882 Y249.626
G01 X249.870 Y249.641
G01 X249.855 Y249.655
G01 X249.842 Y249.669
G01 X249.838 Y249.674
G01 X249.823 Y249.685
G01 X249.810 Y249.697
G01 X249.801 Y249.705
G01 X249.786 Y249.714
G01 X249.772 Y249.725
G01 X249.760 Y249.734
G01 X249.744 Y249.742
G01 X249.728 Y249.752
G01 X249.716 Y249.759
G01 X249.697 Y249.768
G01 X249.678 Y249.777
G01 X249.670 Y249.781
G01 X249.645 Y249.789
G01 X249.621 Y249.799
G01 X249.589 Y249.807
G01 X249.573 Y249.812
G01 X249.528 Y249.820
G01 X249.524 Y249.821
G01 X249.477 Y249.825
G01 X249.433 Y249.824
G01 X249.392 Y249.819
G01 X249.355 Y249.811
G01 X249.324 Y249.800
G01 X249.299 Y249.788
G01 X249.280 Y249.774
G01 X249.268 Y249.761
G01 X249.263 Y249.749
G01 X249.264 Y249.739
G01 X249.272 Y249.733
G01 X249.286 Y249.731
G01 X249.304 Y249.734
G01 X249.328 Y249.743
G01 X249.354 Y249.759
G01 X249.383 Y249.781
G01 X249.413 Y249.811
G01 X249.443 Y249.848
G01 X249.465 Y249.881
G01 X249.471 Y249.891
G01 X249.486 Y249.920
G01 X249.498 Y249.940
G01 X249.507 Y249.965
G01 X249.518 Y249.990
G01 X249.520 Y249.995
G01 X249.527 Y250.018
G01 X249.534 Y250.041
G01 X249.539 Y250.054
G01 X249.543 Y250.076
G01 X249.548 Y250.098
G01 X249.553 Y250.116
G01 X249.555 Y250.140
G01 X249.558 Y250.163
G01 X249.562 Y250.181
G01 X249.561 Y250.207
G01 X249.563 Y250.233
G01 X249.564 Y250.247
G01 X249.561 Y250.278
G01 X249.561 Y250.310
G01 X249.561 Y250.313
G01 X249.555 Y250.352
G01 X249.552 Y250.377
G01 X249.540 Y250.427
G01 X249.538 Y250.438
G01 X249.519 Y250.494
G01 X249.496 Y250.546
G01 X249.470 Y250.591
G01 X249.442 Y250.629
G01 X249.414 Y250.660
G01 X249.387 Y250.683
G01 X249.362 Y250.698
G01 X249.340 Y250.705
G01 X249.323 Y250.705
G01 X249.312 Y250.699
G01 X249.308 Y250.687
G01 X249.312 Y250.670
G01 X249.325 Y250.650
G01 X249.346 Y250.628
G01 X249.377 Y250.605
G01 X249.416 Y250.584
G01 X249.464 Y250.564
G01 X249.519 Y250.548
G01 X249.572 Y250.538
G01 X249.581 Y250.536
G01 X249.624 Y250.533
G01 X249.650 Y250.530
G01 X249.685 Y250.531
G01 X249.720 Y250.530
G01 X249.722 Y250.530
G01 X249.752 Y250.535
G01 X249.783 Y250.537
G01 X249.798 Y250.538
G01 X249.825 Y250.544
G01 X249.853 Y250.549
G01 X249.875 Y250.552
G01 X249.901 Y250.561
G01 X249.928 Y250.569
G01 X249.951 Y250.574
G01 X249.979 Y250.586
G01 X250.008 Y250.597
G01 X250.027 Y250.603
G01 X250.058 Y250.620
G01 X250.091 Y250.635
G01 X250.099 Y250.638
G01 X250.136 Y250.662
G01 X250.166 Y250.679
G01 X250.212 Y250.714
G01 X250.227 Y250.724
G01 X250.282 Y250.773
G01 X250.328 Y250.823
G01 X250.366 Y250.874
G01 X250.396 Y250.924
G01 X250.417 Y250.970
G01 X250.429 Y251.012
G01 X250.434 Y251.048
G01 X250.432 Y251.077
G01 X250.425 Y251.096
G01 X250.412 Y251.106
G01 X250.397 Y251.106
G01 X250.381 Y251.095
G01 X250.365 Y251.072
G01 X250.351 Y251.040
G01 X250.340 Y250.997
G01 X250.334 Y250.944
G01 X250.335 Y250.884
G01 X250.343 Y250.816
G01 X250.358 Y250.748
G01 X250.359 Y250.744
G01 X250.377 Y250.692
G01 X250.385 Y250.667
G01 X250.404 Y250.627
G01 X250.419 Y250.589
G01 X250.438 Y250.556
G01 X250.456 Y250.523
G01 X250.462 Y250.510
G01 X250.482 Y250.483
G01 X250.501 Y250.455
G01 X250.514 Y250.434
G01 X250.536 Y250.409
G01 X250.557 Y250.383
G01 X250.573 Y250.361
G01 X250.599 Y250.337
G01 X250.623 Y250.312
G01 X250.640 Y250.293
G01 X250.671 Y250.268
G01 X250.702 Y250.241
G01 X250.712 Y250.231
G01 X250.753 Y250.204
G01 X250.788 Y250.177
G01 X250.843 Y250.147
G01 X250.866 Y250.132
G01 X250.943 Y250.097
G01 X250.945 Y250.096
G01 X251.022 Y250.069
G01 X251.095 Y250.051
G01 X251.163 Y250.042
G01 X251.225 Y250.041
G01 X251.277 Y250.047
G01 X251.319 Y250.059
G01 X251.350 Y250.074
G01 X251.369 Y250.092
G01 X251.376 Y250.110
G01 X251.370 Y250.126
G01 X251.352 Y250.139
G01 X251.323 Y250.147
G01 X251.283 Y250.147
G01 X251.234 Y250.140
G01 X251.177 Y250.123
G01 X251.114 Y250.095
G01 X251.046 Y250.056
G01 X250.977 Y250.006
G01 X250.927 Y249.960
G01 X250.909 Y249.945
G01 X250.872 Y249.904
G01 X250.842 Y249.873
G01 X250.815 Y249.836
G01 X250.787 Y249.801
G01 X250.779 Y249.791
G01 X250.759 Y249.756
G01 X250.737 Y249.723
G01 X250.722 Y249.702
G01 X250.706 Y249.667
G01 X250.688 Y249.633
G01 X250.672 Y249.605
G01 X250.659 Y249.568
G01 X250.644 Y249.531
G01 X250.631 Y249.503
G01 X250.620 Y249.461
G01 X250.606 Y249.418
G01 X250.599 Y249.399
G01 X250.590 Y249.347
G01 X250.577 Y249.294
G01 X250.570 Y249.227
G01 X250.565 Y249.189
G01 X250.563 Y249.100
G01 X250.562 Y249.089
G01 X250.569 Y248.994
G01 X250.585 Y248.907
G01 X250.607 Y248.830
G01 X250.634 Y248.763
G01 X250.665 Y248.709
G01 X250.697 Y248.668
G01 X250.728 Y248.641
G01 X250.756 Y248.627
G01 X250.779 Y248.626
G01 X250.795 Y248.637
G01 X250.802 Y248.660
G01 X250.799 Y248.693
G01 X250.783 Y248.734
G01 X250.754 Y248.780
G01 X250.712 Y248.831
G01 X250.656 Y248.883
G01 X250.587 Y248.935
G01 X250.504 Y248.983
G01 X250.429 Y249.018
G01 X250.411 Y249.027
G01 X250.348 Y249.047
G01 X250.307 Y249.064
G01 X250.253 Y249.075
G01 X250.202 Y249.089
G01 X250.194 Y249.092
G01 X250.147 Y249.097
G01 X250.101 Y249.105
G01 X250.076 Y249.110
G01 X250.032 Y249.111
G01 X249.988 Y249.114
G01 X249.953 Y249.118
G01 X249.909 Y249.115
G01 X249.865 Y249.114
G01 X249.829 Y249.115
G01 X249.781 Y249.108
G01 X249.733 Y249.103
G01 X249.706 Y249.101
G01 X249.651 Y249.088
G01 X249.594 Y249.077
G01 X249.586 Y249.076
G01 X249.519 Y249.054
G01 X249.471 Y249.041
G01 X249.386 Y249.006
G01 X249.365 Y248.998
G01 X249.269 Y248.947
G01 X249.184 Y248.892
G01 X249.112 Y248.833
G01 X249.054 Y248.773
G01 X249.010 Y248.716
G01 X248.981 Y248.662
G01 X248.964 Y248.615
G01 X248.961 Y248.578
G01 X248.969 Y248.551
G01 X248.987 Y248.537
G01 X249.012 Y248.538
G01 X249.043 Y248.554
G01 X249.077 Y248.585
G01 X249.111 Y248.633
G01 X249.144 Y248.697
G01 X249.172 Y248.775
G01 X249.194 Y248.868
G01 X249.207 Y248.972
G01 X249.209 Y249.072
G01 X249.210 Y249.086
G01 X249.203 Y249.164
G01 X249.201 Y249.208
G01 X249.189 Y249.271
G01 X249.180 Y249.333
G01 X249.180 Y249.334
G01 X249.164 Y249.387
G01 X249.151 Y249.439
G01 X249.146 Y249.464
G01 X249.127 Y249.510
G01 X249.111 Y249.556
G01 X249.100 Y249.592
G01 X249.077 Y249.636
G01 X249.057 Y249.680
G01 X249.041 Y249.718
G01 X249.013 Y249.762
G01 X248.987 Y249.808
G01 X248.971 Y249.838
G01 X248.935 Y249.886
G01 X248.900 Y249.937
G01 X248.892 Y249.950
G01 X248.842 Y250.005
G01 X248.804 Y250.052
G01 X248.735 Y250.118
G01 X248.712 Y250.143
G01 X248.616 Y250.219
G01 X248.519 Y250.282
G01 X248.425 Y250.331
G01 X248.336 Y250.365
G01 X248.256 Y250.385
G01 X248.185 Y250.393
G01 X248.127 Y250.390
G01 X248.084 Y250.377
G01 X248.057 Y250.358
G01 X248.047 Y250.334
G01 X248.056 Y250.309
G01 X248.082 Y250.284
G01 X248.126 Y250.264
G01 X248.187 Y250.249
G01 X248.263 Y250.244
G01 X248.353 Y250.249
G01 X248.454 Y250.267
G01 X248.563 Y250.299
G01 X248.675 Y250.344
G01 X248.678 Y250.346
G01 X248.760 Y250.390
G01 X248.796 Y250.407
G01 X248.858 Y250.450
G01 X248.914 Y250.484
G01 X248.962 Y250.525
G01 X249.012 Y250.563
G01 X249.030 Y250.575
G01 X249.069 Y250.616
G01 X249.109 Y250.654
G01 X249.139 Y250.679
G01 X249.173 Y250.721
G01 X249.208 Y250.761
G01 X249.240 Y250.794
G01 X249.271 Y250.841
G01 X249.305 Y250.886
G01 X249.331 Y250.918
G01 X249.361 Y250.973
G01 X249.395 Y251.028
G01 X249.410 Y251.049
G01 X249.441 Y251.119
G01 X249.475 Y251.183
G01 X249.507 Y251.275
G01 X249.525 Y251.318
G01 X249.559 Y251.443
G01 X249.561 Y251.451
G01 X249.582 Y251.578
G01 X249.590 Y251.697
G01 X249.586 Y251.805
G01 X249.571 Y251.899
G01 X249.548 Y251.977
G01 X249.518 Y252.037
G01 X249.486 Y252.079
G01 X249.454 Y252.101
G01 X249.425 Y252.104
G01 X249.401 Y252.088
G01 X249.387 Y252.055
G01 X249.383 Y252.005
G01 X249.394 Y251.940
G01 X249.420 Y251.864
G01 X249.462 Y251.779
G01 X249.522 Y251.688
G01 X249.601 Y251.594
G01 X249.696 Y251.500
G01 X249.782 Y251.432
G01 X249.809 Y251.410
G01 X249.883 Y251.364
G01 X249.936 Y251.326
G01 X250.001 Y251.294
G01 X250.063 Y251.259
G01 X250.077 Y251.250
G01 X250.136 Y251.228
G01 X250.194 Y251.203
G01 X250.228 Y251.187
G01 X250.286 Y251.171
G01 X250.342 Y251.153
G01 X250.388 Y251.136
G01 X250.447 Y251.125
G01 X250.506 Y251.112
G01 X250.553 Y251.099
G01 X250.619 Y251.093
G01 X250.686 Y251.084
G01 X250.719 Y251.078
G01 X250.798 Y251.077
G01 X250.878 Y251.072
G01 X250.883 Y251.072
G01 X250.982 Y251.079
G01 X251.042 Y251.080
G01 X251.171 Y251.100
G01 X251.193 Y251.103
G01 X251.332 Y251.137
G01 X251.457 Y251.182
G01 X251.566 Y251.235
G01 X251.657 Y251.292
G01 X251.728 Y251.351
G01 X251.779 Y251.409
G01 X251.811 Y251.462
G01 X251.823 Y251.506
G01 X251.816 Y251.540
G01 X251.793 Y251.559
G01 X251.756 Y251.562
G01 X251.707 Y251.547
G01 X251.650 Y251.512
G01 X251.587 Y251.457
G01 X251.523 Y251.381
G01 X251.459 Y251.284
G01 X251.401 Y251.168
G01 X251.350 Y251.035
G01 X251.317 Y250.911
G01 X251.309 Y250.886
G01 X251.294 Y250.786
G01 X251.281 Y250.724
G01 X251.278 Y250.641
G01 X251.269 Y250.561
G01 X251.268 Y250.552
G01 X251.272 Y250.481
G01 X251.272 Y250.411
G01 X251.271 Y250.374
G01 X251.280 Y250.310
G01 X251.287 Y250.245
G01 X251.289 Y250.194
G01 X251.305 Y250.131
G01 X251.317 Y250.067
G01 X251.325 Y250.014
G01 X251.347 Y249.948
G01 X251.367 Y249.880
G01 X251.376 Y249.839
G01 X251.409 Y249.764
G01 X251.437 Y249.686
G01 X251.442 Y249.672
G01 X251.490 Y249.583
G01 X251.521 Y249.516
G01 X251.591 Y249.406
G01 X251.610 Y249.374
G01 X251.706 Y249.248
G01 X251.807 Y249.141
G01 X251.909 Y249.053
G01 X252.008 Y248.985
G01 X252.101 Y248.937
G01 X252.184 Y248.908
G01 X252.254 Y248.898
G01 X252.308 Y248.903
G01 X252.343 Y248.922
G01 X252.357 Y248.951
G01 X252.349 Y248.988
G01 X252.317 Y249.028
G01 X252.262 Y249.069
G01 X252.185 Y249.107
G01 X252.085 Y249.138
G01 X251.966 Y249.159
G01 X251.830 Y249.167
G01 X251.678 Y249.160
G01 X251.530 Y249.138
G01 X251.516 Y249.136
G01 X251.404 Y249.106
G01 X251.346 Y249.094
G01 X251.258 Y249.060
G01 X251.172 Y249.034
G01 X251.101 Y248.998
G01 X251.029 Y248.966
G01 X250.998 Y248.954
G01 X250.938 Y248.916
G01 X250.875 Y248.881
G01 X250.828 Y248.858
G01 X250.773 Y248.815
G01 X250.716 Y248.776
G01 X250.666 Y248.745
G01 X250.612 Y248.695
G01 X250.555 Y248.648
G01 X250.515 Y248.618
G01 X250.458 Y248.556
G01 X250.397 Y248.497
G01 X250.377 Y248.479
G01 X250.315 Y248.399
G01 X250.256 Y248.333
G01 X250.184 Y248.224
G01 X250.153 Y248.181
G01 X250.069 Y248.029
G01 X250.005 Y247.880
G01 X249.961 Y247.738
G01 X249.936 Y247.607
G01 X249.927 Y247.490
G01 X249.934 Y247.391
G01 X249.952 Y247.313
G01 X249.980 Y247.257
G01 X250.014 Y247.225
G01 X250.049 Y247.218
G01 X250.082 Y247.237
G01 X250.110 Y247.280
G01 X250.128 Y247.347
G01 X250.133 Y247.435
G01 X250.122 Y247.541
G01 X250.093 Y247.664
G01 X250.044 Y247.798
G01 X249.974 Y247.941
G01 X249.882 Y248.088
G01 X249.800 Y248.193
G01 X249.769 Y248.236
G01 X249.695 Y248.312
G01 X249.636 Y248.379
G01 X249.567 Y248.436
G01 X249.503 Y248.496
G01 X249.485 Y248.515
G01 X249.419 Y248.559
G01 X249.357 Y248.606
G01 X249.317 Y248.640
G01 X249.251 Y248.676
G01 X249.188 Y248.715
G01 X249.136 Y248.750
G01 X249.066 Y248.781
G01 X248.996 Y248.816
G01 X248.945 Y248.844
G01 X248.864 Y248.872
G01 X248.783 Y248.905
G01 X248.749 Y248.920
G01 X248.649 Y248.945
G01 X248.551 Y248.977
G01 X248.423 Y248.998
G01 X248.356 Y249.013
G01 X248.184 Y249.028
G01 X248.167 Y249.030
G01 X247.990 Y249.029
G01 X247.827 Y249.012
G01 X247.683 Y248.980
G01 X247.560 Y248.938
G01 X247.461 Y248.888
G01 X247.386 Y248.834
G01 X247.338 Y248.781
G01 X247.316 Y248.732
G01 X247.319 Y248.692
G01 X247.347 Y248.664
G01 X247.396 Y248.653
G01 X247.464 Y248.660
G01 X247.548 Y248.689
G01 X247.645 Y248.742
G01 X247.749 Y248.819
G01 X247.857 Y248.921
G01 X247.965 Y249.048
G01 X248.068 Y249.198
G01 X248.141 Y249.333
G01 X248.162 Y249.369
G01 X248.208 Y249.481
G01 X248.245 Y249.559
G01 X248.272 Y249.655
G01 X248.305 Y249.747
G01 X248.312 Y249.764
G01 X248.328 Y249.849
G01 X248.348 Y249.932
G01 X248.362 Y249.980
G01 X248.369 Y250.061
G01 X248.380 Y250.140
G01 X248.392 Y250.205
G01 X248.392 Y250.285
G01 X248.396 Y250.367
G01 X248.403 Y250.432
G01 X248.395 Y250.520
G01 X248.392 Y250.609
G01 X248.392 Y250.657
G01 X248.375 Y250.760
G01 X248.363 Y250.865
G01 X248.362 Y250.877
G01 X248.330 Y251.003
G01 X248.314 Y251.086
G01 X248.259 Y251.246
G01 X248.249 Y251.280
G01 X248.171 Y251.457
G01 X248.082 Y251.612
G01 X247.988 Y251.744
G01 X247.891 Y251.850
G01 X247.796 Y251.930
G01 X247.708 Y251.985
G01 X247.631 Y252.013
G01 X247.570 Y252.019
G01 X247.527 Y252.002
G01 X247.507 Y251.968
G01 X247.511 Y251.918
G01 X247.542 Y251.857
G01 X247.601 Y251.790
G01 X247.688 Y251.721
G01 X247.803 Y251.653
G01 X247.943 Y251.593
G01 X248.109 Y251.542
G01 X248.295 Y251.506
G01 X248.470 Y251.491
G01 X248.499 Y251.487
G01 X248.636 Y251.491
G01 X248.716 Y251.488
G01 X248.827 Y251.503
G01 X248.937 Y251.510
G01 X248.943 Y251.510
G01 X249.036 Y251.532
G01 X249.129 Y251.548
G01 X249.174 Y251.554
G01 X249.257 Y251.582
G01 X249.340 Y251.605
G01 X249.405 Y251.620
G01 X249.483 Y251.654
G01 X249.563 Y251.685
G01 X249.631 Y251.707
G01 X249.711 Y251.751
G01 X249.794 Y251.791
G01 X249.847 Y251.814
G01 X249.935 Y251.872
G01 X250.027 Y251.926
G01 X250.050 Y251.938
G01 X250.151 Y252.018
G01 X250.234 Y252.076
G01 X250.357 Y252.189
G01 X250.398 Y252.224
G01 X250.539 Y252.378
G01 X250.656 Y252.534
G01 X250.746 Y252.686
G01 X250.812 Y252.830
G01 X250.853 Y252.961
G01 X250.871 Y253.076
G01 X250.869 Y253.169
G01 X250.850 Y253.237
G01 X250.818 Y253.278
G01 X250.777 Y253.290
G01 X250.731 Y253.272
G01 X250.686 Y253.223
G01 X250.646 Y253.143
G01 X250.615 Y253.035
G01 X250.597 Y252.901
G01 X250.597 Y252.743
G01 X250.617 Y252.567
G01 X250.660 Y252.374
G01 X250.724 Y252.183
G01 X250.727 Y252.172
G01 X250.793 Y252.030
G01 X250.819 Y251.963
G01 X250.884 Y251.856
G01 X250.936 Y251.755
G01 X250.999 Y251.670
G01 X251.056 Y251.583
G01 X251.077 Y251.550
G01 X251.140 Y251.480
G01 X251.199 Y251.408
G01 X251.239 Y251.355
G01 X251.305 Y251.294
G01 X251.368 Y251.229
G01 X251.420 Y251.173
G01 X251.494 Y251.116
G01 X251.566 Y251.054
G01 X251.616 Y251.008
G01 X251.705 Y250.951
G01 X251.793 Y250.887
G01 X251.824 Y250.864
G01 X251.937 Y250.803
G01 X252.038 Y250.742
G01 X252.189 Y250.677
G01 X252.254 Y250.644
G01 X252.461 Y250.574
G01 X252.467 Y250.572
G01 X252.672 Y250.524
G01 X252.863 Y250.499
G01 X253.036 Y250.496
G01 X253.187 Y250.511
G01 X253.312 Y250.542
G01 X253.409 Y250.583
G01 X253.474 Y250.632
G01 X253.508 Y250.681
G01 X253.509 Y250.728
G01 X253.479 Y250.766
G01 X253.419 Y250.791
G01 X253.331 Y250.799
G01 X253.219 Y250.787
G01 X253.087 Y250.750
G01 X252.940 Y250.686
G01 X252.781 Y250.595
G01 X252.617 Y250.475
G01 X252.452 Y250.327
G01 X252.334 Y250.196
G01 X252.292 Y250.153
G01 X252.210 Y250.039
G01 X252.141 Y249.953
G01 X252.083 Y249.852
G01 X252.020 Y249.756
G01 X252.003 Y249.732
G01 X251.962 Y249.639
G01 X251.916 Y249.549
G01 X251.884 Y249.493
G01 X251.853 Y249.403
G01 X251.817 Y249.314
G01 X251.785 Y249.241
G01 X251.762 Y249.147
G01 X251.734 Y249.052
G01 X251.709 Y248.981
G01 X251.692 Y248.874
G01 X251.670 Y248.767
G01 X251.657 Y248.717
G01 X251.648 Y248.589
G01 X251.630 Y248.459
G01 X251.630 Y248.455
G01 X251.632 Y248.294
G01 X251.627 Y248.202
G01 X251.646 Y247.991
G01 X251.647 Y247.961
G01 X251.688 Y247.738
G01 X251.746 Y247.538
G01 X251.818 Y247.363
G01 X251.899 Y247.218
G01 X251.984 Y247.104
G01 X252.068 Y247.022
G01 X252.146 Y246.972
G01 X252.212 Y246.954
G01 X252.262 Y246.966
G01 X252.291 Y247.006
G01 X252.296 Y247.069
G01 X252.272 Y247.152
G01 X252.218 Y247.250
G01 X252.132 Y247.358
G01 X252.014 Y247.470
G01 X251.864 Y247.582
G01 X251.684 Y247.688
G01 X251.476 Y247.783
G01 X251.286 Y247.846
G01 X251.243 Y247.862
G01 X251.089 Y247.895
G01 X250.990 Y247.923
G01 X250.862 Y247.937
G01 X250.737 Y247.958
G01 X250.720 Y247.962
G01 X250.609 Y247.963
G01 X250.500 Y247.969
G01 X250.441 Y247.976
G01 X250.339 Y247.967
G01 X250.238 Y247.964
G01 X250.156 Y247.964
G01 X250.056 Y247.947
G01 X249.955 Y247.934
G01 X249.872 Y247.927
G01 X249.766 Y247.899
G01 X249.658 Y247.876
G01 X249.595 Y247.865
G01 X249.474 Y247.822
G01 X249.349 Y247.785
G01 X249.329 Y247.780
G01 X249.185 Y247.714
G01 X249.080 Y247.674
G01 X248.900 Y247.574
G01 X248.853 Y247.551
G01 X248.652 Y247.415
G01 X248.478 Y247.271
G01 X248.336 Y247.125
G01 X248.225 Y246.981
G01 X248.145 Y246.846
G01 X248.097 Y246.724
G01 X248.077 Y246.622
G01 X248.083 Y246.544
G01 X248.112 Y246.494
G01 X248.159 Y246.474
G01 X248.218 Y246.489
G01 X248.286 Y246.539
G01 X248.355 Y246.625
G01 X248.422 Y246.746
G01 X248.479 Y246.900
G01 X248.523 Y247.085
G01 X248.549 Y247.298
G01 X248.553 Y247.533
G01 X248.534 Y247.759
G01 X248.532 Y247.787
G01 X248.498 Y247.959
G01 X248.484 Y248.053
G01 X248.442 Y248.189
G01 X248.409 Y248.324
G01 X248.409 Y248.326
G01 X248.361 Y248.437
G01 X248.321 Y248.549
G01 X248.305 Y248.599
G01 X248.253 Y248.695
G01 X248.206 Y248.792
G01 X248.174 Y248.867
G01 X248.115 Y248.955
G01 X248.060 Y249.046
G01 X248.018 Y249.125
G01 X247.948 Y249.212
G01 X247.882 Y249.304
G01 X247.840 Y249.367
G01 X247.752 Y249.459
G01 X247.667 Y249.559
G01 X247.645 Y249.588
G01 X247.528 Y249.691
G01 X247.436 Y249.784
G01 X247.276 Y249.905
G01 X247.218 Y249.953
G01 X246.999 Y250.093
G01 X246.783 Y250.202
G01 X246.576 Y250.280
G01 X246.385 Y250.329
G01 X246.215 Y250.351
G01 X246.070 Y250.349
G01 X245.955 Y250.327
G01 X245.874 Y250.289
G01 X245.829 Y250.241
G01 X245.822 Y250.189
G01 X245.852 Y250.137
G01 X245.920 Y250.093
G01 X246.024 Y250.060
G01 X246.160 Y250.045
G01 X246.325 Y250.053
G01 X246.515 Y250.086
G01 X246.724 Y250.148
G01 X246.947 Y250.241
G01 X247.174 Y250.363
G01 X247.178 Y250.365
G01 X247.340 Y250.478
G01 X247.410 Y250.521
G01 X247.530 Y250.624
G01 X247.638 Y250.706
G01 X247.728 Y250.803
G01 X247.823 Y250.892
G01 X247.855 Y250.920
G01 X247.927 Y251.013
G01 X248.002 Y251.100
G01 X248.057 Y251.158
G01 X248.116 Y251.252
G01 X248.181 Y251.342
G01 X248.238 Y251.416
G01 X248.291 Y251.518
G01 X248.349 Y251.618
G01 X248.396 Y251.689
G01 X248.444 Y251.808
G01 X248.501 Y251.926
G01 X248.526 Y251.972
G01 X248.573 Y252.119
G01 X248.628 Y252.258
G01 X248.672 Y252.448
G01 X248.699 Y252.541
G01 X248.738 Y252.796
G01 X248.742 Y252.815
G01 X248.756 Y253.074
G01 X248.745 Y253.311
G01 X248.712 Y253.523
G01 X248.661 Y253.703
G01 X248.597 Y253.849
G01 X248.526 Y253.958
G01 X248.453 Y254.029
G01 X248.385 Y254.061
G01 X248.328 Y254.054
G01 X248.288 Y254.012
G01 X248.269 Y253.936
G01 X248.277 Y253.830
G01 X248.315 Y253.700
G01 X248.386 Y253.551
G01 X248.492 Y253.388
G01 X248.634 Y253.218
G01 X248.812 Y253.047
G01 X249.023 Y252.881
G01 X249.212 Y252.764
G01 X249.266 Y252.726
G01 X249.425 Y252.650
G01 X249.537 Y252.588
G01 X249.673 Y252.539
G01 X249.804 Y252.483
G01 X249.831 Y252.470
G01 X249.953 Y252.440
G01 X250.072 Y252.403
G01 X250.142 Y252.378
G01 X250.258 Y252.360
G01 X250.372 Y252.336
G01 X250.465 Y252.313
G01 X250.583 Y252.305
G01 X250.701 Y252.292
G01 X250.794 Y252.277
G01 X250.923 Y252.280
G01 X251.054 Y252.276
G01 X251.121 Y252.271
G01 X251.272 Y252.287
G01 X251.428 Y252.294
G01 X251.440 Y252.294
G01 X251.627 Y252.330
G01 X251.746 Y252.345
G01 X251.985 Y252.410
G01 X252.030 Y252.420
G01 X252.289 Y252.517
G01 X252.518 Y252.629
G01 X252.713 Y252.753
G01 X252.872 Y252.881
G01 X252.992 Y253.008
G01 X253.074 Y253.127
G01 X253.118 Y253.231
G01 X253.127 Y253.316
G01 X253.104 Y253.375
G01 X253.052 Y253.403
G01 X252.978 Y253.397
G01 X252.885 Y253.354
G01 X252.781 Y253.271
G01 X252.671 Y253.148
G01 X252.563 Y252.986
G01 X252.462 Y252.785
G01 X252.374 Y252.550
G01 X252.305 Y252.284
G01 X252.269 Y252.037
G01 X252.260 Y251.992
G01 X252.252 Y251.797
G01 X252.241 Y251.679
G01 X252.252 Y251.520
G01 X252.252 Y251.365
G01 X252.252 Y251.351
G01 X252.274 Y251.217
G01 X252.289 Y251.084
G01 X252.294 Y251.017
G01 X252.326 Y250.897
G01 X252.351 Y250.777
G01 X252.367 Y250.681
G01 X252.409 Y250.567
G01 X252.445 Y250.450
G01 X252.471 Y250.352
G01 X252.526 Y250.234
G01 X252.576 Y250.111
G01 X252.603 Y250.035
G01 X252.679 Y249.905
G01 X252.747 Y249.767
G01 X252.761 Y249.737
G01 X252.866 Y249.584
G01 X252.939 Y249.464
G01 X253.091 Y249.278
G01 X253.134 Y249.219
G01 X253.338 Y249.008
G01 X253.546 Y248.832
G01 X253.751 Y248.692
G01 X253.946 Y248.589
G01 X254.125 Y248.522
G01 X254.281 Y248.489
G01 X254.408 Y248.486
G01 X254.502 Y248.509
G01 X254.558 Y248.553
G01 X254.573 Y248.611
G01 X254.546 Y248.678
G01 X254.476 Y248.747
G01 X254.362 Y248.811
G01 X254.208 Y248.864
G01 X254.016 Y248.900
G01 X253.791 Y248.914
G01 X253.537 Y248.900
G01 X253.260 Y248.856
G01 X252.988 Y248.784
G01 X252.967 Y248.779
G01 X252.764 Y248.700
G01 X252.664 Y248.667
G01 X252.509 Y248.587
G01 X252.359 Y248.521
G01 X252.236 Y248.441
G01 X252.111 Y248.369
G01 X252.059 Y248.342
G01 X251.956 Y248.260
G01 X251.851 Y248.184
G01 X251.771 Y248.132
G01 X251.680 Y248.045
G01 X251.584 Y247.961
G01 X251.500 Y247.895
G01 X251.413 Y247.795
G01 X251.320 Y247.699
G01 X251.253 Y247.635
G01 X251.164 Y247.514
G01 X251.067 Y247.396
G01 X251.033 Y247.358
G01 X250.938 Y247.203
G01 X250.845 Y247.071
G01 X250.740 Y246.864
G01 X250.691 Y246.779
G01 X250.574 Y246.494
G01 X250.572 Y246.490
G01 X250.488 Y246.212
G01 X250.438 Y245.951
G01 X250.420 Y245.714
G01 X250.429 Y245.507
G01 X250.461 Y245.334
G01 X250.511 Y245.202
G01 X250.572 Y245.111
G01 X250.638 Y245.066
G01 X250.702 Y245.065
G01 X250.757 Y245.108
G01 X250.796 Y245.194
G01 X250.813 Y245.320
G01 X250.803 Y245.480
G01 X250.762 Y245.670
G01 X250.685 Y245.883
G01 X250.570 Y246.113
G01 X250.417 Y246.353
G01 X250.225 Y246.596
G01 X250.054 Y246.768
G01 X249.995 Y246.834
G01 X249.846 Y246.956
G01 X249.732 Y247.061
G01 X249.598 Y247.149
G01 X249.472 Y247.243
G01 X249.438 Y247.271
G01 X249.313 Y247.336
G01 X249.194 Y247.407
G01 X249.118 Y247.457
G01 X248.996 Y247.507
G01 X248.877 Y247.564
G01 X248.779 Y247.615
G01 X248.650 Y247.656
G01 X248.523 Y247.703
G01 X248.427 Y247.743
G01 X248.281 Y247.775
G01 X248.134 Y247.816
G01 X248.069 Y247.837
G01 X247.893 Y247.860
G01 X247.714 Y247.896
G01 X247.489 Y247.908
G01 X247.366 Y247.921
G01 X247.072 Y247.914
G01 X247.036 Y247.914
G01 X246.730 Y247.878
G01 X246.453 Y247.815
G01 X246.211 Y247.732
G01 X246.008 Y247.635
G01 X245.849 Y247.530
G01 X245.733 Y247.423
G01 X245.663 Y247.323
G01 X245.637 Y247.236
G01 X245.654 Y247.169
G01 X245.709 Y247.128
G01 X245.799 Y247.120
G01 X245.917 Y247.148
G01 X246.059 Y247.217
G01 X246.216 Y247.328
G01 X246.382 Y247.483
G01 X246.549 Y247.681
G01 X246.710 Y247.920
G01 X246.859 Y248.199
G01 X246.960 Y248.449
G01 X246.988 Y248.511
G01 X247.045 Y248.716
G01 X247.093 Y248.852
G01 X247.122 Y249.024
G01 X247.161 Y249.191
G01 X247.168 Y249.217
G01 X247.179 Y249.367
G01 X247.198 Y249.514
G01 X247.212 Y249.597
G01 X247.209 Y249.735
G01 X247.213 Y249.873
G01 X247.221 Y249.985
G01 X247.205 Y250.122
G01 X247.197 Y250.261
G01 X247.195 Y250.373
G01 X247.165 Y250.520
G01 X247.143 Y250.671
G01 X247.134 Y250.755
G01 X247.085 Y250.923
G01 X247.046 Y251.097
G01 X247.041 Y251.121
G01 X246.964 Y251.324
G01 X246.919 Y251.466
G01 X246.798 Y251.721
G01 X246.773 Y251.782
G01 X246.607 Y252.064
G01 X246.429 Y252.308
G01 X246.244 Y252.511
G01 X246.062 Y252.670
G01 X245.888 Y252.786
G01 X245.731 Y252.859
G01 X245.598 Y252.891
G01 X245.496 Y252.886
G01 X245.429 Y252.849
G01 X245.404 Y252.785
G01 X245.423 Y252.701
G01 X245.489 Y252.605
G01 X245.603 Y252.502
G01 X245.764 Y252.401
G01 X245.970 Y252.310
G01 X246.220 Y252.235
G01 X246.506 Y252.182
G01 X246.826 Y252.157
G01 X247.128 Y252.164
G01 X247.170 Y252.163
G01 X247.403 Y252.195
G01 X247.534 Y252.206
G01 X247.719 Y252.251
G01 X247.902 Y252.284
G01 X247.908 Y252.285
G01 X248.060 Y252.339
G01 X248.213 Y252.384
G01 X248.285 Y252.402
G01 X248.417 Y252.463
G01 X248.552 Y252.518
G01 X248.656 Y252.555
G01 X248.779 Y252.626
G01 X248.906 Y252.692
G01 X249.015 Y252.742
G01 X249.138 Y252.829
G01 X249.267 Y252.910
G01 X249.353 Y252.959
G01 X249.485 Y253.070
G01 X249.626 Y253.176
G01 X249.665 Y253.202
G01 X249.815 Y253.351
G01 X249.944 Y253.464
G01 X250.121 Y253.670
G01 X250.187 Y253.739
G01 X250.390 Y254.019
G01 X250.552 Y254.296
G01 X250.673 Y254.563
G01 X250.753 Y254.811
G01 X250.795 Y255.034
G01 X250.802 Y255.223
G01 X250.781 Y255.374
G01 X250.736 Y255.481
G01 X250.675 Y255.540
G01 X250.606 Y255.550
G01 X250.534 Y255.509
G01 X250.469 Y255.418
G01 X250.418 Y255.278
G01 X250.388 Y255.094
G01 X250.385 Y254.870
G01 X250.414 Y254.611
G01 X250.480 Y254.325
G01 X250.586 Y254.018
G01 X250.728 Y253.710
G01 X250.733 Y253.700
G01 X250.868 Y253.477
G01 X250.921 Y253.377
G01 X251.048 Y253.211
G01 X251.150 Y253.058
G01 X251.269 Y252.931
G01 X251.379 Y252.799
G01 X251.415 Y252.751
G01 X251.531 Y252.649
G01 X251.641 Y252.542
G01 X251.714 Y252.464
G01 X251.833 Y252.377
G01 X251.948 Y252.284
G01 X252.041 Y252.202
G01 X252.172 Y252.123
G01 X252.299 Y252.037
G01 X252.389 Y251.971
G01 X252.543 Y251.896
G01 X252.695 Y251.810
G01 X252.752 Y251.775
G01 X252.944 Y251.700
G01 X253.121 Y251.617
G01 X253.370 Y251.542
G01 X253.488 Y251.499
G01 X253.825 Y251.426
G01 X253.844 Y251.421
G01 X254.182 Y251.381
G01 X254.494 Y251.377
G01 X254.772 Y251.403
G01 X255.011 Y251.456
G01 X255.205 Y251.528
G01 X255.350 Y251.612
G01 X255.445 Y251.701
G01 X255.488 Y251.787
G01 X255.480 Y251.861
G01 X255.423 Y251.916
G01 X255.321 Y251.945
G01 X255.178 Y251.942
G01 X255.000 Y251.901
G01 X254.795 Y251.817
G01 X254.569 Y251.689
G01 X254.332 Y251.514
G01 X254.091 Y251.292
G01 X253.854 Y251.026
G01 X253.686 Y250.790
G01 X253.629 Y250.718
G01 X253.518 Y250.518
G01 X253.425 Y250.373
G01 X253.350 Y250.199
G01 X253.266 Y250.034
G01 X253.246 Y249.997
G01 X253.196 Y249.840
G01 X253.138 Y249.688
G01 X253.098 Y249.595
G01 X253.065 Y249.445
G01 X253.025 Y249.298
G01 X252.986 Y249.177
G01 X252.967 Y249.023
G01 X252.939 Y248.870
G01 X252.912 Y248.750
G01 X252.906 Y248.580
G01 X252.889 Y248.408
G01 X252.878 Y248.323
G01 X252.886 Y248.122
G01 X252.882 Y247.916
G01 X252.882 Y247.904
G01 X252.913 Y247.654
G01 X252.923 Y247.502
G01 X252.989 Y247.180
G01 X252.998 Y247.126
G01 X253.102 Y246.782
G01 X253.229 Y246.476
G01 X253.373 Y246.214
G01 X253.527 Y246.000
G01 X253.680 Y245.836
G01 X253.827 Y245.723
G01 X253.958 Y245.660
G01 X254.065 Y245.644
G01 X254.140 Y245.673
G01 X254.179 Y245.741
G01 X254.174 Y245.842
G01 X254.121 Y245.969
G01 X254.018 Y246.113
G01 X253.864 Y246.268
G01 X253.659 Y246.423
G01 X253.403 Y246.572
G01 X253.102 Y246.706
G01 X252.759 Y246.818
G01 X252.444 Y246.885
G01 X252.381 Y246.902
G01 X252.130 Y246.927
G01 X251.974 Y246.952
G01 X251.769 Y246.951
G01 X251.568 Y246.962
G01 X251.548 Y246.964
G01 X251.372 Y246.946
G01 X251.199 Y246.938
G01 X251.109 Y246.937
G01 X250.951 Y246.906
G01 X250.793 Y246.883
G01 X250.667 Y246.870
G01 X250.515 Y246.825
G01 X250.361 Y246.787
G01 X250.232 Y246.762
G01 X250.074 Y246.700
G01 X249.910 Y246.645
G01 X249.811 Y246.617
G01 X249.635 Y246.529
G01 X249.449 Y246.451
G01 X249.413 Y246.438
G01 X249.205 Y246.312
G01 X249.046 Y246.229
G01 X248.791 Y246.047
G01 X248.715 Y245.999
G01 X248.427 Y245.753
G01 X248.184 Y245.500
G01 X247.989 Y245.248
G01 X247.842 Y245.007
G01 X247.743 Y244.784
G01 X247.690 Y244.588
G01 X247.678 Y244.427
G01 X247.702 Y244.308
G01 X247.755 Y244.236
G01 X247.831 Y244.215
G01 X247.920 Y244.249
G01 X248.016 Y244.338
G01 X248.108 Y244.483
G01 X248.189 Y244.681
G01 X248.251 Y244.929
G01 X248.287 Y245.221
G01 X248.290 Y245.553
G01 X248.255 Y245.915
G01 X248.184 Y246.268
G01 X248.179 Y246.301
G01 X248.095 Y246.565
G01 X248.060 Y246.700
G01 X247.970 Y246.905
G01 X247.896 Y247.105
G01 X247.803 Y247.270
G01 X247.721 Y247.436
G01 X247.690 Y247.506
G01 X247.593 Y247.645
G01 X247.504 Y247.787
G01 X247.443 Y247.895
G01 X247.338 Y248.019
G01 X247.239 Y248.149
G01 X247.161 Y248.262
G01 X247.039 Y248.382
G01 X246.923 Y248.509
G01 X246.847 Y248.600
G01 X246.699 Y248.724
G01 X246.554 Y248.860
G01 X246.510 Y248.904
G01 X246.318 Y249.040
G01 X246.158 Y249.168
G01 X245.899 Y249.321
G01 X245.797 Y249.388
G01 X245.439 Y249.563
G01 X245.091 Y249.692
G01 X244.763 Y249.776
G01 X244.464 Y249.818
G01 X244.201 Y249.822
G01 X243.982 Y249.793
G01 X243.811 Y249.740
G01 X243.695 Y249.669
G01 X243.635 Y249.588
G01 X243.633 Y249.507
G01 X243.688 Y249.434
G01 X243.799 Y249.378
G01 X243.961 Y249.347
G01 X244.170 Y249.348
G01 X244.419 Y249.387
G01 X244.700 Y249.470
G01 X245.006 Y249.599
G01 X245.327 Y249.777
G01 X245.654 Y250.003
G01 X245.885 Y250.205
G01 X245.977 Y250.278
G01 X246.143 Y250.457
G01 X246.289 Y250.596
G01 X246.411 Y250.759
G01 X246.540 Y250.911
G01 X246.580 Y250.955
G01 X246.673 Y251.108
G01 X246.773 Y251.253
G01 X246.843 Y251.347
G01 X246.917 Y251.499
G01 X246.999 Y251.646
G01 X247.072 Y251.767
G01 X247.134 Y251.927
G01 X247.204 Y252.086
G01 X247.263 Y252.204
G01 X247.316 Y252.388
G01 X247.380 Y252.572
G01 X247.411 Y252.651
G01 X247.456 Y252.875
G01 X247.515 Y253.098
G01 X247.549 Y253.384
G01 X247.575 Y253.535
G01 X247.589 Y253.913
G01 X247.592 Y253.953
G01 X247.570 Y254.344
G01 X247.513 Y254.698
G01 X247.428 Y255.009
G01 X247.321 Y255.271
G01 X247.201 Y255.479
G01 X247.076 Y255.630
G01 X246.956 Y255.724
G01 X246.849 Y255.760
G01 X246.764 Y255.741
G01 X246.711 Y255.671
G01 X246.695 Y255.555
G01 X246.724 Y255.399
G01 X246.802 Y255.212
G01 X246.933 Y255.001
G01 X247.118 Y254.777
G01 X247.357 Y254.548
G01 X247.650 Y254.324
G01 X247.992 Y254.113
G01 X248.299 Y253.966
G01 X248.378 Y253.923
G01 X248.631 Y253.835
G01 X248.803 Y253.763
G01 X249.017 Y253.712
G01 X249.223 Y253.650
G01 X249.258 Y253.638
G01 X249.446 Y253.612
G01 X249.630 Y253.577
G01 X249.735 Y253.553
G01 X249.910 Y253.545
G01 X250.084 Y253.529
G01 X250.225 Y253.510
G01 X250.400 Y253.518
G01 X250.576 Y253.518
G01 X250.717 Y253.512
G01 X250.906 Y253.537
G01 X251.098 Y253.553
G01 X251.203 Y253.557
G01 X251.420 Y253.606
G01 X251.645 Y253.642
G01 X251.672 Y253.645
G01 X251.936 Y253.727
G01 X252.115 Y253.771
G01 X252.449 Y253.904
G01 X252.524 Y253.930
G01 X252.891 Y254.115
G01 X253.210 Y254.320
G01 X253.478 Y254.534
G01 X253.691 Y254.750
G01 X253.848 Y254.957
G01 X253.949 Y255.147
G01 X253.998 Y255.309
G01 X253.998 Y255.436
G01 X253.954 Y255.519
G01 X253.874 Y255.553
G01 X253.765 Y255.533
G01 X253.636 Y255.454
G01 X253.497 Y255.316
G01 X253.357 Y255.119
G01 X253.225 Y254.863
G01 X253.110 Y254.554
G01 X253.020 Y254.195
G01 X252.963 Y253.794
G01 X252.949 Y253.417
G01 X252.944 Y253.359
G01 X252.966 Y253.066
G01 X252.968 Y252.899
G01 X253.010 Y252.664
G01 X253.037 Y252.433
G01 X253.038 Y252.422
G01 X253.093 Y252.227
G01 X253.137 Y252.033
G01 X253.154 Y251.940
G01 X253.221 Y251.769
G01 X253.278 Y251.596
G01 X253.316 Y251.461
G01 X253.396 Y251.302
G01 X253.468 Y251.137
G01 X253.522 Y250.997
G01 X253.621 Y250.836
G01 X253.713 Y250.667
G01 X253.767 Y250.557
G01 X253.896 Y250.381
G01 X254.018 Y250.195
G01 X254.046 Y250.148
G01 X254.221 Y249.947
G01 X254.351 Y249.778
G01 X254.596 Y249.538
G01 X254.675 Y249.453
G01 X255.007 Y249.178
G01 X255.340 Y248.954
G01 X255.662 Y248.784
G01 X255.963 Y248.666
G01 X256.235 Y248.597
G01 X256.468 Y248.574
G01 X256.655 Y248.590
G01 X256.788 Y248.638
G01 X256.864 Y248.710
G01 X256.878 Y248.798
G01 X256.829 Y248.890
G01 X256.717 Y248.979
G01 X256.544 Y249.053
G01 X256.313 Y249.105
G01 X256.031 Y249.127
G01 X255.703 Y249.110
G01 X255.339 Y249.050
G01 X254.946 Y248.942
G01 X254.554 Y248.789
G01 X254.536 Y248.783
G01 X254.249 Y248.633
G01 X254.118 Y248.573
G01 X253.902 Y248.429
G01 X253.702 Y248.313
G01 X253.534 Y248.175
G01 X253.362 Y248.049
G01 X253.298 Y248.006
G01 X253.162 Y247.870
G01 X253.020 Y247.743
G01 X252.916 Y247.657
G01 X252.798 Y247.516
G01 X252.674 Y247.381
G01 X252.564 Y247.271
G01 X252.456 Y247.115
G01 X252.338 Y246.963
G01 X252.249 Y246.857
G01 X252.143 Y246.671
G01 X252.024 Y246.488
G01 X251.977 Y246.422
G01 X251.868 Y246.189
G01 X251.753 Y245.977
G01 X251.638 Y245.671
G01 X251.577 Y245.532
G01 X251.459 Y245.116
G01 X251.453 Y245.097
G01 X251.377 Y244.682
G01 X251.347 Y244.298
G01 X251.359 Y243.953
G01 X251.405 Y243.656
G01 X251.479 Y243.412
G01 X251.572 Y243.228
G01 X251.674 Y243.107
G01 X251.776 Y243.050
G01 X251.868 Y243.057
G01 X251.940 Y243.127
G01 X251.983 Y243.255
G01 X251.989 Y243.435
G01 X251.950 Y243.661
G01 X251.861 Y243.925
G01 X251.718 Y244.216
G01 X251.518 Y244.526
G01 X251.262 Y244.844
G01 X250.950 Y245.159
G01 X250.673 Y245.383
G01 X250.586 Y245.462
G01 X250.348 Y245.615
G01 X250.174 Y245.743
G01 X249.966 Y245.849
G01 X249.768 Y245.964
G01 X249.722 Y245.994
G01 X249.532 Y246.068
G01 X249.349 Y246.151
G01 X249.237 Y246.208
G01 X249.055 Y246.261
G01 X248.876 Y246.322
G01 X248.729 Y246.380
G01 X248.541 Y246.417
G01 X248.353 Y246.463
G01 X248.207 Y246.505
G01 X247.998 Y246.527
G01 X247.786 Y246.561
G01 X247.683 Y246.582
G01 X247.433 Y246.587
G01 X247.179 Y246.609
G01 X247.167 Y246.610
G01 X246.854 Y246.592
G01 X246.669 Y246.591
G01 X246.264 Y246.535
G01 X246.200 Y246.529
G01 X245.769 Y246.428
G01 X245.384 Y246.295
G01 X245.052 Y246.138
G01 X244.778 Y245.968
G01 X244.567 Y245.792
G01 X244.418 Y245.622
G01 X244.333 Y245.467
G01 X244.308 Y245.339
G01 X244.340 Y245.245
G01 X244.423 Y245.195
G01 X244.550 Y245.195
G01 X244.712 Y245.252
G01 X244.900 Y245.370
G01 X245.104 Y245.550
G01 X245.313 Y245.793
G01 X245.517 Y246.098
G01 X245.707 Y246.460
G01 X245.872 Y246.874
G01 X245.978 Y247.254
G01 X246.005 Y247.334
G01 X246.055 Y247.639
G01 X246.099 Y247.831
G01 X246.114 Y248.082
G01 X246.144 Y248.327
G01 X246.148 Y248.355
G01 X246.140 Y248.571
G01 X246.143 Y248.784
G01 X246.149 Y248.897
G01 X246.123 Y249.093
G01 X246.107 Y249.288
G01 X246.101 Y249.445
G01 X246.058 Y249.635
G01 X246.024 Y249.828
G01 X246.003 Y249.988
G01 X245.939 Y250.187
G01 X245.885 Y250.393
G01 X245.858 Y250.515
G01 X245.765 Y250.739
G01 X245.683 Y250.974
G01 X245.670 Y251.017
G01 X245.533 Y251.283
G01 X245.444 Y251.483
G01 X245.240 Y251.812
G01 X245.188 Y251.905
G01 X244.910 Y252.277
G01 X244.621 Y252.593
G01 X244.329 Y252.850
G01 X244.046 Y253.047
G01 X243.783 Y253.184
G01 X243.550 Y253.263
G01 X243.356 Y253.289
G01 X243.211 Y253.267
G01 X243.121 Y253.206
G01 X243.093 Y253.114
G01 X243.130 Y253.000
G01 X243.235 Y252.876
G01 X243.407 Y252.751
G01 X243.646 Y252.635
G01 X243.947 Y252.540
G01 X244.304 Y252.473
G01 X244.711 Y252.444
G01 X245.159 Y252.458
G01 X245.593 Y252.517
G01 X245.637 Y252.521
G01 X245.966 Y252.603
G01 X246.136 Y252.636
G01 X246.393 Y252.729
G01 X246.645 Y252.804
G01 X246.852 Y252.904
G01 X247.061 Y252.991
G01 X247.151 Y253.024
G01 X247.328 Y253.132
G01 X247.508 Y253.229
G01 X247.645 Y253.295
G01 X247.805 Y253.414
G01 X247.971 Y253.524
G01 X248.115 Y253.611
G01 X248.271 Y253.750
G01 X248.437 Y253.882
G01 X248.553 Y253.966
G01 X248.716 Y254.139
G01 X248.893 Y254.304
G01 X248.949 Y254.353
G01 X249.130 Y254.578
G01 X249.298 Y254.762
G01 X249.506 Y255.066
G01 X249.595 Y255.183
G01 X249.835 Y255.605
G01 X250.018 Y256.017
G01 X250.145 Y256.408
G01 X250.219 Y256.767
G01 X250.243 Y257.085
G01 X250.226 Y257.351
G01 X250.173 Y257.560
G01 X250.096 Y257.704
G01 X250.002 Y257.781
G01 X249.904 Y257.787
G01 X249.811 Y257.722
G01 X249.734 Y257.589
G01 X249.684 Y257.391
G01 X249.670 Y257.135
G01 X249.699 Y256.826
G01 X249.778 Y256.476
G01 X249.912 Y256.092
G01 X250.104 Y255.687
G01 X250.355 Y255.270
G01 X250.581 Y254.975
G01 X250.663 Y254.855
G01 X250.868 Y254.640
G01 X251.026 Y254.451
G01 X251.214 Y254.290
G01 X251.388 Y254.122
G01 X251.439 Y254.069
G01 X251.617 Y253.944
G01 X251.786 Y253.812
G01 X251.896 Y253.718
G01 X252.073 Y253.616
G01 X252.246 Y253.506
G01 X252.386 Y253.407
G01 X252.577 Y253.319
G01 X252.764 Y253.221
G01 X252.902 Y253.141
G01 X253.121 Y253.063
G01 X253.340 Y252.970
G01 X253.432 Y252.927
G01 X253.701 Y252.855
G01 X253.965 Y252.766
G01 X254.310 Y252.702
G01 X254.489 Y252.659
G01 X254.949 Y252.612
G01 X254.994 Y252.606
G01 X255.467 Y252.602
G01 X255.899 Y252.643
G01 X256.280 Y252.722
G01 X256.603 Y252.831
G01 X256.862 Y252.960
G01 X257.053 Y253.099
G01 X257.173 Y253.236
G01 X257.222 Y253.362
G01 X257.203 Y253.464
G01 X257.120 Y253.533
G01 X256.978 Y253.559
G01 X256.786 Y253.535
G01 X256.551 Y253.454
G01 X256.285 Y253.310
G01 X255.997 Y253.103
G01 X255.700 Y252.829
G01 X255.405 Y252.492
G01 X255.123 Y252.094
G01 X254.922 Y251.735
G01 X254.863 Y251.640
G01 X254.737 Y251.343
G01 X254.636 Y251.139
G01 X254.558 Y250.885
G01 X254.467 Y250.642
G01 X254.449 Y250.598
G01 X254.403 Y250.374
G01 X254.346 Y250.155
G01 X254.308 Y250.029
G01 X254.285 Y249.818
G01 X254.253 Y249.610
G01 X254.218 Y249.441
G01 X254.215 Y249.229
G01 X254.201 Y249.016
G01 X254.181 Y248.846
G01 X254.198 Y248.616
G01 X254.202 Y248.383
G01 X254.198 Y248.257
G01 X254.240 Y247.990
G01 X254.266 Y247.715
G01 X254.267 Y247.685
G01 X254.346 Y247.359
G01 X254.384 Y247.142
G01 X254.519 Y246.727
G01 X254.544 Y246.638
G01 X254.738 Y246.182
G01 X254.959 Y245.782
G01 X255.196 Y245.445
G01 X255.438 Y245.173
G01 X255.674 Y244.970
G01 X255.893 Y244.835
G01 X256.083 Y244.765
G01 X256.234 Y244.758
G01 X256.336 Y244.805
G01 X256.381 Y244.901
G01 X256.362 Y245.035
G01 X256.276 Y245.197
G01 X256.118 Y245.377
G01 X255.889 Y245.562
G01 X255.590 Y245.742
G01 X255.225 Y245.904
G01 X254.799 Y246.041
G01 X254.320 Y246.141
G01 X253.868 Y246.187
G01 X253.797 Y246.198
G01 X253.444 Y246.195
G01 X253.240 Y246.205
G01 X252.956 Y246.172
G01 X252.676 Y246.159
G01 X252.662 Y246.158
G01 X252.423 Y246.107
G01 X252.187 Y246.070
G01 X252.072 Y246.056
G01 X251.862 Y245.990
G01 X251.651 Y245.934
G01 X251.485 Y245.899
G01 X251.287 Y245.816
G01 X251.084 Y245.742
G01 X250.912 Y245.688
G01 X250.710 Y245.581
G01 X250.499 Y245.484
G01 X250.363 Y245.428
G01 X250.143 Y245.287
G01 X249.909 Y245.156
G01 X249.851 Y245.126
G01 X249.596 Y244.931
G01 X249.384 Y244.789
G01 X249.077 Y244.513
G01 X248.970 Y244.427
G01 X248.615 Y244.050
G01 X248.322 Y243.670
G01 X248.094 Y243.299
G01 X247.930 Y242.948
G01 X247.828 Y242.629
G01 X247.782 Y242.354
G01 X247.788 Y242.131
G01 X247.836 Y241.969
G01 X247.917 Y241.876
G01 X248.021 Y241.854
G01 X248.136 Y241.908
G01 X248.251 Y242.038
G01 X248.354 Y242.242
G01 X248.435 Y242.516
G01 X248.482 Y242.855
G01 X248.487 Y243.250
G01 X248.443 Y243.693
G01 X248.344 Y244.172
G01 X248.192 Y244.652
G01 X248.186 Y244.677
G01 X248.029 Y245.031
G01 X247.967 Y245.195
G01 X247.812 Y245.463
G01 X247.689 Y245.713
G01 X247.537 Y245.924
G01 X247.400 Y246.139
G01 X247.353 Y246.220
G01 X247.201 Y246.394
G01 X247.060 Y246.573
G01 X246.965 Y246.705
G01 X246.805 Y246.856
G01 X246.653 Y247.015
G01 X246.531 Y247.156
G01 X246.353 Y247.297
G01 X246.180 Y247.449
G01 X246.061 Y247.564
G01 X245.847 Y247.705
G01 X245.637 Y247.862
G01 X245.563 Y247.923
G01 X245.292 Y248.071
G01 X245.050 Y248.225
G01 X244.692 Y248.386
G01 X244.533 Y248.469
G01 X244.044 Y248.643
G01 X244.024 Y248.651
G01 X243.536 Y248.774
G01 X243.081 Y248.839
G01 X242.670 Y248.852
G01 X242.314 Y248.819
G01 X242.020 Y248.750
G01 X241.795 Y248.653
G01 X241.645 Y248.541
G01 X241.571 Y248.424
G01 X241.575 Y248.314
G01 X241.655 Y248.223
G01 X241.806 Y248.163
G01 X242.023 Y248.143
G01 X242.297 Y248.172
G01 X242.620 Y248.259
G01 X242.980 Y248.408
G01 X243.366 Y248.622
G01 X243.765 Y248.904
G01 X244.166 Y249.252
G01 X244.454 Y249.564
G01 X244.556 Y249.663
G01 X244.756 Y249.933
G01 X244.923 Y250.131
G01 X245.065 Y250.371
G01 X245.218 Y250.596
G01 X245.258 Y250.650
G01 X245.361 Y250.870
G01 X245.474 Y251.081
G01 X245.551 Y251.211
G01 X245.628 Y251.424
G01 X245.715 Y251.632
G01 X245.795 Y251.802
G01 X245.853 Y252.024
G01 X245.923 Y252.244
G01 X245.985 Y252.413
G01 X246.027 Y252.661
G01 X246.084 Y252.911
G01 X246.117 Y253.030
G01 X246.142 Y253.327
G01 X246.188 Y253.629
G01 X246.190 Y253.641
G01 X246.193 Y254.015
G01 X246.207 Y254.234
G01 X246.171 Y254.721
G01 X246.169 Y254.795
G01 X246.082 Y255.314
G01 X245.955 Y255.781
G01 X245.795 Y256.186
G01 X245.614 Y256.522
G01 X245.422 Y256.786
G01 X245.233 Y256.973
G01 X245.057 Y257.085
G01 X244.907 Y257.122
G01 X244.795 Y257.090
G01 X244.730 Y256.993
G01 X244.723 Y256.841
G01 X244.779 Y256.643
G01 X244.905 Y256.409
G01 X245.105 Y256.152
G01 X245.378 Y255.884
G01 X245.725 Y255.618
G01 X246.141 Y255.364
G01 X246.620 Y255.136
G01 X247.062 Y254.980
G01 X247.156 Y254.942
G01 X247.513 Y254.859
G01 X247.739 Y254.792
G01 X248.036 Y254.755
G01 X248.323 Y254.700
G01 X248.357 Y254.692
G01 X248.614 Y254.686
G01 X248.865 Y254.665
G01 X248.999 Y254.648
G01 X249.233 Y254.664
G01 X249.466 Y254.668
G01 X249.652 Y254.663
G01 X249.881 Y254.699
G01 X250.112 Y254.724
G01 X250.303 Y254.736
G01 X250.544 Y254.797
G01 X250.792 Y254.845
G01 X250.939 Y254.867
G01 X251.212 Y254.960
G01 X251.496 Y255.038
G01 X251.547 Y255.050
G01 X251.874 Y255.193
G01 X252.115 Y255.281
G01 X252.522 Y255.498
G01 X252.635 Y255.551
G01 X253.095 Y255.850
G01 X253.491 Y256.168
G01 X253.817 Y256.492
G01 X254.070 Y256.810
G01 X254.251 Y257.110
G01 X254.362 Y257.378
G01 X254.406 Y257.603
G01 X254.391 Y257.775
G01 X254.325 Y257.884
G01 X254.217 Y257.923
G01 X254.079 Y257.886
G01 X253.923 Y257.770
G01 X253.761 Y257.574
G01 X253.606 Y257.300
G01 X253.470 Y256.950
G01 X253.363 Y256.532
G01 X253.297 Y256.052
G01 X253.278 Y255.521
G01 X253.314 Y255.005
G01 X253.315 Y254.950
G01 X253.387 Y254.556
G01 X253.412 Y254.351
G01 X253.503 Y254.042
G01 X253.571 Y253.738
G01 X253.674 Y253.485
G01 X253.760 Y253.232
G01 X253.792 Y253.122
G01 X253.905 Y252.906
G01 X254.006 Y252.686
G01 X254.073 Y252.519
G01 X254.200 Y252.320
G01 X254.318 Y252.116
G01 X254.409 Y251.939
G01 X254.561 Y251.744
G01 X254.704 Y251.539
G01 X254.794 Y251.395
G01 X254.985 Y251.189
G01 X255.166 Y250.967
G01 X255.219 Y250.898
G01 X255.470 Y250.667
G01 X255.673 Y250.455
G01 X256.017 Y250.186
G01 X256.146 Y250.073
G01 X256.624 Y249.758
G01 X257.094 Y249.510
G01 X257.544 Y249.331
G01 X257.960 Y249.217
G01 X258.331 Y249.163
G01 X258.645 Y249.164
G01 X258.893 Y249.210
G01 X259.068 Y249.290
G01 X259.163 Y249.395
G01 X259.176 Y249.510
G01 X259.105 Y249.624
G01 X258.953 Y249.725
G01 X258.722 Y249.799
G01 X258.420 Y249.836
G01 X258.053 Y249.825
G01 X257.633 Y249.759
G01 X257.170 Y249.631
G01 X256.677 Y249.436
G01 X256.168 Y249.173
G01 X255.803 Y248.930
G01 X255.654 Y248.842
G01 X255.386 Y248.619
G01 X255.150 Y248.446
G01 X254.947 Y248.238
G01 X254.736 Y248.047
G01 X254.669 Y247.990
G01 X254.508 Y247.791
G01 X254.340 Y247.603
G01 X254.221 Y247.481
G01 X254.087 Y247.280
G01 X253.944 Y247.087
G01 X253.817 Y246.929
G01 X253.699 Y246.712
G01 X253.569 Y246.499
G01 X253.465 Y246.344
G01 X253.355 Y246.092
G01 X253.229 Y245.842
G01 X253.171 Y245.738
G01 X253.066 Y245.428
G01 X252.941 Y245.125
G01 X252.840 Y244.724
G01 X252.775 Y244.518
G01 X252.684 Y243.982
G01 X252.673 Y243.931
G01 X252.632 Y243.377
G01 X252.647 Y242.867
G01 X252.710 Y242.415
G01 X252.812 Y242.029
G01 X252.943 Y241.716
G01 X253.091 Y241.484
G01 X253.243 Y241.334
G01 X253.385 Y241.267
G01 X253.506 Y241.283
G01 X253.593 Y241.377
G01 X253.634 Y241.542
G01 X253.620 Y241.771
G01 X253.542 Y242.054
G01 X253.394 Y242.379
G01 X253.172 Y242.732
G01 X252.874 Y243.102
G01 X252.500 Y243.475
G01 X252.055 Y243.838
G01 X251.651 Y244.100
G01 X251.544 Y244.178
G01 X251.205 Y244.348
G01 X250.974 Y244.483
G01 X250.683 Y244.594
G01 X250.405 Y244.720
G01 X250.355 Y244.744
G01 X250.095 Y244.815
G01 X249.843 Y244.899
G01 X249.698 Y244.954
G01 X249.454 Y244.997
G01 X249.212 Y245.051
G01 X249.017 Y245.105
G01 X248.769 Y245.125
G01 X248.522 Y245.159
G01 X248.324 Y245.194
G01 X248.054 Y245.193
G01 X247.780 Y245.207
G01 X247.633 Y245.220
G01 X247.318 Y245.192
G01 X246.994 Y245.184
G01 X246.959 Y245.184
G01 X246.571 Y245.118
G01 X246.315 Y245.090
G01 X245.819 Y244.964
G01 X245.713 Y244.943
G01 X245.166 Y244.751
G01 X244.682 Y244.524
G01 X244.270 Y244.274
G01 X243.934 Y244.012
G01 X243.679 Y243.753
G01 X243.506 Y243.508
G01 X243.411 Y243.292
G01 X243.391 Y243.118
G01 X243.440 Y242.996
G01 X243.549 Y242.937
G01 X243.708 Y242.949
G01 X243.905 Y243.039
G01 X244.128 Y243.210
G01 X244.362 Y243.464
G01 X244.596 Y243.801
G01 X244.815 Y244.215
G01 X245.007 Y244.703
G01 X245.162 Y245.255
G01 X245.251 Y245.779
G01 X245.269 Y245.862
G01 X245.293 Y246.274
G01 X245.321 Y246.511
G01 X245.305 Y246.846
G01 X245.311 Y247.173
G01 X245.312 Y247.191
G01 X245.270 Y247.473
G01 X245.245 Y247.752
G01 X245.238 Y247.887
G01 X245.177 Y248.137
G01 X245.129 Y248.388
G01 X245.101 Y248.584
G01 X245.019 Y248.822
G01 X244.949 Y249.065
G01 X244.900 Y249.270
G01 X244.791 Y249.513
G01 X244.694 Y249.766
G01 X244.640 Y249.929
G01 X244.491 Y250.197
G01 X244.357 Y250.480
G01 X244.327 Y250.550
G01 X244.120 Y250.863
G01 X243.971 Y251.120
G01 X243.673 Y251.500
G01 X243.581 Y251.631
G01 X243.170 Y252.074
G01 X242.751 Y252.444
G01 X242.336 Y252.738
G01 X241.941 Y252.956
G01 X241.579 Y253.099
G01 X241.262 Y253.173
G01 X241.003 Y253.183
G01 X240.812 Y253.139
G01 X240.698 Y253.051
G01 X240.666 Y252.932
G01 X240.722 Y252.793
G01 X240.865 Y252.649
G01 X241.096 Y252.513
G01 X241.410 Y252.398
G01 X241.801 Y252.317
G01 X242.261 Y252.280
G01 X242.781 Y252.297
G01 X243.347 Y252.375
G01 X243.918 Y252.514
G01 X243.947 Y252.520
G01 X244.371 Y252.675
G01 X244.566 Y252.734
G01 X244.891 Y252.893
G01 X245.191 Y253.018
G01 X245.449 Y253.178
G01 X245.710 Y253.320
G01 X245.807 Y253.369
G01 X246.021 Y253.532
G01 X246.241 Y253.682
G01 X246.401 Y253.782
G01 X246.590 Y253.956
G01 X246.787 Y254.120
G01 X246.959 Y254.251
G01 X247.138 Y254.447
G01 X247.328 Y254.637
G01 X247.471 Y254.766
G01 X247.652 Y255.003
G01 X247.850 Y255.234
G01 X247.926 Y255.316
G01 X248.120 Y255.619
G01 X248.318 Y255.889
G01 X248.532 Y256.291
G01 X248.640 Y256.470
G01 X248.881 Y257.023
G01 X248.892 Y257.046
G01 X249.072 Y257.603
G01 X249.183 Y258.125
G01 X249.230 Y258.601
G01 X249.219 Y259.017
G01 X249.162 Y259.362
G01 X249.067 Y259.630
G01 X248.948 Y259.812
G01 X248.818 Y259.905
G01 X248.691 Y259.908
G01 X248.580 Y259.822
G01 X248.498 Y259.650
G01 X248.458 Y259.400
G01 X248.472 Y259.078
G01 X248.547 Y258.696
G01 X248.692 Y258.266
G01 X248.911 Y257.801
G01 X249.207 Y257.316
G01 X249.579 Y256.824
G01 X249.919 Y256.464
G01 X250.026 Y256.340
G01 X250.324 Y256.086
G01 X250.540 Y255.877
G01 X250.807 Y255.693
G01 X251.057 Y255.498
G01 X251.116 Y255.448
G01 X251.363 Y255.312
G01 X251.599 Y255.164
G01 X251.743 Y255.065
G01 X251.984 Y254.959
G01 X252.218 Y254.842
G01 X252.409 Y254.736
G01 X252.661 Y254.651
G01 X252.910 Y254.553
G01 X253.101 Y254.468
G01 X253.385 Y254.400
G01 X253.670 Y254.314
G01 X253.806 Y254.267
G01 X254.148 Y254.214
G01 X254.493 Y254.138
G01 X254.508 Y254.134
G01 X254.940 Y254.102
G01 X255.193 Y254.069
G01 X255.758 Y254.073
G01 X255.846 Y254.069
G01 X256.453 Y254.129
G01 X257.002 Y254.240
G01 X257.482 Y254.393
G01 X257.885 Y254.576
G01 X258.205 Y254.777
G01 X258.436 Y254.982
G01 X258.578 Y255.176
G01 X258.632 Y255.346
G01 X258.602 Y255.478
G01 X258.495 Y255.560
G01 X258.319 Y255.580
G01 X258.085 Y255.530
G01 X257.804 Y255.401
G01 X257.491 Y255.190
G01 X257.160 Y254.894
G01 X256.824 Y254.514
G01 X256.499 Y254.053
G01 X256.197 Y253.516
G01 X255.982 Y253.016
G01 X255.931 Y252.911
G01 X255.807 Y252.505
G01 X255.712 Y252.250
G01 X255.646 Y251.909
G01 X255.560 Y251.581
G01 X255.549 Y251.543
G01 X255.521 Y251.247
G01 X255.477 Y250.957
G01 X255.448 Y250.804
G01 X255.448 Y250.533
G01 X255.434 Y250.263
G01 X255.413 Y250.049
G01 X255.437 Y249.782
G01 X255.448 Y249.513
G01 X255.447 Y249.292
G01 X255.498 Y249.008
G01 X255.534 Y248.719
G01 X255.548 Y248.547
G01 X255.635 Y248.225
G01 X255.703 Y247.891
G01 X255.713 Y247.831
G01 X255.851 Y247.443
G01 X255.935 Y247.157
G01 X256.153 Y246.671
G01 X256.205 Y246.536
G01 X256.515 Y245.981
G01 X256.850 Y245.500
G01 X257.199 Y245.099
G01 X257.546 Y244.782
G01 X257.877 Y244.551
G01 X258.177 Y244.403
G01 X258.433 Y244.334
G01 X258.632 Y244.339
G01 X258.763 Y244.407
G01 X258.815 Y244.528
G01 X258.783 Y244.690
G01 X258.661 Y244.880
G01 X258.447 Y245.082
G01 X258.142 Y245.282
G01 X257.749 Y245.467
G01 X257.275 Y245.623
G01 X256.727 Y245.737
G01 X256.117 Y245.799
G01 X255.517 Y245.798
G01 X255.456 Y245.801
G01 X254.995 Y245.749
G01 X254.758 Y245.736
G01 X254.393 Y245.656
G01 X254.038 Y245.601
G01 X253.739 Y245.503
G01 X253.440 Y245.423
G01 X253.312 Y245.395
G01 X253.054 Y245.282
G01 X252.792 Y245.183
G01 X252.595 Y245.118
G01 X252.357 Y244.987
G01 X252.112 Y244.868
G01 X251.901 Y244.777
G01 X251.665 Y244.618
G01 X251.418 Y244.469
G01 X251.245 Y244.376
G01 X250.993 Y244.173
G01 X250.724 Y243.982
G01 X250.639 Y243.926
G01 X250.354 Y243.655
G01 X250.094 Y243.438
G01 X249.759 Y243.065
G01 X249.618 Y242.924
G01 X249.217 Y242.399
G01 X248.896 Y241.877
G01 X248.654 Y241.373
G01 X248.491 Y240.904
G01 X248.401 Y240.482
G01 X248.377 Y240.121
G01 X248.410 Y239.832
G01 X248.490 Y239.626
G01 X248.602 Y239.508
G01 X248.734 Y239.485
G01 X248.871 Y239.558
G01 X248.998 Y239.726
G01 X249.101 Y239.985
G01 X249.167 Y240.330
G01 X249.183 Y240.752
G01 X249.140 Y241.241
G01 X249.029 Y241.783
G01 X248.844 Y242.364
G01 X248.582 Y242.971
G01 X248.330 Y243.411
G01 X248.242 Y243.586
G01 X248.005 Y243.913
G01 X247.826 Y244.196
G01 X247.603 Y244.446
G01 X247.399 Y244.704
G01 X247.340 Y244.785
G01 X247.124 Y244.985
G01 X246.920 Y245.194
G01 X246.791 Y245.339
G01 X246.570 Y245.508
G01 X246.359 Y245.688
G01 X246.188 Y245.847
G01 X245.948 Y245.999
G01 X245.714 Y246.164
G01 X245.544 Y246.296
G01 X245.264 Y246.442
G01 X244.987 Y246.605
G01 X244.872 Y246.681
G01 X244.524 Y246.826
G01 X244.186 Y246.993
G01 X243.735 Y247.140
G01 X243.503 Y247.231
G01 X242.897 Y247.377
G01 X242.837 Y247.394
G01 X242.204 Y247.485
G01 X241.619 Y247.508
G01 X241.095 Y247.470
G01 X240.644 Y247.383
G01 X240.276 Y247.257
G01 X239.997 Y247.106
G01 X239.813 Y246.944
G01 X239.726 Y246.786
G01 X239.735 Y246.646
G01 X239.836 Y246.539
G01 X240.023 Y246.479
G01 X240.286 Y246.478
G01 X240.617 Y246.545
G01 X241.000 Y246.689
G01 X241.423 Y246.916
G01 X241.871 Y247.229
G01 X242.327 Y247.627
G01 X242.777 Y248.109
G01 X243.111 Y248.553
G01 X243.206 Y248.668
G01 X243.429 Y249.044
G01 X243.601 Y249.297
G01 X243.751 Y249.622
G01 X243.917 Y249.932
G01 X243.949 Y249.985
G01 X244.051 Y250.278
G01 X244.166 Y250.560
G01 X244.240 Y250.721
G01 X244.308 Y250.998
G01 X244.390 Y251.270
G01 X244.467 Y251.489
G01 X244.509 Y251.771
G01 X244.567 Y252.052
G01 X244.623 Y252.276
G01 X244.643 Y252.585
G01 X244.680 Y252.897
G01 X244.707 Y253.065
G01 X244.700 Y253.427
G01 X244.716 Y253.797
G01 X244.719 Y253.839
G01 X244.674 Y254.287
G01 X244.661 Y254.584
G01 X244.557 Y255.159
G01 X244.540 Y255.284
G01 X244.363 Y255.925
G01 X244.142 Y256.497
G01 X243.888 Y256.988
G01 X243.615 Y257.392
G01 X243.338 Y257.704
G01 X243.072 Y257.923
G01 X242.832 Y258.048
G01 X242.634 Y258.084
G01 X242.491 Y258.038
G01 X242.415 Y257.918
G01 X242.417 Y257.735
G01 X242.504 Y257.503
G01 X242.682 Y257.235
G01 X242.954 Y256.947
G01 X243.320 Y256.654
G01 X243.777 Y256.371
G01 X244.318 Y256.113
G01 X244.937 Y255.893
G01 X245.531 Y255.750
G01 X245.622 Y255.723
G01 X246.093 Y255.663
G01 X246.360 Y255.613
G01 X246.744 Y255.605
G01 X247.119 Y255.572
G01 X247.137 Y255.570
G01 X247.463 Y255.595
G01 X247.784 Y255.602
G01 X247.937 Y255.599
G01 X248.228 Y255.649
G01 X248.519 Y255.685
G01 X248.744 Y255.702
G01 X249.022 Y255.777
G01 X249.304 Y255.837
G01 X249.543 Y255.878
G01 X249.829 Y255.982
G01 X250.125 Y256.073
G01 X250.316 Y256.123
G01 X250.633 Y256.271
G01 X250.966 Y256.401
G01 X251.049 Y256.431
G01 X251.421 Y256.642
G01 X251.728 Y256.793
G01 X252.183 Y257.101
G01 X252.342 Y257.197
G01 X252.880 Y257.632
G01 X253.336 Y258.082
G01 X253.704 Y258.532
G01 X253.984 Y258.966
G01 X254.176 Y259.368
G01 X254.285 Y259.724
G01 X254.317 Y260.018
G01 X254.282 Y260.240
G01 X254.191 Y260.377
G01 X254.057 Y260.423
G01 X253.895 Y260.371
G01 X253.719 Y260.219
G01 X253.546 Y259.968
G01 X253.391 Y259.619
G01 X253.267 Y259.180
G01 X253.189 Y258.658
G01 X253.167 Y258.065
G01 X253.212 Y257.414
G01 X253.326 Y256.749
G01 X253.330 Y256.719
G01 X253.474 Y256.221
G01 X253.525 Y255.996
G01 X253.682 Y255.613
G01 X253.799 Y255.262
G01 X253.962 Y254.956
G01 X254.104 Y254.646
G01 X254.151 Y254.533
G01 X254.320 Y254.276
G01 X254.474 Y254.014
G01 X254.575 Y253.824
G01 X254.758 Y253.596
G01 X254.929 Y253.359
G01 X255.065 Y253.152
G01 X255.275 Y252.933
G01 X255.475 Y252.702
G01 X255.612 Y252.529
G01 X255.867 Y252.305
G01 X256.114 Y252.061
G01 X256.202 Y251.967
G01 X256.531 Y251.723
G01 X256.824 Y251.476
G01 X257.263 Y251.201
G01 X257.461 Y251.062
G01 X258.068 Y250.747
G01 X258.097 Y250.731
G01 X258.716 Y250.482
G01 X259.303 Y250.314
G01 X259.841 Y250.224
G01 X260.315 Y250.202
G01 X260.714 Y250.241
G01 X261.026 Y250.327
G01 X261.243 Y250.448
G01 X261.360 Y250.589
G01 X261.374 Y250.734
G01 X261.285 Y250.867
G01 X261.097 Y250.973
G01 X260.815 Y251.038
G01 X260.449 Y251.049
G01 X260.010 Y250.993
G01 X259.510 Y250.862
G01 X258.964 Y250.650
G01 X258.389 Y250.352
G01 X257.801 Y249.968
G01 X257.363 Y249.608
G01 X257.216 Y249.499
G01 X256.903 Y249.179
G01 X256.650 Y248.950
G01 X256.420 Y248.661
G01 X256.177 Y248.391
G01 X256.118 Y248.330
G01 X255.942 Y248.060
G01 X255.756 Y247.803
G01 X255.633 Y247.648
G01 X255.493 Y247.383
G01 X255.342 Y247.125
G01 X255.206 Y246.917
G01 X255.091 Y246.638
G01 X254.960 Y246.362
G01 X254.848 Y246.151
G01 X254.748 Y245.835
G01 X254.629 Y245.519
G01 X254.564 Y245.367
G01 X254.477 Y244.984
G01 X254.364 Y244.599
G01 X254.357 Y244.579
G01 X254.288 Y244.094
G01 X254.230 Y243.807
G01 X254.190 Y243.168
G01 X254.178 Y243.065
G01 X254.198 Y242.370
G01 X254.281 Y241.737
G01 X254.417 Y241.179
G01 X254.593 Y240.706
G01 X254.796 Y240.328
G01 X255.011 Y240.048
G01 X255.220 Y239.871
G01 X255.409 Y239.795
G01 X255.562 Y239.818
G01 X255.663 Y239.932
G01 X255.701 Y240.130
G01 X255.662 Y240.399
G01 X255.539 Y240.727
G01 X255.325 Y241.098
G01 X255.016 Y241.497
G01 X254.612 Y241.907
G01 X254.115 Y242.312
G01 X253.530 Y242.696
G01 X252.977 Y242.981
G01 X252.866 Y243.045
G01 X252.412 Y243.219
G01 X252.134 Y243.346
G01 X251.751 Y243.448
G01 X251.384 Y243.572
G01 X251.345 Y243.587
G01 X251.011 Y243.642
G01 X250.685 Y243.714
G01 X250.516 Y243.759
G01 X250.208 Y243.781
G01 X249.904 Y243.818
G01 X249.663 Y243.858
G01 X249.359 Y243.851
G01 X249.053 Y243.860
G01 X248.802 Y243.879
G01 X248.478 Y243.844
G01 X248.147 Y243.826
G01 X247.950 Y243.823
G01 X247.580 Y243.751
G01 X247.197 Y243.700
G01 X247.125 Y243.693
G01 X246.678 Y243.567
G01 X246.343 Y243.495
G01 X245.780 Y243.287
G01 X245.619 Y243.237
G01 X244.965 Y242.930
G01 X244.393 Y242.588
G01 X243.911 Y242.224
G01 X243.524 Y241.856
G01 X243.234 Y241.499
G01 X243.042 Y241.169
G01 X242.944 Y240.884
G01 X242.932 Y240.658
G01 X242.999 Y240.504
G01 X243.131 Y240.434
G01 X243.317 Y240.457
G01 X243.540 Y240.579
G01 X243.785 Y240.804
G01 X244.036 Y241.133
G01 X244.276 Y241.561
G01 X244.489 Y242.085
G01 X244.661 Y242.695
G01 X244.780 Y243.380
G01 X244.827 Y244.064
G01 X244.834 Y244.127
G01 X244.812 Y244.656
G01 X244.816 Y244.921
G01 X244.754 Y245.342
G01 X244.720 Y245.745
G01 X244.633 Y246.093
G01 X244.566 Y246.439
G01 X244.544 Y246.583
G01 X244.437 Y246.884
G01 X244.345 Y247.188
G01 X244.288 Y247.415
G01 X244.159 Y247.695
G01 X244.043 Y247.981
G01 X243.956 Y248.227
G01 X243.796 Y248.506
G01 X243.648 Y248.797
G01 X243.555 Y249.000
G01 X243.347 Y249.300
G01 X243.152 Y249.618
G01 X243.094 Y249.721
G01 X242.812 Y250.063
G01 X242.585 Y250.377
G01 X242.192 Y250.782
G01 X242.041 Y250.956
G01 X241.479 Y251.451
G01 X240.914 Y251.856
G01 X240.363 Y252.169
G01 X239.845 Y252.392
G01 X239.374 Y252.527
G01 X238.967 Y252.583
G01 X238.637 Y252.569
G01 X238.396 Y252.496
G01 X238.254 Y252.378
G01 X238.216 Y252.232
G01 X238.285 Y252.072
G01 X238.464 Y251.915
G01 X238.747 Y251.778
G01 X239.131 Y251.676
G01 X239.605 Y251.624
G01 X240.158 Y251.634
G01 X240.778 Y251.716
G01 X241.448 Y251.879
G01 X242.153 Y252.127
G01 X242.673 Y252.377
G01 X242.874 Y252.462
G01 X243.264 Y252.704
G01 X243.595 Y252.882
G01 X243.896 Y253.115
G01 X244.205 Y253.326
G01 X244.297 Y253.384
G01 X244.541 Y253.613
G01 X244.793 Y253.826
G01 X244.966 Y253.960
G01 X245.174 Y254.195
G01 X245.394 Y254.419
G01 X245.586 Y254.599
G01 X245.776 Y254.858
G01 X245.981 Y255.108
G01 X246.145 Y255.291
G01 X246.330 Y255.594
G01 X246.536 Y255.892
G01 X246.631 Y256.019
G01 X246.821 Y256.397
G01 X247.038 Y256.768
G01 X247.239 Y257.261
G01 X247.361 Y257.521
G01 X247.571 Y258.187
G01 X247.598 Y258.260
G01 X247.750 Y258.967
G01 X247.823 Y259.626
G01 X247.823 Y260.221
G01 X247.760 Y260.738
G01 X247.648 Y261.164
G01 X247.499 Y261.492
G01 X247.331 Y261.713
G01 X247.159 Y261.825
G01 X247.000 Y261.828
G01 X246.872 Y261.725
G01 X246.789 Y261.520
G01 X246.765 Y261.225
G01 X246.814 Y260.849
G01 X246.946 Y260.406
G01 X247.167 Y259.913
G01 X247.483 Y259.385
G01 X247.895 Y258.840
G01 X248.401 Y258.296
G01 X248.879 Y257.881
G01 X248.996 Y257.768
G01 X249.404 Y257.486
G01 X249.673 Y257.275
G01 X250.029 Y257.079
G01 X250.366 Y256.866
G01 X250.420 Y256.829
G01 X250.742 Y256.690
G01 X251.052 Y256.537
G01 X251.225 Y256.443
G01 X251.532 Y256.344
G01 X251.832 Y256.230
G01 X252.072 Y256.127
G01 X252.385 Y256.056
G01 X252.697 Y255.970
G01 X252.945 Y255.888
G01 X253.290 Y255.842
G01 X253.637 Y255.776
G01 X253.827 Y255.731
G01 X254.233 Y255.711
G01 X254.645 Y255.664
G01 X254.698 Y255.657
G01 X255.202 Y255.672
G01 X255.542 Y255.662
G01 X256.191 Y255.734
G01 X256.340 Y255.743
G01 X257.077 Y255.891
G01 X257.739 Y256.095
G01 X258.313 Y256.343
G01 X258.791 Y256.618
G01 X259.166 Y256.906
G01 X259.434 Y257.188
G01 X259.595 Y257.449
G01 X259.653 Y257.670
G01 X259.614 Y257.836
G01 X259.486 Y257.932
G01 X259.282 Y257.946
G01 X259.016 Y257.868
G01 X258.701 Y257.690
G01 X258.357 Y257.408
G01 X257.999 Y257.022
G01 X257.646 Y256.532
G01 X257.313 Y255.945
G01 X257.017 Y255.268
G01 X256.807 Y254.605
G01 X256.772 Y254.513
G01 X256.666 Y253.984
G01 X256.590 Y253.693
G01 X256.550 Y253.259
G01 X256.483 Y252.838
G01 X256.480 Y252.824
G01 X256.483 Y252.454
G01 X256.465 Y252.091
G01 X256.449 Y251.923
G01 X256.483 Y251.591
G01 X256.499 Y251.261
G01 X256.501 Y251.008
G01 X256.562 Y250.690
G01 X256.608 Y250.368
G01 X256.635 Y250.097
G01 X256.729 Y249.768
G01 X256.808 Y249.430
G01 X256.849 Y249.208
G01 X256.989 Y248.842
G01 X257.109 Y248.460
G01 X257.137 Y248.360
G01 X257.343 Y247.928
G01 X257.490 Y247.567
G01 X257.797 Y247.037
G01 X257.896 Y246.845
G01 X258.342 Y246.205
G01 X258.811 Y245.657
G01 X259.288 Y245.206
G01 X259.755 Y244.856
G01 X260.192 Y244.607
G01 X260.584 Y244.456
G01 X260.914 Y244.395
G01 X261.167 Y244.415
G01 X261.331 Y244.506
G01 X261.395 Y244.651
G01 X261.352 Y244.837
G01 X261.197 Y245.045
G01 X260.930 Y245.259
G01 X260.554 Y245.461
G01 X260.072 Y245.634
G01 X259.495 Y245.763
G01 X258.833 Y245.834
G01 X258.101 Y245.836
G01 X257.338 Y245.761
G01 X257.313 Y245.759
G01 X256.739 Y245.637
G01 X256.488 Y245.598
G01 X256.042 Y245.452
G01 X255.644 Y245.349
G01 X255.285 Y245.191
G01 X254.925 Y245.055
G01 X254.798 Y245.014
G01 X254.496 Y244.843
G01 X254.189 Y244.691
G01 X253.970 Y244.594
G01 X253.699 Y244.407
G01 X253.420 Y244.234
G01 X253.177 Y244.098
G01 X252.916 Y243.881
G01 X252.642 Y243.676
G01 X252.435 Y243.535
G01 X252.165 Y243.267
G01 X251.874 Y243.011
G01 X251.758 Y242.917
G01 X251.461 Y242.570
G01 X251.157 Y242.259
G01 X250.818 Y241.792
G01 X250.642 Y241.577
G01 X250.245 Y240.928
G01 X250.219 Y240.889
G01 X249.890 Y240.213
G01 X249.655 Y239.568
G01 X249.510 Y238.971
G01 X249.448 Y238.439
G01 X249.458 Y237.987
G01 X249.530 Y237.628
G01 X249.648 Y237.373
G01 X249.796 Y237.228
G01 X249.957 Y237.199
G01 X250.113 Y237.285
G01 X250.247 Y237.485
G01 X250.343 Y237.793
G01 X250.384 Y238.200
G01 X250.358 Y238.694
G01 X250.252 Y239.263
G01 X250.059 Y239.888
G01 X249.772 Y240.554
G01 X249.389 Y241.242
G01 X249.018 Y241.766
G01 X248.911 Y241.934
G01 X248.576 Y242.313
G01 X248.343 Y242.611
G01 X248.036 Y242.893
G01 X247.752 Y243.188
G01 X247.692 Y243.255
G01 X247.402 Y243.474
G01 X247.129 Y243.704
G01 X246.968 Y243.852
G01 X246.681 Y244.029
G01 X246.405 Y244.220
G01 X246.184 Y244.387
G01 X245.881 Y244.539
G01 X245.584 Y244.707
G01 X245.355 Y244.849
G01 X245.011 Y244.986
G01 X244.668 Y245.143
G01 X244.499 Y245.230
G01 X244.081 Y245.356
G01 X243.663 Y245.512
G01 X243.634 Y245.524
G01 X243.102 Y245.639
G01 X242.779 Y245.729
G01 X242.075 Y245.823
G01 X241.952 Y245.846
G01 X241.171 Y245.879
G01 X240.455 Y245.837
G01 X239.818 Y245.730
G01 X239.273 Y245.570
G01 X238.831 Y245.373
G01 X238.499 Y245.155
G01 X238.281 Y244.934
G01 X238.179 Y244.728
G01 X238.189 Y244.554
G01 X238.307 Y244.430
G01 X238.522 Y244.372
G01 X238.824 Y244.391
G01 X239.198 Y244.501
G01 X239.628 Y244.709
G01 X240.097 Y245.021
G01 X240.586 Y245.438
G01 X241.078 Y245.960
G01 X241.553 Y246.581
G01 X241.919 Y247.183
G01 X241.995 Y247.294
G01 X242.228 Y247.791
G01 X242.388 Y248.088
G01 X242.535 Y248.509
G01 X242.704 Y248.912
G01 X242.720 Y248.948
G01 X242.809 Y249.319
G01 X242.916 Y249.679
G01 X242.979 Y249.860
G01 X243.028 Y250.203
G01 X243.093 Y250.541
G01 X243.157 Y250.805
G01 X243.174 Y251.145
G01 X243.209 Y251.485
G01 X243.250 Y251.765
G01 X243.236 Y252.129
G01 X243.242 Y252.497
G01 X243.255 Y252.721
G01 X243.204 Y253.138
G01 X243.178 Y253.566
G01 X243.176 Y253.654
G01 X243.072 Y254.159
G01 X243.017 Y254.544
G01 X242.832 Y255.182
G01 X242.786 Y255.375
G01 X242.495 Y256.131
G01 X242.158 Y256.799
G01 X241.790 Y257.369
G01 X241.409 Y257.832
G01 X241.032 Y258.186
G01 X240.678 Y258.429
G01 X240.366 Y258.564
G01 X240.112 Y258.597
G01 X239.933 Y258.537
G01 X239.842 Y258.397
G01 X239.850 Y258.190
G01 X239.966 Y257.933
G01 X240.195 Y257.642
G01 X240.538 Y257.338
G01 X240.995 Y257.037
G01 X241.560 Y256.758
G01 X242.224 Y256.517
G01 X242.977 Y256.330
G01 X243.745 Y256.221
G01 X243.804 Y256.210
G01 X244.401 Y256.191
G01 X244.690 Y256.166
G01 X245.168 Y256.203
G01 X245.615 Y256.208
G01 X246.013 Y256.278
G01 X246.406 Y256.325
G01 X246.563 Y256.337
G01 X246.909 Y256.433
G01 X247.256 Y256.510
G01 X247.511 Y256.556
G01 X247.833 Y256.678
G01 X248.162 Y256.784
G01 X248.443 Y256.861
G01 X248.766 Y257.017
G01 X249.100 Y257.158
G01 X249.337 Y257.246
G01 X249.686 Y257.454
G01 X250.053 Y257.644
G01 X250.179 Y257.703
G01 X250.578 Y257.987
G01 X250.951 Y258.219
G01 X251.429 Y258.620
G01 X251.641 Y258.779
G01 X252.230 Y259.360
G01 X252.239 Y259.368
G01 X252.737 Y259.966
G01 X253.132 Y260.556
G01 X253.423 Y261.119
G01 X253.614 Y261.635
G01 X253.710 Y262.086
G01 X253.722 Y262.458
G01 X253.662 Y262.735
G01 X253.543 Y262.906
G01 X253.384 Y262.964
G01 X253.200 Y262.902
G01 X253.012 Y262.719
G01 X252.837 Y262.418
G01 X252.693 Y262.002
G01 X252.596 Y261.481
G01 X252.563 Y260.867
G01 X252.604 Y260.173
G01 X252.731 Y259.415
G01 X252.950 Y258.613
G01 X253.189 Y258.007
G01 X253.264 Y257.785
G01 X253.505 Y257.327
G01 X253.674 Y256.950
G01 X253.911 Y256.593
G01 X254.122 Y256.230
G01 X254.176 Y256.128
G01 X254.412 Y255.837
G01 X254.630 Y255.538
G01 X254.763 Y255.338
G01 X255.008 Y255.087
G01 X255.241 Y254.825
G01 X255.425 Y254.597
G01 X255.696 Y254.365
G01 X255.958 Y254.118
G01 X256.150 Y253.920
G01 X256.471 Y253.691
G01 X256.784 Y253.440
G01 X256.922 Y253.319
G01 X257.324 Y253.080
G01 X257.719 Y252.809
G01 X257.724 Y252.806
G01 X258.251 Y252.546
G01 X258.537 Y252.385
G01 X259.252 Y252.102
G01 X259.341 Y252.062
G01 X260.118 Y251.834
G01 X260.848 Y251.700
G01 X261.512 Y251.652
G01 X262.095 Y251.679
G01 X262.582 Y251.770
G01 X262.961 Y251.909
G01 X263.225 Y252.078
G01 X263.367 Y252.260
G01 X263.387 Y252.437
G01 X263.285 Y252.589
G01 X263.069 Y252.699
G01 X262.745 Y252.750
G01 X262.326 Y252.727
G01 X261.827 Y252.618
G01 X261.263 Y252.413
G01 X260.653 Y252.106
G01 X260.016 Y251.694
G01 X259.372 Y251.177
G01 X258.867 Y250.674
G01 X258.740 Y250.559
G01 X258.389 Y250.124
G01 X258.137 Y249.848
G01 X257.889 Y249.465
G01 X257.623 Y249.105
G01 X257.582 Y249.054
G01 X257.402 Y248.705
G01 X257.206 Y248.372
G01 X257.089 Y248.192
G01 X256.954 Y247.858
G01 X256.803 Y247.532
G01 X256.670 Y247.276
G01 X256.567 Y246.934
G01 X256.446 Y246.595
G01 X256.335 Y246.325
G01 X256.256 Y245.947
G01 X256.156 Y245.569
G01 X256.090 Y245.357
G01 X256.035 Y244.912
G01 X255.951 Y244.461
G01 X255.936 Y244.394
G01 X255.914 Y243.839
G01 X255.875 Y243.455
G01 X255.902 Y242.737
G01 X255.901 Y242.560
G01 X256.006 Y241.727
G01 X256.179 Y240.973
G01 X256.408 Y240.312
G01 X256.677 Y239.757
G01 X256.967 Y239.314
G01 X257.260 Y238.990
G01 X257.538 Y238.787
G01 X257.780 Y238.701
G01 X257.970 Y238.728
G01 X258.089 Y238.858
G01 X258.124 Y239.081
G01 X258.062 Y239.380
G01 X257.893 Y239.741
G01 X257.611 Y240.144
G01 X257.213 Y240.570
G01 X256.701 Y241.000
G01 X256.078 Y241.415
G01 X255.354 Y241.797
G01 X254.626 Y242.088
G01 X254.538 Y242.129
G01 X253.953 Y242.291
G01 X253.644 Y242.397
G01 X253.162 Y242.477
G01 X252.696 Y242.587
G01 X252.691 Y242.588
G01 X252.277 Y242.616
G01 X251.873 Y242.665
G01 X251.694 Y242.695
G01 X251.322 Y242.685
G01 X250.953 Y242.693
G01 X250.675 Y242.712
G01 X250.318 Y242.669
G01 X249.957 Y242.644
G01 X249.654 Y242.636
G01 X249.283 Y242.558
G01 X248.903 Y242.499
G01 X248.651 Y242.470
G01 X248.237 Y242.345
G01 X247.807 Y242.243
G01 X247.685 Y242.219
G01 X247.195 Y242.026
G01 X246.777 Y241.891
G01 X246.172 Y241.596
G01 X245.941 Y241.498
G01 X245.194 Y241.054
G01 X244.545 Y240.576
G01 X244.005 Y240.082
G01 X243.577 Y239.591
G01 X243.262 Y239.124
G01 X243.060 Y238.699
G01 X242.963 Y238.335
G01 X242.963 Y238.049
G01 X243.047 Y237.857
G01 X243.201 Y237.770
G01 X243.408 Y237.799
G01 X243.650 Y237.950
G01 X243.907 Y238.224
G01 X244.161 Y238.622
G01 X244.391 Y239.137
G01 X244.580 Y239.763
G01 X244.712 Y240.487
G01 X244.774 Y241.296
G01 X244.752 Y242.159
G01 X244.752 Y242.172
G01 X244.663 Y242.826
G01 X244.641 Y243.097
G01 X244.514 Y243.608
G01 X244.434 Y244.051
G01 X244.286 Y244.464
G01 X244.164 Y244.877
G01 X244.130 Y245.013
G01 X243.966 Y245.363
G01 X243.821 Y245.717
G01 X243.733 Y245.963
G01 X243.547 Y246.279
G01 X243.378 Y246.603
G01 X243.247 Y246.882
G01 X243.029 Y247.187
G01 X242.824 Y247.507
G01 X242.683 Y247.749
G01 X242.411 Y248.068
G01 X242.153 Y248.407
G01 X242.053 Y248.550
G01 X241.697 Y248.903
G01 X241.372 Y249.269
G01 X240.889 Y249.677
G01 X240.657 Y249.895
G01 X239.980 Y250.380
G01 X239.928 Y250.421
G01 X239.204 Y250.842
G01 X238.506 Y251.156
G01 X237.854 Y251.367
G01 X237.266 Y251.480
G01 X236.762 Y251.506
G01 X236.355 Y251.457
G01 X236.058 Y251.349
G01 X235.881 Y251.198
G01 X235.831 Y251.022
G01 X235.909 Y250.842
G01 X236.115 Y250.677
G01 X236.443 Y250.546
G01 X236.886 Y250.467
G01 X237.431 Y250.455
G01 X238.064 Y250.525
G01 X238.769 Y250.687
G01 X239.526 Y250.949
G01 X240.316 Y251.315
G01 X240.934 Y251.688
G01 X241.117 Y251.786
G01 X241.569 Y252.130
G01 X241.910 Y252.359
G01 X242.251 Y252.678
G01 X242.603 Y252.971
G01 X242.675 Y253.026
G01 X242.941 Y253.330
G01 X243.220 Y253.616
G01 X243.393 Y253.778
G01 X243.612 Y254.081
G01 X243.845 Y254.372
G01 X244.048 Y254.602
G01 X244.239 Y254.923
G01 X244.448 Y255.238
G01 X244.626 Y255.480
G01 X244.803 Y255.848
G01 X245.004 Y256.211
G01 X245.117 Y256.397
G01 X245.288 Y256.844
G01 X245.492 Y257.290
G01 X245.512 Y257.331
G01 X245.680 Y257.903
G01 X245.808 Y258.262
G01 X245.967 Y259.021
G01 X246.005 Y259.169
G01 X246.106 Y260.031
G01 X246.118 Y260.830
G01 X246.051 Y261.546
G01 X245.919 Y262.165
G01 X245.736 Y262.674
G01 X245.522 Y263.064
G01 X245.295 Y263.327
G01 X245.074 Y263.461
G01 X244.880 Y263.468
G01 X244.731 Y263.353
G01 X244.647 Y263.125
G01 X244.642 Y262.794
G01 X244.730 Y262.376
G01 X244.922 Y261.887
G01 X245.226 Y261.347
G01 X245.644 Y260.776
G01 X246.178 Y260.193
G01 X246.823 Y259.620
G01 X247.466 Y259.159
G01 X247.572 Y259.075
G01 X248.109 Y258.773
G01 X248.414 Y258.577
G01 X248.873 Y258.379
G01 X249.308 Y258.158
G01 X249.336 Y258.142
G01 X249.741 Y258.013
G01 X250.132 Y257.864
G01 X250.321 Y257.783
G01 X250.697 Y257.700
G01 X251.066 Y257.600
G01 X251.350 Y257.509
G01 X251.723 Y257.463
G01 X252.095 Y257.398
G01 X252.403 Y257.329
G01 X252.802 Y257.315
G01 X253.207 Y257.279
G01 X253.458 Y257.246
G01 X253.918 Y257.268
G01 X254.388 Y257.263
G01 X254.495 Y257.258
G01 X255.055 Y257.331
G01 X255.493 Y257.361
G01 X256.202 Y257.512
G01 X256.431 Y257.549
G01 X257.292 Y257.809
G01 X258.060 Y258.128
G01 X258.722 Y258.489
G01 X259.269 Y258.874
G01 X259.694 Y259.263
G01 X259.995 Y259.636
G01 X260.173 Y259.973
G01 X260.234 Y260.253
G01 X260.187 Y260.459
G01 X260.043 Y260.575
G01 X259.818 Y260.587
G01 X259.527 Y260.484
G01 X259.191 Y260.260
G01 X258.830 Y259.910
G01 X258.463 Y259.435
G01 X258.110 Y258.839
G01 X257.792 Y258.129
G01 X257.525 Y257.318
G01 X257.339 Y256.467
G01 X257.326 Y256.418
G01 X257.256 Y255.753
G01 X257.207 Y255.448
G01 X257.207 Y254.912
G01 X257.177 Y254.426
G01 X257.222 Y253.979
G01 X257.242 Y253.538
G01 X257.242 Y253.372
G01 X257.320 Y252.981
G01 X257.378 Y252.590
G01 X257.406 Y252.309
G01 X257.514 Y251.944
G01 X257.605 Y251.574
G01 X257.667 Y251.258
G01 X257.812 Y250.891
G01 X257.940 Y250.512
G01 X258.019 Y250.239
G01 X258.218 Y249.842
G01 X258.397 Y249.425
G01 X258.455 Y249.274
G01 X258.733 Y248.816
G01 X258.961 Y248.379
G01 X259.359 Y247.828
G01 X259.524 Y247.571
G01 X260.106 Y246.887
G01 X260.126 Y246.862
G01 X260.747 Y246.261
G01 X261.368 Y245.775
G01 X261.967 Y245.405
G01 X262.524 Y245.150
G01 X263.018 Y245.004
G01 X263.431 Y244.958
G01 X263.746 Y245.000
G01 X263.950 Y245.114
G01 X264.032 Y245.283
G01 X263.984 Y245.489
G01 X263.804 Y245.710
G01 X263.491 Y245.927
G01 X263.051 Y246.119
G01 X262.490 Y246.267
G01 X261.821 Y246.355
G01 X261.057 Y246.366
G01 X260.216 Y246.289
G01 X259.318 Y246.114
G01 X258.621 Y245.897
G01 X258.383 Y245.837
G01 X257.853 Y245.607
G01 X257.433 Y245.455
G01 X257.016 Y245.221
G01 X256.596 Y245.017
G01 X256.489 Y244.970
G01 X256.147 Y244.732
G01 X255.798 Y244.515
G01 X255.572 Y244.388
G01 X255.275 Y244.138
G01 X254.967 Y243.903
G01 X254.702 Y243.720
G01 X254.426 Y243.441
G01 X254.133 Y243.174
G01 X253.897 Y242.977
G01 X253.621 Y242.645
G01 X253.322 Y242.323
G01 X253.173 Y242.175
G01 X252.880 Y241.756
G01 X252.554 Y241.348
G01 X252.541 Y241.333
G01 X252.218 Y240.781
G01 X252.010 Y240.470
G01 X251.647 Y239.719
G01 X251.587 Y239.609
G01 X251.272 Y238.769
G01 X251.063 Y237.973
G01 X250.955 Y237.242
G01 X250.936 Y236.593
G01 X250.995 Y236.045
G01 X251.116 Y235.611
G01 X251.280 Y235.301
G01 X251.469 Y235.124
G01 X251.663 Y235.082
G01 X251.839 Y235.175
G01 X251.979 Y235.398
G01 X252.063 Y235.744
G01 X252.074 Y236.201
G01 X251.997 Y236.755
G01 X251.820 Y237.387
G01 X251.535 Y238.079
G01 X251.136 Y238.809
G01 X250.622 Y239.557
G01 X250.103 Y240.164
G01 X249.997 Y240.301
G01 X249.542 Y240.728
G01 X249.266 Y241.019
G01 X248.861 Y241.327
G01 X248.484 Y241.653
G01 X248.440 Y241.693
G01 X248.069 Y241.922
G01 X247.716 Y242.167
G01 X247.533 Y242.305
G01 X247.176 Y242.481
G01 X246.830 Y242.674
G01 X246.561 Y242.840
G01 X246.194 Y242.981
G01 X245.833 Y243.141
G01 X245.542 Y243.286
G01 X245.137 Y243.403
G01 X244.732 Y243.543
G01 X244.498 Y243.635
G01 X244.018 Y243.730
G01 X243.535 Y243.857
G01 X243.451 Y243.883
G01 X242.851 Y243.952
G01 X242.421 Y244.028
G01 X241.643 Y244.055
G01 X241.432 Y244.073
G01 X240.505 Y244.026
G01 X239.658 Y243.896
G01 X238.908 Y243.698
G01 X238.270 Y243.448
G01 X237.755 Y243.164
G01 X237.370 Y242.867
G01 X237.117 Y242.576
G01 X236.998 Y242.314
G01 X237.006 Y242.101
G01 X237.134 Y241.955
G01 X237.370 Y241.895
G01 X237.700 Y241.935
G01 X238.105 Y242.087
G01 X238.567 Y242.359
G01 X239.064 Y242.757
G01 X239.576 Y243.280
G01 X240.080 Y243.925
G01 X240.557 Y244.686
G01 X240.944 Y245.474
G01 X240.987 Y245.552
G01 X241.217 Y246.189
G01 X241.353 Y246.508
G01 X241.483 Y247.038
G01 X241.641 Y247.538
G01 X241.705 Y247.993
G01 X241.794 Y248.436
G01 X241.839 Y248.621
G01 X241.859 Y249.033
G01 X241.898 Y249.439
G01 X241.941 Y249.738
G01 X241.923 Y250.134
G01 X241.925 Y250.531
G01 X241.942 Y250.865
G01 X241.886 Y251.277
G01 X241.852 Y251.695
G01 X241.842 Y251.981
G01 X241.739 Y252.441
G01 X241.663 Y252.915
G01 X241.645 Y253.063
G01 X241.475 Y253.609
G01 X241.359 Y254.089
G01 X241.088 Y254.766
G01 X240.995 Y255.041
G01 X240.568 Y255.901
G01 X240.094 Y256.656
G01 X239.594 Y257.294
G01 X239.088 Y257.809
G01 X238.597 Y258.196
G01 X238.143 Y258.458
G01 X237.747 Y258.599
G01 X237.429 Y258.627
G01 X237.205 Y258.554
G01 X237.092 Y258.396
G01 X237.101 Y258.170
G01 X237.240 Y257.895
G01 X237.514 Y257.593
G01 X237.923 Y257.285
G01 X238.464 Y256.991
G01 X239.129 Y256.733
G01 X239.908 Y256.529
G01 X240.785 Y256.396
G01 X241.743 Y256.347
G01 X242.480 Y256.391
G01 X242.764 Y256.393
G01 X243.342 Y256.491
G01 X243.824 Y256.542
G01 X244.294 Y256.671
G01 X244.762 Y256.771
G01 X244.903 Y256.795
G01 X245.303 Y256.948
G01 X245.705 Y257.078
G01 X245.976 Y257.153
G01 X246.338 Y257.330
G01 X246.707 Y257.490
G01 X247.023 Y257.609
G01 X247.374 Y257.823
G01 X247.739 Y258.020
G01 X248.021 Y258.157
G01 X248.389 Y258.427
G01 X248.778 Y258.680
G01 X248.951 Y258.783
G01 X249.362 Y259.140
G01 X249.797 Y259.472
G01 X250.276 Y259.960
G01 X250.545 Y260.206
G01 X251.120 Y260.895
G01 X251.183 Y260.964
G01 X251.707 Y261.727
G01 X252.111 Y262.470
G01 X252.399 Y263.172
G01 X252.575 Y263.811
G01 X252.647 Y264.368
G01 X252.630 Y264.824
G01 X252.537 Y265.165
G01 X252.388 Y265.378
G01 X252.201 Y265.455
G01 X251.998 Y265.391
G01 X251.801 Y265.187
G01 X251.630 Y264.845
G01 X251.505 Y264.373
G01 X251.447 Y263.783
G01 X251.469 Y263.089
G01 X251.587 Y262.310
G01 X251.810 Y261.463
G01 X252.145 Y260.572
G01 X252.507 Y259.852
G01 X252.593 Y259.659
G01 X252.937 Y259.127
G01 X253.153 Y258.746
G01 X253.479 Y258.342
G01 X253.772 Y257.927
G01 X253.820 Y257.855
G01 X254.133 Y257.536
G01 X254.425 Y257.204
G01 X254.583 Y257.008
G01 X254.898 Y256.742
G01 X255.197 Y256.462
G01 X255.431 Y256.223
G01 X255.767 Y255.988
G01 X256.092 Y255.734
G01 X256.346 Y255.518
G01 X256.731 Y255.295
G01 X257.109 Y255.048
G01 X257.310 Y254.905
G01 X257.780 Y254.683
G01 X258.245 Y254.427
G01 X258.301 Y254.394
G01 X258.904 Y254.167
G01 X259.299 Y253.992
G01 X260.101 Y253.761
G01 X260.279 Y253.700
G01 X261.219 Y253.517
G01 X262.097 Y253.437
G01 X262.892 Y253.451
G01 X263.587 Y253.544
G01 X264.166 Y253.701
G01 X264.616 Y253.904
G01 X264.930 Y254.132
G01 X265.103 Y254.364
G01 X265.134 Y254.578
G01 X265.028 Y254.752
G01 X264.792 Y254.866
G01 X264.437 Y254.902
G01 X263.979 Y254.844
G01 X263.434 Y254.678
G01 X262.823 Y254.394
G01 X262.168 Y253.988
G01 X261.490 Y253.456
G01 X260.813 Y252.801
G01 X260.244 Y252.124
G01 X260.158 Y252.030
G01 X259.777 Y251.459
G01 X259.545 Y251.152
G01 X259.287 Y250.661
G01 X259.005 Y250.198
G01 X258.994 Y250.182
G01 X258.818 Y249.746
G01 X258.620 Y249.327
G01 X258.521 Y249.136
G01 X258.399 Y248.730
G01 X258.259 Y248.333
G01 X258.138 Y248.034
G01 X258.056 Y247.630
G01 X257.954 Y247.229
G01 X257.854 Y246.898
G01 X257.806 Y246.465
G01 X257.734 Y246.029
G01 X257.675 Y245.749
G01 X257.662 Y245.251
G01 X257.619 Y244.743
G01 X257.602 Y244.612
G01 X257.636 Y244.004
G01 X257.633 Y243.510
G01 X257.738 Y242.737
G01 X257.761 Y242.465
G01 X257.975 Y241.498
G01 X258.261 Y240.627
G01 X258.603 Y239.868
G01 X258.980 Y239.233
G01 X259.373 Y238.730
G01 X259.759 Y238.364
G01 X260.116 Y238.134
G01 X260.422 Y238.038
G01 X260.657 Y238.066
G01 X260.801 Y238.207
G01 X260.838 Y238.447
G01 X260.756 Y238.768
G01 X260.545 Y239.149
G01 X260.198 Y239.570
G01 X259.716 Y240.007
G01 X259.099 Y240.438
G01 X258.356 Y240.843
G01 X257.496 Y241.200
G01 X256.564 Y241.481
G01 X256.535 Y241.491
G01 X255.801 Y241.626
G01 X255.488 Y241.701
G01 X254.894 Y241.746
G01 X254.377 Y241.818
G01 X253.879 Y241.806
G01 X253.391 Y241.822
G01 X253.222 Y241.834
G01 X252.786 Y241.781
G01 X252.351 Y241.750
G01 X252.049 Y241.743
G01 X251.641 Y241.655
G01 X251.229 Y241.587
G01 X250.879 Y241.545
G01 X250.468 Y241.417
G01 X250.047 Y241.309
G01 X249.737 Y241.244
G01 X249.291 Y241.062
G01 X248.827 Y240.902
G01 X248.644 Y240.848
G01 X248.129 Y240.586
G01 X247.623 Y240.367
G01 X247.000 Y239.985
G01 X246.691 Y239.818
G01 X245.913 Y239.251
G01 X245.863 Y239.217
G01 X245.151 Y238.585
G01 X244.565 Y237.944
G01 X244.107 Y237.316
G01 X243.777 Y236.725
G01 X243.572 Y236.192
G01 X243.483 Y235.738
G01 X243.498 Y235.384
G01 X243.602 Y235.144
G01 X243.776 Y235.033
G01 X244.002 Y235.060
G01 X244.256 Y235.230
G01 X244.517 Y235.546
G01 X244.762 Y236.003
G01 X244.970 Y236.595
G01 X245.121 Y237.312
G01 X245.197 Y238.138
G01 X245.183 Y239.056
G01 X245.068 Y240.045
G01 X244.887 Y240.839
G01 X244.844 Y241.085
G01 X244.634 Y241.692
G01 X244.507 Y242.151
G01 X244.284 Y242.630
G01 X244.094 Y243.112
G01 X244.057 Y243.219
G01 X243.824 Y243.614
G01 X243.615 Y244.016
G01 X243.499 Y244.266
G01 X243.250 Y244.612
G01 X243.019 Y244.968
G01 X242.842 Y245.270
G01 X242.562 Y245.593
G01 X242.296 Y245.933
G01 X242.098 Y246.210
G01 X241.762 Y246.535
G01 X241.439 Y246.884
G01 X241.282 Y247.068
G01 X240.856 Y247.416
G01 X240.443 Y247.800
G01 X240.414 Y247.829
G01 X239.850 Y248.219
G01 X239.515 Y248.481
G01 X238.741 Y248.930
G01 X238.606 Y249.017
G01 X237.712 Y249.432
G01 X236.857 Y249.729
G01 X236.062 Y249.911
G01 X235.350 Y249.987
G01 X234.739 Y249.971
G01 X234.248 Y249.877
G01 X233.888 Y249.724
G01 X233.670 Y249.533
G01 X233.599 Y249.326
G01 X233.677 Y249.125
G01 X233.900 Y248.953
G01 X234.262 Y248.830
G01 X234.752 Y248.778
G01 X235.354 Y248.813
G01 X236.051 Y248.951
G01 X236.823 Y249.201
G01 X237.647 Y249.572
G01 X238.500 Y250.066
G01 X239.221 Y250.592
G01 X239.359 Y250.683
G01 X239.873 Y251.152
G01 X240.201 Y251.418
G01 X240.576 Y251.839
G01 X240.968 Y252.228
G01 X241.002 Y252.260
G01 X241.285 Y252.649
G01 X241.584 Y253.017
G01 X241.743 Y253.196
G01 X241.966 Y253.572
G01 X242.206 Y253.935
G01 X242.406 Y254.211
G01 X242.591 Y254.598
G01 X242.794 Y254.977
G01 X242.977 Y255.284
G01 X243.137 Y255.712
G01 X243.321 Y256.138
G01 X243.445 Y256.393
G01 X243.586 Y256.902
G01 X243.762 Y257.411
G01 X243.803 Y257.517
G01 X243.925 Y258.153
G01 X244.047 Y258.629
G01 X244.139 Y259.457
G01 X244.179 Y259.707
G01 X244.206 Y260.726
G01 X244.136 Y261.666
G01 X243.982 Y262.505
G01 X243.762 Y263.228
G01 X243.495 Y263.821
G01 X243.201 Y264.274
G01 X242.903 Y264.581
G01 X242.624 Y264.742
G01 X242.387 Y264.759
G01 X242.214 Y264.640
G01 X242.124 Y264.396
G01 X242.134 Y264.041
G01 X242.260 Y263.594
G01 X242.513 Y263.075
G01 X242.898 Y262.505
G01 X243.419 Y261.909
G01 X244.074 Y261.310
G01 X244.858 Y260.730
G01 X245.701 Y260.231
G01 X245.760 Y260.192
G01 X246.447 Y259.882
G01 X246.767 Y259.716
G01 X247.341 Y259.526
G01 X247.861 Y259.317
G01 X248.357 Y259.207
G01 X248.837 Y259.072
G01 X249.022 Y259.011
G01 X249.470 Y258.956
G01 X249.912 Y258.878
G01 X250.228 Y258.808
G01 X250.660 Y258.794
G01 X251.092 Y258.759
G01 X251.455 Y258.713
G01 X251.904 Y258.739
G01 X252.359 Y258.742
G01 X252.678 Y258.729
G01 X253.181 Y258.802
G01 X253.697 Y258.846
G01 X253.874 Y258.854
G01 X254.472 Y258.991
G01 X255.018 Y259.080
G01 X255.761 Y259.314
G01 X256.088 Y259.397
G01 X257.044 Y259.784
G01 X257.065 Y259.792
G01 X257.931 Y260.246
G01 X258.674 Y260.740
G01 X259.282 Y261.252
G01 X259.752 Y261.758
G01 X260.082 Y262.235
G01 X260.275 Y262.660
G01 X260.339 Y263.010
G01 X260.285 Y263.266
G01 X260.128 Y263.410
G01 X259.887 Y263.428
G01 X259.581 Y263.308
G01 X259.234 Y263.044
G01 X258.868 Y262.633
G01 X258.506 Y262.077
G01 X258.171 Y261.383
G01 X257.886 Y260.560
G01 X257.668 Y259.624
G01 X257.535 Y258.591
G01 X257.520 Y257.769
G01 X257.500 Y257.482
G01 X257.558 Y256.834
G01 X257.572 Y256.320
G01 X257.675 Y255.791
G01 X257.744 Y255.267
G01 X257.757 Y255.128
G01 X257.891 Y254.677
G01 X257.999 Y254.225
G01 X258.056 Y253.933
G01 X258.219 Y253.524
G01 X258.362 Y253.109
G01 X258.465 Y252.757
G01 X258.667 Y252.359
G01 X258.851 Y251.948
G01 X258.978 Y251.626
G01 X259.238 Y251.208
G01 X259.478 Y250.769
G01 X259.581 Y250.560
G01 X259.929 Y250.092
G01 X260.254 Y249.592
G01 X260.261 Y249.580
G01 X260.743 Y249.031
G01 X260.999 Y248.703
G01 X261.684 Y248.037
G01 X261.773 Y247.942
G01 X262.562 Y247.305
G01 X263.341 Y246.798
G01 X264.086 Y246.422
G01 X264.774 Y246.173
G01 X265.380 Y246.043
G01 X265.886 Y246.020
G01 X266.273 Y246.088
G01 X266.527 Y246.230
G01 X266.636 Y246.424
G01 X266.594 Y246.648
G01 X266.398 Y246.879
G01 X266.051 Y247.093
G01 X265.558 Y247.268
G01 X264.931 Y247.382
G01 X264.184 Y247.417
G01 X263.334 Y247.356
G01 X262.402 Y247.187
G01 X261.412 Y246.900
G01 X260.580 Y246.561
G01 X260.387 Y246.492
G01 X259.769 Y246.157
G01 X259.352 Y245.962
G01 X258.878 Y245.638
G01 X258.396 Y245.350
G01 X258.331 Y245.314
G01 X257.954 Y244.998
G01 X257.566 Y244.706
G01 X257.348 Y244.557
G01 X257.032 Y244.236
G01 X256.701 Y243.934
G01 X256.426 Y243.703
G01 X256.143 Y243.359
G01 X255.841 Y243.027
G01 X255.583 Y242.768
G01 X255.312 Y242.372
G01 X255.015 Y241.986
G01 X254.835 Y241.771
G01 X254.560 Y241.286
G01 X254.249 Y240.810
G01 X254.196 Y240.734
G01 X253.905 Y240.111
G01 X253.673 Y239.682
G01 X253.363 Y238.849
G01 X253.272 Y238.638
G01 X252.993 Y237.627
G01 X252.830 Y236.674
G01 X252.776 Y235.801
G01 X252.818 Y235.031
G01 X252.939 Y234.380
G01 X253.121 Y233.864
G01 X253.343 Y233.494
G01 X253.581 Y233.277
G01 X253.812 Y233.215
G01 X254.013 Y233.305
G01 X254.160 Y233.542
G01 X254.233 Y233.914
G01 X254.213 Y234.408
G01 X254.083 Y235.004
G01 X253.831 Y235.684
G01 X253.450 Y236.422
G01 X252.935 Y237.197
G01 X252.286 Y237.982
G01 X251.583 Y238.674
G01 X251.509 Y238.755
G01 X250.910 Y239.226
G01 X250.611 Y239.490
G01 X250.092 Y239.817
G01 X249.608 Y240.168
G01 X249.144 Y240.399
G01 X248.701 Y240.651
G01 X248.515 Y240.768
G01 X248.081 Y240.935
G01 X247.660 Y241.122
G01 X247.352 Y241.276
G01 X246.921 Y241.398
G01 X246.495 Y241.542
G01 X246.143 Y241.679
G01 X245.681 Y241.767
G01 X245.218 Y241.881
G01 X244.911 Y241.970
G01 X244.378 Y242.025
G01 X243.840 Y242.113
G01 X243.681 Y242.145
G01 X243.031 Y242.158
G01 X242.479 Y242.204
G01 X241.651 Y242.156
G01 X241.330 Y242.154
G01 X240.257 Y242.003
G01 X239.282 Y241.765
G01 X238.422 Y241.457
G01 X237.693 Y241.098
G01 X237.106 Y240.712
G01 X236.667 Y240.320
G01 X236.378 Y239.948
G01 X236.238 Y239.619
G01 X236.240 Y239.356
G01 X236.373 Y239.181
G01 X236.622 Y239.113
G01 X236.969 Y239.167
G01 X237.393 Y239.356
G01 X237.872 Y239.688
G01 X238.382 Y240.166
G01 X238.897 Y240.790
G01 X239.395 Y241.555
G01 X239.852 Y242.450
G01 X240.247 Y243.462
G01 X240.461 Y244.263
G01 X240.562 Y244.574
G01 X240.663 Y245.226
G01 X240.782 Y245.765
G01 X240.811 Y246.313
G01 X240.871 Y246.847
G01 X240.896 Y247.012
G01 X240.875 Y247.494
G01 X240.879 Y247.970
G01 X240.896 Y248.290
G01 X240.834 Y248.741
G01 X240.795 Y249.193
G01 X240.780 Y249.575
G01 X240.676 Y250.028
G01 X240.595 Y250.490
G01 X240.550 Y250.839
G01 X240.391 Y251.331
G01 X240.259 Y251.840
G01 X240.212 Y252.058
G01 X239.975 Y252.628
G01 X239.776 Y253.209
G01 X239.422 Y253.900
G01 X239.258 Y254.270
G01 X238.722 Y255.137
G01 X238.674 Y255.223
G01 X238.046 Y256.053
G01 X237.396 Y256.749
G01 X236.749 Y257.305
G01 X236.129 Y257.719
G01 X235.562 Y257.993
G01 X235.070 Y258.135
G01 X234.676 Y258.155
G01 X234.398 Y258.069
G01 X234.253 Y257.894
G01 X234.252 Y257.653
G01 X234.405 Y257.367
G01 X234.713 Y257.061
G01 X235.177 Y256.759
G01 X235.791 Y256.485
G01 X236.545 Y256.262
G01 X237.425 Y256.110
G01 X238.412 Y256.047
G01 X239.487 Y256.087
G01 X240.383 Y256.217
G01 X240.626 Y256.241
G01 X241.315 Y256.419
G01 X241.804 Y256.515
G01 X242.351 Y256.718
G01 X242.897 Y256.884
G01 X242.996 Y256.910
G01 X243.449 Y257.131
G01 X243.906 Y257.325
G01 X244.175 Y257.425
G01 X244.572 Y257.666
G01 X244.978 Y257.887
G01 X245.317 Y258.052
G01 X245.689 Y258.327
G01 X246.077 Y258.585
G01 X246.398 Y258.778
G01 X246.774 Y259.111
G01 X247.174 Y259.428
G01 X247.397 Y259.590
G01 X247.803 Y260.015
G01 X248.245 Y260.423
G01 X248.297 Y260.468
G01 X248.757 Y261.034
G01 X249.082 Y261.390
G01 X249.618 Y262.169
G01 X249.742 Y262.332
G01 X250.272 Y263.270
G01 X250.669 Y264.178
G01 X250.938 Y265.031
G01 X251.085 Y265.804
G01 X251.122 Y266.476
G01 X251.065 Y267.026
G01 X250.933 Y267.440
G01 X250.746 Y267.703
G01 X250.529 Y267.810
G01 X250.305 Y267.754
G01 X250.098 Y267.539
G01 X249.934 Y267.169
G01 X249.834 Y266.655
G01 X249.818 Y266.011
G01 X249.904 Y265.255
G01 X250.106 Y264.407
G01 X250.433 Y263.491
G01 X250.892 Y262.532
G01 X251.411 Y261.687
G01 X251.483 Y261.555
G01 X251.955 Y260.947
G01 X252.203 Y260.587
G01 X252.634 Y260.138
G01 X253.027 Y259.672
G01 X253.043 Y259.652
G01 X253.446 Y259.308
G01 X253.822 Y258.949
G01 X253.992 Y258.772
G01 X254.382 Y258.498
G01 X254.756 Y258.206
G01 X255.032 Y257.970
G01 X255.435 Y257.738
G01 X255.827 Y257.486
G01 X256.145 Y257.261
G01 X256.591 Y257.055
G01 X257.031 Y256.822
G01 X257.307 Y256.660
G01 X257.836 Y256.468
G01 X258.364 Y256.240
G01 X258.494 Y256.178
G01 X259.158 Y255.996
G01 X259.681 Y255.818
G01 X260.547 Y255.653
G01 X260.841 Y255.582
G01 X261.948 Y255.465
G01 X262.977 Y255.460
G01 X263.907 Y255.554
G01 X264.717 Y255.731
G01 X265.391 Y255.971
G01 X265.917 Y256.252
G01 X266.286 Y256.550
G01 X266.496 Y256.841
G01 X266.546 Y257.100
G01 X266.443 Y257.303
G01 X266.198 Y257.427
G01 X265.824 Y257.452
G01 X265.339 Y257.360
G01 X264.765 Y257.139
G01 X264.124 Y256.778
G01 X263.443 Y256.273
G01 X262.745 Y255.622
G01 X262.056 Y254.831
G01 X261.426 Y253.940
G01 X261.402 Y253.908
G01 X260.997 Y253.175
G01 X260.803 Y252.865
G01 X260.544 Y252.249
G01 X260.282 Y251.721
G01 X260.118 Y251.187
G01 X259.928 Y250.673
G01 X259.853 Y250.495
G01 X259.754 Y250.010
G01 X259.632 Y249.537
G01 X259.532 Y249.210
G01 X259.480 Y248.744
G01 X259.406 Y248.280
G01 X259.325 Y247.892
G01 X259.315 Y247.408
G01 X259.280 Y246.920
G01 X259.239 Y246.567
G01 X259.274 Y246.026
G01 X259.278 Y245.473
G01 X259.271 Y245.262
G01 X259.367 Y244.618
G01 X259.419 Y244.003
G01 X259.605 Y243.200
G01 X259.672 Y242.814
G01 X260.000 Y241.778
G01 X260.017 Y241.719
G01 X260.436 Y240.737
G01 X260.909 Y239.885
G01 X261.414 Y239.174
G01 X261.926 Y238.614
G01 X262.420 Y238.208
G01 X262.869 Y237.953
G01 X263.250 Y237.845
G01 X263.540 Y237.872
G01 X263.719 Y238.020
G01 X263.768 Y238.272
G01 X263.675 Y238.605
G01 X263.430 Y238.996
G01 X263.028 Y239.422
G01 X262.469 Y239.855
G01 X261.758 Y240.272
G01 X260.903 Y240.648
G01 X259.919 Y240.961
G01 X258.822 Y241.192
G01 X257.915 Y241.282
G01 X257.634 Y241.324
G01 X256.915 Y241.317
G01 X256.378 Y241.345
G01 X255.789 Y241.279
G01 X255.209 Y241.249
G01 X255.080 Y241.247
G01 X254.576 Y241.140
G01 X254.074 Y241.061
G01 X253.765 Y241.027
G01 X253.309 Y240.885
G01 X252.847 Y240.766
G01 X252.462 Y240.685
G01 X252.017 Y240.501
G01 X251.561 Y240.339
G01 X251.196 Y240.228
G01 X250.729 Y239.986
G01 X250.241 Y239.766
G01 X249.992 Y239.666
G01 X249.468 Y239.336
G01 X248.911 Y239.033
G01 X248.873 Y239.014
G01 X248.254 Y238.551
G01 X247.859 Y238.289
G01 X247.103 Y237.625
G01 X246.966 Y237.514
G01 X246.205 Y236.712
G01 X245.586 Y235.908
G01 X245.110 Y235.129
G01 X244.775 Y234.400
G01 X244.576 Y233.746
G01 X244.502 Y233.192
G01 X244.537 Y232.757
G01 X244.663 Y232.459
G01 X244.859 Y232.312
G01 X245.101 Y232.325
G01 X245.365 Y232.504
G01 X245.624 Y232.847
G01 X245.854 Y233.351
G01 X246.031 Y234.006
G01 X246.134 Y234.798
G01 X246.142 Y235.710
G01 X246.041 Y236.721
G01 X245.819 Y237.806
G01 X245.518 Y238.757
G01 X245.469 Y238.940
G01 X245.155 Y239.652
G01 X244.988 Y240.097
G01 X244.674 Y240.646
G01 X244.401 Y241.201
G01 X244.378 Y241.250
G01 X244.065 Y241.690
G01 X243.781 Y242.139
G01 X243.647 Y242.373
G01 X243.326 Y242.744
G01 X243.027 Y243.128
G01 X242.805 Y243.440
G01 X242.459 Y243.774
G01 X242.128 Y244.126
G01 X241.868 Y244.430
G01 X241.469 Y244.752
G01 X241.082 Y245.100
G01 X240.855 Y245.322
G01 X240.364 Y245.654
G01 X239.885 Y246.023
G01 X239.789 Y246.102
G01 X239.156 Y246.460
G01 X238.694 Y246.758
G01 X237.845 Y247.152
G01 X237.597 Y247.283
G01 X236.524 Y247.674
G01 X235.501 Y247.934
G01 X234.556 Y248.071
G01 X233.711 Y248.094
G01 X232.987 Y248.021
G01 X232.403 Y247.870
G01 X231.972 Y247.664
G01 X231.704 Y247.425
G01 X231.603 Y247.180
G01 X231.669 Y246.953
G01 X231.899 Y246.771
G01 X232.281 Y246.656
G01 X232.802 Y246.631
G01 X233.445 Y246.715
G01 X234.189 Y246.922
G01 X235.009 Y247.263
G01 X235.880 Y247.747
G01 X236.776 Y248.373
G01 X237.606 Y249.089
G01 X237.669 Y249.140
G01 X238.243 Y249.758
G01 X238.535 Y250.039
G01 X238.940 Y250.581
G01 X239.348 Y251.059
G01 X239.642 Y251.546
G01 X239.957 Y252.007
G01 X240.087 Y252.183
G01 X240.306 Y252.639
G01 X240.546 Y253.080
G01 X240.733 Y253.391
G01 X240.902 Y253.845
G01 X241.093 Y254.291
G01 X241.271 Y254.660
G01 X241.404 Y255.146
G01 X241.564 Y255.630
G01 X241.691 Y255.964
G01 X241.793 Y256.524
G01 X241.931 Y257.088
G01 X241.985 Y257.277
G01 X242.053 Y257.961
G01 X242.153 Y258.572
G01 X242.170 Y259.445
G01 X242.198 Y259.820
G01 X242.127 Y260.974
G01 X242.127 Y260.997
G01 X241.954 Y262.077
G01 X241.695 Y263.040
G01 X241.369 Y263.867
G01 X241.000 Y264.545
G01 X240.612 Y265.063
G01 X240.230 Y265.418
G01 X239.882 Y265.610
G01 X239.592 Y265.643
G01 X239.384 Y265.527
G01 X239.280 Y265.276
G01 X239.300 Y264.908
G01 X239.457 Y264.445
G01 X239.763 Y263.909
G01 X240.225 Y263.326
G01 X240.843 Y262.724
G01 X241.614 Y262.127
G01 X242.530 Y261.562
G01 X243.579 Y261.053
G01 X244.445 Y260.744
G01 X244.743 Y260.620
G01 X245.451 Y260.450
G01 X246.001 Y260.282
G01 X246.598 Y260.202
G01 X247.178 Y260.089
G01 X247.330 Y260.053
G01 X247.856 Y260.034
G01 X248.374 Y259.988
G01 X248.705 Y259.944
G01 X249.196 Y259.971
G01 X249.687 Y259.974
G01 X250.097 Y259.958
G01 X250.591 Y260.030
G01 X251.092 Y260.078
G01 X251.479 Y260.098
G01 X252.015 Y260.224
G01 X252.566 Y260.322
G01 X252.824 Y260.357
G01 X253.444 Y260.560
G01 X254.090 Y260.725
G01 X254.104 Y260.729
G01 X254.859 Y261.043
G01 X255.297 Y261.197
G01 X256.247 Y261.686
G01 X256.379 Y261.747
G01 X257.335 Y262.355
G01 X258.149 Y263.000
G01 X258.812 Y263.655
G01 X259.321 Y264.294
G01 X259.675 Y264.890
G01 X259.879 Y265.417
G01 X259.944 Y265.850
G01 X259.884 Y266.168
G01 X259.717 Y266.352
G01 X259.464 Y266.387
G01 X259.149 Y266.261
G01 X258.798 Y265.968
G01 X258.438 Y265.508
G01 X258.093 Y264.884
G01 X257.789 Y264.104
G01 X257.551 Y263.182
G01 X257.398 Y262.135
G01 X257.348 Y260.984
G01 X257.411 Y259.981
G01 X257.415 Y259.752
G01 X257.549 Y258.978
G01 X257.607 Y258.467
G01 X257.781 Y257.850
G01 X257.914 Y257.236
G01 X257.929 Y257.155
G01 X258.130 Y256.642
G01 X258.300 Y256.127
G01 X258.380 Y255.844
G01 X258.607 Y255.395
G01 X258.810 Y254.937
G01 X258.956 Y254.563
G01 X259.219 Y254.140
G01 X259.462 Y253.703
G01 X259.645 Y253.337
G01 X259.967 Y252.909
G01 X260.270 Y252.458
G01 X260.433 Y252.190
G01 X260.848 Y251.726
G01 X261.242 Y251.227
G01 X261.302 Y251.144
G01 X261.859 Y250.614
G01 X262.230 Y250.216
G01 X263.001 Y249.591
G01 X263.192 Y249.419
G01 X264.162 Y248.763
G01 X265.113 Y248.252
G01 X266.016 Y247.883
G01 X266.846 Y247.653
G01 X267.577 Y247.549
G01 X268.187 Y247.558
G01 X268.657 Y247.661
G01 X268.972 Y247.835
G01 X269.120 Y248.058
G01 X269.095 Y248.302
G01 X268.897 Y248.542
G01 X268.528 Y248.752
G01 X267.999 Y248.906
G01 X267.321 Y248.982
G01 X266.513 Y248.958
G01 X265.595 Y248.818
G01 X264.592 Y248.549
G01 X263.530 Y248.143
G01 X262.547 Y247.645
G01 X262.436 Y247.596
G01 X261.723 Y247.130
G01 X261.338 Y246.909
G01 X260.807 Y246.476
G01 X260.264 Y246.090
G01 X259.854 Y245.681
G01 X259.429 Y245.303
G01 X259.240 Y245.148
G01 X258.908 Y244.749
G01 X258.560 Y244.371
G01 X258.288 Y244.100
G01 X258.005 Y243.688
G01 X257.701 Y243.289
G01 X257.430 Y242.965
G01 X257.173 Y242.508
G01 X256.888 Y242.060
G01 X256.683 Y241.767
G01 X256.436 Y241.224
G01 X256.151 Y240.686
G01 X256.060 Y240.529
G01 X255.815 Y239.848
G01 X255.569 Y239.280
G01 X255.325 Y238.389
G01 X255.212 Y238.047
G01 X254.989 Y236.860
G01 X254.893 Y235.744
G01 X254.912 Y234.725
G01 X255.031 Y233.827
G01 X255.230 Y233.069
G01 X255.487 Y232.465
G01 X255.778 Y232.028
G01 X256.075 Y231.762
G01 X256.354 Y231.671
G01 X256.586 Y231.748
G01 X256.746 Y231.987
G01 X256.813 Y232.373
G01 X256.764 Y232.888
G01 X256.585 Y233.512
G01 X256.261 Y234.221
G01 X255.786 Y234.988
G01 X255.156 Y235.786
G01 X254.374 Y236.588
G01 X253.446 Y237.366
G01 X252.674 Y237.879
G01 X252.384 Y238.095
G01 X251.731 Y238.435
G01 X251.205 Y238.752
G01 X250.636 Y238.978
G01 X250.092 Y239.232
G01 X249.929 Y239.316
G01 X249.412 Y239.466
G01 X248.910 Y239.641
G01 X248.579 Y239.772
G01 X248.082 Y239.868
G01 X247.590 Y239.989
G01 X247.182 Y240.108
G01 X246.667 Y240.160
G01 X246.150 Y240.239
G01 X245.765 Y240.316
G01 X245.190 Y240.324
G01 X244.606 Y240.366
G01 X244.357 Y240.394
G01 X243.673 Y240.347
G01 X242.987 Y240.344
G01 X242.133 Y240.217
G01 X241.682 Y240.175
G01 X240.578 Y239.920
G01 X240.468 Y239.899
G01 X239.367 Y239.532
G01 X238.400 Y239.095
G01 X237.582 Y238.610
G01 X236.924 Y238.103
G01 X236.432 Y237.602
G01 X236.107 Y237.134
G01 X235.944 Y236.724
G01 X235.936 Y236.400
G01 X236.067 Y236.185
G01 X236.322 Y236.098
G01 X236.677 Y236.156
G01 X237.110 Y236.372
G01 X237.593 Y236.753
G01 X238.101 Y237.303
G01 X238.605 Y238.018
G01 X239.079 Y238.891
G01 X239.498 Y239.910
G01 X239.839 Y241.057
G01 X240.021 Y242.052
G01 X240.082 Y242.313
G01 X240.140 Y243.105
G01 X240.214 Y243.653
G01 X240.194 Y244.304
G01 X240.214 Y244.940
G01 X240.221 Y245.051
G01 X240.150 Y245.608
G01 X240.109 Y246.159
G01 X240.099 Y246.478
G01 X239.986 Y246.982
G01 X239.898 Y247.489
G01 X239.846 Y247.905
G01 X239.688 Y248.395
G01 X239.554 Y248.896
G01 X239.465 Y249.304
G01 X239.248 Y249.819
G01 X239.057 Y250.353
G01 X238.965 Y250.647
G01 X238.662 Y251.226
G01 X238.391 Y251.835
G01 X238.361 Y251.909
G01 X237.929 Y252.594
G01 X237.669 Y253.066
G01 X237.040 Y253.906
G01 X236.910 Y254.098
G01 X236.110 Y254.992
G01 X235.294 Y255.735
G01 X234.491 Y256.322
G01 X233.728 Y256.754
G01 X233.032 Y257.033
G01 X232.431 Y257.170
G01 X231.947 Y257.178
G01 X231.602 Y257.077
G01 X231.412 Y256.886
G01 X231.389 Y256.630
G01 X231.541 Y256.337
G01 X231.871 Y256.032
G01 X232.376 Y255.743
G01 X233.048 Y255.497
G01 X233.874 Y255.317
G01 X234.838 Y255.228
G01 X235.919 Y255.246
G01 X237.092 Y255.387
G01 X238.172 Y255.633
G01 X238.331 Y255.662
G01 X239.143 Y255.943
G01 X239.607 Y256.074
G01 X240.236 Y256.369
G01 X240.868 Y256.617
G01 X240.892 Y256.626
G01 X241.398 Y256.927
G01 X241.912 Y257.196
G01 X242.156 Y257.311
G01 X242.585 Y257.624
G01 X243.025 Y257.914
G01 X243.372 Y258.120
G01 X243.759 Y258.461
G01 X244.164 Y258.784
G01 X244.515 Y259.039
G01 X244.891 Y259.435
G01 X245.293 Y259.815
G01 X245.562 Y260.049
G01 X245.952 Y260.536
G01 X246.380 Y261.009
G01 X246.494 Y261.127
G01 X246.921 Y261.759
G01 X247.297 Y262.248
G01 X247.777 Y263.098
G01 X247.959 Y263.386
G01 X248.477 Y264.510
G01 X248.850 Y265.593
G01 X249.083 Y266.607
G01 X249.187 Y267.524
G01 X249.175 Y268.320
G01 X249.067 Y268.975
G01 X248.885 Y269.472
G01 X248.654 Y269.797
G01 X248.399 Y269.944
G01 X248.149 Y269.910
G01 X247.931 Y269.697
G01 X247.771 Y269.314
G01 X247.694 Y268.773
G01 X247.721 Y268.092
G01 X247.872 Y267.290
G01 X248.160 Y266.394
G01 X248.595 Y265.429
G01 X249.181 Y264.423
G01 X249.897 Y263.437
G01 X249.918 Y263.406
G01 X250.547 Y262.716
G01 X250.801 Y262.405
G01 X251.359 Y261.911
G01 X251.818 Y261.449
G01 X252.323 Y261.085
G01 X252.797 Y260.700
G01 X252.955 Y260.561
G01 X253.430 Y260.284
G01 X253.884 Y259.986
G01 X254.191 Y259.765
G01 X254.663 Y259.544
G01 X255.124 Y259.301
G01 X255.503 Y259.078
G01 X256.008 Y258.895
G01 X256.508 Y258.684
G01 X256.866 Y258.514
G01 X257.447 Y258.359
G01 X258.028 Y258.167
G01 X258.251 Y258.083
G01 X258.960 Y257.954
G01 X259.629 Y257.789
G01 X260.535 Y257.698
G01 X260.970 Y257.630
G01 X262.169 Y257.607
G01 X262.245 Y257.602
G01 X263.429 Y257.692
G01 X264.495 Y257.886
G01 X265.423 Y258.164
G01 X266.196 Y258.502
G01 X266.802 Y258.876
G01 X267.231 Y259.259
G01 X267.483 Y259.622
G01 X267.560 Y259.937
G01 X267.470 Y260.179
G01 X267.225 Y260.321
G01 X266.844 Y260.344
G01 X266.347 Y260.227
G01 X265.758 Y259.958
G01 X265.104 Y259.527
G01 X264.413 Y258.929
G01 X263.714 Y258.167
G01 X263.035 Y257.245
G01 X262.402 Y256.177
G01 X261.981 Y255.250
G01 X261.840 Y254.976
G01 X261.589 Y254.215
G01 X261.370 Y253.665
G01 X261.229 Y253.020
G01 X261.052 Y252.398
G01 X261.010 Y252.266
G01 X260.942 Y251.698
G01 X260.845 Y251.141
G01 X260.772 Y250.807
G01 X260.759 Y250.277
G01 X260.719 Y249.749
G01 X260.666 Y249.316
G01 X260.701 Y248.785
G01 X260.708 Y248.248
G01 X260.695 Y247.823
G01 X260.783 Y247.248
G01 X260.839 Y246.659
G01 X260.856 Y246.358
G01 X261.015 Y245.692
G01 X261.134 Y245.003
G01 X261.142 Y244.949
G01 X261.406 Y244.139
G01 X261.541 Y243.625
G01 X261.967 Y242.600
G01 X262.037 Y242.409
G01 X262.608 Y241.323
G01 X263.232 Y240.384
G01 X263.882 Y239.604
G01 X264.529 Y238.991
G01 X265.146 Y238.547
G01 X265.703 Y238.269
G01 X266.174 Y238.149
G01 X266.534 Y238.174
G01 X266.760 Y238.325
G01 X266.835 Y238.582
G01 X266.744 Y238.921
G01 X266.478 Y239.315
G01 X266.034 Y239.735
G01 X265.412 Y240.154
G01 X264.619 Y240.544
G01 X263.667 Y240.877
G01 X262.573 Y241.132
G01 X261.356 Y241.286
G01 X260.243 Y241.310
G01 X260.042 Y241.323
G01 X259.179 Y241.247
G01 X258.658 Y241.232
G01 X257.967 Y241.097
G01 X257.284 Y241.008
G01 X257.231 Y241.003
G01 X256.656 Y240.831
G01 X256.082 Y240.693
G01 X255.793 Y240.636
G01 X255.289 Y240.432
G01 X254.778 Y240.254
