;  Created by Sandify
;  https://sandify.org
;  Version: 0.2.6
;
;  Machine type: Rectangular
;    Min X (mm): 0
;    Max X (mm): 500
;    Min Y (mm): 0
;    Max Y (mm): 500
;  Content type: shape
;  Layer:
;    Shape: FileImport
;    Name: AcklingDykeDorset 6-4-2018.thr
;    From file:: AcklingDykeDorset 6-4-2018.thr
;    Aspect Ratio: true
;    Comments: 
;    Visible: true
;    Initial width: 10
;    Initial height: 10
;    X offset: 0
;    Y offset: 0
;    Rotate (degrees): 0
;    Reverse path: false
;    Fine tuning:
;      Connect to next layer: line
;      Draw portion of path (%): 100
;      Backtrack at end (%): 0
;      Rotate starting point (%): 0
;  Reverse export path: false
;
; File name: 'Ackling star (C C)'
; File type: gcode
;

G01 X250.000 Y250.000
G01 X253.128 Y105.834
G01 X253.116 Y58.750
G01 X262.497 Y59.134
G01 X271.847 Y59.977
G01 X281.145 Y61.278
G01 X290.367 Y63.033
G01 X299.493 Y65.239
G01 X308.499 Y67.890
G01 X317.364 Y70.980
G01 X326.067 Y74.501
G01 X330.170 Y76.337
G01 X309.731 Y118.753
G01 X315.358 Y121.490
G01 X335.799 Y79.020
G01 X344.085 Y83.436
G01 X352.145 Y88.253
G01 X359.958 Y93.460
G01 X367.507 Y99.044
G01 X374.773 Y104.991
G01 X381.738 Y111.288
G01 X388.385 Y117.920
G01 X394.699 Y124.869
G01 X397.600 Y128.304
G01 X360.762 Y157.667
G01 X356.086 Y152.355
G01 X353.705 Y149.842
G01 X377.837 Y126.534
G01 X371.599 Y120.438
G01 X365.071 Y114.656
G01 X358.268 Y109.203
G01 X351.208 Y104.091
G01 X343.906 Y99.333
G01 X341.818 Y98.064
G01 X331.487 Y115.160
G01 X338.005 Y119.321
G01 X344.311 Y123.796
G01 X350.390 Y128.576
G01 X356.024 Y133.462
G01 X350.178 Y128.401
G01 X344.090 Y123.631
G01 X337.776 Y119.167
G01 X331.487 Y115.160
G01 X341.818 Y98.064
G01 X349.184 Y102.721
G01 X356.314 Y107.735
G01 X363.191 Y113.094
G01 X369.798 Y118.785
G01 X376.119 Y124.794
G01 X377.837 Y126.534
G01 X353.705 Y149.842
G01 X358.502 Y155.044
G01 X363.039 Y160.476
G01 X364.664 Y162.560
G01 X401.488 Y133.179
G01 X407.038 Y140.753
G01 X412.209 Y148.590
G01 X416.989 Y156.672
G01 X421.368 Y164.978
G01 X425.333 Y173.489
G01 X428.876 Y182.184
G01 X431.988 Y191.043
G01 X434.662 Y200.044
G01 X435.785 Y204.397
G01 X389.855 Y214.869
G01 X387.959 Y208.050
G01 X385.731 Y201.332
G01 X383.176 Y194.732
G01 X380.301 Y188.266
G01 X377.111 Y181.949
G01 X373.616 Y175.795
G01 X370.723 Y171.181
G01 X398.816 Y152.840
G01 X403.371 Y160.278
G01 X407.555 Y167.929
G01 X411.358 Y175.775
G01 X414.771 Y183.796
G01 X417.785 Y191.973
G01 X418.557 Y194.291
G01 X399.591 Y200.559
G01 X396.985 Y193.279
G01 X394.025 Y186.135
G01 X390.718 Y179.145
G01 X387.207 Y172.565
G01 X390.842 Y179.391
G01 X394.137 Y186.387
G01 X397.084 Y193.536
G01 X399.591 Y200.559
G01 X418.557 Y194.291
G01 X415.656 Y186.074
G01 X412.355 Y178.007
G01 X408.660 Y170.110
G01 X404.582 Y162.403
G01 X400.130 Y154.903
G01 X398.816 Y152.840
G01 X370.723 Y171.181
G01 X374.448 Y177.198
G01 X377.873 Y183.391
G01 X380.990 Y189.744
G01 X383.792 Y196.243
G01 X386.272 Y202.871
G01 X388.423 Y209.614
G01 X390.241 Y216.454
G01 X391.248 Y220.970
G01 X437.148 Y210.482
G01 X438.862 Y219.712
G01 X440.120 Y229.016
G01 X440.921 Y238.370
G01 X441.262 Y247.752
G01 X441.142 Y257.139
G01 X440.561 Y266.510
G01 X439.522 Y275.840
G01 X438.025 Y285.108
G01 X437.148 Y289.517
G01 X391.248 Y279.029
G01 X392.486 Y272.061
G01 X392.966 Y268.632
G01 X426.235 Y272.968
G01 X427.112 Y264.290
G01 X427.562 Y255.581
G01 X427.584 Y246.863
G01 X427.178 Y238.155
G01 X426.346 Y229.480
G01 X426.036 Y227.056
G01 X406.229 Y229.638
G01 X407.040 Y237.328
G01 X407.472 Y245.049
G01 X407.525 Y252.782
G01 X407.217 Y260.233
G01 X407.530 Y252.506
G01 X407.463 Y244.774
G01 X407.017 Y237.054
G01 X406.229 Y229.638
G01 X426.036 Y227.056
G01 X426.988 Y235.719
G01 X427.513 Y244.419
G01 X427.611 Y253.137
G01 X427.281 Y261.850
G01 X426.523 Y270.539
G01 X426.235 Y272.968
G01 X392.966 Y268.632
G01 X391.890 Y275.627
G01 X390.472 Y282.560
G01 X389.855 Y285.130
G01 X435.761 Y295.596
G01 X433.300 Y304.656
G01 X430.397 Y313.584
G01 X427.060 Y322.359
G01 X423.296 Y330.960
G01 X419.115 Y339.366
G01 X414.526 Y347.556
G01 X409.541 Y355.512
G01 X404.172 Y363.213
G01 X401.469 Y366.804
G01 X364.665 Y337.440
G01 X368.814 Y331.706
G01 X372.677 Y325.776
G01 X376.244 Y319.663
G01 X379.507 Y313.383
G01 X382.457 Y306.951
G01 X385.089 Y300.381
G01 X386.892 Y295.243
G01 X418.748 Y305.771
G01 X415.773 Y313.970
G01 X412.399 Y322.012
G01 X408.637 Y329.876
G01 X404.493 Y337.545
G01 X399.979 Y345.000
G01 X398.649 Y347.050
G01 X381.923 Y336.130
G01 X385.990 Y329.553
G01 X389.730 Y322.784
G01 X393.133 Y315.840
G01 X396.088 Y308.994
G01 X393.018 Y316.091
G01 X389.602 Y323.029
G01 X385.851 Y329.791
G01 X381.923 Y336.130
G01 X398.649 Y347.050
G01 X403.265 Y339.658
G01 X407.513 Y332.047
G01 X411.383 Y324.235
G01 X414.867 Y316.241
G01 X417.954 Y308.084
G01 X418.748 Y305.771
G01 X386.892 Y295.243
G01 X384.511 Y301.906
G01 X381.805 Y308.445
G01 X378.781 Y314.844
G01 X375.447 Y321.086
G01 X371.811 Y327.158
G01 X367.881 Y333.044
G01 X363.666 Y338.730
G01 X360.763 Y342.332
G01 X397.581 Y371.679
G01 X391.435 Y378.776
G01 X384.948 Y385.563
G01 X378.136 Y392.024
G01 X371.015 Y398.142
G01 X363.602 Y403.904
G01 X355.915 Y409.295
G01 X347.972 Y414.303
G01 X339.794 Y418.915
G01 X335.800 Y420.979
G01 X315.370 Y378.531
G01 X321.590 Y375.155
G01 X324.570 Y373.392
G01 X341.923 Y402.106
G01 X349.255 Y397.381
G01 X356.344 Y392.303
G01 X363.174 Y386.885
G01 X369.729 Y381.138
G01 X375.993 Y375.079
G01 X377.694 Y373.326
G01 X363.326 Y359.449
G01 X357.819 Y364.878
G01 X352.053 Y370.030
G01 X346.040 Y374.893
G01 X340.023 Y379.298
G01 X346.259 Y374.725
G01 X352.263 Y369.851
G01 X358.020 Y364.689
G01 X363.326 Y359.449
G01 X377.694 Y373.326
G01 X371.515 Y379.471
G01 X365.041 Y385.306
G01 X358.286 Y390.818
G01 X351.268 Y395.993
G01 X344.002 Y400.818
G01 X341.923 Y402.106
G01 X324.570 Y373.392
G01 X318.431 Y376.912
G01 X312.126 Y380.127
G01 X309.732 Y381.247
G01 X330.171 Y423.663
G01 X321.554 Y427.387
G01 X312.763 Y430.684
G01 X303.822 Y433.546
G01 X294.751 Y435.966
G01 X285.572 Y437.938
G01 X276.308 Y439.457
G01 X266.980 Y440.520
G01 X257.611 Y441.124
G01 X253.118 Y441.250
G01 X253.129 Y394.166
G01 X260.199 Y393.835
G01 X267.244 Y393.158
G01 X274.247 Y392.136
G01 X281.191 Y390.771
G01 X288.060 Y389.068
G01 X294.836 Y387.029
G01 X299.979 Y385.235
G01 X311.609 Y416.705
G01 X303.343 Y419.491
G01 X294.953 Y421.868
G01 X286.458 Y423.829
G01 X277.879 Y425.371
G01 X269.236 Y426.490
G01 X266.804 Y426.728
G01 X264.913 Y406.843
G01 X272.591 Y405.922
G01 X280.215 Y404.626
G01 X287.766 Y402.957
G01 X294.961 Y400.998
G01 X287.498 Y403.023
G01 X279.944 Y404.678
G01 X272.318 Y405.961
G01 X264.913 Y406.843
G01 X267.455 Y426.640
G01 X276.108 Y425.613
G01 X284.702 Y424.163
G01 X293.217 Y422.292
G01 X301.631 Y420.006
G01 X309.925 Y417.308
G01 X311.609 Y416.705
G01 X299.979 Y385.235
G01 X293.284 Y387.528
G01 X286.484 Y389.489
G01 X279.597 Y391.114
G01 X272.637 Y392.400
G01 X265.623 Y393.342
G01 X258.571 Y393.940
G01 X251.498 Y394.190
G01 X246.871 Y394.166
G01 X246.882 Y441.250
G01 X237.502 Y440.869
G01 X228.151 Y440.029
G01 X218.853 Y438.731
G01 X209.629 Y436.978
G01 X200.502 Y434.775
G01 X191.494 Y432.126
G01 X182.627 Y429.039
G01 X173.922 Y425.520
G01 X169.818 Y423.685
G01 X190.268 Y381.247
G01 X196.786 Y384.004
G01 X200.021 Y385.235
G01 X188.391 Y416.705
G01 X196.657 Y419.491
G01 X205.047 Y421.868
G01 X213.542 Y423.829
G01 X222.121 Y425.371
G01 X230.764 Y426.490
G01 X233.196 Y426.728
G01 X235.087 Y406.843
G01 X227.409 Y405.922
G01 X219.785 Y404.626
G01 X212.234 Y402.957
G01 X205.039 Y400.998
G01 X212.502 Y403.023
G01 X220.056 Y404.678
G01 X227.682 Y405.961
G01 X235.087 Y406.843
G01 X233.196 Y426.728
G01 X224.539 Y425.728
G01 X215.940 Y424.304
G01 X207.419 Y422.460
G01 X198.997 Y420.199
G01 X190.695 Y417.527
G01 X188.391 Y416.705
G01 X200.021 Y385.235
G01 X193.442 Y382.630
G01 X186.997 Y379.704
G01 X184.630 Y378.531
G01 X164.211 Y420.957
G01 X155.924 Y416.544
G01 X147.864 Y411.730
G01 X140.050 Y406.526
G01 X132.500 Y400.945
G01 X125.233 Y395.000
G01 X118.266 Y388.705
G01 X111.617 Y382.076
G01 X105.301 Y375.129
G01 X102.399 Y371.695
G01 X139.237 Y342.332
G01 X143.904 Y347.653
G01 X148.826 Y352.739
G01 X153.991 Y357.577
G01 X159.388 Y362.155
G01 X165.002 Y366.463
G01 X170.821 Y370.491
G01 X175.430 Y373.392
G01 X158.077 Y402.106
G01 X150.745 Y397.381
G01 X143.656 Y392.303
G01 X136.826 Y386.885
G01 X130.271 Y381.138
G01 X124.007 Y375.079
G01 X122.306 Y373.326
G01 X136.674 Y359.449
G01 X142.181 Y364.878
G01 X147.947 Y370.030
G01 X153.960 Y374.893
G01 X159.977 Y379.298
G01 X153.741 Y374.725
G01 X147.737 Y369.851
G01 X141.980 Y364.689
G01 X136.674 Y359.449
G01 X122.306 Y373.326
G01 X128.485 Y379.471
G01 X134.959 Y385.306
G01 X141.714 Y390.818
G01 X148.732 Y395.993
G01 X155.998 Y400.818
G01 X158.077 Y402.106
G01 X175.430 Y373.392
G01 X169.463 Y369.588
G01 X163.690 Y365.494
G01 X158.125 Y361.123
G01 X152.781 Y356.483
G01 X147.671 Y351.587
G01 X142.807 Y346.446
G01 X138.201 Y341.072
G01 X135.335 Y337.440
G01 X98.531 Y366.804
G01 X92.980 Y359.233
G01 X87.807 Y351.399
G01 X83.024 Y343.319
G01 X78.643 Y335.015
G01 X74.676 Y326.506
G01 X71.130 Y317.812
G01 X68.015 Y308.954
G01 X65.339 Y299.955
G01 X64.215 Y295.602
G01 X110.145 Y285.130
G01 X112.053 Y291.945
G01 X113.108 Y295.243
G01 X81.252 Y305.771
G01 X84.227 Y313.970
G01 X87.601 Y322.012
G01 X91.363 Y329.876
G01 X95.507 Y337.545
G01 X100.021 Y345.000
G01 X101.351 Y347.050
G01 X118.077 Y336.130
G01 X114.010 Y329.553
G01 X110.270 Y322.784
G01 X106.867 Y315.840
G01 X103.912 Y308.994
G01 X106.982 Y316.091
G01 X110.398 Y323.029
G01 X114.149 Y329.791
G01 X118.077 Y336.130
G01 X101.351 Y347.050
G01 X96.735 Y339.658
G01 X92.487 Y332.047
G01 X88.617 Y324.235
G01 X85.133 Y316.241
G01 X82.046 Y308.084
G01 X81.252 Y305.771
G01 X113.108 Y295.243
G01 X111.042 Y288.474
G01 X109.312 Y281.612
G01 X108.752 Y279.029
G01 X62.827 Y289.522
G01 X61.113 Y280.290
G01 X59.855 Y270.986
G01 X59.054 Y261.630
G01 X58.713 Y252.247
G01 X58.833 Y242.858
G01 X59.414 Y233.487
G01 X60.454 Y224.155
G01 X61.950 Y214.886
G01 X62.827 Y210.476
G01 X108.936 Y220.213
G01 X107.644 Y227.170
G01 X106.695 Y234.183
G01 X106.092 Y241.234
G01 X105.835 Y248.305
G01 X105.925 Y255.381
G01 X106.363 Y262.444
G01 X107.034 Y268.632
G01 X73.765 Y272.968
G01 X72.888 Y264.290
G01 X72.438 Y255.581
G01 X72.416 Y246.863
G01 X72.822 Y238.155
G01 X73.654 Y229.480
G01 X73.964 Y227.056
G01 X93.771 Y229.638
G01 X92.960 Y237.328
G01 X92.528 Y245.049
G01 X92.475 Y252.782
G01 X92.783 Y260.233
G01 X92.470 Y252.506
G01 X92.537 Y244.774
G01 X92.983 Y237.054
G01 X93.771 Y229.638
G01 X73.964 Y227.056
G01 X73.012 Y235.719
G01 X72.487 Y244.419
G01 X72.389 Y253.137
G01 X72.719 Y261.850
G01 X73.477 Y270.539
G01 X73.765 Y272.968
G01 X107.034 Y268.632
G01 X106.289 Y261.595
G01 X105.890 Y254.530
G01 X105.838 Y247.453
G01 X106.133 Y240.382
G01 X106.775 Y233.334
G01 X107.762 Y226.326
G01 X109.092 Y219.374
G01 X110.145 Y214.869
G01 X64.215 Y204.397
G01 X66.677 Y195.336
G01 X69.580 Y186.406
G01 X72.917 Y177.630
G01 X76.682 Y169.028
G01 X80.864 Y160.621
G01 X85.453 Y152.430
G01 X90.439 Y144.473
G01 X95.809 Y136.771
G01 X98.512 Y133.179
G01 X135.336 Y162.560
G01 X131.198 Y168.301
G01 X129.277 Y171.181
G01 X101.184 Y152.840
G01 X96.629 Y160.278
G01 X92.445 Y167.929
G01 X88.642 Y175.775
G01 X85.229 Y183.796
G01 X82.215 Y191.973
G01 X81.443 Y194.291
G01 X100.409 Y200.559
G01 X103.015 Y193.279
G01 X105.975 Y186.135
G01 X109.282 Y179.145
G01 X112.793 Y172.565
G01 X109.158 Y179.391
G01 X105.863 Y186.387
G01 X102.916 Y193.536
G01 X100.409 Y200.559
G01 X81.443 Y194.291
G01 X84.344 Y186.074
G01 X87.645 Y178.007
G01 X91.340 Y170.110
G01 X95.418 Y162.403
G01 X99.870 Y154.903
G01 X101.184 Y152.840
G01 X129.277 Y171.181
G01 X133.281 Y165.346
G01 X137.567 Y159.715
G01 X139.238 Y157.667
G01 X102.420 Y128.320
G01 X108.566 Y121.223
G01 X115.053 Y114.436
G01 X121.865 Y107.975
G01 X128.986 Y101.857
G01 X136.399 Y96.095
G01 X144.086 Y90.704
G01 X152.029 Y85.696
G01 X160.207 Y81.085
G01 X164.201 Y79.020
G01 X184.630 Y121.468
G01 X178.404 Y124.834
G01 X172.351 Y128.501
G01 X166.485 Y132.460
G01 X160.820 Y136.702
G01 X155.371 Y141.217
G01 X150.150 Y145.994
G01 X146.295 Y149.842
G01 X122.163 Y126.534
G01 X128.401 Y120.438
G01 X134.929 Y114.656
G01 X141.732 Y109.203
G01 X148.792 Y104.091
G01 X156.094 Y99.333
G01 X158.182 Y98.064
G01 X168.513 Y115.160
G01 X161.995 Y119.321
G01 X155.689 Y123.796
G01 X149.610 Y128.576
G01 X143.976 Y133.462
G01 X149.822 Y128.401
G01 X155.910 Y123.631
G01 X162.224 Y119.167
G01 X168.513 Y115.160
G01 X158.182 Y98.064
G01 X150.816 Y102.721
G01 X143.686 Y107.735
G01 X136.809 Y113.094
G01 X130.202 Y118.785
G01 X123.881 Y124.794
G01 X122.163 Y126.534
G01 X146.295 Y149.842
G01 X151.332 Y144.871
G01 X156.607 Y140.154
G01 X162.108 Y135.701
G01 X167.820 Y131.523
G01 X173.731 Y127.631
G01 X179.826 Y124.033
G01 X186.089 Y120.739
G01 X190.269 Y118.753
G01 X169.819 Y76.314
G01 X178.439 Y72.592
G01 X187.232 Y69.297
G01 X196.175 Y66.438
G01 X205.247 Y64.021
G01 X214.427 Y62.052
G01 X223.693 Y60.536
G01 X233.021 Y59.476
G01 X242.390 Y58.875
G01 X245.775 Y58.772
G01 X246.872 Y105.834
G01 X239.820 Y106.412
G01 X236.387 Y106.821
G01 X233.178 Y73.073
G01 X224.522 Y74.149
G01 X215.932 Y75.648
G01 X207.427 Y77.566
G01 X199.028 Y79.899
G01 X190.756 Y82.641
G01 X188.462 Y83.482
G01 X195.386 Y102.219
G01 X202.703 Y99.717
G01 X210.134 Y97.577
G01 X217.661 Y95.805
G01 X224.994 Y94.447
G01 X217.391 Y95.861
G01 X209.867 Y97.647
G01 X202.440 Y99.800
G01 X195.386 Y102.219
G01 X188.462 Y83.482
G01 X196.695 Y80.627
G01 X205.060 Y78.179
G01 X213.538 Y76.144
G01 X222.106 Y74.527
G01 X230.746 Y73.332
G01 X233.178 Y73.073
G01 X236.354 Y106.472
G01 X243.413 Y105.976
G01 X250.488 Y105.826
G01 X257.561 Y106.023
G01 X263.648 Y106.472
G01 X266.824 Y73.073
G01 X275.480 Y74.149
G01 X284.071 Y75.649
G01 X292.576 Y77.567
G01 X300.974 Y79.900
G01 X309.247 Y82.642
G01 X311.541 Y83.483
G01 X304.616 Y102.220
G01 X297.299 Y99.718
G01 X289.868 Y97.578
G01 X282.341 Y95.805
G01 X275.008 Y94.447
G01 X282.611 Y95.862
G01 X290.135 Y97.648
G01 X297.562 Y99.801
G01 X304.616 Y102.220
G01 X310.916 Y83.280
G01 X302.674 Y80.451
G01 X294.302 Y78.028
G01 X285.820 Y76.019
G01 X277.246 Y74.429
G01 X268.603 Y73.260
G01 X266.824 Y73.073
G01 X263.648 Y106.472
G01 X270.675 Y107.315
G01 X273.995 Y107.836
G01 X280.942 Y109.184
G01 X284.580 Y110.033
G01 X291.406 Y111.899
G01 X293.681 Y112.601
G01 X300.370 Y114.910
G01 X302.191 Y115.603
G01 X308.722 Y118.326
G01 X312.556 Y120.103
G01 X318.855 Y123.329
G01 X321.138 Y124.597
G01 X327.205 Y128.239
G01 X333.087 Y132.174
G01 X336.517 Y134.669
G01 X342.072 Y139.053
G01 X345.867 Y142.316
G01 X351.035 Y147.149
G01 X353.696 Y149.833
G01 X358.499 Y155.030
G01 X360.764 Y157.669
G01 X365.152 Y163.221
G01 X369.263 Y168.982
G01 X370.724 Y171.183
G01 X374.446 Y177.202
G01 X377.868 Y183.396
G01 X380.982 Y189.750
G01 X382.620 Y193.446
G01 X385.235 Y200.021
G01 X387.525 Y206.717
G01 X389.483 Y213.517
G01 X390.379 Y217.133
G01 X391.822 Y224.061
G01 X392.924 Y231.051
G01 X393.682 Y238.086
G01 X393.688 Y238.164
G01 X394.096 Y245.228
G01 X394.157 Y252.305
G01 X393.870 Y259.375
G01 X393.782 Y260.632
G01 X393.088 Y267.674
G01 X392.048 Y274.674
G01 X390.666 Y281.614
G01 X389.603 Y286.020
G01 X387.667 Y292.827
G01 X385.400 Y299.530
G01 X382.807 Y306.114
G01 X382.317 Y307.259
G01 X379.348 Y313.683
G01 X376.068 Y319.953
G01 X372.483 Y326.055
G01 X371.976 Y326.866
G01 X368.057 Y332.758
G01 X363.854 Y338.451
G01 X359.377 Y343.931
G01 X355.451 Y348.319
G01 X350.500 Y353.374
G01 X345.306 Y358.181
G01 X339.883 Y362.727
G01 X338.360 Y363.925
G01 X332.664 Y368.123
G01 X326.768 Y372.037
G01 X320.688 Y375.657
G01 X314.437 Y378.974
G01 X313.034 Y379.666
G01 X306.595 Y382.602
G01 X300.021 Y385.220
G01 X293.325 Y387.511
G01 X286.526 Y389.471
G01 X279.638 Y391.096
G01 X279.601 Y391.103
G01 X272.642 Y392.386
G01 X265.628 Y393.325
G01 X258.577 Y393.920
G01 X251.505 Y394.167
G01 X244.429 Y394.067
G01 X242.677 Y393.989
G01 X235.621 Y393.456
G01 X228.599 Y392.578
G01 X221.629 Y391.356
G01 X214.727 Y389.794
G01 X208.909 Y388.195
G01 X202.178 Y386.013
G01 X195.561 Y383.502
G01 X189.076 Y380.670
G01 X185.166 Y378.775
G01 X178.926 Y375.439
G01 X172.856 Y371.800
G01 X166.973 Y367.868
G01 X161.289 Y363.652
G01 X155.820 Y359.163
G01 X153.713 Y357.309
G01 X148.563 Y352.455
G01 X143.658 Y347.355
G01 X139.010 Y342.019
G01 X134.628 Y336.462
G01 X131.055 Y331.477
G01 X127.200 Y325.542
G01 X123.641 Y319.426
G01 X120.387 Y313.142
G01 X117.445 Y306.706
G01 X115.051 Y300.746
G01 X112.748 Y294.056
G01 X110.776 Y287.261
G01 X109.140 Y280.380
G01 X107.910 Y273.833
G01 X106.887 Y266.835
G01 X106.209 Y259.794
G01 X105.876 Y252.727
G01 X105.891 Y245.651
G01 X105.898 Y245.428
G01 X106.295 Y238.363
G01 X107.040 Y231.325
G01 X108.128 Y224.333
G01 X109.558 Y217.403
G01 X111.327 Y210.551
G01 X113.430 Y203.794
G01 X113.624 Y203.224
G01 X116.083 Y196.589
G01 X118.865 Y190.082
G01 X121.963 Y183.720
G01 X125.370 Y177.517
G01 X126.542 Y175.539
G01 X130.344 Y169.570
G01 X134.435 Y163.796
G01 X137.281 Y160.106
G01 X141.828 Y154.684
G01 X146.635 Y149.491
G01 X151.691 Y144.540
G01 X156.985 Y139.843
G01 X158.742 Y138.383
G01 X164.329 Y134.039
G01 X170.122 Y129.975
G01 X176.108 Y126.200
G01 X182.271 Y122.724
G01 X188.598 Y119.554
G01 X194.829 Y116.799
G01 X201.432 Y114.252
G01 X208.151 Y112.032
G01 X214.971 Y110.145
G01 X221.876 Y108.595
G01 X227.332 Y107.618
G01 X234.346 Y106.677
G01 X234.549 Y106.655
G01 X241.607 Y106.170
G01 X241.608 Y106.170
G01 X248.675 Y105.847
G01 X250.003 Y105.825
G01 X250.027 Y25.475
G01 X250.027 Y25.600
G01 X249.960 Y25.725
G01 X249.870 Y25.825
G01 X249.758 Y25.900
G01 X249.602 Y25.950
G01 X249.422 Y25.951
G01 X249.243 Y25.901
G01 X249.063 Y25.802
G01 X248.883 Y25.678
G01 X248.748 Y25.503
G01 X248.634 Y25.279
G01 X248.543 Y25.030
G01 X248.518 Y24.730
G01 X248.539 Y24.430
G01 X248.650 Y24.129
G01 X248.806 Y23.803
G01 X249.031 Y23.527
G01 X249.302 Y23.251
G01 X249.642 Y23.025
G01 X250.005 Y22.875
G01 X250.437 Y22.775
G01 X250.914 Y22.752
G01 X251.391 Y22.829
G01 X251.867 Y22.958
G01 X252.341 Y23.212
G01 X252.768 Y23.517
G01 X253.171 Y23.897
G01 X253.502 Y24.377
G01 X253.764 Y24.906
G01 X253.933 Y25.534
G01 X253.990 Y26.161
G01 X253.933 Y26.835
G01 X253.788 Y27.507
G01 X253.533 Y28.153
G01 X253.169 Y28.773
G01 X252.675 Y29.316
G01 X252.097 Y29.810
G01 X251.390 Y30.204
G01 X250.641 Y30.476
G01 X249.829 Y30.625
G01 X248.974 Y30.652
G01 X248.118 Y30.558
G01 X247.281 Y30.317
G01 X246.461 Y29.928
G01 X245.702 Y29.392
G01 X245.047 Y28.705
G01 X244.474 Y27.919
G01 X244.028 Y27.030
G01 X243.711 Y26.088
G01 X243.570 Y25.067
G01 X243.585 Y24.016
G01 X243.783 Y22.960
G01 X244.142 Y21.925
G01 X244.690 Y20.962
G01 X245.383 Y20.071
G01 X246.221 Y19.281
G01 X247.205 Y18.617
G01 X248.289 Y18.131
G01 X249.471 Y17.851
G01 X250.702 Y17.726
G01 X251.956 Y17.808
G01 X253.206 Y18.072
G01 X254.403 Y18.542
G01 X255.544 Y19.242
G01 X256.558 Y20.119
G01 X257.423 Y21.145
G01 X258.136 Y22.345
G01 X258.656 Y23.640
G01 X258.986 Y25.029
G01 X259.086 Y26.460
G01 X258.916 Y27.904
G01 X258.527 Y29.340
G01 X257.902 Y30.717
G01 X257.071 Y31.990
G01 X256.014 Y33.133
G01 X254.798 Y34.103
G01 X253.425 Y34.877
G01 X251.915 Y35.409
G01 X250.305 Y35.700
G01 X248.655 Y35.729
G01 X247.002 Y35.521
G01 X245.382 Y35.025
G01 X243.855 Y34.288
G01 X242.438 Y33.282
G01 X241.195 Y32.053
G01 X240.170 Y30.620
G01 X239.345 Y29.007
G01 X238.770 Y27.283
G01 X238.478 Y25.495
G01 X238.496 Y23.642
G01 X238.814 Y21.799
G01 X239.440 Y19.992
G01 X240.361 Y18.300
G01 X241.511 Y16.754
G01 X242.918 Y15.407
G01 X244.536 Y14.288
G01 X246.338 Y13.428
G01 X248.298 Y12.881
G01 X250.314 Y12.650
G01 X252.378 Y12.737
G01 X254.412 Y13.116
G01 X256.383 Y13.836
G01 X258.237 Y14.894
G01 X259.899 Y16.235
G01 X261.343 Y17.852
G01 X262.522 Y19.715
G01 X263.421 Y21.719
G01 X263.974 Y23.881
G01 X264.174 Y26.098
G01 X264.009 Y28.367
G01 X263.494 Y30.590
G01 X262.620 Y32.741
G01 X261.403 Y34.727
G01 X259.895 Y36.529
G01 X258.063 Y38.053
G01 X256.012 Y39.261
G01 X253.782 Y40.184
G01 X251.407 Y40.730
G01 X248.959 Y40.878
G01 X246.508 Y40.629
G01 X244.102 Y39.983
G01 X241.791 Y38.960
G01 X239.674 Y37.601
G01 X237.765 Y35.874
G01 X236.153 Y33.868
G01 X234.889 Y31.597
G01 X233.988 Y29.155
G01 X233.463 Y26.561
G01 X233.358 Y23.912
G01 X233.689 Y21.231
G01 X234.458 Y18.646
G01 X235.631 Y16.191
G01 X237.199 Y13.947
G01 X239.119 Y11.949
G01 X241.323 Y10.257
G01 X243.808 Y8.929
G01 X246.473 Y8.051
G01 X249.278 Y7.576
G01 X252.163 Y7.560
G01 X255.016 Y7.977
G01 X257.772 Y8.875
G01 X260.371 Y10.199
G01 X262.752 Y11.966
G01 X264.841 Y14.066
G01 X266.587 Y16.513
G01 X267.928 Y19.195
G01 X268.827 Y22.101
G01 X269.234 Y25.121
G01 X269.174 Y28.177
G01 X268.622 Y31.241
G01 X267.591 Y34.166
G01 X266.101 Y36.932
G01 X264.177 Y39.427
G01 X261.834 Y41.586
G01 X259.186 Y43.354
G01 X256.267 Y44.721
G01 X253.152 Y45.624
G01 X249.923 Y45.975
G01 X246.656 Y45.827
G01 X243.426 Y45.130
G01 X240.313 Y43.953
G01 X237.422 Y42.280
G01 X234.808 Y40.174
G01 X232.573 Y37.639
G01 X230.754 Y34.759
G01 X229.392 Y31.595
G01 X228.540 Y28.261
G01 X228.231 Y24.825
G01 X228.493 Y21.334
G01 X229.295 Y17.922
G01 X230.665 Y14.668
G01 X232.526 Y11.640
G01 X234.822 Y8.927
G01 X237.558 Y6.618
G01 X240.682 Y4.777
G01 X244.062 Y3.446
G01 X247.606 Y2.637
G01 X251.268 Y2.403
G01 X254.951 Y2.750
G01 X258.531 Y3.698
G01 X261.960 Y5.217
G01 X265.097 Y7.294
G01 X267.884 Y9.815
G01 X270.267 Y12.764
G01 X272.152 Y16.097
G01 X273.485 Y19.694
G01 X274.220 Y23.491
G01 X274.375 Y27.305
G01 X273.880 Y31.224
G01 X272.796 Y34.980
G01 X271.114 Y38.551
G01 X268.835 Y41.800
G01 X266.093 Y44.680
G01 X262.905 Y47.110
G01 X259.357 Y49.018
G01 X255.537 Y50.327
G01 X251.517 Y51.006
G01 X243.977 Y50.466
G01 X236.867 Y47.551
G01 X231.241 Y42.998
G01 X226.249 Y35.109
G01 X224.520 Y27.806
G01 X225.042 Y19.975
G01 X227.144 Y14.080
G01 X230.535 Y8.960
G01 X235.623 Y4.420
G01 X238.741 Y2.606
G01 X243.006 Y0.098
G01 X249.631 Y0.000
G01 X254.180 Y0.035
G01 X259.906 Y1.998
G01 X264.104 Y4.229
G01 X268.982 Y8.445
G01 X271.945 Y12.462
G01 X274.132 Y17.047
G01 X275.210 Y21.159
G01 X275.587 Y25.579
G01 X275.511 Y27.432
G01 X273.855 Y34.843
G01 X271.161 Y39.988
G01 X268.562 Y43.206
G01 X265.283 Y46.122
G01 X262.635 Y47.844
G01 X258.889 Y49.572
G01 X253.533 Y50.656
G01 X250.004 Y51.175
G01 X250.004 Y58.725
G01 X250.003 Y105.825
G01 X256.097 Y106.029
G01 X263.155 Y106.493
G01 X270.182 Y107.302
G01 X277.161 Y108.455
G01 X284.076 Y109.950
G01 X290.909 Y111.782
G01 X297.645 Y113.947
G01 X304.267 Y116.440
G01 X310.759 Y119.256
G01 X312.558 Y120.104
G01 X318.857 Y123.330
G01 X324.989 Y126.862
G01 X330.941 Y130.689
G01 X336.698 Y134.805
G01 X342.245 Y139.197
G01 X347.571 Y143.857
G01 X352.662 Y148.773
G01 X353.698 Y149.834
G01 X358.488 Y155.043
G01 X362.723 Y160.111
G01 X425.558 Y110.033
G01 X425.460 Y110.111
G01 X425.321 Y110.136
G01 X425.187 Y110.128
G01 X425.058 Y110.088
G01 X424.921 Y109.996
G01 X424.809 Y109.856
G01 X424.736 Y109.685
G01 X424.701 Y109.483
G01 X424.686 Y109.265
G01 X424.738 Y109.050
G01 X424.828 Y108.804
G01 X424.980 Y108.594
G01 X425.200 Y108.388
G01 X425.447 Y108.217
G01 X425.751 Y108.116
G01 X426.104 Y108.036
G01 X426.460 Y108.039
G01 X426.845 Y108.079
G01 X427.233 Y108.204
G01 X427.577 Y108.394
G01 X427.924 Y108.670
G01 X428.240 Y109.028
G01 X428.477 Y109.449
G01 X428.673 Y109.901
G01 X428.770 Y110.431
G01 X428.798 Y110.955
G01 X428.751 Y111.507
G01 X428.583 Y112.065
G01 X428.333 Y112.600
G01 X427.947 Y113.124
G01 X427.493 Y113.558
G01 X426.930 Y113.934
G01 X426.314 Y114.240
G01 X425.650 Y114.443
G01 X424.938 Y114.545
G01 X424.206 Y114.498
G01 X423.459 Y114.353
G01 X422.710 Y114.046
G01 X422.031 Y113.631
G01 X421.408 Y113.089
G01 X420.853 Y112.437
G01 X420.393 Y111.709
G01 X420.060 Y110.904
G01 X419.853 Y110.021
G01 X419.799 Y109.093
G01 X419.927 Y108.153
G01 X420.185 Y107.215
G01 X420.602 Y106.312
G01 X421.141 Y105.477
G01 X421.837 Y104.713
G01 X422.682 Y104.086
G01 X423.631 Y103.582
G01 X424.664 Y103.218
G01 X425.759 Y103.046
G01 X426.887 Y103.032
G01 X428.028 Y103.195
G01 X429.160 Y103.550
G01 X430.216 Y104.095
G01 X431.172 Y104.844
G01 X432.037 Y105.729
G01 X432.754 Y106.760
G01 X433.328 Y107.902
G01 X433.707 Y109.131
G01 X433.871 Y110.460
G01 X433.818 Y111.799
G01 X433.554 Y113.115
G01 X433.060 Y114.421
G01 X432.372 Y115.635
G01 X431.492 Y116.759
G01 X430.423 Y117.711
G01 X429.201 Y118.496
G01 X427.836 Y119.087
G01 X426.369 Y119.458
G01 X424.856 Y119.601
G01 X423.303 Y119.488
G01 X421.787 Y119.143
G01 X420.326 Y118.552
G01 X418.968 Y117.702
G01 X417.737 Y116.625
G01 X416.685 Y115.353
G01 X415.817 Y113.931
G01 X415.196 Y112.355
G01 X414.820 Y110.702
G01 X414.723 Y108.967
G01 X414.908 Y107.228
G01 X415.390 Y105.534
G01 X416.136 Y103.883
G01 X417.126 Y102.359
G01 X418.341 Y101.016
G01 X419.801 Y99.874
G01 X421.441 Y98.974
G01 X423.244 Y98.337
G01 X425.140 Y98.002
G01 X427.066 Y97.937
G01 X428.997 Y98.197
G01 X430.880 Y98.764
G01 X432.676 Y99.637
G01 X434.326 Y100.828
G01 X435.763 Y102.261
G01 X436.983 Y103.928
G01 X437.954 Y105.755
G01 X438.620 Y107.745
G01 X438.949 Y109.855
G01 X438.938 Y111.990
G01 X438.573 Y114.127
G01 X437.851 Y116.210
G01 X436.845 Y118.162
G01 X435.500 Y119.943
G01 X433.891 Y121.482
G01 X432.014 Y122.767
G01 X429.955 Y123.750
G01 X427.728 Y124.408
G01 X425.417 Y124.695
G01 X423.068 Y124.640
G01 X420.734 Y124.157
G01 X418.511 Y123.307
G01 X416.399 Y122.139
G01 X414.491 Y120.622
G01 X412.850 Y118.801
G01 X411.516 Y116.729
G01 X410.521 Y114.445
G01 X409.880 Y112.001
G01 X409.622 Y109.498
G01 X409.782 Y106.929
G01 X410.346 Y104.419
G01 X411.333 Y102.014
G01 X412.681 Y99.787
G01 X414.381 Y97.759
G01 X416.387 Y96.025
G01 X418.690 Y94.613
G01 X421.190 Y93.603
G01 X423.841 Y92.989
G01 X426.573 Y92.815
G01 X429.332 Y93.070
G01 X432.029 Y93.739
G01 X434.601 Y94.836
G01 X436.965 Y96.390
G01 X439.085 Y98.287
G01 X440.896 Y100.533
G01 X442.349 Y103.023
G01 X443.365 Y105.738
G01 X443.950 Y108.596
G01 X444.053 Y111.559
G01 X443.714 Y114.502
G01 X442.889 Y117.392
G01 X441.629 Y120.113
G01 X439.917 Y122.627
G01 X437.810 Y124.828
G01 X435.383 Y126.687
G01 X432.644 Y128.166
G01 X429.714 Y129.183
G01 X426.622 Y129.743
G01 X423.472 Y129.794
G01 X420.324 Y129.309
G01 X417.290 Y128.340
G01 X414.402 Y126.911
G01 X411.753 Y125.039
G01 X409.465 Y122.733
G01 X407.544 Y120.086
G01 X406.075 Y117.126
G01 X405.055 Y113.958
G01 X404.560 Y110.656
G01 X404.576 Y107.298
G01 X405.166 Y103.971
G01 X406.283 Y100.753
G01 X407.907 Y97.715
G01 X409.983 Y94.971
G01 X412.476 Y92.586
G01 X415.353 Y90.598
G01 X418.537 Y89.114
G01 X421.935 Y88.156
G01 X425.463 Y87.723
G01 X429.015 Y87.827
G01 X432.527 Y88.526
G01 X435.914 Y89.822
G01 X439.062 Y91.635
G01 X441.904 Y93.900
G01 X444.370 Y96.618
G01 X446.395 Y99.713
G01 X447.886 Y103.103
G01 X448.836 Y106.732
G01 X449.168 Y110.479
G01 X448.935 Y114.230
G01 X448.115 Y117.931
G01 X446.685 Y121.483
G01 X444.703 Y124.769
G01 X442.193 Y127.710
G01 X439.308 Y130.210
G01 X435.935 Y132.266
G01 X432.323 Y133.760
G01 X428.481 Y134.672
G01 X424.521 Y134.916
G01 X420.549 Y134.551
G01 X416.672 Y133.590
G01 X412.968 Y132.005
G01 X409.563 Y129.835
G01 X406.526 Y127.115
G01 X402.247 Y120.884
G01 X400.094 Y113.508
G01 X400.144 Y106.270
G01 X403.201 Y97.449
G01 X407.832 Y91.543
G01 X414.280 Y87.069
G01 X420.200 Y85.037
G01 X426.317 Y84.496
G01 X433.038 Y85.643
G01 X436.401 Y86.950
G01 X441.021 Y88.721
G01 X445.228 Y93.839
G01 X448.037 Y97.418
G01 X450.073 Y103.118
G01 X450.945 Y107.791
G01 X450.691 Y114.234
G01 X449.398 Y119.055
G01 X447.176 Y123.623
G01 X444.633 Y127.031
G01 X441.413 Y130.081
G01 X439.916 Y131.177
G01 X433.090 Y134.503
G01 X427.388 Y135.605
G01 X423.251 Y135.579
G01 X418.927 Y134.833
G01 X415.930 Y133.837
G01 X412.243 Y131.985
G01 X408.056 Y128.474
G01 X405.451 Y126.038
G01 X399.548 Y130.746
G01 X362.723 Y160.111
G01 X366.929 Y165.800
G01 X367.679 Y166.878
G01 X371.626 Y172.745
G01 X375.282 Y178.800
G01 X378.636 Y185.027
G01 X381.681 Y191.412
G01 X384.409 Y197.939
G01 X386.813 Y204.593
G01 X388.889 Y211.358
G01 X390.379 Y217.135
G01 X391.752 Y224.075
G01 X392.783 Y231.072
G01 X393.468 Y238.106
G01 X393.808 Y245.163
G01 X393.800 Y252.224
G01 X393.746 Y253.943
G01 X393.472 Y260.999
G01 X392.853 Y268.037
G01 X391.888 Y275.041
G01 X390.579 Y281.994
G01 X390.559 Y282.086
G01 X468.889 Y299.989
G01 X468.768 Y299.961
G01 X468.661 Y299.868
G01 X468.583 Y299.758
G01 X468.535 Y299.632
G01 X468.521 Y299.468
G01 X468.560 Y299.293
G01 X468.648 Y299.130
G01 X468.785 Y298.976
G01 X468.946 Y298.829
G01 X469.146 Y298.735
G01 X469.395 Y298.652
G01 X469.654 Y298.641
G01 X469.952 Y298.684
G01 X470.240 Y298.770
G01 X470.508 Y298.946
G01 X470.791 Y299.171
G01 X471.010 Y299.451
G01 X471.219 Y299.777
G01 X471.363 Y300.158
G01 X471.429 Y300.546
G01 X471.430 Y300.989
G01 X471.347 Y301.459
G01 X471.165 Y301.907
G01 X470.934 Y302.343
G01 X470.581 Y302.748
G01 X470.188 Y303.097
G01 X469.728 Y303.405
G01 X469.186 Y303.621
G01 X468.612 Y303.759
G01 X467.968 Y303.762
G01 X467.339 Y303.700
G01 X466.695 Y303.494
G01 X466.071 Y303.203
G01 X465.498 Y302.810
G01 X464.981 Y302.296
G01 X464.555 Y301.716
G01 X464.203 Y301.042
G01 X463.975 Y300.265
G01 X463.877 Y299.475
G01 X463.913 Y298.650
G01 X464.076 Y297.810
G01 X464.359 Y296.996
G01 X464.780 Y296.234
G01 X465.341 Y295.522
G01 X466.033 Y294.901
G01 X466.848 Y294.415
G01 X467.743 Y294.031
G01 X468.708 Y293.794
G01 X469.697 Y293.695
G01 X470.729 Y293.763
G01 X471.745 Y294.033
G01 X472.731 Y294.461
G01 X473.660 Y295.041
G01 X474.477 Y295.790
G01 X475.191 Y296.664
G01 X475.775 Y297.656
G01 X476.204 Y298.764
G01 X476.436 Y299.929
G01 X476.446 Y301.143
G01 X476.294 Y302.371
G01 X475.935 Y303.575
G01 X475.399 Y304.735
G01 X474.675 Y305.798
G01 X473.739 Y306.755
G01 X472.658 Y307.548
G01 X471.465 Y308.162
G01 X470.136 Y308.591
G01 X468.758 Y308.810
G01 X467.330 Y308.822
G01 X465.920 Y308.580
G01 X464.544 Y308.114
G01 X463.230 Y307.415
G01 X462.026 Y306.500
G01 X460.971 Y305.406
G01 X460.091 Y304.121
G01 X459.416 Y302.721
G01 X458.967 Y301.210
G01 X458.785 Y299.619
G01 X458.859 Y297.984
G01 X459.198 Y296.369
G01 X459.769 Y294.804
G01 X460.613 Y293.335
G01 X461.671 Y292.011
G01 X462.967 Y290.853
G01 X464.442 Y289.914
G01 X466.067 Y289.234
G01 X467.823 Y288.788
G01 X469.632 Y288.612
G01 X471.439 Y288.725
G01 X473.242 Y289.155
G01 X474.968 Y289.875
G01 X476.591 Y290.888
G01 X478.035 Y292.161
G01 X479.286 Y293.627
G01 X480.287 Y295.299
G01 X481.018 Y297.124
G01 X481.455 Y299.073
G01 X481.552 Y301.106
G01 X481.329 Y303.122
G01 X480.785 Y305.115
G01 X479.963 Y307.014
G01 X478.822 Y308.775
G01 X477.378 Y310.348
G01 X475.701 Y311.670
G01 X473.803 Y312.717
G01 X471.724 Y313.452
G01 X469.577 Y313.860
G01 X467.340 Y313.941
G01 X465.134 Y313.643
G01 X462.958 Y312.976
G01 X460.907 Y311.980
G01 X459.003 Y310.649
G01 X457.338 Y309.021
G01 X455.916 Y307.150
G01 X454.838 Y305.024
G01 X454.117 Y302.756
G01 X453.714 Y300.376
G01 X453.710 Y297.939
G01 X454.111 Y295.520
G01 X454.898 Y293.186
G01 X456.064 Y290.984
G01 X457.576 Y288.959
G01 X459.371 Y287.197
G01 X461.480 Y285.720
G01 X463.794 Y284.595
G01 X466.289 Y283.868
G01 X468.871 Y283.533
G01 X471.517 Y283.598
G01 X474.123 Y284.085
G01 X476.663 Y285.005
G01 X479.011 Y286.330
G01 X481.144 Y288.020
G01 X482.983 Y290.047
G01 X484.504 Y292.364
G01 X485.663 Y294.889
G01 X486.409 Y297.584
G01 X486.668 Y300.401
G01 X486.506 Y303.242
G01 X485.880 Y306.058
G01 X484.839 Y308.746
G01 X483.350 Y311.234
G01 X481.480 Y313.473
G01 X479.228 Y315.401
G01 X476.716 Y316.970
G01 X473.941 Y318.128
G01 X471.028 Y318.839
G01 X467.995 Y319.068
G01 X464.961 Y318.793
G01 X461.995 Y318.054
G01 X459.130 Y316.835
G01 X456.508 Y315.178
G01 X454.143 Y313.110
G01 X452.139 Y310.679
G01 X450.555 Y307.915
G01 X449.421 Y304.939
G01 X448.738 Y301.790
G01 X448.550 Y298.552
G01 X448.927 Y295.325
G01 X449.798 Y292.173
G01 X451.196 Y289.179
G01 X453.037 Y286.407
G01 X455.310 Y283.960
G01 X457.945 Y281.880
G01 X460.915 Y280.266
G01 X464.127 Y279.133
G01 X467.515 Y278.509
G01 X470.955 Y278.421
G01 X474.374 Y278.884
G01 X477.721 Y279.893
G01 X480.867 Y281.458
G01 X483.734 Y283.517
G01 X486.272 Y286.005
G01 X488.406 Y288.847
G01 X490.049 Y292.028
G01 X491.148 Y295.484
G01 X491.698 Y299.051
G01 X491.694 Y302.711
G01 X491.107 Y306.333
G01 X489.949 Y309.846
G01 X488.228 Y313.125
G01 X485.991 Y316.107
G01 X483.261 Y318.726
G01 X480.183 Y320.883
G01 X476.778 Y322.550
G01 X473.109 Y323.645
G01 X469.305 Y324.145
G01 X465.440 Y324.016
G01 X461.687 Y323.319
G01 X457.976 Y321.964
G01 X454.556 Y320.071
G01 X451.449 Y317.637
G01 X448.788 Y314.693
G01 X446.597 Y311.359
G01 X444.931 Y307.730
G01 X443.861 Y303.846
G01 X443.435 Y299.830
G01 X443.667 Y295.760
G01 X445.872 Y288.529
G01 X450.296 Y282.247
G01 X455.986 Y277.774
G01 X464.789 Y274.663
G01 X472.293 Y274.602
G01 X479.811 Y276.854
G01 X485.091 Y280.215
G01 X489.328 Y284.661
G01 X492.621 Y290.631
G01 X493.696 Y294.075
G01 X495.193 Y298.791
G01 X493.814 Y305.271
G01 X492.767 Y309.699
G01 X489.580 Y314.844
G01 X486.470 Y318.440
G01 X481.275 Y322.258
G01 X476.699 Y324.253
G01 X471.743 Y325.365
G01 X467.501 Y325.479
G01 X463.101 Y324.885
G01 X461.311 Y324.398
G01 X454.454 Y321.135
G01 X450.037 Y317.363
G01 X447.478 Y314.114
G01 X445.365 Y310.268
G01 X444.275 Y307.303
G01 X443.425 Y303.267
G01 X443.559 Y297.804
G01 X443.839 Y294.248
G01 X436.478 Y292.568
G01 X390.559 Y282.086
G01 X388.749 Y288.925
G01 X386.607 Y295.665
G01 X384.137 Y302.288
G01 X381.347 Y308.778
G01 X378.243 Y315.121
G01 X374.833 Y321.301
G01 X371.126 Y327.303
G01 X367.131 Y333.114
G01 X362.858 Y338.718
G01 X362.604 Y339.033
G01 X358.149 Y344.494
G01 X353.429 Y349.732
G01 X348.456 Y354.734
G01 X343.241 Y359.489
G01 X337.796 Y363.984
G01 X332.134 Y368.208
G01 X326.270 Y372.151
G01 X320.216 Y375.804
G01 X319.965 Y375.946
G01 X313.739 Y379.303
G01 X312.552 Y379.899
G01 X347.392 Y452.303
G01 X347.338 Y452.190
G01 X347.344 Y452.048
G01 X347.381 Y451.919
G01 X347.450 Y451.803
G01 X347.569 Y451.690
G01 X347.730 Y451.611
G01 X347.914 Y451.578
G01 X348.119 Y451.590
G01 X348.335 Y451.623
G01 X348.532 Y451.722
G01 X348.752 Y451.865
G01 X348.923 Y452.060
G01 X349.075 Y452.319
G01 X349.187 Y452.598
G01 X349.217 Y452.917
G01 X349.217 Y453.279
G01 X349.135 Y453.625
G01 X349.010 Y453.992
G01 X348.802 Y454.342
G01 X348.540 Y454.635
G01 X348.194 Y454.912
G01 X347.774 Y455.141
G01 X347.311 Y455.278
G01 X346.827 Y455.369
G01 X346.289 Y455.345
G01 X345.772 Y455.256
G01 X345.244 Y455.088
G01 X344.737 Y454.799
G01 X344.272 Y454.436
G01 X343.867 Y453.934
G01 X343.524 Y453.404
G01 X343.283 Y452.772
G01 X343.122 Y452.103
G01 X343.072 Y451.410
G01 X343.151 Y450.685
G01 X343.340 Y449.991
G01 X343.647 Y449.295
G01 X344.113 Y448.633
G01 X344.669 Y448.063
G01 X345.336 Y447.577
G01 X346.095 Y447.181
G01 X346.907 Y446.894
G01 X347.766 Y446.748
G01 X348.672 Y446.743
G01 X349.589 Y446.897
G01 X350.497 Y447.221
G01 X351.335 Y447.691
G01 X352.123 Y448.299
G01 X352.816 Y449.010
G01 X353.407 Y449.858
G01 X353.829 Y450.822
G01 X354.109 Y451.859
G01 X354.234 Y452.947
G01 X354.159 Y454.053
G01 X353.921 Y455.156
G01 X353.509 Y456.232
G01 X352.910 Y457.257
G01 X352.144 Y458.165
G01 X351.201 Y458.931
G01 X350.146 Y459.577
G01 X348.981 Y460.047
G01 X347.740 Y460.351
G01 X346.457 Y460.448
G01 X345.126 Y460.312
G01 X343.832 Y459.962
G01 X342.608 Y459.412
G01 X341.444 Y458.640
G01 X340.414 Y457.699
G01 X339.514 Y456.591
G01 X338.824 Y455.337
G01 X338.330 Y453.971
G01 X338.057 Y452.508
G01 X338.022 Y450.996
G01 X338.219 Y449.489
G01 X338.676 Y448.000
G01 X339.350 Y446.599
G01 X340.251 Y445.306
G01 X341.381 Y444.172
G01 X342.705 Y443.210
G01 X344.179 Y442.468
G01 X345.759 Y441.939
G01 X347.434 Y441.683
G01 X349.129 Y441.685
G01 X350.842 Y441.976
G01 X352.496 Y442.544
G01 X354.060 Y443.380
G01 X355.484 Y444.486
G01 X356.750 Y445.790
G01 X357.789 Y447.273
G01 X358.576 Y448.951
G01 X359.089 Y450.749
G01 X359.309 Y452.649
G01 X359.214 Y454.573
G01 X358.848 Y456.465
G01 X358.165 Y458.289
G01 X357.193 Y459.999
G01 X355.943 Y461.556
G01 X354.414 Y462.899
G01 X352.698 Y463.982
G01 X350.801 Y464.799
G01 X348.804 Y465.340
G01 X346.715 Y465.546
G01 X344.586 Y465.398
G01 X342.507 Y464.911
G01 X340.504 Y464.080
G01 X338.634 Y462.913
G01 X336.976 Y461.489
G01 X335.517 Y459.790
G01 X334.375 Y457.879
G01 X333.540 Y455.763
G01 X333.040 Y453.537
G01 X332.894 Y451.220
G01 X333.128 Y448.903
G01 X333.705 Y446.625
G01 X334.695 Y444.456
G01 X336.018 Y442.479
G01 X337.627 Y440.679
G01 X339.530 Y439.157
G01 X341.672 Y437.962
G01 X343.988 Y437.122
G01 X346.455 Y436.651
G01 X348.962 Y436.580
G01 X351.477 Y436.875
G01 X353.928 Y437.613
G01 X356.250 Y438.721
G01 X358.375 Y440.219
G01 X360.247 Y442.028
G01 X361.845 Y444.137
G01 X363.089 Y446.478
G01 X363.954 Y449.038
G01 X364.382 Y451.700
G01 X364.390 Y454.421
G01 X363.952 Y457.123
G01 X363.089 Y459.756
G01 X361.837 Y462.237
G01 X360.195 Y464.500
G01 X358.155 Y466.459
G01 X355.833 Y468.104
G01 X353.241 Y469.370
G01 X350.489 Y470.232
G01 X347.616 Y470.619
G01 X344.700 Y470.554
G01 X341.788 Y469.994
G01 X338.995 Y469.009
G01 X336.360 Y467.562
G01 X333.988 Y465.727
G01 X331.918 Y463.499
G01 X330.241 Y460.955
G01 X328.969 Y458.175
G01 X328.137 Y455.175
G01 X327.797 Y452.093
G01 X327.939 Y448.953
G01 X328.591 Y445.871
G01 X329.764 Y442.910
G01 X331.383 Y440.168
G01 X333.419 Y437.670
G01 X335.834 Y435.504
G01 X338.591 Y433.787
G01 X341.599 Y432.503
G01 X344.830 Y431.720
G01 X348.127 Y431.440
G01 X351.457 Y431.692
G01 X354.727 Y432.455
G01 X357.840 Y433.770
G01 X360.728 Y435.576
G01 X363.328 Y437.835
G01 X365.542 Y440.470
G01 X367.312 Y443.431
G01 X368.610 Y446.678
G01 X369.348 Y450.113
G01 X369.526 Y453.638
G01 X369.163 Y457.174
G01 X368.271 Y460.614
G01 X366.808 Y463.882
G01 X364.792 Y466.896
G01 X362.346 Y469.550
G01 X359.483 Y471.829
G01 X356.284 Y473.628
G01 X352.816 Y474.914
G01 X349.179 Y475.613
G01 X345.453 Y475.722
G01 X341.703 Y475.221
G01 X338.098 Y474.159
G01 X334.672 Y472.536
G01 X331.528 Y470.351
G01 X328.765 Y467.689
G01 X326.456 Y464.586
G01 X324.661 Y461.218
G01 X323.407 Y457.472
G01 X322.754 Y453.617
G01 X322.720 Y449.670
G01 X323.363 Y445.754
G01 X324.603 Y441.963
G01 X326.402 Y438.397
G01 X328.772 Y435.139
G01 X331.645 Y432.302
G01 X334.973 Y429.946
G01 X342.000 Y427.161
G01 X349.671 Y426.703
G01 X356.715 Y428.363
G01 X364.636 Y433.306
G01 X369.381 Y439.123
G01 X372.289 Y446.417
G01 X372.953 Y452.641
G01 X372.119 Y458.725
G01 X369.505 Y465.022
G01 X367.483 Y468.010
G01 X364.728 Y472.120
G01 X358.802 Y475.082
G01 X354.688 Y477.025
G01 X348.678 Y477.741
G01 X343.928 Y477.552
G01 X337.703 Y475.870
G01 X333.291 Y473.537
G01 X329.331 Y470.355
G01 X326.597 Y467.109
G01 X324.318 Y463.299
G01 X323.583 Y461.596
G01 X321.859 Y454.200
G01 X322.054 Y448.396
G01 X322.999 Y444.369
G01 X324.689 Y440.319
G01 X326.327 Y437.619
G01 X328.952 Y434.437
G01 X333.308 Y431.136
G01 X336.262 Y429.138
G01 X332.986 Y422.335
G01 X312.552 Y379.899
G01 X306.070 Y382.734
G01 X304.852 Y383.225
G01 X298.253 Y385.768
G01 X291.536 Y387.984
G01 X284.719 Y389.868
G01 X277.817 Y391.415
G01 X270.846 Y392.622
G01 X263.824 Y393.486
G01 X256.767 Y394.004
G01 X249.996 Y394.175
G01 X242.921 Y394.001
G01 X235.864 Y393.480
G01 X228.841 Y392.614
G01 X221.869 Y391.404
G01 X214.964 Y389.853
G01 X208.144 Y387.966
G01 X201.425 Y385.746
G01 X200.031 Y385.239
G01 X193.455 Y382.624
G01 X187.441 Y379.895
G01 X152.556 Y452.277
G01 X152.610 Y452.165
G01 X152.725 Y452.081
G01 X152.849 Y452.030
G01 X152.983 Y452.011
G01 X153.146 Y452.034
G01 X153.307 Y452.111
G01 X153.448 Y452.234
G01 X153.566 Y452.401
G01 X153.675 Y452.591
G01 X153.721 Y452.807
G01 X153.746 Y453.068
G01 X153.700 Y453.323
G01 X153.592 Y453.604
G01 X153.444 Y453.865
G01 X153.213 Y454.088
G01 X152.931 Y454.314
G01 X152.608 Y454.465
G01 X152.244 Y454.596
G01 X151.861 Y454.662
G01 X151.448 Y454.630
G01 X151.016 Y454.532
G01 X150.576 Y454.346
G01 X150.180 Y454.069
G01 X149.806 Y453.747
G01 X149.490 Y453.312
G01 X149.237 Y452.852
G01 X149.039 Y452.335
G01 X148.949 Y451.759
G01 X148.942 Y451.168
G01 X149.082 Y450.539
G01 X149.283 Y449.940
G01 X149.627 Y449.358
G01 X150.050 Y448.815
G01 X150.560 Y448.344
G01 X151.176 Y447.953
G01 X151.837 Y447.668
G01 X152.592 Y447.484
G01 X153.381 Y447.425
G01 X154.172 Y447.505
G01 X154.969 Y447.723
G01 X155.751 Y448.070
G01 X156.482 Y448.526
G01 X157.131 Y449.107
G01 X157.701 Y449.812
G01 X158.152 Y450.625
G01 X158.465 Y451.537
G01 X158.620 Y452.485
G01 X158.636 Y453.479
G01 X158.513 Y454.465
G01 X158.217 Y455.456
G01 X157.748 Y456.396
G01 X157.091 Y457.253
G01 X156.318 Y458.029
G01 X155.406 Y458.659
G01 X154.396 Y459.161
G01 X153.298 Y459.510
G01 X152.123 Y459.681
G01 X150.936 Y459.648
G01 X149.749 Y459.388
G01 X148.586 Y458.966
G01 X147.492 Y458.348
G01 X146.480 Y457.568
G01 X145.605 Y456.625
G01 X144.881 Y455.500
G01 X144.347 Y454.270
G01 X144.015 Y452.970
G01 X143.893 Y451.579
G01 X143.986 Y450.186
G01 X144.291 Y448.792
G01 X144.842 Y447.470
G01 X145.602 Y446.232
G01 X146.575 Y445.108
G01 X147.735 Y444.137
G01 X149.037 Y443.352
G01 X150.485 Y442.780
G01 X152.001 Y442.433
G01 X153.574 Y442.332
G01 X155.166 Y442.509
G01 X156.743 Y442.944
G01 X158.242 Y443.634
G01 X159.641 Y444.539
G01 X160.885 Y445.689
G01 X161.940 Y447.016
G01 X162.781 Y448.536
G01 X163.368 Y450.183
G01 X163.690 Y451.927
G01 X163.713 Y453.730
G01 X163.482 Y455.533
G01 X162.971 Y457.270
G01 X162.150 Y458.932
G01 X161.064 Y460.455
G01 X159.716 Y461.811
G01 X158.152 Y462.936
G01 X156.445 Y463.829
G01 X154.592 Y464.433
G01 X152.650 Y464.739
G01 X150.653 Y464.732
G01 X148.650 Y464.374
G01 X146.733 Y463.708
G01 X144.911 Y462.734
G01 X143.243 Y461.510
G01 X141.780 Y460.006
G01 X140.568 Y458.248
G01 X139.652 Y456.319
G01 X139.053 Y454.236
G01 X138.800 Y452.045
G01 X138.879 Y449.861
G01 X139.299 Y447.662
G01 X140.080 Y445.578
G01 X141.214 Y443.605
G01 X142.642 Y441.826
G01 X144.363 Y440.267
G01 X146.321 Y439.006
G01 X148.461 Y438.036
G01 X150.774 Y437.458
G01 X153.145 Y437.260
G01 X155.555 Y437.396
G01 X157.932 Y437.935
G01 X160.202 Y438.864
G01 X162.302 Y440.151
G01 X164.209 Y441.786
G01 X165.827 Y443.702
G01 X167.165 Y445.853
G01 X168.116 Y448.229
G01 X168.698 Y450.735
G01 X168.851 Y453.330
G01 X168.604 Y455.922
G01 X167.951 Y458.486
G01 X166.897 Y460.919
G01 X165.435 Y463.190
G01 X163.621 Y465.185
G01 X161.498 Y466.888
G01 X159.112 Y468.230
G01 X156.515 Y469.197
G01 X153.795 Y469.765
G01 X151.002 Y469.893
G01 X148.198 Y469.518
G01 X145.465 Y468.729
G01 X142.858 Y467.492
G01 X140.469 Y465.878
G01 X138.376 Y463.873
G01 X136.608 Y461.552
G01 X135.230 Y458.927
G01 X134.259 Y456.128
G01 X133.748 Y453.166
G01 X133.703 Y450.168
G01 X134.155 Y447.160
G01 X135.098 Y444.263
G01 X136.478 Y441.535
G01 X138.304 Y439.014
G01 X140.503 Y436.827
G01 X143.046 Y434.981
G01 X145.862 Y433.568
G01 X148.908 Y432.639
G01 X152.062 Y432.195
G01 X155.284 Y432.230
G01 X158.483 Y432.768
G01 X161.545 Y433.853
G01 X164.424 Y435.403
G01 X167.051 Y437.441
G01 X169.325 Y439.845
G01 X171.204 Y442.605
G01 X172.646 Y445.637
G01 X173.559 Y448.891
G01 X173.948 Y452.276
G01 X173.803 Y455.717
G01 X173.124 Y459.090
G01 X171.912 Y462.321
G01 X170.182 Y465.360
G01 X167.957 Y468.078
G01 X165.312 Y470.415
G01 X162.321 Y472.336
G01 X159.076 Y473.784
G01 X155.609 Y474.677
G01 X151.995 Y474.980
G01 X148.395 Y474.723
G01 X144.828 Y473.905
G01 X141.427 Y472.526
G01 X138.259 Y470.616
G01 X135.446 Y468.208
G01 X133.037 Y465.363
G01 X131.090 Y462.119
G01 X129.673 Y458.639
G01 X128.806 Y454.948
G01 X128.554 Y451.128
G01 X128.913 Y447.307
G01 X129.899 Y443.568
G01 X131.413 Y440.064
G01 X133.560 Y436.748
G01 X136.167 Y433.835
G01 X139.232 Y431.347
G01 X142.694 Y429.408
G01 X146.432 Y428.014
G01 X150.341 Y427.197
G01 X154.365 Y427.018
G01 X158.375 Y427.496
G01 X162.292 Y428.629
G01 X168.851 Y432.387
G01 X173.991 Y438.098
G01 X177.085 Y444.641
G01 X178.159 Y453.915
G01 X176.570 Y461.252
G01 X172.680 Y468.074
G01 X168.228 Y472.473
G01 X162.952 Y475.615
G01 X156.399 Y477.497
G01 X152.802 Y477.778
G01 X147.871 Y478.188
G01 X141.860 Y475.401
G01 X137.776 Y473.396
G01 X133.469 Y469.143
G01 X130.655 Y465.311
G01 X128.089 Y459.397
G01 X127.163 Y454.492
G01 X127.182 Y449.412
G01 X128.014 Y445.251
G01 X129.573 Y441.094
G01 X130.446 Y439.457
G01 X135.153 Y433.498
G01 X139.830 Y430.043
G01 X143.550 Y428.260
G01 X147.770 Y427.056
G01 X150.902 Y426.653
G01 X155.027 Y426.722
G01 X160.323 Y428.069
G01 X163.728 Y429.133
G01 X167.004 Y422.330
G01 X187.441 Y379.895
G01 X181.143 Y376.669
G01 X175.426 Y373.390
G01 X169.461 Y369.583
G01 X163.691 Y365.487
G01 X158.128 Y361.113
G01 X152.787 Y356.471
G01 X147.680 Y351.572
G01 X142.819 Y346.430
G01 X138.216 Y341.054
G01 X135.466 Y337.570
G01 X131.308 Y331.845
G01 X127.435 Y325.922
G01 X123.857 Y319.817
G01 X120.583 Y313.543
G01 X120.088 Y312.525
G01 X117.177 Y306.075
G01 X114.585 Y299.490
G01 X112.320 Y292.786
G01 X111.082 Y288.576
G01 X109.439 Y282.077
G01 X31.098 Y299.933
G01 X31.220 Y299.905
G01 X31.356 Y299.942
G01 X31.474 Y300.008
G01 X31.572 Y300.100
G01 X31.656 Y300.242
G01 X31.696 Y300.416
G01 X31.688 Y300.602
G01 X31.631 Y300.800
G01 X31.550 Y301.003
G01 X31.410 Y301.174
G01 X31.222 Y301.356
G01 X30.994 Y301.479
G01 X30.707 Y301.570
G01 X30.410 Y301.616
G01 X30.092 Y301.575
G01 X29.739 Y301.495
G01 X29.420 Y301.337
G01 X29.091 Y301.134
G01 X28.800 Y300.876
G01 X28.568 Y300.533
G01 X28.375 Y300.134
G01 X28.246 Y299.674
G01 X28.215 Y299.192
G01 X28.234 Y298.699
G01 X28.377 Y298.180
G01 X28.579 Y297.696
G01 X28.860 Y297.219
G01 X29.254 Y296.789
G01 X29.712 Y296.416
G01 X30.291 Y296.133
G01 X30.884 Y295.917
G01 X31.554 Y295.822
G01 X32.242 Y295.814
G01 X32.929 Y295.919
G01 X33.618 Y296.158
G01 X34.253 Y296.496
G01 X34.868 Y296.972
G01 X35.405 Y297.552
G01 X35.837 Y298.221
G01 X36.163 Y298.980
G01 X36.380 Y299.808
G01 X36.478 Y300.663
G01 X36.429 Y301.533
G01 X36.233 Y302.418
G01 X35.879 Y303.277
G01 X35.361 Y304.091
G01 X34.716 Y304.803
G01 X33.949 Y305.436
G01 X33.101 Y305.954
G01 X32.142 Y306.340
G01 X31.114 Y306.560
G01 X30.035 Y306.580
G01 X28.946 Y306.460
G01 X27.885 Y306.140
G01 X26.863 Y305.663
G01 X25.906 Y305.022
G01 X25.039 Y304.210
G01 X24.325 Y303.261
G01 X23.788 Y302.171
G01 X23.393 Y300.999
G01 X23.194 Y299.759
G01 X23.173 Y298.481
G01 X23.365 Y297.209
G01 X23.793 Y295.941
G01 X24.422 Y294.757
G01 X25.231 Y293.686
G01 X26.242 Y292.724
G01 X27.389 Y291.928
G01 X28.670 Y291.298
G01 X30.046 Y290.904
G01 X31.488 Y290.727
G01 X32.974 Y290.786
G01 X34.456 Y291.088
G01 X35.886 Y291.637
G01 X37.232 Y292.392
G01 X38.448 Y293.361
G01 X39.508 Y294.528
G01 X40.362 Y295.882
G01 X41.005 Y297.387
G01 X41.400 Y298.989
G01 X41.565 Y300.647
G01 X41.442 Y302.337
G01 X41.063 Y303.989
G01 X40.398 Y305.594
G01 X39.476 Y307.080
G01 X38.313 Y308.419
G01 X36.918 Y309.561
G01 X35.365 Y310.505
G01 X33.688 Y311.188
G01 X31.877 Y311.583
G01 X30.009 Y311.683
G01 X28.108 Y311.474
G01 X26.260 Y310.976
G01 X24.491 Y310.176
G01 X22.864 Y309.104
G01 X21.413 Y307.776
G01 X20.174 Y306.210
G01 X19.204 Y304.421
G01 X18.531 Y302.507
G01 X18.156 Y300.475
G01 X18.073 Y298.408
G01 X18.336 Y296.326
G01 X18.955 Y294.283
G01 X19.892 Y292.364
G01 X21.148 Y290.597
G01 X22.702 Y289.033
G01 X24.460 Y287.733
G01 X26.441 Y286.690
G01 X28.557 Y286.001
G01 X30.807 Y285.658
G01 X33.088 Y285.666
G01 X35.380 Y286.039
G01 X37.586 Y286.783
G01 X39.679 Y287.852
G01 X41.573 Y289.300
G01 X43.206 Y291.030
G01 X44.603 Y292.999
G01 X45.663 Y295.193
G01 X46.352 Y297.547
G01 X46.655 Y299.992
G01 X46.566 Y302.502
G01 X46.077 Y304.962
G01 X45.229 Y307.349
G01 X43.965 Y309.574
G01 X42.367 Y311.591
G01 X40.435 Y313.329
G01 X38.254 Y314.751
G01 X35.842 Y315.840
G01 X33.283 Y316.532
G01 X30.595 Y316.806
G01 X27.905 Y316.631
G01 X25.250 Y316.034
G01 X22.713 Y315.005
G01 X20.338 Y313.577
G01 X18.198 Y311.805
G01 X16.357 Y309.700
G01 X14.901 Y307.275
G01 X13.814 Y304.646
G01 X13.156 Y301.837
G01 X12.928 Y298.963
G01 X13.191 Y296.075
G01 X13.903 Y293.247
G01 X15.096 Y290.533
G01 X16.679 Y288.028
G01 X18.676 Y285.782
G01 X20.992 Y283.878
G01 X23.626 Y282.355
G01 X26.479 Y281.286
G01 X29.472 Y280.665
G01 X32.582 Y280.521
G01 X35.662 Y280.876
G01 X38.691 Y281.713
G01 X41.551 Y283.034
G01 X44.177 Y284.837
G01 X46.491 Y287.026
G01 X48.472 Y289.566
G01 X50.047 Y292.403
G01 X51.107 Y295.473
G01 X51.695 Y298.711
G01 X51.734 Y302.015
G01 X51.274 Y305.292
G01 X50.287 Y308.482
G01 X48.815 Y311.500
G01 X46.840 Y314.242
G01 X44.437 Y316.657
G01 X41.656 Y318.689
G01 X38.595 Y320.261
G01 X35.314 Y321.327
G01 X31.859 Y321.870
G01 X28.347 Y321.825
G01 X24.870 Y321.215
G01 X21.503 Y320.074
G01 X18.348 Y318.439
G01 X15.488 Y316.285
G01 X13.004 Y313.672
G01 X10.955 Y310.673
G01 X9.371 Y307.375
G01 X8.328 Y303.857
G01 X7.846 Y300.189
G01 X7.974 Y296.488
G01 X8.697 Y292.830
G01 X10.019 Y289.286
G01 X11.857 Y286.008
G01 X14.202 Y283.029
G01 X17.032 Y280.450
G01 X20.242 Y278.349
G01 X23.783 Y276.811
G01 X27.467 Y275.810
G01 X31.396 Y275.399
G01 X35.298 Y275.620
G01 X39.154 Y276.465
G01 X42.829 Y277.964
G01 X46.249 Y280.016
G01 X49.325 Y282.563
G01 X51.974 Y285.598
G01 X54.101 Y289.031
G01 X55.657 Y292.800
G01 X56.808 Y300.271
G01 X55.548 Y307.851
G01 X52.362 Y314.349
G01 X45.781 Y320.971
G01 X39.054 Y324.303
G01 X31.295 Y325.515
G01 X25.080 Y324.778
G01 X19.334 Y322.611
G01 X13.776 Y318.661
G01 X11.313 Y316.024
G01 X7.919 Y312.424
G01 X6.350 Y305.988
G01 X5.371 Y301.544
G01 X6.011 Y295.525
G01 X7.253 Y290.937
G01 X10.277 Y285.242
G01 X13.534 Y281.460
G01 X17.517 Y278.308
G01 X21.290 Y276.364
G01 X25.512 Y274.991
G01 X27.336 Y274.653
G01 X34.929 Y274.618
G01 X40.547 Y276.120
G01 X44.260 Y277.917
G01 X47.833 Y280.465
G01 X50.101 Y282.663
G01 X52.619 Y285.931
G01 X54.868 Y290.912
G01 X56.159 Y294.236
G01 X63.519 Y292.557
G01 X109.439 Y282.077
G01 X108.117 Y275.127
G01 X107.909 Y273.830
G01 X106.898 Y266.831
G01 X106.232 Y259.790
G01 X105.911 Y252.724
G01 X105.938 Y245.651
G01 X106.312 Y238.586
G01 X107.032 Y231.548
G01 X108.097 Y224.552
G01 X108.934 Y220.223
G01 X110.603 Y213.347
G01 X112.608 Y206.563
G01 X114.942 Y199.888
G01 X117.600 Y193.337
G01 X120.576 Y186.926
G01 X123.861 Y180.671
G01 X127.449 Y174.586
G01 X131.330 Y168.686
G01 X131.924 Y167.837
G01 X135.904 Y161.993
G01 X137.283 Y160.104
G01 X74.478 Y109.987
G01 X74.576 Y110.065
G01 X74.632 Y110.196
G01 X74.654 Y110.328
G01 X74.643 Y110.463
G01 X74.584 Y110.617
G01 X74.473 Y110.757
G01 X74.322 Y110.866
G01 X74.133 Y110.945
G01 X73.923 Y111.008
G01 X73.703 Y111.006
G01 X73.442 Y110.972
G01 X73.204 Y110.871
G01 X72.955 Y110.703
G01 X72.733 Y110.499
G01 X72.567 Y110.225
G01 X72.410 Y109.900
G01 X72.334 Y109.552
G01 X72.287 Y109.168
G01 X72.308 Y108.779
G01 X72.431 Y108.384
G01 X72.623 Y107.984
G01 X72.902 Y107.596
G01 X73.260 Y107.272
G01 X73.657 Y106.980
G01 X74.151 Y106.768
G01 X74.656 Y106.624
G01 X75.204 Y106.546
G01 X75.786 Y106.586
G01 X76.364 Y106.711
G01 X76.946 Y106.988
G01 X77.485 Y107.317
G01 X77.976 Y107.782
G01 X78.411 Y108.315
G01 X78.757 Y108.917
G01 X79.001 Y109.605
G01 X79.132 Y110.312
G01 X79.144 Y111.089
G01 X79.025 Y111.871
G01 X78.771 Y112.625
G01 X78.381 Y113.353
G01 X77.869 Y114.039
G01 X77.261 Y114.650
G01 X76.551 Y115.154
G01 X75.737 Y115.552
G01 X74.844 Y115.811
G01 X73.885 Y115.913
G01 X72.926 Y115.853
G01 X71.953 Y115.647
G01 X71.020 Y115.308
G01 X70.119 Y114.799
G01 X69.307 Y114.132
G01 X68.618 Y113.302
G01 X68.033 Y112.375
G01 X67.622 Y111.346
G01 X67.358 Y110.249
G01 X67.262 Y109.101
G01 X67.357 Y107.918
G01 X67.653 Y106.767
G01 X68.170 Y105.668
G01 X68.840 Y104.628
G01 X69.686 Y103.700
G01 X70.672 Y102.887
G01 X71.786 Y102.243
G01 X73.045 Y101.788
G01 X74.362 Y101.541
G01 X75.704 Y101.506
G01 X77.087 Y101.697
G01 X78.424 Y102.097
G01 X79.715 Y102.705
G01 X80.881 Y103.536
G01 X81.919 Y104.553
G01 X82.799 Y105.752
G01 X83.487 Y107.099
G01 X83.949 Y108.559
G01 X84.198 Y110.082
G01 X84.199 Y111.637
G01 X83.948 Y113.193
G01 X83.408 Y114.722
G01 X82.645 Y116.146
G01 X81.639 Y117.454
G01 X80.446 Y118.616
G01 X79.048 Y119.573
G01 X77.520 Y120.307
G01 X75.850 Y120.788
G01 X74.114 Y120.994
G01 X72.342 Y120.920
G01 X70.579 Y120.541
G01 X68.873 Y119.915
G01 X67.293 Y119.030
G01 X65.855 Y117.860
G01 X64.613 Y116.462
G01 X63.591 Y114.846
G01 X62.828 Y113.090
G01 X62.350 Y111.208
G01 X62.174 Y109.268
G01 X62.308 Y107.306
G01 X62.759 Y105.361
G01 X63.554 Y103.487
G01 X64.630 Y101.767
G01 X65.985 Y100.207
G01 X67.549 Y98.854
G01 X69.342 Y97.761
G01 X71.325 Y96.972
G01 X73.409 Y96.508
G01 X75.573 Y96.388
G01 X77.765 Y96.628
G01 X79.877 Y97.191
G01 X81.928 Y98.090
G01 X83.786 Y99.315
G01 X85.457 Y100.860
G01 X86.873 Y102.648
G01 X88.010 Y104.673
G01 X88.804 Y106.862
G01 X89.273 Y109.165
G01 X89.322 Y111.548
G01 X88.988 Y113.904
G01 X88.319 Y116.223
G01 X87.265 Y118.420
G01 X85.854 Y120.426
G01 X84.132 Y122.188
G01 X82.113 Y123.683
G01 X79.885 Y124.834
G01 X77.491 Y125.660
G01 X74.963 Y126.058
G01 X72.390 Y126.067
G01 X69.826 Y125.640
G01 X67.354 Y124.822
G01 X64.999 Y123.615
G01 X62.862 Y122.046
G01 X60.973 Y120.115
G01 X59.432 Y117.902
G01 X58.244 Y115.454
G01 X57.466 Y112.829
G01 X57.087 Y110.102
G01 X57.153 Y107.304
G01 X57.650 Y104.553
G01 X58.639 Y101.902
G01 X60.017 Y99.413
G01 X61.788 Y97.166
G01 X63.908 Y95.177
G01 X66.329 Y93.582
G01 X68.984 Y92.376
G01 X71.851 Y91.616
G01 X74.795 Y91.292
G01 X77.797 Y91.453
G01 X80.730 Y92.076
G01 X83.562 Y93.186
G01 X86.177 Y94.751
G01 X88.528 Y96.703
G01 X90.580 Y99.045
G01 X92.224 Y101.674
G01 X93.457 Y104.565
G01 X94.208 Y107.624
G01 X94.436 Y110.801
G01 X94.167 Y113.975
G01 X93.416 Y117.108
G01 X92.180 Y120.107
G01 X90.440 Y122.851
G01 X88.275 Y125.329
G01 X85.717 Y127.420
G01 X82.868 Y129.103
G01 X79.758 Y130.321
G01 X76.481 Y131.051
G01 X73.106 Y131.217
G01 X69.720 Y130.844
G01 X66.397 Y129.936
G01 X63.259 Y128.523
G01 X60.380 Y126.623
G01 X57.802 Y124.261
G01 X55.646 Y121.487
G01 X53.956 Y118.387
G01 X52.736 Y115.064
G01 X52.060 Y111.558
G01 X51.960 Y107.979
G01 X52.455 Y104.408
G01 X53.522 Y100.936
G01 X55.113 Y97.641
G01 X57.214 Y94.632
G01 X59.781 Y91.969
G01 X62.754 Y89.761
G01 X66.064 Y88.045
G01 X69.660 Y86.870
G01 X73.368 Y86.263
G01 X77.160 Y86.238
G01 X80.940 Y86.843
G01 X84.584 Y88.043
G01 X87.995 Y89.852
G01 X91.074 Y92.108
G01 X93.845 Y94.924
G01 X96.105 Y98.113
G01 X97.849 Y101.655
G01 X98.968 Y105.462
G01 X99.496 Y109.416
G01 X99.409 Y113.424
G01 X98.701 Y117.372
G01 X97.343 Y121.175
G01 X95.367 Y124.741
G01 X90.244 Y130.300
G01 X83.532 Y134.040
G01 X76.465 Y135.601
G01 X67.184 Y134.584
G01 X60.385 Y131.402
G01 X54.600 Y126.092
G01 X51.301 Y120.773
G01 X49.413 Y114.929
G01 X49.036 Y108.122
G01 X49.562 Y104.552
G01 X50.260 Y99.654
G01 X54.314 Y94.414
G01 X57.178 Y90.879
G01 X62.282 Y87.626
G01 X66.644 Y85.736
G01 X72.982 Y84.550
G01 X77.969 Y84.738
G01 X82.918 Y85.887
G01 X86.789 Y87.624
G01 X90.496 Y90.069
G01 X91.897 Y91.284
G01 X96.659 Y97.199
G01 X98.987 Y102.529
G01 X99.897 Y106.552
G01 X100.132 Y110.933
G01 X99.828 Y114.077
G01 X98.843 Y118.083
G01 X96.351 Y122.947
G01 X94.557 Y126.029
G01 X100.459 Y130.737
G01 X137.791 Y160.510
G01 X142.259 Y155.060
G01 X146.991 Y149.834
G01 X151.977 Y144.844
G01 X157.205 Y140.101
G01 X162.662 Y135.619
G01 X168.336 Y131.407
G01 X174.213 Y127.477
G01 X180.278 Y123.838
G01 X184.634 Y121.466
G01 X191.165 Y118.738
G01 X197.807 Y116.341
G01 X204.541 Y114.279
G01 X211.351 Y112.554
G01 X217.641 Y111.274
G01 X224.420 Y109.490
G01 X231.297 Y108.038
G01 X238.256 Y106.923
G01 X245.278 Y106.150
G01 X250.005 Y105.825
G01 X250.005 Y108.950
G01 X249.271 Y111.452
G01 X250.005 Y110.850
G01 X250.726 Y111.452
G01 X251.513 Y114.133
G01 X250.005 Y112.875
G01 X248.497 Y114.133
G01 X247.714 Y116.795
G01 X250.005 Y114.900
G01 X252.283 Y116.795
G01 X253.060 Y119.461
G01 X250.005 Y116.925
G01 X246.937 Y119.461
G01 X246.154 Y122.108
G01 X250.005 Y118.950
G01 X253.843 Y122.108
G01 X254.615 Y124.785
G01 X250.005 Y120.975
G01 X245.382 Y124.785
G01 X244.596 Y127.444
G01 X250.005 Y123.000
G01 X255.400 Y127.444
G01 X256.172 Y130.109
G01 X250.293 Y125.247
G01 X250.005 Y125.025
G01 X244.103 Y129.864
G01 X243.825 Y130.109
G01 X243.045 Y132.781
G01 X248.759 Y128.008
G01 X250.005 Y127.050
G01 X255.812 Y131.774
G01 X256.952 Y132.781
G01 X257.736 Y135.461
G01 X252.188 Y130.759
G01 X250.004 Y129.075
G01 X244.290 Y133.676
G01 X242.273 Y135.460
G01 X241.485 Y138.124
G01 X246.869 Y133.515
G01 X250.004 Y131.100
G01 X255.626 Y135.571
G01 X258.512 Y138.123
G01 X259.289 Y140.769
G01 X254.068 Y136.251
G01 X250.004 Y133.125
G01 X244.475 Y137.452
G01 X240.708 Y140.770
G01 X239.926 Y143.450
G01 X244.983 Y139.015
G01 X250.004 Y135.150
G01 X255.439 Y139.361
G01 X260.071 Y143.450
G01 X260.847 Y146.115
G01 X255.954 Y141.761
G01 X250.659 Y137.646
G01 X250.004 Y137.175
G01 X244.662 Y141.255
G01 X239.719 Y145.578
G01 X239.150 Y146.115
G01 X238.375 Y148.790
G01 X243.105 Y144.521
G01 X248.227 Y140.480
G01 X250.004 Y139.200
G01 X255.253 Y143.162
G01 X260.113 Y147.363
G01 X261.623 Y148.790
G01 X262.407 Y151.453
G01 X257.838 Y147.268
G01 X252.888 Y143.304
G01 X250.004 Y141.225
G01 X244.848 Y145.056
G01 X240.068 Y149.123
G01 X237.601 Y151.452
G01 X236.812 Y154.103
G01 X241.221 Y150.012
G01 X246.000 Y146.131
G01 X250.004 Y143.250
G01 X255.066 Y146.950
G01 X259.766 Y150.881
G01 X263.185 Y154.102
G01 X263.957 Y156.789
G01 X259.711 Y152.774
G01 X255.103 Y148.958
G01 X250.144 Y145.369
G01 X250.004 Y145.275
G01 X245.035 Y148.855
G01 X240.417 Y152.661
G01 X236.159 Y156.669
G01 X236.040 Y156.790
G01 X235.259 Y159.442
G01 X239.347 Y155.518
G01 X243.786 Y151.786
G01 X248.565 Y148.269
G01 X250.004 Y147.300
G01 X254.879 Y150.752
G01 X259.417 Y154.427
G01 X263.606 Y158.301
G01 X264.739 Y159.442
G01 X265.516 Y162.109
G01 X261.587 Y158.269
G01 X257.318 Y154.610
G01 X252.716 Y151.157
G01 X250.004 Y149.325
G01 X245.221 Y152.651
G01 X240.765 Y156.195
G01 X236.644 Y159.935
G01 X234.482 Y162.109
G01 X233.700 Y164.770
G01 X237.472 Y161.018
G01 X241.573 Y157.439
G01 X245.997 Y154.056
G01 X250.004 Y151.350
G01 X254.693 Y154.551
G01 X259.068 Y157.967
G01 X263.120 Y161.576
G01 X266.298 Y164.769
G01 X267.073 Y167.447
G01 X263.459 Y163.777
G01 X259.526 Y160.270
G01 X255.279 Y156.948
G01 X250.730 Y153.834
G01 X250.004 Y153.375
G01 X245.408 Y156.453
G01 X241.114 Y159.743
G01 X237.131 Y163.221
G01 X233.467 Y166.866
G01 X232.925 Y167.447
G01 X232.143 Y170.096
G01 X235.603 Y166.517
G01 X239.372 Y163.091
G01 X243.443 Y159.841
G01 X247.808 Y156.789
G01 X250.003 Y155.400
G01 X254.506 Y158.353
G01 X258.719 Y161.512
G01 X262.633 Y164.858
G01 X266.241 Y168.367
G01 X267.855 Y170.095
G01 X268.634 Y172.766
G01 X265.329 Y169.271
G01 X261.725 Y165.920
G01 X257.829 Y162.735
G01 X253.647 Y159.736
G01 X250.003 Y157.425
G01 X245.594 Y160.254
G01 X241.463 Y163.286
G01 X237.617 Y166.500
G01 X234.066 Y169.877
G01 X231.364 Y172.766
G01 X230.590 Y175.435
G01 X233.741 Y172.025
G01 X237.181 Y168.751
G01 X240.904 Y165.634
G01 X244.903 Y162.691
G01 X249.169 Y159.945
G01 X250.003 Y159.450
G01 X254.319 Y162.159
G01 X258.368 Y165.067
G01 X262.144 Y168.154
G01 X265.637 Y171.402
G01 X268.842 Y174.788
G01 X269.408 Y175.434
G01 X270.187 Y178.105
G01 X267.188 Y174.780
G01 X263.911 Y171.581
G01 X260.359 Y168.529
G01 X256.541 Y165.642
G01 X252.464 Y162.940
G01 X250.003 Y161.475
G01 X245.781 Y164.062
G01 X241.813 Y166.843
G01 X238.107 Y169.801
G01 X234.670 Y172.917
G01 X231.510 Y176.171
G01 X229.811 Y178.106
G01 X229.037 Y180.780
G01 X231.885 Y177.539
G01 X235.002 Y174.417
G01 X238.382 Y171.432
G01 X242.021 Y168.602
G01 X245.909 Y165.945
G01 X250.003 Y163.500
G01 X254.131 Y165.968
G01 X258.018 Y168.627
G01 X261.653 Y171.460
G01 X265.031 Y174.448
G01 X268.145 Y177.572
G01 X270.961 Y180.779
G01 X271.744 Y183.436
G01 X269.044 Y180.282
G01 X266.085 Y177.238
G01 X262.872 Y174.321
G01 X259.411 Y171.550
G01 X255.708 Y168.942
G01 X251.771 Y166.513
G01 X250.003 Y165.525
G01 X245.968 Y167.870
G01 X242.163 Y170.402
G01 X238.596 Y173.104
G01 X235.275 Y175.959
G01 X232.206 Y178.950
G01 X229.393 Y182.058
G01 X228.254 Y183.437
G01 X227.479 Y186.103
G01 X230.033 Y183.034
G01 X232.835 Y180.067
G01 X235.882 Y177.219
G01 X239.168 Y174.506
G01 X242.686 Y171.946
G01 X246.431 Y169.554
G01 X250.003 Y167.550
G01 X253.944 Y169.777
G01 X257.667 Y172.186
G01 X261.163 Y174.763
G01 X264.426 Y177.490
G01 X267.449 Y180.352
G01 X270.227 Y183.330
G01 X272.519 Y186.102
G01 X273.306 Y188.760
G01 X270.895 Y185.777
G01 X268.246 Y182.888
G01 X265.363 Y180.109
G01 X262.250 Y177.456
G01 X258.913 Y174.945
G01 X255.358 Y172.591
G01 X251.594 Y170.410
G01 X250.003 Y169.575
G01 X246.155 Y171.680
G01 X242.514 Y173.965
G01 X239.087 Y176.413
G01 X235.882 Y179.009
G01 X232.904 Y181.738
G01 X230.159 Y184.584
G01 X227.650 Y187.530
G01 X226.693 Y188.760
G01 X225.921 Y191.432
G01 X228.189 Y188.533
G01 X230.686 Y185.720
G01 X233.407 Y183.009
G01 X236.349 Y180.414
G01 X239.506 Y177.950
G01 X242.873 Y175.634
G01 X246.443 Y173.479
G01 X250.003 Y171.600
G01 X253.757 Y173.590
G01 X257.315 Y175.754
G01 X260.671 Y178.080
G01 X263.817 Y180.551
G01 X266.747 Y183.153
G01 X269.456 Y185.871
G01 X271.940 Y188.689
G01 X274.078 Y191.431
G01 X274.857 Y194.103
G01 X272.728 Y191.287
G01 X270.382 Y188.550
G01 X267.820 Y185.906
G01 X265.046 Y183.370
G01 X262.065 Y180.955
G01 X258.883 Y178.676
G01 X255.506 Y176.548
G01 X251.941 Y174.584
G01 X250.003 Y173.625
G01 X246.343 Y175.498
G01 X242.866 Y177.541
G01 X239.581 Y179.742
G01 X236.494 Y182.086
G01 X233.611 Y184.560
G01 X230.937 Y187.150
G01 X228.477 Y189.839
G01 X226.233 Y192.615
G01 X225.141 Y194.104
G01 X224.370 Y196.774
G01 X226.363 Y194.042
G01 X228.563 Y191.380
G01 X230.969 Y188.804
G01 X233.578 Y186.326
G01 X236.384 Y183.961
G01 X239.384 Y181.721
G01 X242.572 Y179.621
G01 X245.941 Y177.673
G01 X249.483 Y175.891
G01 X250.003 Y175.650
G01 X253.569 Y177.408
G01 X256.963 Y179.334
G01 X260.177 Y181.413
G01 X263.204 Y183.633
G01 X266.038 Y185.982
G01 X268.675 Y188.445
G01 X271.110 Y191.008
G01 X273.340 Y193.659
G01 X275.362 Y196.382
G01 X275.634 Y196.776
G01 X273.173 Y196.776
G01 X271.137 Y194.107
G01 X268.894 Y191.513
G01 X266.446 Y189.009
G01 X263.796 Y186.608
G01 X260.950 Y184.324
G01 X257.911 Y182.170
G01 X254.688 Y180.161
G01 X251.286 Y178.309
G01 X250.003 Y177.675
G01 X246.537 Y179.466
G01 X243.248 Y181.419
G01 X240.141 Y183.521
G01 X237.224 Y185.758
G01 X234.502 Y188.117
G01 X231.979 Y190.585
G01 X229.660 Y193.147
G01 X227.548 Y195.790
G01 X226.825 Y196.776
G01 X229.275 Y196.767
G01 X231.361 Y194.162
G01 X233.653 Y191.637
G01 X236.150 Y189.207
G01 X238.846 Y186.886
G01 X241.738 Y184.687
G01 X244.819 Y182.623
G01 X248.084 Y180.709
G01 X250.003 Y179.700
G01 X253.366 Y181.525
G01 X256.552 Y183.506
G01 X259.551 Y185.631
G01 X262.358 Y187.886
G01 X264.967 Y190.258
G01 X267.375 Y192.731
G01 X269.577 Y195.293
G01 X270.723 Y196.766
G01 X268.264 Y196.771
G01 X266.125 Y194.227
G01 X263.780 Y191.769
G01 X261.231 Y189.410
G01 X258.483 Y187.166
G01 X255.541 Y185.049
G01 X252.411 Y183.075
G01 X250.003 Y181.725
G01 X246.740 Y183.587
G01 X243.660 Y185.600
G01 X240.769 Y187.751
G01 X238.073 Y190.027
G01 X235.577 Y192.412
G01 X233.286 Y194.894
G01 X231.734 Y196.772
G01 X234.194 Y196.772
G01 X236.392 Y194.289
G01 X238.796 Y191.898
G01 X241.404 Y189.613
G01 X244.209 Y187.448
G01 X247.207 Y185.418
G01 X250.002 Y183.750
G01 X253.164 Y185.652
G01 X256.138 Y187.700
G01 X258.920 Y189.881
G01 X261.503 Y192.180
G01 X263.883 Y194.584
G01 X265.805 Y196.772
G01 X263.349 Y196.774
G01 X261.087 Y194.351
G01 X258.617 Y192.026
G01 X255.946 Y189.814
G01 X253.078 Y187.729
G01 X250.019 Y185.785
G01 X250.002 Y185.775
G01 X246.943 Y187.717
G01 X244.073 Y189.801
G01 X241.400 Y192.011
G01 X238.929 Y194.334
G01 X236.665 Y196.756
G01 X236.649 Y196.774
G01 X239.108 Y196.778
G01 X241.441 Y194.415
G01 X243.981 Y192.158
G01 X246.722 Y190.021
G01 X249.658 Y188.017
G01 X250.002 Y187.800
G01 X252.960 Y189.788
G01 X255.723 Y191.912
G01 X258.285 Y194.158
G01 X260.642 Y196.511
G01 X260.890 Y196.778
G01 X258.435 Y196.764
G01 X256.024 Y194.465
G01 X253.407 Y192.279
G01 X250.590 Y190.221
G01 X250.002 Y189.825
G01 X247.146 Y191.854
G01 X244.488 Y194.015
G01 X242.035 Y196.291
G01 X241.564 Y196.764
G01 X244.019 Y196.760
G01 X246.513 Y194.528
G01 X249.212 Y192.417
G01 X250.002 Y191.850
G01 X252.757 Y193.926
G01 X255.308 Y196.128
G01 X255.979 Y196.760
G01 X253.520 Y196.766
G01 X250.939 Y194.594
G01 X250.002 Y193.875
G01 X247.349 Y196.001
G01 X246.478 Y196.766
G01 X248.937 Y196.761
G01 X250.002 Y195.900
G01 X252.586 Y197.396
G01 X255.024 Y199.013
G01 X257.309 Y200.738
G01 X259.438 Y202.561
G01 X261.406 Y204.471
G01 X263.210 Y206.457
G01 X264.848 Y208.506
G01 X266.318 Y210.609
G01 X267.619 Y212.752
G01 X268.750 Y214.925
G01 X269.711 Y217.116
G01 X270.505 Y219.314
G01 X271.133 Y221.508
G01 X271.596 Y223.687
G01 X271.899 Y225.840
G01 X272.045 Y227.957
G01 X272.038 Y230.027
G01 X271.884 Y232.041
G01 X271.814 Y232.605
G01 X360.281 Y162.061
G01 X357.867 Y163.047
G01 X358.795 Y163.246
G01 X358.774 Y164.184
G01 X357.160 Y166.461
G01 X357.212 Y164.508
G01 X355.288 Y164.113
G01 X352.719 Y165.160
G01 X355.629 Y165.771
G01 X355.568 Y168.733
G01 X353.968 Y171.003
G01 X354.045 Y167.033
G01 X350.150 Y166.215
G01 X347.592 Y167.254
G01 X352.462 Y168.296
G01 X352.386 Y173.265
G01 X350.774 Y175.538
G01 X350.879 Y169.558
G01 X345.018 Y168.320
G01 X342.449 Y169.363
G01 X349.296 Y170.821
G01 X349.185 Y177.810
G01 X347.583 Y180.075
G01 X347.719 Y172.447
G01 X347.712 Y172.083
G01 X340.249 Y170.486
G01 X339.884 Y170.421
G01 X337.309 Y171.478
G01 X344.603 Y172.969
G01 X346.129 Y173.346
G01 X346.057 Y180.832
G01 X345.980 Y182.350
G01 X344.374 Y184.634
G01 X344.591 Y177.366
G01 X344.546 Y174.608
G01 X337.386 Y173.009
G01 X334.733 Y172.544
G01 X332.160 Y173.589
G01 X339.120 Y174.925
G01 X342.963 Y175.871
G01 X342.972 Y183.053
G01 X342.776 Y186.901
G01 X341.192 Y189.158
G01 X341.469 Y182.259
G01 X341.379 Y177.133
G01 X334.549 Y175.508
G01 X329.607 Y174.631
G01 X327.023 Y175.692
G01 X333.643 Y176.880
G01 X339.796 Y178.396
G01 X339.892 Y185.271
G01 X339.583 Y191.441
G01 X337.984 Y193.709
G01 X338.337 Y187.169
G01 X338.253 Y180.464
G01 X338.213 Y179.658
G01 X331.692 Y178.025
G01 X325.230 Y176.856
G01 X324.456 Y176.746
G01 X321.881 Y177.808
G01 X328.168 Y178.844
G01 X334.521 Y180.329
G01 X336.630 Y180.921
G01 X336.804 Y187.494
G01 X336.550 Y193.913
G01 X336.376 Y195.984
G01 X334.783 Y198.257
G01 X335.206 Y192.076
G01 X335.219 Y185.734
G01 X335.046 Y182.183
G01 X328.836 Y180.541
G01 X322.677 Y179.339
G01 X319.317 Y178.862
G01 X316.753 Y179.898
G01 X322.700 Y180.795
G01 X328.714 Y182.112
G01 X333.463 Y183.446
G01 X333.727 Y189.711
G01 X333.583 Y195.836
G01 X333.197 Y200.518
G01 X331.578 Y202.797
G01 X332.069 Y196.973
G01 X332.179 Y190.991
G01 X331.893 Y184.877
G01 X331.880 Y184.708
G01 X325.983 Y183.055
G01 X320.127 Y181.818
G01 X314.339 Y180.988
G01 X314.171 Y180.970
G01 X311.611 Y182.013
G01 X317.227 Y182.763
G01 X322.913 Y183.906
G01 X328.642 Y185.450
G01 X330.297 Y185.971
G01 X330.637 Y191.935
G01 X330.593 Y197.774
G01 X330.176 Y203.464
G01 X329.991 Y205.061
G01 X328.390 Y207.332
G01 X328.943 Y201.866
G01 X329.142 Y196.246
G01 X328.973 Y190.496
G01 X328.713 Y187.233
G01 X323.131 Y185.568
G01 X317.581 Y184.293
G01 X312.088 Y183.403
G01 X309.040 Y183.069
G01 X306.473 Y184.116
G01 X311.758 Y184.726
G01 X317.113 Y185.701
G01 X322.516 Y187.050
G01 X327.130 Y188.496
G01 X327.551 Y194.158
G01 X327.608 Y199.708
G01 X327.313 Y205.126
G01 X326.798 Y209.602
G01 X325.187 Y211.877
G01 X325.804 Y206.764
G01 X326.093 Y201.502
G01 X326.043 Y196.111
G01 X325.641 Y190.612
G01 X325.547 Y189.758
G01 X320.275 Y188.084
G01 X315.026 Y186.778
G01 X309.823 Y185.833
G01 X304.689 Y185.241
G01 X303.896 Y185.180
G01 X301.338 Y186.220
G01 X306.293 Y186.693
G01 X311.321 Y187.504
G01 X316.401 Y188.661
G01 X321.509 Y190.170
G01 X323.964 Y191.021
G01 X324.462 Y196.382
G01 X324.619 Y201.645
G01 X324.444 Y206.792
G01 X323.949 Y211.801
G01 X323.604 Y214.140
G01 X322.002 Y216.414
G01 X322.674 Y211.651
G01 X323.047 Y206.744
G01 X323.108 Y201.712
G01 X322.845 Y196.573
G01 X322.380 Y192.283
G01 X317.420 Y190.600
G01 X312.473 Y189.260
G01 X307.562 Y188.258
G01 X302.708 Y187.586
G01 X298.765 Y187.276
G01 X296.195 Y188.334
G01 X300.826 Y188.672
G01 X305.530 Y189.320
G01 X310.289 Y190.287
G01 X315.083 Y191.579
G01 X319.890 Y193.202
G01 X320.797 Y193.546
G01 X321.370 Y198.609
G01 X321.621 Y203.588
G01 X321.561 Y208.465
G01 X321.200 Y213.221
G01 X320.551 Y217.838
G01 X320.399 Y218.683
G01 X318.796 Y220.957
G01 X319.526 Y216.539
G01 X319.983 Y211.983
G01 X320.156 Y207.303
G01 X320.032 Y202.518
G01 X319.603 Y197.646
G01 X319.214 Y194.808
G01 X314.559 Y193.120
G01 X309.910 Y191.752
G01 X305.287 Y190.698
G01 X300.708 Y189.954
G01 X296.194 Y189.512
G01 X293.622 Y189.391
G01 X291.049 Y190.452
G01 X295.358 Y190.659
G01 X299.742 Y191.149
G01 X304.184 Y191.931
G01 X308.665 Y193.011
G01 X313.167 Y194.395
G01 X317.631 Y196.071
G01 X318.275 Y200.837
G01 X318.619 Y205.534
G01 X318.671 Y210.142
G01 X318.441 Y214.646
G01 X317.940 Y219.028
G01 X317.188 Y223.230
G01 X315.599 Y225.499
G01 X316.381 Y221.421
G01 X316.916 Y217.209
G01 X317.193 Y212.879
G01 X317.202 Y208.445
G01 X316.933 Y203.924
G01 X316.377 Y199.332
G01 X316.047 Y197.333
G01 X311.698 Y195.641
G01 X307.346 Y194.245
G01 X303.010 Y193.141
G01 X298.707 Y192.324
G01 X294.455 Y191.789
G01 X290.271 Y191.527
G01 X288.483 Y191.497
G01 X285.915 Y192.553
G01 X289.907 Y192.637
G01 X293.974 Y192.978
G01 X298.100 Y193.584
G01 X302.270 Y194.462
G01 X306.465 Y195.616
G01 X310.670 Y197.052
G01 X314.464 Y198.596
G01 X315.180 Y203.065
G01 X315.617 Y207.478
G01 X315.783 Y211.818
G01 X315.685 Y216.070
G01 X315.333 Y220.217
G01 X314.736 Y224.246
G01 X313.998 Y227.767
G01 X312.410 Y230.039
G01 X313.239 Y226.294
G01 X313.847 Y222.422
G01 X314.222 Y218.435
G01 X314.355 Y214.347
G01 X314.238 Y210.172
G01 X313.862 Y205.926
G01 X313.220 Y201.623
G01 X312.881 Y199.858
G01 X308.836 Y198.163
G01 X304.780 Y196.740
G01 X300.729 Y195.587
G01 X296.700 Y194.700
G01 X292.710 Y194.073
G01 X288.774 Y193.701
G01 X284.907 Y193.577
G01 X283.347 Y193.595
G01 X280.778 Y194.657
G01 X284.458 Y194.624
G01 X288.214 Y194.822
G01 X292.031 Y195.259
G01 X295.894 Y195.941
G01 X299.788 Y196.874
G01 X303.698 Y198.062
G01 X307.609 Y199.509
G01 X311.297 Y201.121
G01 X312.082 Y205.296
G01 X312.609 Y209.428
G01 X312.883 Y213.501
G01 X312.912 Y217.502
G01 X312.705 Y221.415
G01 X312.269 Y225.228
G01 X311.614 Y228.927
G01 X310.803 Y232.308
G01 X309.201 Y234.583
G01 X310.074 Y231.163
G01 X310.751 Y227.622
G01 X311.221 Y223.970
G01 X311.475 Y220.220
G01 X311.504 Y216.384
G01 X311.302 Y212.476
G01 X310.860 Y208.509
G01 X310.173 Y204.497
G01 X309.714 Y202.383
G01 X305.968 Y200.689
G01 X302.203 Y199.245
G01 X298.434 Y198.049
G01 X294.676 Y197.097
G01 X290.944 Y196.386
G01 X287.253 Y195.909
G01 X283.616 Y195.663
G01 X280.047 Y195.639
G01 X278.202 Y195.714
G01 X275.634 Y196.776
G01 X279.012 Y196.630
G01 X282.465 Y196.691
G01 X285.980 Y196.966
G01 X289.543 Y197.460
G01 X293.143 Y198.180
G01 X296.764 Y199.129
G01 X300.393 Y200.312
G01 X304.017 Y201.731
G01 X307.619 Y203.389
G01 X308.131 Y203.646
G01 X308.980 Y207.530
G01 X309.590 Y211.384
G01 X309.969 Y215.193
G01 X310.120 Y218.944
G01 X310.051 Y222.625
G01 X309.770 Y226.222
G01 X309.284 Y229.724
G01 X308.602 Y233.120
G01 X307.733 Y236.399
G01 X307.594 Y236.857
G01 X306.061 Y234.933
G01 X306.878 Y231.677
G01 X307.507 Y228.306
G01 X307.939 Y224.830
G01 X308.164 Y221.262
G01 X308.175 Y217.612
G01 X307.964 Y213.894
G01 X307.525 Y210.121
G01 X306.852 Y206.307
G01 X306.548 Y204.908
G01 X302.987 Y203.316
G01 X299.409 Y201.961
G01 X295.829 Y200.843
G01 X292.261 Y199.957
G01 X288.719 Y199.300
G01 X285.217 Y198.866
G01 X281.768 Y198.650
G01 X278.385 Y198.647
G01 X277.163 Y198.697
G01 X278.698 Y200.607
G01 X282.035 Y200.613
G01 X285.438 Y200.831
G01 X288.894 Y201.268
G01 X292.391 Y201.929
G01 X295.913 Y202.818
G01 X299.447 Y203.941
G01 X302.979 Y205.299
G01 X304.964 Y206.171
G01 X305.635 Y209.939
G01 X306.072 Y213.664
G01 X306.280 Y217.334
G01 X306.267 Y220.934
G01 X306.040 Y224.453
G01 X305.608 Y227.878
G01 X304.978 Y231.197
G01 X304.540 Y233.011
G01 X303.003 Y231.092
G01 X303.659 Y227.834
G01 X304.119 Y224.467
G01 X304.373 Y221.003
G01 X304.415 Y217.456
G01 X304.235 Y213.836
G01 X303.828 Y210.158
G01 X303.381 Y207.433
G01 X299.891 Y206.043
G01 X296.397 Y204.890
G01 X292.913 Y203.971
G01 X289.453 Y203.282
G01 X286.032 Y202.819
G01 X282.662 Y202.575
G01 X280.227 Y202.532
G01 X281.760 Y204.455
G01 X285.072 Y204.626
G01 X288.441 Y205.015
G01 X291.853 Y205.629
G01 X295.295 Y206.472
G01 X298.751 Y207.550
G01 X301.798 Y208.696
G01 X302.282 Y212.353
G01 X302.535 Y215.956
G01 X302.565 Y219.490
G01 X302.378 Y222.944
G01 X301.982 Y226.303
G01 X301.470 Y229.170
G01 X299.937 Y227.251
G01 X300.421 Y223.971
G01 X300.699 Y220.591
G01 X300.763 Y217.124
G01 X300.605 Y213.581
G01 X300.217 Y209.978
G01 X300.215 Y209.958
G01 X296.788 Y208.777
G01 X293.371 Y207.833
G01 X289.976 Y207.121
G01 X286.619 Y206.638
G01 X283.314 Y206.377
G01 X283.290 Y206.376
G01 X284.820 Y208.301
G01 X288.122 Y208.652
G01 X291.470 Y209.230
G01 X294.850 Y210.041
G01 X298.247 Y211.087
G01 X298.631 Y211.221
G01 X298.921 Y214.773
G01 X298.983 Y218.258
G01 X298.825 Y221.661
G01 X298.455 Y224.970
G01 X298.401 Y225.331
G01 X296.881 Y223.403
G01 X297.175 Y220.084
G01 X297.252 Y216.676
G01 X297.105 Y213.190
G01 X297.048 Y212.483
G01 X293.680 Y211.515
G01 X290.335 Y210.784
G01 X287.026 Y210.286
G01 X286.361 Y210.212
G01 X287.896 Y212.130
G01 X291.196 Y212.687
G01 X294.529 Y213.481
G01 X295.465 Y213.746
G01 X295.559 Y217.194
G01 X295.428 Y220.562
G01 X295.353 Y221.480
G01 X293.815 Y219.562
G01 X293.904 Y216.189
G01 X293.882 Y215.008
G01 X290.566 Y214.260
G01 X289.424 Y214.056
G01 X290.962 Y215.975
G01 X292.298 Y216.271
G01 X292.740 Y219.224
G01 X292.996 Y222.138
G01 X293.072 Y225.000
G01 X292.974 Y227.801
G01 X292.708 Y230.531
G01 X292.280 Y233.180
G01 X291.699 Y235.738
G01 X290.972 Y238.198
G01 X290.107 Y240.551
G01 X289.113 Y242.790
G01 X287.999 Y244.908
G01 X286.776 Y246.899
G01 X285.452 Y248.758
G01 X284.037 Y250.479
G01 X282.543 Y252.058
G01 X280.979 Y253.492
G01 X279.356 Y254.777
G01 X277.685 Y255.913
G01 X277.200 Y256.209
G01 X387.512 Y281.392
G01 X385.237 Y280.119
G01 X385.660 Y280.969
G01 X384.913 Y281.538
G01 X382.126 Y281.696
G01 X383.686 Y280.519
G01 X382.795 Y278.768
G01 X380.374 Y277.412
G01 X381.712 Y280.068
G01 X379.358 Y281.867
G01 X376.585 Y282.031
G01 X379.737 Y279.617
G01 X377.948 Y276.062
G01 X375.541 Y274.710
G01 X377.763 Y279.167
G01 X373.831 Y282.206
G01 X371.049 Y282.362
G01 X375.789 Y278.716
G01 X373.103 Y273.361
G01 X370.686 Y272.004
G01 X373.815 Y278.265
G01 X368.281 Y282.537
G01 X365.512 Y282.696
G01 X371.560 Y278.046
G01 X371.840 Y277.815
G01 X368.436 Y270.984
G01 X368.259 Y270.658
G01 X365.827 Y269.304
G01 X369.210 Y275.936
G01 X369.866 Y277.364
G01 X363.968 Y281.975
G01 X362.733 Y282.862
G01 X359.946 Y283.030
G01 X365.764 Y278.667
G01 X367.892 Y276.913
G01 X364.678 Y270.318
G01 X363.387 Y267.954
G01 X360.966 Y266.594
G01 X364.262 Y272.868
G01 X365.918 Y276.462
G01 X360.308 Y280.948
G01 X357.177 Y283.194
G01 X354.425 Y283.363
G01 X359.992 Y279.278
G01 X363.944 Y276.012
G01 X360.955 Y269.658
G01 X358.559 Y265.248
G01 X356.120 Y263.889
G01 X359.319 Y269.805
G01 X361.969 Y275.561
G01 X356.654 Y279.923
G01 X351.638 Y283.528
G01 X348.867 Y283.692
G01 X354.201 Y279.890
G01 X359.390 Y275.644
G01 X359.995 Y275.110
G01 X357.206 Y268.994
G01 X354.091 Y263.213
G01 X353.695 Y262.539
G01 X351.259 Y261.188
G01 X354.369 Y266.750
G01 X357.168 Y272.642
G01 X358.021 Y274.660
G01 X352.990 Y278.895
G01 X347.813 Y282.698
G01 X346.086 Y283.853
G01 X343.315 Y284.025
G01 X348.412 Y280.502
G01 X353.378 Y276.558
G01 X356.047 Y274.209
G01 X353.459 Y268.330
G01 X350.558 Y262.765
G01 X348.836 Y259.841
G01 X346.428 Y258.482
G01 X349.435 Y263.691
G01 X352.155 Y269.214
G01 X354.073 Y273.758
G01 X349.339 Y277.870
G01 X344.461 Y281.578
G01 X340.559 Y284.194
G01 X337.768 Y284.349
G01 X342.628 Y281.103
G01 X347.373 Y277.459
G01 X351.975 Y273.423
G01 X352.098 Y273.308
G01 X349.714 Y267.667
G01 X347.031 Y262.317
G01 X344.070 Y257.275
G01 X343.980 Y257.132
G01 X341.568 Y255.780
G01 X344.483 Y260.639
G01 X347.134 Y265.797
G01 X349.499 Y271.239
G01 X350.124 Y272.857
G01 X345.674 Y276.842
G01 X341.081 Y280.448
G01 X336.372 Y283.670
G01 X335.008 Y284.521
G01 X332.235 Y284.685
G01 X336.853 Y281.709
G01 X341.370 Y278.361
G01 X345.761 Y274.643
G01 X348.150 Y272.406
G01 X345.972 Y267.004
G01 X343.508 Y261.870
G01 X340.779 Y257.020
G01 X339.140 Y254.429
G01 X336.721 Y253.075
G01 X339.538 Y257.587
G01 X342.115 Y262.382
G01 X344.429 Y267.447
G01 X346.176 Y271.956
G01 X342.011 Y275.815
G01 X337.707 Y279.320
G01 X333.288 Y282.468
G01 X329.467 Y284.855
G01 X326.684 Y285.015
G01 X331.066 Y282.309
G01 X335.361 Y279.254
G01 X339.544 Y275.853
G01 X343.592 Y272.111
G01 X344.202 Y271.505
G01 X342.223 Y266.339
G01 X339.972 Y261.421
G01 X337.467 Y256.764
G01 X334.729 Y252.381
G01 X334.282 Y251.723
G01 X331.874 Y250.372
G01 X334.594 Y254.541
G01 X337.095 Y258.978
G01 X339.357 Y263.670
G01 X341.362 Y268.605
G01 X342.227 Y271.054
G01 X338.347 Y274.787
G01 X334.329 Y278.191
G01 X330.196 Y281.262
G01 X325.972 Y283.999
G01 X323.928 Y285.188
G01 X321.151 Y285.353
G01 X325.294 Y282.909
G01 X329.363 Y280.141
G01 X333.335 Y277.051
G01 X337.189 Y273.642
G01 X340.253 Y270.604
G01 X338.476 Y265.676
G01 X336.440 Y260.973
G01 X334.161 Y256.508
G01 X331.660 Y252.294
G01 X329.444 Y249.018
G01 X327.015 Y247.669
G01 X329.638 Y251.500
G01 X332.064 Y255.582
G01 X334.275 Y259.906
G01 X336.254 Y264.459
G01 X337.982 Y269.229
G01 X338.279 Y270.153
G01 X334.678 Y273.757
G01 X330.941 Y277.058
G01 X327.091 Y280.052
G01 X323.148 Y282.735
G01 X319.133 Y285.106
G01 X318.377 Y285.514
G01 X315.600 Y285.679
G01 X319.509 Y283.496
G01 X323.357 Y281.012
G01 X327.123 Y278.229
G01 X330.787 Y275.149
G01 X334.329 Y271.776
G01 X336.305 Y269.702
G01 X334.722 Y265.011
G01 X332.894 Y260.523
G01 X330.834 Y256.251
G01 X328.562 Y252.207
G01 X326.093 Y248.402
G01 X324.584 Y246.316
G01 X322.150 Y244.966
G01 X324.675 Y248.464
G01 X327.025 Y252.197
G01 X329.184 Y256.157
G01 X331.133 Y260.334
G01 X332.858 Y264.716
G01 X334.330 Y269.252
G01 X331.006 Y272.727
G01 X327.548 Y275.924
G01 X323.978 Y278.838
G01 X320.313 Y281.467
G01 X316.574 Y283.807
G01 X312.821 Y285.839
G01 X310.056 Y286.011
G01 X313.732 Y284.080
G01 X317.358 Y281.873
G01 X320.917 Y279.390
G01 X324.389 Y276.632
G01 X327.756 Y273.602
G01 X331.000 Y270.305
G01 X332.356 Y268.801
G01 X330.968 Y264.345
G01 X329.346 Y260.072
G01 X327.505 Y255.994
G01 X325.461 Y252.120
G01 X323.228 Y248.462
G01 X320.824 Y245.028
G01 X319.733 Y243.611
G01 X317.307 Y242.262
G01 X319.730 Y245.435
G01 X321.999 Y248.827
G01 X324.098 Y252.431
G01 X326.011 Y256.239
G01 X327.724 Y260.239
G01 X329.223 Y264.422
G01 X330.382 Y268.350
G01 X327.334 Y271.697
G01 X324.156 Y274.790
G01 X320.866 Y277.625
G01 X317.481 Y280.199
G01 X314.019 Y282.510
G01 X310.498 Y284.556
G01 X307.285 Y286.174
G01 X304.519 Y286.349
G01 X307.963 Y284.662
G01 X311.369 Y282.723
G01 X314.720 Y280.530
G01 X317.999 Y278.086
G01 X321.190 Y275.391
G01 X324.276 Y272.450
G01 X327.240 Y269.265
G01 X328.408 Y267.899
G01 X327.212 Y263.680
G01 X325.795 Y259.621
G01 X324.171 Y255.736
G01 X322.352 Y252.033
G01 X320.354 Y248.523
G01 X318.191 Y245.213
G01 X315.877 Y242.112
G01 X314.891 Y240.904
G01 X312.458 Y239.558
G01 X314.779 Y242.414
G01 X316.966 Y245.474
G01 X319.004 Y248.730
G01 X320.879 Y252.176
G01 X322.578 Y255.802
G01 X324.087 Y259.600
G01 X325.394 Y263.560
G01 X326.434 Y267.449
G01 X323.659 Y270.666
G01 X320.756 Y273.653
G01 X317.743 Y276.408
G01 X314.633 Y278.925
G01 X311.444 Y281.202
G01 X308.192 Y283.238
G01 X304.891 Y285.033
G01 X301.743 Y286.507
G01 X298.964 Y286.673
G01 X302.183 Y285.224
G01 X305.374 Y283.545
G01 X308.522 Y281.635
G01 X311.612 Y279.496
G01 X314.629 Y277.127
G01 X317.559 Y274.532
G01 X320.385 Y271.713
G01 X323.093 Y268.675
G01 X324.459 Y266.998
G01 X323.448 Y263.013
G01 X322.230 Y259.169
G01 X320.815 Y255.476
G01 X319.216 Y251.945
G01 X317.446 Y248.584
G01 X315.517 Y245.401
G01 X313.442 Y242.404
G01 X311.235 Y239.598
G01 X310.027 Y238.203
G01 X307.594 Y236.857
G01 X309.815 Y239.407
G01 X311.920 Y242.145
G01 X313.897 Y245.064
G01 X315.732 Y248.158
G01 X317.414 Y251.421
G01 X318.929 Y254.844
G01 X320.267 Y258.419
G01 X321.417 Y262.137
G01 X322.366 Y265.987
G01 X322.485 Y266.547
G01 X319.977 Y269.633
G01 X317.345 Y272.513
G01 X314.603 Y275.184
G01 X311.764 Y277.641
G01 X308.844 Y279.882
G01 X305.856 Y281.904
G01 X302.815 Y283.708
G01 X299.735 Y285.292
G01 X296.630 Y286.657
G01 X296.185 Y286.835
G01 X296.733 Y284.436
G01 X299.788 Y283.045
G01 X302.816 Y281.435
G01 X305.803 Y279.605
G01 X308.733 Y277.557
G01 X311.593 Y275.290
G01 X314.368 Y272.807
G01 X317.045 Y270.111
G01 X319.607 Y267.207
G01 X320.511 Y266.097
G01 X319.536 Y262.320
G01 X318.364 Y258.678
G01 X317.006 Y255.182
G01 X315.474 Y251.840
G01 X313.780 Y248.661
G01 X311.936 Y245.652
G01 X309.954 Y242.821
G01 X307.847 Y240.174
G01 X307.046 Y239.250
G01 X306.510 Y241.641
G01 X308.586 Y244.254
G01 X310.537 Y247.050
G01 X312.350 Y250.025
G01 X314.014 Y253.171
G01 X315.514 Y256.479
G01 X316.840 Y259.942
G01 X317.980 Y263.551
G01 X318.537 Y265.646
G01 X316.009 Y268.519
G01 X313.368 Y271.184
G01 X310.629 Y273.635
G01 X307.806 Y275.870
G01 X304.914 Y277.886
G01 X301.967 Y279.683
G01 X298.979 Y281.260
G01 X297.287 Y282.049
G01 X297.830 Y279.651
G01 X300.786 Y278.132
G01 X303.705 Y276.392
G01 X306.572 Y274.432
G01 X309.371 Y272.252
G01 X312.089 Y269.855
G01 X314.711 Y267.243
G01 X316.563 Y265.195
G01 X315.474 Y261.600
G01 X314.196 Y258.149
G01 X312.742 Y254.852
G01 X311.124 Y251.717
G01 X309.353 Y248.754
G01 X307.443 Y245.968
G01 X305.958 Y244.037
G01 X305.410 Y246.434
G01 X307.342 Y249.130
G01 X309.138 Y252.006
G01 X310.786 Y255.057
G01 X312.272 Y258.274
G01 X313.585 Y261.648
G01 X314.588 Y264.745
G01 X312.031 Y267.403
G01 X309.372 Y269.848
G01 X306.627 Y272.074
G01 X303.811 Y274.081
G01 X300.938 Y275.867
G01 X298.377 Y277.253
G01 X298.921 Y274.859
G01 X301.787 Y273.192
G01 X304.603 Y271.302
G01 X307.354 Y269.190
G01 X310.025 Y266.858
G01 X312.601 Y264.308
G01 X312.614 Y264.294
G01 X311.402 Y260.879
G01 X310.009 Y257.618
G01 X308.449 Y254.520
G01 X306.734 Y251.594
G01 X304.877 Y248.848
G01 X304.862 Y248.828
G01 X304.311 Y251.224
G01 X306.095 Y254.025
G01 X307.731 Y257.003
G01 X309.205 Y260.151
G01 X310.505 Y263.459
G01 X310.640 Y263.843
G01 X308.043 Y266.285
G01 X305.358 Y268.506
G01 X302.598 Y270.504
G01 X299.780 Y272.278
G01 X299.464 Y272.461
G01 X300.024 Y270.070
G01 X302.802 Y268.231
G01 X305.515 Y266.166
G01 X308.149 Y263.878
G01 X308.666 Y263.393
G01 X307.323 Y260.156
G01 X305.808 Y257.084
G01 X304.135 Y254.186
G01 X303.778 Y253.622
G01 X303.236 Y256.017
G01 X304.858 Y258.945
G01 X306.315 Y262.045
G01 X306.692 Y262.942
G01 X304.054 Y265.165
G01 X301.340 Y267.163
G01 X300.575 Y267.677
G01 X301.116 Y265.278
G01 X303.808 Y263.245
G01 X304.717 Y262.491
G01 X303.235 Y259.432
G01 X302.683 Y258.412
G01 X302.141 Y260.811
G01 X302.743 Y262.041
G01 X300.709 Y264.227
G01 X298.591 Y266.244
G01 X296.401 Y268.088
G01 X294.149 Y269.758
G01 X291.849 Y271.252
G01 X289.512 Y272.569
G01 X287.149 Y273.709
G01 X284.772 Y274.675
G01 X282.393 Y275.466
G01 X280.023 Y276.085
G01 X277.673 Y276.535
G01 X275.353 Y276.819
G01 X273.075 Y276.943
G01 X270.848 Y276.910
G01 X268.681 Y276.726
G01 X266.585 Y276.397
G01 X264.568 Y275.930
G01 X262.638 Y275.332
G01 X262.104 Y275.138
G01 X311.194 Y377.084
G01 X310.770 Y374.511
G01 X310.370 Y375.372
G01 X309.459 Y375.143
G01 X307.599 Y373.063
G01 X309.491 Y373.548
G01 X310.304 Y371.760
G01 X309.855 Y369.022
G01 X308.612 Y371.723
G01 X305.738 Y371.005
G01 X303.881 Y368.940
G01 X307.734 Y369.899
G01 X309.398 Y366.283
G01 X308.955 Y363.559
G01 X306.855 Y368.074
G01 X302.028 Y366.895
G01 X300.170 Y364.817
G01 X305.977 Y366.250
G01 X308.489 Y360.811
G01 X308.043 Y358.075
G01 X305.098 Y364.425
G01 X298.309 Y362.763
G01 X296.457 Y360.697
G01 X303.864 Y362.526
G01 X304.220 Y362.601
G01 X307.438 Y355.680
G01 X307.582 Y355.339
G01 X307.125 Y352.593
G01 X304.048 Y359.373
G01 X303.341 Y360.776
G01 X296.059 Y359.040
G01 X294.595 Y358.627
G01 X292.726 Y356.553
G01 X299.764 Y358.382
G01 X302.463 Y358.952
G01 X305.618 Y352.333
G01 X306.668 Y349.839
G01 X306.212 Y347.103
G01 X303.362 Y353.591
G01 X301.584 Y357.127
G01 X294.579 Y355.538
G01 X290.872 Y354.491
G01 X289.024 Y352.444
G01 X295.688 Y354.250
G01 X300.706 Y355.303
G01 X303.810 Y349.005
G01 X305.765 Y344.382
G01 X305.306 Y341.628
G01 X302.674 Y347.817
G01 X299.827 Y353.478
G01 X293.103 Y352.042
G01 X287.156 Y350.368
G01 X285.301 Y348.304
G01 X291.599 Y350.104
G01 X298.155 Y351.513
G01 X298.949 Y351.654
G01 X301.992 Y345.660
G01 X304.569 Y339.620
G01 X304.849 Y338.890
G01 X304.387 Y336.143
G01 X301.977 Y342.042
G01 X299.116 Y347.905
G01 X298.070 Y349.829
G01 X291.622 Y348.537
G01 X285.421 Y346.861
G01 X283.441 Y346.230
G01 X281.579 Y344.171
G01 X287.511 Y345.959
G01 X293.691 Y347.383
G01 X297.191 Y348.005
G01 X300.174 Y342.316
G01 X302.717 Y336.578
G01 X303.929 Y333.409
G01 X303.490 Y330.679
G01 X301.292 Y336.278
G01 X298.670 Y341.848
G01 X296.313 Y346.180
G01 X290.147 Y345.043
G01 X284.207 Y343.541
G01 X279.728 Y342.122
G01 X277.867 Y340.036
G01 X283.435 Y341.812
G01 X289.242 Y343.250
G01 X295.267 Y344.332
G01 X295.434 Y344.356
G01 X298.358 Y338.975
G01 X300.867 Y333.541
G01 X302.964 Y328.083
G01 X303.019 Y327.923
G01 X302.572 Y325.195
G01 X300.591 Y330.503
G01 X298.212 Y335.792
G01 X295.431 Y341.034
G01 X294.556 Y342.531
G01 X288.665 Y341.536
G01 X282.983 Y340.194
G01 X277.528 Y338.522
G01 X276.012 Y337.985
G01 X274.154 Y335.919
G01 X279.361 Y337.675
G01 X284.795 Y339.119
G01 X290.439 Y340.234
G01 X293.677 Y340.707
G01 X296.543 Y335.636
G01 X299.021 Y330.508
G01 X301.111 Y325.351
G01 X302.115 Y322.454
G01 X301.665 Y319.718
G01 X299.895 Y324.734
G01 X297.752 Y329.738
G01 X295.235 Y334.706
G01 X292.799 Y338.882
G01 X287.185 Y338.033
G01 X281.761 Y336.853
G01 X276.545 Y335.360
G01 X272.296 Y333.862
G01 X270.436 Y331.786
G01 X275.284 Y333.524
G01 X280.350 Y334.977
G01 X285.617 Y336.128
G01 X291.067 Y336.959
G01 X291.920 Y337.058
G01 X294.725 Y332.290
G01 X297.167 Y327.464
G01 X299.246 Y322.602
G01 X300.966 Y317.728
G01 X301.202 Y316.969
G01 X300.757 Y314.244
G01 X299.193 Y318.969
G01 X297.284 Y323.691
G01 X295.026 Y328.385
G01 X292.417 Y333.030
G01 X291.042 Y335.233
G01 X285.704 Y334.527
G01 X280.538 Y333.508
G01 X275.560 Y332.192
G01 X270.786 Y330.595
G01 X268.582 Y329.738
G01 X266.722 Y327.670
G01 X271.216 Y329.386
G01 X275.916 Y330.841
G01 X280.809 Y332.020
G01 X285.877 Y332.908
G01 X290.163 Y333.409
G01 X292.908 Y328.947
G01 X295.315 Y324.423
G01 X297.385 Y319.858
G01 X299.120 Y315.275
G01 X300.300 Y311.500
G01 X299.840 Y308.759
G01 X298.481 Y313.198
G01 X296.802 Y317.641
G01 X294.800 Y322.065
G01 X292.474 Y326.451
G01 X289.822 Y330.777
G01 X289.285 Y331.584
G01 X284.221 Y331.016
G01 X279.311 Y330.153
G01 X274.570 Y329.009
G01 X270.013 Y327.599
G01 X265.656 Y325.939
G01 X264.866 Y325.602
G01 X263.006 Y323.534
G01 X267.150 Y325.229
G01 X271.491 Y326.689
G01 X276.015 Y327.898
G01 X280.707 Y328.842
G01 X285.553 Y329.508
G01 X288.406 Y329.760
G01 X291.088 Y325.598
G01 X293.456 Y321.370
G01 X295.512 Y317.097
G01 X297.256 Y312.798
G01 X298.692 Y308.496
G01 X299.383 Y306.015
G01 X298.920 Y303.270
G01 X297.760 Y307.425
G01 X296.307 Y311.591
G01 X294.556 Y315.747
G01 X292.506 Y319.876
G01 X290.155 Y323.956
G01 X287.528 Y327.935
G01 X282.737 Y327.503
G01 X278.082 Y326.793
G01 X273.578 Y325.818
G01 X269.238 Y324.592
G01 X265.077 Y323.128
G01 X261.148 Y321.461
G01 X259.290 Y319.406
G01 X263.091 Y321.076
G01 X267.078 Y322.535
G01 X271.238 Y323.769
G01 X275.559 Y324.764
G01 X280.027 Y325.508
G01 X284.627 Y325.988
G01 X286.649 Y326.111
G01 X289.267 Y322.248
G01 X291.597 Y318.315
G01 X293.638 Y314.333
G01 X295.391 Y310.320
G01 X296.859 Y306.294
G01 X298.045 Y302.273
G01 X298.472 Y300.536
G01 X298.015 Y297.798
G01 X297.045 Y301.671
G01 X295.807 Y305.560
G01 X294.298 Y309.448
G01 X292.515 Y313.318
G01 X290.455 Y317.151
G01 X288.120 Y320.931
G01 X285.771 Y324.286
G01 X281.254 Y323.990
G01 X276.854 Y323.434
G01 X272.586 Y322.630
G01 X268.463 Y321.588
G01 X264.498 Y320.322
G01 X260.703 Y318.844
G01 X257.435 Y317.341
G01 X255.573 Y315.288
G01 X259.039 Y316.929
G01 X262.679 Y318.383
G01 X266.482 Y319.636
G01 X270.438 Y320.675
G01 X274.534 Y321.490
G01 X278.758 Y322.068
G01 X283.096 Y322.400
G01 X284.892 Y322.462
G01 X287.445 Y318.896
G01 X289.735 Y315.258
G01 X291.760 Y311.565
G01 X293.521 Y307.835
G01 X295.020 Y304.084
G01 X296.259 Y300.329
G01 X297.241 Y296.587
G01 X297.570 Y295.063
G01 X297.106 Y292.321
G01 X296.320 Y295.917
G01 X295.291 Y299.534
G01 X294.016 Y303.158
G01 X292.491 Y306.772
G01 X290.715 Y310.362
G01 X288.687 Y313.910
G01 X286.406 Y317.400
G01 X284.013 Y320.637
G01 X279.768 Y320.473
G01 X275.623 Y320.067
G01 X271.590 Y319.428
G01 X267.684 Y318.567
G01 X263.915 Y317.493
G01 X260.295 Y316.220
G01 X256.834 Y314.758
G01 X253.719 Y313.216
G01 X251.857 Y311.147
G01 X254.996 Y312.760
G01 X258.298 Y314.208
G01 X261.754 Y315.478
G01 X265.354 Y316.560
G01 X269.087 Y317.443
G01 X272.942 Y318.115
G01 X276.908 Y318.567
G01 X280.972 Y318.790
G01 X283.135 Y318.813
G01 X285.620 Y315.538
G01 X287.866 Y312.188
G01 X289.871 Y308.780
G01 X291.635 Y305.328
G01 X293.159 Y301.848
G01 X294.445 Y298.355
G01 X295.494 Y294.865
G01 X296.312 Y291.390
G01 X296.649 Y289.575
G01 X296.185 Y286.835
G01 X295.576 Y290.161
G01 X294.748 Y293.514
G01 X293.698 Y296.879
G01 X292.423 Y300.243
G01 X290.920 Y303.592
G01 X289.189 Y306.911
G01 X287.228 Y310.187
G01 X285.038 Y313.403
G01 X282.620 Y316.546
G01 X282.256 Y316.988
G01 X278.280 Y316.951
G01 X274.387 Y316.689
G01 X270.590 Y316.210
G01 X266.899 Y315.523
G01 X263.326 Y314.637
G01 X259.882 Y313.562
G01 X256.576 Y312.309
G01 X253.417 Y310.889
G01 X250.413 Y309.312
G01 X249.997 Y309.075
G01 X252.214 Y308.008
G01 X255.207 Y309.529
G01 X258.353 Y310.893
G01 X261.646 Y312.087
G01 X265.075 Y313.101
G01 X268.630 Y313.923
G01 X272.302 Y314.545
G01 X276.078 Y314.957
G01 X279.946 Y315.150
G01 X281.378 Y315.164
G01 X283.723 Y312.047
G01 X285.839 Y308.860
G01 X287.726 Y305.619
G01 X289.384 Y302.337
G01 X290.813 Y299.030
G01 X292.015 Y295.712
G01 X292.993 Y292.398
G01 X293.749 Y289.100
G01 X293.972 Y287.898
G01 X291.769 Y288.970
G01 X291.020 Y292.221
G01 X290.050 Y295.491
G01 X288.855 Y298.763
G01 X287.433 Y302.025
G01 X285.782 Y305.261
G01 X283.901 Y308.457
G01 X281.791 Y311.598
G01 X280.499 Y313.339
G01 X276.677 Y313.155
G01 X272.947 Y312.751
G01 X269.323 Y312.138
G01 X265.816 Y311.324
G01 X262.436 Y310.320
G01 X259.194 Y309.136
G01 X256.098 Y307.783
G01 X254.426 Y306.953
G01 X256.639 Y305.882
G01 X259.670 Y307.246
G01 X262.850 Y308.444
G01 X266.170 Y309.462
G01 X269.620 Y310.292
G01 X273.189 Y310.923
G01 X276.865 Y311.344
G01 X279.621 Y311.515
G01 X281.753 Y308.422
G01 X283.654 Y305.272
G01 X285.326 Y302.079
G01 X286.767 Y298.859
G01 X287.980 Y295.627
G01 X288.968 Y292.397
G01 X289.551 Y290.032
G01 X287.335 Y291.099
G01 X286.432 Y294.289
G01 X285.303 Y297.487
G01 X283.945 Y300.677
G01 X282.357 Y303.845
G01 X280.538 Y306.975
G01 X278.742 Y309.690
G01 X275.069 Y309.348
G01 X271.500 Y308.794
G01 X268.048 Y308.036
G01 X264.723 Y307.085
G01 X261.536 Y305.952
G01 X258.855 Y304.814
G01 X261.066 Y303.748
G01 X264.156 Y304.949
G01 X267.390 Y305.972
G01 X270.756 Y306.806
G01 X274.245 Y307.440
G01 X277.844 Y307.864
G01 X277.864 Y307.866
G01 X279.778 Y304.788
G01 X281.459 Y301.666
G01 X282.908 Y298.515
G01 X284.126 Y295.350
G01 X285.116 Y292.186
G01 X285.122 Y292.163
G01 X282.905 Y293.226
G01 X281.828 Y296.367
G01 X280.519 Y299.502
G01 X278.977 Y302.617
G01 X277.201 Y305.696
G01 X276.985 Y306.041
G01 X273.457 Y305.533
G01 X270.046 Y304.818
G01 X266.764 Y303.907
G01 X263.620 Y302.810
G01 X263.280 Y302.677
G01 X265.498 Y301.624
G01 X268.668 Y302.649
G01 X271.974 Y303.483
G01 X275.405 Y304.115
G01 X276.107 Y304.217
G01 X277.800 Y301.149
G01 X279.257 Y298.050
G01 X280.480 Y294.935
G01 X280.699 Y294.304
G01 X278.488 Y295.373
G01 X277.210 Y298.466
G01 X275.694 Y301.539
G01 X275.228 Y302.392
G01 X271.845 Y301.717
G01 X268.591 Y300.840
G01 X267.713 Y300.562
G01 X269.925 Y299.490
G01 X273.193 Y300.327
G01 X274.350 Y300.568
G01 X275.817 Y297.502
G01 X276.270 Y296.434
G01 X274.062 Y297.504
G01 X273.471 Y298.743
G01 X270.493 Y298.516
G01 X267.596 Y298.118
G01 X264.788 Y297.555
G01 X262.079 Y296.836
G01 X259.477 Y295.969
G01 X256.990 Y294.963
G01 X254.625 Y293.827
G01 X252.389 Y292.571
G01 X250.287 Y291.204
G01 X248.325 Y289.737
G01 X246.508 Y288.180
G01 X244.839 Y286.544
G01 X243.322 Y284.839
G01 X241.959 Y283.077
G01 X240.752 Y281.269
G01 X239.702 Y279.425
G01 X238.810 Y277.557
G01 X238.075 Y275.675
G01 X237.894 Y275.136
G01 X188.795 Y377.079
G01 X190.542 Y375.143
G01 X189.619 Y375.367
G01 X189.231 Y374.512
G01 X189.698 Y371.761
G01 X190.498 Y373.543
G01 X192.403 Y373.063
G01 X194.263 Y371.005
G01 X191.377 Y371.718
G01 X190.146 Y369.023
G01 X190.603 Y366.284
G01 X192.256 Y369.894
G01 X196.120 Y368.940
G01 X197.974 Y366.895
G01 X193.134 Y368.069
G01 X191.047 Y363.559
G01 X191.513 Y360.812
G01 X194.013 Y366.245
G01 X199.831 Y364.818
G01 X201.693 Y362.763
G01 X194.892 Y364.421
G01 X191.958 Y358.076
G01 X192.419 Y355.340
G01 X195.607 Y362.271
G01 X195.770 Y362.596
G01 X203.187 Y360.797
G01 X203.544 Y360.697
G01 X205.406 Y358.628
G01 X198.187 Y360.449
G01 X196.649 Y360.772
G01 X193.466 Y353.996
G01 X192.876 Y352.594
G01 X193.333 Y349.839
G01 X196.291 Y356.482
G01 X197.528 Y358.947
G01 X204.670 Y357.288
G01 X207.275 Y356.553
G01 X209.129 Y354.491
G01 X202.279 Y356.308
G01 X198.406 Y357.123
G01 X195.282 Y350.655
G01 X193.789 Y347.104
G01 X194.237 Y344.383
G01 X196.980 Y350.719
G01 X199.285 Y355.298
G01 X206.144 Y353.799
G01 X210.978 Y352.445
G01 X212.845 Y350.369
G01 X206.365 Y352.170
G01 X200.164 Y353.474
G01 X197.094 Y347.322
G01 X194.695 Y341.628
G01 X195.152 Y338.891
G01 X197.672 Y344.937
G01 X200.657 Y350.941
G01 X201.042 Y351.650
G01 X207.626 Y350.292
G01 X213.955 Y348.541
G01 X214.701 Y348.304
G01 X216.560 Y346.230
G01 X210.446 Y348.025
G01 X204.078 Y349.443
G01 X201.921 Y349.825
G01 X198.912 Y343.978
G01 X196.355 Y338.085
G01 X195.614 Y336.144
G01 X196.063 Y333.404
G01 X198.364 Y339.157
G01 X201.103 Y344.876
G01 X202.800 Y348.001
G01 X209.107 Y346.786
G01 X215.178 Y345.196
G01 X218.412 Y344.168
G01 X220.273 Y342.122
G01 X214.526 Y343.895
G01 X208.536 Y345.318
G01 X203.679 Y346.176
G01 X200.723 Y340.646
G01 X198.194 Y335.065
G01 X196.511 Y330.680
G01 X196.981 Y327.924
G01 X199.065 Y333.384
G01 X201.561 Y338.821
G01 X204.472 Y344.206
G01 X204.557 Y344.352
G01 X210.587 Y343.283
G01 X216.400 Y341.857
G01 X221.975 Y340.093
G01 X222.134 Y340.036
G01 X223.989 Y337.986
G01 X218.603 Y339.747
G01 X212.985 Y341.184
G01 X207.152 Y342.278
G01 X205.436 Y342.527
G01 X202.541 Y337.302
G01 X200.048 Y332.022
G01 X197.954 Y326.714
G01 X197.429 Y325.195
G01 X197.886 Y322.454
G01 X199.759 Y327.619
G01 X202.018 Y332.768
G01 X204.665 Y337.876
G01 X206.315 Y340.703
G01 X212.067 Y339.782
G01 X217.620 Y338.522
G01 X222.955 Y336.941
G01 X225.847 Y335.920
G01 X227.705 Y333.862
G01 X222.679 Y335.605
G01 X217.431 Y337.050
G01 X211.978 Y338.179
G01 X207.193 Y338.879
G01 X204.358 Y333.960
G01 X201.898 Y328.984
G01 X199.813 Y323.975
G01 X198.336 Y319.719
G01 X198.799 Y316.970
G01 X200.462 Y321.844
G01 X202.485 Y326.711
G01 X204.869 Y331.546
G01 X207.617 Y336.325
G01 X208.072 Y337.054
G01 X213.548 Y336.275
G01 X218.844 Y335.174
G01 X223.942 Y333.769
G01 X228.825 Y332.075
G01 X229.565 Y331.786
G01 X231.419 Y329.739
G01 X226.749 Y331.462
G01 X221.867 Y332.913
G01 X216.789 Y334.075
G01 X211.531 Y334.931
G01 X208.951 Y335.230
G01 X206.175 Y330.616
G01 X203.751 Y325.942
G01 X201.676 Y321.229
G01 X199.948 Y316.501
G01 X199.244 Y314.244
G01 X199.701 Y311.500
G01 X201.161 Y316.083
G01 X202.954 Y320.666
G01 X205.083 Y325.226
G01 X207.549 Y329.742
G01 X209.829 Y333.405
G01 X215.029 Y332.770
G01 X220.067 Y331.831
G01 X224.927 Y330.603
G01 X229.592 Y329.102
G01 X233.279 Y327.671
G01 X235.135 Y325.602
G01 X230.817 Y327.307
G01 X226.297 Y328.764
G01 X221.589 Y329.958
G01 X216.710 Y330.874
G01 X211.674 Y331.497
G01 X210.708 Y331.581
G01 X207.996 Y327.268
G01 X205.609 Y322.891
G01 X203.547 Y318.471
G01 X201.808 Y314.029
G01 X200.390 Y309.587
G01 X200.160 Y308.760
G01 X200.618 Y306.016
G01 X201.877 Y310.313
G01 X203.442 Y314.617
G01 X205.317 Y318.908
G01 X207.505 Y323.165
G01 X210.005 Y327.369
G01 X211.587 Y329.757
G01 X216.513 Y329.258
G01 X221.295 Y328.474
G01 X225.918 Y327.417
G01 X230.366 Y326.101
G01 X234.625 Y324.541
G01 X236.995 Y323.534
G01 X238.853 Y321.461
G01 X234.881 Y323.145
G01 X230.718 Y324.605
G01 X226.377 Y325.828
G01 X221.871 Y326.799
G01 X217.215 Y327.506
G01 X212.466 Y327.932
G01 X209.817 Y323.917
G01 X207.470 Y319.835
G01 X205.423 Y315.706
G01 X203.676 Y311.548
G01 X202.226 Y307.382
G01 X201.080 Y303.271
G01 X201.528 Y300.537
G01 X202.592 Y304.550
G01 X203.937 Y308.577
G01 X205.567 Y312.599
G01 X207.483 Y316.597
G01 X209.687 Y320.554
G01 X212.180 Y324.450
G01 X213.344 Y326.108
G01 X217.997 Y325.746
G01 X222.524 Y325.115
G01 X226.910 Y324.228
G01 X231.141 Y323.097
G01 X235.204 Y321.735
G01 X239.087 Y320.155
G01 X240.711 Y319.406
G01 X242.566 Y317.341
G01 X238.934 Y318.997
G01 X235.122 Y320.455
G01 X231.141 Y321.699
G01 X227.004 Y322.717
G01 X222.722 Y323.497
G01 X218.311 Y324.028
G01 X214.223 Y324.283
G01 X211.638 Y320.567
G01 X209.330 Y316.781
G01 X207.298 Y312.942
G01 X205.542 Y309.069
G01 X204.059 Y305.180
G01 X202.849 Y301.291
G01 X201.986 Y297.799
G01 X202.431 Y295.063
G01 X203.309 Y298.796
G01 X204.441 Y302.549
G01 X205.833 Y306.303
G01 X207.487 Y310.045
G01 X209.404 Y313.755
G01 X211.585 Y317.418
G01 X214.030 Y321.016
G01 X215.102 Y322.459
G01 X219.482 Y322.232
G01 X223.754 Y321.753
G01 X227.903 Y321.035
G01 X231.918 Y320.086
G01 X235.785 Y318.919
G01 X239.493 Y317.547
G01 X243.031 Y315.981
G01 X244.428 Y315.288
G01 X246.282 Y313.216
G01 X242.981 Y314.843
G01 X239.511 Y316.294
G01 X235.883 Y317.556
G01 X232.106 Y318.618
G01 X228.193 Y319.467
G01 X224.154 Y320.093
G01 X220.003 Y320.486
G01 X215.980 Y320.634
G01 X213.462 Y317.213
G01 X211.195 Y313.719
G01 X209.180 Y310.168
G01 X207.418 Y306.576
G01 X205.907 Y302.961
G01 X204.646 Y299.336
G01 X203.631 Y295.719
G01 X202.894 Y292.322
G01 X203.351 Y289.576
G01 X204.048 Y293.036
G01 X204.974 Y296.521
G01 X206.135 Y300.015
G01 X207.534 Y303.503
G01 X209.171 Y306.972
G01 X211.050 Y310.406
G01 X213.169 Y313.788
G01 X215.528 Y317.105
G01 X216.859 Y318.810
G01 X220.969 Y318.711
G01 X224.988 Y318.378
G01 X228.903 Y317.821
G01 X232.702 Y317.048
G01 X236.372 Y316.070
G01 X239.905 Y314.897
G01 X243.289 Y313.542
G01 X246.515 Y312.014
G01 X248.144 Y311.147
G01 X249.997 Y309.075
G01 X247.017 Y310.672
G01 X243.879 Y312.116
G01 X240.594 Y313.393
G01 X237.168 Y314.494
G01 X233.613 Y315.407
G01 X229.939 Y316.123
G01 X226.155 Y316.632
G01 X222.275 Y316.925
G01 X218.310 Y316.994
G01 X217.738 Y316.986
G01 X215.288 Y313.854
G01 X213.065 Y310.647
G01 X211.072 Y307.379
G01 X209.308 Y304.065
G01 X207.773 Y300.719
G01 X206.466 Y297.356
G01 X205.385 Y293.990
G01 X204.526 Y290.635
G01 X203.885 Y287.304
G01 X203.812 Y286.831
G01 X206.028 Y287.898
G01 X206.704 Y291.187
G01 X207.600 Y294.497
G01 X208.719 Y297.816
G01 X210.065 Y301.128
G01 X211.638 Y304.421
G01 X213.441 Y307.679
G01 X215.474 Y310.888
G01 X217.735 Y314.033
G01 X218.616 Y315.161
G01 X222.516 Y315.051
G01 X226.327 Y314.719
G01 X230.038 Y314.173
G01 X233.637 Y313.423
G01 X237.113 Y312.479
G01 X240.457 Y311.350
G01 X243.658 Y310.048
G01 X246.707 Y308.583
G01 X247.786 Y308.008
G01 X245.575 Y306.953
G01 X242.566 Y308.395
G01 X239.405 Y309.675
G01 X236.101 Y310.781
G01 X232.664 Y311.703
G01 X229.105 Y312.430
G01 X225.433 Y312.952
G01 X221.662 Y313.260
G01 X219.495 Y313.337
G01 X217.256 Y310.233
G01 X215.246 Y307.066
G01 X213.466 Y303.850
G01 X211.916 Y300.600
G01 X210.594 Y297.332
G01 X209.498 Y294.059
G01 X208.625 Y290.795
G01 X208.232 Y288.970
G01 X210.449 Y290.033
G01 X211.272 Y293.253
G01 X212.319 Y296.486
G01 X213.592 Y299.716
G01 X215.094 Y302.931
G01 X216.827 Y306.114
G01 X218.789 Y309.251
G01 X220.374 Y311.512
G01 X224.121 Y311.251
G01 X227.770 Y310.773
G01 X231.308 Y310.090
G01 X234.724 Y309.209
G01 X238.008 Y308.142
G01 X241.149 Y306.900
G01 X243.361 Y305.882
G01 X241.146 Y304.815
G01 X238.088 Y306.098
G01 X234.884 Y307.209
G01 X231.543 Y308.136
G01 X228.077 Y308.870
G01 X224.495 Y309.399
G01 X221.253 Y309.688
G01 X219.230 Y306.603
G01 X217.438 Y303.467
G01 X215.878 Y300.295
G01 X214.548 Y297.103
