;  Created by Sandify
;  https://sandify.org
;  Version: 0.2.6
;
;  Machine type: Rectangular
;    Min X (mm): 0
;    Max X (mm): 500
;    Min Y (mm): 0
;    Max Y (mm): 500
;  Content type: shape
;  Layer:
;    Shape: FileImport
;    Name: hero_13wave1.thr
;    From file:: hero_13wave1.thr
;    Aspect Ratio: true
;    Comments: 
;    Visible: true
;    Initial width: 10
;    Initial height: 10
;    X offset: 0
;    Y offset: 0
;    Rotate (degrees): 0
;    Reverse path: false
;    Fine tuning:
;      Connect to next layer: line
;      Draw portion of path (%): 100
;      Backtrack at end (%): 0
;      Rotate starting point (%): 0
;  Reverse export path: false
;
; File name: '13wave1 (E) (C NW)'
; File type: gcode
;

G01 X250.000 Y250.000
G01 X250.001 Y250.007
G01 X250.002 Y250.011
G01 X250.003 Y250.014
G01 X250.004 Y250.018
G01 X250.005 Y250.022
G01 X250.006 Y250.026
G01 X250.007 Y250.030
G01 X250.008 Y250.034
G01 X250.009 Y250.038
G01 X250.010 Y250.042
G01 X250.011 Y250.046
G01 X250.012 Y250.050
G01 X250.013 Y250.053
G01 X250.014 Y250.057
G01 X250.015 Y250.061
G01 X250.016 Y250.064
G01 X250.018 Y250.067
G01 X250.019 Y250.071
G01 X250.020 Y250.074
G01 X250.021 Y250.076
G01 X250.022 Y250.079
G01 X250.023 Y250.081
G01 X250.024 Y250.084
G01 X250.026 Y250.086
G01 X250.027 Y250.087
G01 X250.028 Y250.089
G01 X250.030 Y250.090
G01 X250.031 Y250.091
G01 X250.033 Y250.092
G01 X250.035 Y250.093
G01 X250.037 Y250.093
G01 X250.039 Y250.093
G01 X250.041 Y250.093
G01 X250.043 Y250.093
G01 X250.046 Y250.092
G01 X250.048 Y250.091
G01 X250.051 Y250.090
G01 X250.054 Y250.088
G01 X250.057 Y250.086
G01 X250.061 Y250.084
G01 X250.064 Y250.082
G01 X250.068 Y250.080
G01 X250.072 Y250.077
G01 X250.077 Y250.075
G01 X250.081 Y250.072
G01 X250.086 Y250.069
G01 X250.091 Y250.065
G01 X250.096 Y250.062
G01 X250.101 Y250.059
G01 X250.107 Y250.055
G01 X250.113 Y250.051
G01 X250.119 Y250.048
G01 X250.125 Y250.044
G01 X250.132 Y250.040
G01 X250.139 Y250.036
G01 X250.145 Y250.032
G01 X250.153 Y250.028
G01 X250.160 Y250.025
G01 X250.167 Y250.021
G01 X250.175 Y250.017
G01 X250.182 Y250.013
G01 X250.190 Y250.010
G01 X250.197 Y250.006
G01 X250.205 Y250.003
G01 X250.213 Y249.999
G01 X250.221 Y249.996
G01 X250.229 Y249.993
G01 X250.236 Y249.990
G01 X250.244 Y249.987
G01 X250.252 Y249.985
G01 X250.259 Y249.982
G01 X250.267 Y249.980
G01 X250.274 Y249.978
G01 X250.281 Y249.975
G01 X250.288 Y249.973
G01 X250.294 Y249.972
G01 X250.300 Y249.970
G01 X250.307 Y249.968
G01 X250.312 Y249.967
G01 X250.318 Y249.965
G01 X250.323 Y249.964
G01 X250.327 Y249.963
G01 X250.332 Y249.962
G01 X250.335 Y249.961
G01 X250.339 Y249.959
G01 X250.342 Y249.958
G01 X250.344 Y249.957
G01 X250.347 Y249.956
G01 X250.348 Y249.955
G01 X250.349 Y249.953
G01 X250.350 Y249.952
G01 X250.350 Y249.951
G01 X250.350 Y249.949
G01 X250.349 Y249.947
G01 X250.347 Y249.945
G01 X250.346 Y249.943
G01 X250.343 Y249.940
G01 X250.340 Y249.938
G01 X250.337 Y249.935
G01 X250.333 Y249.932
G01 X250.329 Y249.928
G01 X250.324 Y249.924
G01 X250.319 Y249.920
G01 X250.313 Y249.915
G01 X250.307 Y249.911
G01 X250.301 Y249.905
G01 X250.294 Y249.899
G01 X250.287 Y249.893
G01 X250.279 Y249.887
G01 X250.272 Y249.880
G01 X250.264 Y249.872
G01 X250.256 Y249.865
G01 X250.247 Y249.856
G01 X250.239 Y249.847
G01 X250.230 Y249.838
G01 X250.221 Y249.829
G01 X250.212 Y249.819
G01 X250.203 Y249.808
G01 X250.194 Y249.798
G01 X250.185 Y249.787
G01 X250.176 Y249.775
G01 X250.167 Y249.763
G01 X250.158 Y249.751
G01 X250.149 Y249.738
G01 X250.141 Y249.725
G01 X250.132 Y249.712
G01 X250.124 Y249.699
G01 X250.116 Y249.685
G01 X250.108 Y249.672
G01 X250.101 Y249.658
G01 X250.093 Y249.644
G01 X250.086 Y249.630
G01 X250.080 Y249.616
G01 X250.073 Y249.602
G01 X250.067 Y249.588
G01 X250.061 Y249.574
G01 X250.056 Y249.560
G01 X250.051 Y249.547
G01 X250.046 Y249.533
G01 X250.042 Y249.520
G01 X250.038 Y249.508
G01 X250.034 Y249.495
G01 X250.030 Y249.483
G01 X250.027 Y249.471
G01 X250.024 Y249.460
G01 X250.022 Y249.449
G01 X250.019 Y249.439
G01 X250.017 Y249.429
G01 X250.015 Y249.420
G01 X250.013 Y249.412
G01 X250.012 Y249.404
G01 X250.010 Y249.397
G01 X250.009 Y249.390
G01 X250.008 Y249.385
G01 X250.006 Y249.380
G01 X250.005 Y249.376
G01 X250.004 Y249.372
G01 X250.003 Y249.369
G01 X250.001 Y249.368
G01 X250.000 Y249.367
G01 X249.998 Y249.366
G01 X249.996 Y249.367
G01 X249.994 Y249.368
G01 X249.991 Y249.370
G01 X249.988 Y249.373
G01 X249.985 Y249.377
G01 X249.981 Y249.382
G01 X249.977 Y249.387
G01 X249.973 Y249.393
G01 X249.968 Y249.400
G01 X249.963 Y249.407
G01 X249.957 Y249.416
G01 X249.950 Y249.424
G01 X249.943 Y249.434
G01 X249.935 Y249.444
G01 X249.927 Y249.454
G01 X249.918 Y249.465
G01 X249.908 Y249.476
G01 X249.898 Y249.488
G01 X249.887 Y249.501
G01 X249.875 Y249.513
G01 X249.863 Y249.526
G01 X249.850 Y249.539
G01 X249.836 Y249.552
G01 X249.821 Y249.566
G01 X249.806 Y249.579
G01 X249.791 Y249.593
G01 X249.774 Y249.606
G01 X249.758 Y249.620
G01 X249.740 Y249.634
G01 X249.722 Y249.647
G01 X249.704 Y249.660
G01 X249.685 Y249.673
G01 X249.665 Y249.686
G01 X249.645 Y249.699
G01 X249.625 Y249.711
G01 X249.604 Y249.723
G01 X249.584 Y249.734
G01 X249.563 Y249.745
G01 X249.541 Y249.756
G01 X249.520 Y249.766
G01 X249.499 Y249.776
G01 X249.477 Y249.785
G01 X249.456 Y249.794
G01 X249.435 Y249.802
G01 X249.413 Y249.810
G01 X249.393 Y249.817
G01 X249.372 Y249.824
G01 X249.352 Y249.830
G01 X249.332 Y249.836
G01 X249.312 Y249.841
G01 X249.293 Y249.846
G01 X249.275 Y249.850
G01 X249.257 Y249.854
G01 X249.240 Y249.857
G01 X249.223 Y249.860
G01 X249.208 Y249.863
G01 X249.193 Y249.865
G01 X249.179 Y249.867
G01 X249.166 Y249.869
G01 X249.154 Y249.870
G01 X249.142 Y249.872
G01 X249.132 Y249.873
G01 X249.123 Y249.874
G01 X249.115 Y249.875
G01 X249.108 Y249.876
G01 X249.102 Y249.877
G01 X249.097 Y249.879
G01 X249.093 Y249.880
G01 X249.091 Y249.882
G01 X249.089 Y249.883
G01 X249.089 Y249.886
G01 X249.090 Y249.888
G01 X249.091 Y249.891
G01 X249.094 Y249.895
G01 X249.098 Y249.899
G01 X249.104 Y249.903
G01 X249.110 Y249.908
G01 X249.117 Y249.914
G01 X249.125 Y249.921
G01 X249.134 Y249.928
G01 X249.144 Y249.936
G01 X249.155 Y249.945
G01 X249.166 Y249.955
G01 X249.179 Y249.965
G01 X249.192 Y249.977
G01 X249.205 Y249.989
G01 X249.220 Y250.002
G01 X249.234 Y250.017
G01 X249.250 Y250.032
G01 X249.266 Y250.048
G01 X249.282 Y250.065
G01 X249.298 Y250.083
G01 X249.315 Y250.102
G01 X249.332 Y250.122
G01 X249.349 Y250.143
G01 X249.366 Y250.164
G01 X249.383 Y250.187
G01 X249.399 Y250.210
G01 X249.416 Y250.234
G01 X249.433 Y250.259
G01 X249.449 Y250.285
G01 X249.465 Y250.311
G01 X249.481 Y250.337
G01 X249.496 Y250.365
G01 X249.511 Y250.393
G01 X249.526 Y250.422
G01 X249.540 Y250.451
G01 X249.553 Y250.480
G01 X249.566 Y250.509
G01 X249.578 Y250.539
G01 X249.590 Y250.569
G01 X249.601 Y250.598
G01 X249.611 Y250.628
G01 X249.620 Y250.658
G01 X249.629 Y250.687
G01 X249.637 Y250.716
G01 X249.645 Y250.745
G01 X249.652 Y250.773
G01 X249.658 Y250.801
G01 X249.663 Y250.829
G01 X249.668 Y250.855
G01 X249.672 Y250.881
G01 X249.676 Y250.906
G01 X249.679 Y250.931
G01 X249.682 Y250.954
G01 X249.684 Y250.977
G01 X249.686 Y250.998
G01 X249.687 Y251.018
G01 X249.688 Y251.038
G01 X249.689 Y251.056
G01 X249.689 Y251.072
G01 X249.690 Y251.088
G01 X249.690 Y251.102
G01 X249.690 Y251.115
G01 X249.690 Y251.126
G01 X249.691 Y251.136
G01 X249.691 Y251.145
G01 X249.692 Y251.152
G01 X249.693 Y251.158
G01 X249.694 Y251.162
G01 X249.696 Y251.165
G01 X249.699 Y251.166
G01 X249.702 Y251.166
G01 X249.705 Y251.165
G01 X249.709 Y251.162
G01 X249.715 Y251.158
G01 X249.720 Y251.153
G01 X249.727 Y251.146
G01 X249.735 Y251.138
G01 X249.743 Y251.129
G01 X249.753 Y251.119
G01 X249.764 Y251.108
G01 X249.776 Y251.096
G01 X249.789 Y251.083
G01 X249.803 Y251.069
G01 X249.818 Y251.054
G01 X249.835 Y251.038
G01 X249.853 Y251.022
G01 X249.872 Y251.005
G01 X249.892 Y250.987
G01 X249.914 Y250.969
G01 X249.936 Y250.951
G01 X249.960 Y250.933
G01 X249.986 Y250.914
G01 X250.012 Y250.895
G01 X250.040 Y250.876
G01 X250.069 Y250.857
G01 X250.098 Y250.838
G01 X250.129 Y250.819
G01 X250.161 Y250.801
G01 X250.194 Y250.782
G01 X250.228 Y250.765
G01 X250.262 Y250.747
G01 X250.298 Y250.730
G01 X250.333 Y250.714
G01 X250.370 Y250.698
G01 X250.371 Y250.698
G01 X250.407 Y250.683
G01 X250.445 Y250.669
G01 X250.483 Y250.655
G01 X250.522 Y250.642
G01 X250.560 Y250.629
G01 X250.599 Y250.618
G01 X250.638 Y250.608
G01 X250.676 Y250.598
G01 X250.714 Y250.589
G01 X250.753 Y250.581
G01 X250.790 Y250.574
G01 X250.828 Y250.567
G01 X250.864 Y250.562
G01 X250.900 Y250.557
G01 X250.936 Y250.553
G01 X250.970 Y250.550
G01 X251.004 Y250.548
G01 X251.036 Y250.546
G01 X251.068 Y250.545
G01 X251.098 Y250.544
G01 X251.127 Y250.544
G01 X251.155 Y250.544
G01 X251.182 Y250.545
G01 X251.207 Y250.546
G01 X251.230 Y250.547
G01 X251.252 Y250.549
G01 X251.273 Y250.550
G01 X251.291 Y250.552
G01 X251.308 Y250.554
G01 X251.324 Y250.555
G01 X251.338 Y250.556
G01 X251.350 Y250.557
G01 X251.360 Y250.557
G01 X251.369 Y250.557
G01 X251.376 Y250.557
G01 X251.381 Y250.556
G01 X251.384 Y250.554
G01 X251.386 Y250.551
G01 X251.386 Y250.547
G01 X251.385 Y250.543
G01 X251.382 Y250.537
G01 X251.377 Y250.530
G01 X251.371 Y250.522
G01 X251.363 Y250.513
G01 X251.355 Y250.502
G01 X251.344 Y250.491
G01 X251.333 Y250.477
G01 X251.321 Y250.463
G01 X251.307 Y250.447
G01 X251.292 Y250.429
G01 X251.277 Y250.410
G01 X251.261 Y250.389
G01 X251.244 Y250.367
G01 X251.226 Y250.343
G01 X251.208 Y250.317
G01 X251.189 Y250.290
G01 X251.170 Y250.261
G01 X251.151 Y250.231
G01 X251.131 Y250.200
G01 X251.111 Y250.166
G01 X251.092 Y250.132
G01 X251.072 Y250.096
G01 X251.053 Y250.059
G01 X251.034 Y250.020
G01 X251.015 Y249.980
G01 X250.997 Y249.939
G01 X250.980 Y249.897
G01 X250.962 Y249.854
G01 X250.946 Y249.810
G01 X250.930 Y249.765
G01 X250.915 Y249.720
G01 X250.901 Y249.674
G01 X250.901 Y249.673
G01 X250.888 Y249.628
G01 X250.888 Y249.626
G01 X250.875 Y249.580
G01 X250.864 Y249.532
G01 X250.853 Y249.484
G01 X250.843 Y249.436
G01 X250.835 Y249.388
G01 X250.827 Y249.341
G01 X250.821 Y249.293
G01 X250.815 Y249.246
G01 X250.811 Y249.199
G01 X250.807 Y249.153
G01 X250.804 Y249.108
G01 X250.803 Y249.063
G01 X250.802 Y249.020
G01 X250.802 Y248.977
G01 X250.803 Y248.935
G01 X250.804 Y248.895
G01 X250.806 Y248.856
G01 X250.809 Y248.818
G01 X250.812 Y248.782
G01 X250.816 Y248.748
G01 X250.820 Y248.715
G01 X250.824 Y248.683
G01 X250.829 Y248.654
G01 X250.834 Y248.626
G01 X250.838 Y248.600
G01 X250.843 Y248.576
G01 X250.847 Y248.554
G01 X250.851 Y248.534
G01 X250.855 Y248.516
G01 X250.858 Y248.500
G01 X250.861 Y248.486
G01 X250.863 Y248.474
G01 X250.864 Y248.463
G01 X250.864 Y248.455
G01 X250.863 Y248.449
G01 X250.862 Y248.445
G01 X250.859 Y248.442
G01 X250.854 Y248.442
G01 X250.849 Y248.443
G01 X250.842 Y248.446
G01 X250.833 Y248.451
G01 X250.823 Y248.457
G01 X250.811 Y248.464
G01 X250.798 Y248.473
G01 X250.782 Y248.484
G01 X250.765 Y248.496
G01 X250.746 Y248.509
G01 X250.726 Y248.522
G01 X250.703 Y248.537
G01 X250.678 Y248.553
G01 X250.652 Y248.570
G01 X250.623 Y248.587
G01 X250.593 Y248.604
G01 X250.561 Y248.623
G01 X250.526 Y248.641
G01 X250.490 Y248.660
G01 X250.453 Y248.678
G01 X250.413 Y248.697
G01 X250.371 Y248.716
G01 X250.328 Y248.734
G01 X250.284 Y248.752
G01 X250.237 Y248.770
G01 X250.190 Y248.787
G01 X250.141 Y248.804
G01 X250.090 Y248.820
G01 X250.039 Y248.835
G01 X249.986 Y248.849
G01 X249.933 Y248.863
G01 X249.878 Y248.875
G01 X249.824 Y248.887
G01 X249.769 Y248.897
G01 X249.767 Y248.898
G01 X249.712 Y248.907
G01 X249.711 Y248.907
G01 X249.655 Y248.915
G01 X249.654 Y248.915
G01 X249.597 Y248.923
G01 X249.540 Y248.929
G01 X249.483 Y248.934
G01 X249.426 Y248.937
G01 X249.370 Y248.940
G01 X249.314 Y248.941
G01 X249.258 Y248.942
G01 X249.203 Y248.941
G01 X249.149 Y248.939
G01 X249.096 Y248.936
G01 X249.044 Y248.932
G01 X248.993 Y248.928
G01 X248.944 Y248.922
G01 X248.895 Y248.916
G01 X248.849 Y248.909
G01 X248.804 Y248.901
G01 X248.760 Y248.893
G01 X248.719 Y248.884
G01 X248.679 Y248.875
G01 X248.641 Y248.866
G01 X248.605 Y248.857
G01 X248.572 Y248.848
G01 X248.540 Y248.839
G01 X248.511 Y248.830
G01 X248.483 Y248.821
G01 X248.458 Y248.813
G01 X248.436 Y248.806
G01 X248.415 Y248.799
G01 X248.397 Y248.793
G01 X248.381 Y248.788
G01 X248.367 Y248.784
G01 X248.355 Y248.781
G01 X248.346 Y248.780
G01 X248.338 Y248.780
G01 X248.333 Y248.781
G01 X248.330 Y248.784
G01 X248.328 Y248.789
G01 X248.329 Y248.795
G01 X248.331 Y248.804
G01 X248.335 Y248.814
G01 X248.341 Y248.826
G01 X248.348 Y248.841
G01 X248.357 Y248.857
G01 X248.367 Y248.876
G01 X248.378 Y248.897
G01 X248.390 Y248.920
G01 X248.403 Y248.946
G01 X248.417 Y248.973
G01 X248.432 Y249.004
G01 X248.448 Y249.036
G01 X248.464 Y249.071
G01 X248.480 Y249.108
G01 X248.496 Y249.147
G01 X248.513 Y249.188
G01 X248.530 Y249.232
G01 X248.546 Y249.278
G01 X248.562 Y249.325
G01 X248.578 Y249.375
G01 X248.594 Y249.427
G01 X248.609 Y249.480
G01 X248.623 Y249.535
G01 X248.636 Y249.592
G01 X248.649 Y249.650
G01 X248.661 Y249.709
G01 X248.671 Y249.770
G01 X248.681 Y249.832
G01 X248.689 Y249.895
G01 X248.697 Y249.959
G01 X248.703 Y250.023
G01 X248.707 Y250.087
G01 X248.708 Y250.088
G01 X248.711 Y250.152
G01 X248.711 Y250.154
G01 X248.713 Y250.218
G01 X248.713 Y250.219
G01 X248.714 Y250.285
G01 X248.714 Y250.351
G01 X248.712 Y250.417
G01 X248.709 Y250.482
G01 X248.704 Y250.547
G01 X248.698 Y250.611
G01 X248.692 Y250.674
G01 X248.683 Y250.737
G01 X248.674 Y250.798
G01 X248.664 Y250.858
G01 X248.653 Y250.917
G01 X248.641 Y250.975
G01 X248.628 Y251.031
G01 X248.614 Y251.085
G01 X248.600 Y251.137
G01 X248.586 Y251.187
G01 X248.571 Y251.236
G01 X248.556 Y251.282
G01 X248.540 Y251.326
G01 X248.525 Y251.368
G01 X248.510 Y251.408
G01 X248.495 Y251.445
G01 X248.480 Y251.480
G01 X248.466 Y251.513
G01 X248.453 Y251.543
G01 X248.440 Y251.570
G01 X248.428 Y251.595
G01 X248.418 Y251.618
G01 X248.408 Y251.638
G01 X248.400 Y251.656
G01 X248.394 Y251.671
G01 X248.389 Y251.684
G01 X248.386 Y251.695
G01 X248.385 Y251.704
G01 X248.385 Y251.710
G01 X248.388 Y251.715
G01 X248.393 Y251.717
G01 X248.400 Y251.717
G01 X248.409 Y251.716
G01 X248.421 Y251.713
G01 X248.435 Y251.708
G01 X248.452 Y251.702
G01 X248.472 Y251.695
G01 X248.494 Y251.686
G01 X248.518 Y251.677
G01 X248.546 Y251.666
G01 X248.576 Y251.655
G01 X248.609 Y251.642
G01 X248.644 Y251.630
G01 X248.683 Y251.617
G01 X248.723 Y251.603
G01 X248.767 Y251.590
G01 X248.813 Y251.577
G01 X248.861 Y251.563
G01 X248.912 Y251.550
G01 X248.965 Y251.538
G01 X249.021 Y251.526
G01 X249.079 Y251.514
G01 X249.139 Y251.503
G01 X249.200 Y251.494
G01 X249.264 Y251.485
G01 X249.329 Y251.477
G01 X249.396 Y251.470
G01 X249.464 Y251.465
G01 X249.534 Y251.461
G01 X249.604 Y251.458
G01 X249.676 Y251.456
G01 X249.748 Y251.456
G01 X249.821 Y251.458
G01 X249.893 Y251.461
G01 X249.895 Y251.461
G01 X249.967 Y251.465
G01 X249.969 Y251.466
G01 X250.041 Y251.472
G01 X250.043 Y251.472
G01 X250.116 Y251.479
G01 X250.190 Y251.488
G01 X250.264 Y251.499
G01 X250.337 Y251.511
G01 X250.409 Y251.524
G01 X250.480 Y251.539
G01 X250.550 Y251.555
G01 X250.619 Y251.572
G01 X250.687 Y251.590
G01 X250.754 Y251.609
G01 X250.818 Y251.630
G01 X250.881 Y251.651
G01 X250.942 Y251.672
G01 X251.001 Y251.694
G01 X251.058 Y251.717
G01 X251.113 Y251.740
G01 X251.165 Y251.763
G01 X251.215 Y251.787
G01 X251.263 Y251.810
G01 X251.308 Y251.832
G01 X251.351 Y251.855
G01 X251.391 Y251.877
G01 X251.428 Y251.898
G01 X251.463 Y251.918
G01 X251.495 Y251.937
G01 X251.525 Y251.955
G01 X251.552 Y251.971
G01 X251.576 Y251.986
G01 X251.598 Y252.000
G01 X251.617 Y252.011
G01 X251.634 Y252.021
G01 X251.648 Y252.029
G01 X251.660 Y252.034
G01 X251.670 Y252.037
G01 X251.677 Y252.037
G01 X251.683 Y252.036
G01 X251.686 Y252.031
G01 X251.688 Y252.024
G01 X251.688 Y252.013
G01 X251.686 Y252.000
G01 X251.683 Y251.984
G01 X251.679 Y251.965
G01 X251.674 Y251.943
G01 X251.667 Y251.918
G01 X251.660 Y251.890
G01 X251.652 Y251.858
G01 X251.643 Y251.824
G01 X251.634 Y251.786
G01 X251.624 Y251.746
G01 X251.615 Y251.702
G01 X251.606 Y251.656
G01 X251.596 Y251.606
G01 X251.587 Y251.554
G01 X251.579 Y251.499
G01 X251.571 Y251.441
G01 X251.564 Y251.380
G01 X251.558 Y251.318
G01 X251.553 Y251.252
G01 X251.548 Y251.185
G01 X251.545 Y251.116
G01 X251.544 Y251.044
G01 X251.543 Y250.971
G01 X251.545 Y250.897
G01 X251.547 Y250.821
G01 X251.552 Y250.743
G01 X251.558 Y250.665
G01 X251.565 Y250.585
G01 X251.575 Y250.505
G01 X251.586 Y250.425
G01 X251.598 Y250.345
G01 X251.598 Y250.344
G01 X251.613 Y250.265
G01 X251.613 Y250.262
G01 X251.629 Y250.184
G01 X251.629 Y250.181
G01 X251.647 Y250.102
G01 X251.647 Y250.100
G01 X251.666 Y250.020
G01 X251.687 Y249.940
G01 X251.710 Y249.861
G01 X251.734 Y249.783
G01 X251.760 Y249.706
G01 X251.786 Y249.630
G01 X251.814 Y249.555
G01 X251.843 Y249.483
G01 X251.873 Y249.412
G01 X251.904 Y249.343
G01 X251.935 Y249.275
G01 X251.967 Y249.210
G01 X251.999 Y249.148
G01 X252.032 Y249.087
G01 X252.065 Y249.030
G01 X252.097 Y248.974
G01 X252.130 Y248.922
G01 X252.161 Y248.871
G01 X252.193 Y248.824
G01 X252.223 Y248.780
G01 X252.253 Y248.738
G01 X252.281 Y248.699
G01 X252.308 Y248.663
G01 X252.334 Y248.629
G01 X252.358 Y248.598
G01 X252.380 Y248.571
G01 X252.400 Y248.545
G01 X252.418 Y248.523
G01 X252.434 Y248.503
G01 X252.447 Y248.485
G01 X252.458 Y248.470
G01 X252.466 Y248.457
G01 X252.471 Y248.446
G01 X252.474 Y248.438
G01 X252.473 Y248.431
G01 X252.469 Y248.426
G01 X252.461 Y248.423
G01 X252.451 Y248.421
G01 X252.437 Y248.421
G01 X252.420 Y248.422
G01 X252.399 Y248.424
G01 X252.375 Y248.427
G01 X252.347 Y248.431
G01 X252.315 Y248.435
G01 X252.281 Y248.440
G01 X252.242 Y248.445
G01 X252.200 Y248.450
G01 X252.155 Y248.455
G01 X252.107 Y248.460
G01 X252.055 Y248.464
G01 X252.000 Y248.468
G01 X251.942 Y248.471
G01 X251.881 Y248.473
G01 X251.817 Y248.474
G01 X251.750 Y248.474
G01 X251.681 Y248.473
G01 X251.609 Y248.470
G01 X251.535 Y248.466
G01 X251.459 Y248.461
G01 X251.381 Y248.454
G01 X251.301 Y248.445
G01 X251.220 Y248.434
G01 X251.137 Y248.421
G01 X251.053 Y248.407
G01 X250.968 Y248.390
G01 X250.882 Y248.372
G01 X250.796 Y248.351
G01 X250.709 Y248.329
G01 X250.623 Y248.305
G01 X250.537 Y248.279
G01 X250.535 Y248.278
G01 X250.451 Y248.251
G01 X250.448 Y248.250
G01 X250.364 Y248.221
G01 X250.362 Y248.221
G01 X250.277 Y248.189
G01 X250.191 Y248.156
G01 X250.108 Y248.121
G01 X250.025 Y248.084
G01 X249.944 Y248.047
G01 X249.864 Y248.008
G01 X249.786 Y247.967
G01 X249.710 Y247.926
G01 X249.636 Y247.884
G01 X249.564 Y247.842
G01 X249.494 Y247.799
G01 X249.427 Y247.755
G01 X249.362 Y247.712
G01 X249.300 Y247.668
G01 X249.240 Y247.625
G01 X249.183 Y247.582
G01 X249.130 Y247.539
G01 X249.078 Y247.498
G01 X249.030 Y247.457
G01 X248.985 Y247.417
G01 X248.943 Y247.379
G01 X248.903 Y247.343
G01 X248.867 Y247.308
G01 X248.833 Y247.275
G01 X248.802 Y247.245
G01 X248.774 Y247.216
G01 X248.749 Y247.190
G01 X248.726 Y247.167
G01 X248.706 Y247.147
G01 X248.688 Y247.129
G01 X248.672 Y247.115
G01 X248.659 Y247.103
G01 X248.647 Y247.096
G01 X248.638 Y247.091
G01 X248.630 Y247.091
G01 X248.624 Y247.093
G01 X248.619 Y247.100
G01 X248.616 Y247.111
G01 X248.614 Y247.125
G01 X248.612 Y247.143
G01 X248.612 Y247.165
G01 X248.612 Y247.191
G01 X248.612 Y247.221
G01 X248.613 Y247.255
G01 X248.613 Y247.293
G01 X248.614 Y247.334
G01 X248.614 Y247.380
G01 X248.613 Y247.429
G01 X248.612 Y247.481
G01 X248.610 Y247.537
G01 X248.607 Y247.597
G01 X248.603 Y247.660
G01 X248.598 Y247.726
G01 X248.591 Y247.795
G01 X248.583 Y247.867
G01 X248.573 Y247.941
G01 X248.561 Y248.018
G01 X248.547 Y248.098
G01 X248.531 Y248.179
G01 X248.514 Y248.263
G01 X248.494 Y248.348
G01 X248.472 Y248.435
G01 X248.448 Y248.523
G01 X248.421 Y248.612
G01 X248.393 Y248.702
G01 X248.362 Y248.793
G01 X248.329 Y248.884
G01 X248.294 Y248.975
G01 X248.256 Y249.066
G01 X248.218 Y249.155
G01 X248.217 Y249.157
G01 X248.176 Y249.245
G01 X248.175 Y249.248
G01 X248.133 Y249.336
G01 X248.132 Y249.338
G01 X248.087 Y249.426
G01 X248.087 Y249.427
G01 X248.040 Y249.515
G01 X247.991 Y249.602
G01 X247.941 Y249.687
G01 X247.890 Y249.770
G01 X247.837 Y249.852
G01 X247.784 Y249.932
G01 X247.729 Y250.010
G01 X247.674 Y250.085
G01 X247.619 Y250.158
G01 X247.563 Y250.228
G01 X247.507 Y250.296
G01 X247.451 Y250.361
G01 X247.395 Y250.424
G01 X247.340 Y250.483
G01 X247.286 Y250.540
G01 X247.233 Y250.593
G01 X247.181 Y250.643
G01 X247.130 Y250.691
G01 X247.081 Y250.735
G01 X247.033 Y250.777
G01 X246.988 Y250.815
G01 X246.945 Y250.851
G01 X246.905 Y250.884
G01 X246.867 Y250.914
G01 X246.832 Y250.941
G01 X246.799 Y250.966
G01 X246.771 Y250.988
G01 X246.745 Y251.008
G01 X246.723 Y251.025
G01 X246.704 Y251.041
G01 X246.690 Y251.054
G01 X246.679 Y251.066
G01 X246.672 Y251.076
G01 X246.669 Y251.084
G01 X246.671 Y251.092
G01 X246.676 Y251.098
G01 X246.686 Y251.103
G01 X246.700 Y251.107
G01 X246.719 Y251.111
G01 X246.741 Y251.115
G01 X246.769 Y251.118
G01 X246.800 Y251.122
G01 X246.836 Y251.126
G01 X246.875 Y251.130
G01 X246.919 Y251.135
G01 X246.968 Y251.140
G01 X247.020 Y251.147
G01 X247.075 Y251.155
G01 X247.135 Y251.164
G01 X247.198 Y251.175
G01 X247.265 Y251.187
G01 X247.334 Y251.201
G01 X247.407 Y251.217
G01 X247.483 Y251.235
G01 X247.562 Y251.255
G01 X247.643 Y251.277
G01 X247.726 Y251.302
G01 X247.811 Y251.329
G01 X247.899 Y251.358
G01 X247.988 Y251.390
G01 X248.078 Y251.425
G01 X248.170 Y251.462
G01 X248.262 Y251.502
G01 X248.355 Y251.544
G01 X248.449 Y251.588
G01 X248.543 Y251.635
G01 X248.636 Y251.685
G01 X248.730 Y251.736
G01 X248.821 Y251.790
G01 X248.823 Y251.790
G01 X248.913 Y251.845
G01 X248.915 Y251.847
G01 X249.004 Y251.903
G01 X249.007 Y251.905
G01 X249.096 Y251.964
G01 X249.097 Y251.965
G01 X249.186 Y252.026
G01 X249.274 Y252.090
G01 X249.359 Y252.155
G01 X249.443 Y252.221
G01 X249.525 Y252.288
G01 X249.604 Y252.356
G01 X249.681 Y252.424
G01 X249.756 Y252.494
G01 X249.827 Y252.563
G01 X249.897 Y252.632
G01 X249.963 Y252.702
G01 X250.026 Y252.770
G01 X250.087 Y252.839
G01 X250.144 Y252.906
G01 X250.198 Y252.972
G01 X250.250 Y253.037
G01 X250.298 Y253.100
G01 X250.343 Y253.161
G01 X250.385 Y253.220
G01 X250.424 Y253.277
G01 X250.460 Y253.332
G01 X250.494 Y253.383
G01 X250.524 Y253.432
G01 X250.552 Y253.477
G01 X250.577 Y253.519
G01 X250.600 Y253.558
G01 X250.621 Y253.593
G01 X250.639 Y253.624
G01 X250.655 Y253.651
G01 X250.670 Y253.674
G01 X250.683 Y253.693
G01 X250.694 Y253.707
G01 X250.704 Y253.717
G01 X250.713 Y253.722
G01 X250.722 Y253.722
G01 X250.729 Y253.718
G01 X250.736 Y253.710
G01 X250.743 Y253.696
G01 X250.749 Y253.678
G01 X250.756 Y253.655
G01 X250.763 Y253.628
G01 X250.771 Y253.595
G01 X250.779 Y253.559
G01 X250.789 Y253.518
G01 X250.800 Y253.472
G01 X250.812 Y253.422
G01 X250.825 Y253.368
G01 X250.840 Y253.310
G01 X250.857 Y253.249
G01 X250.877 Y253.183
G01 X250.898 Y253.114
G01 X250.922 Y253.042
G01 X250.948 Y252.967
G01 X250.976 Y252.888
G01 X251.007 Y252.807
G01 X251.041 Y252.724
G01 X251.078 Y252.638
G01 X251.118 Y252.551
G01 X251.160 Y252.462
G01 X251.205 Y252.371
G01 X251.253 Y252.279
G01 X251.304 Y252.186
G01 X251.358 Y252.092
G01 X251.415 Y251.998
G01 X251.474 Y251.903
G01 X251.536 Y251.809
G01 X251.601 Y251.715
G01 X251.668 Y251.621
G01 X251.736 Y251.530
G01 X251.737 Y251.529
G01 X251.807 Y251.439
G01 X251.809 Y251.437
G01 X251.881 Y251.349
G01 X251.883 Y251.346
G01 X251.957 Y251.259
G01 X251.958 Y251.257
G01 X252.036 Y251.170
G01 X252.115 Y251.084
G01 X252.195 Y251.000
G01 X252.276 Y250.918
G01 X252.359 Y250.839
G01 X252.442 Y250.762
G01 X252.525 Y250.688
G01 X252.609 Y250.617
G01 X252.693 Y250.549
G01 X252.776 Y250.483
G01 X252.859 Y250.420
G01 X252.941 Y250.361
G01 X253.022 Y250.304
G01 X253.102 Y250.251
G01 X253.180 Y250.201
G01 X253.257 Y250.154
G01 X253.331 Y250.110
G01 X253.403 Y250.069
G01 X253.473 Y250.031
G01 X253.539 Y249.996
G01 X253.603 Y249.964
G01 X253.663 Y249.934
G01 X253.720 Y249.907
G01 X253.774 Y249.883
G01 X253.823 Y249.861
G01 X253.868 Y249.841
G01 X253.909 Y249.823
G01 X253.946 Y249.807
G01 X253.978 Y249.793
G01 X254.006 Y249.780
G01 X254.028 Y249.768
G01 X254.046 Y249.758
G01 X254.059 Y249.748
G01 X254.067 Y249.739
G01 X254.070 Y249.730
G01 X254.068 Y249.722
G01 X254.061 Y249.713
G01 X254.049 Y249.704
G01 X254.032 Y249.695
G01 X254.009 Y249.685
G01 X253.982 Y249.674
G01 X253.950 Y249.662
G01 X253.913 Y249.649
G01 X253.872 Y249.634
G01 X253.826 Y249.617
G01 X253.775 Y249.598
G01 X253.721 Y249.577
G01 X253.662 Y249.554
G01 X253.599 Y249.528
G01 X253.533 Y249.500
G01 X253.463 Y249.469
G01 X253.390 Y249.435
G01 X253.313 Y249.398
G01 X253.234 Y249.358
G01 X253.153 Y249.315
G01 X253.069 Y249.269
G01 X252.983 Y249.219
G01 X252.895 Y249.167
G01 X252.806 Y249.110
G01 X252.715 Y249.051
G01 X252.624 Y248.989
G01 X252.531 Y248.923
G01 X252.439 Y248.854
G01 X252.346 Y248.782
G01 X252.253 Y248.707
G01 X252.160 Y248.630
G01 X252.068 Y248.549
G01 X251.977 Y248.466
G01 X251.888 Y248.381
G01 X251.800 Y248.295
G01 X251.798 Y248.293
G01 X251.713 Y248.205
G01 X251.711 Y248.203
G01 X251.627 Y248.113
G01 X251.625 Y248.111
G01 X251.543 Y248.019
G01 X251.542 Y248.018
G01 X251.460 Y247.923
G01 X251.381 Y247.827
G01 X251.304 Y247.729
G01 X251.230 Y247.632
G01 X251.159 Y247.533
G01 X251.090 Y247.435
G01 X251.024 Y247.336
G01 X250.961 Y247.238
G01 X250.902 Y247.140
G01 X250.845 Y247.044
G01 X250.792 Y246.948
G01 X250.741 Y246.854
G01 X250.694 Y246.762
G01 X250.650 Y246.671
G01 X250.609 Y246.583
G01 X250.572 Y246.498
G01 X250.537 Y246.415
G01 X250.505 Y246.335
G01 X250.475 Y246.259
G01 X250.449 Y246.186
G01 X250.425 Y246.117
G01 X250.403 Y246.052
G01 X250.384 Y245.991
G01 X250.366 Y245.934
G01 X250.350 Y245.882
G01 X250.336 Y245.835
G01 X250.324 Y245.793
G01 X250.313 Y245.755
G01 X250.302 Y245.723
G01 X250.293 Y245.696
G01 X250.284 Y245.674
G01 X250.275 Y245.658
G01 X250.267 Y245.647
G01 X250.258 Y245.641
G01 X250.249 Y245.641
G01 X250.239 Y245.646
G01 X250.228 Y245.656
G01 X250.217 Y245.672
G01 X250.203 Y245.693
G01 X250.189 Y245.719
G01 X250.172 Y245.750
G01 X250.154 Y245.786
G01 X250.133 Y245.827
G01 X250.110 Y245.873
G01 X250.084 Y245.923
G01 X250.055 Y245.977
G01 X250.024 Y246.035
G01 X249.989 Y246.098
G01 X249.951 Y246.164
G01 X249.910 Y246.233
G01 X249.865 Y246.305
G01 X249.817 Y246.381
G01 X249.765 Y246.459
G01 X249.710 Y246.539
G01 X249.651 Y246.621
G01 X249.588 Y246.706
G01 X249.522 Y246.792
G01 X249.452 Y246.879
G01 X249.378 Y246.967
G01 X249.301 Y247.056
G01 X249.220 Y247.145
G01 X249.136 Y247.234
G01 X249.048 Y247.324
G01 X248.957 Y247.413
G01 X248.864 Y247.501
G01 X248.767 Y247.588
G01 X248.668 Y247.674
G01 X248.566 Y247.759
G01 X248.464 Y247.840
G01 X248.462 Y247.842
G01 X248.358 Y247.921
G01 X248.356 Y247.923
G01 X248.250 Y248.000
G01 X248.248 Y248.003
G01 X248.140 Y248.078
G01 X248.138 Y248.080
G01 X248.027 Y248.154
G01 X247.915 Y248.226
G01 X247.802 Y248.296
G01 X247.689 Y248.363
G01 X247.575 Y248.426
G01 X247.462 Y248.487
G01 X247.349 Y248.545
G01 X247.236 Y248.599
G01 X247.125 Y248.650
G01 X247.015 Y248.698
G01 X246.906 Y248.743
G01 X246.799 Y248.785
G01 X246.695 Y248.824
G01 X246.593 Y248.859
G01 X246.493 Y248.892
G01 X246.397 Y248.922
G01 X246.304 Y248.949
G01 X246.214 Y248.973
G01 X246.128 Y248.994
G01 X246.047 Y249.014
G01 X245.969 Y249.031
G01 X245.896 Y249.046
G01 X245.828 Y249.059
G01 X245.765 Y249.070
G01 X245.706 Y249.080
G01 X245.653 Y249.089
G01 X245.605 Y249.097
G01 X245.563 Y249.105
G01 X245.526 Y249.111
G01 X245.494 Y249.118
G01 X245.469 Y249.124
G01 X245.448 Y249.131
G01 X245.434 Y249.139
G01 X245.425 Y249.147
G01 X245.422 Y249.156
G01 X245.425 Y249.167
G01 X245.433 Y249.179
G01 X245.447 Y249.193
G01 X245.466 Y249.209
G01 X245.490 Y249.227
G01 X245.520 Y249.248
G01 X245.554 Y249.272
G01 X245.593 Y249.298
G01 X245.637 Y249.328
G01 X245.686 Y249.361
G01 X245.738 Y249.397
G01 X245.795 Y249.437
G01 X245.855 Y249.481
G01 X245.919 Y249.528
G01 X245.986 Y249.580
G01 X246.056 Y249.635
G01 X246.129 Y249.695
G01 X246.204 Y249.759
G01 X246.281 Y249.826
G01 X246.360 Y249.898
G01 X246.440 Y249.975
G01 X246.522 Y250.055
G01 X246.605 Y250.139
G01 X246.688 Y250.228
G01 X246.772 Y250.320
G01 X246.856 Y250.416
G01 X246.939 Y250.516
G01 X247.022 Y250.619
G01 X247.105 Y250.725
G01 X247.186 Y250.835
G01 X247.266 Y250.947
G01 X247.344 Y251.063
G01 X247.421 Y251.181
G01 X247.495 Y251.299
G01 X247.496 Y251.301
G01 X247.567 Y251.420
G01 X247.569 Y251.423
G01 X247.637 Y251.544
G01 X247.639 Y251.547
G01 X247.705 Y251.670
G01 X247.707 Y251.672
G01 X247.772 Y251.799
G01 X247.834 Y251.926
G01 X247.893 Y252.054
G01 X247.950 Y252.183
G01 X248.003 Y252.311
G01 X248.053 Y252.439
G01 X248.100 Y252.566
G01 X248.144 Y252.692
G01 X248.184 Y252.817
G01 X248.222 Y252.940
G01 X248.256 Y253.061
G01 X248.287 Y253.179
G01 X248.315 Y253.296
G01 X248.340 Y253.409
G01 X248.362 Y253.519
G01 X248.381 Y253.625
G01 X248.398 Y253.728
G01 X248.413 Y253.827
G01 X248.425 Y253.921
G01 X248.435 Y254.011
G01 X248.443 Y254.096
G01 X248.450 Y254.177
G01 X248.456 Y254.252
G01 X248.460 Y254.321
G01 X248.463 Y254.386
G01 X248.466 Y254.445
G01 X248.468 Y254.498
G01 X248.470 Y254.545
G01 X248.472 Y254.587
G01 X248.475 Y254.622
G01 X248.478 Y254.652
G01 X248.482 Y254.675
G01 X248.488 Y254.693
G01 X248.495 Y254.705
G01 X248.504 Y254.711
G01 X248.515 Y254.711
G01 X248.528 Y254.706
G01 X248.544 Y254.694
G01 X248.562 Y254.678
G01 X248.584 Y254.656
G01 X248.609 Y254.629
G01 X248.637 Y254.597
G01 X248.669 Y254.561
G01 X248.705 Y254.519
G01 X248.745 Y254.474
G01 X248.789 Y254.424
G01 X248.837 Y254.371
G01 X248.889 Y254.314
G01 X248.947 Y254.254
G01 X249.008 Y254.191
G01 X249.074 Y254.125
G01 X249.145 Y254.057
G01 X249.221 Y253.987
G01 X249.301 Y253.915
G01 X249.386 Y253.841
G01 X249.475 Y253.766
G01 X249.569 Y253.691
G01 X249.668 Y253.615
G01 X249.770 Y253.539
G01 X249.877 Y253.463
G01 X249.988 Y253.387
G01 X250.103 Y253.312
G01 X250.221 Y253.237
G01 X250.343 Y253.164
G01 X250.468 Y253.092
G01 X250.596 Y253.022
G01 X250.727 Y252.954
G01 X250.860 Y252.888
G01 X250.995 Y252.825
G01 X250.996 Y252.825
G01 X251.130 Y252.765
G01 X251.134 Y252.763
G01 X251.269 Y252.707
G01 X251.273 Y252.705
G01 X251.410 Y252.650
G01 X251.413 Y252.649
G01 X251.553 Y252.597
G01 X251.554 Y252.596
G01 X251.696 Y252.546
G01 X251.839 Y252.500
G01 X251.981 Y252.456
G01 X252.123 Y252.416
G01 X252.264 Y252.379
G01 X252.404 Y252.345
G01 X252.543 Y252.315
G01 X252.680 Y252.287
G01 X252.815 Y252.263
G01 X252.947 Y252.242
G01 X253.077 Y252.224
G01 X253.203 Y252.209
G01 X253.327 Y252.197
G01 X253.446 Y252.187
G01 X253.562 Y252.180
G01 X253.673 Y252.175
G01 X253.780 Y252.172
G01 X253.882 Y252.171
G01 X253.980 Y252.172
G01 X254.072 Y252.174
G01 X254.158 Y252.177
G01 X254.239 Y252.181
G01 X254.315 Y252.185
G01 X254.385 Y252.190
G01 X254.448 Y252.195
G01 X254.506 Y252.200
G01 X254.558 Y252.204
G01 X254.603 Y252.207
G01 X254.643 Y252.209
G01 X254.676 Y252.210
G01 X254.703 Y252.209
G01 X254.724 Y252.206
G01 X254.739 Y252.201
G01 X254.748 Y252.194
G01 X254.751 Y252.183
G01 X254.749 Y252.169
G01 X254.741 Y252.152
G01 X254.727 Y252.132
G01 X254.709 Y252.107
G01 X254.685 Y252.079
G01 X254.656 Y252.046
G01 X254.623 Y252.009
G01 X254.586 Y251.967
G01 X254.544 Y251.921
G01 X254.499 Y251.870
G01 X254.450 Y251.814
G01 X254.398 Y251.752
G01 X254.343 Y251.686
G01 X254.286 Y251.615
G01 X254.226 Y251.538
G01 X254.164 Y251.456
G01 X254.100 Y251.369
G01 X254.036 Y251.277
G01 X253.970 Y251.180
G01 X253.903 Y251.078
G01 X253.836 Y250.971
G01 X253.769 Y250.859
G01 X253.702 Y250.743
G01 X253.636 Y250.622
G01 X253.571 Y250.497
G01 X253.506 Y250.368
G01 X253.443 Y250.235
G01 X253.382 Y250.099
G01 X253.323 Y249.959
G01 X253.265 Y249.817
G01 X253.210 Y249.671
G01 X253.157 Y249.523
G01 X253.107 Y249.374
G01 X253.061 Y249.225
G01 X253.060 Y249.222
G01 X253.017 Y249.073
G01 X253.016 Y249.069
G01 X252.976 Y248.919
G01 X252.975 Y248.915
G01 X252.937 Y248.762
G01 X252.937 Y248.760
G01 X252.902 Y248.604
G01 X252.871 Y248.449
G01 X252.843 Y248.294
G01 X252.818 Y248.140
G01 X252.796 Y247.987
G01 X252.778 Y247.835
G01 X252.763 Y247.685
G01 X252.752 Y247.537
G01 X252.743 Y247.392
G01 X252.737 Y247.250
G01 X252.735 Y247.111
G01 X252.735 Y246.975
G01 X252.737 Y246.843
G01 X252.742 Y246.715
G01 X252.749 Y246.592
G01 X252.757 Y246.473
G01 X252.768 Y246.359
G01 X252.779 Y246.251
G01 X252.792 Y246.147
G01 X252.806 Y246.050
G01 X252.821 Y245.958
G01 X252.835 Y245.871
G01 X252.850 Y245.791
G01 X252.864 Y245.717
G01 X252.878 Y245.649
G01 X252.891 Y245.588
G01 X252.902 Y245.532
G01 X252.912 Y245.483
G01 X252.920 Y245.440
G01 X252.926 Y245.404
G01 X252.929 Y245.374
G01 X252.930 Y245.350
G01 X252.927 Y245.332
G01 X252.921 Y245.319
G01 X252.912 Y245.313
G01 X252.898 Y245.312
G01 X252.881 Y245.317
G01 X252.858 Y245.327
G01 X252.832 Y245.342
G01 X252.800 Y245.362
G01 X252.764 Y245.386
G01 X252.722 Y245.415
G01 X252.675 Y245.448
G01 X252.623 Y245.484
G01 X252.565 Y245.524
G01 X252.502 Y245.567
G01 X252.433 Y245.613
G01 X252.358 Y245.661
G01 X252.277 Y245.712
G01 X252.191 Y245.764
G01 X252.099 Y245.818
G01 X252.001 Y245.872
G01 X251.898 Y245.928
G01 X251.789 Y245.984
G01 X251.675 Y246.041
G01 X251.556 Y246.097
G01 X251.432 Y246.153
G01 X251.303 Y246.208
G01 X251.169 Y246.262
G01 X251.031 Y246.315
G01 X250.889 Y246.366
G01 X250.743 Y246.415
G01 X250.594 Y246.462
G01 X250.441 Y246.507
G01 X250.285 Y246.549
G01 X250.127 Y246.589
G01 X249.966 Y246.626
G01 X249.803 Y246.659
G01 X249.641 Y246.690
G01 X249.639 Y246.690
G01 X249.478 Y246.717
G01 X249.473 Y246.717
G01 X249.311 Y246.741
G01 X249.307 Y246.741
G01 X249.143 Y246.762
G01 X249.140 Y246.762
G01 X248.973 Y246.779
G01 X248.807 Y246.793
G01 X248.641 Y246.803
G01 X248.476 Y246.810
G01 X248.312 Y246.814
G01 X248.151 Y246.814
G01 X247.992 Y246.811
G01 X247.835 Y246.805
G01 X247.681 Y246.796
G01 X247.531 Y246.784
G01 X247.384 Y246.770
G01 X247.241 Y246.753
G01 X247.102 Y246.734
G01 X246.968 Y246.713
G01 X246.838 Y246.690
G01 X246.714 Y246.666
G01 X246.595 Y246.641
G01 X246.481 Y246.614
G01 X246.373 Y246.588
G01 X246.271 Y246.561
G01 X246.175 Y246.534
G01 X246.085 Y246.507
G01 X246.002 Y246.481
G01 X245.924 Y246.456
G01 X245.853 Y246.433
G01 X245.789 Y246.411
G01 X245.731 Y246.391
G01 X245.679 Y246.374
G01 X245.633 Y246.359
G01 X245.594 Y246.347
G01 X245.561 Y246.339
G01 X245.535 Y246.334
G01 X245.514 Y246.333
G01 X245.499 Y246.336
G01 X245.489 Y246.344
G01 X245.485 Y246.357
G01 X245.486 Y246.374
G01 X245.493 Y246.397
G01 X245.504 Y246.425
G01 X245.519 Y246.459
G01 X245.539 Y246.499
G01 X245.562 Y246.544
G01 X245.589 Y246.596
G01 X245.620 Y246.653
G01 X245.653 Y246.717
G01 X245.689 Y246.787
G01 X245.727 Y246.863
G01 X245.767 Y246.946
G01 X245.809 Y247.035
G01 X245.852 Y247.130
G01 X245.896 Y247.231
G01 X245.941 Y247.338
G01 X245.986 Y247.451
G01 X246.030 Y247.570
G01 X246.075 Y247.695
G01 X246.118 Y247.825
G01 X246.161 Y247.960
G01 X246.202 Y248.101
G01 X246.241 Y248.246
G01 X246.279 Y248.395
G01 X246.315 Y248.549
G01 X246.348 Y248.707
G01 X246.379 Y248.868
G01 X246.406 Y249.032
G01 X246.431 Y249.199
G01 X246.453 Y249.369
G01 X246.472 Y249.541
G01 X246.487 Y249.715
G01 X246.498 Y249.888
G01 X246.498 Y249.890
G01 X246.506 Y250.061
G01 X246.507 Y250.066
G01 X246.511 Y250.237
G01 X246.511 Y250.242
G01 X246.512 Y250.415
G01 X246.512 Y250.419
G01 X246.510 Y250.594
G01 X246.510 Y250.595
G01 X246.503 Y250.771
G01 X246.494 Y250.945
G01 X246.480 Y251.119
G01 X246.464 Y251.290
G01 X246.444 Y251.459
G01 X246.421 Y251.626
G01 X246.396 Y251.789
G01 X246.367 Y251.949
G01 X246.336 Y252.106
G01 X246.303 Y252.258
G01 X246.267 Y252.407
G01 X246.230 Y252.550
G01 X246.191 Y252.689
G01 X246.151 Y252.822
G01 X246.110 Y252.950
G01 X246.068 Y253.073
G01 X246.027 Y253.190
G01 X245.985 Y253.300
G01 X245.943 Y253.405
G01 X245.902 Y253.503
G01 X245.862 Y253.596
G01 X245.824 Y253.681
G01 X245.788 Y253.761
G01 X245.753 Y253.833
G01 X245.721 Y253.900
G01 X245.692 Y253.960
G01 X245.666 Y254.013
G01 X245.644 Y254.060
G01 X245.626 Y254.101
G01 X245.611 Y254.136
G01 X245.602 Y254.165
G01 X245.597 Y254.188
G01 X245.597 Y254.206
G01 X245.602 Y254.218
G01 X245.613 Y254.226
G01 X245.630 Y254.228
G01 X245.652 Y254.226
G01 X245.681 Y254.219
G01 X245.717 Y254.209
G01 X245.758 Y254.194
G01 X245.807 Y254.177
G01 X245.862 Y254.156
G01 X245.924 Y254.132
G01 X245.993 Y254.107
G01 X246.068 Y254.079
G01 X246.150 Y254.049
G01 X246.240 Y254.018
G01 X246.336 Y253.986
G01 X246.438 Y253.954
G01 X246.547 Y253.921
G01 X246.663 Y253.889
G01 X246.785 Y253.856
G01 X246.913 Y253.825
G01 X247.046 Y253.795
G01 X247.186 Y253.766
G01 X247.331 Y253.738
G01 X247.480 Y253.713
G01 X247.635 Y253.690
G01 X247.794 Y253.669
G01 X247.958 Y253.651
G01 X248.125 Y253.636
G01 X248.296 Y253.624
G01 X248.470 Y253.615
G01 X248.646 Y253.610
G01 X248.825 Y253.608
G01 X249.006 Y253.610
G01 X249.188 Y253.615
G01 X249.371 Y253.625
G01 X249.552 Y253.638
G01 X249.555 Y253.638
G01 X249.734 Y253.654
G01 X249.740 Y253.655
G01 X249.919 Y253.675
G01 X249.924 Y253.675
G01 X250.105 Y253.700
G01 X250.107 Y253.700
G01 X250.289 Y253.728
G01 X250.470 Y253.759
G01 X250.649 Y253.795
G01 X250.826 Y253.833
G01 X251.000 Y253.874
G01 X251.172 Y253.919
G01 X251.339 Y253.966
G01 X251.504 Y254.016
G01 X251.664 Y254.067
G01 X251.819 Y254.121
G01 X251.970 Y254.177
G01 X252.116 Y254.234
G01 X252.257 Y254.292
G01 X252.392 Y254.350
G01 X252.522 Y254.410
G01 X252.646 Y254.469
G01 X252.763 Y254.528
G01 X252.875 Y254.586
G01 X252.980 Y254.643
G01 X253.079 Y254.698
G01 X253.172 Y254.752
G01 X253.258 Y254.804
G01 X253.337 Y254.853
G01 X253.410 Y254.899
G01 X253.477 Y254.942
G01 X253.537 Y254.981
G01 X253.592 Y255.016
G01 X253.640 Y255.046
G01 X253.681 Y255.072
G01 X253.718 Y255.093
G01 X253.748 Y255.109
G01 X253.773 Y255.119
G01 X253.793 Y255.123
G01 X253.808 Y255.121
G01 X253.818 Y255.112
G01 X253.824 Y255.097
G01 X253.826 Y255.075
G01 X253.824 Y255.046
G01 X253.818 Y255.010
G01 X253.810 Y254.967
G01 X253.798 Y254.917
G01 X253.785 Y254.859
G01 X253.769 Y254.794
G01 X253.751 Y254.721
G01 X253.732 Y254.641
G01 X253.712 Y254.554
G01 X253.692 Y254.460
G01 X253.671 Y254.358
G01 X253.651 Y254.249
G01 X253.630 Y254.134
G01 X253.611 Y254.011
G01 X253.593 Y253.883
G01 X253.576 Y253.747
G01 X253.561 Y253.606
G01 X253.549 Y253.459
G01 X253.538 Y253.307
G01 X253.530 Y253.150
G01 X253.525 Y252.987
G01 X253.523 Y252.821
G01 X253.525 Y252.650
G01 X253.529 Y252.475
G01 X253.538 Y252.297
G01 X253.550 Y252.116
G01 X253.566 Y251.933
G01 X253.586 Y251.748
G01 X253.610 Y251.561
G01 X253.638 Y251.372
G01 X253.670 Y251.183
G01 X253.706 Y250.997
G01 X253.706 Y250.994
G01 X253.746 Y250.810
G01 X253.746 Y250.805
G01 X253.789 Y250.621
G01 X253.790 Y250.616
G01 X253.838 Y250.432
G01 X253.838 Y250.429
G01 X253.890 Y250.242
G01 X253.945 Y250.058
G01 X254.004 Y249.876
G01 X254.065 Y249.696
G01 X254.130 Y249.520
G01 X254.197 Y249.347
G01 X254.267 Y249.178
G01 X254.339 Y249.012
G01 X254.413 Y248.852
G01 X254.489 Y248.696
G01 X254.565 Y248.545
G01 X254.643 Y248.399
G01 X254.721 Y248.259
G01 X254.800 Y248.124
G01 X254.878 Y247.995
G01 X254.956 Y247.873
G01 X255.032 Y247.756
G01 X255.107 Y247.646
G01 X255.181 Y247.542
G01 X255.252 Y247.445
G01 X255.320 Y247.354
G01 X255.386 Y247.269
G01 X255.448 Y247.191
G01 X255.507 Y247.120
G01 X255.561 Y247.054
G01 X255.611 Y246.995
G01 X255.655 Y246.941
G01 X255.695 Y246.894
G01 X255.729 Y246.852
G01 X255.757 Y246.816
G01 X255.779 Y246.784
G01 X255.795 Y246.758
G01 X255.803 Y246.737
G01 X255.805 Y246.720
G01 X255.800 Y246.707
G01 X255.787 Y246.698
G01 X255.767 Y246.692
G01 X255.739 Y246.690
G01 X255.703 Y246.690
G01 X255.660 Y246.693
G01 X255.609 Y246.698
G01 X255.549 Y246.704
G01 X255.482 Y246.712
G01 X255.407 Y246.720
G01 X255.324 Y246.730
G01 X255.233 Y246.739
G01 X255.135 Y246.748
G01 X255.029 Y246.757
G01 X254.916 Y246.765
G01 X254.795 Y246.771
G01 X254.668 Y246.776
G01 X254.534 Y246.779
G01 X254.394 Y246.779
G01 X254.247 Y246.777
G01 X254.095 Y246.773
G01 X253.937 Y246.765
G01 X253.775 Y246.754
G01 X253.607 Y246.739
G01 X253.435 Y246.721
G01 X253.259 Y246.699
G01 X253.080 Y246.673
G01 X252.898 Y246.642
G01 X252.712 Y246.608
G01 X252.525 Y246.569
G01 X252.336 Y246.525
G01 X252.146 Y246.478
G01 X251.954 Y246.426
G01 X251.763 Y246.369
G01 X251.573 Y246.309
G01 X251.571 Y246.309
G01 X251.385 Y246.246
G01 X251.380 Y246.244
G01 X251.195 Y246.177
G01 X251.190 Y246.175
G01 X251.005 Y246.104
G01 X251.001 Y246.103
G01 X250.815 Y246.027
G01 X250.814 Y246.027
G01 X250.629 Y245.947
G01 X250.447 Y245.864
G01 X250.268 Y245.778
G01 X250.093 Y245.689
G01 X249.921 Y245.597
G01 X249.753 Y245.504
G01 X249.590 Y245.408
G01 X249.432 Y245.311
G01 X249.278 Y245.213
G01 X249.130 Y245.115
G01 X248.987 Y245.015
G01 X248.850 Y244.916
G01 X248.719 Y244.817
G01 X248.594 Y244.720
G01 X248.475 Y244.623
G01 X248.363 Y244.528
G01 X248.257 Y244.435
G01 X248.157 Y244.345
G01 X248.063 Y244.258
G01 X247.976 Y244.174
G01 X247.895 Y244.094
G01 X247.820 Y244.018
G01 X247.751 Y243.947
G01 X247.689 Y243.881
G01 X247.632 Y243.820
G01 X247.581 Y243.765
G01 X247.535 Y243.716
G01 X247.495 Y243.674
G01 X247.459 Y243.638
G01 X247.428 Y243.609
G01 X247.402 Y243.587
G01 X247.380 Y243.573
G01 X247.361 Y243.567
G01 X247.346 Y243.568
G01 X247.334 Y243.578
G01 X247.325 Y243.596
G01 X247.318 Y243.622
G01 X247.314 Y243.656
G01 X247.311 Y243.699
G01 X247.309 Y243.750
G01 X247.307 Y243.810
G01 X247.307 Y243.878
G01 X247.306 Y243.954
G01 X247.305 Y244.039
G01 X247.304 Y244.131
G01 X247.301 Y244.232
G01 X247.297 Y244.340
G01 X247.291 Y244.456
G01 X247.283 Y244.580
G01 X247.272 Y244.710
G01 X247.259 Y244.847
G01 X247.242 Y244.990
G01 X247.223 Y245.140
G01 X247.199 Y245.295
G01 X247.172 Y245.456
G01 X247.141 Y245.621
G01 X247.106 Y245.791
G01 X247.066 Y245.966
G01 X247.022 Y246.144
G01 X246.973 Y246.325
G01 X246.920 Y246.509
G01 X246.861 Y246.695
G01 X246.798 Y246.884
G01 X246.731 Y247.073
G01 X246.658 Y247.264
G01 X246.582 Y247.455
G01 X246.500 Y247.646
G01 X246.414 Y247.836
G01 X246.326 Y248.023
G01 X246.324 Y248.027
G01 X246.232 Y248.210
G01 X246.230 Y248.215
G01 X246.134 Y248.397
G01 X246.131 Y248.402
G01 X246.031 Y248.584
G01 X246.029 Y248.586
G01 X245.924 Y248.768
G01 X245.816 Y248.946
G01 X245.704 Y249.121
G01 X245.591 Y249.293
G01 X245.475 Y249.460
G01 X245.357 Y249.623
G01 X245.238 Y249.781
G01 X245.117 Y249.934
G01 X244.996 Y250.081
G01 X244.875 Y250.223
G01 X244.754 Y250.360
G01 X244.634 Y250.491
G01 X244.514 Y250.615
G01 X244.397 Y250.734
G01 X244.281 Y250.846
G01 X244.168 Y250.952
G01 X244.057 Y251.052
G01 X243.950 Y251.146
G01 X243.846 Y251.233
G01 X243.747 Y251.315
G01 X243.653 Y251.390
G01 X243.563 Y251.459
G01 X243.479 Y251.523
G01 X243.401 Y251.581
G01 X243.329 Y251.633
G01 X243.263 Y251.681
G01 X243.204 Y251.723
G01 X243.153 Y251.761
G01 X243.109 Y251.794
G01 X243.073 Y251.823
G01 X243.045 Y251.849
G01 X243.025 Y251.871
G01 X243.013 Y251.890
G01 X243.010 Y251.906
G01 X243.016 Y251.921
G01 X243.030 Y251.933
G01 X243.054 Y251.943
G01 X243.086 Y251.953
G01 X243.127 Y251.962
G01 X243.177 Y251.971
G01 X243.236 Y251.979
G01 X243.303 Y251.988
G01 X243.380 Y251.999
G01 X243.464 Y252.010
G01 X243.557 Y252.023
G01 X243.659 Y252.038
G01 X243.768 Y252.055
G01 X243.884 Y252.076
G01 X244.009 Y252.099
G01 X244.140 Y252.125
G01 X244.277 Y252.156
G01 X244.422 Y252.190
G01 X244.572 Y252.228
G01 X244.728 Y252.271
G01 X244.889 Y252.318
G01 X245.054 Y252.370
G01 X245.224 Y252.427
G01 X245.398 Y252.488
G01 X245.575 Y252.555
G01 X245.755 Y252.627
G01 X245.938 Y252.705
G01 X246.123 Y252.787
G01 X246.309 Y252.875
G01 X246.496 Y252.967
G01 X246.683 Y253.065
G01 X246.871 Y253.167
G01 X247.058 Y253.275
G01 X247.244 Y253.387
G01 X247.426 Y253.501
G01 X247.429 Y253.503
G01 X247.607 Y253.620
G01 X247.612 Y253.623
G01 X247.788 Y253.744
G01 X247.793 Y253.747
G01 X247.968 Y253.873
G01 X247.971 Y253.875
G01 X248.146 Y254.006
G01 X248.318 Y254.140
G01 X248.485 Y254.277
G01 X248.649 Y254.416
G01 X248.808 Y254.556
G01 X248.963 Y254.699
G01 X249.112 Y254.842
G01 X249.256 Y254.986
G01 X249.395 Y255.129
G01 X249.528 Y255.273
G01 X249.655 Y255.416
G01 X249.776 Y255.557
G01 X249.892 Y255.697
G01 X250.001 Y255.835
G01 X250.104 Y255.969
G01 X250.201 Y256.101
G01 X250.291 Y256.229
G01 X250.376 Y256.353
G01 X250.455 Y256.473
G01 X250.528 Y256.587
G01 X250.595 Y256.696
G01 X250.657 Y256.799
G01 X250.713 Y256.896
G01 X250.764 Y256.986
G01 X250.811 Y257.070
G01 X250.853 Y257.146
G01 X250.890 Y257.214
G01 X250.923 Y257.274
G01 X250.953 Y257.327
G01 X250.980 Y257.370
G01 X251.003 Y257.405
G01 X251.024 Y257.432
G01 X251.043 Y257.449
G01 X251.060 Y257.457
G01 X251.076 Y257.456
G01 X251.090 Y257.445
G01 X251.105 Y257.425
G01 X251.119 Y257.396
G01 X251.133 Y257.358
G01 X251.148 Y257.310
G01 X251.164 Y257.253
G01 X251.182 Y257.187
G01 X251.201 Y257.113
G01 X251.223 Y257.029
G01 X251.247 Y256.937
G01 X251.275 Y256.837
G01 X251.306 Y256.729
G01 X251.340 Y256.614
G01 X251.379 Y256.491
G01 X251.422 Y256.361
G01 X251.469 Y256.225
G01 X251.521 Y256.082
G01 X251.578 Y255.934
G01 X251.641 Y255.781
G01 X251.708 Y255.622
G01 X251.781 Y255.459
G01 X251.860 Y255.292
G01 X251.944 Y255.122
G01 X252.034 Y254.948
G01 X252.130 Y254.772
G01 X252.231 Y254.595
G01 X252.338 Y254.415
G01 X252.451 Y254.235
G01 X252.569 Y254.054
G01 X252.692 Y253.873
G01 X252.820 Y253.692
G01 X252.953 Y253.513
G01 X253.091 Y253.335
G01 X253.232 Y253.160
G01 X253.233 Y253.158
G01 X253.376 Y252.989
G01 X253.380 Y252.984
G01 X253.526 Y252.818
G01 X253.530 Y252.813
G01 X253.680 Y252.648
G01 X253.683 Y252.645
G01 X253.839 Y252.481
G01 X253.999 Y252.319
G01 X254.161 Y252.162
G01 X254.325 Y252.010
G01 X254.490 Y251.862
G01 X254.656 Y251.720
G01 X254.823 Y251.582
G01 X254.989 Y251.450
G01 X255.156 Y251.324
G01 X255.321 Y251.204
G01 X255.485 Y251.089
G01 X255.647 Y250.980
G01 X255.807 Y250.877
G01 X255.963 Y250.781
G01 X256.117 Y250.690
G01 X256.266 Y250.605
G01 X256.411 Y250.526
G01 X256.551 Y250.453
G01 X256.686 Y250.385
G01 X256.815 Y250.323
G01 X256.938 Y250.266
G01 X257.055 Y250.215
G01 X257.164 Y250.167
G01 X257.266 Y250.125
G01 X257.360 Y250.087
G01 X257.446 Y250.052
G01 X257.524 Y250.021
G01 X257.594 Y249.994
G01 X257.654 Y249.969
G01 X257.705 Y249.946
G01 X257.747 Y249.926
G01 X257.780 Y249.907
G01 X257.803 Y249.890
G01 X257.816 Y249.873
G01 X257.820 Y249.857
G01 X257.814 Y249.841
G01 X257.798 Y249.824
G01 X257.773 Y249.806
G01 X257.738 Y249.787
G01 X257.694 Y249.766
G01 X257.640 Y249.743
G01 X257.578 Y249.717
G01 X257.506 Y249.688
G01 X257.425 Y249.656
G01 X257.337 Y249.621
G01 X257.240 Y249.581
G01 X257.135 Y249.537
G01 X257.022 Y249.488
G01 X256.903 Y249.434
G01 X256.777 Y249.375
G01 X256.644 Y249.310
G01 X256.506 Y249.240
G01 X256.362 Y249.164
G01 X256.213 Y249.082
G01 X256.060 Y248.994
G01 X255.903 Y248.900
G01 X255.742 Y248.799
G01 X255.578 Y248.693
G01 X255.412 Y248.580
G01 X255.243 Y248.461
G01 X255.073 Y248.335
G01 X254.902 Y248.204
G01 X254.731 Y248.067
G01 X254.560 Y247.924
G01 X254.389 Y247.776
G01 X254.219 Y247.622
G01 X254.051 Y247.464
G01 X253.884 Y247.300
G01 X253.721 Y247.133
G01 X253.562 Y246.965
G01 X253.559 Y246.961
G01 X253.405 Y246.790
G01 X253.400 Y246.786
G01 X253.250 Y246.611
G01 X253.246 Y246.607
G01 X253.096 Y246.427
G01 X253.095 Y246.425
G01 X252.948 Y246.241
G01 X252.806 Y246.055
G01 X252.669 Y245.868
G01 X252.536 Y245.679
G01 X252.409 Y245.490
G01 X252.287 Y245.301
G01 X252.171 Y245.112
G01 X252.061 Y244.924
G01 X251.956 Y244.738
G01 X251.857 Y244.554
G01 X251.764 Y244.372
G01 X251.677 Y244.194
G01 X251.596 Y244.019
G01 X251.520 Y243.848
G01 X251.450 Y243.682
G01 X251.386 Y243.521
G01 X251.327 Y243.365
G01 X251.273 Y243.216
G01 X251.224 Y243.073
G01 X251.180 Y242.937
G01 X251.140 Y242.808
G01 X251.104 Y242.687
G01 X251.072 Y242.574
G01 X251.044 Y242.470
G01 X251.019 Y242.374
G01 X250.996 Y242.287
G01 X250.976 Y242.209
G01 X250.957 Y242.141
G01 X250.941 Y242.082
G01 X250.925 Y242.033
G01 X250.910 Y241.994
G01 X250.895 Y241.965
G01 X250.879 Y241.946
G01 X250.863 Y241.937
G01 X250.846 Y241.938
G01 X250.828 Y241.949
G01 X250.807 Y241.970
G01 X250.783 Y242.000
G01 X250.757 Y242.040
G01 X250.728 Y242.089
G01 X250.695 Y242.148
G01 X250.657 Y242.215
G01 X250.615 Y242.291
G01 X250.569 Y242.376
G01 X250.517 Y242.468
G01 X250.460 Y242.568
G01 X250.397 Y242.675
G01 X250.328 Y242.789
G01 X250.254 Y242.909
G01 X250.172 Y243.035
G01 X250.084 Y243.167
G01 X249.990 Y243.304
G01 X249.889 Y243.445
G01 X249.781 Y243.591
G01 X249.666 Y243.739
G01 X249.544 Y243.891
G01 X249.415 Y244.045
G01 X249.280 Y244.201
G01 X249.138 Y244.359
G01 X248.990 Y244.517
G01 X248.835 Y244.676
G01 X248.674 Y244.835
G01 X248.507 Y244.993
G01 X248.334 Y245.150
G01 X248.156 Y245.306
G01 X247.973 Y245.460
G01 X247.785 Y245.611
G01 X247.593 Y245.759
G01 X247.400 Y245.902
G01 X247.397 Y245.904
G01 X247.203 Y246.042
G01 X247.198 Y246.046
G01 X247.000 Y246.180
G01 X246.995 Y246.183
G01 X246.793 Y246.314
G01 X246.790 Y246.317
G01 X246.582 Y246.445
G01 X246.373 Y246.569
G01 X246.163 Y246.688
G01 X245.952 Y246.802
G01 X245.741 Y246.910
G01 X245.531 Y247.013
G01 X245.322 Y247.110
G01 X245.114 Y247.201
G01 X244.908 Y247.287
G01 X244.705 Y247.367
G01 X244.506 Y247.441
G01 X244.310 Y247.510
G01 X244.118 Y247.573
G01 X243.931 Y247.630
G01 X243.750 Y247.682
G01 X243.574 Y247.729
G01 X243.405 Y247.772
G01 X243.242 Y247.809
G01 X243.086 Y247.843
G01 X242.939 Y247.872
G01 X242.799 Y247.897
G01 X242.667 Y247.920
G01 X242.544 Y247.939
G01 X242.430 Y247.955
G01 X242.325 Y247.970
G01 X242.230 Y247.982
G01 X242.145 Y247.994
G01 X242.069 Y248.004
G01 X242.004 Y248.014
G01 X241.948 Y248.024
G01 X241.903 Y248.034
G01 X241.868 Y248.045
G01 X241.843 Y248.058
G01 X241.829 Y248.073
G01 X241.824 Y248.090
G01 X241.830 Y248.109
G01 X241.845 Y248.132
G01 X241.871 Y248.159
G01 X241.905 Y248.189
G01 X241.949 Y248.225
G01 X242.003 Y248.265
G01 X242.064 Y248.310
G01 X242.135 Y248.361
G01 X242.213 Y248.417
G01 X242.299 Y248.480
G01 X242.392 Y248.550
G01 X242.492 Y248.626
G01 X242.598 Y248.709
G01 X242.711 Y248.799
G01 X242.828 Y248.896
G01 X242.951 Y249.001
G01 X243.078 Y249.113
G01 X243.209 Y249.233
G01 X243.344 Y249.360
G01 X243.481 Y249.494
G01 X243.621 Y249.637
G01 X243.762 Y249.786
G01 X243.905 Y249.943
G01 X244.049 Y250.106
G01 X244.192 Y250.277
G01 X244.336 Y250.454
G01 X244.479 Y250.638
G01 X244.621 Y250.828
G01 X244.761 Y251.024
G01 X244.898 Y251.225
G01 X245.034 Y251.431
G01 X245.166 Y251.642
G01 X245.295 Y251.857
G01 X245.419 Y252.073
G01 X245.420 Y252.075
G01 X245.538 Y252.292
G01 X245.541 Y252.297
G01 X245.655 Y252.516
G01 X245.658 Y252.522
G01 X245.768 Y252.745
G01 X245.770 Y252.750
G01 X245.877 Y252.978
G01 X245.980 Y253.209
G01 X246.077 Y253.440
G01 X246.168 Y253.671
G01 X246.254 Y253.901
G01 X246.335 Y254.131
G01 X246.410 Y254.359
G01 X246.479 Y254.585
G01 X246.542 Y254.808
G01 X246.600 Y255.027
G01 X246.652 Y255.243
G01 X246.699 Y255.455
G01 X246.741 Y255.661
G01 X246.778 Y255.862
G01 X246.810 Y256.057
G01 X246.837 Y256.246
G01 X246.860 Y256.427
G01 X246.879 Y256.601
G01 X246.895 Y256.768
G01 X246.907 Y256.926
G01 X246.916 Y257.076
G01 X246.923 Y257.217
G01 X246.927 Y257.348
G01 X246.930 Y257.470
G01 X246.932 Y257.583
G01 X246.933 Y257.685
G01 X246.933 Y257.778
G01 X246.934 Y257.860
G01 X246.936 Y257.932
G01 X246.938 Y257.993
G01 X246.942 Y258.044
G01 X246.949 Y258.085
G01 X246.958 Y258.115
G01 X246.970 Y258.135
G01 X246.985 Y258.145
G01 X247.005 Y258.145
G01 X247.029 Y258.135
G01 X247.058 Y258.115
G01 X247.092 Y258.086
G01 X247.132 Y258.048
G01 X247.178 Y258.002
G01 X247.230 Y257.947
G01 X247.289 Y257.884
G01 X247.355 Y257.813
G01 X247.428 Y257.735
G01 X247.509 Y257.650
G01 X247.597 Y257.559
G01 X247.693 Y257.462
G01 X247.797 Y257.360
G01 X247.910 Y257.253
G01 X248.030 Y257.142
G01 X248.159 Y257.027
G01 X248.296 Y256.909
G01 X248.441 Y256.788
G01 X248.594 Y256.664
G01 X248.755 Y256.540
G01 X248.924 Y256.414
G01 X249.101 Y256.287
G01 X249.285 Y256.161
G01 X249.476 Y256.035
G01 X249.674 Y255.910
G01 X249.879 Y255.786
G01 X250.090 Y255.664
G01 X250.307 Y255.545
G01 X250.529 Y255.428
G01 X250.756 Y255.314
G01 X250.988 Y255.204
G01 X251.224 Y255.098
G01 X251.462 Y254.997
G01 X251.463 Y254.996
G01 X251.700 Y254.901
G01 X251.705 Y254.899
G01 X251.944 Y254.809
G01 X251.950 Y254.806
G01 X252.191 Y254.721
G01 X252.197 Y254.718
G01 X252.443 Y254.637
G01 X252.445 Y254.636
G01 X252.694 Y254.559
G01 X252.944 Y254.487
G01 X253.193 Y254.421
G01 X253.440 Y254.360
G01 X253.687 Y254.305
G01 X253.931 Y254.256
G01 X254.172 Y254.212
G01 X254.410 Y254.173
G01 X254.644 Y254.140
G01 X254.874 Y254.113
G01 X255.099 Y254.090
G01 X255.318 Y254.072
G01 X255.530 Y254.059
G01 X255.737 Y254.049
G01 X255.936 Y254.044
G01 X256.128 Y254.043
G01 X256.311 Y254.044
G01 X256.487 Y254.049
G01 X256.653 Y254.056
G01 X256.811 Y254.065
G01 X256.959 Y254.076
G01 X257.098 Y254.087
G01 X257.227 Y254.100
G01 X257.345 Y254.113
G01 X257.454 Y254.125
G01 X257.552 Y254.136
G01 X257.640 Y254.147
G01 X257.717 Y254.155
G01 X257.784 Y254.161
G01 X257.840 Y254.164
G01 X257.886 Y254.164
G01 X257.921 Y254.160
G01 X257.946 Y254.152
G01 X257.961 Y254.139
G01 X257.967 Y254.120
G01 X257.963 Y254.096
G01 X257.949 Y254.066
G01 X257.927 Y254.030
G01 X257.896 Y253.986
G01 X257.856 Y253.936
G01 X257.809 Y253.877
G01 X257.754 Y253.812
G01 X257.692 Y253.738
G01 X257.623 Y253.655
G01 X257.549 Y253.565
G01 X257.468 Y253.465
G01 X257.383 Y253.357
G01 X257.293 Y253.240
G01 X257.199 Y253.114
G01 X257.101 Y252.979
G01 X257.000 Y252.835
G01 X256.897 Y252.683
G01 X256.792 Y252.522
G01 X256.686 Y252.352
G01 X256.579 Y252.173
G01 X256.471 Y251.987
G01 X256.364 Y251.792
G01 X256.257 Y251.590
G01 X256.152 Y251.380
G01 X256.048 Y251.163
G01 X255.947 Y250.940
G01 X255.848 Y250.710
G01 X255.752 Y250.474
G01 X255.660 Y250.233
G01 X255.571 Y249.987
G01 X255.486 Y249.737
G01 X255.406 Y249.483
G01 X255.331 Y249.226
G01 X255.261 Y248.970
G01 X255.260 Y248.966
G01 X255.197 Y248.710
G01 X255.195 Y248.703
G01 X255.136 Y248.447
G01 X255.134 Y248.440
G01 X255.081 Y248.179
G01 X255.080 Y248.175
G01 X255.030 Y247.910
G01 X254.987 Y247.645
G01 X254.949 Y247.381
G01 X254.917 Y247.119
G01 X254.890 Y246.859
G01 X254.869 Y246.601
G01 X254.853 Y246.347
G01 X254.842 Y246.097
G01 X254.837 Y245.851
G01 X254.836 Y245.611
G01 X254.840 Y245.376
G01 X254.848 Y245.147
G01 X254.860 Y244.925
G01 X254.876 Y244.710
G01 X254.895 Y244.503
G01 X254.917 Y244.304
G01 X254.941 Y244.113
G01 X254.968 Y243.931
G01 X254.996 Y243.758
G01 X255.025 Y243.595
G01 X255.055 Y243.441
G01 X255.085 Y243.298
G01 X255.114 Y243.164
G01 X255.142 Y243.041
G01 X255.170 Y242.928
G01 X255.195 Y242.825
G01 X255.217 Y242.733
G01 X255.237 Y242.652
G01 X255.252 Y242.581
G01 X255.264 Y242.521
G01 X255.271 Y242.470
G01 X255.274 Y242.430
G01 X255.270 Y242.400
G01 X255.261 Y242.380
G01 X255.245 Y242.369
G01 X255.222 Y242.367
G01 X255.192 Y242.375
G01 X255.154 Y242.390
G01 X255.108 Y242.414
G01 X255.054 Y242.446
G01 X254.991 Y242.485
G01 X254.920 Y242.530
G01 X254.839 Y242.582
G01 X254.749 Y242.640
G01 X254.650 Y242.704
G01 X254.541 Y242.772
G01 X254.422 Y242.844
G01 X254.294 Y242.921
G01 X254.156 Y243.000
G01 X254.009 Y243.082
G01 X253.852 Y243.166
G01 X253.686 Y243.252
G01 X253.510 Y243.339
G01 X253.325 Y243.426
G01 X253.132 Y243.513
G01 X252.930 Y243.600
G01 X252.719 Y243.686
G01 X252.501 Y243.770
G01 X252.275 Y243.851
G01 X252.042 Y243.931
G01 X251.803 Y244.007
G01 X251.557 Y244.080
G01 X251.305 Y244.150
G01 X251.048 Y244.215
G01 X250.786 Y244.276
G01 X250.521 Y244.332
G01 X250.251 Y244.384
G01 X249.979 Y244.430
G01 X249.708 Y244.470
G01 X249.705 Y244.471
G01 X249.435 Y244.505
G01 X249.428 Y244.506
G01 X249.158 Y244.535
G01 X249.151 Y244.536
G01 X248.879 Y244.560
G01 X248.873 Y244.560
G01 X248.596 Y244.579
G01 X248.318 Y244.592
G01 X248.043 Y244.599
G01 X247.769 Y244.600
G01 X247.498 Y244.596
G01 X247.231 Y244.587
G01 X246.968 Y244.572
G01 X246.709 Y244.553
G01 X246.455 Y244.529
G01 X246.207 Y244.500
G01 X245.965 Y244.468
G01 X245.729 Y244.431
G01 X245.501 Y244.392
G01 X245.281 Y244.349
G01 X245.068 Y244.304
G01 X244.864 Y244.257
G01 X244.669 Y244.208
G01 X244.483 Y244.158
G01 X244.307 Y244.107
G01 X244.140 Y244.056
G01 X243.984 Y244.006
G01 X243.837 Y243.957
G01 X243.701 Y243.909
G01 X243.575 Y243.864
G01 X243.459 Y243.821
G01 X243.354 Y243.781
G01 X243.260 Y243.745
G01 X243.176 Y243.713
G01 X243.102 Y243.686
G01 X243.038 Y243.664
G01 X242.984 Y243.649
G01 X242.941 Y243.639
G01 X242.906 Y243.637
G01 X242.881 Y243.641
G01 X242.865 Y243.654
G01 X242.858 Y243.674
G01 X242.859 Y243.703
G01 X242.868 Y243.741
G01 X242.884 Y243.788
G01 X242.907 Y243.844
G01 X242.937 Y243.910
G01 X242.973 Y243.986
G01 X243.014 Y244.072
G01 X243.061 Y244.168
G01 X243.112 Y244.274
G01 X243.166 Y244.391
G01 X243.224 Y244.518
G01 X243.285 Y244.655
G01 X243.348 Y244.803
G01 X243.413 Y244.961
G01 X243.479 Y245.129
G01 X243.546 Y245.307
G01 X243.612 Y245.495
G01 X243.678 Y245.692
G01 X243.743 Y245.898
G01 X243.807 Y246.113
G01 X243.868 Y246.336
G01 X243.927 Y246.568
G01 X243.983 Y246.807
G01 X244.036 Y247.053
G01 X244.085 Y247.306
G01 X244.130 Y247.565
G01 X244.171 Y247.829
G01 X244.206 Y248.099
G01 X244.237 Y248.373
G01 X244.263 Y248.651
G01 X244.283 Y248.932
G01 X244.297 Y249.216
G01 X244.306 Y249.500
G01 X244.306 Y249.501
G01 X244.309 Y249.782
G01 X244.309 Y249.788
G01 X244.306 Y250.067
G01 X244.306 Y250.075
G01 X244.298 Y250.356
G01 X244.297 Y250.363
G01 X244.283 Y250.647
G01 X244.283 Y250.650
G01 X244.263 Y250.935
G01 X244.237 Y251.219
G01 X244.205 Y251.499
G01 X244.168 Y251.777
G01 X244.126 Y252.051
G01 X244.080 Y252.320
G01 X244.028 Y252.584
G01 X243.973 Y252.842
G01 X243.913 Y253.095
G01 X243.850 Y253.340
G01 X243.784 Y253.579
G01 X243.715 Y253.809
G01 X243.644 Y254.032
G01 X243.571 Y254.246
G01 X243.497 Y254.452
G01 X243.423 Y254.648
G01 X243.348 Y254.835
G01 X243.273 Y255.012
G01 X243.200 Y255.179
G01 X243.128 Y255.336
G01 X243.058 Y255.483
G01 X242.991 Y255.620
G01 X242.927 Y255.746
G01 X242.867 Y255.862
G01 X242.812 Y255.968
G01 X242.761 Y256.063
G01 X242.716 Y256.149
G01 X242.677 Y256.224
G01 X242.645 Y256.289
G01 X242.619 Y256.345
G01 X242.601 Y256.392
G01 X242.592 Y256.429
G01 X242.590 Y256.458
G01 X242.598 Y256.479
G01 X242.615 Y256.491
G01 X242.641 Y256.496
G01 X242.678 Y256.494
G01 X242.724 Y256.486
G01 X242.782 Y256.471
G01 X242.849 Y256.451
G01 X242.928 Y256.425
G01 X243.017 Y256.395
G01 X243.118 Y256.361
G01 X243.229 Y256.324
G01 X243.352 Y256.283
G01 X243.486 Y256.241
G01 X243.630 Y256.197
G01 X243.786 Y256.151
G01 X243.952 Y256.105
G01 X244.129 Y256.059
G01 X244.316 Y256.013
G01 X244.513 Y255.969
G01 X244.720 Y255.925
G01 X244.936 Y255.884
G01 X245.161 Y255.846
G01 X245.394 Y255.810
G01 X245.636 Y255.778
G01 X245.885 Y255.750
G01 X246.141 Y255.726
G01 X246.404 Y255.706
G01 X246.672 Y255.692
G01 X246.946 Y255.682
G01 X247.225 Y255.678
G01 X247.507 Y255.680
G01 X247.794 Y255.687
G01 X248.083 Y255.700
G01 X248.374 Y255.719
G01 X248.666 Y255.745
G01 X248.955 Y255.776
G01 X248.960 Y255.776
G01 X249.245 Y255.813
G01 X249.253 Y255.814
G01 X249.538 Y255.856
G01 X249.546 Y255.857
G01 X249.833 Y255.906
G01 X249.838 Y255.906
G01 X250.128 Y255.962
G01 X250.415 Y256.022
G01 X250.699 Y256.089
G01 X250.979 Y256.160
G01 X251.255 Y256.236
G01 X251.526 Y256.317
G01 X251.791 Y256.401
G01 X252.050 Y256.490
G01 X252.303 Y256.582
G01 X252.548 Y256.676
G01 X252.786 Y256.774
G01 X253.016 Y256.873
G01 X253.237 Y256.973
G01 X253.450 Y257.075
G01 X253.653 Y257.176
G01 X253.847 Y257.278
G01 X254.032 Y257.378
G01 X254.207 Y257.477
G01 X254.371 Y257.574
G01 X254.526 Y257.669
G01 X254.671 Y257.760
G01 X254.805 Y257.847
G01 X254.929 Y257.930
G01 X255.044 Y258.008
G01 X255.148 Y258.080
G01 X255.242 Y258.146
G01 X255.326 Y258.205
G01 X255.401 Y258.257
G01 X255.467 Y258.301
G01 X255.524 Y258.337
G01 X255.572 Y258.364
G01 X255.612 Y258.382
G01 X255.643 Y258.390
G01 X255.668 Y258.388
G01 X255.685 Y258.376
G01 X255.695 Y258.353
G01 X255.700 Y258.319
G01 X255.699 Y258.274
G01 X255.693 Y258.218
G01 X255.682 Y258.150
G01 X255.667 Y258.071
G01 X255.649 Y257.979
G01 X255.628 Y257.876
G01 X255.604 Y257.761
G01 X255.579 Y257.635
G01 X255.553 Y257.496
G01 X255.526 Y257.347
G01 X255.499 Y257.186
G01 X255.473 Y257.014
G01 X255.448 Y256.831
G01 X255.424 Y256.637
G01 X255.403 Y256.434
G01 X255.384 Y256.220
G01 X255.368 Y255.997
G01 X255.356 Y255.766
G01 X255.348 Y255.525
G01 X255.345 Y255.277
G01 X255.346 Y255.022
G01 X255.352 Y254.759
G01 X255.364 Y254.490
G01 X255.381 Y254.216
G01 X255.404 Y253.937
G01 X255.433 Y253.653
G01 X255.468 Y253.366
G01 X255.510 Y253.075
G01 X255.558 Y252.782
G01 X255.613 Y252.488
G01 X255.673 Y252.193
G01 X255.740 Y251.900
G01 X255.741 Y251.897
G01 X255.812 Y251.609
G01 X255.814 Y251.602
G01 X255.892 Y251.316
G01 X255.894 Y251.308
G01 X255.978 Y251.022
G01 X255.979 Y251.015
G01 X256.070 Y250.727
G01 X256.071 Y250.726
G01 X256.167 Y250.439
G01 X256.269 Y250.156
G01 X256.376 Y249.877
G01 X256.487 Y249.603
G01 X256.603 Y249.335
G01 X256.722 Y249.073
G01 X256.844 Y248.818
G01 X256.969 Y248.569
G01 X257.096 Y248.328
G01 X257.225 Y248.095
G01 X257.355 Y247.870
G01 X257.486 Y247.654
G01 X257.617 Y247.447
G01 X257.747 Y247.249
G01 X257.875 Y247.061
G01 X258.002 Y246.882
G01 X258.126 Y246.713
G01 X258.248 Y246.554
G01 X258.365 Y246.404
G01 X258.478 Y246.265
G01 X258.586 Y246.136
G01 X258.688 Y246.016
G01 X258.784 Y245.906
G01 X258.873 Y245.806
G01 X258.955 Y245.715
G01 X259.029 Y245.634
G01 X259.095 Y245.561
G01 X259.151 Y245.496
G01 X259.198 Y245.440
G01 X259.235 Y245.392
G01 X259.262 Y245.352
G01 X259.278 Y245.318
G01 X259.283 Y245.291
G01 X259.276 Y245.270
G01 X259.258 Y245.255
G01 X259.228 Y245.244
G01 X259.186 Y245.238
G01 X259.132 Y245.236
G01 X259.065 Y245.238
G01 X258.986 Y245.242
G01 X258.895 Y245.248
G01 X258.791 Y245.256
G01 X258.675 Y245.266
G01 X258.546 Y245.275
G01 X258.406 Y245.285
G01 X258.254 Y245.293
G01 X258.090 Y245.301
G01 X257.915 Y245.307
G01 X257.728 Y245.310
G01 X257.531 Y245.310
G01 X257.324 Y245.308
G01 X257.107 Y245.301
G01 X256.881 Y245.290
G01 X256.646 Y245.275
G01 X256.402 Y245.254
G01 X256.151 Y245.228
G01 X255.892 Y245.197
G01 X255.627 Y245.159
G01 X255.357 Y245.115
G01 X255.080 Y245.065
G01 X254.800 Y245.008
G01 X254.515 Y244.945
G01 X254.227 Y244.875
G01 X253.937 Y244.797
G01 X253.645 Y244.714
G01 X253.352 Y244.623
G01 X253.058 Y244.525
G01 X252.766 Y244.422
G01 X252.765 Y244.422
G01 X252.478 Y244.313
G01 X252.472 Y244.311
G01 X252.190 Y244.198
G01 X252.182 Y244.195
G01 X251.900 Y244.075
G01 X251.893 Y244.072
G01 X251.611 Y243.945
G01 X251.608 Y243.944
G01 X251.326 Y243.811
G01 X251.049 Y243.672
G01 X250.777 Y243.530
G01 X250.510 Y243.383
G01 X250.249 Y243.232
G01 X249.994 Y243.078
G01 X249.746 Y242.922
G01 X249.506 Y242.763
G01 X249.274 Y242.603
G01 X249.050 Y242.442
G01 X248.834 Y242.281
G01 X248.627 Y242.120
G01 X248.429 Y241.960
G01 X248.241 Y241.802
G01 X248.062 Y241.646
G01 X247.892 Y241.493
G01 X247.732 Y241.343
G01 X247.582 Y241.198
G01 X247.442 Y241.058
G01 X247.311 Y240.923
G01 X247.189 Y240.794
G01 X247.077 Y240.672
G01 X246.974 Y240.558
G01 X246.881 Y240.451
G01 X246.796 Y240.353
G01 X246.719 Y240.265
G01 X246.650 Y240.185
G01 X246.589 Y240.116
G01 X246.536 Y240.058
G01 X246.489 Y240.010
G01 X246.449 Y239.974
G01 X246.415 Y239.949
G01 X246.386 Y239.937
G01 X246.363 Y239.937
G01 X246.343 Y239.949
G01 X246.328 Y239.974
G01 X246.315 Y240.012
G01 X246.306 Y240.062
G01 X246.298 Y240.126
G01 X246.292 Y240.203
G01 X246.287 Y240.293
G01 X246.282 Y240.395
G01 X246.277 Y240.511
G01 X246.271 Y240.639
G01 X246.263 Y240.779
G01 X246.254 Y240.932
G01 X246.242 Y241.096
G01 X246.226 Y241.271
G01 X246.207 Y241.458
G01 X246.184 Y241.656
G01 X246.157 Y241.863
G01 X246.124 Y242.081
G01 X246.086 Y242.307
G01 X246.043 Y242.542
G01 X245.993 Y242.785
G01 X245.937 Y243.036
G01 X245.874 Y243.293
G01 X245.805 Y243.557
G01 X245.728 Y243.826
G01 X245.644 Y244.099
G01 X245.553 Y244.377
G01 X245.455 Y244.658
G01 X245.349 Y244.942
G01 X245.237 Y245.228
G01 X245.116 Y245.515
G01 X244.989 Y245.802
G01 X244.855 Y246.090
G01 X244.714 Y246.376
G01 X244.569 Y246.656
G01 X244.567 Y246.661
G01 X244.417 Y246.935
G01 X244.413 Y246.943
G01 X244.258 Y247.215
G01 X244.253 Y247.223
G01 X244.091 Y247.494
G01 X244.089 Y247.498
G01 X243.918 Y247.770
G01 X243.744 Y248.037
G01 X243.565 Y248.299
G01 X243.382 Y248.554
G01 X243.197 Y248.804
G01 X243.008 Y249.046
G01 X242.818 Y249.281
G01 X242.626 Y249.508
G01 X242.434 Y249.728
G01 X242.242 Y249.939
G01 X242.050 Y250.141
G01 X241.859 Y250.335
G01 X241.670 Y250.519
G01 X241.484 Y250.694
G01 X241.301 Y250.860
G01 X241.122 Y251.017
G01 X240.947 Y251.164
G01 X240.778 Y251.301
G01 X240.615 Y251.430
G01 X240.459 Y251.549
G01 X240.310 Y251.660
G01 X240.169 Y251.761
G01 X240.036 Y251.854
G01 X239.912 Y251.939
G01 X239.799 Y252.016
G01 X239.695 Y252.086
G01 X239.602 Y252.148
G01 X239.520 Y252.203
G01 X239.449 Y252.252
G01 X239.391 Y252.295
G01 X239.345 Y252.333
G01 X239.311 Y252.367
G01 X239.290 Y252.396
G01 X239.283 Y252.421
G01 X239.288 Y252.443
G01 X239.307 Y252.463
G01 X239.340 Y252.481
G01 X239.386 Y252.497
G01 X239.445 Y252.513
G01 X239.518 Y252.529
G01 X239.605 Y252.545
G01 X239.704 Y252.563
G01 X239.817 Y252.582
G01 X239.942 Y252.603
G01 X240.080 Y252.628
G01 X240.230 Y252.655
G01 X240.392 Y252.687
G01 X240.566 Y252.723
G01 X240.750 Y252.765
G01 X240.945 Y252.811
G01 X241.150 Y252.863
G01 X241.364 Y252.922
G01 X241.587 Y252.987
G01 X241.818 Y253.059
G01 X242.058 Y253.138
G01 X242.304 Y253.224
G01 X242.556 Y253.318
G01 X242.814 Y253.420
G01 X243.077 Y253.529
G01 X243.344 Y253.646
G01 X243.614 Y253.772
G01 X243.887 Y253.905
G01 X244.163 Y254.046
G01 X244.439 Y254.194
G01 X244.716 Y254.351
G01 X244.993 Y254.514
G01 X245.269 Y254.685
G01 X245.544 Y254.863
G01 X245.813 Y255.045
G01 X245.816 Y255.047
G01 X246.079 Y255.233
G01 X246.085 Y255.237
G01 X246.344 Y255.428
G01 X246.351 Y255.433
G01 X246.607 Y255.630
G01 X246.613 Y255.634
G01 X246.869 Y255.840
G01 X246.870 Y255.840
G01 X247.122 Y256.051
G01 X247.367 Y256.265
G01 X247.607 Y256.482
G01 X247.840 Y256.702
G01 X248.065 Y256.924
G01 X248.283 Y257.148
G01 X248.493 Y257.371
G01 X248.695 Y257.595
G01 X248.889 Y257.819
G01 X249.074 Y258.040
G01 X249.249 Y258.260
G01 X249.416 Y258.477
G01 X249.574 Y258.690
G01 X249.723 Y258.899
G01 X249.863 Y259.103
G01 X249.994 Y259.301
G01 X250.116 Y259.493
G01 X250.229 Y259.678
G01 X250.333 Y259.855
G01 X250.430 Y260.024
G01 X250.518 Y260.184
G01 X250.599 Y260.334
G01 X250.672 Y260.474
G01 X250.738 Y260.603
G01 X250.798 Y260.722
G01 X250.851 Y260.828
G01 X250.899 Y260.923
G01 X250.942 Y261.005
G01 X250.980 Y261.075
G01 X251.014 Y261.131
G01 X251.044 Y261.174
G01 X251.072 Y261.203
G01 X251.097 Y261.219
G01 X251.121 Y261.221
G01 X251.144 Y261.208
G01 X251.166 Y261.182
G01 X251.189 Y261.142
G01 X251.212 Y261.088
G01 X251.237 Y261.020
G01 X251.263 Y260.939
G01 X251.293 Y260.844
G01 X251.325 Y260.737
G01 X251.362 Y260.616
G01 X251.402 Y260.483
G01 X251.448 Y260.337
G01 X251.499 Y260.180
G01 X251.556 Y260.012
G01 X251.619 Y259.833
G01 X251.688 Y259.644
G01 X251.765 Y259.445
G01 X251.849 Y259.237
G01 X251.941 Y259.021
G01 X252.041 Y258.797
G01 X252.148 Y258.566
G01 X252.265 Y258.328
G01 X252.389 Y258.085
G01 X252.522 Y257.837
G01 X252.664 Y257.584
G01 X252.815 Y257.328
G01 X252.973 Y257.069
G01 X253.141 Y256.808
G01 X253.316 Y256.546
G01 X253.500 Y256.284
G01 X253.692 Y256.021
G01 X253.891 Y255.759
G01 X254.097 Y255.499
G01 X254.310 Y255.241
G01 X254.529 Y254.987
G01 X254.530 Y254.986
G01 X254.751 Y254.740
G01 X254.756 Y254.735
G01 X254.981 Y254.494
G01 X254.987 Y254.487
G01 X255.218 Y254.251
G01 X255.224 Y254.245
G01 X255.462 Y254.010
G01 X255.465 Y254.007
G01 X255.710 Y253.776
G01 X255.958 Y253.550
G01 X256.208 Y253.331
G01 X256.461 Y253.120
G01 X256.715 Y252.916
G01 X256.970 Y252.719
G01 X257.225 Y252.531
G01 X257.479 Y252.351
G01 X257.731 Y252.179
G01 X257.981 Y252.016
G01 X258.228 Y251.862
G01 X258.471 Y251.717
G01 X258.710 Y251.580
G01 X258.944 Y251.452
G01 X259.171 Y251.333
G01 X259.392 Y251.222
G01 X259.605 Y251.119
G01 X259.811 Y251.025
G01 X260.007 Y250.938
G01 X260.194 Y250.859
G01 X260.372 Y250.787
G01 X260.538 Y250.722
G01 X260.694 Y250.663
G01 X260.838 Y250.610
G01 X260.970 Y250.562
G01 X261.090 Y250.520
G01 X261.197 Y250.482
G01 X261.290 Y250.448
G01 X261.370 Y250.417
G01 X261.437 Y250.388
G01 X261.489 Y250.362
G01 X261.527 Y250.337
G01 X261.551 Y250.313
G01 X261.561 Y250.289
G01 X261.556 Y250.265
G01 X261.537 Y250.240
G01 X261.504 Y250.212
G01 X261.457 Y250.183
G01 X261.396 Y250.150
G01 X261.321 Y250.114
G01 X261.233 Y250.074
G01 X261.131 Y250.029
G01 X261.017 Y249.978
G01 X260.891 Y249.922
G01 X260.753 Y249.860
G01 X260.603 Y249.790
G01 X260.443 Y249.714
G01 X260.272 Y249.630
G01 X260.091 Y249.538
G01 X259.902 Y249.437
G01 X259.704 Y249.329
G01 X259.498 Y249.211
G01 X259.284 Y249.084
G01 X259.065 Y248.948
G01 X258.840 Y248.803
G01 X258.609 Y248.649
G01 X258.375 Y248.485
G01 X258.137 Y248.312
G01 X257.896 Y248.130
G01 X257.654 Y247.939
G01 X257.410 Y247.738
G01 X257.165 Y247.529
G01 X256.921 Y247.312
G01 X256.677 Y247.087
G01 X256.436 Y246.854
G01 X256.196 Y246.613
G01 X255.959 Y246.366
G01 X255.726 Y246.112
G01 X255.501 Y245.856
G01 X255.498 Y245.852
G01 X255.279 Y245.594
G01 X255.273 Y245.587
G01 X255.061 Y245.325
G01 X255.054 Y245.318
G01 X254.845 Y245.048
G01 X254.841 Y245.044
G01 X254.634 Y244.766
G01 X254.434 Y244.486
G01 X254.241 Y244.204
G01 X254.055 Y243.920
G01 X253.877 Y243.636
G01 X253.706 Y243.352
G01 X253.544 Y243.069
G01 X253.390 Y242.787
G01 X253.245 Y242.507
G01 X253.108 Y242.231
G01 X252.979 Y241.959
G01 X252.859 Y241.691
G01 X252.747 Y241.429
G01 X252.644 Y241.173
G01 X252.548 Y240.924
G01 X252.461 Y240.683
G01 X252.381 Y240.450
G01 X252.308 Y240.226
G01 X252.242 Y240.012
G01 X252.183 Y239.808
G01 X252.131 Y239.614
G01 X252.084 Y239.432
G01 X252.042 Y239.262
G01 X252.005 Y239.105
G01 X251.972 Y238.960
G01 X251.943 Y238.828
G01 X251.916 Y238.710
G01 X251.893 Y238.606
G01 X251.871 Y238.516
G01 X251.850 Y238.440
G01 X251.830 Y238.378
G01 X251.810 Y238.331
G01 X251.789 Y238.299
G01 X251.766 Y238.281
G01 X251.742 Y238.278
G01 X251.715 Y238.289
G01 X251.684 Y238.315
G01 X251.650 Y238.354
G01 X251.610 Y238.408
G01 X251.566 Y238.475
G01 X251.516 Y238.555
G01 X251.460 Y238.648
G01 X251.396 Y238.753
G01 X251.326 Y238.871
G01 X251.248 Y239.000
G01 X251.161 Y239.139
G01 X251.066 Y239.290
G01 X250.962 Y239.450
G01 X250.849 Y239.619
G01 X250.726 Y239.796
G01 X250.594 Y239.981
G01 X250.452 Y240.174
G01 X250.299 Y240.372
G01 X250.137 Y240.577
G01 X249.964 Y240.786
G01 X249.782 Y240.999
G01 X249.589 Y241.216
G01 X249.386 Y241.435
G01 X249.174 Y241.657
G01 X248.952 Y241.879
G01 X248.721 Y242.102
G01 X248.480 Y242.325
G01 X248.231 Y242.546
G01 X247.974 Y242.766
G01 X247.709 Y242.983
G01 X247.437 Y243.198
G01 X247.158 Y243.408
G01 X246.872 Y243.615
G01 X246.584 Y243.814
G01 X246.581 Y243.816
G01 X246.292 Y244.008
G01 X246.285 Y244.013
G01 X245.993 Y244.198
G01 X245.984 Y244.203
G01 X245.687 Y244.384
G01 X245.680 Y244.388
G01 X245.374 Y244.565
G01 X245.373 Y244.566
G01 X245.063 Y244.736
G01 X244.752 Y244.900
G01 X244.441 Y245.056
G01 X244.129 Y245.204
G01 X243.818 Y245.344
G01 X243.509 Y245.476
G01 X243.202 Y245.599
G01 X242.898 Y245.715
G01 X242.598 Y245.822
G01 X242.303 Y245.921
G01 X242.014 Y246.012
G01 X241.731 Y246.096
G01 X241.455 Y246.171
G01 X241.187 Y246.239
G01 X240.928 Y246.300
G01 X240.678 Y246.354
G01 X240.437 Y246.402
G01 X240.207 Y246.443
G01 X239.988 Y246.479
G01 X239.781 Y246.510
G01 X239.586 Y246.537
G01 X239.404 Y246.559
G01 X239.234 Y246.578
G01 X239.078 Y246.594
G01 X238.936 Y246.608
G01 X238.808 Y246.620
G01 X238.694 Y246.631
G01 X238.594 Y246.642
G01 X238.509 Y246.653
G01 X238.439 Y246.665
G01 X238.384 Y246.679
G01 X238.343 Y246.695
G01 X238.317 Y246.715
G01 X238.306 Y246.738
G01 X238.309 Y246.765
G01 X238.326 Y246.797
G01 X238.357 Y246.836
G01 X238.402 Y246.880
G01 X238.460 Y246.931
G01 X238.531 Y246.989
G01 X238.614 Y247.055
G01 X238.710 Y247.130
G01 X238.816 Y247.213
G01 X238.934 Y247.306
G01 X239.062 Y247.408
G01 X239.199 Y247.520
G01 X239.346 Y247.642
G01 X239.500 Y247.775
G01 X239.663 Y247.919
G01 X239.832 Y248.073
G01 X240.008 Y248.238
G01 X240.189 Y248.414
G01 X240.375 Y248.601
G01 X240.564 Y248.799
G01 X240.757 Y249.008
G01 X240.952 Y249.228
G01 X241.149 Y249.458
G01 X241.347 Y249.698
G01 X241.545 Y249.948
G01 X241.743 Y250.208
G01 X241.939 Y250.477
G01 X242.134 Y250.755
G01 X242.326 Y251.042
G01 X242.515 Y251.336
G01 X242.699 Y251.637
G01 X242.880 Y251.946
G01 X243.056 Y252.260
G01 X243.225 Y252.579
G01 X243.387 Y252.897
G01 X243.390 Y252.904
G01 X243.544 Y253.223
G01 X243.548 Y253.232
G01 X243.696 Y253.555
G01 X243.700 Y253.563
G01 X243.842 Y253.893
G01 X243.844 Y253.897
G01 X243.981 Y254.233
G01 X244.110 Y254.570
G01 X244.232 Y254.906
G01 X244.346 Y255.242
G01 X244.452 Y255.576
G01 X244.550 Y255.908
G01 X244.639 Y256.237
G01 X244.721 Y256.562
G01 X244.795 Y256.882
G01 X244.861 Y257.196
G01 X244.920 Y257.504
G01 X244.971 Y257.804
G01 X245.015 Y258.097
G01 X245.053 Y258.381
G01 X245.084 Y258.656
G01 X245.110 Y258.921
G01 X245.129 Y259.175
G01 X245.144 Y259.418
G01 X245.155 Y259.649
G01 X245.161 Y259.867
G01 X245.164 Y260.073
G01 X245.165 Y260.266
G01 X245.163 Y260.446
G01 X245.160 Y260.611
G01 X245.156 Y260.762
G01 X245.152 Y260.899
G01 X245.149 Y261.021
G01 X245.147 Y261.129
G01 X245.147 Y261.222
G01 X245.149 Y261.299
G01 X245.155 Y261.362
G01 X245.165 Y261.411
G01 X245.179 Y261.445
G01 X245.199 Y261.464
G01 X245.225 Y261.469
G01 X245.258 Y261.461
G01 X245.298 Y261.438
G01 X245.346 Y261.403
G01 X245.402 Y261.355
G01 X245.467 Y261.294
G01 X245.541 Y261.222
G01 X245.626 Y261.138
G01 X245.720 Y261.044
G01 X245.825 Y260.940
G01 X245.941 Y260.826
G01 X246.069 Y260.703
G01 X246.207 Y260.572
G01 X246.358 Y260.434
G01 X246.520 Y260.290
G01 X246.694 Y260.139
G01 X246.879 Y259.983
G01 X247.077 Y259.823
G01 X247.286 Y259.659
G01 X247.508 Y259.492
G01 X247.740 Y259.323
G01 X247.984 Y259.152
G01 X248.239 Y258.981
G01 X248.504 Y258.810
G01 X248.780 Y258.640
G01 X249.066 Y258.472
G01 X249.361 Y258.305
G01 X249.664 Y258.142
G01 X249.977 Y257.981
G01 X250.297 Y257.825
G01 X250.624 Y257.674
G01 X250.958 Y257.527
G01 X251.297 Y257.387
G01 X251.642 Y257.252
G01 X251.985 Y257.126
G01 X251.990 Y257.124
G01 X252.333 Y257.005
G01 X252.343 Y257.002
G01 X252.688 Y256.891
G01 X252.698 Y256.888
G01 X253.048 Y256.782
G01 X253.055 Y256.780
G01 X253.412 Y256.681
G01 X253.771 Y256.589
G01 X254.128 Y256.505
G01 X254.485 Y256.429
G01 X254.838 Y256.361
G01 X255.189 Y256.301
G01 X255.536 Y256.248
G01 X255.878 Y256.204
G01 X256.214 Y256.166
G01 X256.544 Y256.136
G01 X256.867 Y256.113
G01 X257.181 Y256.097
G01 X257.487 Y256.087
G01 X257.784 Y256.082
G01 X258.071 Y256.084
G01 X258.346 Y256.090
G01 X258.611 Y256.100
G01 X258.864 Y256.114
G01 X259.104 Y256.132
G01 X259.332 Y256.152
G01 X259.546 Y256.174
G01 X259.747 Y256.198
G01 X259.933 Y256.222
G01 X260.106 Y256.246
G01 X260.264 Y256.270
G01 X260.408 Y256.292
G01 X260.537 Y256.311
G01 X260.651 Y256.328
G01 X260.750 Y256.342
G01 X260.834 Y256.351
G01 X260.904 Y256.354
G01 X260.959 Y256.353
G01 X261.001 Y256.344
G01 X261.028 Y256.329
G01 X261.041 Y256.306
G01 X261.041 Y256.275
G01 X261.028 Y256.235
G01 X261.002 Y256.185
G01 X260.964 Y256.126
G01 X260.915 Y256.056
G01 X260.854 Y255.975
G01 X260.784 Y255.883
G01 X260.703 Y255.779
G01 X260.613 Y255.663
G01 X260.515 Y255.536
G01 X260.409 Y255.395
G01 X260.296 Y255.242
G01 X260.177 Y255.077
G01 X260.052 Y254.899
G01 X259.923 Y254.707
G01 X259.789 Y254.504
G01 X259.652 Y254.287
G01 X259.513 Y254.058
G01 X259.372 Y253.817
G01 X259.229 Y253.564
G01 X259.087 Y253.299
G01 X258.945 Y253.022
G01 X258.805 Y252.735
G01 X258.666 Y252.437
G01 X258.530 Y252.129
G01 X258.397 Y251.812
G01 X258.267 Y251.486
G01 X258.142 Y251.151
G01 X258.022 Y250.809
G01 X257.908 Y250.460
G01 X257.799 Y250.105
G01 X257.697 Y249.745
G01 X257.601 Y249.379
G01 X257.513 Y249.013
G01 X257.512 Y249.010
G01 X257.433 Y248.647
G01 X257.430 Y248.638
G01 X257.359 Y248.274
G01 X257.356 Y248.264
G01 X257.292 Y247.897
G01 X257.290 Y247.888
G01 X257.232 Y247.515
G01 X257.231 Y247.512
G01 X257.180 Y247.137
G01 X257.138 Y246.763
G01 X257.102 Y246.391
G01 X257.075 Y246.021
G01 X257.056 Y245.656
G01 X257.044 Y245.296
G01 X257.039 Y244.941
G01 X257.041 Y244.593
G01 X257.050 Y244.251
G01 X257.065 Y243.918
G01 X257.086 Y243.593
G01 X257.112 Y243.278
G01 X257.144 Y242.973
G01 X257.180 Y242.678
G01 X257.219 Y242.395
G01 X257.262 Y242.123
G01 X257.308 Y241.864
G01 X257.355 Y241.618
G01 X257.404 Y241.385
G01 X257.454 Y241.165
G01 X257.503 Y240.959
G01 X257.552 Y240.768
G01 X257.598 Y240.591
G01 X257.643 Y240.428
G01 X257.685 Y240.280
G01 X257.723 Y240.147
G01 X257.756 Y240.028
G01 X257.784 Y239.924
G01 X257.806 Y239.834
G01 X257.821 Y239.759
G01 X257.829 Y239.698
G01 X257.829 Y239.650
G01 X257.820 Y239.616
G01 X257.802 Y239.595
G01 X257.774 Y239.587
G01 X257.735 Y239.591
G01 X257.685 Y239.607
G01 X257.624 Y239.634
G01 X257.551 Y239.672
G01 X257.466 Y239.720
G01 X257.368 Y239.777
G01 X257.257 Y239.843
G01 X257.133 Y239.916
G01 X256.996 Y239.997
G01 X256.845 Y240.085
G01 X256.681 Y240.179
G01 X256.502 Y240.277
G01 X256.310 Y240.380
G01 X256.105 Y240.487
G01 X255.886 Y240.596
G01 X255.654 Y240.707
G01 X255.408 Y240.819
G01 X255.150 Y240.932
G01 X254.879 Y241.045
G01 X254.597 Y241.156
G01 X254.302 Y241.266
G01 X253.997 Y241.374
G01 X253.681 Y241.478
G01 X253.355 Y241.579
G01 X253.019 Y241.676
G01 X252.675 Y241.768
G01 X252.322 Y241.854
G01 X251.963 Y241.935
G01 X251.596 Y242.010
G01 X251.224 Y242.078
G01 X250.847 Y242.139
G01 X250.465 Y242.192
G01 X250.081 Y242.239
G01 X249.701 Y242.277
G01 X249.694 Y242.277
G01 X249.316 Y242.307
G01 X249.305 Y242.308
G01 X248.925 Y242.330
G01 X248.916 Y242.331
G01 X248.532 Y242.346
G01 X248.527 Y242.346
G01 X248.138 Y242.353
G01 X247.752 Y242.352
G01 X247.369 Y242.344
G01 X246.990 Y242.328
G01 X246.615 Y242.304
G01 X246.246 Y242.273
G01 X245.883 Y242.236
G01 X245.527 Y242.192
G01 X245.179 Y242.142
G01 X244.839 Y242.087
G01 X244.509 Y242.026
G01 X244.189 Y241.961
G01 X243.879 Y241.892
G01 X243.581 Y241.820
G01 X243.294 Y241.745
G01 X243.020 Y241.667
G01 X242.758 Y241.589
G01 X242.510 Y241.510
G01 X242.274 Y241.431
G01 X242.053 Y241.352
G01 X241.846 Y241.276
G01 X241.652 Y241.201
G01 X241.474 Y241.130
G01 X241.309 Y241.063
G01 X241.159 Y241.000
G01 X241.024 Y240.943
G01 X240.902 Y240.892
G01 X240.795 Y240.848
G01 X240.702 Y240.811
G01 X240.623 Y240.783
G01 X240.557 Y240.764
G01 X240.504 Y240.755
G01 X240.464 Y240.756
G01 X240.437 Y240.768
G01 X240.421 Y240.791
G01 X240.416 Y240.826
G01 X240.423 Y240.874
G01 X240.439 Y240.935
G01 X240.465 Y241.009
G01 X240.499 Y241.096
G01 X240.542 Y241.198
G01 X240.593 Y241.314
G01 X240.650 Y241.444
G01 X240.713 Y241.588
G01 X240.781 Y241.747
G01 X240.854 Y241.921
G01 X240.930 Y242.109
G01 X241.010 Y242.311
G01 X241.091 Y242.528
G01 X241.174 Y242.759
G01 X241.257 Y243.004
G01 X241.341 Y243.262
G01 X241.423 Y243.534
G01 X241.504 Y243.818
G01 X241.583 Y244.114
G01 X241.658 Y244.423
G01 X241.730 Y244.742
G01 X241.798 Y245.072
G01 X241.861 Y245.412
G01 X241.919 Y245.762
G01 X241.971 Y246.120
G01 X242.017 Y246.485
G01 X242.056 Y246.858
G01 X242.088 Y247.237
G01 X242.113 Y247.621
G01 X242.130 Y248.010
G01 X242.139 Y248.403
G01 X242.141 Y248.798
G01 X242.134 Y249.189
G01 X242.134 Y249.195
G01 X242.120 Y249.583
G01 X242.119 Y249.593
G01 X242.097 Y249.980
G01 X242.097 Y249.991
G01 X242.066 Y250.381
G01 X242.066 Y250.388
G01 X242.027 Y250.783
G01 X241.980 Y251.176
G01 X241.926 Y251.565
G01 X241.864 Y251.949
G01 X241.796 Y252.328
G01 X241.720 Y252.701
G01 X241.639 Y253.067
G01 X241.551 Y253.426
G01 X241.459 Y253.775
G01 X241.361 Y254.116
G01 X241.260 Y254.447
G01 X241.155 Y254.767
G01 X241.047 Y255.077
G01 X240.936 Y255.374
G01 X240.824 Y255.660
G01 X240.712 Y255.933
G01 X240.599 Y256.193
G01 X240.487 Y256.440
G01 X240.377 Y256.673
G01 X240.268 Y256.893
G01 X240.163 Y257.099
G01 X240.062 Y257.290
G01 X239.966 Y257.468
G01 X239.874 Y257.631
G01 X239.790 Y257.780
G01 X239.712 Y257.915
G01 X239.642 Y258.037
G01 X239.581 Y258.144
G01 X239.529 Y258.239
G01 X239.486 Y258.320
G01 X239.455 Y258.389
G01 X239.435 Y258.445
G01 X239.426 Y258.490
G01 X239.430 Y258.524
G01 X239.447 Y258.546
G01 X239.478 Y258.559
G01 X239.522 Y258.562
G01 X239.580 Y258.556
G01 X239.653 Y258.542
G01 X239.741 Y258.520
G01 X239.844 Y258.492
G01 X239.962 Y258.457
G01 X240.096 Y258.417
G01 X240.245 Y258.373
G01 X240.409 Y258.325
G01 X240.589 Y258.274
G01 X240.784 Y258.220
G01 X240.994 Y258.166
G01 X241.219 Y258.111
G01 X241.458 Y258.055
G01 X241.712 Y258.001
G01 X241.979 Y257.948
G01 X242.260 Y257.898
G01 X242.554 Y257.850
G01 X242.860 Y257.807
G01 X243.178 Y257.767
G01 X243.507 Y257.732
G01 X243.847 Y257.703
G01 X244.196 Y257.680
G01 X244.555 Y257.663
G01 X244.922 Y257.652
G01 X245.296 Y257.649
G01 X245.676 Y257.654
G01 X246.063 Y257.666
G01 X246.454 Y257.686
G01 X246.849 Y257.715
G01 X247.247 Y257.752
G01 X247.647 Y257.797
G01 X248.046 Y257.850
G01 X248.049 Y257.850
G01 X248.441 Y257.911
G01 X248.450 Y257.912
G01 X248.840 Y257.981
G01 X248.851 Y257.983
G01 X249.242 Y258.060
G01 X249.251 Y258.061
G01 X249.645 Y258.147
G01 X249.648 Y258.147
G01 X250.041 Y258.241
G01 X250.430 Y258.343
G01 X250.814 Y258.451
G01 X251.192 Y258.566
G01 X251.564 Y258.687
G01 X251.927 Y258.814
G01 X252.283 Y258.946
G01 X252.629 Y259.082
G01 X252.966 Y259.223
G01 X253.292 Y259.366
G01 X253.607 Y259.512
G01 X253.911 Y259.660
G01 X254.204 Y259.809
G01 X254.484 Y259.959
G01 X254.751 Y260.107
G01 X255.005 Y260.255
G01 X255.246 Y260.401
G01 X255.473 Y260.543
G01 X255.687 Y260.682
G01 X255.887 Y260.816
G01 X256.074 Y260.945
G01 X256.246 Y261.067
G01 X256.405 Y261.183
G01 X256.550 Y261.291
G01 X256.682 Y261.390
G01 X256.801 Y261.479
G01 X256.907 Y261.559
G01 X257.001 Y261.628
G01 X257.082 Y261.685
G01 X257.152 Y261.730
G01 X257.211 Y261.762
G01 X257.258 Y261.781
G01 X257.296 Y261.786
G01 X257.325 Y261.777
G01 X257.344 Y261.753
G01 X257.355 Y261.714
G01 X257.359 Y261.660
G01 X257.356 Y261.590
G01 X257.347 Y261.504
G01 X257.333 Y261.401
G01 X257.315 Y261.283
G01 X257.292 Y261.149
G01 X257.267 Y260.998
G01 X257.239 Y260.831
G01 X257.210 Y260.648
G01 X257.181 Y260.450
G01 X257.152 Y260.235
G01 X257.123 Y260.006
G01 X257.097 Y259.762
G01 X257.073 Y259.503
G01 X257.051 Y259.230
G01 X257.034 Y258.944
G01 X257.021 Y258.644
G01 X257.013 Y258.333
G01 X257.011 Y258.010
G01 X257.015 Y257.675
G01 X257.026 Y257.331
G01 X257.043 Y256.977
G01 X257.068 Y256.615
G01 X257.101 Y256.245
G01 X257.142 Y255.867
G01 X257.191 Y255.484
G01 X257.249 Y255.096
G01 X257.316 Y254.703
G01 X257.391 Y254.307
G01 X257.475 Y253.909
G01 X257.568 Y253.510
G01 X257.670 Y253.110
G01 X257.778 Y252.717
G01 X257.780 Y252.710
G01 X257.896 Y252.323
G01 X257.899 Y252.312
G01 X258.022 Y251.926
G01 X258.025 Y251.916
G01 X258.158 Y251.529
G01 X258.160 Y251.523
G01 X258.302 Y251.135
G01 X258.451 Y250.751
G01 X258.607 Y250.374
G01 X258.769 Y250.002
G01 X258.936 Y249.639
G01 X259.109 Y249.283
G01 X259.286 Y248.936
G01 X259.466 Y248.599
G01 X259.650 Y248.272
G01 X259.836 Y247.955
G01 X260.023 Y247.650
G01 X260.211 Y247.356
G01 X260.399 Y247.074
G01 X260.586 Y246.805
G01 X260.771 Y246.548
G01 X260.954 Y246.305
G01 X261.133 Y246.074
G01 X261.307 Y245.857
G01 X261.477 Y245.653
G01 X261.640 Y245.462
G01 X261.797 Y245.285
G01 X261.946 Y245.121
G01 X262.086 Y244.970
G01 X262.217 Y244.831
G01 X262.338 Y244.706
G01 X262.447 Y244.592
G01 X262.546 Y244.491
G01 X262.632 Y244.401
G01 X262.704 Y244.321
G01 X262.764 Y244.253
G01 X262.809 Y244.194
G01 X262.840 Y244.145
G01 X262.855 Y244.104
G01 X262.855 Y244.071
G01 X262.839 Y244.046
G01 X262.807 Y244.028
G01 X262.758 Y244.015
G01 X262.693 Y244.007
G01 X262.611 Y244.004
G01 X262.512 Y244.005
G01 X262.396 Y244.008
G01 X262.263 Y244.013
G01 X262.113 Y244.020
G01 X261.946 Y244.027
G01 X261.763 Y244.033
G01 X261.564 Y244.039
G01 X261.349 Y244.042
G01 X261.119 Y244.043
G01 X260.873 Y244.041
G01 X260.613 Y244.035
G01 X260.339 Y244.024
G01 X260.051 Y244.007
G01 X259.751 Y243.985
G01 X259.439 Y243.956
G01 X259.115 Y243.921
G01 X258.780 Y243.877
G01 X258.436 Y243.827
G01 X258.083 Y243.767
G01 X257.722 Y243.700
G01 X257.353 Y243.623
G01 X256.979 Y243.538
G01 X256.598 Y243.443
G01 X256.214 Y243.339
G01 X255.825 Y243.226
G01 X255.435 Y243.103
G01 X255.042 Y242.971
G01 X254.649 Y242.830
G01 X254.257 Y242.680
G01 X253.870 Y242.523
G01 X253.865 Y242.521
G01 X253.485 Y242.358
G01 X253.476 Y242.354
G01 X253.100 Y242.183
G01 X253.089 Y242.179
G01 X252.715 Y241.999
G01 X252.707 Y241.996
G01 X252.330 Y241.806
G01 X251.957 Y241.609
G01 X251.592 Y241.406
G01 X251.234 Y241.197
G01 X250.883 Y240.983
G01 X250.542 Y240.765
G01 X250.209 Y240.544
G01 X249.886 Y240.319
G01 X249.574 Y240.093
G01 X249.273 Y239.865
G01 X248.983 Y239.637
G01 X248.705 Y239.410
G01 X248.438 Y239.183
G01 X248.185 Y238.959
G01 X247.943 Y238.738
G01 X247.715 Y238.521
G01 X247.499 Y238.309
G01 X247.296 Y238.102
G01 X247.106 Y237.902
G01 X246.929 Y237.710
G01 X246.765 Y237.526
G01 X246.613 Y237.351
G01 X246.473 Y237.186
G01 X246.345 Y237.032
G01 X246.229 Y236.890
G01 X246.124 Y236.760
G01 X246.030 Y236.643
G01 X245.946 Y236.540
G01 X245.871 Y236.450
G01 X245.806 Y236.376
G01 X245.750 Y236.317
G01 X245.701 Y236.274
G01 X245.659 Y236.248
G01 X245.624 Y236.237
G01 X245.594 Y236.244
G01 X245.570 Y236.268
G01 X245.550 Y236.310
G01 X245.533 Y236.369
G01 X245.519 Y236.445
G01 X245.506 Y236.539
G01 X245.495 Y236.651
G01 X245.483 Y236.780
G01 X245.472 Y236.926
G01 X245.459 Y237.090
G01 X245.443 Y237.270
G01 X245.425 Y237.466
G01 X245.403 Y237.679
G01 X245.377 Y237.907
G01 X245.346 Y238.150
G01 X245.309 Y238.407
G01 X245.266 Y238.679
G01 X245.216 Y238.963
G01 X245.158 Y239.260
G01 X245.093 Y239.569
G01 X245.019 Y239.888
G01 X244.937 Y240.218
G01 X244.845 Y240.557
G01 X244.745 Y240.904
G01 X244.634 Y241.259
G01 X244.514 Y241.620
G01 X244.384 Y241.987
G01 X244.244 Y242.359
G01 X244.094 Y242.734
G01 X243.934 Y243.112
G01 X243.765 Y243.492
G01 X243.585 Y243.873
G01 X243.397 Y244.253
G01 X243.199 Y244.632
G01 X242.993 Y245.008
G01 X242.992 Y245.010
G01 X242.781 Y245.376
G01 X242.777 Y245.384
G01 X242.560 Y245.745
G01 X242.554 Y245.755
G01 X242.328 Y246.112
G01 X242.323 Y246.121
G01 X242.088 Y246.478
G01 X242.086 Y246.482
G01 X241.842 Y246.836
G01 X241.592 Y247.183
G01 X241.338 Y247.523
G01 X241.079 Y247.854
G01 X240.816 Y248.176
G01 X240.551 Y248.488
G01 X240.284 Y248.791
G01 X240.016 Y249.082
G01 X239.748 Y249.363
G01 X239.480 Y249.632
G01 X239.214 Y249.890
G01 X238.950 Y250.135
G01 X238.690 Y250.368
G01 X238.434 Y250.589
G01 X238.184 Y250.798
G01 X237.939 Y250.994
G01 X237.702 Y251.178
G01 X237.473 Y251.350
G01 X237.252 Y251.509
G01 X237.042 Y251.657
G01 X236.841 Y251.793
G01 X236.653 Y251.918
G01 X236.476 Y252.031
G01 X236.313 Y252.135
G01 X236.163 Y252.228
G01 X236.027 Y252.313
G01 X235.906 Y252.388
G01 X235.801 Y252.455
G01 X235.712 Y252.514
G01 X235.639 Y252.566
G01 X235.583 Y252.612
G01 X235.545 Y252.653
G01 X235.523 Y252.689
G01 X235.520 Y252.721
G01 X235.535 Y252.750
G01 X235.568 Y252.776
G01 X235.618 Y252.801
G01 X235.687 Y252.825
G01 X235.775 Y252.849
G01 X235.880 Y252.874
G01 X236.003 Y252.901
G01 X236.143 Y252.930
G01 X236.300 Y252.962
G01 X236.475 Y252.999
G01 X236.666 Y253.040
G01 X236.872 Y253.087
G01 X237.094 Y253.139
G01 X237.331 Y253.199
G01 X237.582 Y253.266
G01 X237.847 Y253.340
G01 X238.124 Y253.424
G01 X238.413 Y253.516
G01 X238.713 Y253.617
G01 X239.024 Y253.728
G01 X239.344 Y253.849
G01 X239.673 Y253.980
G01 X240.009 Y254.122
G01 X240.352 Y254.274
G01 X240.701 Y254.437
G01 X241.054 Y254.611
G01 X241.412 Y254.795
G01 X241.772 Y254.990
G01 X242.134 Y255.195
G01 X242.497 Y255.411
G01 X242.860 Y255.637
G01 X243.222 Y255.872
G01 X243.582 Y256.117
G01 X243.939 Y256.370
G01 X244.287 Y256.628
G01 X244.293 Y256.632
G01 X244.633 Y256.894
G01 X244.642 Y256.901
G01 X244.976 Y257.171
G01 X244.986 Y257.178
G01 X245.318 Y257.457
G01 X245.323 Y257.461
G01 X245.654 Y257.751
G01 X245.977 Y258.045
G01 X246.292 Y258.344
G01 X246.598 Y258.646
G01 X246.894 Y258.951
G01 X247.181 Y259.258
G01 X247.457 Y259.566
G01 X247.723 Y259.874
G01 X247.977 Y260.182
G01 X248.220 Y260.487
G01 X248.452 Y260.790
G01 X248.672 Y261.089
G01 X248.879 Y261.384
G01 X249.075 Y261.672
G01 X249.259 Y261.955
G01 X249.431 Y262.230
G01 X249.592 Y262.496
G01 X249.741 Y262.753
G01 X249.879 Y263.000
G01 X250.006 Y263.236
G01 X250.122 Y263.460
G01 X250.228 Y263.671
G01 X250.325 Y263.869
G01 X250.412 Y264.053
G01 X250.491 Y264.222
G01 X250.562 Y264.376
G01 X250.625 Y264.513
G01 X250.682 Y264.634
G01 X250.733 Y264.738
G01 X250.779 Y264.825
G01 X250.820 Y264.894
G01 X250.857 Y264.945
G01 X250.892 Y264.978
G01 X250.924 Y264.992
G01 X250.955 Y264.987
G01 X250.986 Y264.964
G01 X251.017 Y264.923
G01 X251.050 Y264.863
G01 X251.084 Y264.784
G01 X251.121 Y264.687
G01 X251.162 Y264.573
G01 X251.208 Y264.441
G01 X251.258 Y264.292
G01 X251.314 Y264.126
G01 X251.378 Y263.944
G01 X251.448 Y263.746
G01 X251.526 Y263.534
G01 X251.613 Y263.306
G01 X251.708 Y263.066
G01 X251.813 Y262.812
G01 X251.928 Y262.546
G01 X252.054 Y262.269
G01 X252.190 Y261.982
G01 X252.337 Y261.685
G01 X252.495 Y261.379
G01 X252.665 Y261.065
G01 X252.846 Y260.745
G01 X253.039 Y260.419
G01 X253.243 Y260.088
G01 X253.459 Y259.753
G01 X253.686 Y259.416
G01 X253.925 Y259.076
G01 X254.174 Y258.736
G01 X254.434 Y258.395
G01 X254.704 Y258.056
G01 X254.984 Y257.718
G01 X255.273 Y257.383
G01 X255.571 Y257.052
G01 X255.874 Y256.729
G01 X255.877 Y256.725
G01 X256.184 Y256.412
G01 X256.191 Y256.404
G01 X256.503 Y256.097
G01 X256.512 Y256.088
G01 X256.832 Y255.786
G01 X256.839 Y255.780
G01 X257.170 Y255.480
G01 X257.171 Y255.479
G01 X257.508 Y255.185
G01 X257.848 Y254.901
G01 X258.192 Y254.626
G01 X258.537 Y254.360
G01 X258.883 Y254.105
G01 X259.230 Y253.860
G01 X259.575 Y253.626
G01 X259.919 Y253.403
G01 X260.260 Y253.191
G01 X260.597 Y252.991
G01 X260.929 Y252.802
G01 X261.255 Y252.624
G01 X261.574 Y252.458
G01 X261.886 Y252.303
G01 X262.189 Y252.160
G01 X262.483 Y252.027
G01 X262.765 Y251.904
G01 X263.037 Y251.792
G01 X263.296 Y251.690
G01 X263.542 Y251.597
G01 X263.775 Y251.513
G01 X263.992 Y251.437
G01 X264.195 Y251.369
G01 X264.382 Y251.308
G01 X264.552 Y251.253
G01 X264.706 Y251.204
G01 X264.842 Y251.160
G01 X264.960 Y251.121
G01 X265.060 Y251.084
G01 X265.142 Y251.051
G01 X265.205 Y251.019
G01 X265.249 Y250.988
G01 X265.274 Y250.957
G01 X265.281 Y250.925
G01 X265.268 Y250.892
G01 X265.237 Y250.856
G01 X265.187 Y250.818
G01 X265.119 Y250.775
G01 X265.032 Y250.727
G01 X264.928 Y250.673
G01 X264.807 Y250.614
G01 X264.668 Y250.547
G01 X264.513 Y250.472
G01 X264.343 Y250.389
G01 X264.157 Y250.296
G01 X263.957 Y250.194
G01 X263.743 Y250.082
G01 X263.516 Y249.959
G01 X263.277 Y249.825
G01 X263.027 Y249.680
G01 X262.766 Y249.523
G01 X262.495 Y249.354
G01 X262.216 Y249.172
G01 X261.929 Y248.978
G01 X261.636 Y248.772
G01 X261.337 Y248.553
G01 X261.032 Y248.322
G01 X260.725 Y248.079
G01 X260.414 Y247.823
G01 X260.101 Y247.555
G01 X259.788 Y247.276
G01 X259.474 Y246.985
G01 X259.162 Y246.684
G01 X258.851 Y246.372
G01 X258.544 Y246.050
G01 X258.240 Y245.719
G01 X257.940 Y245.379
G01 X257.647 Y245.032
G01 X257.646 Y245.031
G01 X257.364 Y244.683
G01 X257.358 Y244.676
G01 X257.084 Y244.324
G01 X257.076 Y244.314
G01 X256.809 Y243.956
G01 X256.802 Y243.947
G01 X256.539 Y243.579
G01 X256.536 Y243.575
G01 X256.279 Y243.199
G01 X256.030 Y242.820
G01 X255.791 Y242.439
G01 X255.562 Y242.057
G01 X255.344 Y241.674
G01 X255.135 Y241.293
G01 X254.938 Y240.913
G01 X254.751 Y240.536
G01 X254.576 Y240.164
G01 X254.411 Y239.796
G01 X254.258 Y239.434
G01 X254.115 Y239.079
G01 X253.983 Y238.732
G01 X253.862 Y238.394
G01 X253.751 Y238.065
G01 X253.649 Y237.748
G01 X253.558 Y237.442
G01 X253.475 Y237.149
G01 X253.401 Y236.869
G01 X253.335 Y236.603
G01 X253.276 Y236.351
G01 X253.224 Y236.116
G01 X253.179 Y235.896
G01 X253.139 Y235.693
G01 X253.103 Y235.508
G01 X253.072 Y235.340
G01 X253.043 Y235.190
G01 X253.017 Y235.059
G01 X252.993 Y234.946
G01 X252.969 Y234.852
G01 X252.945 Y234.777
G01 X252.920 Y234.721
G01 X252.892 Y234.685
G01 X252.862 Y234.667
G01 X252.829 Y234.669
G01 X252.791 Y234.689
G01 X252.747 Y234.728
G01 X252.698 Y234.785
G01 X252.642 Y234.860
G01 X252.577 Y234.952
G01 X252.505 Y235.062
G01 X252.424 Y235.187
G01 X252.332 Y235.329
G01 X252.231 Y235.485
G01 X252.118 Y235.656
G01 X251.995 Y235.841
G01 X251.859 Y236.039
G01 X251.711 Y236.248
G01 X251.550 Y236.469
G01 X251.377 Y236.701
G01 X251.190 Y236.942
G01 X250.990 Y237.191
G01 X250.777 Y237.448
G01 X250.550 Y237.711
G01 X250.310 Y237.980
G01 X250.056 Y238.254
G01 X249.789 Y238.532
G01 X249.509 Y238.812
G01 X249.217 Y239.093
G01 X248.912 Y239.376
G01 X248.594 Y239.658
G01 X248.265 Y239.939
G01 X247.926 Y240.218
G01 X247.575 Y240.494
G01 X247.215 Y240.767
G01 X246.845 Y241.035
G01 X246.467 Y241.297
G01 X246.081 Y241.553
G01 X245.694 Y241.799
G01 X245.689 Y241.803
G01 X245.300 Y242.039
G01 X245.290 Y242.045
G01 X244.897 Y242.273
G01 X244.886 Y242.280
G01 X244.485 Y242.501
G01 X244.478 Y242.505
G01 X244.067 Y242.722
G01 X243.653 Y242.929
G01 X243.238 Y243.127
G01 X242.823 Y243.314
G01 X242.408 Y243.492
G01 X241.996 Y243.658
G01 X241.586 Y243.814
G01 X241.180 Y243.960
G01 X240.779 Y244.095
G01 X240.384 Y244.219
G01 X239.996 Y244.333
G01 X239.616 Y244.436
G01 X239.245 Y244.530
G01 X238.884 Y244.614
G01 X238.534 Y244.688
G01 X238.196 Y244.754
G01 X237.871 Y244.812
G01 X237.558 Y244.861
G01 X237.261 Y244.904
G01 X236.978 Y244.939
G01 X236.711 Y244.969
G01 X236.460 Y244.994
G01 X236.226 Y245.014
G01 X236.009 Y245.030
G01 X235.810 Y245.044
G01 X235.630 Y245.055
G01 X235.468 Y245.066
G01 X235.324 Y245.075
G01 X235.200 Y245.086
G01 X235.095 Y245.097
G01 X235.009 Y245.111
G01 X234.943 Y245.128
G01 X234.895 Y245.149
G01 X234.867 Y245.176
G01 X234.857 Y245.207
G01 X234.866 Y245.246
G01 X234.893 Y245.291
G01 X234.938 Y245.345
G01 X235.000 Y245.408
G01 X235.080 Y245.481
G01 X235.175 Y245.564
G01 X235.286 Y245.657
G01 X235.412 Y245.763
G01 X235.553 Y245.880
G01 X235.707 Y246.011
G01 X235.873 Y246.154
G01 X236.052 Y246.311
G01 X236.242 Y246.481
G01 X236.441 Y246.666
G01 X236.650 Y246.864
G01 X236.867 Y247.078
G01 X237.092 Y247.306
G01 X237.323 Y247.548
G01 X237.559 Y247.805
G01 X237.800 Y248.076
G01 X238.043 Y248.361
G01 X238.290 Y248.660
G01 X238.538 Y248.973
G01 X238.786 Y249.300
G01 X239.033 Y249.639
G01 X239.280 Y249.990
G01 X239.524 Y250.353
G01 X239.765 Y250.728
G01 X240.002 Y251.113
G01 X240.234 Y251.508
G01 X240.461 Y251.911
G01 X240.681 Y252.323
G01 X240.895 Y252.743
G01 X241.099 Y253.165
G01 X241.101 Y253.169
G01 X241.294 Y253.590
G01 X241.299 Y253.600
G01 X241.483 Y254.024
G01 X241.488 Y254.036
G01 X241.665 Y254.466
G01 X241.669 Y254.475
G01 X241.839 Y254.915
G01 X241.840 Y254.918
G01 X242.002 Y255.361
G01 X242.153 Y255.805
G01 X242.295 Y256.249
G01 X242.426 Y256.691
G01 X242.546 Y257.130
G01 X242.657 Y257.565
G01 X242.757 Y257.996
G01 X242.847 Y258.420
G01 X242.927 Y258.838
G01 X242.997 Y259.247
G01 X243.057 Y259.648
G01 X243.109 Y260.038
G01 X243.152 Y260.418
G01 X243.186 Y260.785
G01 X243.213 Y261.140
G01 X243.233 Y261.482
G01 X243.247 Y261.809
G01 X243.254 Y262.121
G01 X243.257 Y262.417
G01 X243.255 Y262.697
G01 X243.250 Y262.961
G01 X243.242 Y263.206
G01 X243.232 Y263.434
G01 X243.221 Y263.643
G01 X243.209 Y263.834
G01 X243.199 Y264.006
G01 X243.190 Y264.160
G01 X243.184 Y264.294
G01 X243.181 Y264.408
G01 X243.182 Y264.504
G01 X243.189 Y264.580
G01 X243.202 Y264.638
G01 X243.222 Y264.677
G01 X243.250 Y264.698
G01 X243.286 Y264.700
G01 X243.332 Y264.685
G01 X243.388 Y264.653
G01 X243.455 Y264.604
G01 X243.534 Y264.539
G01 X243.625 Y264.458
G01 X243.728 Y264.363
G01 X243.846 Y264.254
G01 X243.977 Y264.131
G01 X244.122 Y263.997
G01 X244.282 Y263.850
G01 X244.457 Y263.693
G01 X244.647 Y263.526
G01 X244.853 Y263.351
G01 X245.074 Y263.167
G01 X245.310 Y262.977
G01 X245.563 Y262.780
G01 X245.831 Y262.579
G01 X246.114 Y262.374
G01 X246.412 Y262.165
G01 X246.726 Y261.955
G01 X247.053 Y261.744
G01 X247.395 Y261.532
G01 X247.751 Y261.322
G01 X248.120 Y261.113
G01 X248.501 Y260.907
G01 X248.894 Y260.704
G01 X249.299 Y260.506
G01 X249.713 Y260.312
G01 X250.138 Y260.125
G01 X250.571 Y259.944
G01 X251.012 Y259.769
G01 X251.460 Y259.603
G01 X251.914 Y259.445
G01 X252.365 Y259.298
G01 X252.373 Y259.295
G01 X252.823 Y259.159
G01 X252.836 Y259.155
G01 X253.290 Y259.027
G01 X253.302 Y259.024
G01 X253.763 Y258.904
G01 X253.769 Y258.902
G01 X254.238 Y258.791
G01 X254.706 Y258.689
G01 X255.172 Y258.598
G01 X255.636 Y258.517
G01 X256.097 Y258.446
G01 X256.552 Y258.385
G01 X257.002 Y258.334
G01 X257.445 Y258.293
G01 X257.880 Y258.261
G01 X258.306 Y258.238
G01 X258.722 Y258.223
G01 X259.128 Y258.217
G01 X259.521 Y258.219
G01 X259.902 Y258.227
G01 X260.269 Y258.242
G01 X260.622 Y258.263
G01 X260.960 Y258.288
G01 X261.282 Y258.318
G01 X261.588 Y258.351
G01 X261.877 Y258.387
G01 X262.149 Y258.425
G01 X262.403 Y258.464
G01 X262.639 Y258.503
G01 X262.856 Y258.541
G01 X263.055 Y258.577
G01 X263.234 Y258.610
G01 X263.395 Y258.640
G01 X263.537 Y258.665
G01 X263.660 Y258.684
G01 X263.763 Y258.697
G01 X263.849 Y258.703
G01 X263.915 Y258.700
G01 X263.964 Y258.689
G01 X263.995 Y258.667
G01 X264.008 Y258.635
G01 X264.005 Y258.591
G01 X263.985 Y258.536
G01 X263.950 Y258.467
G01 X263.900 Y258.384
G01 X263.835 Y258.288
G01 X263.757 Y258.177
G01 X263.666 Y258.051
G01 X263.563 Y257.909
G01 X263.449 Y257.752
G01 X263.324 Y257.578
G01 X263.191 Y257.388
G01 X263.049 Y257.181
G01 X262.900 Y256.958
G01 X262.744 Y256.718
G01 X262.583 Y256.461
G01 X262.418 Y256.188
G01 X262.249 Y255.899
G01 X262.078 Y255.593
G01 X261.905 Y255.271
G01 X261.732 Y254.934
G01 X261.559 Y254.583
G01 X261.387 Y254.216
G01 X261.218 Y253.836
G01 X261.052 Y253.442
G01 X260.889 Y253.036
G01 X260.732 Y252.618
G01 X260.579 Y252.189
G01 X260.433 Y251.749
G01 X260.294 Y251.300
G01 X260.162 Y250.843
G01 X260.038 Y250.379
G01 X259.923 Y249.908
G01 X259.816 Y249.431
G01 X259.720 Y248.956
G01 X259.719 Y248.950
G01 X259.634 Y248.478
G01 X259.631 Y248.466
G01 X259.556 Y247.993
G01 X259.553 Y247.980
G01 X259.487 Y247.502
G01 X259.485 Y247.492
G01 X259.427 Y247.006
G01 X259.379 Y246.519
G01 X259.342 Y246.035
G01 X259.314 Y245.555
G01 X259.296 Y245.079
G01 X259.288 Y244.609
G01 X259.289 Y244.146
G01 X259.299 Y243.690
G01 X259.318 Y243.243
G01 X259.345 Y242.806
G01 X259.380 Y242.379
G01 X259.422 Y241.965
G01 X259.470 Y241.563
G01 X259.524 Y241.174
G01 X259.583 Y240.799
G01 X259.646 Y240.439
G01 X259.713 Y240.095
G01 X259.783 Y239.767
G01 X259.854 Y239.456
G01 X259.927 Y239.162
G01 X259.999 Y238.885
G01 X260.070 Y238.627
G01 X260.140 Y238.386
G01 X260.207 Y238.165
G01 X260.270 Y237.962
G01 X260.328 Y237.777
G01 X260.380 Y237.611
G01 X260.426 Y237.464
G01 X260.464 Y237.336
G01 X260.494 Y237.226
G01 X260.514 Y237.134
G01 X260.524 Y237.059
G01 X260.523 Y237.002
G01 X260.510 Y236.962
G01 X260.484 Y236.938
G01 X260.445 Y236.930
G01 X260.391 Y236.938
G01 X260.323 Y236.959
G01 X260.240 Y236.995
G01 X260.140 Y237.043
G01 X260.025 Y237.104
G01 X259.892 Y237.176
G01 X259.743 Y237.259
G01 X259.577 Y237.351
G01 X259.392 Y237.452
G01 X259.190 Y237.560
G01 X258.971 Y237.675
G01 X258.734 Y237.796
G01 X258.478 Y237.922
G01 X258.206 Y238.051
G01 X257.916 Y238.183
G01 X257.609 Y238.317
G01 X257.285 Y238.452
G01 X256.945 Y238.587
G01 X256.589 Y238.720
G01 X256.218 Y238.852
G01 X255.832 Y238.981
G01 X255.432 Y239.106
G01 X255.018 Y239.226
G01 X254.593 Y239.342
G01 X254.155 Y239.451
G01 X253.707 Y239.554
G01 X253.248 Y239.649
G01 X252.781 Y239.737
G01 X252.306 Y239.816
G01 X251.823 Y239.887
G01 X251.335 Y239.948
G01 X250.842 Y240.000
G01 X250.348 Y240.042
G01 X250.346 Y240.042
G01 X249.857 Y240.074
G01 X249.847 Y240.074
G01 X249.360 Y240.096
G01 X249.346 Y240.096
G01 X248.857 Y240.108
G01 X248.846 Y240.108
G01 X248.350 Y240.110
G01 X248.346 Y240.110
G01 X247.848 Y240.101
G01 X247.353 Y240.083
G01 X246.863 Y240.055
G01 X246.378 Y240.017
G01 X245.900 Y239.970
G01 X245.429 Y239.914
G01 X244.966 Y239.850
G01 X244.513 Y239.778
G01 X244.071 Y239.699
G01 X243.641 Y239.613
G01 X243.222 Y239.521
G01 X242.817 Y239.424
G01 X242.426 Y239.322
G01 X242.049 Y239.217
G01 X241.688 Y239.109
G01 X241.342 Y238.999
G01 X241.013 Y238.888
G01 X240.701 Y238.777
G01 X240.407 Y238.667
G01 X240.130 Y238.558
G01 X239.871 Y238.453
G01 X239.630 Y238.351
G01 X239.407 Y238.254
G01 X239.203 Y238.162
G01 X239.017 Y238.078
G01 X238.849 Y238.001
G01 X238.700 Y237.933
G01 X238.568 Y237.874
G01 X238.454 Y237.826
G01 X238.357 Y237.790
G01 X238.277 Y237.766
G01 X238.213 Y237.755
G01 X238.165 Y237.757
G01 X238.132 Y237.775
G01 X238.114 Y237.807
G01 X238.109 Y237.856
G01 X238.118 Y237.921
G01 X238.139 Y238.003
