;  Created by Sandify
;  https://sandify.org
;  Version: 0.2.6
;
;  Machine type: Rectangular
;    Min X (mm): 0
;    Max X (mm): 500
;    Min Y (mm): 0
;    Max Y (mm): 500
;  Content type: shape
;  Layer:
;    Shape: FileImport
;    Name: dither_sunburst.thr
;    From file:: dither_sunburst.thr
;    Aspect Ratio: true
;    Comments: 
;    Visible: true
;    Initial width: 10
;    Initial height: 10
;    X offset: 0
;    Y offset: 0
;    Rotate (degrees): 0
;    Reverse path: false
;    Fine tuning:
;      Connect to next layer: line
;      Draw portion of path (%): 100
;      Backtrack at end (%): 0
;      Rotate starting point (%): 0
;  Reverse export path: false
;
; File name: 'dithersunburst (E) (E E)'
; File type: gcode
;

G01 X500.000 Y250.000
G01 X490.356 Y250.001
G01 X484.693 Y250.002
G01 X480.968 Y250.004
G01 X479.120 Y250.006
G01 X475.455 Y250.010
G01 X473.637 Y250.012
G01 X470.030 Y250.018
G01 X468.241 Y250.021
G01 X464.693 Y250.030
G01 X462.933 Y250.035
G01 X459.443 Y250.047
G01 X457.713 Y250.053
G01 X454.280 Y250.069
G01 X452.578 Y250.077
G01 X449.203 Y250.096
G01 X447.530 Y250.107
G01 X444.211 Y250.131
G01 X442.566 Y250.144
G01 X439.304 Y250.173
G01 X437.687 Y250.189
G01 X434.480 Y250.223
G01 X432.891 Y250.241
G01 X431.315 Y250.262
G01 X429.740 Y250.282
G01 X428.178 Y250.303
G01 X426.630 Y250.327
G01 X425.082 Y250.350
G01 X423.547 Y250.375
G01 X422.027 Y250.402
G01 X420.505 Y250.429
G01 X418.998 Y250.457
G01 X417.505 Y250.488
G01 X416.010 Y250.518
G01 X414.530 Y250.551
G01 X413.063 Y250.585
G01 X411.596 Y250.619
G01 X410.142 Y250.656
G01 X408.702 Y250.694
G01 X407.261 Y250.733
G01 X405.834 Y250.774
G01 X404.420 Y250.817
G01 X403.005 Y250.860
G01 X401.604 Y250.905
G01 X400.216 Y250.953
G01 X398.828 Y251.000
G01 X397.453 Y251.050
G01 X396.091 Y251.103
G01 X394.728 Y251.155
G01 X393.379 Y251.210
G01 X392.042 Y251.268
G01 X390.706 Y251.325
G01 X389.382 Y251.386
G01 X388.071 Y251.449
G01 X386.760 Y251.512
G01 X385.461 Y251.577
G01 X384.175 Y251.646
G01 X382.889 Y251.715
G01 X381.616 Y251.786
G01 X380.355 Y251.860
G01 X379.094 Y251.935
G01 X377.845 Y252.012
G01 X376.609 Y252.093
G01 X374.136 Y252.254
G01 X371.713 Y252.427
G01 X369.338 Y252.614
G01 X366.963 Y252.800
G01 X364.636 Y253.000
G01 X362.357 Y253.215
G01 X360.078 Y253.429
G01 X357.846 Y253.658
G01 X355.660 Y253.902
G01 X353.475 Y254.145
G01 X351.336 Y254.404
G01 X349.243 Y254.680
G01 X347.150 Y254.955
G01 X345.103 Y255.247
G01 X343.100 Y255.555
G01 X341.097 Y255.864
G01 X339.139 Y256.190
G01 X337.225 Y256.533
G01 X335.310 Y256.877
G01 X333.440 Y257.239
G01 X331.612 Y257.620
G01 X329.785 Y258.001
G01 X328.000 Y258.401
G01 X326.257 Y258.821
G01 X324.514 Y259.241
G01 X322.814 Y259.681
G01 X321.154 Y260.143
G01 X319.494 Y260.604
G01 X317.876 Y261.085
G01 X316.297 Y261.589
G01 X314.719 Y262.093
G01 X313.181 Y262.619
G01 X311.682 Y263.168
G01 X310.183 Y263.716
G01 X308.724 Y264.288
G01 X307.302 Y264.883
G01 X305.881 Y265.479
G01 X304.498 Y266.098
G01 X303.153 Y266.742
G01 X301.807 Y267.385
G01 X300.499 Y268.054
G01 X299.228 Y268.749
G01 X297.956 Y269.443
G01 X296.721 Y270.163
G01 X295.522 Y270.910
G01 X294.323 Y271.657
G01 X293.159 Y272.430
G01 X292.030 Y273.231
G01 X290.901 Y274.032
G01 X289.807 Y274.861
G01 X288.747 Y275.718
G01 X287.686 Y276.576
G01 X286.660 Y277.461
G01 X285.666 Y278.377
G01 X284.673 Y279.292
G01 X283.712 Y280.237
G01 X282.783 Y281.212
G01 X281.855 Y282.188
G01 X280.958 Y283.194
G01 X280.093 Y284.231
G01 X279.227 Y285.268
G01 X278.393 Y286.337
G01 X277.588 Y287.438
G01 X276.784 Y288.539
G01 X276.010 Y289.673
G01 X275.265 Y290.839
G01 X274.521 Y292.006
G01 X273.805 Y293.207
G01 X273.118 Y294.441
G01 X272.431 Y295.675
G01 X271.773 Y296.944
G01 X271.142 Y298.248
G01 X270.510 Y299.552
G01 X269.907 Y300.891
G01 X269.330 Y302.267
G01 X268.752 Y303.642
G01 X268.202 Y305.054
G01 X267.677 Y306.503
G01 X267.152 Y307.952
G01 X266.653 Y309.438
G01 X266.178 Y310.962
G01 X265.704 Y312.486
G01 X265.254 Y314.048
G01 X264.828 Y315.649
G01 X264.403 Y317.250
G01 X264.001 Y318.890
G01 X263.622 Y320.571
G01 X263.243 Y322.251
G01 X262.887 Y323.971
G01 X262.552 Y325.733
G01 X262.218 Y327.494
G01 X261.906 Y329.296
G01 X261.616 Y331.140
G01 X261.325 Y332.984
G01 X261.055 Y334.870
G01 X260.805 Y336.799
G01 X260.556 Y338.728
G01 X260.327 Y340.700
G01 X260.117 Y342.715
G01 X259.907 Y344.731
G01 X259.716 Y346.790
G01 X259.544 Y348.894
G01 X259.372 Y350.998
G01 X259.218 Y353.147
G01 X259.081 Y355.342
G01 X258.945 Y357.536
G01 X258.826 Y359.777
G01 X258.724 Y362.064
G01 X258.622 Y364.351
G01 X258.536 Y366.684
G01 X258.466 Y369.066
G01 X258.396 Y371.447
G01 X258.342 Y373.876
G01 X258.303 Y376.354
G01 X258.283 Y377.592
G01 X258.267 Y378.843
G01 X258.254 Y380.106
G01 X258.242 Y381.369
G01 X258.233 Y382.645
G01 X258.228 Y383.933
G01 X258.222 Y385.220
G01 X258.220 Y386.521
G01 X258.222 Y387.834
G01 X258.223 Y389.146
G01 X258.228 Y390.471
G01 X258.236 Y391.809
G01 X258.244 Y393.147
G01 X258.255 Y394.497
G01 X258.270 Y395.861
G01 X258.284 Y397.224
G01 X258.302 Y398.600
G01 X258.322 Y399.989
G01 X258.343 Y401.377
G01 X258.366 Y402.779
G01 X258.393 Y404.194
G01 X258.419 Y405.608
G01 X258.448 Y407.036
G01 X258.481 Y408.476
G01 X258.513 Y409.917
G01 X258.548 Y411.371
G01 X258.585 Y412.838
G01 X258.623 Y414.305
G01 X258.663 Y415.785
G01 X258.706 Y417.279
G01 X258.749 Y418.772
G01 X258.794 Y420.279
G01 X258.842 Y421.800
G01 X258.890 Y423.320
G01 X258.941 Y424.854
G01 X258.993 Y426.401
G01 X259.046 Y427.948
G01 X259.101 Y429.509
G01 X259.158 Y431.084
G01 X259.215 Y432.659
G01 X259.275 Y434.247
G01 X259.398 Y437.451
G01 X259.461 Y439.067
G01 X259.593 Y442.327
G01 X259.660 Y443.971
G01 X259.799 Y447.287
G01 X259.871 Y448.959
G01 X260.017 Y452.331
G01 X260.092 Y454.031
G01 X260.245 Y457.460
G01 X260.323 Y459.189
G01 X260.483 Y462.675
G01 X260.564 Y464.433
G01 X260.730 Y467.977
G01 X260.814 Y469.764
G01 X260.985 Y473.367
G01 X261.072 Y475.183
G01 X261.248 Y478.844
G01 X261.518 Y484.411
G01 X261.794 Y490.066
G01 X262.076 Y495.813
G01 X261.606 Y486.286
G01 X261.329 Y480.690
G01 X261.237 Y478.845
G01 X261.053 Y475.184
G01 X260.961 Y473.368
G01 X260.778 Y469.766
G01 X260.687 Y467.979
G01 X260.505 Y464.436
G01 X260.413 Y462.679
G01 X260.230 Y459.193
G01 X260.139 Y457.465
G01 X259.955 Y454.038
G01 X259.863 Y452.338
G01 X259.678 Y448.968
G01 X259.585 Y447.297
G01 X259.399 Y443.984
G01 X259.305 Y442.341
G01 X259.116 Y439.084
G01 X259.021 Y437.470
G01 X258.829 Y434.269
G01 X258.733 Y432.682
G01 X258.636 Y431.110
G01 X258.538 Y429.537
G01 X258.440 Y427.978
G01 X258.340 Y426.433
G01 X258.241 Y424.888
G01 X258.141 Y423.357
G01 X258.040 Y421.839
G01 X257.938 Y420.321
G01 X257.836 Y418.817
G01 X257.732 Y417.327
G01 X257.628 Y415.836
G01 X257.523 Y414.359
G01 X257.417 Y412.895
G01 X257.310 Y411.432
G01 X257.203 Y409.981
G01 X257.094 Y408.545
G01 X256.984 Y407.108
G01 X256.874 Y405.684
G01 X256.761 Y404.274
G01 X256.649 Y402.863
G01 X256.535 Y401.466
G01 X256.419 Y400.082
G01 X256.304 Y398.698
G01 X256.186 Y397.327
G01 X256.067 Y395.969
G01 X255.948 Y394.611
G01 X255.827 Y393.266
G01 X255.703 Y391.933
G01 X255.580 Y390.601
G01 X255.455 Y389.282
G01 X255.328 Y387.976
G01 X255.201 Y386.669
G01 X255.071 Y385.375
G01 X254.940 Y384.094
G01 X254.808 Y382.813
G01 X254.674 Y381.545
G01 X254.538 Y380.289
G01 X254.402 Y379.033
G01 X254.263 Y377.790
G01 X254.122 Y376.559
G01 X253.840 Y374.097
G01 X253.548 Y371.685
G01 X253.245 Y369.322
G01 X252.942 Y366.959
G01 X252.628 Y364.645
G01 X252.302 Y362.379
G01 X251.976 Y360.113
G01 X251.638 Y357.895
G01 X251.288 Y355.725
G01 X250.937 Y353.554
G01 X250.573 Y351.430
G01 X250.196 Y349.353
G01 X249.818 Y347.276
G01 X249.426 Y345.246
G01 X249.020 Y343.260
G01 X248.613 Y341.275
G01 X248.192 Y339.335
G01 X247.754 Y337.440
G01 X247.317 Y335.545
G01 X246.864 Y333.695
G01 X246.393 Y331.888
G01 X245.923 Y330.081
G01 X245.436 Y328.318
G01 X244.931 Y326.598
G01 X244.426 Y324.878
G01 X243.903 Y323.201
G01 X243.361 Y321.566
G01 X242.819 Y319.931
G01 X242.258 Y318.338
G01 X241.678 Y316.786
G01 X241.097 Y315.235
G01 X240.496 Y313.724
G01 X239.875 Y312.254
G01 X239.253 Y310.784
G01 X238.611 Y309.354
G01 X237.946 Y307.963
G01 X237.282 Y306.573
G01 X236.596 Y305.222
G01 X235.887 Y303.910
G01 X235.178 Y302.598
G01 X234.445 Y301.324
G01 X233.689 Y300.088
G01 X232.934 Y298.852
G01 X232.154 Y297.654
G01 X231.349 Y296.493
G01 X230.544 Y295.332
G01 X229.715 Y294.208
G01 X228.859 Y293.119
G01 X228.004 Y292.031
G01 X227.122 Y290.979
G01 X226.214 Y289.962
G01 X225.306 Y288.945
G01 X224.371 Y287.963
G01 X223.408 Y287.016
G01 X222.444 Y286.068
G01 X221.454 Y285.155
G01 X220.434 Y284.275
G01 X219.414 Y283.396
G01 X218.365 Y282.550
G01 X217.287 Y281.736
G01 X216.208 Y280.922
G01 X215.100 Y280.141
G01 X213.961 Y279.392
G01 X212.821 Y278.643
G01 X211.651 Y277.926
G01 X210.449 Y277.239
G01 X209.247 Y276.552
G01 X208.014 Y275.897
G01 X206.747 Y275.271
G01 X205.480 Y274.645
G01 X204.181 Y274.050
G01 X202.847 Y273.483
G01 X201.514 Y272.917
G01 X200.147 Y272.380
G01 X198.744 Y271.871
G01 X197.342 Y271.362
G01 X195.905 Y270.881
G01 X194.433 Y270.428
G01 X192.960 Y269.975
G01 X191.451 Y269.549
G01 X189.906 Y269.150
G01 X188.360 Y268.751
G01 X186.778 Y268.379
G01 X185.158 Y268.032
G01 X183.537 Y267.685
G01 X181.879 Y267.364
G01 X180.183 Y267.068
G01 X178.486 Y266.772
G01 X176.750 Y266.501
G01 X174.975 Y266.253
G01 X173.199 Y266.006
G01 X171.384 Y265.783
G01 X169.528 Y265.583
G01 X167.672 Y265.383
G01 X165.775 Y265.206
G01 X163.836 Y265.051
G01 X161.897 Y264.897
G01 X159.916 Y264.765
G01 X157.893 Y264.654
G01 X155.870 Y264.543
G01 X153.804 Y264.454
G01 X151.693 Y264.385
G01 X149.583 Y264.316
G01 X147.429 Y264.268
G01 X145.231 Y264.239
G01 X143.032 Y264.211
G01 X140.789 Y264.202
G01 X138.499 Y264.212
G01 X136.210 Y264.222
G01 X133.875 Y264.251
G01 X131.493 Y264.298
G01 X129.111 Y264.345
G01 X126.683 Y264.410
G01 X124.206 Y264.492
G01 X122.968 Y264.534
G01 X121.718 Y264.579
G01 X120.455 Y264.628
G01 X119.193 Y264.678
G01 X117.919 Y264.732
G01 X116.632 Y264.789
G01 X115.346 Y264.847
G01 X114.047 Y264.909
G01 X112.736 Y264.975
G01 X111.425 Y265.041
G01 X110.102 Y265.111
G01 X108.766 Y265.184
G01 X107.430 Y265.258
G01 X106.082 Y265.335
G01 X104.721 Y265.417
G01 X103.360 Y265.498
G01 X101.987 Y265.583
G01 X100.600 Y265.672
G01 X99.214 Y265.760
G01 X97.816 Y265.853
G01 X96.404 Y265.948
G01 X94.992 Y266.044
G01 X93.568 Y266.144
G01 X92.131 Y266.247
G01 X90.693 Y266.349
G01 X89.243 Y266.456
G01 X87.780 Y266.565
G01 X86.316 Y266.675
G01 X84.839 Y266.788
G01 X83.350 Y266.904
G01 X81.860 Y267.020
G01 X80.357 Y267.139
G01 X78.841 Y267.261
G01 X77.325 Y267.384
G01 X75.796 Y267.509
G01 X74.253 Y267.638
G01 X72.710 Y267.766
G01 X71.153 Y267.898
G01 X69.583 Y268.032
G01 X68.014 Y268.167
G01 X66.430 Y268.304
G01 X63.236 Y268.584
G01 X61.625 Y268.727
G01 X58.375 Y269.018
G01 X56.737 Y269.166
G01 X53.432 Y269.468
G01 X51.765 Y269.621
G01 X48.405 Y269.933
G01 X46.710 Y270.091
G01 X43.292 Y270.412
G01 X41.570 Y270.575
G01 X38.095 Y270.906
G01 X36.344 Y271.073
G01 X32.812 Y271.413
G01 X31.031 Y271.585
G01 X27.441 Y271.932
G01 X25.632 Y272.108
G01 X21.983 Y272.463
G01 X16.437 Y273.006
G01 X10.801 Y273.559
G01 X5.076 Y274.123
G01 X14.568 Y273.186
G01 X20.144 Y272.635
G01 X21.982 Y272.452
G01 X25.630 Y272.089
G01 X27.439 Y271.908
G01 X31.028 Y271.549
G01 X32.808 Y271.370
G01 X36.338 Y271.014
G01 X38.088 Y270.836
G01 X41.560 Y270.483
G01 X43.282 Y270.306
G01 X46.696 Y269.955
G01 X48.389 Y269.779
G01 X51.747 Y269.429
G01 X53.411 Y269.255
G01 X56.711 Y268.906
G01 X58.347 Y268.731
G01 X61.591 Y268.383
G01 X63.199 Y268.209
G01 X66.386 Y267.860
G01 X67.966 Y267.686
G01 X69.532 Y267.512
G01 X71.098 Y267.337
G01 X72.650 Y267.163
G01 X74.189 Y266.988
G01 X75.727 Y266.813
G01 X77.252 Y266.637
G01 X78.762 Y266.462
G01 X80.273 Y266.286
G01 X81.771 Y266.110
G01 X83.254 Y265.933
G01 X84.738 Y265.756
G01 X86.208 Y265.579
G01 X87.665 Y265.401
G01 X89.121 Y265.223
G01 X90.565 Y265.044
G01 X91.994 Y264.864
G01 X93.424 Y264.685
G01 X94.841 Y264.504
G01 X96.244 Y264.323
G01 X97.647 Y264.142
G01 X99.037 Y263.959
G01 X100.414 Y263.776
G01 X101.790 Y263.592
G01 X103.154 Y263.408
G01 X104.505 Y263.222
G01 X105.855 Y263.036
G01 X107.193 Y262.849
G01 X108.517 Y262.661
G01 X109.842 Y262.473
G01 X111.153 Y262.283
G01 X112.452 Y262.092
G01 X113.751 Y261.900
G01 X115.037 Y261.708
G01 X116.310 Y261.513
G01 X117.583 Y261.319
G01 X118.843 Y261.123
G01 X120.091 Y260.926
G01 X121.338 Y260.728
G01 X122.573 Y260.528
G01 X123.796 Y260.327
G01 X126.241 Y259.925
G01 X128.635 Y259.515
G01 X130.981 Y259.096
G01 X133.326 Y258.677
G01 X135.622 Y258.250
G01 X137.869 Y257.814
G01 X140.116 Y257.377
G01 X142.315 Y256.931
G01 X144.466 Y256.474
G01 X146.617 Y256.017
G01 X148.720 Y255.549
G01 X150.776 Y255.070
G01 X152.832 Y254.591
G01 X154.841 Y254.100
G01 X156.804 Y253.597
G01 X158.767 Y253.094
G01 X160.684 Y252.577
G01 X162.555 Y252.048
G01 X164.426 Y251.518
G01 X166.252 Y250.974
G01 X168.034 Y250.416
G01 X169.815 Y249.858
G01 X171.552 Y249.284
G01 X173.245 Y248.696
G01 X174.939 Y248.107
G01 X176.588 Y247.502
G01 X178.194 Y246.881
G01 X179.801 Y246.259
G01 X181.364 Y245.621
G01 X182.886 Y244.965
G01 X184.407 Y244.309
G01 X185.886 Y243.635
G01 X187.324 Y242.942
G01 X188.762 Y242.249
G01 X190.159 Y241.537
G01 X191.515 Y240.805
G01 X192.871 Y240.073
G01 X194.187 Y239.322
G01 X195.462 Y238.549
G01 X196.738 Y237.776
G01 X197.975 Y236.983
G01 X199.172 Y236.167
G01 X200.369 Y235.351
G01 X201.528 Y234.514
G01 X202.648 Y233.653
G01 X203.768 Y232.792
G01 X204.850 Y231.908
G01 X205.895 Y231.000
G01 X206.940 Y230.092
G01 X207.948 Y229.161
G01 X208.919 Y228.203
G01 X209.890 Y227.246
G01 X210.825 Y226.264
G01 X211.724 Y225.256
G01 X212.623 Y224.247
G01 X213.487 Y223.213
G01 X214.315 Y222.151
G01 X215.144 Y221.090
G01 X215.937 Y220.001
G01 X216.697 Y218.883
G01 X217.457 Y217.766
G01 X218.182 Y216.621
G01 X218.875 Y215.446
G01 X219.567 Y214.272
G01 X220.226 Y213.068
G01 X220.853 Y211.834
G01 X221.480 Y210.599
G01 X222.074 Y209.335
G01 X222.637 Y208.039
G01 X223.200 Y206.743
G01 X223.731 Y205.416
G01 X224.231 Y204.056
G01 X224.732 Y202.697
G01 X225.201 Y201.305
G01 X225.641 Y199.879
G01 X226.080 Y198.454
G01 X226.490 Y196.995
G01 X226.870 Y195.502
G01 X227.250 Y194.009
G01 X227.601 Y192.481
G01 X227.924 Y190.918
G01 X228.247 Y189.355
G01 X228.541 Y187.756
G01 X228.808 Y186.120
G01 X229.075 Y184.485
G01 X229.314 Y182.814
G01 X229.527 Y181.104
G01 X229.739 Y179.395
G01 X229.925 Y177.648
G01 X230.085 Y175.862
G01 X230.245 Y174.077
G01 X230.379 Y172.253
G01 X230.487 Y170.389
G01 X230.596 Y168.526
G01 X230.680 Y166.622
G01 X230.739 Y164.678
G01 X230.798 Y162.734
G01 X230.833 Y160.749
G01 X230.844 Y158.723
G01 X230.856 Y156.697
G01 X230.844 Y154.629
G01 X230.809 Y152.518
G01 X230.774 Y150.407
G01 X230.716 Y148.253
G01 X230.637 Y146.056
G01 X230.558 Y143.858
G01 X230.456 Y141.617
G01 X230.334 Y139.331
G01 X230.211 Y137.045
G01 X230.068 Y134.714
G01 X229.904 Y132.338
G01 X229.740 Y129.961
G01 X229.556 Y127.538
G01 X229.353 Y125.069
G01 X229.251 Y123.834
G01 X229.144 Y122.588
G01 X229.033 Y121.329
G01 X228.921 Y120.071
G01 X228.805 Y118.801
G01 X228.684 Y117.519
G01 X228.563 Y116.237
G01 X228.438 Y114.942
G01 X228.308 Y113.636
G01 X228.178 Y112.330
G01 X228.043 Y111.012
G01 X227.904 Y109.681
G01 X227.765 Y108.351
G01 X227.621 Y107.008
G01 X227.473 Y105.652
G01 X227.325 Y104.297
G01 X227.173 Y102.929
G01 X227.017 Y101.549
G01 X226.860 Y100.169
G01 X226.699 Y98.777
G01 X226.534 Y97.372
G01 X226.369 Y95.966
G01 X226.200 Y94.549
G01 X226.027 Y93.118
G01 X225.853 Y91.687
G01 X225.676 Y90.244
G01 X225.495 Y88.788
G01 X225.314 Y87.332
G01 X225.129 Y85.862
G01 X224.940 Y84.380
G01 X224.751 Y82.898
G01 X224.558 Y81.403
G01 X224.361 Y79.894
G01 X224.164 Y78.386
G01 X223.964 Y76.865
G01 X223.760 Y75.330
G01 X223.556 Y73.795
G01 X223.348 Y72.247
G01 X223.137 Y70.686
G01 X222.925 Y69.124
G01 X222.711 Y67.549
G01 X222.274 Y64.372
G01 X222.052 Y62.771
G01 X221.602 Y59.539
G01 X221.374 Y57.910
G01 X220.910 Y54.624
G01 X220.675 Y52.967
G01 X220.199 Y49.625
G01 X219.958 Y47.941
G01 X219.469 Y44.543
G01 X219.222 Y42.830
G01 X218.722 Y39.376
G01 X218.468 Y37.635
G01 X217.956 Y34.124
G01 X217.697 Y32.354
G01 X217.174 Y28.786
G01 X216.909 Y26.987
G01 X216.375 Y23.360
G01 X215.561 Y17.847
G01 X214.452 Y10.359
G01 X213.888 Y6.555
G01 X215.289 Y15.989
G01 X216.114 Y21.531
G01 X216.387 Y23.359
G01 X216.928 Y26.984
G01 X217.198 Y28.782
G01 X217.733 Y32.349
G01 X217.999 Y34.118
G01 X218.528 Y37.626
G01 X218.791 Y39.366
G01 X219.314 Y42.817
G01 X219.575 Y44.527
G01 X220.094 Y47.920
G01 X220.352 Y49.603
G01 X220.866 Y52.939
G01 X221.122 Y54.593
G01 X221.633 Y57.872
G01 X221.887 Y59.497
G01 X222.394 Y62.720
G01 X222.647 Y64.317
G01 X223.152 Y67.484
G01 X223.403 Y69.053
G01 X223.905 Y72.164
G01 X224.156 Y73.706
G01 X224.406 Y75.234
G01 X224.656 Y76.762
G01 X224.906 Y78.276
G01 X225.156 Y79.776
G01 X225.406 Y81.277
G01 X225.655 Y82.764
G01 X225.904 Y84.237
G01 X226.154 Y85.710
G01 X226.403 Y87.170
G01 X226.652 Y88.616
G01 X226.902 Y90.062
G01 X227.151 Y91.495
G01 X227.401 Y92.914
G01 X227.650 Y94.334
G01 X227.900 Y95.739
G01 X228.150 Y97.132
G01 X228.400 Y98.525
G01 X228.650 Y99.904
G01 X228.901 Y101.270
G01 X229.152 Y102.636
G01 X229.403 Y103.989
G01 X229.655 Y105.329
G01 X229.907 Y106.669
G01 X230.159 Y107.995
G01 X230.412 Y109.309
G01 X230.665 Y110.623
G01 X230.919 Y111.923
G01 X231.174 Y113.211
G01 X231.428 Y114.499
G01 X231.684 Y115.774
G01 X231.941 Y117.036
G01 X232.197 Y118.298
G01 X232.455 Y119.547
G01 X232.713 Y120.783
G01 X232.972 Y122.020
G01 X233.232 Y123.244
G01 X233.493 Y124.455
G01 X234.015 Y126.877
G01 X234.542 Y129.248
G01 X235.075 Y131.571
G01 X235.608 Y133.892
G01 X236.147 Y136.165
G01 X236.694 Y138.388
G01 X237.240 Y140.611
G01 X237.794 Y142.785
G01 X238.356 Y144.911
G01 X238.918 Y147.036
G01 X239.488 Y149.114
G01 X240.067 Y151.144
G01 X240.647 Y153.174
G01 X241.235 Y155.157
G01 X241.834 Y157.093
G01 X242.434 Y159.029
G01 X243.043 Y160.918
G01 X243.664 Y162.761
G01 X244.285 Y164.604
G01 X244.918 Y166.401
G01 X245.563 Y168.153
G01 X246.208 Y169.905
G01 X246.865 Y171.612
G01 X247.537 Y173.274
G01 X248.208 Y174.936
G01 X248.893 Y176.554
G01 X249.592 Y178.128
G01 X250.292 Y179.702
G01 X251.006 Y181.232
G01 X251.736 Y182.720
G01 X252.466 Y184.207
G01 X253.212 Y185.651
G01 X253.975 Y187.053
G01 X254.737 Y188.456
G01 X255.517 Y189.816
G01 X256.314 Y191.134
G01 X257.112 Y192.453
G01 X257.927 Y193.730
G01 X258.761 Y194.966
G01 X259.596 Y196.203
G01 X260.449 Y197.399
G01 X261.322 Y198.554
G01 X262.196 Y199.710
G01 X263.089 Y200.826
G01 X264.004 Y201.903
G01 X264.919 Y202.979
G01 X265.855 Y204.017
G01 X266.813 Y205.016
G01 X267.771 Y206.015
G01 X268.751 Y206.976
G01 X269.755 Y207.899
G01 X270.758 Y208.822
G01 X271.785 Y209.707
G01 X272.836 Y210.556
G01 X273.888 Y211.404
G01 X274.963 Y212.216
G01 X276.064 Y212.992
G01 X277.165 Y213.767
G01 X278.292 Y214.506
G01 X279.445 Y215.210
G01 X280.598 Y215.914
G01 X281.778 Y216.583
G01 X282.985 Y217.217
G01 X284.192 Y217.851
G01 X285.427 Y218.450
G01 X286.690 Y219.016
G01 X287.954 Y219.581
G01 X289.246 Y220.113
G01 X290.568 Y220.611
G01 X291.890 Y221.110
G01 X293.241 Y221.575
G01 X294.624 Y222.008
G01 X296.006 Y222.441
G01 X297.420 Y222.842
G01 X298.865 Y223.211
G01 X300.310 Y223.580
G01 X301.787 Y223.917
G01 X303.298 Y224.224
G01 X304.808 Y224.530
G01 X306.351 Y224.806
G01 X307.928 Y225.052
G01 X309.505 Y225.297
G01 X311.116 Y225.513
G01 X312.763 Y225.699
G01 X314.409 Y225.886
G01 X316.090 Y226.042
G01 X317.808 Y226.171
G01 X319.526 Y226.299
G01 X321.280 Y226.399
G01 X323.071 Y226.471
G01 X324.862 Y226.543
G01 X326.691 Y226.587
G01 X328.557 Y226.604
G01 X330.424 Y226.622
G01 X332.329 Y226.612
G01 X334.274 Y226.576
G01 X336.219 Y226.539
G01 X338.203 Y226.477
G01 X340.227 Y226.389
G01 X342.252 Y226.301
G01 X344.317 Y226.187
G01 X346.423 Y226.049
G01 X348.530 Y225.910
G01 X350.678 Y225.747
G01 X352.869 Y225.560
G01 X355.060 Y225.373
G01 X357.294 Y225.162
G01 X359.571 Y224.927
G01 X361.848 Y224.693
G01 X364.169 Y224.435
G01 X366.535 Y224.155
G01 X368.901 Y223.875
G01 X371.311 Y223.572
G01 X373.768 Y223.247
G01 X374.996 Y223.085
G01 X376.236 Y222.917
G01 X377.487 Y222.744
G01 X378.738 Y222.571
G01 X380.001 Y222.393
G01 X381.276 Y222.209
G01 X382.550 Y222.026
G01 X383.837 Y221.837
G01 X385.135 Y221.643
G01 X386.433 Y221.449
G01 X387.744 Y221.250
G01 X389.066 Y221.045
G01 X390.388 Y220.841
G01 X391.722 Y220.632
G01 X393.068 Y220.418
G01 X394.415 Y220.203
G01 X395.773 Y219.984
G01 X397.144 Y219.760
G01 X398.515 Y219.536
G01 X399.898 Y219.307
G01 X401.293 Y219.073
G01 X402.689 Y218.840
G01 X404.096 Y218.601
G01 X405.517 Y218.358
G01 X406.937 Y218.115
G01 X408.370 Y217.867
G01 X409.816 Y217.614
G01 X411.261 Y217.362
G01 X412.720 Y217.105
G01 X414.191 Y216.843
G01 X415.662 Y216.582
G01 X417.146 Y216.316
G01 X418.643 Y216.045
G01 X420.140 Y215.775
G01 X421.649 Y215.500
G01 X424.695 Y214.942
G01 X426.231 Y214.658
G01 X429.330 Y214.083
G01 X430.892 Y213.791
G01 X434.044 Y213.199
G01 X435.633 Y212.899
G01 X438.838 Y212.291
G01 X440.454 Y211.983
G01 X443.713 Y211.359
G01 X445.357 Y211.043
G01 X448.671 Y210.403
G01 X450.342 Y210.080
G01 X453.711 Y209.425
G01 X455.410 Y209.094
G01 X458.835 Y208.424
G01 X460.562 Y208.086
G01 X464.044 Y207.402
G01 X465.799 Y207.057
G01 X469.337 Y206.359
G01 X471.121 Y206.007
G01 X474.717 Y205.295
G01 X480.183 Y204.211
G01 X487.608 Y202.736
G01 X491.380 Y201.986
G01 X482.026 Y203.849
G01 X476.531 Y204.945
G01 X471.125 Y206.025
G01 X469.342 Y206.382
G01 X465.806 Y207.092
G01 X464.052 Y207.444
G01 X460.574 Y208.145
G01 X458.849 Y208.493
G01 X455.428 Y209.186
G01 X453.732 Y209.530
G01 X450.369 Y210.214
G01 X448.701 Y210.555
G01 X445.394 Y211.232
G01 X443.755 Y211.569
G01 X440.505 Y212.240
G01 X438.894 Y212.574
G01 X435.700 Y213.238
G01 X434.117 Y213.569
G01 X430.979 Y214.228
G01 X429.424 Y214.557
G01 X426.341 Y215.211
G01 X424.814 Y215.537
G01 X423.300 Y215.862
G01 X421.786 Y216.187
G01 X420.286 Y216.510
G01 X418.799 Y216.833
G01 X417.313 Y217.156
G01 X415.840 Y217.479
G01 X414.381 Y217.800
G01 X412.922 Y218.121
G01 X411.476 Y218.442
G01 X410.044 Y218.762
G01 X408.612 Y219.082
G01 X407.193 Y219.401
G01 X405.788 Y219.720
G01 X404.382 Y220.039
G01 X402.990 Y220.357
G01 X401.612 Y220.675
G01 X400.233 Y220.993
G01 X398.868 Y221.311
G01 X397.516 Y221.628
G01 X396.164 Y221.946
G01 X394.825 Y222.263
G01 X393.499 Y222.581
G01 X392.173 Y222.898
G01 X390.860 Y223.215
G01 X389.560 Y223.532
G01 X388.261 Y223.850
G01 X386.974 Y224.167
G01 X385.701 Y224.485
G01 X384.427 Y224.802
G01 X383.166 Y225.120
G01 X381.918 Y225.438
G01 X380.670 Y225.756
G01 X379.435 Y226.075
G01 X378.213 Y226.394
G01 X376.990 Y226.713
G01 X375.781 Y227.032
G01 X374.584 Y227.352
G01 X372.190 Y227.993
G01 X369.847 Y228.635
G01 X367.555 Y229.282
G01 X365.262 Y229.928
G01 X363.019 Y230.578
G01 X360.825 Y231.233
G01 X358.631 Y231.888
G01 X356.487 Y232.548
G01 X354.391 Y233.213
G01 X352.295 Y233.879
G01 X350.248 Y234.550
G01 X348.249 Y235.228
G01 X346.250 Y235.907
G01 X344.299 Y236.592
G01 X342.395 Y237.286
G01 X340.491 Y237.979
G01 X338.634 Y238.680
G01 X336.823 Y239.391
G01 X335.013 Y240.102
G01 X333.249 Y240.822
G01 X331.530 Y241.552
G01 X329.812 Y242.282
G01 X328.140 Y243.023
G01 X326.513 Y243.775
G01 X324.886 Y244.527
G01 X323.303 Y245.290
G01 X321.766 Y246.066
G01 X320.228 Y246.842
G01 X318.734 Y247.631
G01 X317.285 Y248.433
G01 X315.835 Y249.235
G01 X314.429 Y250.051
G01 X313.066 Y250.881
G01 X311.703 Y251.712
G01 X310.383 Y252.557
G01 X309.105 Y253.418
G01 X307.827 Y254.279
G01 X306.591 Y255.156
G01 X305.397 Y256.050
G01 X304.203 Y256.944
G01 X303.051 Y257.855
G01 X301.939 Y258.784
G01 X300.828 Y259.714
G01 X299.757 Y260.661
G01 X298.726 Y261.627
G01 X297.696 Y262.594
G01 X296.706 Y263.579
G01 X295.755 Y264.585
G01 X294.804 Y265.591
G01 X293.892 Y266.617
G01 X293.020 Y267.665
G01 X292.147 Y268.713
G01 X291.313 Y269.782
G01 X290.517 Y270.873
G01 X289.721 Y271.965
G01 X288.963 Y273.079
G01 X288.243 Y274.217
G01 X287.522 Y275.355
G01 X286.839 Y276.516
G01 X286.192 Y277.702
G01 X285.546 Y278.889
G01 X284.936 Y280.100
G01 X284.362 Y281.337
G01 X283.788 Y282.573
G01 X283.250 Y283.836
G01 X282.747 Y285.126
G01 X282.245 Y286.415
G01 X281.777 Y287.732
G01 X281.344 Y289.077
G01 X280.911 Y290.422
G01 X280.513 Y291.795
G01 X280.148 Y293.197
G01 X279.783 Y294.599
G01 X279.453 Y296.030
G01 X279.155 Y297.492
G01 X278.857 Y298.953
G01 X278.593 Y300.445
G01 X278.361 Y301.969
G01 X278.128 Y303.492
G01 X277.929 Y305.047
G01 X277.761 Y306.634
G01 X277.593 Y308.221
G01 X277.456 Y309.841
G01 X277.351 Y311.495
G01 X277.246 Y313.148
G01 X277.172 Y314.835
G01 X277.128 Y316.557
G01 X277.084 Y318.279
G01 X277.070 Y320.036
G01 X277.086 Y321.828
G01 X277.102 Y323.621
G01 X277.148 Y325.449
G01 X277.222 Y327.315
G01 X277.296 Y329.180
G01 X277.400 Y331.083
G01 X277.531 Y333.023
G01 X277.663 Y334.964
G01 X277.823 Y336.942
G01 X278.010 Y338.960
G01 X278.197 Y340.978
G01 X278.412 Y343.035
G01 X278.654 Y345.132
G01 X278.895 Y347.229
G01 X279.164 Y349.367
G01 X279.458 Y351.546
G01 X279.752 Y353.725
G01 X280.073 Y355.946
G01 X280.419 Y358.208
G01 X280.765 Y360.471
G01 X281.136 Y362.777
G01 X281.532 Y365.126
G01 X281.928 Y367.476
G01 X282.349 Y369.868
G01 X282.793 Y372.306
G01 X283.016 Y373.525
G01 X283.244 Y374.755
G01 X283.478 Y375.996
G01 X283.713 Y377.237
G01 X283.953 Y378.490
G01 X284.199 Y379.754
G01 X284.445 Y381.018
G01 X284.696 Y382.294
G01 X284.954 Y383.581
G01 X285.211 Y384.868
G01 X285.475 Y386.167
G01 X285.743 Y387.477
G01 X286.012 Y388.788
G01 X286.287 Y390.110
G01 X286.567 Y391.444
G01 X286.847 Y392.779
G01 X287.133 Y394.125
G01 X287.424 Y395.483
G01 X287.715 Y396.841
G01 X288.011 Y398.211
G01 X288.313 Y399.593
G01 X288.615 Y400.976
G01 X288.922 Y402.370
G01 X289.235 Y403.777
G01 X289.548 Y405.184
G01 X289.865 Y406.603
G01 X290.189 Y408.034
G01 X290.512 Y409.466
G01 X290.840 Y410.910
G01 X291.173 Y412.366
G01 X291.507 Y413.823
G01 X291.845 Y415.292
G01 X292.189 Y416.773
G01 X292.532 Y418.255
G01 X292.881 Y419.750
G01 X293.234 Y421.257
G01 X293.588 Y422.765
G01 X293.946 Y424.285
G01 X294.673 Y427.351
G01 X295.041 Y428.897
G01 X295.787 Y432.016
G01 X296.165 Y433.588
G01 X296.930 Y436.760
G01 X297.317 Y438.359
G01 X298.100 Y441.584
G01 X298.496 Y443.210
G01 X299.298 Y446.489
G01 X299.703 Y448.142
G01 X300.522 Y451.475
G01 X300.936 Y453.155
G01 X301.773 Y456.544
G01 X302.195 Y458.252
G01 X303.049 Y461.696
G01 X303.480 Y463.432
G01 X304.351 Y466.932
G01 X304.790 Y468.696
G01 X305.677 Y472.253
G01 X307.028 Y477.659
G01 X308.866 Y485.003
G01 X309.800 Y488.733
G01 X307.481 Y479.482
G01 X306.117 Y474.047
G01 X305.666 Y472.255
G01 X304.772 Y468.700
G01 X304.328 Y466.937
G01 X303.446 Y463.440
G01 X303.007 Y461.706
G01 X302.137 Y458.266
G01 X301.705 Y456.561
G01 X300.845 Y453.178
G01 X300.418 Y451.501
G01 X299.570 Y448.175
G01 X299.148 Y446.526
G01 X298.309 Y443.257
G01 X297.892 Y441.636
G01 X297.062 Y438.423
G01 X296.650 Y436.830
G01 X295.829 Y433.672
G01 X295.421 Y432.108
G01 X294.609 Y429.006
G01 X294.205 Y427.469
G01 X293.400 Y424.422
G01 X292.999 Y422.912
G01 X292.601 Y421.416
G01 X292.202 Y419.920
G01 X291.805 Y418.437
G01 X291.409 Y416.969
G01 X291.014 Y415.500
G01 X290.620 Y414.045
G01 X290.227 Y412.603
G01 X289.835 Y411.161
G01 X289.443 Y409.733
G01 X289.054 Y408.318
G01 X288.664 Y406.904
G01 X288.275 Y405.502
G01 X287.888 Y404.114
G01 X287.500 Y402.726
G01 X287.114 Y401.352
G01 X286.729 Y399.990
G01 X286.343 Y398.629
G01 X285.959 Y397.281
G01 X285.576 Y395.946
G01 X285.192 Y394.611
G01 X284.810 Y393.289
G01 X284.428 Y391.980
G01 X284.046 Y390.672
G01 X283.664 Y389.376
G01 X283.284 Y388.094
G01 X282.903 Y386.811
G01 X282.523 Y385.542
G01 X282.143 Y384.285
G01 X281.764 Y383.028
G01 X281.384 Y381.785
G01 X281.005 Y380.554
G01 X280.626 Y379.323
G01 X280.248 Y378.105
G01 X279.869 Y376.900
G01 X279.490 Y375.695
G01 X279.112 Y374.502
G01 X278.733 Y373.323
G01 X277.976 Y370.963
G01 X277.219 Y368.655
G01 X276.461 Y366.396
G01 X275.703 Y364.138
G01 X274.944 Y361.930
G01 X274.182 Y359.771
G01 X273.420 Y357.612
G01 X272.656 Y355.503
G01 X271.889 Y353.442
G01 X271.121 Y351.381
G01 X270.350 Y349.370
G01 X269.575 Y347.406
G01 X268.799 Y345.443
G01 X268.019 Y343.527
G01 X267.233 Y341.659
G01 X266.447 Y339.792
G01 X265.655 Y337.971
G01 X264.856 Y336.198
G01 X264.058 Y334.425
G01 X263.252 Y332.698
G01 X262.438 Y331.018
G01 X261.625 Y329.338
G01 X260.803 Y327.704
G01 X259.972 Y326.115
G01 X259.141 Y324.527
G01 X258.301 Y322.984
G01 X257.451 Y321.486
G01 X256.600 Y319.988
G01 X255.739 Y318.535
G01 X254.867 Y317.127
G01 X253.995 Y315.718
G01 X253.111 Y314.354
G01 X252.214 Y313.033
G01 X251.318 Y311.712
G01 X250.409 Y310.435
G01 X249.486 Y309.201
G01 X248.563 Y307.967
G01 X247.627 Y306.776
G01 X246.675 Y305.627
G01 X245.724 Y304.479
G01 X244.757 Y303.372
G01 X243.775 Y302.308
G01 X242.792 Y301.243
G01 X241.794 Y300.220
G01 X240.778 Y299.238
G01 X239.762 Y298.256
G01 X238.729 Y297.316
G01 X237.678 Y296.415
G01 X236.626 Y295.515
G01 X235.556 Y294.655
G01 X234.467 Y293.835
G01 X233.378 Y293.014
G01 X232.269 Y292.234
G01 X231.140 Y291.492
G01 X230.010 Y290.751
G01 X228.861 Y290.049
G01 X227.689 Y289.385
G01 X226.517 Y288.721
G01 X225.323 Y288.096
G01 X224.107 Y287.508
G01 X222.890 Y286.921
G01 X221.651 Y286.371
G01 X220.387 Y285.858
G01 X219.124 Y285.346
G01 X217.836 Y284.870
G01 X216.523 Y284.431
G01 X215.211 Y283.993
G01 X213.873 Y283.590
G01 X212.508 Y283.224
G01 X211.144 Y282.857
G01 X209.753 Y282.527
G01 X208.335 Y282.231
G01 X206.916 Y281.936
G01 X205.471 Y281.676
G01 X203.996 Y281.450
G01 X202.522 Y281.224
G01 X201.018 Y281.033
G01 X199.486 Y280.876
G01 X197.953 Y280.719
G01 X196.390 Y280.596
G01 X194.796 Y280.506
G01 X193.203 Y280.416
G01 X191.578 Y280.359
G01 X189.921 Y280.336
G01 X188.265 Y280.311
G01 X186.576 Y280.320
G01 X184.854 Y280.361
G01 X183.132 Y280.401
G01 X181.377 Y280.474
G01 X179.587 Y280.578
G01 X177.798 Y280.682
G01 X175.974 Y280.817
G01 X174.114 Y280.983
G01 X172.254 Y281.149
G01 X170.360 Y281.345
G01 X168.428 Y281.572
G01 X166.496 Y281.799
G01 X164.528 Y282.055
G01 X162.522 Y282.341
G01 X160.515 Y282.627
G01 X158.472 Y282.943
G01 X156.389 Y283.287
G01 X154.306 Y283.631
G01 X152.184 Y284.004
G01 X150.022 Y284.405
G01 X147.860 Y284.806
G01 X145.658 Y285.235
G01 X143.414 Y285.692
G01 X141.171 Y286.148
G01 X138.887 Y286.632
G01 X136.560 Y287.143
G01 X134.233 Y287.654
G01 X131.863 Y288.191
G01 X129.450 Y288.755
G01 X128.244 Y289.037
G01 X127.027 Y289.325
G01 X125.798 Y289.620
G01 X124.570 Y289.915
G01 X123.331 Y290.216
G01 X122.080 Y290.524
G01 X120.830 Y290.832
G01 X119.568 Y291.146
G01 X118.295 Y291.466
G01 X117.022 Y291.787
G01 X115.738 Y292.113
G01 X114.442 Y292.446
G01 X113.146 Y292.779
G01 X111.839 Y293.118
G01 X110.520 Y293.463
G01 X109.201 Y293.808
G01 X107.871 Y294.160
G01 X106.529 Y294.517
G01 X105.186 Y294.874
G01 X103.833 Y295.238
G01 X102.467 Y295.607
G01 X101.101 Y295.977
G01 X99.723 Y296.352
G01 X98.333 Y296.733
G01 X96.944 Y297.114
G01 X95.542 Y297.502
G01 X94.128 Y297.894
G01 X92.714 Y298.287
G01 X91.288 Y298.686
G01 X89.850 Y299.091
G01 X88.411 Y299.495
G01 X86.961 Y299.905
G01 X85.498 Y300.321
G01 X84.034 Y300.737
G01 X82.559 Y301.158
G01 X79.582 Y302.013
G01 X78.082 Y302.445
G01 X75.054 Y303.321
G01 X73.528 Y303.765
G01 X70.450 Y304.663
G01 X68.898 Y305.117
G01 X65.767 Y306.037
G01 X64.189 Y306.502
G01 X61.007 Y307.442
G01 X59.402 Y307.918
G01 X56.167 Y308.879
G01 X54.536 Y309.365
G01 X51.247 Y310.347
G01 X49.589 Y310.843
G01 X46.246 Y311.845
G01 X44.560 Y312.351
G01 X41.162 Y313.373
G01 X39.450 Y313.888
G01 X35.996 Y314.930
G01 X34.256 Y315.455
G01 X30.747 Y316.516
G01 X25.413 Y318.130
G01 X18.168 Y320.326
G01 X14.488 Y321.442
G01 X19.994 Y319.771
G01 X25.412 Y318.126
G01 X28.976 Y317.042
G01 X34.250 Y315.437
G01 X35.989 Y314.907
G01 X39.439 Y313.854
G01 X41.150 Y313.331
G01 X44.543 Y312.293
G01 X46.225 Y311.778
G01 X49.562 Y310.754
G01 X51.216 Y310.245
G01 X54.496 Y309.234
G01 X56.122 Y308.732
G01 X59.346 Y307.733
G01 X60.945 Y307.237
G01 X64.113 Y306.251
G01 X65.684 Y305.761
G01 X68.797 Y304.786
G01 X70.340 Y304.302
G01 X73.399 Y303.338
G01 X74.914 Y302.859
G01 X77.918 Y301.906
G01 X79.406 Y301.432
G01 X82.356 Y300.488
G01 X83.817 Y300.019
G01 X85.264 Y299.552
G01 X86.712 Y299.085
G01 X88.146 Y298.620
G01 X89.567 Y298.157
G01 X90.987 Y297.694
G01 X92.395 Y297.234
G01 X93.789 Y296.775
G01 X95.182 Y296.316
G01 X96.563 Y295.859
G01 X97.930 Y295.404
G01 X99.298 Y294.949
G01 X100.652 Y294.496
G01 X101.993 Y294.044
G01 X103.333 Y293.592
G01 X104.661 Y293.142
G01 X105.976 Y292.694
G01 X107.290 Y292.246
G01 X108.591 Y291.798
G01 X109.880 Y291.353
G01 X111.168 Y290.907
G01 X112.443 Y290.463
G01 X113.706 Y290.019
G01 X114.968 Y289.576
G01 X116.217 Y289.134
G01 X117.454 Y288.694
G01 X118.690 Y288.253
G01 X119.914 Y287.813
G01 X121.125 Y287.374
G01 X122.335 Y286.935
G01 X123.533 Y286.497
G01 X124.718 Y286.060
G01 X125.904 Y285.622
G01 X127.076 Y285.186
G01 X128.236 Y284.750
G01 X130.555 Y283.878
G01 X132.824 Y283.009
G01 X135.042 Y282.141
G01 X137.261 Y281.273
G01 X139.429 Y280.406
G01 X141.548 Y279.539
G01 X143.667 Y278.672
G01 X145.736 Y277.806
G01 X147.757 Y276.938
G01 X149.777 Y276.070
G01 X151.749 Y275.202
G01 X153.672 Y274.331
G01 X155.595 Y273.459
G01 X157.469 Y272.586
G01 X159.297 Y271.710
G01 X161.123 Y270.833
G01 X162.903 Y269.953
G01 X164.635 Y269.068
G01 X166.367 Y268.183
G01 X168.052 Y267.294
G01 X169.690 Y266.399
G01 X171.328 Y265.504
G01 X172.920 Y264.603
G01 X174.466 Y263.695
G01 X176.012 Y262.787
G01 X177.511 Y261.872
G01 X178.966 Y260.949
G01 X180.420 Y260.026
G01 X181.829 Y259.095
G01 X183.193 Y258.155
G01 X184.557 Y257.214
G01 X185.877 Y256.265
G01 X187.151 Y255.305
G01 X188.427 Y254.345
G01 X189.657 Y253.374
G01 X190.845 Y252.392
G01 X192.032 Y251.409
G01 X193.176 Y250.415
G01 X194.276 Y249.409
G01 X195.377 Y248.402
G01 X196.435 Y247.382
G01 X197.450 Y246.349
G01 X198.465 Y245.315
G01 X199.438 Y244.268
G01 X200.369 Y243.205
G01 X201.299 Y242.142
G01 X202.188 Y241.064
G01 X203.036 Y239.970
G01 X203.884 Y238.876
G01 X204.690 Y237.765
G01 X205.456 Y236.637
G01 X206.222 Y235.509
G01 X206.947 Y234.363
G01 X207.632 Y233.199
G01 X208.317 Y232.034
G01 X208.962 Y230.851
G01 X209.568 Y229.648
G01 X210.173 Y228.445
G01 X210.739 Y227.222
G01 X211.267 Y225.979
G01 X211.794 Y224.735
G01 X212.282 Y223.470
G01 X212.732 Y222.182
G01 X213.182 Y220.895
G01 X213.593 Y219.586
G01 X213.967 Y218.253
G01 X214.341 Y216.920
G01 X214.678 Y215.564
G01 X214.977 Y214.183
G01 X215.276 Y212.803
G01 X215.538 Y211.397
G01 X215.763 Y209.966
G01 X215.989 Y208.535
G01 X216.178 Y207.078
G01 X216.330 Y205.595
G01 X216.483 Y204.111
G01 X216.600 Y202.600
G01 X216.682 Y201.061
G01 X216.764 Y199.523
G01 X216.810 Y197.956
G01 X216.822 Y196.360
G01 X216.834 Y194.764
G01 X216.810 Y193.138
G01 X216.753 Y191.482
G01 X216.696 Y189.826
G01 X216.604 Y188.140
G01 X216.479 Y186.422
G01 X216.354 Y184.704
G01 X216.196 Y182.955
G01 X216.004 Y181.172
G01 X215.812 Y179.390
G01 X215.588 Y177.575
G01 X215.331 Y175.726
G01 X215.074 Y173.877
G01 X214.785 Y171.994
G01 X214.463 Y170.075
G01 X214.142 Y168.157
G01 X213.789 Y166.204
G01 X213.405 Y164.214
G01 X213.021 Y162.224
G01 X212.606 Y160.198
G01 X212.160 Y158.135
G01 X211.714 Y156.071
G01 X211.237 Y153.970
G01 X210.731 Y151.830
G01 X210.224 Y149.691
G01 X209.687 Y147.512
G01 X209.121 Y145.294
G01 X208.555 Y143.076
G01 X207.960 Y140.818
G01 X207.335 Y138.519
G01 X206.711 Y136.220
G01 X206.058 Y133.880
G01 X205.376 Y131.497
G01 X205.036 Y130.306
G01 X204.688 Y129.105
G01 X204.333 Y127.892
G01 X203.978 Y126.680
G01 X203.617 Y125.457
G01 X203.248 Y124.223
G01 X202.879 Y122.989
G01 X202.504 Y121.744
G01 X202.121 Y120.488
G01 X201.739 Y119.232
G01 X201.350 Y117.966
G01 X200.954 Y116.688
G01 X200.557 Y115.410
G01 X200.155 Y114.121
G01 X199.745 Y112.821
G01 X199.336 Y111.520
G01 X198.920 Y110.209
G01 X198.497 Y108.886
G01 X198.074 Y107.563
G01 X197.645 Y106.228
G01 X197.209 Y104.882
G01 X196.773 Y103.536
G01 X196.330 Y102.179
G01 X195.881 Y100.809
G01 X195.432 Y99.440
G01 X194.977 Y98.059
G01 X194.515 Y96.666
G01 X194.053 Y95.273
G01 X193.585 Y93.868
G01 X193.110 Y92.452
G01 X192.636 Y91.035
G01 X192.155 Y89.606
G01 X191.181 Y86.724
G01 X190.687 Y85.271
G01 X189.688 Y82.340
G01 X189.182 Y80.862
G01 X188.670 Y79.372
G01 X188.158 Y77.882
G01 X187.641 Y76.379
G01 X186.593 Y73.348
G01 X186.063 Y71.820
G01 X184.991 Y68.739
G01 X184.449 Y67.186
G01 X183.353 Y64.053
G01 X182.800 Y62.474
G01 X181.681 Y59.289
G01 X181.115 Y57.684
G01 X179.973 Y54.447
G01 X179.397 Y52.815
G01 X178.232 Y49.525
G01 X177.644 Y47.867
G01 X176.457 Y44.523
G01 X175.857 Y42.838
G01 X174.648 Y39.440
G01 X172.806 Y34.275
G01 X170.932 Y29.026
G01 X168.384 Y21.898
G01 X167.736 Y20.088
G01 X170.936 Y29.025
G01 X172.817 Y34.271
G01 X174.055 Y37.721
G01 X175.891 Y42.826
G01 X176.497 Y44.509
G01 X177.700 Y47.847
G01 X178.298 Y49.502
G01 X179.484 Y52.784
G01 X180.074 Y54.411
G01 X181.245 Y57.638
G01 X181.826 Y59.237
G01 X182.981 Y62.409
G01 X183.555 Y63.981
G01 X184.696 Y67.097
G01 X185.262 Y68.642
G01 X186.388 Y71.704
G01 X186.948 Y73.221
G01 X188.060 Y76.229
G01 X188.613 Y77.719
G01 X189.713 Y80.672
G01 X190.259 Y82.135
G01 X190.803 Y83.585
G01 X191.346 Y85.035
G01 X191.887 Y86.471
G01 X192.424 Y87.894
G01 X192.962 Y89.317
G01 X193.497 Y90.727
G01 X194.029 Y92.123
G01 X194.561 Y93.519
G01 X195.090 Y94.902
G01 X195.616 Y96.272
G01 X196.143 Y97.642
G01 X196.667 Y98.998
G01 X197.189 Y100.341
G01 X197.710 Y101.685
G01 X198.230 Y103.015
G01 X198.746 Y104.332
G01 X199.263 Y105.649
G01 X199.778 Y106.953
G01 X200.290 Y108.244
G01 X200.803 Y109.535
G01 X201.313 Y110.813
G01 X201.822 Y112.078
G01 X202.330 Y113.343
G01 X202.836 Y114.595
G01 X203.341 Y115.834
G01 X203.846 Y117.073
G01 X204.348 Y118.299
G01 X204.849 Y119.512
G01 X205.350 Y120.726
G01 X205.850 Y121.926
G01 X206.347 Y123.114
G01 X206.845 Y124.301
G01 X207.342 Y125.476
G01 X207.837 Y126.639
G01 X208.331 Y127.801
G01 X208.825 Y128.951
G01 X209.317 Y130.087
G01 X210.302 Y132.361
G01 X211.281 Y134.585
G01 X212.257 Y136.758
G01 X213.233 Y138.931
G01 X214.205 Y141.054
G01 X215.175 Y143.128
G01 X216.145 Y145.202
G01 X217.112 Y147.226
G01 X218.077 Y149.202
G01 X219.043 Y151.177
G01 X220.008 Y153.104
G01 X220.972 Y154.982
G01 X221.937 Y156.860
G01 X222.901 Y158.689
G01 X223.866 Y160.471
G01 X224.831 Y162.253
G01 X225.798 Y163.987
G01 X226.766 Y165.673
G01 X227.735 Y167.360
G01 X228.706 Y168.999
G01 X229.680 Y170.592
G01 X230.655 Y172.184
G01 X231.633 Y173.729
G01 X232.615 Y175.229
G01 X233.598 Y176.728
G01 X234.585 Y178.181
G01 X235.578 Y179.588
G01 X236.572 Y180.996
G01 X237.571 Y182.357
G01 X238.577 Y183.674
G01 X239.583 Y184.990
G01 X240.596 Y186.261
G01 X241.618 Y187.488
G01 X242.639 Y188.714
G01 X243.669 Y189.896
G01 X244.709 Y191.033
G01 X245.748 Y192.171
G01 X246.797 Y193.265
G01 X247.856 Y194.314
G01 X248.916 Y195.365
G01 X249.986 Y196.371
G01 X251.068 Y197.334
G01 X252.151 Y198.297
G01 X253.245 Y199.217
G01 X254.352 Y200.095
G01 X255.459 Y200.972
G01 X256.579 Y201.808
G01 X257.714 Y202.601
G01 X258.848 Y203.393
G01 X259.997 Y204.145
G01 X261.161 Y204.854
G01 X262.326 Y205.564
G01 X263.506 Y206.232
G01 X264.702 Y206.859
G01 X265.899 Y207.486
G01 X267.112 Y208.072
G01 X268.343 Y208.618
G01 X269.575 Y209.164
G01 X270.824 Y209.669
G01 X272.092 Y210.135
G01 X273.360 Y210.600
G01 X274.648 Y211.026
G01 X275.955 Y211.412
G01 X277.263 Y211.798
G01 X278.591 Y212.145
G01 X279.941 Y212.453
G01 X281.290 Y212.761
G01 X282.661 Y213.030
G01 X284.055 Y213.261
G01 X285.449 Y213.492
G01 X286.865 Y213.685
G01 X288.306 Y213.840
G01 X289.746 Y213.995
G01 X291.210 Y214.112
G01 X292.700 Y214.192
G01 X294.189 Y214.272
G01 X295.704 Y214.315
G01 X297.245 Y214.321
G01 X298.786 Y214.327
G01 X300.353 Y214.297
G01 X301.948 Y214.230
G01 X303.542 Y214.163
G01 X305.165 Y214.060
G01 X306.816 Y213.922
G01 X308.467 Y213.783
G01 X310.147 Y213.609
G01 X311.856 Y213.400
G01 X313.566 Y213.191
G01 X315.306 Y212.947
G01 X317.077 Y212.668
G01 X318.847 Y212.389
G01 X320.649 Y212.076
G01 X322.484 Y211.728
G01 X324.318 Y211.381
G01 X326.185 Y210.999
G01 X328.085 Y210.585
G01 X329.985 Y210.170
G01 X331.919 Y209.721
G01 X333.887 Y209.240
G01 X335.856 Y208.759
G01 X337.859 Y208.245
G01 X339.898 Y207.698
G01 X341.937 Y207.151
G01 X344.012 Y206.572
G01 X346.125 Y205.961
G01 X348.237 Y205.350
G01 X350.386 Y204.707
G01 X352.574 Y204.033
G01 X354.762 Y203.359
G01 X356.988 Y202.653
G01 X359.253 Y201.917
G01 X361.519 Y201.180
G01 X363.824 Y200.413
G01 X366.170 Y199.616
G01 X367.343 Y199.217
G01 X368.526 Y198.811
G01 X369.720 Y198.397
G01 X370.914 Y197.983
G01 X372.117 Y197.561
G01 X373.332 Y197.133
G01 X374.546 Y196.704
G01 X375.771 Y196.268
G01 X377.006 Y195.824
G01 X378.242 Y195.381
G01 X379.488 Y194.930
G01 X380.745 Y194.471
G01 X382.002 Y194.013
G01 X383.270 Y193.548
G01 X384.548 Y193.075
G01 X385.827 Y192.602
G01 X387.117 Y192.122
G01 X388.417 Y191.635
G01 X389.718 Y191.148
G01 X391.030 Y190.653
G01 X392.353 Y190.152
G01 X393.676 Y189.650
G01 X395.010 Y189.142
G01 X396.356 Y188.626
G01 X397.701 Y188.110
G01 X399.058 Y187.588
G01 X400.427 Y187.058
G01 X401.795 Y186.528
G01 X403.175 Y185.992
G01 X404.567 Y185.448
G01 X405.959 Y184.905
G01 X407.363 Y184.354
G01 X410.193 Y183.240
G01 X411.620 Y182.676
G01 X414.499 Y181.534
G01 X415.950 Y180.956
G01 X417.413 Y180.372
G01 X418.877 Y179.788
G01 X420.352 Y179.197
G01 X423.328 Y178.001
G01 X424.828 Y177.397
G01 X427.853 Y176.175
G01 X429.378 Y175.558
G01 X432.453 Y174.310
G01 X434.003 Y173.679
G01 X437.129 Y172.405
G01 X438.704 Y171.762
G01 X441.881 Y170.462
G01 X443.483 Y169.806
G01 X446.712 Y168.482
G01 X448.339 Y167.813
G01 X451.620 Y166.463
G01 X456.609 Y164.407
G01 X461.678 Y162.314
G01 X466.828 Y160.185
G01 X473.822 Y157.290
G01 X475.599 Y156.554
G01 X466.829 Y160.189
G01 X461.682 Y162.325
G01 X458.297 Y163.731
G01 X453.288 Y165.815
G01 X451.637 Y166.503
G01 X448.362 Y167.868
G01 X446.738 Y168.546
G01 X443.518 Y169.893
G01 X441.922 Y170.561
G01 X438.757 Y171.889
G01 X437.188 Y172.548
G01 X434.077 Y173.857
G01 X432.535 Y174.508
G01 X429.478 Y175.800
G01 X427.963 Y176.441
G01 X424.960 Y177.716
G01 X423.472 Y178.350
G01 X420.523 Y179.608
G01 X419.062 Y180.234
G01 X417.614 Y180.855
G01 X416.166 Y181.477
G01 X414.731 Y182.095
G01 X411.888 Y183.323
G01 X410.480 Y183.933
G01 X409.086 Y184.540
G01 X407.691 Y185.146
G01 X406.309 Y185.749
G01 X404.941 Y186.349
G01 X403.572 Y186.949
G01 X402.217 Y187.546
G01 X400.874 Y188.139
G01 X399.532 Y188.732
G01 X398.203 Y189.322
G01 X396.887 Y189.909
G01 X395.571 Y190.496
G01 X394.268 Y191.080
G01 X392.978 Y191.661
G01 X391.687 Y192.242
G01 X390.410 Y192.820
G01 X389.146 Y193.395
G01 X387.882 Y193.970
G01 X386.631 Y194.543
G01 X385.392 Y195.112
G01 X384.154 Y195.682
G01 X382.928 Y196.249
G01 X381.715 Y196.814
G01 X380.502 Y197.379
G01 X379.302 Y197.941
G01 X378.115 Y198.501
G01 X376.928 Y199.061
G01 X375.753 Y199.619
G01 X374.592 Y200.174
G01 X373.430 Y200.730
G01 X372.281 Y201.283
G01 X371.144 Y201.834
G01 X370.007 Y202.386
G01 X368.883 Y202.935
G01 X367.772 Y203.482
G01 X365.549 Y204.577
G01 X363.377 Y205.665
G01 X361.254 Y206.746
G01 X359.131 Y207.828
G01 X357.058 Y208.903
G01 X355.034 Y209.973
G01 X353.011 Y211.043
G01 X351.036 Y212.109
G01 X349.111 Y213.170
G01 X347.185 Y214.232
G01 X345.308 Y215.289
G01 X343.480 Y216.345
G01 X341.651 Y217.400
G01 X339.871 Y218.453
G01 X338.139 Y219.505
G01 X336.407 Y220.556
G01 X334.722 Y221.606
G01 X333.085 Y222.657
G01 X331.448 Y223.707
G01 X329.859 Y224.757
G01 X328.316 Y225.809
G01 X326.773 Y226.860
G01 X325.278 Y227.913
G01 X323.828 Y228.968
G01 X322.379 Y230.023
G01 X320.976 Y231.080
G01 X319.619 Y232.141
G01 X318.262 Y233.202
G01 X316.951 Y234.267
G01 X315.686 Y235.336
G01 X314.421 Y236.406
G01 X313.201 Y237.480
G01 X312.026 Y238.561
G01 X310.851 Y239.641
G01 X309.721 Y240.728
G01 X308.636 Y241.822
G01 X307.551 Y242.916
G01 X306.510 Y244.017
G01 X305.513 Y245.127
G01 X304.516 Y246.236
G01 X303.564 Y247.355
G01 X302.655 Y248.483
G01 X301.746 Y249.611
G01 X300.881 Y250.749
G01 X300.059 Y251.898
G01 X299.236 Y253.047
G01 X298.457 Y254.206
G01 X297.721 Y255.379
G01 X296.985 Y256.551
G01 X296.291 Y257.735
G01 X295.639 Y258.933
G01 X294.988 Y260.131
G01 X294.378 Y261.342
G01 X293.811 Y262.568
G01 X293.243 Y263.794
G01 X292.717 Y265.034
G01 X292.232 Y266.291
G01 X291.748 Y267.547
G01 X291.304 Y268.820
G01 X290.902 Y270.109
G01 X290.499 Y271.399
G01 X290.137 Y272.706
G01 X289.815 Y274.031
G01 X289.494 Y275.356
G01 X289.212 Y276.699
G01 X288.971 Y278.062
G01 X288.729 Y279.425
G01 X288.528 Y280.808
G01 X288.365 Y282.211
G01 X288.203 Y283.615
G01 X288.080 Y285.039
G01 X287.996 Y286.485
G01 X287.912 Y287.931
G01 X287.867 Y289.400
G01 X287.860 Y290.891
G01 X287.853 Y292.383
G01 X287.885 Y293.898
G01 X287.954 Y295.437
G01 X288.024 Y296.977
G01 X288.131 Y298.540
G01 X288.276 Y300.130
G01 X288.421 Y301.719
G01 X288.603 Y303.335
G01 X288.823 Y304.977
G01 X289.042 Y306.619
G01 X289.298 Y308.289
G01 X289.591 Y309.986
G01 X289.884 Y311.683
G01 X290.213 Y313.409
G01 X290.579 Y315.164
G01 X290.944 Y316.919
G01 X291.345 Y318.703
G01 X291.782 Y320.519
G01 X292.219 Y322.334
G01 X292.692 Y324.179
G01 X293.199 Y326.057
G01 X293.707 Y327.934
G01 X294.250 Y329.844
G01 X294.827 Y331.786
G01 X295.404 Y333.729
G01 X296.016 Y335.704
G01 X296.662 Y337.714
G01 X297.309 Y339.724
G01 X297.989 Y341.768
G01 X298.703 Y343.848
G01 X299.417 Y345.928
G01 X300.164 Y348.043
G01 X300.945 Y350.195
G01 X301.726 Y352.347
G01 X302.540 Y354.536
G01 X303.386 Y356.762
G01 X304.233 Y358.989
G01 X305.112 Y361.254
G01 X306.024 Y363.558
G01 X306.480 Y364.710
G01 X306.944 Y365.872
G01 X307.416 Y367.044
G01 X307.887 Y368.215
G01 X308.367 Y369.397
G01 X308.855 Y370.589
G01 X309.343 Y371.781
G01 X309.839 Y372.983
G01 X310.343 Y374.195
G01 X310.846 Y375.407
G01 X311.358 Y376.630
G01 X311.877 Y377.863
G01 X312.397 Y379.096
G01 X312.924 Y380.339
G01 X313.459 Y381.593
G01 X313.994 Y382.847
G01 X314.536 Y384.111
G01 X315.087 Y385.387
G01 X315.637 Y386.662
G01 X316.195 Y387.948
G01 X316.761 Y389.244
G01 X317.327 Y390.541
G01 X317.900 Y391.849
G01 X318.481 Y393.168
G01 X319.062 Y394.486
G01 X319.651 Y395.816
G01 X320.247 Y397.157
G01 X320.843 Y398.498
G01 X321.447 Y399.850
G01 X322.058 Y401.214
G01 X322.669 Y402.577
G01 X323.288 Y403.952
G01 X324.540 Y406.725
G01 X325.174 Y408.122
G01 X325.814 Y409.532
G01 X326.455 Y410.941
G01 X327.103 Y412.362
G01 X328.414 Y415.228
G01 X329.077 Y416.673
G01 X330.417 Y419.586
G01 X331.094 Y421.055
G01 X332.463 Y424.016
G01 X333.154 Y425.509
G01 X334.552 Y428.519
G01 X335.258 Y430.036
G01 X336.683 Y433.096
G01 X337.403 Y434.638
G01 X338.857 Y437.747
G01 X339.591 Y439.315
G01 X341.073 Y442.475
G01 X341.820 Y444.067
G01 X343.330 Y447.279
G01 X344.091 Y448.897
G01 X345.628 Y452.160
G01 X346.403 Y453.805
G01 X347.967 Y457.120
G01 X351.148 Y463.857
G01 X355.225 Y472.480
G01 X351.146 Y463.858
G01 X348.748 Y458.795
G01 X346.386 Y453.813
G01 X345.606 Y452.170
G01 X344.059 Y448.912
G01 X343.291 Y447.297
G01 X341.766 Y444.093
G01 X341.009 Y442.505
G01 X339.507 Y439.355
G01 X338.761 Y437.793
G01 X337.279 Y434.697
G01 X336.544 Y433.162
G01 X335.083 Y430.119
G01 X334.358 Y428.611
G01 X332.918 Y425.621
G01 X332.202 Y424.139
G01 X330.782 Y421.202
G01 X330.076 Y419.747
G01 X328.674 Y416.863
G01 X327.978 Y415.435
G01 X326.594 Y412.603
G01 X325.907 Y411.201
G01 X324.541 Y408.422
G01 X323.862 Y407.045
G01 X323.188 Y405.682
G01 X322.513 Y404.319
G01 X321.843 Y402.968
G01 X321.176 Y401.631
G01 X320.510 Y400.293
G01 X319.848 Y398.969
G01 X319.190 Y397.657
G01 X318.531 Y396.346
G01 X317.877 Y395.047
G01 X317.226 Y393.762
G01 X316.575 Y392.476
G01 X315.928 Y391.203
G01 X315.285 Y389.943
G01 X314.641 Y388.683
G01 X314.001 Y387.436
G01 X313.365 Y386.201
G01 X312.728 Y384.967
G01 X312.095 Y383.745
G01 X311.465 Y382.536
G01 X310.835 Y381.327
G01 X310.209 Y380.131
G01 X309.585 Y378.947
G01 X308.961 Y377.763
G01 X308.341 Y376.592
G01 X307.723 Y375.434
G01 X307.106 Y374.276
G01 X306.491 Y373.130
G01 X305.879 Y371.997
G01 X305.267 Y370.863
G01 X304.658 Y369.743
G01 X304.052 Y368.635
G01 X303.446 Y367.526
G01 X302.842 Y366.431
G01 X302.240 Y365.348
G01 X301.038 Y363.181
G01 X299.845 Y361.065
G01 X298.661 Y358.997
G01 X297.477 Y356.930
G01 X296.301 Y354.913
G01 X295.133 Y352.944
G01 X293.964 Y350.975
G01 X292.803 Y349.055
G01 X291.649 Y347.184
G01 X290.494 Y345.313
G01 X289.345 Y343.490
G01 X288.202 Y341.716
G01 X287.058 Y339.941
G01 X285.919 Y338.215
G01 X284.783 Y336.536
G01 X283.648 Y334.858
G01 X282.516 Y333.227
G01 X281.387 Y331.644
G01 X280.258 Y330.060
G01 X279.131 Y328.524
G01 X278.005 Y327.035
G01 X276.879 Y325.545
G01 X275.755 Y324.103
G01 X274.630 Y322.707
G01 X273.505 Y321.311
G01 X272.380 Y319.962
G01 X271.254 Y318.659
G01 X270.127 Y317.356
G01 X269.000 Y316.099
G01 X267.869 Y314.887
G01 X266.739 Y313.676
G01 X265.606 Y312.510
G01 X264.469 Y311.390
G01 X263.332 Y310.270
G01 X262.191 Y309.194
G01 X261.046 Y308.164
G01 X259.900 Y307.134
G01 X258.749 Y306.148
G01 X257.591 Y305.207
G01 X256.434 Y304.266
G01 X255.270 Y303.370
G01 X254.099 Y302.517
G01 X252.928 Y301.665
G01 X251.749 Y300.856
G01 X250.561 Y300.091
G01 X249.373 Y299.327
G01 X248.176 Y298.605
G01 X246.969 Y297.927
G01 X245.763 Y297.249
G01 X244.546 Y296.614
G01 X243.317 Y296.023
G01 X242.089 Y295.431
G01 X240.849 Y294.881
G01 X239.597 Y294.374
G01 X238.345 Y293.868
G01 X237.080 Y293.403
G01 X235.801 Y292.981
G01 X234.522 Y292.558
G01 X233.230 Y292.178
G01 X231.922 Y291.839
G01 X230.614 Y291.500
G01 X229.291 Y291.203
G01 X227.952 Y290.947
G01 X226.613 Y290.690
G01 X225.257 Y290.475
G01 X223.884 Y290.301
G01 X222.511 Y290.127
G01 X221.120 Y289.993
G01 X219.710 Y289.900
G01 X218.300 Y289.806
G01 X216.872 Y289.753
G01 X215.423 Y289.740
G01 X213.975 Y289.727
G01 X212.506 Y289.754
G01 X211.016 Y289.821
G01 X209.525 Y289.887
G01 X208.014 Y289.993
G01 X206.480 Y290.138
G01 X204.946 Y290.283
G01 X203.389 Y290.467
G01 X201.808 Y290.690
G01 X200.228 Y290.912
G01 X198.624 Y291.174
G01 X196.994 Y291.473
G01 X195.364 Y291.773
G01 X193.710 Y292.111
G01 X192.029 Y292.487
G01 X190.348 Y292.862
G01 X188.641 Y293.276
G01 X186.905 Y293.727
G01 X185.171 Y294.178
G01 X183.408 Y294.667
G01 X181.617 Y295.192
G01 X179.825 Y295.718
G01 X178.005 Y296.280
G01 X176.155 Y296.879
G01 X174.304 Y297.478
G01 X172.424 Y298.114
G01 X170.512 Y298.786
G01 X168.600 Y299.458
G01 X166.657 Y300.166
G01 X164.681 Y300.910
G01 X162.706 Y301.654
G01 X160.697 Y302.434
G01 X158.655 Y303.249
G01 X156.613 Y304.064
G01 X154.537 Y304.914
G01 X152.426 Y305.800
G01 X150.314 Y306.685
G01 X148.168 Y307.606
G01 X145.986 Y308.561
G01 X143.803 Y309.515
G01 X141.584 Y310.505
G01 X139.328 Y311.528
G01 X138.199 Y312.040
G01 X137.062 Y312.561
G01 X135.914 Y313.090
G01 X134.767 Y313.618
G01 X133.610 Y314.156
G01 X132.444 Y314.701
G01 X131.278 Y315.247
G01 X130.101 Y315.801
G01 X128.915 Y316.364
G01 X127.729 Y316.926
G01 X126.533 Y317.497
G01 X125.327 Y318.076
G01 X124.121 Y318.656
G01 X122.906 Y319.243
G01 X121.679 Y319.839
G01 X120.453 Y320.435
G01 X119.217 Y321.039
G01 X117.970 Y321.651
G01 X116.723 Y322.264
G01 X115.467 Y322.884
G01 X114.199 Y323.513
G01 X112.931 Y324.142
G01 X111.654 Y324.779
G01 X110.365 Y325.424
G01 X109.076 Y326.069
G01 X107.777 Y326.722
G01 X106.467 Y327.383
G01 X105.157 Y328.044
G01 X103.836 Y328.714
G01 X102.504 Y329.391
G01 X101.172 Y330.068
G01 X99.829 Y330.754
G01 X97.122 Y332.140
G01 X95.757 Y332.842
G01 X94.380 Y333.551
G01 X93.004 Y334.260
G01 X91.616 Y334.977
G01 X90.217 Y335.702
G01 X88.818 Y336.427
G01 X87.408 Y337.160
G01 X84.564 Y338.641
G01 X83.131 Y339.390
G01 X80.240 Y340.902
G01 X78.783 Y341.666
G01 X75.845 Y343.209
G01 X74.364 Y343.989
G01 X71.378 Y345.563
G01 X69.873 Y346.358
G01 X66.839 Y347.962
G01 X65.309 Y348.772
G01 X62.226 Y350.407
G01 X60.672 Y351.232
G01 X57.538 Y352.897
G01 X55.959 Y353.737
G01 X52.776 Y355.432
G01 X47.936 Y358.012
G01 X43.020 Y360.636
G01 X36.343 Y364.202
G01 X34.647 Y365.108
G01 X43.018 Y360.632
G01 X47.931 Y358.002
G01 X51.162 Y356.270
G01 X55.942 Y353.706
G01 X57.518 Y352.859
G01 X60.644 Y351.179
G01 X62.193 Y350.345
G01 X65.265 Y348.690
G01 X66.788 Y347.868
G01 X69.808 Y346.237
G01 X71.305 Y345.427
G01 X74.273 Y343.819
G01 X75.744 Y343.020
G01 X78.659 Y341.435
G01 X80.104 Y340.648
G01 X82.968 Y339.085
G01 X84.386 Y338.309
G01 X87.198 Y336.767
G01 X88.591 Y336.001
G01 X91.351 Y334.480
G01 X92.718 Y333.725
G01 X95.427 Y332.224
G01 X96.768 Y331.479
G01 X98.097 Y330.738
G01 X99.425 Y329.998
G01 X100.741 Y329.262
G01 X102.044 Y328.531
G01 X103.348 Y327.800
G01 X104.638 Y327.073
G01 X105.916 Y326.352
G01 X107.193 Y325.630
G01 X108.458 Y324.912
G01 X109.710 Y324.199
G01 X110.963 Y323.486
G01 X112.202 Y322.777
G01 X113.429 Y322.073
G01 X114.656 Y321.368
G01 X115.870 Y320.668
G01 X117.072 Y319.971
G01 X118.274 Y319.275
G01 X119.463 Y318.583
G01 X120.640 Y317.894
G01 X121.816 Y317.206
G01 X122.980 Y316.521
G01 X124.132 Y315.840
G01 X125.284 Y315.159
G01 X126.423 Y314.482
G01 X127.549 Y313.809
G01 X128.676 Y313.135
G01 X129.790 Y312.465
G01 X130.892 Y311.798
G01 X131.994 Y311.131
G01 X133.083 Y310.468
G01 X134.160 Y309.808
G01 X135.238 Y309.148
G01 X136.302 Y308.491
G01 X137.355 Y307.837
G01 X139.459 Y306.530
G01 X141.515 Y305.235
G01 X143.521 Y303.950
G01 X145.528 Y302.666
G01 X147.486 Y301.393
G01 X149.395 Y300.129
G01 X151.304 Y298.866
G01 X153.164 Y297.612
G01 X154.977 Y296.367
G01 X156.789 Y295.122
G01 X158.553 Y293.885
G01 X160.269 Y292.656
G01 X161.986 Y291.426
G01 X163.654 Y290.204
G01 X165.275 Y288.988
G01 X166.895 Y287.771
G01 X168.469 Y286.561
G01 X169.995 Y285.355
G01 X171.521 Y284.150
G01 X173.000 Y282.949
G01 X174.432 Y281.751
G01 X175.865 Y280.554
G01 X177.250 Y279.360
G01 X178.589 Y278.168
G01 X179.928 Y276.976
G01 X181.220 Y275.786
G01 X182.467 Y274.597
G01 X183.713 Y273.408
G01 X184.913 Y272.220
G01 X186.068 Y271.031
G01 X187.222 Y269.843
G01 X188.331 Y268.654
G01 X189.394 Y267.464
G01 X190.457 Y266.273
G01 X191.475 Y265.081
G01 X192.448 Y263.886
G01 X193.421 Y262.691
G01 X194.349 Y261.493
G01 X195.232 Y260.291
G01 X196.115 Y259.089
G01 X196.953 Y257.883
G01 X197.747 Y256.671
G01 X198.541 Y255.459
G01 X199.291 Y254.242
G01 X199.996 Y253.018
G01 X200.702 Y251.794
G01 X201.364 Y250.563
G01 X201.982 Y249.325
G01 X202.600 Y248.086
G01 X203.174 Y246.840
G01 X203.705 Y245.584
G01 X204.236 Y244.328
G01 X204.724 Y243.063
G01 X205.169 Y241.787
G01 X205.613 Y240.511
G01 X206.015 Y239.225
G01 X206.374 Y237.927
G01 X206.733 Y236.629
G01 X207.050 Y235.319
G01 X207.324 Y233.997
G01 X207.599 Y232.674
G01 X207.831 Y231.338
G01 X208.021 Y229.988
G01 X208.211 Y228.637
G01 X208.359 Y227.273
G01 X208.466 Y225.893
G01 X208.573 Y224.513
G01 X208.638 Y223.117
G01 X208.662 Y221.704
G01 X208.686 Y220.292
G01 X208.669 Y218.862
G01 X208.611 Y217.415
G01 X208.553 Y215.967
G01 X208.454 Y214.502
G01 X208.314 Y213.017
G01 X208.175 Y211.531
G01 X207.995 Y210.027
G01 X207.775 Y208.502
G01 X207.555 Y206.977
G01 X207.295 Y205.431
G01 X206.995 Y203.863
G01 X206.695 Y202.295
G01 X206.355 Y200.706
G01 X205.976 Y199.093
G01 X205.596 Y197.480
G01 X205.178 Y195.844
G01 X204.720 Y194.183
G01 X204.262 Y192.523
G01 X203.765 Y190.838
G01 X203.230 Y189.127
G01 X202.694 Y187.416
G01 X202.120 Y185.680
G01 X201.507 Y183.917
G01 X200.894 Y182.153
G01 X200.243 Y180.363
G01 X199.554 Y178.544
G01 X198.865 Y176.725
G01 X198.137 Y174.878
G01 X197.372 Y173.002
G01 X196.607 Y171.125
G01 X195.805 Y169.219
G01 X194.965 Y167.282
G01 X194.125 Y165.345
G01 X193.247 Y163.377
G01 X192.333 Y161.378
G01 X191.419 Y159.378
G01 X190.468 Y157.346
G01 X189.480 Y155.281
G01 X188.492 Y153.216
G01 X187.467 Y151.117
G01 X186.406 Y148.984
G01 X185.345 Y146.851
G01 X184.248 Y144.684
G01 X183.115 Y142.480
G01 X182.549 Y141.378
G01 X181.973 Y140.268
G01 X181.389 Y139.147
G01 X180.804 Y138.028
G01 X180.211 Y136.899
G01 X179.608 Y135.760
G01 X179.006 Y134.622
G01 X178.395 Y133.474
G01 X177.775 Y132.317
G01 X177.155 Y131.160
G01 X176.526 Y129.994
G01 X175.888 Y128.818
G01 X175.250 Y127.642
G01 X174.604 Y126.456
G01 X173.949 Y125.261
G01 X173.293 Y124.065
G01 X172.629 Y122.860
G01 X171.956 Y121.645
G01 X171.284 Y120.430
G01 X170.602 Y119.205
G01 X169.912 Y117.970
G01 X169.222 Y116.735
G01 X168.523 Y115.489
G01 X167.815 Y114.234
G01 X167.108 Y112.979
G01 X166.392 Y111.713
G01 X165.667 Y110.437
G01 X164.942 Y109.161
G01 X164.209 Y107.874
G01 X163.467 Y106.577
G01 X162.725 Y105.280
G01 X161.975 Y103.973
G01 X160.457 Y101.336
G01 X159.690 Y100.007
G01 X158.914 Y98.667
G01 X158.138 Y97.328
G01 X157.354 Y95.977
G01 X155.768 Y93.254
G01 X154.967 Y91.881
G01 X153.348 Y89.113
G01 X152.530 Y87.718
G01 X150.877 Y84.905
G01 X150.043 Y83.487
G01 X148.357 Y80.628
G01 X147.506 Y79.187
G01 X145.788 Y76.282
G01 X144.920 Y74.818
G01 X143.168 Y71.866
G01 X142.284 Y70.378
G01 X140.500 Y67.379
G01 X139.600 Y65.867
G01 X137.783 Y62.819
G01 X136.867 Y61.283
G01 X135.018 Y58.186
G01 X132.204 Y53.480
G01 X129.342 Y48.698
G01 X125.451 Y42.204
G01 X124.463 Y40.554
G01 X129.345 Y48.696
G01 X132.213 Y53.474
G01 X134.101 Y56.616
G01 X136.897 Y61.265
G01 X137.820 Y62.797
G01 X139.651 Y65.836
G01 X140.560 Y67.343
G01 X142.364 Y70.330
G01 X143.260 Y71.811
G01 X145.038 Y74.747
G01 X145.920 Y76.203
G01 X147.672 Y79.088
G01 X148.541 Y80.518
G01 X150.268 Y83.352
G01 X151.125 Y84.756
G01 X152.827 Y87.540
G01 X153.671 Y88.919
G01 X155.349 Y91.652
G01 X156.182 Y93.005
G01 X157.837 Y95.687
G01 X158.658 Y97.016
G01 X159.474 Y98.332
G01 X160.290 Y99.647
G01 X161.101 Y100.951
G01 X161.905 Y102.241
G01 X162.710 Y103.532
G01 X163.510 Y104.810
G01 X164.304 Y106.076
G01 X165.098 Y107.342
G01 X165.887 Y108.595
G01 X166.671 Y109.836
G01 X167.454 Y111.076
G01 X168.233 Y112.304
G01 X169.007 Y113.520
G01 X169.780 Y114.736
G01 X170.549 Y115.939
G01 X171.313 Y117.130
G01 X172.077 Y118.321
G01 X172.836 Y119.499
G01 X173.590 Y120.666
G01 X174.345 Y121.832
G01 X175.095 Y122.986
G01 X175.840 Y124.127
G01 X176.585 Y125.268
G01 X177.326 Y126.397
G01 X178.063 Y127.514
G01 X178.800 Y128.631
G01 X179.532 Y129.736
G01 X180.260 Y130.828
G01 X180.988 Y131.920
G01 X181.712 Y133.000
G01 X182.432 Y134.068
G01 X183.152 Y135.136
G01 X183.868 Y136.191
G01 X184.580 Y137.235
G01 X185.292 Y138.278
G01 X186.000 Y139.309
G01 X186.705 Y140.328
G01 X188.114 Y142.366
G01 X189.509 Y144.356
G01 X190.890 Y146.297
G01 X192.271 Y148.238
G01 X193.639 Y150.131
G01 X194.994 Y151.976
G01 X196.350 Y153.820
G01 X197.693 Y155.617
G01 X199.026 Y157.366
G01 X200.359 Y159.115
G01 X201.681 Y160.817
G01 X202.993 Y162.470
G01 X204.305 Y164.124
G01 X205.608 Y165.730
G01 X206.902 Y167.290
G01 X208.196 Y168.849
G01 X209.482 Y170.361
G01 X210.761 Y171.826
G01 X212.041 Y173.291
G01 X213.313 Y174.710
G01 X214.579 Y176.081
G01 X215.845 Y177.453
G01 X217.106 Y178.778
G01 X218.362 Y180.057
G01 X219.619 Y181.336
G01 X220.870 Y182.568
G01 X222.119 Y183.755
G01 X223.368 Y184.941
G01 X224.613 Y186.082
G01 X225.857 Y187.176
G01 X227.100 Y188.271
G01 X228.342 Y189.320
G01 X229.583 Y190.324
G01 X230.825 Y191.328
G01 X232.065 Y192.286
G01 X233.306 Y193.199
G01 X234.548 Y194.112
G01 X235.790 Y194.980
G01 X237.034 Y195.803
G01 X238.278 Y196.626
G01 X239.524 Y197.404
G01 X240.773 Y198.137
G01 X242.022 Y198.871
G01 X243.275 Y199.560
G01 X244.532 Y200.205
G01 X245.789 Y200.850
G01 X247.051 Y201.450
G01 X248.318 Y202.006
G01 X249.586 Y202.563
G01 X250.859 Y203.075
G01 X252.139 Y203.544
G01 X253.420 Y204.013
G01 X254.707 Y204.438
G01 X256.003 Y204.820
G01 X257.299 Y205.201
G01 X258.604 Y205.539
G01 X259.918 Y205.834
G01 X261.232 Y206.129
G01 X262.556 Y206.381
G01 X263.890 Y206.590
G01 X265.225 Y206.800
G01 X266.571 Y206.966
G01 X267.928 Y207.090
G01 X269.286 Y207.213
G01 X270.657 Y207.294
G01 X272.040 Y207.333
G01 X273.424 Y207.372
G01 X274.821 Y207.369
G01 X276.233 Y207.324
G01 X277.645 Y207.278
G01 X279.072 Y207.191
G01 X280.515 Y207.062
G01 X281.958 Y206.933
G01 X283.417 Y206.762
G01 X284.894 Y206.550
G01 X286.370 Y206.338
G01 X287.864 Y206.084
G01 X289.376 Y205.790
G01 X290.889 Y205.495
G01 X292.420 Y205.159
G01 X293.971 Y204.783
G01 X295.522 Y204.406
G01 X297.093 Y203.989
G01 X298.686 Y203.531
G01 X300.278 Y203.073
G01 X301.892 Y202.574
G01 X303.528 Y202.036
G01 X305.164 Y201.497
G01 X306.822 Y200.918
G01 X308.505 Y200.299
G01 X310.187 Y199.680
G01 X311.893 Y199.021
G01 X313.624 Y198.323
G01 X315.356 Y197.624
G01 X317.112 Y196.886
G01 X318.895 Y196.108
G01 X320.678 Y195.331
G01 X322.487 Y194.514
G01 X324.323 Y193.658
G01 X326.160 Y192.801
G01 X328.024 Y191.906
G01 X329.918 Y190.972
G01 X331.811 Y190.038
G01 X333.733 Y189.066
G01 X335.686 Y188.054
G01 X337.638 Y187.043
G01 X339.621 Y185.993
G01 X341.635 Y184.905
G01 X343.649 Y183.817
G01 X345.695 Y182.691
G01 X347.773 Y181.526
G01 X349.852 Y180.362
G01 X351.963 Y179.160
G01 X354.109 Y177.920
G01 X355.181 Y177.300
G01 X356.262 Y176.671
G01 X357.352 Y176.032
G01 X358.442 Y175.393
G01 X359.541 Y174.745
G01 X360.648 Y174.088
G01 X361.755 Y173.430
G01 X362.872 Y172.764
G01 X363.997 Y172.087
G01 X365.122 Y171.411
G01 X366.256 Y170.726
G01 X367.400 Y170.031
G01 X368.543 Y169.337
G01 X369.696 Y168.633
G01 X370.857 Y167.920
G01 X372.019 Y167.206
G01 X373.190 Y166.484
G01 X374.371 Y165.752
G01 X375.552 Y165.021
G01 X376.742 Y164.280
G01 X377.942 Y163.530
G01 X379.141 Y162.780
G01 X380.351 Y162.021
G01 X381.570 Y161.253
G01 X382.789 Y160.485
G01 X384.018 Y159.707
G01 X386.496 Y158.134
G01 X387.745 Y157.339
G01 X389.004 Y156.534
G01 X390.263 Y155.729
G01 X391.532 Y154.916
G01 X392.812 Y154.093
G01 X394.091 Y153.270
G01 X395.381 Y152.439
G01 X397.981 Y150.757
G01 X399.292 Y149.908
G01 X400.613 Y149.049
G01 X401.934 Y148.191
G01 X403.266 Y147.323
G01 X404.608 Y146.447
G01 X405.951 Y145.570
G01 X407.304 Y144.685
G01 X408.669 Y143.790
G01 X410.033 Y142.896
G01 X411.408 Y141.993
G01 X412.794 Y141.081
G01 X414.180 Y140.169
G01 X415.578 Y139.248
G01 X418.395 Y137.389
G01 X419.815 Y136.451
G01 X422.678 Y134.557
G01 X424.120 Y133.600
G01 X425.574 Y132.636
G01 X427.028 Y131.671
G01 X428.494 Y130.698
G01 X431.449 Y128.734
G01 X432.938 Y127.743
G01 X435.940 Y125.744
G01 X437.454 Y124.736
G01 X442.041 Y121.677
G01 X445.139 Y119.610
G01 X451.435 Y115.406
G01 X454.632 Y113.269
G01 X449.849 Y116.466
G01 X445.142 Y119.613
G01 X443.594 Y120.649
G01 X442.046 Y121.685
G01 X440.510 Y122.712
G01 X438.987 Y123.732
G01 X437.464 Y124.752
G01 X435.954 Y125.764
G01 X432.958 Y127.773
G01 X431.473 Y128.770
G01 X430.000 Y129.759
G01 X428.527 Y130.748
G01 X427.067 Y131.730
G01 X424.172 Y133.678
G01 X422.736 Y134.645
G01 X419.891 Y136.565
G01 X418.481 Y137.518
G01 X415.685 Y139.409
G01 X414.300 Y140.348
G01 X412.927 Y141.279
G01 X411.554 Y142.211
G01 X410.193 Y143.136
G01 X407.496 Y144.972
G01 X406.161 Y145.884
G01 X403.514 Y147.694
G01 X402.202 Y148.592
G01 X399.605 Y150.376
G01 X398.318 Y151.262
G01 X397.044 Y152.141
G01 X395.770 Y153.021
G01 X394.508 Y153.894
G01 X393.258 Y154.761
G01 X392.008 Y155.629
G01 X390.771 Y156.490
G01 X389.546 Y157.345
G01 X388.321 Y158.200
G01 X387.108 Y159.050
G01 X385.907 Y159.893
G01 X384.706 Y160.737
G01 X383.518 Y161.575
G01 X382.341 Y162.407
G01 X381.165 Y163.240
G01 X380.001 Y164.067
G01 X378.849 Y164.888
G01 X377.697 Y165.710
G01 X376.557 Y166.526
G01 X375.430 Y167.336
G01 X374.302 Y168.147
G01 X373.186 Y168.953
G01 X372.082 Y169.753
G01 X370.979 Y170.554
G01 X369.888 Y171.349
G01 X368.808 Y172.140
G01 X367.729 Y172.930
G01 X366.662 Y173.716
G01 X365.607 Y174.496
G01 X364.551 Y175.277
G01 X363.508 Y176.053
G01 X362.477 Y176.825
G01 X361.446 Y177.596
G01 X360.427 Y178.363
G01 X359.419 Y179.126
G01 X358.412 Y179.888
G01 X357.417 Y180.646
G01 X356.434 Y181.400
G01 X354.467 Y182.908
G01 X352.549 Y184.398
G01 X350.678 Y185.873
G01 X348.807 Y187.348
G01 X346.983 Y188.806
G01 X345.207 Y190.251
G01 X343.431 Y191.695
G01 X341.703 Y193.125
G01 X340.021 Y194.542
G01 X338.339 Y195.959
G01 X336.705 Y197.363
G01 X335.118 Y198.754
G01 X333.530 Y200.146
G01 X331.990 Y201.526
G01 X330.496 Y202.896
G01 X329.002 Y204.265
G01 X327.555 Y205.624
G01 X326.154 Y206.973
G01 X324.754 Y208.322
G01 X323.400 Y209.663
G01 X322.091 Y210.995
G01 X320.784 Y212.327
G01 X319.522 Y213.651
G01 X318.306 Y214.968
G01 X317.091 Y216.286
G01 X315.921 Y217.597
G01 X314.797 Y218.902
G01 X313.674 Y220.207
G01 X312.596 Y221.507
G01 X311.563 Y222.803
G01 X310.531 Y224.099
G01 X309.544 Y225.391
G01 X308.602 Y226.680
G01 X307.661 Y227.969
G01 X306.765 Y229.255
G01 X305.914 Y230.540
G01 X305.063 Y231.824
G01 X304.257 Y233.107
G01 X303.496 Y234.390
G01 X302.735 Y235.673
G01 X302.019 Y236.956
G01 X301.347 Y238.240
G01 X300.676 Y239.523
G01 X300.049 Y240.808
G01 X299.467 Y242.095
G01 X298.885 Y243.383
G01 X298.347 Y244.672
G01 X297.853 Y245.965
G01 X297.360 Y247.259
G01 X296.910 Y248.556
G01 X296.505 Y249.857
G01 X296.100 Y251.159
G01 X295.738 Y252.466
G01 X295.421 Y253.779
G01 X295.103 Y255.092
G01 X294.829 Y256.412
G01 X294.599 Y257.739
G01 X294.369 Y259.066
G01 X294.182 Y260.400
G01 X294.039 Y261.743
G01 X293.895 Y263.087
G01 X293.795 Y264.439
G01 X293.738 Y265.801
G01 X293.681 Y267.164
G01 X293.668 Y268.536
G01 X293.697 Y269.920
G01 X293.726 Y271.304
G01 X293.798 Y272.699
G01 X293.912 Y274.108
G01 X294.027 Y275.516
G01 X294.184 Y276.937
G01 X294.384 Y278.372
G01 X294.583 Y279.806
G01 X294.825 Y281.255
G01 X295.110 Y282.720
G01 X295.394 Y284.184
G01 X295.721 Y285.663
G01 X296.089 Y287.160
G01 X296.458 Y288.656
G01 X296.868 Y290.169
G01 X297.320 Y291.700
G01 X297.772 Y293.230
G01 X298.266 Y294.779
G01 X298.802 Y296.347
G01 X299.338 Y297.915
G01 X299.915 Y299.502
G01 X300.533 Y301.110
G01 X301.151 Y302.717
G01 X301.811 Y304.345
G01 X302.512 Y305.996
G01 X303.212 Y307.646
G01 X303.954 Y309.317
G01 X304.737 Y311.012
G01 X305.520 Y312.707
G01 X306.343 Y314.425
G01 X307.207 Y316.168
G01 X308.071 Y317.910
G01 X308.976 Y319.677
G01 X309.921 Y321.469
G01 X310.867 Y323.262
G01 X311.852 Y325.080
G01 X312.878 Y326.925
G01 X313.904 Y328.770
G01 X314.970 Y330.643
G01 X316.075 Y332.543
G01 X317.181 Y334.444
G01 X318.327 Y336.372
G01 X319.513 Y338.331
G01 X320.698 Y340.289
G01 X321.924 Y342.277
G01 X323.189 Y344.296
G01 X324.454 Y346.315
G01 X325.758 Y348.365
G01 X327.102 Y350.446
G01 X327.773 Y351.487
G01 X328.455 Y352.536
G01 X329.147 Y353.594
G01 X329.838 Y354.651
G01 X330.539 Y355.716
G01 X331.250 Y356.790
G01 X331.961 Y357.864
G01 X332.682 Y358.946
G01 X333.412 Y360.037
G01 X334.143 Y361.127
G01 X334.883 Y362.227
G01 X335.633 Y363.334
G01 X336.383 Y364.442
G01 X337.142 Y365.559
G01 X337.912 Y366.684
G01 X338.681 Y367.810
G01 X339.460 Y368.944
G01 X340.249 Y370.087
G01 X341.037 Y371.231
G01 X341.835 Y372.383
G01 X342.643 Y373.545
G01 X343.452 Y374.706
G01 X344.269 Y375.877
G01 X345.096 Y377.057
G01 X345.923 Y378.237
G01 X346.760 Y379.426
G01 X347.606 Y380.625
G01 X348.452 Y381.824
G01 X349.308 Y383.032
G01 X350.174 Y384.250
G01 X351.039 Y385.468
G01 X351.914 Y386.696
G01 X352.799 Y387.934
G01 X353.683 Y389.171
G01 X354.577 Y390.418
G01 X356.384 Y392.933
G01 X357.297 Y394.201
G01 X358.219 Y395.478
G01 X359.142 Y396.755
G01 X360.074 Y398.043
G01 X361.015 Y399.341
G01 X361.956 Y400.639
G01 X362.907 Y401.947
G01 X364.827 Y404.585
G01 X365.796 Y405.914
G01 X366.775 Y407.254
G01 X367.754 Y408.594
G01 X368.742 Y409.944
G01 X370.738 Y412.667
G01 X371.745 Y414.039
G01 X373.777 Y416.805
G01 X374.803 Y418.199
G01 X375.838 Y419.604
G01 X376.872 Y421.009
G01 X377.916 Y422.425
G01 X380.023 Y425.280
G01 X381.086 Y426.719
G01 X383.230 Y429.620
G01 X384.311 Y431.081
G01 X387.591 Y435.513
G01 X389.808 Y438.506
G01 X394.316 Y444.588
G01 X396.607 Y447.677
G01 X395.461 Y446.133
G01 X393.179 Y443.056
G01 X389.805 Y438.509
G01 X388.694 Y437.014
G01 X387.584 Y435.518
G01 X386.482 Y434.035
G01 X385.389 Y432.564
G01 X384.296 Y431.093
G01 X383.211 Y429.634
G01 X381.057 Y426.741
G01 X379.989 Y425.306
G01 X377.868 Y422.461
G01 X376.816 Y421.051
G01 X374.728 Y418.254
G01 X373.691 Y416.869
G01 X371.635 Y414.121
G01 X370.614 Y412.759
G01 X368.588 Y410.059
G01 X367.582 Y408.721
G01 X365.586 Y406.070
G01 X364.596 Y404.757
G01 X362.629 Y402.153
G01 X361.653 Y400.864
G01 X360.684 Y399.586
G01 X359.716 Y398.309
G01 X358.754 Y397.043
G01 X356.844 Y394.536
G01 X355.897 Y393.295
G01 X354.956 Y392.065
G01 X354.015 Y390.836
G01 X353.081 Y389.618
G01 X352.153 Y388.413
G01 X351.226 Y387.207
G01 X350.305 Y386.013
G01 X349.390 Y384.832
G01 X348.476 Y383.650
G01 X347.568 Y382.480
G01 X346.667 Y381.322
G01 X345.765 Y380.164
G01 X344.870 Y379.018
G01 X343.981 Y377.884
G01 X343.091 Y376.750
G01 X342.209 Y375.628
G01 X341.332 Y374.518
G01 X340.455 Y373.407
G01 X339.584 Y372.309
G01 X338.718 Y371.222
G01 X337.853 Y370.136
G01 X336.994 Y369.061
G01 X336.140 Y367.998
G01 X335.287 Y366.935
G01 X334.439 Y365.884
G01 X333.596 Y364.845
G01 X332.754 Y363.806
G01 X331.917 Y362.778
G01 X331.085 Y361.763
G01 X330.253 Y360.747
G01 X329.427 Y359.743
G01 X328.606 Y358.751
G01 X327.785 Y357.759
G01 X326.969 Y356.779
G01 X326.158 Y355.810
G01 X325.347 Y354.842
G01 X324.541 Y353.885
G01 X323.740 Y352.940
G01 X322.137 Y351.050
G01 X320.555 Y349.206
G01 X318.990 Y347.410
G01 X317.425 Y345.614
G01 X315.878 Y343.864
G01 X314.349 Y342.161
G01 X312.819 Y340.458
G01 X311.306 Y338.801
G01 X309.808 Y337.191
G01 X308.310 Y335.581
G01 X306.828 Y334.018
G01 X305.360 Y332.501
G01 X303.892 Y330.984
G01 X302.439 Y329.513
G01 X300.997 Y328.088
G01 X299.557 Y326.663
G01 X298.128 Y325.284
G01 X296.712 Y323.951
G01 X295.295 Y322.619
G01 X293.890 Y321.332
G01 X292.496 Y320.091
G01 X291.101 Y318.850
G01 X289.716 Y317.655
G01 X288.341 Y316.505
G01 X286.965 Y315.356
G01 X285.599 Y314.252
G01 X284.240 Y313.193
G01 X282.881 Y312.135
G01 X281.530 Y311.122
G01 X280.185 Y310.155
G01 X278.840 Y309.187
G01 X277.501 Y308.265
G01 X276.168 Y307.388
G01 X274.834 Y306.510
G01 X273.505 Y305.678
G01 X272.181 Y304.892
G01 X270.856 Y304.105
G01 X269.535 Y303.363
G01 X268.216 Y302.665
G01 X266.897 Y301.968
G01 X265.581 Y301.316
G01 X264.266 Y300.709
G01 X262.951 Y300.101
G01 X261.637 Y299.538
G01 X260.322 Y299.019
G01 X259.008 Y298.501
G01 X257.694 Y298.027
G01 X256.378 Y297.598
G01 X255.062 Y297.168
G01 X253.745 Y296.783
G01 X252.424 Y296.442
G01 X251.104 Y296.101
G01 X249.781 Y295.804
G01 X248.454 Y295.551
G01 X247.127 Y295.299
G01 X245.796 Y295.090
G01 X244.459 Y294.925
G01 X243.122 Y294.760
G01 X241.780 Y294.639
G01 X240.432 Y294.562
G01 X239.083 Y294.485
G01 X237.727 Y294.451
G01 X236.364 Y294.461
G01 X235.000 Y294.471
G01 X233.629 Y294.525
G01 X232.248 Y294.621
G01 X230.867 Y294.718
G01 X229.477 Y294.859
G01 X228.076 Y295.042
G01 X226.675 Y295.226
G01 X225.264 Y295.453
G01 X223.841 Y295.723
G01 X222.417 Y295.992
G01 X220.982 Y296.305
G01 X219.533 Y296.661
G01 X218.085 Y297.017
G01 X216.623 Y297.416
G01 X215.147 Y297.857
G01 X213.670 Y298.299
G01 X212.179 Y298.783
G01 X210.673 Y299.310
G01 X209.166 Y299.836
G01 X207.643 Y300.406
G01 X206.104 Y301.018
G01 X204.564 Y301.629
G01 X203.007 Y302.283
G01 X201.432 Y302.980
G01 X199.856 Y303.676
G01 X198.262 Y304.415
G01 X196.649 Y305.196
G01 X195.035 Y305.977
G01 X193.402 Y306.800
G01 X191.747 Y307.665
G01 X190.093 Y308.530
G01 X188.417 Y309.437
G01 X186.719 Y310.385
G01 X185.021 Y311.334
G01 X183.301 Y312.324
G01 X181.557 Y313.356
G01 X179.813 Y314.388
G01 X178.045 Y315.462
G01 X176.253 Y316.577
G01 X174.460 Y317.692
G01 X172.642 Y318.848
G01 X170.798 Y320.046
G01 X168.955 Y321.244
G01 X167.084 Y322.483
G01 X165.187 Y323.764
G01 X163.289 Y325.044
G01 X161.363 Y326.365
G01 X159.409 Y327.728
G01 X157.454 Y329.090
G01 X155.471 Y330.493
G01 X153.458 Y331.938
G01 X152.451 Y332.659
G01 X151.437 Y333.392
G01 X150.415 Y334.134
G01 X149.393 Y334.877
G01 X148.363 Y335.630
G01 X147.325 Y336.392
G01 X146.288 Y337.155
G01 X145.242 Y337.928
G01 X144.189 Y338.711
G01 X143.135 Y339.494
G01 X142.074 Y340.287
G01 X141.004 Y341.091
G01 X139.934 Y341.894
G01 X138.856 Y342.708
G01 X137.770 Y343.531
G01 X136.683 Y344.355
G01 X135.589 Y345.189
G01 X134.486 Y346.032
G01 X133.382 Y346.876
G01 X132.271 Y347.730
G01 X131.150 Y348.594
G01 X130.030 Y349.458
G01 X128.901 Y350.332
G01 X127.763 Y351.216
G01 X126.625 Y352.100
G01 X125.477 Y352.994
G01 X124.322 Y353.898
G01 X123.166 Y354.802
G01 X122.001 Y355.717
G01 X120.827 Y356.641
G01 X119.653 Y357.565
G01 X118.469 Y358.499
G01 X117.277 Y359.443
G01 X116.084 Y360.387
G01 X114.882 Y361.341
G01 X113.670 Y362.305
G01 X112.459 Y363.269
G01 X111.238 Y364.243
G01 X110.007 Y365.227
G01 X108.777 Y366.211
G01 X107.536 Y367.205
G01 X106.286 Y368.209
G01 X105.036 Y369.213
G01 X103.776 Y370.227
G01 X101.236 Y372.274
G01 X99.956 Y373.308
G01 X98.666 Y374.351
G01 X97.375 Y375.394
G01 X96.075 Y376.448
G01 X93.454 Y378.574
G01 X92.133 Y379.647
G01 X89.470 Y381.813
G01 X88.128 Y382.906
G01 X85.422 Y385.111
G01 X84.059 Y386.223
G01 X81.311 Y388.467
G01 X79.926 Y389.599
G01 X77.134 Y391.883
G01 X75.727 Y393.034
G01 X71.462 Y396.528
G01 X70.022 Y397.709
G01 X68.581 Y398.890
G01 X62.728 Y403.690
G01 X59.755 Y406.130
G01 X61.241 Y404.910
G01 X64.202 Y402.480
G01 X68.578 Y398.887
G01 X72.884 Y395.348
G01 X77.119 Y391.865
G01 X78.511 Y390.718
G01 X79.903 Y389.572
G01 X81.284 Y388.434
G01 X84.021 Y386.177
G01 X85.378 Y385.056
G01 X88.068 Y382.834
G01 X89.402 Y381.731
G01 X92.046 Y379.541
G01 X93.356 Y378.455
G01 X95.953 Y376.299
G01 X97.240 Y375.229
G01 X98.515 Y374.167
G01 X99.790 Y373.105
G01 X101.053 Y372.051
G01 X102.305 Y371.006
G01 X103.557 Y369.960
G01 X104.797 Y368.921
G01 X107.254 Y366.861
G01 X108.470 Y365.838
G01 X109.675 Y364.823
G01 X110.881 Y363.808
G01 X112.074 Y362.800
G01 X113.256 Y361.800
G01 X114.438 Y360.800
G01 X115.608 Y359.807
G01 X116.767 Y358.822
G01 X117.926 Y357.837
G01 X119.072 Y356.858
G01 X120.208 Y355.887
G01 X121.343 Y354.916
G01 X122.467 Y353.951
G01 X123.580 Y352.994
G01 X124.692 Y352.037
G01 X125.792 Y351.086
G01 X126.882 Y350.143
G01 X127.971 Y349.199
G01 X129.048 Y348.262
G01 X130.114 Y347.332
G01 X131.180 Y346.401
G01 X132.234 Y345.477
G01 X133.277 Y344.560
G01 X134.320 Y343.642
G01 X135.351 Y342.731
G01 X136.371 Y341.827
G01 X137.391 Y340.922
G01 X138.399 Y340.023
G01 X139.396 Y339.131
G01 X140.392 Y338.238
G01 X141.377 Y337.352
G01 X142.351 Y336.471
G01 X143.324 Y335.591
G01 X144.287 Y334.716
G01 X145.237 Y333.847
G01 X146.188 Y332.979
G01 X147.127 Y332.116
G01 X148.054 Y331.258
G01 X148.982 Y330.400
G01 X149.898 Y329.548
G01 X150.803 Y328.702
G01 X152.612 Y327.009
G01 X154.375 Y325.338
G01 X156.093 Y323.687
G01 X157.810 Y322.036
G01 X159.482 Y320.405
G01 X161.108 Y318.793
G01 X162.733 Y317.182
G01 X164.314 Y315.589
G01 X165.848 Y314.014
G01 X167.383 Y312.440
G01 X168.872 Y310.882
G01 X170.315 Y309.342
G01 X171.759 Y307.801
G01 X173.156 Y306.277
G01 X174.509 Y304.768
G01 X175.861 Y303.259
G01 X177.168 Y301.765
G01 X178.430 Y300.284
G01 X179.691 Y298.804
G01 X180.908 Y297.338
G01 X182.079 Y295.884
G01 X183.250 Y294.430
G01 X184.376 Y292.988
G01 X185.456 Y291.558
G01 X186.537 Y290.128
G01 X187.572 Y288.709
G01 X188.563 Y287.299
G01 X189.553 Y285.890
G01 X190.499 Y284.491
G01 X191.399 Y283.100
G01 X192.300 Y281.709
G01 X193.155 Y280.327
G01 X193.966 Y278.952
G01 X194.776 Y277.577
G01 X195.542 Y276.209
G01 X196.263 Y274.847
G01 X196.984 Y273.485
G01 X197.660 Y272.130
G01 X198.292 Y270.778
G01 X198.923 Y269.427
G01 X199.510 Y268.080
G01 X200.053 Y266.737
G01 X200.595 Y265.393
G01 X201.093 Y264.053
G01 X201.546 Y262.715
G01 X201.999 Y261.377
G01 X202.408 Y260.041
G01 X202.773 Y258.706
G01 X203.137 Y257.370
G01 X203.457 Y256.036
G01 X203.733 Y254.700
G01 X204.009 Y253.365
G01 X204.240 Y252.029
G01 X204.428 Y250.691
G01 X204.615 Y249.353
G01 X204.758 Y248.013
G01 X204.857 Y246.670
G01 X204.956 Y245.327
G01 X205.011 Y243.981
G01 X205.022 Y242.630
G01 X205.033 Y241.279
G01 X205.000 Y239.923
G01 X204.923 Y238.562
G01 X204.847 Y237.200
G01 X204.726 Y235.833
G01 X204.561 Y234.459
G01 X204.397 Y233.084
G01 X204.188 Y231.703
G01 X203.936 Y230.313
G01 X203.684 Y228.923
G01 X203.388 Y227.524
G01 X203.049 Y226.116
G01 X202.710 Y224.707
G01 X202.327 Y223.289
G01 X201.900 Y221.860
G01 X201.474 Y220.430
G01 X201.004 Y218.990
G01 X200.490 Y217.537
G01 X199.977 Y216.084
G01 X199.420 Y214.619
G01 X198.820 Y213.139
G01 X198.220 Y211.660
G01 X197.577 Y210.168
G01 X196.890 Y208.660
G01 X196.203 Y207.152
G01 X195.474 Y205.629
G01 X194.701 Y204.090
G01 X193.928 Y202.550
G01 X193.112 Y200.995
G01 X192.253 Y199.421
G01 X191.394 Y197.848
G01 X190.491 Y196.257
G01 X189.546 Y194.647
G01 X188.601 Y193.037
G01 X187.613 Y191.408
G01 X186.583 Y189.758
G01 X185.552 Y188.109
G01 X184.478 Y186.440
G01 X183.362 Y184.748
G01 X182.246 Y183.057
G01 X181.086 Y181.344
G01 X179.885 Y179.608
G01 X178.683 Y177.873
G01 X177.439 Y176.114
G01 X176.152 Y174.331
G01 X174.865 Y172.548
G01 X173.536 Y170.741
G01 X172.164 Y168.908
G01 X170.792 Y167.075
G01 X169.378 Y165.217
G01 X167.921 Y163.332
G01 X166.464 Y161.447
G01 X164.965 Y159.535
G01 X163.424 Y157.595
G01 X162.654 Y156.624
G01 X161.872 Y155.647
G01 X161.081 Y154.663
G01 X160.289 Y153.679
G01 X159.487 Y152.687
G01 X158.674 Y151.688
G01 X157.861 Y150.689
G01 X157.038 Y149.683
G01 X156.204 Y148.669
G01 X155.370 Y147.655
G01 X154.526 Y146.634
G01 X153.671 Y145.605
G01 X152.816 Y144.576
G01 X151.951 Y143.539
G01 X151.075 Y142.495
G01 X150.198 Y141.450
G01 X149.312 Y140.397
G01 X148.415 Y139.337
G01 X147.518 Y138.276
G01 X146.611 Y137.208
G01 X145.693 Y136.131
G01 X144.775 Y135.054
G01 X143.847 Y133.969
G01 X142.908 Y132.876
G01 X141.969 Y131.783
G01 X141.020 Y130.681
G01 X140.060 Y129.571
G01 X139.100 Y128.461
G01 X138.130 Y127.342
G01 X137.149 Y126.215
G01 X136.169 Y125.088
G01 X135.178 Y123.952
G01 X134.176 Y122.807
G01 X133.175 Y121.662
G01 X132.163 Y120.508
G01 X131.141 Y119.345
G01 X130.118 Y118.182
G01 X129.085 Y117.011
G01 X126.999 Y114.649
G01 X125.946 Y113.459
G01 X124.882 Y112.259
G01 X123.817 Y111.060
G01 X122.743 Y109.851
G01 X120.574 Y107.415
G01 X119.479 Y106.187
G01 X118.373 Y104.950
G01 X117.268 Y103.712
G01 X116.152 Y102.465
G01 X113.899 Y99.951
G01 X112.763 Y98.684
G01 X110.469 Y96.131
G01 X109.312 Y94.844
G01 X106.977 Y92.250
G01 X105.799 Y90.943
G01 X103.422 Y88.308
G01 X102.224 Y86.980
G01 X99.806 Y84.304
G01 X98.587 Y82.956
G01 X97.357 Y81.596
G01 X94.888 Y78.867
G01 X93.638 Y77.486
G01 X92.388 Y76.105
G01 X87.306 Y70.495
G01 X84.723 Y67.645
G01 X86.015 Y69.070
G01 X88.587 Y71.908
G01 X92.391 Y76.102
G01 X96.136 Y80.229
G01 X98.601 Y82.943
G01 X99.823 Y84.288
G01 X102.250 Y86.957
G01 X103.454 Y88.280
G01 X105.843 Y90.903
G01 X107.029 Y92.203
G01 X109.381 Y94.781
G01 X110.548 Y96.059
G01 X111.706 Y97.326
G01 X112.864 Y98.592
G01 X114.014 Y99.847
G01 X116.295 Y102.335
G01 X117.426 Y103.568
G01 X118.550 Y104.790
G01 X119.673 Y106.011
G01 X120.787 Y107.221
G01 X123.000 Y109.619
G01 X124.097 Y110.807
G01 X125.186 Y111.983
G01 X126.276 Y113.160
G01 X127.357 Y114.325
G01 X128.430 Y115.478
G01 X129.503 Y116.632
G01 X130.568 Y117.775
G01 X131.625 Y118.906
G01 X132.682 Y120.038
G01 X133.731 Y121.158
G01 X134.772 Y122.267
G01 X135.813 Y123.376
G01 X136.846 Y124.473
G01 X137.872 Y125.560
G01 X138.898 Y126.646
G01 X139.916 Y127.722
G01 X140.927 Y128.785
G01 X141.938 Y129.849
G01 X142.941 Y130.902
G01 X143.937 Y131.944
G01 X144.933 Y132.985
G01 X145.922 Y134.015
G01 X146.903 Y135.034
G01 X147.885 Y136.053
G01 X148.859 Y137.061
G01 X149.827 Y138.057
G01 X150.794 Y139.054
G01 X151.755 Y140.039
G01 X152.709 Y141.013
G01 X153.662 Y141.988
G01 X154.609 Y142.950
G01 X155.549 Y143.902
G01 X156.490 Y144.854
G01 X157.424 Y145.794
G01 X158.351 Y146.723
G01 X159.278 Y147.653
G01 X160.199 Y148.571
G01 X161.113 Y149.477
G01 X162.027 Y150.384
G01 X162.936 Y151.280
G01 X163.838 Y152.164
G01 X164.740 Y153.049
G01 X165.636 Y153.922
G01 X166.525 Y154.784
G01 X168.305 Y156.508
G01 X170.061 Y158.187
G01 X171.794 Y159.821
G01 X173.528 Y161.456
G01 X175.238 Y163.045
G01 X176.928 Y164.590
G01 X178.617 Y166.135
G01 X180.285 Y167.635
G01 X181.934 Y169.091
G01 X183.582 Y170.546
G01 X185.210 Y171.957
G01 X186.820 Y173.323
G01 X188.430 Y174.689
G01 X190.020 Y176.010
G01 X191.594 Y177.287
G01 X193.168 Y178.564
G01 X194.724 Y179.796
G01 X196.264 Y180.983
G01 X197.805 Y182.171
G01 X199.329 Y183.314
G01 X200.839 Y184.412
G01 X202.349 Y185.510
G01 X203.843 Y186.564
G01 X205.325 Y187.573
G01 X206.807 Y188.582
G01 X208.275 Y189.547
G01 X209.731 Y190.467
G01 X211.187 Y191.387
G01 X212.631 Y192.263
G01 X214.064 Y193.094
G01 X215.498 Y193.925
G01 X216.920 Y194.712
G01 X218.333 Y195.454
G01 X219.747 Y196.196
G01 X221.150 Y196.894
G01 X222.546 Y197.547
G01 X223.942 Y198.200
G01 X225.329 Y198.809
G01 X226.710 Y199.374
G01 X228.090 Y199.938
G01 X229.464 Y200.458
G01 X230.833 Y200.934
G01 X232.201 Y201.410
G01 X233.564 Y201.841
G01 X234.923 Y202.228
G01 X236.281 Y202.615
G01 X237.636 Y202.958
G01 X238.988 Y203.257
G01 X240.339 Y203.555
G01 X241.688 Y203.809
G01 X243.035 Y204.019
G01 X244.382 Y204.229
G01 X245.728 Y204.395
G01 X247.074 Y204.517
G01 X248.419 Y204.638
G01 X249.765 Y204.715
G01 X251.111 Y204.748
G01 X252.457 Y204.781
G01 X253.805 Y204.770
G01 X255.155 Y204.715
G01 X256.504 Y204.660
G01 X257.857 Y204.560
G01 X259.213 Y204.417
G01 X260.568 Y204.273
G01 X261.928 Y204.085
G01 X263.293 Y203.853
G01 X264.657 Y203.622
G01 X266.027 Y203.346
G01 X267.403 Y203.026
G01 X268.779 Y202.706
G01 X270.162 Y202.342
G01 X271.552 Y201.934
G01 X272.942 Y201.526
G01 X274.340 Y201.074
G01 X275.746 Y200.577
G01 X277.153 Y200.081
G01 X278.569 Y199.541
G01 X279.995 Y198.957
G01 X281.421 Y198.373
G01 X282.857 Y197.745
G01 X284.305 Y197.073
G01 X285.753 Y196.401
G01 X287.212 Y195.685
G01 X288.684 Y194.926
G01 X290.157 Y194.166
G01 X291.642 Y193.362
G01 X293.142 Y192.515
G01 X294.641 Y191.667
G01 X296.155 Y190.776
G01 X297.684 Y189.840
G01 X299.214 Y188.905
G01 X300.759 Y187.926
G01 X302.320 Y186.903
G01 X303.882 Y185.880
G01 X305.460 Y184.814
G01 X307.057 Y183.703
G01 X308.654 Y182.593
G01 X310.269 Y181.438
G01 X311.903 Y180.241
G01 X313.538 Y179.043
G01 X315.192 Y177.801
G01 X316.866 Y176.515
G01 X318.541 Y175.230
G01 X320.237 Y173.901
G01 X321.955 Y172.528
G01 X323.672 Y171.155
G01 X325.412 Y169.739
G01 X327.175 Y168.279
G01 X328.938 Y166.819
G01 X330.725 Y165.315
G01 X332.536 Y163.767
G01 X334.348 Y162.220
G01 X336.184 Y160.629
G01 X338.046 Y158.994
G01 X338.977 Y158.177
G01 X339.915 Y157.349
G01 X340.859 Y156.510
G01 X341.803 Y155.671
G01 X342.754 Y154.821
G01 X343.712 Y153.960
G01 X344.670 Y153.099
G01 X345.635 Y152.227
G01 X346.607 Y151.345
G01 X347.578 Y150.462
G01 X348.557 Y149.569
G01 X349.543 Y148.664
G01 X350.529 Y147.760
G01 X351.522 Y146.845
G01 X352.522 Y145.919
G01 X353.522 Y144.992
G01 X354.530 Y144.055
G01 X355.545 Y143.108
G01 X356.561 Y142.160
G01 X357.583 Y141.201
G01 X358.614 Y140.231
G01 X359.644 Y139.262
G01 X360.682 Y138.281
G01 X361.728 Y137.290
G01 X362.774 Y136.299
G01 X363.828 Y135.296
G01 X364.890 Y134.283
G01 X365.951 Y133.270
G01 X367.021 Y132.246
G01 X368.099 Y131.212
G01 X369.177 Y130.177
G01 X370.263 Y129.131
G01 X371.357 Y128.075
G01 X372.451 Y127.018
G01 X373.554 Y125.951
G01 X374.665 Y124.873
G01 X375.776 Y123.795
G01 X376.896 Y122.706
G01 X379.153 Y120.506
G01 X380.290 Y119.395
G01 X381.435 Y118.274
G01 X382.581 Y117.152
G01 X383.736 Y116.020
G01 X386.063 Y113.733
G01 X387.236 Y112.579
G01 X389.599 Y110.250
G01 X390.790 Y109.074
G01 X393.190 Y106.701
G01 X394.400 Y105.503
G01 X396.838 Y103.087
G01 X398.066 Y101.868
G01 X400.542 Y99.408
G01 X401.790 Y98.168
G01 X404.305 Y95.665
G01 X405.572 Y94.403
G01 X408.127 Y91.856
G01 X409.414 Y90.573
G01 X413.316 Y86.678
G01 X415.952 Y84.045
G01 X421.306 Y78.694
G01 X424.025 Y75.975
G01 X422.666 Y77.334
G01 X419.958 Y80.043
G01 X415.955 Y84.048
G01 X412.017 Y87.991
G01 X408.143 Y91.873
G01 X405.597 Y94.428
G01 X404.335 Y95.695
G01 X401.832 Y98.211
G01 X400.592 Y99.458
G01 X398.132 Y101.934
G01 X396.913 Y103.163
G01 X394.497 Y105.600
G01 X393.299 Y106.810
G01 X390.926 Y109.210
G01 X389.750 Y110.401
G01 X387.421 Y112.765
G01 X386.267 Y113.937
G01 X383.980 Y116.264
G01 X382.848 Y117.419
G01 X381.726 Y118.565
G01 X380.605 Y119.711
G01 X379.494 Y120.848
G01 X378.394 Y121.976
G01 X377.294 Y123.104
G01 X376.205 Y124.224
G01 X375.127 Y125.335
G01 X374.049 Y126.446
G01 X372.982 Y127.549
G01 X370.869 Y129.737
G01 X369.823 Y130.823
G01 X368.789 Y131.901
G01 X367.754 Y132.979
G01 X366.730 Y134.049
G01 X365.717 Y135.111
G01 X364.704 Y136.172
G01 X363.701 Y137.226
G01 X362.710 Y138.272
G01 X361.719 Y139.318
G01 X360.738 Y140.356
G01 X359.769 Y141.386
G01 X358.799 Y142.417
G01 X357.840 Y143.439
G01 X356.892 Y144.455
G01 X355.945 Y145.470
G01 X355.008 Y146.478
G01 X354.081 Y147.478
G01 X353.155 Y148.478
G01 X352.240 Y149.471
G01 X351.336 Y150.457
G01 X350.431 Y151.443
G01 X349.538 Y152.422
G01 X348.655 Y153.394
G01 X347.773 Y154.365
G01 X346.901 Y155.330
G01 X346.040 Y156.288
G01 X345.179 Y157.246
G01 X344.329 Y158.197
G01 X343.490 Y159.141
G01 X342.651 Y160.085
G01 X341.823 Y161.023
G01 X341.006 Y161.954
G01 X339.371 Y163.816
G01 X337.780 Y165.652
G01 X336.233 Y167.464
G01 X334.685 Y169.275
G01 X333.182 Y171.062
G01 X331.721 Y172.825
G01 X330.261 Y174.588
G01 X328.845 Y176.328
G01 X327.472 Y178.046
G01 X326.099 Y179.763
G01 X324.770 Y181.459
G01 X323.485 Y183.134
G01 X322.199 Y184.808
G01 X320.958 Y186.462
G01 X319.759 Y188.097
G01 X318.562 Y189.731
G01 X317.407 Y191.346
G01 X316.297 Y192.943
G01 X315.186 Y194.539
G01 X314.120 Y196.118
G01 X313.097 Y197.680
G01 X312.074 Y199.242
G01 X311.095 Y200.786
G01 X310.159 Y202.316
G01 X309.224 Y203.845
G01 X308.333 Y205.359
G01 X307.485 Y206.858
G01 X306.638 Y208.358
G01 X305.834 Y209.843
G01 X305.074 Y211.316
G01 X304.315 Y212.788
G01 X303.599 Y214.247
G01 X302.927 Y215.695
G01 X302.255 Y217.143
G01 X301.627 Y218.579
G01 X301.043 Y220.005
G01 X300.459 Y221.431
G01 X299.919 Y222.847
G01 X299.423 Y224.254
G01 X298.926 Y225.660
G01 X298.474 Y227.058
G01 X298.066 Y228.448
G01 X297.658 Y229.838
G01 X297.294 Y231.221
G01 X296.974 Y232.597
G01 X296.654 Y233.973
G01 X296.378 Y235.342
G01 X296.147 Y236.707
G01 X295.915 Y238.072
G01 X295.727 Y239.432
G01 X295.584 Y240.788
G01 X295.440 Y242.143
G01 X295.341 Y243.496
G01 X295.285 Y244.846
G01 X295.230 Y246.195
G01 X295.219 Y247.543
G01 X295.252 Y248.889
G01 X295.285 Y250.236
G01 X295.362 Y251.581
G01 X295.483 Y252.926
G01 X295.605 Y254.272
G01 X295.771 Y255.617
G01 X295.981 Y256.965
G01 X296.191 Y258.312
G01 X296.445 Y259.661
G01 X296.743 Y261.013
G01 X297.042 Y262.364
G01 X297.385 Y263.719
G01 X297.772 Y265.077
G01 X298.159 Y266.436
G01 X298.590 Y267.799
G01 X299.066 Y269.167
G01 X299.542 Y270.536
G01 X300.062 Y271.910
G01 X300.626 Y273.290
G01 X301.191 Y274.671
G01 X301.800 Y276.059
G01 X302.453 Y277.454
G01 X303.106 Y278.850
G01 X303.804 Y280.253
G01 X304.546 Y281.666
G01 X305.288 Y283.080
G01 X306.075 Y284.502
G01 X306.906 Y285.935
G01 X307.737 Y287.369
G01 X308.613 Y288.813
G01 X309.533 Y290.269
G01 X310.453 Y291.725
G01 X311.418 Y293.193
G01 X312.427 Y294.675
G01 X313.436 Y296.157
G01 X314.490 Y297.652
G01 X315.588 Y299.161
G01 X316.686 Y300.671
G01 X317.829 Y302.195
G01 X319.016 Y303.736
G01 X320.204 Y305.276
G01 X321.436 Y306.832
G01 X322.713 Y308.406
G01 X323.990 Y309.980
G01 X325.311 Y311.571
G01 X326.677 Y313.180
G01 X328.043 Y314.790
G01 X329.454 Y316.418
G01 X330.909 Y318.067
G01 X332.365 Y319.715
G01 X333.865 Y321.383
G01 X335.410 Y323.072
G01 X336.955 Y324.762
G01 X338.544 Y326.473
G01 X340.179 Y328.206
G01 X341.813 Y329.939
G01 X343.492 Y331.695
G01 X345.216 Y333.475
G01 X346.078 Y334.364
G01 X346.951 Y335.260
G01 X347.836 Y336.162
G01 X348.720 Y337.064
G01 X349.616 Y337.973
G01 X350.523 Y338.887
G01 X351.429 Y339.801
G01 X352.347 Y340.722
G01 X353.277 Y341.649
G01 X354.206 Y342.577
G01 X355.146 Y343.510
G01 X356.098 Y344.450
G01 X357.050 Y345.391
G01 X358.012 Y346.338
G01 X358.986 Y347.292
G01 X359.961 Y348.245
G01 X360.946 Y349.206
G01 X361.942 Y350.173
G01 X362.939 Y351.141
G01 X363.947 Y352.115
G01 X364.966 Y353.097
G01 X365.985 Y354.078
G01 X367.015 Y355.067
G01 X368.057 Y356.063
G01 X369.098 Y357.059
G01 X370.151 Y358.062
G01 X371.214 Y359.073
G01 X372.278 Y360.084
G01 X373.354 Y361.102
G01 X374.440 Y362.128
G01 X375.527 Y363.154
G01 X376.624 Y364.187
G01 X377.733 Y365.228
G01 X378.842 Y366.269
G01 X379.962 Y367.319
G01 X381.093 Y368.376
G01 X382.225 Y369.433
G01 X383.367 Y370.497
G01 X385.675 Y372.643
G01 X386.840 Y373.724
G01 X389.193 Y375.903
G01 X390.381 Y377.001
G01 X392.779 Y379.213
G01 X393.989 Y380.327
G01 X395.210 Y381.451
G01 X396.432 Y382.574
G01 X397.664 Y383.705
G01 X400.152 Y385.986
G01 X401.408 Y387.136
G01 X403.941 Y389.452
G01 X405.218 Y390.619
G01 X407.797 Y392.972
G01 X409.097 Y394.157
G01 X411.720 Y396.546
G01 X413.043 Y397.750
G01 X415.712 Y400.177
G01 X417.057 Y401.399
G01 X421.139 Y405.106
G01 X422.518 Y406.357
G01 X423.898 Y407.609
G01 X429.505 Y412.694
G01 X432.355 Y415.277
G01 X430.930 Y413.986
G01 X428.092 Y411.414
G01 X423.895 Y407.612
G01 X419.763 Y403.872
G01 X417.045 Y401.413
G01 X415.696 Y400.194
G01 X413.019 Y397.777
G01 X411.692 Y396.578
G01 X409.057 Y394.201
G01 X407.750 Y393.024
G01 X405.156 Y390.688
G01 X403.869 Y389.531
G01 X402.593 Y388.384
G01 X401.316 Y387.237
G01 X400.049 Y386.101
G01 X397.535 Y383.848
G01 X396.288 Y382.733
G01 X395.050 Y381.627
G01 X393.813 Y380.521
G01 X392.585 Y379.427
G01 X390.149 Y377.257
G01 X388.940 Y376.182
G01 X386.541 Y374.055
G01 X385.351 Y373.001
G01 X384.170 Y371.958
G01 X382.989 Y370.915
G01 X381.817 Y369.882
G01 X380.655 Y368.860
G01 X379.492 Y367.837
G01 X378.338 Y366.825
G01 X376.048 Y364.822
G01 X374.912 Y363.831
G01 X373.785 Y362.851
G01 X372.658 Y361.870
G01 X371.539 Y360.900
G01 X370.429 Y359.940
G01 X369.319 Y358.980
G01 X368.217 Y358.031
G01 X367.124 Y357.092
G01 X366.030 Y356.153
G01 X364.946 Y355.225
G01 X363.869 Y354.307
G01 X362.792 Y353.389
G01 X361.724 Y352.482
G01 X360.663 Y351.585
G01 X359.603 Y350.688
G01 X358.550 Y349.802
G01 X357.505 Y348.926
G01 X356.461 Y348.050
G01 X355.424 Y347.184
G01 X354.395 Y346.329
G01 X353.366 Y345.474
G01 X352.345 Y344.630
G01 X351.331 Y343.796
G01 X350.317 Y342.962
G01 X349.311 Y342.139
G01 X348.312 Y341.326
G01 X347.313 Y340.513
G01 X346.321 Y339.711
G01 X345.337 Y338.919
G01 X344.352 Y338.128
G01 X343.375 Y337.346
G01 X342.405 Y336.576
G01 X340.465 Y335.035
G01 X338.553 Y333.536
G01 X336.668 Y332.079
G01 X334.783 Y330.622
G01 X332.925 Y329.208
G01 X331.092 Y327.836
G01 X329.259 Y326.464
G01 X327.452 Y325.135
G01 X325.669 Y323.848
G01 X323.886 Y322.561
G01 X322.127 Y321.317
G01 X320.392 Y320.115
G01 X318.656 Y318.913
G01 X316.943 Y317.754
G01 X315.252 Y316.638
G01 X313.561 Y315.522
G01 X311.891 Y314.448
G01 X310.242 Y313.417
G01 X308.592 Y312.387
G01 X306.963 Y311.399
G01 X305.353 Y310.454
G01 X303.743 Y309.509
G01 X302.152 Y308.606
G01 X300.579 Y307.747
G01 X299.005 Y306.888
G01 X297.450 Y306.072
G01 X295.910 Y305.299
G01 X294.371 Y304.526
G01 X292.848 Y303.797
G01 X291.340 Y303.110
G01 X289.832 Y302.423
G01 X288.339 Y301.780
G01 X286.860 Y301.180
G01 X285.381 Y300.580
G01 X283.916 Y300.023
G01 X282.463 Y299.510
G01 X281.010 Y298.996
G01 X279.570 Y298.526
G01 X278.140 Y298.100
G01 X276.711 Y297.673
G01 X275.293 Y297.290
G01 X273.884 Y296.951
G01 X272.476 Y296.612
G01 X271.077 Y296.316
G01 X269.687 Y296.064
G01 X268.297 Y295.812
G01 X266.916 Y295.603
G01 X265.541 Y295.439
G01 X264.167 Y295.274
G01 X262.799 Y295.153
G01 X261.438 Y295.077
G01 X260.077 Y295.000
G01 X258.721 Y294.967
G01 X257.370 Y294.978
G01 X256.019 Y294.989
G01 X254.673 Y295.044
G01 X253.330 Y295.143
G01 X251.987 Y295.242
G01 X250.647 Y295.385
G01 X249.309 Y295.573
G01 X247.971 Y295.760
G01 X246.635 Y295.991
G01 X245.300 Y296.267
G01 X243.964 Y296.543
G01 X242.630 Y296.863
G01 X241.294 Y297.227
G01 X239.959 Y297.592
G01 X238.623 Y298.001
G01 X237.285 Y298.454
G01 X235.947 Y298.907
G01 X234.607 Y299.405
G01 X233.263 Y299.947
G01 X231.920 Y300.490
G01 X230.573 Y301.077
G01 X229.222 Y301.708
G01 X227.871 Y302.340
G01 X226.515 Y303.016
G01 X225.153 Y303.737
G01 X223.791 Y304.458
G01 X222.423 Y305.224
G01 X221.048 Y306.034
G01 X219.673 Y306.845
G01 X218.291 Y307.700
G01 X216.900 Y308.601
G01 X215.509 Y309.501
G01 X214.110 Y310.447
G01 X212.701 Y311.437
G01 X211.291 Y312.428
G01 X209.872 Y313.463
G01 X208.442 Y314.544
G01 X207.012 Y315.624
G01 X205.570 Y316.750
G01 X204.116 Y317.921
G01 X202.662 Y319.092
G01 X201.196 Y320.309
G01 X199.716 Y321.570
G01 X198.235 Y322.832
G01 X196.742 Y324.139
G01 X195.232 Y325.491
G01 X193.723 Y326.844
G01 X192.199 Y328.241
G01 X190.658 Y329.685
G01 X189.118 Y331.128
G01 X187.560 Y332.617
G01 X185.986 Y334.152
G01 X184.411 Y335.686
G01 X182.818 Y337.267
G01 X181.207 Y338.892
G01 X179.595 Y340.518
G01 X177.964 Y342.190
G01 X176.314 Y343.907
G01 X174.662 Y345.625
G01 X172.991 Y347.388
G01 X171.298 Y349.198
G01 X170.452 Y350.102
G01 X169.600 Y351.018
G01 X168.742 Y351.946
G01 X167.885 Y352.873
G01 X167.021 Y353.813
G01 X166.153 Y354.763
G01 X165.284 Y355.713
G01 X164.409 Y356.676
G01 X163.529 Y357.649
G01 X162.648 Y358.623
G01 X161.762 Y359.608
G01 X160.869 Y360.605
G01 X159.977 Y361.601
G01 X159.078 Y362.609
G01 X158.174 Y363.629
G01 X157.269 Y364.649
G01 X156.358 Y365.680
G01 X155.440 Y366.723
G01 X154.523 Y367.766
G01 X153.599 Y368.820
G01 X152.669 Y369.886
G01 X151.738 Y370.952
G01 X150.801 Y372.029
G01 X149.858 Y373.119
G01 X148.914 Y374.208
G01 X147.963 Y375.308
G01 X147.006 Y376.420
G01 X146.049 Y377.533
G01 X145.085 Y378.657
G01 X144.113 Y379.792
G01 X143.142 Y380.928
G01 X142.164 Y382.075
G01 X141.178 Y383.233
G01 X140.193 Y384.392
G01 X139.200 Y385.562
G01 X138.200 Y386.744
G01 X137.200 Y387.926
G01 X136.192 Y389.119
G01 X134.162 Y391.530
G01 X133.139 Y392.747
G01 X131.079 Y395.203
G01 X130.041 Y396.444
G01 X127.949 Y398.947
G01 X126.895 Y400.210
G01 X125.833 Y401.485
G01 X124.771 Y402.761
G01 X123.702 Y404.048
G01 X122.623 Y405.346
G01 X121.545 Y406.644
G01 X120.459 Y407.955
G01 X118.270 Y410.598
G01 X117.166 Y411.932
G01 X114.944 Y414.622
G01 X113.824 Y415.979
G01 X111.566 Y418.716
G01 X110.428 Y420.097
G01 X108.136 Y422.881
G01 X106.981 Y424.285
G01 X103.479 Y428.544
G01 X101.114 Y431.422
G01 X96.310 Y437.272
G01 X93.870 Y440.245
G01 X95.090 Y438.758
G01 X97.520 Y435.798
G01 X99.920 Y432.871
G01 X101.110 Y431.419
G01 X102.291 Y429.978
G01 X103.472 Y428.538
G01 X104.643 Y427.109
G01 X105.804 Y425.691
G01 X106.966 Y424.273
G01 X108.117 Y422.866
G01 X109.259 Y421.470
G01 X110.401 Y420.074
G01 X111.533 Y418.689
G01 X113.777 Y415.941
G01 X114.889 Y414.578
G01 X117.094 Y411.872
G01 X118.187 Y410.531
G01 X120.353 Y407.868
G01 X121.426 Y406.546
G01 X123.552 Y403.925
G01 X124.606 Y402.625
G01 X126.692 Y400.044
G01 X127.726 Y398.764
G01 X128.750 Y397.494
G01 X129.774 Y396.224
G01 X130.787 Y394.964
G01 X131.791 Y393.714
G01 X132.795 Y392.464
G01 X133.789 Y391.224
G01 X135.757 Y388.762
G01 X136.731 Y387.541
G01 X137.695 Y386.330
G01 X138.659 Y385.118
G01 X139.613 Y383.916
G01 X141.501 Y381.531
G01 X142.435 Y380.347
G01 X143.359 Y379.173
G01 X144.284 Y377.999
G01 X145.198 Y376.834
G01 X146.102 Y375.678
G01 X147.006 Y374.523
G01 X147.900 Y373.376
G01 X148.784 Y372.238
G01 X149.668 Y371.099
G01 X150.542 Y369.970
G01 X151.406 Y368.850
G01 X152.270 Y367.729
G01 X153.124 Y366.618
G01 X153.968 Y365.514
G01 X154.811 Y364.411
G01 X155.645 Y363.317
G01 X156.469 Y362.230
G01 X157.292 Y361.144
G01 X158.106 Y360.066
G01 X158.909 Y358.996
G01 X159.713 Y357.926
G01 X160.506 Y356.865
G01 X161.289 Y355.811
G01 X162.072 Y354.758
G01 X162.845 Y353.712
G01 X163.608 Y352.675
G01 X164.371 Y351.637
G01 X165.123 Y350.607
G01 X165.866 Y349.585
G01 X166.608 Y348.563
G01 X167.341 Y347.549
G01 X168.063 Y346.542
G01 X169.507 Y344.529
G01 X170.910 Y342.546
G01 X172.273 Y340.591
G01 X173.635 Y338.637
G01 X174.956 Y336.711
G01 X176.237 Y334.814
G01 X177.517 Y332.916
G01 X178.756 Y331.046
G01 X179.954 Y329.202
G01 X181.152 Y327.358
G01 X182.308 Y325.540
G01 X183.423 Y323.747
G01 X184.538 Y321.955
G01 X185.612 Y320.187
G01 X186.644 Y318.443
G01 X187.676 Y316.699
G01 X188.666 Y314.979
G01 X189.615 Y313.281
G01 X190.564 Y311.583
G01 X191.470 Y309.907
G01 X192.335 Y308.253
G01 X193.200 Y306.598
G01 X194.023 Y304.965
G01 X194.804 Y303.351
G01 X195.585 Y301.738
G01 X196.324 Y300.144
G01 X197.020 Y298.568
G01 X197.717 Y296.993
G01 X198.371 Y295.436
G01 X198.983 Y293.896
G01 X199.594 Y292.357
G01 X200.164 Y290.834
G01 X200.690 Y289.327
G01 X201.218 Y287.821
G01 X201.702 Y286.330
G01 X202.143 Y284.853
G01 X202.584 Y283.377
G01 X202.983 Y281.915
G01 X203.339 Y280.467
G01 X203.695 Y279.018
G01 X204.008 Y277.583
G01 X204.277 Y276.159
G01 X204.547 Y274.736
G01 X204.774 Y273.325
G01 X204.958 Y271.924
G01 X205.141 Y270.523
G01 X205.282 Y269.133
G01 X205.379 Y267.752
G01 X205.475 Y266.371
G01 X205.529 Y265.000
G01 X205.539 Y263.636
G01 X205.549 Y262.273
G01 X205.515 Y260.917
G01 X205.438 Y259.568
G01 X205.361 Y258.220
G01 X205.240 Y256.878
G01 X205.075 Y255.541
G01 X204.910 Y254.204
G01 X204.702 Y252.873
G01 X204.449 Y251.546
G01 X204.196 Y250.219
G01 X203.899 Y248.896
G01 X203.558 Y247.576
G01 X203.217 Y246.256
G01 X202.832 Y244.938
G01 X202.402 Y243.622
G01 X201.973 Y242.306
G01 X201.499 Y240.992
G01 X200.981 Y239.678
G01 X200.462 Y238.363
G01 X199.899 Y237.049
G01 X199.291 Y235.734
G01 X198.684 Y234.419
G01 X198.032 Y233.103
G01 X197.335 Y231.784
G01 X196.637 Y230.465
G01 X195.895 Y229.144
G01 X195.109 Y227.819
G01 X194.321 Y226.495
G01 X193.490 Y225.166
G01 X192.612 Y223.832
G01 X191.735 Y222.499
G01 X190.813 Y221.160
G01 X189.846 Y219.815
G01 X188.878 Y218.470
G01 X187.865 Y217.119
G01 X186.807 Y215.760
G01 X185.748 Y214.401
G01 X184.644 Y213.035
G01 X183.495 Y211.659
G01 X182.345 Y210.283
G01 X181.150 Y208.899
G01 X179.909 Y207.504
G01 X178.668 Y206.110
G01 X177.381 Y204.705
G01 X176.049 Y203.288
G01 X174.716 Y201.872
G01 X173.337 Y200.443
G01 X171.912 Y199.002
G01 X170.487 Y197.562
G01 X169.017 Y196.108
G01 X167.499 Y194.640
G01 X165.982 Y193.172
G01 X164.419 Y191.690
G01 X162.809 Y190.192
G01 X161.199 Y188.694
G01 X159.542 Y187.181
G01 X157.839 Y185.651
G01 X156.136 Y184.121
G01 X154.386 Y182.575
G01 X152.590 Y181.010
G01 X150.794 Y179.445
G01 X148.951 Y177.862
G01 X147.060 Y176.260
G01 X146.115 Y175.459
G01 X145.159 Y174.653
G01 X144.190 Y173.842
G01 X143.221 Y173.031
G01 X142.241 Y172.215
G01 X141.249 Y171.394
G01 X140.257 Y170.573
G01 X139.253 Y169.747
G01 X138.237 Y168.915
G01 X137.222 Y168.083
G01 X136.195 Y167.246
G01 X135.155 Y166.404
G01 X134.116 Y165.561
G01 X133.065 Y164.713
G01 X132.002 Y163.860
G01 X130.939 Y163.006
G01 X129.864 Y162.147
G01 X128.778 Y161.281
G01 X127.691 Y160.416
G01 X126.593 Y159.545
G01 X125.483 Y158.668
G01 X124.372 Y157.791
G01 X123.250 Y156.908
G01 X122.116 Y156.019
G01 X120.982 Y155.130
G01 X119.836 Y154.235
G01 X117.520 Y152.432
G01 X116.350 Y151.524
G01 X115.169 Y150.609
G01 X113.987 Y149.695
G01 X112.793 Y148.774
G01 X111.588 Y147.847
G01 X110.382 Y146.919
G01 X109.165 Y145.985
G01 X107.935 Y145.044
G01 X106.705 Y144.103
G01 X105.464 Y143.155
G01 X104.210 Y142.201
G01 X102.957 Y141.246
G01 X101.691 Y140.284
G01 X99.136 Y138.346
G01 X97.847 Y137.371
G01 X95.244 Y135.404
G01 X93.930 Y134.414
G01 X92.604 Y133.416
G01 X91.279 Y132.418
G01 X89.941 Y131.412
G01 X87.242 Y129.386
G01 X85.879 Y128.365
G01 X83.132 Y126.308
G01 X81.746 Y125.272
G01 X78.949 Y123.184
G01 X77.539 Y122.132
G01 X74.694 Y120.011
G01 X73.260 Y118.943
G01 X70.366 Y116.790
G01 X68.907 Y115.704
G01 X64.482 Y112.416
G01 X62.987 Y111.305
G01 X61.491 Y110.195
G01 X55.412 Y105.684
G01 X52.323 Y103.393
G01 X53.868 Y104.538
G01 X56.944 Y106.820
G01 X58.465 Y107.947
G01 X61.494 Y110.192
G01 X65.972 Y113.509
G01 X70.380 Y116.770
G01 X73.281 Y118.914
G01 X74.720 Y119.977
G01 X77.575 Y122.083
G01 X78.991 Y123.127
G01 X81.801 Y125.197
G01 X83.195 Y126.223
G01 X84.578 Y127.239
G01 X85.961 Y128.255
G01 X87.333 Y129.262
G01 X90.056 Y131.257
G01 X91.406 Y132.246
G01 X94.086 Y134.203
G01 X95.415 Y135.173
G01 X98.053 Y137.093
G01 X99.361 Y138.044
G01 X100.659 Y138.985
G01 X101.957 Y139.926
G01 X103.245 Y140.858
G01 X105.799 Y142.703
G01 X107.067 Y143.616
G01 X108.324 Y144.519
G01 X109.582 Y145.423
G01 X110.829 Y146.317
G01 X112.066 Y147.201
G01 X113.304 Y148.086
G01 X114.532 Y148.961
G01 X115.750 Y149.826
G01 X116.968 Y150.691
G01 X118.176 Y151.547
G01 X119.375 Y152.394
G01 X120.574 Y153.240
G01 X121.763 Y154.077
G01 X122.943 Y154.904
G01 X124.123 Y155.731
G01 X125.294 Y156.549
G01 X126.455 Y157.356
G01 X127.617 Y158.164
G01 X128.769 Y158.963
G01 X129.913 Y159.751
G01 X131.056 Y160.540
G01 X132.190 Y161.319
G01 X133.316 Y162.088
G01 X134.441 Y162.858
G01 X135.558 Y163.617
G01 X136.666 Y164.367
G01 X137.774 Y165.117
G01 X138.873 Y165.857
G01 X139.963 Y166.588
G01 X141.054 Y167.318
G01 X142.136 Y168.039
G01 X143.210 Y168.750
