;  Created by Sandify
;  https://sandify.org
;  Version: 0.2.6
;
;  Machine type: Rectangular
;    Min X (mm): 0
;    Max X (mm): 500
;    Min Y (mm): 0
;    Max Y (mm): 500
;  Content type: shape
;  Layer:
;    Shape: FileImport
;    Name: BattlesburyCampWilts 7-5-2017.thr
;    From file:: BattlesburyCampWilts 7-5-2017.thr
;    Aspect Ratio: true
;    Comments: 
;    Visible: true
;    Initial width: 10
;    Initial height: 10
;    X offset: 0
;    Y offset: 0
;    Rotate (degrees): 0
;    Reverse path: false
;    Fine tuning:
;      Connect to next layer: line
;      Draw portion of path (%): 100
;      Backtrack at end (%): 0
;      Rotate starting point (%): 0
;  Reverse export path: false
;
; File name: 'Battlesbury (C C)'
; File type: gcode
;

G01 X250.000 Y250.000
G01 X248.920 Y329.006
G01 X250.134 Y328.998
G01 X251.324 Y329.005
G01 X254.247 Y328.967
G01 X257.350 Y329.290
G01 X260.676 Y330.250
G01 X263.713 Y330.781
G01 X266.527 Y331.888
G01 X269.560 Y332.640
G01 X272.566 Y333.492
G01 X275.542 Y334.442
G01 X278.486 Y335.491
G01 X281.393 Y336.637
G01 X284.260 Y337.878
G01 X287.085 Y339.213
G01 X289.865 Y340.641
G01 X292.595 Y342.160
G01 X295.274 Y343.768
G01 X297.898 Y345.465
G01 X300.464 Y347.247
G01 X302.971 Y349.113
G01 X303.866 Y349.811
G01 X305.393 Y351.086
G01 X307.729 Y353.160
G01 X309.987 Y355.320
G01 X312.163 Y357.562
G01 X314.254 Y359.884
G01 X316.258 Y362.282
G01 X318.171 Y364.753
G01 X319.990 Y367.292
G01 X321.714 Y369.898
G01 X323.340 Y372.567
G01 X324.866 Y375.293
G01 X326.289 Y378.075
G01 X327.608 Y380.908
G01 X328.820 Y383.787
G01 X329.925 Y386.710
G01 X330.920 Y389.672
G01 X331.805 Y392.669
G01 X332.577 Y395.696
G01 X333.237 Y398.750
G01 X333.782 Y401.827
G01 X334.213 Y404.922
G01 X334.528 Y408.030
G01 X334.727 Y411.148
G01 X334.811 Y414.272
G01 X334.778 Y417.396
G01 X334.629 Y420.517
G01 X334.364 Y423.631
G01 X333.984 Y426.732
G01 X333.489 Y429.817
G01 X332.879 Y432.881
G01 X332.156 Y435.921
G01 X331.320 Y438.932
G01 X330.373 Y441.909
G01 X329.316 Y444.850
G01 X328.150 Y447.749
G01 X326.878 Y450.602
G01 X325.500 Y453.406
G01 X324.019 Y456.158
G01 X322.436 Y458.852
G01 X320.754 Y461.485
G01 X318.976 Y464.055
G01 X317.104 Y466.556
G01 X315.140 Y468.986
G01 X313.086 Y471.341
G01 X310.947 Y473.618
G01 X308.725 Y475.815
G01 X306.422 Y477.927
G01 X304.043 Y479.952
G01 X301.590 Y481.887
G01 X299.066 Y483.730
G01 X296.476 Y485.477
G01 X293.823 Y487.127
G01 X291.110 Y488.678
G01 X288.341 Y490.126
G01 X285.521 Y491.470
G01 X282.652 Y492.709
G01 X279.740 Y493.840
G01 X276.787 Y494.862
G01 X273.798 Y495.773
G01 X270.778 Y496.573
G01 X267.730 Y497.260
G01 X264.658 Y497.834
G01 X261.568 Y498.292
G01 X258.462 Y498.636
G01 X255.346 Y498.864
G01 X252.223 Y498.975
G01 X249.098 Y498.971
G01 X245.976 Y498.850
G01 X242.861 Y498.614
G01 X239.756 Y498.261
G01 X236.667 Y497.794
G01 X233.597 Y497.212
G01 X230.551 Y496.517
G01 X227.533 Y495.708
G01 X224.547 Y494.788
G01 X221.597 Y493.758
G01 X218.687 Y492.618
G01 X215.822 Y491.372
G01 X213.006 Y490.020
G01 X210.241 Y488.563
G01 X207.533 Y487.005
G01 X204.884 Y485.348
G01 X202.299 Y483.593
G01 X199.781 Y481.743
G01 X197.333 Y479.801
G01 X194.959 Y477.769
G01 X192.663 Y475.651
G01 X190.446 Y473.448
G01 X188.313 Y471.165
G01 X186.267 Y468.804
G01 X184.310 Y466.368
G01 X182.444 Y463.862
G01 X180.673 Y461.288
G01 X178.999 Y458.649
G01 X177.424 Y455.951
G01 X175.951 Y453.195
G01 X174.581 Y450.387
G01 X173.317 Y447.530
G01 X172.159 Y444.628
G01 X171.110 Y441.684
G01 X170.172 Y438.704
G01 X169.344 Y435.691
G01 X168.630 Y432.649
G01 X168.029 Y429.583
G01 X167.542 Y426.497
G01 X167.170 Y423.394
G01 X166.914 Y420.280
G01 X166.774 Y417.159
G01 X166.750 Y414.034
G01 X166.843 Y410.911
G01 X167.051 Y407.794
G01 X167.375 Y404.686
G01 X167.814 Y401.593
G01 X168.368 Y398.518
G01 X169.036 Y395.465
G01 X169.817 Y392.440
G01 X170.710 Y389.446
G01 X171.714 Y386.487
G01 X172.827 Y383.567
G01 X174.048 Y380.691
G01 X175.374 Y377.862
G01 X176.805 Y375.084
G01 X178.339 Y372.362
G01 X179.972 Y369.698
G01 X181.704 Y367.097
G01 X183.530 Y364.562
G01 X185.450 Y362.097
G01 X187.460 Y359.705
G01 X189.558 Y357.389
G01 X191.740 Y355.153
G01 X194.004 Y353.000
G01 X196.346 Y350.932
G01 X196.447 Y350.846
G01 X199.083 Y352.263
G01 X201.875 Y353.666
G01 X204.706 Y354.988
G01 X207.574 Y356.230
G01 X210.475 Y357.388
G01 X213.409 Y358.464
G01 X216.372 Y359.456
G01 X219.362 Y360.363
G01 X222.377 Y361.184
G01 X225.414 Y361.919
G01 X228.470 Y362.567
G01 X231.544 Y363.128
G01 X234.633 Y363.601
G01 X237.734 Y363.986
G01 X240.844 Y364.282
G01 X243.962 Y364.490
G01 X247.084 Y364.608
G01 X247.758 Y364.622
G01 X250.209 Y364.621
G01 X253.325 Y364.832
G01 X256.417 Y365.281
G01 X259.465 Y365.964
G01 X262.453 Y366.877
G01 X265.362 Y368.016
G01 X268.176 Y369.373
G01 X270.878 Y370.941
G01 X273.452 Y372.710
G01 X275.885 Y374.670
G01 X278.160 Y376.811
G01 X280.266 Y379.119
G01 X282.189 Y381.580
G01 X283.919 Y384.181
G01 X285.446 Y386.907
G01 X286.760 Y389.741
G01 X287.855 Y392.667
G01 X288.723 Y395.668
G01 X289.359 Y398.726
G01 X289.761 Y401.824
G01 X289.925 Y404.944
G01 X289.850 Y408.067
G01 X289.538 Y411.175
G01 X288.989 Y414.251
G01 X288.207 Y417.275
G01 X287.198 Y420.232
G01 X285.965 Y423.102
G01 X284.517 Y425.870
G01 X282.862 Y428.520
G01 X281.010 Y431.036
G01 X278.972 Y433.403
G01 X276.758 Y435.608
G01 X274.383 Y437.637
G01 X271.861 Y439.480
G01 X269.205 Y441.124
G01 X266.431 Y442.562
G01 X263.556 Y443.783
G01 X260.596 Y444.782
G01 X257.568 Y445.552
G01 X254.490 Y446.089
G01 X252.049 Y446.345
G01 X251.380 Y446.340
G01 X248.265 Y446.105
G01 X245.198 Y445.519
G01 X242.217 Y444.588
G01 X239.360 Y443.325
G01 X236.666 Y441.747
G01 X234.167 Y439.873
G01 X231.897 Y437.728
G01 X229.885 Y435.339
G01 X228.157 Y432.738
G01 X226.735 Y429.957
G01 X225.638 Y427.034
G01 X224.879 Y424.004
G01 X224.468 Y420.908
G01 X224.411 Y417.786
G01 X224.709 Y414.677
G01 X225.357 Y411.622
G01 X226.347 Y408.660
G01 X227.667 Y405.829
G01 X229.299 Y403.167
G01 X231.223 Y400.706
G01 X233.413 Y398.480
G01 X235.841 Y396.516
G01 X238.477 Y394.841
G01 X241.285 Y393.475
G01 X244.230 Y392.436
G01 X247.274 Y391.738
G01 X250.378 Y391.389
G01 X252.049 Y391.348
G01 X253.501 Y391.390
G01 X256.587 Y391.859
G01 X259.552 Y392.833
G01 X262.315 Y394.284
G01 X264.800 Y396.173
G01 X266.937 Y398.448
G01 X268.668 Y401.045
G01 X269.946 Y403.893
G01 X270.733 Y406.913
G01 X271.010 Y410.021
G01 X270.768 Y413.133
G01 X270.014 Y416.162
G01 X268.768 Y419.024
G01 X267.066 Y421.640
G01 X264.954 Y423.938
G01 X262.491 Y425.854
G01 X259.744 Y427.336
G01 X256.789 Y428.342
G01 X253.709 Y428.846
G01 X252.049 Y428.903
G01 X250.593 Y428.790
G01 X247.745 Y427.567
G01 X245.706 Y425.234
G01 X244.874 Y422.249
G01 X245.413 Y419.198
G01 X247.218 Y416.679
G01 X249.934 Y415.186
G01 X252.049 Y414.919
G01 X251.777 Y415.848
G01 X254.103 Y416.833
G01 X254.593 Y415.905
G01 X254.359 Y413.890
G01 X252.309 Y411.628
G01 X249.268 Y411.369
G01 X246.865 Y413.251
G01 X246.299 Y415.087
G01 X246.359 Y416.269
G01 X247.533 Y419.132
G01 X249.915 Y421.105
G01 X252.946 Y421.725
G01 X255.912 Y420.846
G01 X258.116 Y418.675
G01 X259.038 Y415.722
G01 X259.047 Y415.183
G01 X258.524 Y412.661
G01 X256.908 Y410.008
G01 X254.432 Y408.132
G01 X251.441 Y407.293
G01 X248.351 Y407.609
G01 X245.591 Y409.035
G01 X243.546 Y411.373
G01 X242.500 Y414.298
G01 X242.411 Y415.132
G01 X242.297 Y417.410
G01 X242.985 Y420.445
G01 X244.578 Y423.118
G01 X246.921 Y425.166
G01 X249.783 Y426.388
G01 X252.882 Y426.664
G01 X255.915 Y425.966
G01 X258.582 Y424.363
G01 X260.622 Y422.014
G01 X261.834 Y419.148
G01 X262.100 Y416.051
G01 X261.982 Y415.083
G01 X261.788 Y412.946
G01 X260.824 Y409.983
G01 X259.118 Y407.376
G01 X256.788 Y405.308
G01 X253.997 Y403.922
G01 X250.941 Y403.317
G01 X247.833 Y403.534
G01 X244.891 Y404.558
G01 X242.320 Y406.318
G01 X240.299 Y408.690
G01 X238.972 Y411.508
G01 X238.429 Y414.576
G01 X238.419 Y415.044
G01 X238.326 Y417.695
G01 X238.862 Y420.767
G01 X240.069 Y423.642
G01 X241.886 Y426.176
G01 X244.223 Y428.241
G01 X246.960 Y429.733
G01 X249.962 Y430.578
G01 X253.076 Y430.733
G01 X256.147 Y430.190
G01 X259.019 Y428.977
G01 X261.549 Y427.154
G01 X263.609 Y424.813
G01 X265.095 Y422.072
G01 X265.934 Y419.069
G01 X266.082 Y415.955
G01 X266.008 Y415.161
G01 X265.849 Y412.841
G01 X265.103 Y409.812
G01 X263.774 Y406.990
G01 X261.913 Y404.486
G01 X259.595 Y402.398
G01 X256.910 Y400.809
G01 X253.965 Y399.782
G01 X250.874 Y399.356
G01 X247.761 Y399.548
G01 X244.746 Y400.352
G01 X241.950 Y401.735
G01 X239.481 Y403.642
G01 X237.438 Y405.999
G01 X235.900 Y408.713
G01 X234.928 Y411.678
G01 X234.561 Y414.776
G01 X234.559 Y415.240
G01 X234.523 Y417.898
G01 X234.986 Y420.984
G01 X235.983 Y423.941
G01 X237.481 Y426.679
G01 X239.435 Y429.112
G01 X241.785 Y431.165
G01 X244.458 Y432.776
G01 X247.371 Y433.895
G01 X250.435 Y434.486
G01 X253.555 Y434.533
G01 X256.636 Y434.032
G01 X259.581 Y433.000
G01 X262.300 Y431.469
G01 X264.710 Y429.486
G01 X266.735 Y427.112
G01 X268.314 Y424.420
G01 X269.398 Y421.493
G01 X269.952 Y418.423
G01 X269.961 Y415.302
G01 X269.949 Y415.161
G01 X269.742 Y412.188
G01 X269.046 Y409.145
G01 X267.877 Y406.250
G01 X266.266 Y403.577
G01 X264.251 Y401.193
G01 X261.885 Y399.157
G01 X259.226 Y397.522
G01 X256.343 Y396.327
G01 X253.306 Y395.604
G01 X250.193 Y395.371
G01 X247.083 Y395.633
G01 X244.053 Y396.384
G01 X241.180 Y397.604
G01 X238.537 Y399.264
G01 X236.189 Y401.322
G01 X234.197 Y403.724
G01 X232.610 Y406.412
G01 X231.468 Y409.318
G01 X230.800 Y412.367
G01 X230.618 Y415.082
G01 X230.584 Y415.482
G01 X230.565 Y418.604
G01 X230.994 Y421.696
G01 X231.861 Y424.695
G01 X233.150 Y427.539
G01 X234.832 Y430.169
G01 X236.874 Y432.531
G01 X239.233 Y434.576
G01 X241.860 Y436.262
G01 X244.702 Y437.554
G01 X247.700 Y438.425
G01 X250.792 Y438.859
G01 X253.914 Y438.844
G01 X257.002 Y438.383
G01 X259.992 Y437.484
G01 X262.822 Y436.166
G01 X265.434 Y434.456
G01 X267.774 Y432.389
G01 X269.794 Y430.009
G01 X271.453 Y427.364
G01 X272.715 Y424.508
G01 X273.555 Y421.501
G01 X273.955 Y418.405
G01 X273.908 Y415.283
G01 X273.890 Y415.082
G01 X273.626 Y412.173
G01 X272.963 Y409.122
G01 X271.915 Y406.180
G01 X270.501 Y403.396
G01 X268.742 Y400.816
G01 X266.669 Y398.480
G01 X264.315 Y396.429
G01 X261.718 Y394.695
G01 X258.922 Y393.306
G01 X255.970 Y392.286
G01 X252.913 Y391.651
G01 X249.800 Y391.411
G01 X246.681 Y391.570
G01 X243.609 Y392.126
G01 X240.632 Y393.069
G01 X237.800 Y394.385
G01 X235.159 Y396.052
G01 X232.753 Y398.041
G01 X230.620 Y400.322
G01 X228.796 Y402.857
G01 X227.310 Y405.603
G01 X226.186 Y408.516
G01 X225.444 Y411.549
G01 X225.095 Y414.652
G01 X225.076 Y415.161
G01 X225.003 Y417.775
G01 X225.256 Y420.887
G01 X225.874 Y423.949
G01 X226.848 Y426.916
G01 X228.166 Y429.747
G01 X229.808 Y432.403
G01 X231.752 Y434.847
G01 X233.971 Y437.045
G01 X236.433 Y438.966
G01 X239.105 Y440.583
G01 X241.948 Y441.873
G01 X244.924 Y442.820
G01 X247.991 Y443.409
G01 X251.106 Y443.632
G01 X254.226 Y443.486
G01 X257.306 Y442.973
G01 X260.305 Y442.101
G01 X263.180 Y440.881
G01 X265.891 Y439.331
G01 X268.400 Y437.471
G01 X270.672 Y435.329
G01 X272.676 Y432.934
G01 X274.384 Y430.319
G01 X275.771 Y427.521
G01 X276.819 Y424.579
G01 X277.512 Y421.534
G01 X277.842 Y418.429
G01 X277.803 Y415.306
G01 X277.771 Y414.908
G01 X277.535 Y412.194
G01 X276.948 Y409.127
G01 X276.029 Y406.142
G01 X274.790 Y403.275
G01 X273.245 Y400.561
G01 X271.412 Y398.032
G01 X269.315 Y395.718
G01 X266.977 Y393.647
G01 X264.427 Y391.844
G01 X261.695 Y390.330
G01 X258.814 Y389.123
G01 X255.819 Y388.239
G01 X252.745 Y387.687
G01 X249.629 Y387.474
G01 X246.509 Y387.602
G01 X243.421 Y388.071
G01 X240.403 Y388.875
G01 X237.490 Y390.002
G01 X234.719 Y391.442
G01 X232.121 Y393.175
G01 X229.728 Y395.183
G01 X227.569 Y397.439
G01 X225.669 Y399.918
G01 X224.051 Y402.589
G01 X222.734 Y405.421
G01 X221.735 Y408.380
G01 X221.065 Y411.431
G01 X220.732 Y414.536
G01 X220.707 Y415.161
G01 X220.655 Y417.659
G01 X220.879 Y420.774
G01 X221.419 Y423.851
G01 X222.271 Y426.856
G01 X223.425 Y429.758
G01 X224.869 Y432.527
G01 X226.589 Y435.135
G01 X228.566 Y437.553
G01 X230.780 Y439.756
G01 X233.206 Y441.722
G01 X235.822 Y443.430
G01 X238.597 Y444.862
G01 X241.505 Y446.003
G01 X244.514 Y446.842
G01 X247.592 Y447.368
G01 X250.709 Y447.578
G01 X253.830 Y447.468
G01 X256.924 Y447.040
G01 X259.958 Y446.298
G01 X262.900 Y445.251
G01 X265.720 Y443.908
G01 X268.389 Y442.284
G01 X270.877 Y440.397
G01 X273.160 Y438.265
G01 X275.213 Y435.911
G01 X277.015 Y433.360
G01 X278.547 Y430.639
G01 X279.793 Y427.775
G01 X280.741 Y424.798
G01 X281.379 Y421.741
G01 X281.702 Y418.634
G01 X281.706 Y415.511
G01 X281.678 Y415.034
G01 X281.434 Y412.399
G01 X280.879 Y409.325
G01 X280.040 Y406.316
G01 X278.924 Y403.399
G01 X277.541 Y400.598
G01 X275.903 Y397.939
G01 X274.023 Y395.444
G01 X271.920 Y393.135
G01 X269.610 Y391.032
G01 X267.114 Y389.154
G01 X264.454 Y387.516
G01 X261.653 Y386.134
G01 X258.735 Y385.019
G01 X255.726 Y384.181
G01 X252.652 Y383.628
G01 X249.539 Y383.363
G01 X246.416 Y383.390
G01 X243.309 Y383.707
G01 X240.244 Y384.314
G01 X237.250 Y385.203
G01 X234.352 Y386.368
G01 X231.575 Y387.797
G01 X228.943 Y389.480
G01 X226.480 Y391.401
G01 X224.206 Y393.543
G01 X222.142 Y395.887
G01 X220.306 Y398.414
G01 X218.713 Y401.101
G01 X217.378 Y403.925
G01 X216.312 Y406.861
G01 X215.525 Y409.884
G01 X215.022 Y412.967
G01 X214.837 Y415.260
G01 X214.816 Y416.083
G01 X214.909 Y419.205
G01 X215.277 Y422.307
G01 X215.917 Y425.365
G01 X216.823 Y428.354
G01 X217.990 Y431.252
G01 X219.407 Y434.036
G01 X221.063 Y436.684
G01 X222.947 Y439.176
G01 X225.043 Y441.492
G01 X227.334 Y443.615
G01 X229.804 Y445.528
G01 X232.433 Y447.215
G01 X235.200 Y448.665
G01 X238.084 Y449.865
G01 X241.062 Y450.806
G01 X244.112 Y451.482
G01 X247.209 Y451.886
G01 X250.330 Y452.016
G01 X253.451 Y451.870
G01 X256.546 Y451.450
G01 X259.592 Y450.759
G01 X262.566 Y449.803
G01 X265.444 Y448.588
G01 X268.203 Y447.124
G01 X270.823 Y445.423
G01 X273.283 Y443.498
G01 X275.564 Y441.364
G01 X277.648 Y439.037
G01 X279.519 Y436.535
G01 X281.162 Y433.879
G01 X282.565 Y431.088
G01 X283.717 Y428.184
G01 X284.608 Y425.190
G01 X285.232 Y422.129
G01 X285.584 Y419.026
G01 X285.662 Y415.903
G01 X285.635 Y415.059
G01 X285.496 Y412.783
G01 X285.084 Y409.687
G01 X284.416 Y406.635
G01 X283.499 Y403.649
G01 X282.338 Y400.749
G01 X280.941 Y397.955
G01 X279.318 Y395.286
G01 X277.480 Y392.760
G01 X275.440 Y390.395
G01 X273.211 Y388.206
G01 X270.808 Y386.209
G01 X268.249 Y384.418
G01 X265.550 Y382.844
G01 X262.731 Y381.499
G01 X259.810 Y380.392
G01 X256.808 Y379.529
G01 X253.744 Y378.918
G01 X250.641 Y378.563
G01 X247.518 Y378.465
G01 X244.399 Y378.625
G01 X241.303 Y379.043
G01 X238.252 Y379.715
G01 X235.268 Y380.637
G01 X232.369 Y381.803
G01 X229.577 Y383.204
G01 X226.911 Y384.831
G01 X224.388 Y386.674
G01 X222.026 Y388.718
G01 X219.841 Y390.951
G01 X217.848 Y393.356
G01 X216.061 Y395.918
G01 X214.492 Y398.619
G01 X213.151 Y401.441
G01 X212.049 Y404.364
G01 X211.191 Y407.368
G01 X210.585 Y410.432
G01 X210.234 Y413.539
G01 X210.146 Y415.462
G01 X210.132 Y416.662
G01 X210.264 Y419.783
G01 X210.641 Y422.884
G01 X211.260 Y425.946
G01 X212.117 Y428.950
G01 X213.208 Y431.877
G01 X214.524 Y434.710
G01 X216.059 Y437.431
G01 X217.803 Y440.023
G01 X219.744 Y442.470
G01 X221.872 Y444.758
G01 X224.173 Y446.871
G01 X226.632 Y448.798
G01 X229.235 Y450.525
G01 X231.965 Y452.043
G01 X234.806 Y453.342
G01 X237.740 Y454.414
G01 X240.750 Y455.253
G01 X243.815 Y455.853
G01 X246.919 Y456.210
G01 X250.041 Y456.323
G01 X253.162 Y456.191
G01 X256.263 Y455.814
G01 X259.325 Y455.195
G01 X262.329 Y454.338
G01 X265.256 Y453.247
G01 X268.089 Y451.931
G01 X270.810 Y450.396
G01 X273.402 Y448.652
G01 X275.849 Y446.711
G01 X278.137 Y444.583
G01 X280.250 Y442.283
G01 X282.176 Y439.823
G01 X283.903 Y437.220
G01 X285.421 Y434.490
G01 X286.721 Y431.649
G01 X287.793 Y428.715
G01 X288.631 Y425.706
G01 X289.231 Y422.641
G01 X289.589 Y419.538
G01 X289.702 Y416.418
G01 X289.666 Y414.857
G01 X289.609 Y413.295
G01 X289.318 Y410.184
G01 X288.794 Y407.105
G01 X288.039 Y404.073
G01 X287.059 Y401.107
G01 X285.857 Y398.223
G01 X284.442 Y395.438
G01 X282.822 Y392.767
G01 X281.005 Y390.226
G01 X279.002 Y387.829
G01 X276.824 Y385.589
G01 X274.483 Y383.520
G01 X271.994 Y381.633
G01 X269.369 Y379.939
G01 X266.624 Y378.446
G01 X263.775 Y377.165
G01 X260.838 Y376.102
G01 X257.828 Y375.263
G01 X254.765 Y374.653
G01 X251.664 Y374.276
G01 X248.543 Y374.133
G01 X245.420 Y374.225
G01 X242.313 Y374.553
G01 X239.240 Y375.113
G01 X236.218 Y375.903
G01 X233.263 Y376.918
G01 X230.394 Y378.153
G01 X227.625 Y379.600
G01 X224.973 Y381.252
G01 X222.454 Y383.098
G01 X220.080 Y385.129
G01 X217.866 Y387.333
G01 X215.824 Y389.698
G01 X213.966 Y392.209
G01 X212.302 Y394.853
G01 X210.843 Y397.615
G01 X209.595 Y400.479
G01 X208.566 Y403.428
G01 X207.762 Y406.447
G01 X207.188 Y409.518
G01 X206.847 Y412.623
G01 X206.744 Y415.059
G01 X206.724 Y415.745
G01 X206.773 Y418.869
G01 X207.045 Y421.981
G01 X207.541 Y425.066
G01 X208.258 Y428.106
G01 X209.192 Y431.088
G01 X210.337 Y433.994
G01 X211.689 Y436.811
G01 X213.240 Y439.523
G01 X214.982 Y442.116
G01 X216.905 Y444.577
G01 X219.001 Y446.894
G01 X221.259 Y449.054
G01 X223.665 Y451.046
G01 X226.209 Y452.859
G01 X228.877 Y454.485
G01 X231.654 Y455.915
G01 X234.528 Y457.141
G01 X237.482 Y458.158
G01 X240.501 Y458.959
G01 X243.571 Y459.541
G01 X246.674 Y459.901
G01 X249.795 Y460.036
G01 X252.918 Y459.947
G01 X256.026 Y459.633
G01 X259.104 Y459.097
G01 X262.135 Y458.340
G01 X265.103 Y457.367
G01 X267.995 Y456.184
G01 X270.793 Y454.795
G01 X273.485 Y453.209
G01 X276.055 Y451.433
G01 X278.491 Y449.477
G01 X280.780 Y447.351
G01 X282.910 Y445.066
G01 X284.870 Y442.633
G01 X286.650 Y440.066
G01 X288.241 Y437.377
G01 X289.634 Y434.581
G01 X290.822 Y431.692
G01 X291.800 Y428.725
G01 X292.562 Y425.695
G01 X293.103 Y422.618
G01 X293.422 Y419.511
G01 X293.517 Y416.388
G01 X293.496 Y415.260
G01 X293.468 Y413.264
G01 X293.249 Y410.147
G01 X292.816 Y407.053
G01 X292.170 Y403.997
G01 X291.315 Y400.992
G01 X290.255 Y398.053
G01 X288.996 Y395.194
G01 X287.542 Y392.429
G01 X285.900 Y389.771
G01 X284.080 Y387.232
G01 X282.089 Y384.824
G01 X279.937 Y382.560
G01 X277.633 Y380.449
G01 X275.190 Y378.502
G01 X272.619 Y376.728
G01 X269.931 Y375.136
G01 X267.140 Y373.732
G01 X264.259 Y372.525
G01 X261.301 Y371.518
G01 X258.281 Y370.718
G01 X255.213 Y370.128
G01 X252.112 Y369.751
G01 X248.992 Y369.589
G01 X245.868 Y369.641
G01 X242.756 Y369.910
G01 X239.669 Y370.392
G01 X236.623 Y371.085
G01 X233.632 Y371.987
G01 X230.710 Y373.093
G01 X227.871 Y374.397
G01 X225.129 Y375.895
G01 X222.497 Y377.577
G01 X219.987 Y379.437
G01 X217.611 Y381.466
G01 X215.381 Y383.653
G01 X213.306 Y385.989
G01 X211.398 Y388.463
G01 X209.664 Y391.062
G01 X208.114 Y393.774
G01 X206.755 Y396.587
G01 X205.592 Y399.487
G01 X204.633 Y402.460
G01 X203.880 Y405.492
G01 X203.338 Y408.569
G01 X203.010 Y411.676
G01 X202.896 Y414.798
G01 X202.900 Y415.462
G01 X202.893 Y417.922
G01 X203.069 Y421.041
G01 X203.452 Y424.142
G01 X204.039 Y427.210
G01 X204.828 Y430.233
G01 X205.816 Y433.197
G01 X206.998 Y436.089
G01 X208.369 Y438.897
G01 X209.922 Y441.607
G01 X211.652 Y444.208
G01 X213.551 Y446.689
G01 X215.609 Y449.040
G01 X217.819 Y451.248
G01 X220.170 Y453.305
G01 X222.653 Y455.202
G01 X225.255 Y456.931
G01 X227.967 Y458.482
G01 X230.775 Y459.852
G01 X233.668 Y461.032
G01 X236.632 Y462.017
G01 X239.656 Y462.805
G01 X242.724 Y463.390
G01 X245.825 Y463.771
G01 X248.944 Y463.945
G01 X252.068 Y463.913
G01 X255.183 Y463.673
G01 X258.276 Y463.228
G01 X261.332 Y462.579
G01 X264.338 Y461.728
G01 X267.281 Y460.681
G01 X270.149 Y459.441
G01 X272.928 Y458.013
G01 X275.606 Y456.405
G01 X278.172 Y454.623
G01 X280.614 Y452.675
G01 X282.922 Y450.569
G01 X285.085 Y448.315
G01 X287.094 Y445.922
G01 X288.941 Y443.402
G01 X290.616 Y440.765
G01 X292.113 Y438.023
G01 X293.425 Y435.188
G01 X294.546 Y432.272
G01 X295.472 Y429.288
G01 X296.197 Y426.249
G01 X296.721 Y423.169
G01 X297.038 Y420.061
G01 X297.150 Y416.939
G01 X297.124 Y415.260
G01 X297.165 Y413.815
G01 X297.108 Y410.691
G01 X296.851 Y407.578
G01 X296.397 Y404.487
G01 X295.746 Y401.431
G01 X294.902 Y398.423
G01 X293.867 Y395.475
G01 X292.646 Y392.600
G01 X291.244 Y389.808
G01 X289.667 Y387.111
G01 X287.921 Y384.520
G01 X286.013 Y382.046
G01 X283.951 Y379.699
G01 X281.743 Y377.488
G01 X279.399 Y375.423
G01 X276.928 Y373.511
G01 X274.340 Y371.762
G01 X271.645 Y370.180
G01 X268.855 Y368.774
G01 X265.981 Y367.549
G01 X263.035 Y366.510
G01 X260.028 Y365.662
G01 X256.974 Y365.006
G01 X253.883 Y364.547
G01 X250.770 Y364.286
G01 X247.646 Y364.225
G01 X244.525 Y364.363
G01 X241.419 Y364.700
G01 X238.341 Y365.234
G01 X235.303 Y365.964
G01 X232.318 Y366.886
G01 X229.398 Y367.997
G01 X226.555 Y369.292
G01 X223.800 Y370.765
G01 X221.145 Y372.412
G01 X218.601 Y374.225
G01 X216.177 Y376.196
G01 X213.884 Y378.318
G01 X211.731 Y380.582
G01 X209.727 Y382.979
G01 X207.880 Y385.499
G01 X206.198 Y388.131
G01 X204.687 Y390.866
G01 X203.354 Y393.691
G01 X202.204 Y396.596
G01 X201.241 Y399.568
G01 X200.471 Y402.596
G01 X199.895 Y405.667
G01 X199.516 Y408.768
G01 X199.336 Y411.887
G01 X199.355 Y415.011
G01 X199.380 Y415.585
G01 X199.426 Y418.134
G01 X199.656 Y421.250
G01 X200.077 Y424.346
G01 X200.688 Y427.410
G01 X201.486 Y430.430
G01 X202.469 Y433.396
G01 X203.632 Y436.296
G01 X204.971 Y439.118
G01 X206.481 Y441.853
G01 X208.157 Y444.490
G01 X209.991 Y447.019
G01 X211.978 Y449.430
G01 X214.110 Y451.714
G01 X216.378 Y453.863
G01 X218.773 Y455.869
G01 X221.288 Y457.723
G01 X223.912 Y459.419
G01 X226.635 Y460.950
G01 X229.447 Y462.311
G01 X232.338 Y463.496
G01 X235.296 Y464.502
G01 X238.310 Y465.323
G01 X241.369 Y465.958
G01 X244.462 Y466.403
G01 X247.576 Y466.657
G01 X250.699 Y466.719
G01 X253.821 Y466.588
G01 X256.928 Y466.266
G01 X260.010 Y465.754
G01 X263.055 Y465.052
G01 X266.050 Y464.165
G01 X268.986 Y463.096
G01 X271.850 Y461.847
G01 X274.632 Y460.425
G01 X277.321 Y458.834
G01 X279.907 Y457.082
G01 X282.380 Y455.173
G01 X284.731 Y453.116
G01 X286.952 Y450.918
G01 X289.033 Y448.587
G01 X290.966 Y446.133
G01 X292.745 Y443.565
G01 X294.363 Y440.892
G01 X295.813 Y438.125
G01 X297.090 Y435.274
G01 X298.189 Y432.349
G01 X299.107 Y429.363
G01 X299.839 Y426.325
G01 X300.382 Y423.249
G01 X300.736 Y420.145
G01 X300.898 Y417.025
G01 X300.891 Y414.594
G01 X300.885 Y413.900
G01 X300.742 Y410.779
G01 X300.410 Y407.673
G01 X299.890 Y404.592
G01 X299.185 Y401.548
G01 X298.297 Y398.553
G01 X297.229 Y395.617
G01 X295.985 Y392.751
G01 X294.570 Y389.965
G01 X292.989 Y387.271
G01 X291.248 Y384.677
G01 X289.352 Y382.193
G01 X287.310 Y379.829
G01 X285.128 Y377.593
G01 X282.815 Y375.493
G01 X280.379 Y373.537
G01 X277.829 Y371.732
G01 X275.174 Y370.085
G01 X272.424 Y368.601
G01 X269.590 Y367.287
G01 X266.681 Y366.148
G01 X263.708 Y365.186
G01 X260.683 Y364.406
G01 X257.616 Y363.811
G01 X254.518 Y363.402
G01 X252.049 Y363.212
G01 X251.401 Y363.203
G01 X248.278 Y363.108
G01 X245.159 Y362.928
G01 X242.045 Y362.663
G01 X238.940 Y362.315
G01 X235.845 Y361.882
G01 X232.764 Y361.366
G01 X229.697 Y360.767
G01 X226.648 Y360.084
G01 X223.618 Y359.320
G01 X220.610 Y358.474
G01 X217.627 Y357.546
G01 X214.669 Y356.538
G01 X211.740 Y355.451
G01 X208.841 Y354.284
G01 X205.975 Y353.040
G01 X203.144 Y351.718
G01 X200.349 Y350.320
G01 X197.593 Y348.847
G01 X194.879 Y347.300
G01 X192.207 Y345.680
G01 X189.580 Y343.988
G01 X187.000 Y342.226
G01 X184.468 Y340.395
G01 X181.987 Y338.495
G01 X179.558 Y336.530
G01 X177.183 Y334.499
G01 X174.865 Y332.404
G01 X172.603 Y330.248
G01 X170.401 Y328.031
G01 X168.260 Y325.755
G01 X166.181 Y323.423
G01 X164.166 Y321.034
G01 X162.217 Y318.593
G01 X160.334 Y316.099
G01 X158.520 Y313.555
G01 X156.775 Y310.963
G01 X155.101 Y308.325
G01 X153.629 Y305.867
G01 X153.470 Y306.073
G01 X152.545 Y307.272
G01 X153.349 Y308.666
G01 X154.969 Y311.339
G01 X156.663 Y313.964
G01 X158.431 Y316.540
G01 X160.272 Y319.065
G01 X162.183 Y321.538
G01 X164.163 Y323.955
G01 X166.211 Y326.314
G01 X168.325 Y328.615
G01 X170.503 Y330.855
G01 X172.744 Y333.033
G01 X175.046 Y335.146
G01 X177.406 Y337.194
G01 X179.824 Y339.173
G01 X182.296 Y341.083
G01 X184.822 Y342.923
G01 X187.399 Y344.690
G01 X190.025 Y346.384
G01 X192.698 Y348.002
G01 X195.173 Y349.411
G01 X194.961 Y349.588
G01 X192.603 Y351.638
G01 X191.951 Y352.231
G01 X190.019 Y351.091
G01 X187.366 Y349.441
G01 X184.758 Y347.720
G01 X182.197 Y345.929
G01 X179.685 Y344.070
G01 X177.225 Y342.145
G01 X174.817 Y340.153
G01 X172.463 Y338.098
G01 X170.166 Y335.980
G01 X167.926 Y333.801
G01 X165.746 Y331.563
G01 X163.627 Y329.266
G01 X161.571 Y326.914
G01 X159.578 Y324.507
G01 X157.651 Y322.047
G01 X155.791 Y319.537
G01 X153.999 Y316.977
G01 X152.277 Y314.370
G01 X150.625 Y311.717
G01 X149.820 Y310.363
G01 X148.742 Y311.474
G01 X147.001 Y313.270
G01 X147.323 Y313.805
G01 X148.975 Y316.457
G01 X150.695 Y319.065
G01 X152.483 Y321.628
G01 X154.337 Y324.143
G01 X156.256 Y326.609
G01 X158.239 Y329.024
G01 X160.283 Y331.387
G01 X162.389 Y333.696
G01 X164.554 Y335.949
G01 X166.776 Y338.145
G01 X169.056 Y340.282
G01 X171.390 Y342.360
G01 X173.777 Y344.375
G01 X176.216 Y346.329
G01 X178.705 Y348.218
G01 X181.243 Y350.041
G01 X183.826 Y351.798
G01 X186.455 Y353.487
G01 X189.032 Y355.050
G01 X188.953 Y355.129
G01 X186.801 Y357.394
G01 X186.286 Y357.962
G01 X184.275 Y356.730
G01 X181.647 Y355.040
G01 X179.063 Y353.283
G01 X176.524 Y351.462
G01 X174.031 Y349.578
G01 X171.587 Y347.631
G01 X169.193 Y345.624
G01 X166.850 Y343.556
G01 X164.560 Y341.431
G01 X162.324 Y339.248
G01 X160.144 Y337.009
G01 X158.021 Y334.716
G01 X155.957 Y332.371
G01 X153.952 Y329.974
G01 X152.009 Y327.527
G01 X150.128 Y325.032
G01 X148.310 Y322.490
G01 X146.557 Y319.904
G01 X144.870 Y317.274
G01 X144.089 Y316.006
G01 X142.847 Y317.069
G01 X141.084 Y318.579
G01 X141.506 Y319.262
G01 X143.191 Y321.894
G01 X144.939 Y324.484
G01 X146.750 Y327.031
G01 X148.622 Y329.532
G01 X150.555 Y331.987
G01 X152.548 Y334.394
G01 X154.599 Y336.751
G01 X156.707 Y339.058
G01 X158.870 Y341.312
G01 X161.089 Y343.513
G01 X163.360 Y345.659
G01 X165.683 Y347.748
G01 X168.056 Y349.781
G01 X170.478 Y351.755
G01 X172.948 Y353.669
G01 X175.464 Y355.522
G01 X178.025 Y357.313
G01 X180.628 Y359.040
G01 X183.273 Y360.704
G01 X183.705 Y360.967
G01 X182.074 Y363.021
G01 X181.283 Y364.066
G01 X179.742 Y363.109
G01 X177.119 Y361.411
G01 X174.537 Y359.651
G01 X171.997 Y357.831
G01 X169.501 Y355.951
G01 X167.051 Y354.012
G01 X164.647 Y352.016
G01 X162.291 Y349.963
G01 X159.985 Y347.855
G01 X157.729 Y345.693
G01 X155.525 Y343.478
G01 X153.375 Y341.211
G01 X151.278 Y338.894
G01 X149.237 Y336.528
G01 X147.253 Y334.114
G01 X145.327 Y331.654
G01 X143.460 Y329.149
G01 X141.652 Y326.600
G01 X139.906 Y324.009
G01 X138.221 Y321.377
G01 X137.985 Y320.997
G01 X135.802 Y322.546
G01 X134.794 Y323.262
G01 X135.801 Y324.859
G01 X137.517 Y327.470
G01 X139.293 Y330.041
G01 X141.127 Y332.571
G01 X143.020 Y335.057
G01 X144.968 Y337.500
G01 X146.973 Y339.897
G01 X149.033 Y342.246
G01 X151.146 Y344.548
G01 X153.311 Y346.801
G01 X155.528 Y349.003
G01 X157.795 Y351.154
G01 X160.111 Y353.251
G01 X162.474 Y355.295
G01 X164.884 Y357.284
G01 X167.339 Y359.217
G01 X169.839 Y361.092
G01 X172.380 Y362.910
G01 X174.963 Y364.668
G01 X177.585 Y366.367
G01 X179.015 Y367.257
G01 X178.218 Y368.457
G01 X176.900 Y370.542
G01 X176.341 Y370.197
G01 X173.705 Y368.517
G01 X171.108 Y366.780
G01 X168.551 Y364.984
G01 X166.034 Y363.132
G01 X163.560 Y361.224
G01 X161.129 Y359.261
G01 X158.742 Y357.244
G01 X156.402 Y355.174
G01 X154.108 Y353.053
G01 X151.862 Y350.880
G01 X149.666 Y348.658
G01 X147.519 Y346.387
G01 X145.425 Y344.068
G01 X143.382 Y341.704
G01 X141.393 Y339.294
G01 X139.459 Y336.840
G01 X137.580 Y334.343
G01 X135.757 Y331.805
G01 X133.992 Y329.227
G01 X132.285 Y326.610
G01 X131.509 Y325.377
G01 X130.067 Y326.215
G01 X128.130 Y327.341
G01 X128.599 Y328.091
G01 X130.292 Y330.717
G01 X132.042 Y333.306
G01 X133.848 Y335.856
G01 X135.709 Y338.366
G01 X137.624 Y340.835
G01 X139.592 Y343.262
G01 X141.613 Y345.645
G01 X143.686 Y347.983
G01 X145.808 Y350.276
G01 X147.981 Y352.522
G01 X150.201 Y354.721
G01 X152.469 Y356.870
G01 X154.784 Y358.969
G01 X157.143 Y361.018
G01 X159.547 Y363.015
G01 X161.993 Y364.958
G01 X164.481 Y366.848
G01 X167.010 Y368.684
G01 X169.578 Y370.464
G01 X172.185 Y372.187
G01 X174.828 Y373.854
G01 X174.937 Y373.921
G01 X173.536 Y376.570
G01 X173.154 Y377.334
G01 X171.205 Y376.170
G01 X168.558 Y374.511
G01 X165.951 Y372.788
G01 X163.386 Y371.003
G01 X160.866 Y369.156
G01 X158.391 Y367.249
G01 X155.963 Y365.282
G01 X153.583 Y363.257
G01 X151.253 Y361.175
G01 X148.974 Y359.038
G01 X146.747 Y356.846
G01 X144.574 Y354.600
G01 X142.456 Y352.303
G01 X140.395 Y349.955
G01 X138.391 Y347.557
G01 X136.445 Y345.112
G01 X134.559 Y342.621
G01 X132.735 Y340.084
G01 X130.972 Y337.505
G01 X129.272 Y334.883
G01 X127.636 Y332.221
G01 X126.065 Y329.520
G01 X125.005 Y327.609
G01 X125.842 Y327.180
G01 X128.588 Y325.689
G01 X131.276 Y324.096
G01 X133.903 Y322.404
G01 X136.465 Y320.616
G01 X138.959 Y318.734
G01 X141.382 Y316.761
G01 X143.729 Y314.699
G01 X145.998 Y312.551
G01 X148.186 Y310.320
G01 X150.290 Y308.010
G01 X152.306 Y305.623
G01 X154.232 Y303.162
G01 X156.065 Y300.632
G01 X157.804 Y298.036
G01 X159.444 Y295.376
G01 X160.984 Y292.658
G01 X162.423 Y289.884
G01 X163.757 Y287.059
G01 X164.985 Y284.186
G01 X166.107 Y281.269
G01 X167.118 Y278.313
G01 X168.019 Y275.321
G01 X168.809 Y272.298
G01 X169.485 Y269.248
G01 X170.048 Y266.174
G01 X170.496 Y263.082
G01 X170.829 Y259.975
G01 X171.046 Y256.858
G01 X171.147 Y253.735
G01 X171.148 Y251.432
G01 X171.127 Y250.611
G01 X171.127 Y247.487
G01 X171.250 Y244.364
G01 X171.498 Y241.250
G01 X171.870 Y238.147
G01 X172.365 Y235.062
G01 X172.983 Y231.999
G01 X173.722 Y228.964
G01 X174.580 Y225.959
G01 X175.558 Y222.992
G01 X176.654 Y220.066
G01 X177.864 Y217.185
G01 X179.189 Y214.355
G01 X180.624 Y211.580
G01 X182.170 Y208.864
G01 X183.822 Y206.212
G01 X185.578 Y203.628
G01 X187.436 Y201.116
G01 X189.392 Y198.680
G01 X191.444 Y196.323
G01 X193.587 Y194.050
G01 X195.820 Y191.864
G01 X198.138 Y189.768
G01 X200.537 Y187.767
G01 X203.014 Y185.862
G01 X205.565 Y184.058
G01 X208.185 Y182.357
G01 X210.872 Y180.761
G01 X213.619 Y179.273
G01 X216.424 Y177.896
G01 X219.281 Y176.631
G01 X222.186 Y175.481
G01 X225.135 Y174.448
G01 X228.122 Y173.533
G01 X231.144 Y172.737
G01 X234.195 Y172.063
G01 X237.270 Y171.510
G01 X240.365 Y171.080
G01 X243.474 Y170.774
G01 X246.594 Y170.591
G01 X249.718 Y170.533
G01 X252.841 Y170.599
G01 X255.960 Y170.789
G01 X259.069 Y171.104
G01 X262.162 Y171.542
G01 X265.236 Y172.102
G01 X268.285 Y172.784
G01 X271.305 Y173.587
G01 X274.290 Y174.510
G01 X277.236 Y175.551
G01 X280.138 Y176.708
G01 X282.993 Y177.980
G01 X285.794 Y179.364
G01 X288.537 Y180.859
G01 X291.220 Y182.461
G01 X293.836 Y184.170
G01 X296.382 Y185.980
G01 X298.854 Y187.891
G01 X301.249 Y189.899
G01 X303.561 Y192.000
G01 X305.788 Y194.192
G01 X307.926 Y196.470
G01 X309.972 Y198.832
G01 X311.922 Y201.273
G01 X313.773 Y203.790
G01 X315.523 Y206.379
G01 X317.168 Y209.035
G01 X318.707 Y211.755
G01 X320.135 Y214.533
G01 X321.453 Y217.367
G01 X322.656 Y220.250
G01 X323.744 Y223.179
G01 X324.714 Y226.149
G01 X325.566 Y229.155
G01 X326.297 Y232.193
G01 X326.906 Y235.258
G01 X327.394 Y238.344
G01 X327.758 Y241.447
G01 X327.998 Y244.562
G01 X328.114 Y247.685
G01 X328.106 Y250.809
G01 X327.973 Y253.931
G01 X327.716 Y257.045
G01 X327.336 Y260.146
G01 X326.833 Y263.230
G01 X326.207 Y266.291
G01 X325.460 Y269.325
G01 X324.593 Y272.327
G01 X323.607 Y275.292
G01 X322.503 Y278.215
G01 X321.285 Y281.092
G01 X319.953 Y283.918
G01 X318.509 Y286.689
G01 X316.956 Y289.401
G01 X315.297 Y292.048
G01 X313.534 Y294.628
G01 X311.669 Y297.135
G01 X309.706 Y299.566
G01 X307.648 Y301.917
G01 X305.498 Y304.184
G01 X303.260 Y306.364
G01 X300.936 Y308.453
G01 X298.531 Y310.448
G01 X296.049 Y312.346
G01 X293.493 Y314.143
G01 X290.868 Y315.837
G01 X288.177 Y317.426
G01 X285.426 Y318.906
G01 X282.617 Y320.275
G01 X279.757 Y321.532
G01 X276.848 Y322.674
G01 X273.897 Y323.699
G01 X270.907 Y324.606
G01 X267.883 Y325.393
G01 X264.830 Y326.059
G01 X261.754 Y326.604
G01 X258.658 Y327.025
G01 X255.547 Y327.323
G01 X252.428 Y327.497
G01 X249.304 Y327.547
G01 X246.180 Y327.472
G01 X243.062 Y327.273
G01 X239.954 Y326.950
G01 X236.862 Y326.504
G01 X233.789 Y325.935
G01 X230.742 Y325.244
G01 X227.725 Y324.433
G01 X224.742 Y323.502
G01 X221.799 Y322.453
G01 X218.900 Y321.288
G01 X216.049 Y320.009
G01 X213.252 Y318.616
G01 X210.512 Y317.114
G01 X207.834 Y315.504
G01 X205.223 Y313.789
G01 X202.681 Y311.971
G01 X200.214 Y310.054
G01 X197.826 Y308.040
G01 X195.519 Y305.932
G01 X193.298 Y303.734
G01 X191.166 Y301.450
G01 X189.127 Y299.083
G01 X187.184 Y296.636
G01 X185.339 Y294.114
G01 X183.597 Y291.520
G01 X181.959 Y288.860
G01 X180.428 Y286.136
G01 X179.007 Y283.353
G01 X177.697 Y280.516
G01 X176.502 Y277.630
G01 X175.422 Y274.698
G01 X174.460 Y271.725
G01 X173.617 Y268.716
G01 X172.894 Y265.677
G01 X172.293 Y262.610
G01 X171.814 Y259.523
G01 X171.459 Y256.419
G01 X171.227 Y253.303
G01 X171.160 Y251.799
G01 X171.067 Y253.416
G01 X170.811 Y256.530
G01 X170.452 Y259.634
G01 X169.990 Y262.725
G01 X169.426 Y265.798
G01 X168.761 Y268.851
G01 X167.996 Y271.880
G01 X167.131 Y274.883
G01 X166.167 Y277.855
G01 X165.106 Y280.794
G01 X163.948 Y283.696
G01 X162.694 Y286.558
G01 X161.347 Y289.377
G01 X159.907 Y292.150
G01 X158.376 Y294.874
G01 X156.756 Y297.546
G01 X155.049 Y300.163
G01 X153.256 Y302.722
G01 X151.381 Y305.218
G01 X150.928 Y305.796
G01 X149.392 Y307.627
G01 X147.307 Y309.954
G01 X145.136 Y312.202
G01 X142.883 Y314.367
G01 X140.552 Y316.447
G01 X138.145 Y318.439
G01 X135.665 Y320.340
G01 X133.116 Y322.147
G01 X130.502 Y323.859
G01 X127.826 Y325.472
G01 X125.092 Y326.985
G01 X122.304 Y328.395
G01 X119.465 Y329.700
G01 X116.580 Y330.899
G01 X113.652 Y331.989
G01 X110.685 Y332.971
G01 X107.684 Y333.841
G01 X104.653 Y334.599
G01 X101.596 Y335.243
G01 X98.516 Y335.774
G01 X95.420 Y336.190
G01 X92.310 Y336.491
G01 X89.191 Y336.675
G01 X86.067 Y336.744
G01 X82.943 Y336.696
G01 X79.822 Y336.532
G01 X76.710 Y336.253
G01 X73.611 Y335.858
G01 X70.528 Y335.347
G01 X67.467 Y334.723
G01 X64.431 Y333.985
G01 X61.424 Y333.135
G01 X58.451 Y332.174
G01 X55.516 Y331.103
G01 X52.622 Y329.924
G01 X49.775 Y328.637
G01 X46.977 Y327.246
G01 X44.233 Y325.752
G01 X41.546 Y324.157
G01 X38.921 Y322.463
G01 X36.360 Y320.672
G01 X33.868 Y318.788
G01 X31.447 Y316.812
G01 X29.102 Y314.747
G01 X26.835 Y312.597
G01 X24.649 Y310.365
G01 X22.548 Y308.052
G01 X20.534 Y305.663
G01 X18.611 Y303.200
G01 X16.780 Y300.668
G01 X15.045 Y298.070
G01 X13.408 Y295.409
G01 X11.871 Y292.688
G01 X10.435 Y289.913
G01 X9.104 Y287.086
G01 X7.880 Y284.212
G01 X6.762 Y281.294
G01 X5.754 Y278.336
G01 X4.857 Y275.343
G01 X4.071 Y272.319
G01 X3.399 Y269.268
G01 X2.840 Y266.193
G01 X2.397 Y263.101
G01 X2.068 Y259.993
G01 X1.855 Y256.876
G01 X1.758 Y253.753
G01 X1.778 Y250.628
G01 X1.913 Y247.507
G01 X2.164 Y244.392
G01 X2.531 Y241.290
G01 X3.013 Y238.203
G01 X3.610 Y235.135
G01 X4.320 Y232.093
G01 X5.143 Y229.078
G01 X6.077 Y226.097
G01 X7.122 Y223.152
G01 X8.275 Y220.248
G01 X9.535 Y217.389
G01 X10.901 Y214.579
G01 X12.370 Y211.821
G01 X13.941 Y209.120
G01 X15.611 Y206.479
G01 X17.378 Y203.903
G01 X19.240 Y201.393
G01 X21.194 Y198.955
G01 X23.237 Y196.591
G01 X25.366 Y194.304
G01 X27.580 Y192.099
G01 X29.873 Y189.977
G01 X32.244 Y187.942
G01 X34.688 Y185.996
G01 X37.204 Y184.142
G01 X39.787 Y182.384
G01 X42.433 Y180.722
G01 X45.139 Y179.160
G01 X47.901 Y177.700
G01 X50.716 Y176.344
G01 X53.579 Y175.093
G01 X56.487 Y173.949
G01 X59.435 Y172.914
G01 X62.420 Y171.990
G01 X65.437 Y171.177
G01 X68.482 Y170.477
G01 X71.551 Y169.890
G01 X74.640 Y169.418
G01 X77.744 Y169.062
G01 X80.859 Y168.821
G01 X83.981 Y168.695
G01 X87.106 Y168.686
G01 X90.228 Y168.793
G01 X93.345 Y169.017
G01 X96.451 Y169.356
G01 X99.542 Y169.810
G01 X102.615 Y170.378
G01 X105.664 Y171.061
G01 X108.685 Y171.856
G01 X111.675 Y172.764
G01 X114.629 Y173.781
G01 X117.544 Y174.908
G01 X120.414 Y176.142
G01 X123.237 Y177.483
G01 X126.007 Y178.927
G01 X128.722 Y180.473
G01 X131.378 Y182.119
G01 X133.971 Y183.863
G01 X136.497 Y185.702
G01 X138.953 Y187.633
G01 X141.335 Y189.655
G01 X143.641 Y191.764
G01 X145.867 Y193.957
G01 X148.010 Y196.231
G01 X149.893 Y198.378
G01 X149.763 Y198.613
G01 X148.292 Y201.369
G01 X146.899 Y204.167
G01 X145.587 Y207.002
G01 X144.357 Y209.874
G01 X143.208 Y212.780
G01 X142.143 Y215.718
G01 X141.162 Y218.684
G01 X140.267 Y221.678
G01 X139.456 Y224.696
G01 X138.732 Y227.735
G01 X138.095 Y230.794
G01 X137.546 Y233.870
G01 X137.084 Y236.960
G01 X136.710 Y240.063
G01 X136.426 Y243.174
G01 X136.230 Y246.293
G01 X136.122 Y249.416
G01 X136.117 Y249.689
G01 X136.105 Y252.540
G01 X135.863 Y255.654
G01 X135.384 Y258.741
G01 X134.671 Y261.783
G01 X133.729 Y264.761
G01 X132.562 Y267.659
G01 X131.177 Y270.459
G01 X129.583 Y273.146
G01 X127.788 Y275.703
G01 X125.804 Y278.116
G01 X123.642 Y280.370
G01 X121.313 Y282.453
G01 X118.833 Y284.353
G01 X116.215 Y286.057
G01 X113.475 Y287.557
G01 X110.628 Y288.844
G01 X107.691 Y289.909
G01 X104.682 Y290.748
G01 X101.618 Y291.354
G01 X98.516 Y291.726
G01 X95.395 Y291.859
G01 X92.273 Y291.754
G01 X89.167 Y291.411
G01 X86.097 Y290.832
G01 X83.081 Y290.021
G01 X80.134 Y288.982
G01 X77.276 Y287.722
G01 X74.522 Y286.247
G01 X71.889 Y284.566
G01 X69.391 Y282.689
G01 X67.044 Y280.628
G01 X64.862 Y278.393
G01 X62.855 Y275.998
G01 X61.038 Y273.458
G01 X59.419 Y270.786
G01 X58.009 Y267.998
G01 X56.816 Y265.111
G01 X55.846 Y262.141
G01 X55.106 Y259.106
G01 X54.599 Y256.024
G01 X54.395 Y253.979
G01 X54.409 Y252.910
G01 X54.690 Y249.799
G01 X55.321 Y246.741
G01 X56.295 Y243.773
G01 X57.599 Y240.936
G01 X59.217 Y238.264
G01 X61.127 Y235.793
G01 X63.305 Y233.555
G01 X65.723 Y231.578
G01 X68.349 Y229.888
G01 X71.150 Y228.507
G01 X74.089 Y227.452
G01 X77.129 Y226.737
G01 X80.231 Y226.372
G01 X83.354 Y226.360
G01 X86.458 Y226.703
G01 X89.503 Y227.396
G01 X92.451 Y228.429
G01 X95.262 Y229.790
G01 X97.900 Y231.461
G01 X100.332 Y233.420
G01 X102.526 Y235.642
G01 X104.454 Y238.099
G01 X106.091 Y240.759
G01 X107.416 Y243.587
G01 X108.412 Y246.547
G01 X109.066 Y249.601
G01 X109.369 Y252.709
G01 X109.391 Y253.980
G01 X109.318 Y255.831
G01 X108.783 Y258.906
G01 X107.746 Y261.850
G01 X106.236 Y264.582
G01 X104.295 Y267.025
G01 X101.975 Y269.114
G01 X99.342 Y270.789
G01 X96.467 Y272.005
G01 X93.431 Y272.728
G01 X90.317 Y272.939
G01 X87.211 Y272.630
G01 X84.200 Y271.812
G01 X81.365 Y270.505
G01 X78.786 Y268.748
G01 X76.533 Y266.587
G01 X74.670 Y264.083
G01 X73.247 Y261.305
G01 X72.304 Y258.330
G01 X71.867 Y255.240
G01 X71.836 Y253.980
G01 X72.034 Y252.132
G01 X73.417 Y249.359
G01 X75.863 Y247.456
G01 X78.891 Y246.796
G01 X81.906 Y247.510
G01 X84.318 Y249.456
G01 X85.652 Y252.253
G01 X85.821 Y253.979
G01 X84.504 Y253.788
G01 X84.203 Y256.296
G01 X84.834 Y256.524
G01 X87.214 Y256.131
G01 X89.270 Y253.876
G01 X89.239 Y250.824
G01 X87.137 Y248.611
G01 X85.653 Y248.229
G01 X84.079 Y248.359
G01 X81.296 Y249.709
G01 X79.474 Y252.209
G01 X79.044 Y255.273
G01 X80.106 Y258.178
G01 X82.410 Y260.243
G01 X85.415 Y260.980
G01 X85.557 Y260.977
G01 X88.446 Y260.306
G01 X91.019 Y258.566
G01 X92.776 Y256.003
G01 X93.471 Y252.975
G01 X93.008 Y249.904
G01 X91.452 Y247.215
G01 X89.019 Y245.283
G01 X86.047 Y244.378
G01 X85.608 Y244.342
G01 X82.934 Y244.262
G01 X79.928 Y245.070
G01 X77.321 Y246.769
G01 X75.369 Y249.192
G01 X74.262 Y252.100
G01 X74.111 Y255.208
G01 X74.929 Y258.211
G01 X76.637 Y260.812
G01 X79.067 Y262.756
G01 X81.979 Y263.853
G01 X85.088 Y263.993
G01 X85.656 Y263.913
G01 X88.187 Y263.639
G01 X91.115 Y262.576
G01 X93.663 Y260.781
G01 X95.650 Y258.382
G01 X96.940 Y255.546
G01 X97.441 Y252.471
G01 X97.118 Y249.372
G01 X95.995 Y246.466
G01 X94.148 Y243.957
G01 X91.709 Y242.018
G01 X88.847 Y240.787
G01 X85.762 Y240.350
G01 X85.695 Y240.349
G01 X82.644 Y240.286
G01 X79.589 Y240.911
G01 X76.750 Y242.200
G01 X74.270 Y244.090
G01 X72.273 Y246.485
G01 X70.860 Y249.265
G01 X70.102 Y252.289
G01 X70.037 Y255.407
G01 X70.668 Y258.460
G01 X71.964 Y261.297
G01 X73.859 Y263.773
G01 X76.258 Y265.764
G01 X79.041 Y267.171
G01 X82.067 Y267.923
G01 X85.185 Y267.981
G01 X85.579 Y267.938
G01 X88.295 Y267.718
G01 X91.304 Y266.895
G01 X94.091 Y265.494
G01 X96.547 Y263.570
G01 X98.575 Y261.199
G01 X100.094 Y258.475
G01 X101.047 Y255.504
G01 X101.393 Y252.404
G01 X101.122 Y249.296
G01 X100.242 Y246.303
G01 X98.788 Y243.543
G01 X96.818 Y241.124
G01 X94.410 Y239.141
G01 X91.657 Y237.673
G01 X88.669 Y236.778
G01 X85.563 Y236.489
G01 X85.500 Y236.490
G01 X82.442 Y236.482
G01 X79.367 Y237.016
G01 X76.433 Y238.078
G01 X73.730 Y239.638
G01 X71.341 Y241.647
G01 X69.341 Y244.042
G01 X67.791 Y246.751
G01 X66.739 Y249.689
G01 X66.217 Y252.765
G01 X66.241 Y255.886
G01 X66.811 Y258.954
G01 X67.909 Y261.875
G01 X69.500 Y264.559
G01 X71.538 Y266.923
G01 X73.957 Y268.895
G01 X76.684 Y270.412
G01 X79.634 Y271.430
G01 X82.717 Y271.915
G01 X85.579 Y271.879
G01 X85.838 Y271.879
G01 X88.948 Y271.610
G01 X91.976 Y270.852
G01 X94.846 Y269.625
G01 X97.486 Y267.959
G01 X99.829 Y265.897
G01 X101.816 Y263.489
G01 X103.397 Y260.798
G01 X104.532 Y257.890
G01 X105.193 Y254.840
G01 X105.363 Y251.723
G01 X105.037 Y248.618
G01 X104.225 Y245.605
G01 X102.946 Y242.757
G01 X101.232 Y240.148
G01 X99.127 Y237.843
G01 X96.684 Y235.900
G01 X93.965 Y234.368
G01 X91.037 Y233.286
G01 X87.975 Y232.681
G01 X85.658 Y232.549
G01 X84.858 Y232.487
G01 X81.736 Y232.526
G01 X78.652 Y233.011
G01 X75.669 Y233.934
G01 X72.850 Y235.275
G01 X70.251 Y237.005
G01 X67.927 Y239.090
G01 X65.926 Y241.487
G01 X64.289 Y244.145
G01 X63.050 Y247.010
G01 X62.234 Y250.024
G01 X61.858 Y253.123
G01 X61.929 Y256.244
G01 X62.448 Y259.323
G01 X63.402 Y262.296
G01 X64.772 Y265.101
G01 X66.530 Y267.681
G01 X68.639 Y269.983
G01 X71.056 Y271.959
G01 X73.732 Y273.568
G01 X76.610 Y274.777
G01 X79.632 Y275.562
G01 X82.735 Y275.905
G01 X85.658 Y275.820
G01 X85.856 Y275.813
G01 X88.962 Y275.493
G01 X92.002 Y274.780
G01 X94.926 Y273.684
G01 X97.687 Y272.224
G01 X100.238 Y270.424
G01 X102.539 Y268.313
G01 X104.551 Y265.925
G01 X106.243 Y263.300
G01 X107.585 Y260.481
G01 X108.557 Y257.513
G01 X109.142 Y254.446
G01 X109.331 Y251.329
G01 X109.120 Y248.214
G01 X108.514 Y245.151
G01 X107.521 Y242.190
G01 X106.159 Y239.380
G01 X104.450 Y236.767
G01 X102.421 Y234.393
G01 X100.105 Y232.299
G01 X97.541 Y230.516
G01 X94.771 Y229.075
G01 X91.840 Y228.000
G01 X88.795 Y227.308
G01 X85.686 Y227.009
G01 X85.579 Y227.006
G01 X82.564 Y226.946
G01 X79.455 Y227.245
G01 X76.404 Y227.910
G01 X73.452 Y228.929
G01 X70.641 Y230.289
G01 X68.010 Y231.972
G01 X65.596 Y233.953
G01 X63.432 Y236.204
G01 X61.549 Y238.696
G01 X59.972 Y241.391
G01 X58.725 Y244.254
G01 X57.824 Y247.245
G01 X57.282 Y250.320
G01 X57.106 Y253.438
G01 X57.299 Y256.555
G01 X57.858 Y259.627
G01 X58.776 Y262.612
G01 X60.039 Y265.468
G01 X61.631 Y268.155
G01 X63.528 Y270.636
G01 X65.704 Y272.876
G01 X68.129 Y274.843
G01 X70.770 Y276.511
G01 X73.588 Y277.855
G01 X76.546 Y278.858
G01 X79.600 Y279.505
G01 X82.710 Y279.788
G01 X85.831 Y279.702
G01 X85.832 Y279.702
G01 X88.942 Y279.409
G01 X92.000 Y278.779
G01 X94.972 Y277.819
G01 X97.821 Y276.539
G01 X100.514 Y274.956
G01 X103.017 Y273.088
G01 X105.301 Y270.959
G01 X107.339 Y268.592
G01 X109.106 Y266.017
G01 X110.582 Y263.264
G01 X111.748 Y260.367
G01 X112.590 Y257.359
G01 X113.099 Y254.278
G01 X113.268 Y251.159
G01 X113.096 Y248.041
G01 X112.584 Y244.960
G01 X111.738 Y241.953
G01 X110.569 Y239.057
G01 X109.091 Y236.306
G01 X107.322 Y233.733
G01 X105.281 Y231.368
G01 X102.995 Y229.241
G01 X100.490 Y227.376
G01 X97.796 Y225.795
G01 X94.945 Y224.519
G01 X91.973 Y223.561
G01 X88.913 Y222.934
G01 X85.803 Y222.645
G01 X85.579 Y222.637
G01 X82.680 Y222.597
G01 X79.568 Y222.861
G01 X76.499 Y223.442
G01 X73.505 Y224.333
G01 X70.619 Y225.525
G01 X67.868 Y227.005
G01 X65.284 Y228.759
G01 X62.892 Y230.768
G01 X60.718 Y233.010
G01 X58.783 Y235.462
G01 X57.110 Y238.099
G01 X55.714 Y240.894
G01 X54.611 Y243.816
G01 X53.813 Y246.835
G01 X53.327 Y249.921
G01 X53.158 Y253.039
G01 X53.309 Y256.159
G01 X53.777 Y259.247
G01 X54.558 Y262.271
G01 X55.645 Y265.200
G01 X57.024 Y268.002
G01 X58.682 Y270.649
G01 X60.602 Y273.112
G01 X62.764 Y275.367
G01 X65.144 Y277.389
G01 X67.719 Y279.157
G01 X70.460 Y280.654
G01 X73.340 Y281.862
G01 X76.329 Y282.770
G01 X79.394 Y283.369
G01 X82.505 Y283.651
G01 X85.628 Y283.614
G01 X85.705 Y283.609
G01 X88.737 Y283.310
G01 X91.804 Y282.718
G01 X94.803 Y281.843
G01 X97.706 Y280.692
G01 X100.490 Y279.276
G01 X103.130 Y277.605
G01 X105.602 Y275.697
G01 X107.886 Y273.565
G01 X109.961 Y271.231
G01 X111.809 Y268.713
G01 X113.415 Y266.033
G01 X114.763 Y263.216
G01 X115.843 Y260.285
G01 X116.645 Y257.266
G01 X117.162 Y254.185
G01 X117.389 Y251.070
G01 X117.325 Y247.947
G01 X116.970 Y244.844
G01 X116.327 Y241.787
G01 X115.402 Y238.803
G01 X114.203 Y235.919
G01 X112.740 Y233.159
G01 X111.026 Y230.548
G01 X109.076 Y228.108
G01 X106.907 Y225.860
G01 X104.538 Y223.824
G01 X101.990 Y222.018
G01 X99.284 Y220.458
G01 X96.444 Y219.157
G01 X93.496 Y218.126
G01 X90.464 Y217.375
G01 X87.375 Y216.909
G01 X85.479 Y216.768
G01 X84.256 Y216.743
G01 X81.135 Y216.872
G01 X78.037 Y217.275
G01 X74.987 Y217.949
G01 X72.008 Y218.889
G01 X69.124 Y220.088
G01 X66.356 Y221.536
G01 X63.727 Y223.223
G01 X61.257 Y225.135
G01 X58.964 Y227.256
G01 X56.867 Y229.572
G01 X54.983 Y232.063
G01 X53.325 Y234.711
G01 X51.907 Y237.494
G01 X50.739 Y240.391
G01 X49.831 Y243.380
G01 X49.190 Y246.437
G01 X48.821 Y249.539
G01 X48.727 Y252.661
G01 X48.908 Y255.780
G01 X49.362 Y258.870
G01 X50.088 Y261.909
G01 X51.078 Y264.871
G01 X52.325 Y267.735
G01 X53.820 Y270.478
G01 X55.551 Y273.078
G01 X57.503 Y275.517
G01 X59.663 Y277.773
G01 X62.014 Y279.831
G01 X64.536 Y281.673
G01 X67.211 Y283.286
G01 X70.018 Y284.658
G01 X72.934 Y285.776
G01 X75.938 Y286.634
G01 X79.006 Y287.223
G01 X82.113 Y287.540
G01 X85.237 Y287.582
G01 X85.681 Y287.566
G01 X88.355 Y287.388
G01 X91.446 Y286.943
G01 X94.491 Y286.243
G01 X97.467 Y285.294
G01 X100.355 Y284.103
G01 X103.134 Y282.676
G01 X105.786 Y281.025
G01 X108.292 Y279.160
G01 X110.635 Y277.095
G01 X112.800 Y274.843
G01 X114.771 Y272.419
G01 X116.536 Y269.841
G01 X118.080 Y267.126
G01 X119.395 Y264.293
G01 X120.472 Y261.360
G01 X121.302 Y258.349
G01 X121.881 Y255.279
G01 X122.204 Y252.172
G01 X122.269 Y249.049
G01 X122.075 Y245.931
G01 X121.625 Y242.840
G01 X120.920 Y239.796
G01 X119.966 Y236.822
G01 X118.770 Y233.936
G01 X117.339 Y231.159
G01 X115.684 Y228.510
G01 X113.815 Y226.007
G01 X111.746 Y223.667
G01 X109.490 Y221.506
G01 X107.063 Y219.538
G01 X104.482 Y217.778
G01 X101.765 Y216.238
G01 X98.929 Y214.927
G01 X95.995 Y213.856
G01 X92.982 Y213.030
G01 X89.911 Y212.456
G01 X86.804 Y212.139
G01 X85.277 Y212.077
G01 X83.681 Y212.066
G01 X80.561 Y212.229
G01 X77.464 Y212.637
G01 X74.408 Y213.287
G01 X71.413 Y214.174
G01 X68.496 Y215.293
G01 X65.677 Y216.638
G01 X62.971 Y218.200
G01 X60.397 Y219.969
G01 X57.969 Y221.935
G01 X55.703 Y224.086
G01 X53.613 Y226.407
G01 X51.711 Y228.886
G01 X50.010 Y231.506
G01 X48.519 Y234.251
G01 X47.248 Y237.105
G01 X46.206 Y240.050
G01 X45.397 Y243.067
G01 X44.828 Y246.139
G01 X44.501 Y249.246
G01 X44.419 Y252.368
G01 X44.583 Y255.488
G01 X44.991 Y258.585
G01 X45.640 Y261.641
G01 X46.527 Y264.636
G01 X47.647 Y267.553
G01 X48.992 Y270.372
G01 X50.554 Y273.078
G01 X52.323 Y275.652
G01 X54.289 Y278.080
G01 X56.440 Y280.346
G01 X58.761 Y282.436
G01 X61.240 Y284.338
G01 X63.859 Y286.039
G01 X66.605 Y287.530
G01 X69.459 Y288.800
G01 X72.403 Y289.843
G01 X75.421 Y290.651
G01 X78.493 Y291.221
G01 X81.599 Y291.547
G01 X84.722 Y291.629
G01 X85.882 Y291.597
G01 X87.845 Y291.515
G01 X90.952 Y291.194
G01 X94.026 Y290.640
G01 X97.051 Y289.857
G01 X100.007 Y288.847
G01 X102.879 Y287.618
G01 X105.650 Y286.177
G01 X108.305 Y284.530
G01 X110.829 Y282.689
G01 X113.207 Y280.663
G01 X115.425 Y278.463
G01 X117.472 Y276.103
G01 X119.335 Y273.595
G01 X121.004 Y270.954
G01 X122.469 Y268.195
G01 X123.723 Y265.334
G01 X124.757 Y262.386
G01 X125.567 Y259.369
G01 X126.147 Y256.299
G01 X126.495 Y253.195
G01 X126.608 Y250.073
G01 X126.485 Y246.951
G01 X126.128 Y243.848
G01 X125.538 Y240.780
G01 X124.719 Y237.765
G01 X123.675 Y234.821
G01 X122.413 Y231.963
G01 X120.939 Y229.209
G01 X119.262 Y226.573
G01 X117.391 Y224.071
G01 X115.337 Y221.717
G01 X113.112 Y219.525
G01 X110.728 Y217.506
G01 X108.199 Y215.672
G01 X105.539 Y214.034
G01 X102.762 Y212.601
G01 X99.887 Y211.381
G01 X96.927 Y210.381
G01 X93.901 Y209.606
G01 X90.825 Y209.062
G01 X87.716 Y208.751
G01 X85.681 Y208.674
G01 X84.593 Y208.648
G01 X81.470 Y208.726
G01 X78.361 Y209.027
G01 X75.281 Y209.552
G01 X72.247 Y210.296
G01 X69.275 Y211.257
G01 X66.379 Y212.430
G01 X63.575 Y213.807
G01 X60.877 Y215.383
G01 X58.300 Y217.149
G01 X55.857 Y219.096
G01 X53.559 Y221.213
G01 X51.420 Y223.490
G01 X49.451 Y225.915
G01 X47.661 Y228.475
G01 X46.060 Y231.158
G01 X44.656 Y233.948
G01 X43.456 Y236.833
G01 X42.467 Y239.796
G01 X41.694 Y242.823
G01 X41.140 Y245.898
G01 X40.809 Y249.004
G01 X40.702 Y252.126
G01 X40.820 Y255.248
G01 X41.163 Y258.353
G01 X41.728 Y261.426
G01 X42.512 Y264.450
G01 X43.512 Y267.410
G01 X44.722 Y270.290
G01 X46.137 Y273.075
G01 X47.748 Y275.752
G01 X49.547 Y278.306
G01 X51.525 Y280.723
G01 X53.673 Y282.993
G01 X55.977 Y285.102
G01 X58.428 Y287.039
G01 X61.012 Y288.795
G01 X63.715 Y290.361
G01 X66.524 Y291.729
G01 X69.424 Y292.890
G01 X72.400 Y293.841
G01 X75.437 Y294.574
G01 X78.518 Y295.087
G01 X81.629 Y295.378
G01 X84.752 Y295.443
G01 X85.479 Y295.426
G01 X87.876 Y295.383
G01 X90.990 Y295.136
G01 X94.080 Y294.675
G01 X97.131 Y294.003
G01 X100.128 Y293.121
G01 X103.058 Y292.036
G01 X105.905 Y290.750
G01 X108.657 Y289.272
G01 X111.301 Y287.607
G01 X113.824 Y285.765
G01 X116.213 Y283.752
G01 X118.459 Y281.580
G01 X120.549 Y279.258
G01 X122.474 Y276.798
G01 X124.226 Y274.211
G01 X125.794 Y271.509
G01 X127.173 Y268.706
G01 X128.355 Y265.814
G01 X129.335 Y262.848
G01 X130.109 Y259.821
G01 X130.671 Y256.748
G01 X131.021 Y253.643
G01 X131.156 Y250.522
G01 X131.076 Y247.399
G01 X130.780 Y244.289
G01 X130.271 Y241.206
G01 X129.550 Y238.167
G01 X128.622 Y235.184
G01 X127.490 Y232.272
G01 X126.161 Y229.445
G01 X124.639 Y226.716
G01 X122.933 Y224.099
G01 X121.051 Y221.605
G01 X119.002 Y219.247
G01 X116.795 Y217.036
G01 X114.440 Y214.983
G01 X111.950 Y213.096
G01 X109.336 Y211.386
G01 X106.610 Y209.860
G01 X103.785 Y208.525
G01 X100.875 Y207.389
G01 X97.894 Y206.455
G01 X94.855 Y205.729
G01 X91.773 Y205.215
G01 X88.664 Y204.914
G01 X85.541 Y204.828
G01 X85.277 Y204.831
G01 X82.417 Y204.835
G01 X79.299 Y205.038
G01 X76.202 Y205.447
G01 X73.139 Y206.060
G01 X70.122 Y206.875
G01 X67.167 Y207.887
G01 X64.285 Y209.094
G01 X61.490 Y210.488
G01 X58.793 Y212.065
G01 X56.206 Y213.817
G01 X53.741 Y215.737
G01 X51.409 Y217.815
G01 X49.219 Y220.044
G01 X47.182 Y222.412
G01 X45.306 Y224.911
G01 X43.600 Y227.528
G01 X42.071 Y230.252
G01 X40.726 Y233.072
G01 X39.570 Y235.974
G01 X38.610 Y238.947
G01 X37.848 Y241.977
G01 X37.289 Y245.051
G01 X36.935 Y248.155
G01 X36.787 Y251.276
G01 X36.846 Y254.399
G01 X37.112 Y257.512
G01 X37.584 Y260.600
G01 X38.259 Y263.651
G01 X39.134 Y266.650
G01 X40.207 Y269.584
G01 X41.471 Y272.441
G01 X42.922 Y275.208
G01 X44.553 Y277.872
G01 X46.357 Y280.423
G01 X48.326 Y282.849
G01 X50.452 Y285.138
G01 X52.724 Y287.282
G01 X55.133 Y289.271
G01 X57.669 Y291.096
G01 X60.320 Y292.749
G01 X63.075 Y294.222
G01 X65.922 Y295.510
G01 X68.847 Y296.606
G01 X71.839 Y297.507
G01 X74.883 Y298.207
G01 X77.968 Y298.703
G01 X81.078 Y298.995
G01 X84.201 Y299.079
G01 X85.479 Y299.054
G01 X87.325 Y299.099
G01 X90.448 Y299.017
G01 X93.560 Y298.735
G01 X96.647 Y298.255
G01 X99.697 Y297.579
G01 X102.698 Y296.710
G01 X105.637 Y295.651
G01 X108.503 Y294.407
G01 X111.283 Y292.982
G01 X113.967 Y291.383
G01 X116.543 Y289.615
G01 X119.002 Y287.687
G01 X121.332 Y285.606
G01 X123.524 Y283.381
G01 X125.570 Y281.020
G01 X127.462 Y278.533
G01 X129.190 Y275.931
G01 X130.749 Y273.223
G01 X132.132 Y270.422
G01 X133.334 Y267.538
G01 X134.349 Y264.583
G01 X135.173 Y261.570
G01 X135.803 Y258.510
G01 X136.237 Y255.416
G01 X136.472 Y252.300
G01 X136.508 Y249.176
G01 X136.344 Y246.056
G01 X135.982 Y242.953
G01 X135.423 Y239.880
G01 X134.668 Y236.848
G01 X133.721 Y233.871
G01 X132.587 Y230.960
G01 X131.269 Y228.127
G01 X129.773 Y225.385
G01 X128.104 Y222.743
G01 X126.271 Y220.213
G01 X124.280 Y217.806
G01 X122.139 Y215.530
G01 X119.857 Y213.396
G01 X117.444 Y211.412
G01 X114.909 Y209.586
G01 X112.263 Y207.925
G01 X109.516 Y206.437
G01 X106.680 Y205.127
G01 X103.766 Y204.000
G01 X100.786 Y203.062
G01 X97.752 Y202.316
G01 X94.677 Y201.766
G01 X91.572 Y201.412
G01 X88.452 Y201.258
G01 X85.328 Y201.303
G01 X85.154 Y201.311
G01 X82.205 Y201.375
G01 X79.091 Y201.630
G01 X75.998 Y202.075
G01 X72.940 Y202.710
G01 X69.926 Y203.532
G01 X66.967 Y204.538
G01 X64.077 Y205.724
G01 X61.265 Y207.086
G01 X58.542 Y208.618
G01 X55.919 Y210.314
G01 X53.404 Y212.168
G01 X51.009 Y214.174
G01 X48.742 Y216.324
G01 X46.611 Y218.608
G01 X44.624 Y221.020
G01 X42.790 Y223.549
G01 X41.115 Y226.186
G01 X39.605 Y228.921
G01 X38.267 Y231.744
G01 X37.104 Y234.644
G01 X36.122 Y237.610
G01 X35.324 Y240.631
G01 X34.714 Y243.695
G01 X34.293 Y246.791
G01 X34.064 Y249.906
G01 X34.027 Y253.030
G01 X34.182 Y256.151
G01 X34.528 Y259.256
G01 X35.065 Y262.334
G01 X35.790 Y265.372
G01 X36.701 Y268.361
G01 X37.794 Y271.288
G01 X39.065 Y274.142
G01 X40.509 Y276.912
G01 X42.121 Y279.589
G01 X43.894 Y282.161
G01 X45.822 Y284.619
G01 X47.898 Y286.954
G01 X50.113 Y289.157
G01 X52.460 Y291.220
G01 X54.929 Y293.134
G01 X57.511 Y294.892
G01 X60.197 Y296.489
G01 X62.976 Y297.917
G01 X65.837 Y299.172
G01 X68.770 Y300.248
G01 X71.763 Y301.142
G01 X74.807 Y301.850
G01 X77.887 Y302.369
G01 X80.994 Y302.698
G01 X84.115 Y302.835
G01 X86.145 Y302.821
G01 X87.240 Y302.807
G01 X90.360 Y302.640
G01 X93.464 Y302.284
G01 X96.540 Y301.741
G01 X99.578 Y301.012
G01 X102.567 Y300.101
G01 X105.494 Y299.010
G01 X108.351 Y297.744
G01 X111.125 Y296.307
G01 X113.807 Y294.705
G01 X116.387 Y292.944
G01 X118.856 Y291.029
G01 X121.205 Y288.968
G01 X123.424 Y286.769
G01 X125.506 Y284.440
G01 X127.443 Y281.989
G01 X129.228 Y279.424
G01 X130.854 Y276.757
G01 X132.316 Y273.996
G01 X133.608 Y271.151
G01 X134.725 Y268.233
G01 X135.664 Y265.254
G01 X136.420 Y262.222
G01 X136.992 Y259.151
G01 X137.376 Y256.050
G01 X137.527 Y253.980
G01 X137.544 Y252.931
G01 X137.650 Y249.808
G01 X137.841 Y246.690
G01 X138.116 Y243.577
G01 X138.475 Y240.473
G01 X138.919 Y237.380
G01 X139.446 Y234.300
G01 X140.056 Y231.236
G01 X140.748 Y228.189
G01 X141.524 Y225.162
G01 X142.380 Y222.157
G01 X143.318 Y219.176
G01 X144.336 Y216.222
G01 X145.434 Y213.297
G01 X146.610 Y210.402
G01 X147.865 Y207.540
G01 X149.196 Y204.714
G01 X150.604 Y201.924
G01 X152.086 Y199.174
G01 X153.643 Y196.464
G01 X155.272 Y193.798
G01 X156.973 Y191.177
G01 X158.744 Y188.603
G01 X160.584 Y186.077
G01 X162.492 Y183.603
G01 X164.467 Y181.181
G01 X166.506 Y178.814
G01 X168.608 Y176.502
G01 X170.772 Y174.248
G01 X172.997 Y172.054
G01 X175.280 Y169.921
G01 X177.620 Y167.850
G01 X180.015 Y165.843
G01 X182.464 Y163.902
G01 X184.964 Y162.028
G01 X187.514 Y160.223
G01 X190.112 Y158.487
G01 X192.756 Y156.822
G01 X194.873 Y155.560
G01 X194.350 Y155.156
G01 X193.467 Y154.476
G01 X191.728 Y155.484
G01 X189.061 Y157.113
G01 X186.442 Y158.817
G01 X183.872 Y160.594
G01 X181.354 Y162.443
G01 X178.889 Y164.363
G01 X176.479 Y166.353
G01 X174.127 Y168.409
G01 X171.833 Y170.531
G01 X169.601 Y172.718
G01 X167.432 Y174.966
G01 X165.327 Y177.276
G01 X163.288 Y179.644
G01 X161.317 Y182.068
G01 X159.416 Y184.548
G01 X157.586 Y187.080
G01 X155.828 Y189.664
G01 X154.144 Y192.296
G01 X152.535 Y194.974
G01 X151.328 Y197.104
G01 X150.893 Y196.585
G01 X148.832 Y194.236
G01 X148.508 Y193.882
G01 X149.856 Y191.607
G01 X151.516 Y188.959
G01 X153.245 Y186.357
G01 X155.045 Y183.803
G01 X156.912 Y181.298
G01 X158.847 Y178.844
G01 X160.846 Y176.442
G01 X162.909 Y174.096
G01 X165.035 Y171.806
G01 X167.222 Y169.574
G01 X169.468 Y167.402
G01 X171.771 Y165.290
G01 X174.131 Y163.242
G01 X176.545 Y161.258
G01 X179.011 Y159.339
G01 X181.528 Y157.488
G01 X184.094 Y155.705
G01 X186.707 Y153.992
G01 X189.365 Y152.349
G01 X190.377 Y151.750
G01 X188.977 Y150.393
G01 X187.470 Y148.932
G01 X186.592 Y149.461
G01 X183.946 Y151.122
G01 X181.343 Y152.852
G01 X178.787 Y154.648
G01 X176.278 Y156.510
G01 X173.818 Y158.438
G01 X171.409 Y160.428
G01 X169.053 Y162.481
G01 X166.752 Y164.594
G01 X164.506 Y166.766
G01 X162.317 Y168.996
G01 X160.187 Y171.283
G01 X158.118 Y173.623
G01 X156.110 Y176.017
G01 X154.165 Y178.463
G01 X152.284 Y180.958
G01 X150.469 Y183.502
G01 X148.721 Y186.092
G01 X147.041 Y188.726
G01 X145.689 Y190.962
G01 X145.324 Y190.603
G01 X143.049 Y188.462
G01 X142.777 Y188.216
G01 X144.222 Y185.866
G01 X145.921 Y183.244
G01 X147.686 Y180.665
G01 X149.515 Y178.132
G01 X151.408 Y175.646
G01 X153.362 Y173.208
G01 X155.378 Y170.820
G01 X157.453 Y168.484
G01 X159.586 Y166.201
G01 X161.776 Y163.972
G01 X164.021 Y161.799
G01 X166.321 Y159.684
G01 X168.673 Y157.627
G01 X171.077 Y155.630
G01 X173.530 Y153.695
G01 X176.031 Y151.822
G01 X178.578 Y150.012
G01 X181.170 Y148.268
G01 X183.806 Y146.589
G01 X184.734 Y146.020
G01 X183.409 Y144.473
G01 X182.160 Y143.015
G01 X181.137 Y143.649
G01 X178.511 Y145.342
G01 X175.926 Y147.098
G01 X173.385 Y148.917
G01 X170.890 Y150.797
G01 X168.441 Y152.738
G01 X166.041 Y154.739
G01 X163.690 Y156.797
G01 X161.390 Y158.912
G01 X159.142 Y161.083
G01 X156.948 Y163.307
G01 X154.809 Y165.585
G01 X152.727 Y167.915
G01 X150.702 Y170.295
G01 X148.736 Y172.723
G01 X146.830 Y175.199
G01 X144.984 Y177.721
G01 X143.202 Y180.287
G01 X141.482 Y182.896
G01 X139.827 Y185.546
G01 X139.772 Y185.636
G01 X137.403 Y183.763
G01 X136.674 Y183.213
G01 X137.843 Y181.337
G01 X139.549 Y178.719
G01 X141.316 Y176.142
G01 X143.144 Y173.608
G01 X145.032 Y171.118
G01 X146.978 Y168.673
G01 X148.981 Y166.275
G01 X151.041 Y163.926
G01 X153.156 Y161.626
G01 X155.325 Y159.376
G01 X157.547 Y157.179
G01 X159.820 Y155.035
G01 X162.143 Y152.946
G01 X164.516 Y150.912
G01 X166.936 Y148.936
G01 X169.402 Y147.017
G01 X171.913 Y145.157
G01 X174.467 Y143.357
G01 X177.063 Y141.619
G01 X179.700 Y139.942
G01 X179.742 Y139.916
G01 X177.963 Y137.408
G01 X177.477 Y136.724
G01 X175.546 Y137.947
G01 X172.940 Y139.670
G01 X170.374 Y141.454
G01 X167.850 Y143.295
G01 X165.369 Y145.195
G01 X162.932 Y147.151
G01 X160.541 Y149.163
G01 X158.197 Y151.229
G01 X155.902 Y153.349
G01 X153.655 Y155.521
G01 X151.460 Y157.744
G01 X149.316 Y160.017
G01 X147.225 Y162.339
G01 X145.188 Y164.709
G01 X143.207 Y167.125
G01 X141.281 Y169.586
G01 X139.413 Y172.090
G01 X137.602 Y174.637
G01 X135.852 Y177.225
G01 X134.160 Y179.853
G01 X133.482 Y180.946
G01 X131.949 Y179.932
G01 X130.197 Y178.831
G01 X130.753 Y177.934
G01 X132.440 Y175.304
G01 X134.185 Y172.711
G01 X135.987 Y170.159
G01 X137.847 Y167.648
G01 X139.762 Y165.179
G01 X141.732 Y162.754
G01 X143.756 Y160.373
G01 X145.832 Y158.038
G01 X147.960 Y155.750
G01 X150.139 Y153.511
G01 X152.368 Y151.320
G01 X154.645 Y149.181
G01 X156.970 Y147.093
G01 X159.340 Y145.057
G01 X161.756 Y143.075
G01 X164.215 Y141.147
G01 X166.717 Y139.275
G01 X169.260 Y137.460
G01 X171.843 Y135.702
G01 X174.465 Y134.002
G01 X175.363 Y133.439
G01 X174.325 Y131.654
G01 X173.398 Y130.061
G01 X172.312 Y130.742
G01 X169.691 Y132.442
G01 X167.107 Y134.199
G01 X164.562 Y136.012
G01 X162.057 Y137.880
G01 X159.593 Y139.802
G01 X157.172 Y141.777
G01 X154.795 Y143.805
G01 X152.462 Y145.884
G01 X150.175 Y148.013
G01 X147.935 Y150.191
G01 X145.743 Y152.418
G01 X143.600 Y154.692
G01 X141.507 Y157.012
G01 X139.464 Y159.377
G01 X137.475 Y161.786
G01 X135.538 Y164.238
G01 X133.654 Y166.731
G01 X131.826 Y169.265
G01 X130.053 Y171.838
G01 X128.337 Y174.449
G01 X126.819 Y176.867
G01 X126.582 Y176.737
G01 X124.817 Y175.798
G01 X125.394 Y174.832
G01 X127.036 Y172.174
G01 X128.737 Y169.552
G01 X130.494 Y166.969
G01 X132.309 Y164.425
G01 X134.179 Y161.922
G01 X136.104 Y159.460
G01 X138.083 Y157.042
G01 X140.115 Y154.669
G01 X142.199 Y152.340
G01 X144.334 Y150.059
G01 X146.519 Y147.825
G01 X148.752 Y145.640
G01 X151.034 Y143.505
G01 X153.362 Y141.421
G01 X155.735 Y139.388
G01 X158.153 Y137.409
G01 X160.614 Y135.484
G01 X163.117 Y133.613
G01 X165.661 Y131.799
G01 X168.244 Y130.041
G01 X170.865 Y128.340
G01 X173.130 Y126.936
G01 X173.333 Y127.349
G01 X174.775 Y130.121
G01 X176.323 Y132.835
G01 X177.976 Y135.487
G01 X179.731 Y138.072
G01 X181.584 Y140.587
G01 X183.535 Y143.028
G01 X185.579 Y145.391
G01 X187.714 Y147.673
G01 X189.935 Y149.870
G01 X192.241 Y151.979
G01 X194.627 Y153.996
G01 X197.089 Y155.919
G01 X199.625 Y157.745
G01 X202.230 Y159.470
G01 X204.900 Y161.093
G01 X207.631 Y162.611
G01 X210.419 Y164.021
G01 X213.260 Y165.322
G01 X216.150 Y166.511
G01 X219.083 Y167.587
G01 X222.056 Y168.547
G01 X225.065 Y169.392
G01 X228.103 Y170.118
G01 X231.168 Y170.726
G01 X234.255 Y171.214
G01 X237.357 Y171.581
G01 X240.472 Y171.827
G01 X243.594 Y171.952
G01 X246.719 Y171.955
G01 X249.841 Y171.837
G01 X249.946 Y171.831
G01 X252.964 Y171.931
G01 X256.080 Y172.156
G01 X259.185 Y172.505
G01 X262.274 Y172.978
G01 X265.341 Y173.573
G01 X268.382 Y174.290
G01 X271.392 Y175.127
G01 X274.367 Y176.084
G01 X277.301 Y177.159
G01 X280.190 Y178.349
G01 X283.029 Y179.654
G01 X285.814 Y181.070
G01 X288.540 Y182.597
G01 X291.203 Y184.230
G01 X293.799 Y185.969
G01 X296.324 Y187.810
G01 X298.774 Y189.749
G01 X301.144 Y191.785
G01 X303.431 Y193.914
G01 X305.632 Y196.132
G01 X307.743 Y198.436
G01 X309.760 Y200.822
G01 X311.681 Y203.286
G01 X313.502 Y205.825
G01 X315.220 Y208.435
G01 X316.833 Y211.111
G01 X318.338 Y213.849
G01 X319.733 Y216.645
G01 X321.015 Y219.494
G01 X322.183 Y222.392
G01 X323.235 Y225.334
G01 X324.168 Y228.316
G01 X324.982 Y231.333
G01 X325.676 Y234.379
G01 X326.247 Y237.451
G01 X326.695 Y240.543
G01 X327.021 Y243.651
G01 X327.221 Y246.769
G01 X327.298 Y249.893
G01 X327.250 Y253.017
G01 X327.078 Y256.136
G01 X326.781 Y259.247
G01 X326.362 Y262.343
G01 X325.819 Y265.420
G01 X325.153 Y268.473
G01 X324.367 Y271.497
G01 X323.461 Y274.487
G01 X322.437 Y277.439
G01 X321.296 Y280.348
G01 X320.039 Y283.209
G01 X318.670 Y286.017
G01 X317.190 Y288.769
G01 X315.602 Y291.460
G01 X313.908 Y294.085
G01 X312.110 Y296.641
G01 X310.213 Y299.123
G01 X308.218 Y301.527
G01 X306.128 Y303.851
G01 X303.948 Y306.089
G01 X301.680 Y308.238
G01 X299.329 Y310.296
G01 X296.897 Y312.258
G01 X294.389 Y314.122
G01 X291.809 Y315.884
G01 X289.161 Y317.542
G01 X286.449 Y319.094
G01 X283.677 Y320.536
G01 X280.850 Y321.867
G01 X277.973 Y323.084
G01 X275.049 Y324.185
G01 X272.083 Y325.169
G01 X269.081 Y326.034
G01 X266.046 Y326.779
G01 X262.985 Y327.403
G01 X259.901 Y327.904
G01 X256.799 Y328.282
G01 X253.685 Y328.536
G01 X250.563 Y328.665
G01 X247.438 Y328.671
G01 X244.316 Y328.551
G01 X241.201 Y328.308
G01 X238.098 Y327.941
G01 X235.013 Y327.450
G01 X231.949 Y326.837
G01 X228.912 Y326.102
G01 X225.907 Y325.247
G01 X222.938 Y324.273
G01 X220.010 Y323.181
G01 X217.128 Y321.974
G01 X214.297 Y320.653
G01 X211.520 Y319.220
G01 X208.803 Y317.678
G01 X206.149 Y316.028
G01 X203.563 Y314.275
G01 X201.049 Y312.419
G01 X198.611 Y310.465
G01 X196.253 Y308.416
G01 X193.978 Y306.274
G01 X191.790 Y304.043
G01 X189.693 Y301.727
G01 X187.690 Y299.329
G01 X185.784 Y296.853
G01 X183.978 Y294.304
G01 X182.275 Y291.684
G01 X180.677 Y288.999
G01 X179.188 Y286.252
G01 X177.810 Y283.448
G01 X176.544 Y280.591
G01 X175.393 Y277.686
G01 X174.359 Y274.738
G01 X173.443 Y271.751
G01 X172.646 Y268.729
G01 X171.971 Y265.679
G01 X171.417 Y262.604
G01 X170.987 Y259.509
G01 X170.680 Y256.399
G01 X170.497 Y253.280
G01 X170.439 Y250.156
G01 X170.505 Y247.032
G01 X170.696 Y243.914
G01 X171.010 Y240.805
G01 X171.448 Y237.711
G01 X172.009 Y234.638
G01 X172.692 Y231.589
G01 X173.496 Y228.569
G01 X174.420 Y225.584
G01 X175.461 Y222.639
G01 X176.620 Y219.737
G01 X177.892 Y216.883
G01 X179.278 Y214.083
G01 X180.774 Y211.340
G01 X182.378 Y208.658
G01 X184.087 Y206.043
G01 X185.900 Y203.498
G01 X187.812 Y201.027
G01 X189.821 Y198.634
G01 X191.924 Y196.323
G01 X194.117 Y194.097
G01 X196.397 Y191.961
G01 X198.761 Y189.918
G01 X201.204 Y187.970
G01 X203.722 Y186.120
G01 X206.313 Y184.373
G01 X208.971 Y182.730
G01 X211.692 Y181.195
G01 X214.472 Y179.769
G01 X217.307 Y178.455
G01 X220.191 Y177.255
G01 X223.122 Y176.170
G01 X226.093 Y175.204
G01 X229.100 Y174.356
G01 X232.139 Y173.629
G01 X235.204 Y173.023
G01 X238.291 Y172.540
G01 X241.395 Y172.181
G01 X244.511 Y171.945
G01 X247.633 Y171.833
G01 X249.319 Y171.825
G01 X247.883 Y171.741
G01 X244.769 Y171.482
G01 X241.665 Y171.121
G01 X238.575 Y170.658
G01 X235.502 Y170.092
G01 X232.450 Y169.425
G01 X229.421 Y168.658
G01 X226.419 Y167.791
G01 X223.447 Y166.825
G01 X220.510 Y165.761
G01 X217.608 Y164.601
G01 X214.747 Y163.345
G01 X211.929 Y161.995
G01 X209.157 Y160.553
G01 X206.435 Y159.020
G01 X203.764 Y157.398
G01 X201.149 Y155.688
G01 X198.591 Y153.893
G01 X196.095 Y152.014
G01 X195.582 Y151.612
G01 X193.688 Y150.022
G01 X191.364 Y147.934
G01 X189.118 Y145.761
G01 X186.955 Y143.506
G01 X184.877 Y141.173
G01 X182.888 Y138.764
G01 X180.989 Y136.282
G01 X179.184 Y133.732
G01 X177.475 Y131.116
G01 X175.865 Y128.438
G01 X174.355 Y125.703
G01 X172.948 Y122.913
G01 X171.645 Y120.073
G01 X170.449 Y117.186
G01 X169.361 Y114.257
G01 X168.383 Y111.290
G01 X167.516 Y108.288
G01 X166.761 Y105.256
G01 X166.119 Y102.198
G01 X165.592 Y99.119
G01 X165.179 Y96.021
G01 X164.881 Y92.911
G01 X164.700 Y89.792
G01 X164.634 Y86.668
G01 X164.685 Y83.544
G01 X164.852 Y80.424
G01 X165.135 Y77.312
G01 X165.533 Y74.213
G01 X166.046 Y71.131
G01 X166.673 Y68.070
G01 X167.414 Y65.034
G01 X168.267 Y62.028
G01 X169.231 Y59.056
G01 X170.305 Y56.122
G01 X171.487 Y53.230
G01 X172.776 Y50.384
G01 X174.170 Y47.587
G01 X175.667 Y44.845
G01 X177.265 Y42.160
G01 X178.962 Y39.536
G01 X180.755 Y36.977
G01 X182.642 Y34.486
G01 X184.620 Y32.068
G01 X186.686 Y29.724
G01 X188.839 Y27.459
G01 X191.074 Y25.276
G01 X193.389 Y23.177
G01 X195.780 Y21.166
G01 X198.244 Y19.245
G01 X200.778 Y17.417
G01 X203.378 Y15.684
G01 X206.041 Y14.050
G01 X208.762 Y12.515
G01 X211.539 Y11.082
G01 X214.368 Y9.754
G01 X217.243 Y8.532
G01 X220.162 Y7.418
G01 X223.121 Y6.413
G01 X226.115 Y5.518
G01 X229.140 Y4.736
G01 X232.192 Y4.066
G01 X235.266 Y3.511
G01 X238.360 Y3.070
G01 X241.467 Y2.744
G01 X244.585 Y2.534
G01 X247.708 Y2.441
G01 X250.832 Y2.463
G01 X253.954 Y2.602
G01 X257.068 Y2.856
G01 X260.171 Y3.226
G01 X263.257 Y3.711
G01 X266.324 Y4.311
G01 X269.366 Y5.024
G01 X272.379 Y5.850
G01 X275.360 Y6.787
G01 X278.304 Y7.834
G01 X281.206 Y8.990
G01 X284.064 Y10.254
G01 X286.873 Y11.622
G01 X289.629 Y13.094
G01 X292.329 Y14.667
G01 X294.968 Y16.340
G01 X297.543 Y18.110
G01 X300.050 Y19.974
G01 X302.487 Y21.930
G01 X304.849 Y23.976
G01 X307.133 Y26.107
G01 X309.337 Y28.323
G01 X311.456 Y30.618
G01 X313.489 Y32.991
G01 X315.433 Y35.438
G01 X317.284 Y37.955
G01 X319.040 Y40.539
G01 X320.698 Y43.187
G01 X322.258 Y45.895
G01 X323.715 Y48.659
G01 X325.069 Y51.475
G01 X326.317 Y54.339
G01 X327.458 Y57.248
G01 X328.490 Y60.197
G01 X329.411 Y63.183
G01 X330.221 Y66.201
G01 X330.918 Y69.246
G01 X331.502 Y72.316
G01 X331.971 Y75.405
G01 X332.324 Y78.509
G01 X332.562 Y81.625
G01 X332.684 Y84.747
G01 X332.691 Y87.872
G01 X332.580 Y90.994
G01 X332.354 Y94.111
G01 X332.012 Y97.217
G01 X331.555 Y100.307
G01 X330.983 Y103.379
G01 X330.298 Y106.428
G01 X329.499 Y109.448
G01 X328.589 Y112.438
G01 X327.569 Y115.391
G01 X326.439 Y118.304
G01 X325.202 Y121.173
G01 X323.859 Y123.994
G01 X322.412 Y126.763
G01 X320.863 Y129.477
G01 X319.214 Y132.131
G01 X317.468 Y134.722
G01 X315.626 Y137.247
G01 X313.692 Y139.701
G01 X311.668 Y142.081
G01 X309.558 Y144.385
G01 X307.362 Y146.608
G01 X305.086 Y148.749
G01 X303.000 Y150.577
G01 X302.693 Y150.407
G01 X299.935 Y148.937
G01 X297.137 Y147.547
G01 X294.300 Y146.237
G01 X291.427 Y145.009
G01 X288.520 Y143.863
G01 X285.582 Y142.800
G01 X282.615 Y141.821
G01 X279.621 Y140.927
G01 X276.602 Y140.119
G01 X273.562 Y139.398
G01 X270.503 Y138.763
G01 X267.426 Y138.216
G01 X264.336 Y137.757
G01 X261.233 Y137.385
G01 X258.121 Y137.103
G01 X255.003 Y136.909
G01 X251.880 Y136.804
G01 X251.689 Y136.801
G01 X248.756 Y136.785
G01 X245.642 Y136.537
G01 X242.556 Y136.052
G01 X239.516 Y135.333
G01 X236.539 Y134.384
G01 X233.644 Y133.212
G01 X230.846 Y131.821
G01 X228.163 Y130.222
G01 X225.609 Y128.422
G01 X223.200 Y126.433
G01 X220.950 Y124.266
G01 X218.872 Y121.933
G01 X216.978 Y119.449
G01 X215.279 Y116.828
G01 X213.784 Y114.084
G01 X212.503 Y111.235
G01 X211.444 Y108.296
G01 X210.611 Y105.285
G01 X210.011 Y102.220
G01 X209.646 Y99.117
G01 X209.519 Y95.996
G01 X209.630 Y92.874
G01 X209.979 Y89.769
G01 X210.564 Y86.701
G01 X211.381 Y83.685
G01 X212.426 Y80.741
G01 X213.693 Y77.886
G01 X215.173 Y75.135
G01 X216.859 Y72.505
G01 X218.741 Y70.011
G01 X220.807 Y67.668
G01 X223.046 Y65.490
G01 X225.445 Y63.488
G01 X227.990 Y61.676
G01 X230.665 Y60.063
G01 X233.455 Y58.658
G01 X236.345 Y57.471
G01 X239.316 Y56.507
G01 X242.353 Y55.773
G01 X245.436 Y55.272
G01 X247.399 Y55.078
G01 X248.551 Y55.096
G01 X251.661 Y55.386
G01 X254.717 Y56.026
G01 X257.682 Y57.009
G01 X260.515 Y58.322
G01 X263.182 Y59.947
G01 X265.647 Y61.865
G01 X267.879 Y64.050
G01 X269.849 Y66.473
G01 X271.531 Y69.104
G01 X272.904 Y71.909
G01 X273.950 Y74.852
G01 X274.655 Y77.894
G01 X275.011 Y80.997
G01 X275.013 Y84.120
G01 X274.661 Y87.223
G01 X273.960 Y90.266
G01 X272.917 Y93.211
G01 X271.548 Y96.017
G01 X269.869 Y98.651
G01 X267.903 Y101.077
G01 X265.674 Y103.264
G01 X263.211 Y105.185
G01 X260.547 Y106.814
G01 X257.715 Y108.131
G01 X254.752 Y109.117
G01 X251.696 Y109.762
G01 X248.587 Y110.056
G01 X247.399 Y110.074
G01 X245.465 Y109.994
G01 X242.392 Y109.446
G01 X239.453 Y108.396
G01 X236.728 Y106.874
G01 X234.293 Y104.922
G01 X232.215 Y102.593
G01 X230.551 Y99.952
G01 X229.347 Y97.073
G01 X228.638 Y94.033
G01 X228.441 Y90.918
G01 X228.763 Y87.814
G01 X229.595 Y84.805
G01 X230.914 Y81.977
G01 X232.683 Y79.405
G01 X234.853 Y77.162
G01 X237.365 Y75.310
G01 X240.149 Y73.899
G01 X243.129 Y72.969
G01 X246.221 Y72.545
G01 X247.399 Y72.520
G01 X249.327 Y72.737
G01 X252.083 Y74.154
G01 X253.957 Y76.622
G01 X254.581 Y79.657
G01 X253.832 Y82.664
G01 X251.857 Y85.052
G01 X249.045 Y86.353
G01 X247.399 Y86.504
G01 X247.560 Y85.111
G01 X245.038 Y84.956
G01 X244.854 Y85.518
G01 X245.284 Y87.971
G01 X247.580 Y89.983
G01 X250.630 Y89.891
G01 X252.801 Y87.746
G01 X253.149 Y86.336
G01 X253.001 Y84.682
G01 X251.616 Y81.916
G01 X249.092 Y80.127
G01 X246.023 Y79.737
G01 X243.132 Y80.836
G01 X241.098 Y83.167
G01 X240.400 Y86.181
G01 X240.401 Y86.240
G01 X241.105 Y89.206
G01 X242.871 Y91.761
G01 X245.451 Y93.492
G01 X248.485 Y94.157
G01 X251.552 Y93.664
G01 X254.225 Y92.081
G01 X256.133 Y89.629
G01 X257.009 Y86.649
G01 X257.036 Y86.291
G01 X257.107 Y83.535
G01 X256.274 Y80.537
G01 X254.554 Y77.944
G01 X252.115 Y76.011
G01 X249.197 Y74.929
G01 X246.088 Y74.804
G01 X243.092 Y75.647
G01 X240.505 Y77.377
G01 X238.581 Y79.822
G01 X237.509 Y82.744
G01 X237.394 Y85.853
G01 X237.465 Y86.340
G01 X237.757 Y88.951
G01 X238.841 Y91.872
G01 X240.653 Y94.407
G01 X243.066 Y96.377
G01 X245.911 Y97.647
G01 X248.990 Y98.126
G01 X252.086 Y97.782
G01 X254.984 Y96.638
G01 X257.481 Y94.774
G01 X259.402 Y92.322
G01 X260.613 Y89.451
G01 X261.029 Y86.379
G01 X261.031 Y86.363
G01 X261.084 Y83.246
G01 X260.442 Y80.194
G01 X259.135 Y77.363
G01 X257.231 Y74.894
G01 X254.824 Y72.911
G01 X252.036 Y71.515
G01 X249.007 Y70.775
G01 X245.889 Y70.728
G01 X242.839 Y71.377
G01 X240.011 Y72.690
G01 X237.546 Y74.600
G01 X235.569 Y77.011
G01 X234.178 Y79.802
G01 X233.445 Y82.833
G01 X233.405 Y85.951
G01 X233.440 Y86.262
G01 X233.674 Y89.060
G01 X234.514 Y92.065
G01 X235.929 Y94.845
G01 X237.866 Y97.290
G01 X240.247 Y99.306
G01 X242.980 Y100.811
G01 X245.956 Y101.747
G01 X249.058 Y102.078
G01 X252.164 Y101.790
G01 X255.152 Y100.894
G01 X257.905 Y99.426
G01 X260.313 Y97.443
G01 X262.283 Y95.024
G01 X263.736 Y92.263
G01 X264.616 Y89.271
G01 X264.888 Y86.183
G01 X264.890 Y86.163
G01 X264.889 Y83.042
G01 X264.341 Y79.970
G01 X263.265 Y77.041
G01 X261.692 Y74.345
G01 X259.672 Y71.966
G01 X257.268 Y69.977
G01 X254.552 Y68.440
G01 X251.609 Y67.401
G01 X248.530 Y66.894
G01 X245.409 Y66.933
G01 X242.344 Y67.517
G01 X239.428 Y68.628
G01 X236.751 Y70.233
G01 X234.397 Y72.281
G01 X232.437 Y74.709
G01 X230.932 Y77.443
G01 X229.929 Y80.398
G01 X229.458 Y83.483
G01 X229.499 Y86.262
G01 X229.500 Y86.605
G01 X229.782 Y89.714
G01 X230.552 Y92.738
G01 X231.792 Y95.603
G01 X233.469 Y98.236
G01 X235.541 Y100.570
G01 X237.957 Y102.547
G01 X240.655 Y104.117
G01 X243.567 Y105.239
G01 X246.621 Y105.887
G01 X249.738 Y106.044
G01 X252.841 Y105.706
G01 X255.852 Y104.880
G01 X258.694 Y103.589
G01 X261.295 Y101.865
G01 X263.592 Y99.750
G01 X265.524 Y97.299
G01 X267.045 Y94.573
G01 X268.115 Y91.640
G01 X268.707 Y88.576
G01 X268.829 Y86.341
G01 X268.896 Y85.458
G01 X268.845 Y82.337
G01 X268.348 Y79.254
G01 X267.414 Y76.275
G01 X266.062 Y73.461
G01 X264.322 Y70.869
G01 X262.228 Y68.553
G01 X259.824 Y66.561
G01 X257.159 Y64.934
G01 X254.289 Y63.706
G01 X251.273 Y62.901
G01 X248.172 Y62.537
G01 X245.051 Y62.621
G01 X241.974 Y63.151
G01 X239.005 Y64.117
G01 X236.205 Y65.497
G01 X233.632 Y67.265
G01 X231.338 Y69.383
G01 X229.372 Y71.808
G01 X227.773 Y74.490
G01 X226.575 Y77.373
G01 X225.802 Y80.397
G01 X225.470 Y83.503
G01 X225.558 Y86.341
G01 X225.568 Y86.624
G01 X225.899 Y89.729
G01 X226.623 Y92.767
G01 X227.729 Y95.687
G01 X229.198 Y98.442
G01 X231.007 Y100.987
G01 X233.126 Y103.281
G01 X235.521 Y105.285
G01 X238.152 Y106.967
G01 X240.976 Y108.300
G01 X243.946 Y109.261
G01 X247.016 Y109.836
G01 X250.133 Y110.014
G01 X253.248 Y109.793
G01 X256.309 Y109.176
G01 X259.266 Y108.173
G01 X262.071 Y106.801
G01 X264.679 Y105.083
G01 X267.045 Y103.045
G01 X269.132 Y100.723
G01 X270.906 Y98.153
G01 X272.337 Y95.377
G01 X273.402 Y92.442
G01 X274.084 Y89.395
G01 X274.371 Y86.286
G01 X274.372 Y86.262
G01 X274.429 Y83.163
G01 X274.120 Y80.056
G01 X273.446 Y77.006
G01 X272.417 Y74.058
G01 X271.047 Y71.251
G01 X269.357 Y68.625
G01 X267.368 Y66.217
G01 X265.110 Y64.061
G01 X262.612 Y62.186
G01 X259.911 Y60.618
G01 X257.044 Y59.380
G01 X254.052 Y58.488
G01 X250.974 Y57.956
G01 X247.856 Y57.790
G01 X244.740 Y57.993
G01 X241.669 Y58.562
G01 X238.687 Y59.489
G01 X235.835 Y60.762
G01 X233.153 Y62.362
G01 X230.678 Y64.267
G01 X228.446 Y66.450
G01 X226.486 Y68.882
G01 X224.827 Y71.527
G01 X223.491 Y74.350
G01 X222.498 Y77.311
G01 X221.860 Y80.368
G01 X221.588 Y83.479
G01 X221.676 Y86.515
G01 X221.680 Y86.601
G01 X221.982 Y89.709
G01 X222.621 Y92.766
G01 X223.590 Y95.735
G01 X224.878 Y98.580
G01 X226.469 Y101.268
G01 X228.344 Y103.766
G01 X230.481 Y106.044
G01 X232.854 Y108.074
G01 X235.434 Y109.834
G01 X238.191 Y111.301
G01 X241.092 Y112.458
G01 X244.102 Y113.292
G01 X247.185 Y113.792
G01 X250.304 Y113.952
G01 X253.422 Y113.770
G01 X256.501 Y113.249
G01 X259.505 Y112.394
G01 X262.398 Y111.217
G01 X265.145 Y109.730
G01 X267.713 Y107.953
G01 X270.071 Y105.906
G01 X272.192 Y103.613
G01 X274.049 Y101.102
G01 X275.622 Y98.404
G01 X276.890 Y95.550
G01 X277.838 Y92.574
G01 X278.456 Y89.512
G01 X278.736 Y86.402
G01 X278.741 Y86.263
G01 X278.778 Y83.279
G01 X278.505 Y80.167
G01 X277.916 Y77.100
G01 X277.017 Y74.109
G01 X275.817 Y71.225
G01 X274.329 Y68.479
G01 X272.568 Y65.900
G01 X270.553 Y63.513
G01 X268.304 Y61.345
G01 X265.846 Y59.418
G01 X263.205 Y57.752
G01 X260.406 Y56.364
G01 X257.481 Y55.269
G01 X254.460 Y54.479
G01 X251.373 Y54.001
G01 X248.254 Y53.841
G01 X245.134 Y54.001
G01 X242.048 Y54.478
G01 X239.026 Y55.268
G01 X236.100 Y56.362
G01 X233.302 Y57.749
G01 X230.660 Y59.415
G01 X228.202 Y61.342
G01 X225.953 Y63.509
G01 X223.938 Y65.896
G01 X222.176 Y68.475
G01 X220.688 Y71.221
G01 X219.487 Y74.104
G01 X218.587 Y77.095
G01 X217.997 Y80.162
G01 X217.724 Y83.274
G01 X217.769 Y86.389
G01 X217.770 Y86.397
G01 X218.081 Y89.505
G01 X218.680 Y92.570
G01 X219.563 Y95.567
G01 X220.721 Y98.467
G01 X222.145 Y101.248
G01 X223.822 Y103.883
G01 X225.737 Y106.351
G01 X227.874 Y108.629
G01 X230.214 Y110.698
G01 X232.736 Y112.540
G01 X235.420 Y114.138
G01 X238.241 Y115.480
G01 X241.175 Y116.552
G01 X244.196 Y117.346
G01 X247.277 Y117.856
G01 X250.393 Y118.075
G01 X253.516 Y118.003
G01 X256.619 Y117.640
G01 X259.674 Y116.990
G01 X262.655 Y116.057
G01 X265.536 Y114.850
G01 X268.292 Y113.380
G01 X270.899 Y111.660
G01 X273.334 Y109.704
G01 X275.576 Y107.529
G01 X277.606 Y105.155
G01 X279.406 Y102.602
G01 X280.959 Y99.892
G01 X282.253 Y97.049
G01 X283.276 Y94.098
G01 X284.020 Y91.064
G01 X284.478 Y87.974
G01 X284.610 Y86.163
G01 X284.635 Y84.854
G01 X284.499 Y81.734
G01 X284.089 Y78.637
G01 X283.407 Y75.589
G01 X282.460 Y72.612
G01 X281.254 Y69.730
G01 X279.799 Y66.966
G01 X278.106 Y64.341
G01 X276.189 Y61.875
G01 X274.061 Y59.588
G01 X271.741 Y57.497
G01 X269.245 Y55.618
G01 X266.594 Y53.967
G01 X263.807 Y52.555
G01 X260.907 Y51.395
G01 X257.916 Y50.494
G01 X254.857 Y49.860
G01 X251.754 Y49.499
G01 X248.632 Y49.412
G01 X245.514 Y49.600
G01 X242.424 Y50.062
G01 X239.388 Y50.795
G01 X236.428 Y51.792
G01 X233.567 Y53.046
G01 X230.827 Y54.548
G01 X228.231 Y56.284
G01 X225.798 Y58.243
G01 X223.546 Y60.408
G01 X221.494 Y62.764
G01 X219.658 Y65.291
G01 X218.051 Y67.969
G01 X216.687 Y70.779
G01 X215.575 Y73.698
G01 X214.725 Y76.704
G01 X214.143 Y79.773
G01 X213.833 Y82.882
G01 X213.799 Y86.005
G01 X213.812 Y86.364
G01 X213.999 Y89.123
G01 X214.451 Y92.214
G01 X215.158 Y95.257
G01 X216.113 Y98.231
G01 X217.311 Y101.116
G01 X218.744 Y103.892
G01 X220.401 Y106.540
G01 X222.271 Y109.042
G01 X224.342 Y111.380
G01 X226.599 Y113.540
G01 X229.027 Y115.506
G01 X231.609 Y117.264
G01 X234.328 Y118.803
G01 X237.164 Y120.111
G01 X240.099 Y121.181
G01 X243.112 Y122.005
G01 X246.183 Y122.577
G01 X249.291 Y122.892
G01 X252.415 Y122.950
G01 X255.532 Y122.750
G01 X258.622 Y122.292
G01 X261.664 Y121.581
G01 X264.636 Y120.621
G01 X267.519 Y119.417
G01 X270.293 Y117.981
G01 X272.938 Y116.319
G01 X275.437 Y114.445
G01 X277.773 Y112.370
G01 X279.929 Y110.110
G01 X281.891 Y107.678
G01 X283.645 Y105.094
G01 X285.179 Y102.373
G01 X286.483 Y99.534
G01 X287.548 Y96.598
G01 X288.367 Y93.583
G01 X288.934 Y90.511
G01 X289.245 Y87.403
G01 X289.301 Y85.961
G01 X289.311 Y84.279
G01 X289.141 Y81.160
G01 X288.727 Y78.063
G01 X288.071 Y75.009
G01 X287.177 Y72.016
G01 X286.051 Y69.102
G01 X284.700 Y66.285
G01 X283.133 Y63.583
G01 X281.358 Y61.012
G01 X279.387 Y58.589
G01 X277.231 Y56.327
G01 X274.905 Y54.242
G01 X272.423 Y52.346
G01 X269.799 Y50.650
G01 X267.051 Y49.165
G01 X264.194 Y47.900
G01 X261.247 Y46.864
G01 X258.228 Y46.062
G01 X255.155 Y45.499
G01 X252.048 Y45.179
G01 X248.925 Y45.104
G01 X245.806 Y45.274
G01 X242.709 Y45.689
G01 X239.655 Y46.345
G01 X236.662 Y47.238
G01 X233.748 Y48.364
G01 X230.931 Y49.715
G01 X228.229 Y51.283
G01 X225.658 Y53.058
G01 X223.235 Y55.029
G01 X220.973 Y57.184
G01 X218.888 Y59.510
G01 X216.991 Y61.992
G01 X215.296 Y64.616
G01 X213.811 Y67.365
G01 X212.546 Y70.221
G01 X211.510 Y73.168
G01 X210.708 Y76.187
G01 X210.145 Y79.260
G01 X209.825 Y82.368
G01 X209.750 Y85.491
G01 X209.781 Y86.566
G01 X209.809 Y88.615
G01 X210.046 Y91.730
G01 X210.516 Y94.818
G01 X211.218 Y97.862
G01 X212.147 Y100.845
G01 X213.298 Y103.749
G01 X214.664 Y106.558
G01 X216.238 Y109.257
G01 X218.011 Y111.829
G01 X219.972 Y114.261
G01 X222.111 Y116.538
G01 X224.415 Y118.648
G01 X226.871 Y120.578
G01 X229.466 Y122.317
G01 X232.185 Y123.857
G01 X235.011 Y125.187
G01 X237.930 Y126.301
G01 X240.924 Y127.192
G01 X243.977 Y127.855
G01 X247.071 Y128.286
G01 X250.189 Y128.483
G01 X253.312 Y128.445
G01 X256.424 Y128.172
G01 X259.507 Y127.665
G01 X262.543 Y126.928
G01 X265.514 Y125.964
G01 X268.405 Y124.779
G01 X271.198 Y123.380
G01 X273.878 Y121.775
G01 X276.429 Y119.972
G01 X278.838 Y117.982
G01 X281.090 Y115.817
G01 X283.172 Y113.488
G01 X285.073 Y111.009
G01 X286.783 Y108.394
G01 X288.290 Y105.658
G01 X289.587 Y102.816
G01 X290.667 Y99.885
G01 X291.523 Y96.880
G01 X292.150 Y93.820
G01 X292.545 Y90.721
G01 X292.705 Y87.601
G01 X292.704 Y86.364
G01 X292.731 Y84.477
G01 X292.597 Y81.356
G01 X292.238 Y78.252
G01 X291.657 Y75.183
G01 X290.856 Y72.163
G01 X289.841 Y69.209
G01 X288.615 Y66.335
G01 X287.186 Y63.557
G01 X285.561 Y60.889
G01 X283.748 Y58.345
G01 X281.756 Y55.938
G01 X279.597 Y53.680
G01 X277.281 Y51.583
G01 X274.820 Y49.659
G01 X272.227 Y47.916
G01 X269.516 Y46.365
G01 X266.700 Y45.012
G01 X263.794 Y43.866
G01 X260.813 Y42.932
G01 X257.772 Y42.214
G01 X254.688 Y41.717
G01 X251.576 Y41.444
G01 X248.452 Y41.394
G01 X245.333 Y41.570
G01 X242.235 Y41.970
G01 X239.173 Y42.591
G01 X236.164 Y43.431
G01 X233.223 Y44.486
G01 X230.366 Y45.749
G01 X227.607 Y47.214
G01 X224.960 Y48.874
G01 X222.440 Y50.720
G01 X220.059 Y52.743
G01 X217.830 Y54.932
G01 X215.764 Y57.275
G01 X213.872 Y59.761
G01 X212.163 Y62.376
G01 X210.648 Y65.108
G01 X209.332 Y67.942
G01 X208.224 Y70.863
G01 X207.329 Y73.856
G01 X206.652 Y76.905
G01 X206.195 Y79.996
G01 X205.962 Y83.111
G01 X205.952 Y86.162
G01 X205.949 Y86.235
G01 X205.941 Y89.360
G01 X206.148 Y92.477
G01 X206.569 Y95.572
G01 X207.203 Y98.632
G01 X208.045 Y101.640
G01 X209.093 Y104.583
G01 X210.341 Y107.447
G01 X211.783 Y110.218
G01 X213.413 Y112.884
G01 X215.222 Y115.431
G01 X217.203 Y117.847
G01 X219.345 Y120.121
G01 X221.639 Y122.242
G01 X224.073 Y124.200
G01 X226.637 Y125.985
G01 X229.317 Y127.590
G01 X232.101 Y129.007
G01 X234.977 Y130.229
G01 X237.930 Y131.249
G01 X240.945 Y132.064
G01 X244.011 Y132.669
G01 X247.110 Y133.061
G01 X250.229 Y133.239
G01 X253.353 Y133.203
G01 X256.467 Y132.950
G01 X259.556 Y132.485
G01 X262.606 Y131.807
G01 X265.601 Y130.921
G01 X268.529 Y129.831
G01 X271.375 Y128.541
G01 X274.125 Y127.059
G01 X276.766 Y125.391
G01 X279.287 Y123.545
G01 X281.674 Y121.530
G01 X283.917 Y119.355
G01 X286.005 Y117.031
G01 X287.927 Y114.569
G01 X289.676 Y111.980
G01 X291.242 Y109.276
G01 X292.618 Y106.472
G01 X293.798 Y103.579
G01 X294.776 Y100.612
G01 X295.547 Y97.584
G01 X296.107 Y94.511
G01 X296.455 Y91.406
G01 X296.588 Y88.285
G01 X296.548 Y85.961
G01 X296.564 Y85.161
G01 X296.498 Y82.038
G01 X296.224 Y78.925
G01 X295.746 Y75.838
G01 X295.064 Y72.789
G01 X294.181 Y69.793
G01 X293.102 Y66.861
G01 X291.831 Y64.007
G01 X290.373 Y61.243
G01 X288.736 Y58.583
G01 X286.926 Y56.036
G01 X284.951 Y53.615
G01 X282.821 Y51.330
G01 X280.544 Y49.191
G01 X278.129 Y47.208
G01 X275.589 Y45.389
G01 X272.935 Y43.743
G01 X270.176 Y42.276
G01 X267.327 Y40.994
G01 X264.399 Y39.905
G01 X261.405 Y39.012
G01 X258.359 Y38.318
G01 X255.273 Y37.829
G01 X252.162 Y37.545
G01 X249.039 Y37.467
G01 X245.917 Y37.597
G01 X242.811 Y37.933
G01 X239.734 Y38.474
G01 X236.700 Y39.218
G01 X233.722 Y40.161
G01 X230.812 Y41.299
G01 X227.985 Y42.628
G01 X225.252 Y44.141
G01 X222.624 Y45.832
G01 X220.115 Y47.693
G01 X217.735 Y49.716
G01 X215.493 Y51.893
G01 X213.401 Y54.213
G01 X211.467 Y56.666
G01 X209.700 Y59.243
G01 X208.107 Y61.931
G01 X206.697 Y64.718
G01 X205.473 Y67.593
G01 X204.443 Y70.542
G01 X203.611 Y73.553
G01 X202.980 Y76.613
G01 X202.553 Y79.708
G01 X202.331 Y82.824
G01 X202.317 Y85.948
G01 X202.324 Y86.163
G01 X202.347 Y89.073
G01 X202.561 Y92.189
G01 X202.969 Y95.287
G01 X203.570 Y98.353
G01 X204.361 Y101.375
G01 X205.339 Y104.342
G01 X206.500 Y107.243
G01 X207.841 Y110.065
G01 X209.355 Y112.798
G01 X211.037 Y115.430
G01 X212.880 Y117.953
G01 X214.877 Y120.356
G01 X217.020 Y122.629
G01 X219.301 Y124.764
G01 X221.711 Y126.753
G01 X224.240 Y128.586
G01 X226.879 Y130.259
G01 X229.617 Y131.763
G01 X232.444 Y133.094
G01 X235.348 Y134.245
G01 X238.319 Y135.213
G01 X241.344 Y135.993
G01 X244.412 Y136.583
G01 X247.511 Y136.979
G01 X250.628 Y137.182
G01 X253.753 Y137.190
G01 X256.871 Y137.002
G01 X259.972 Y136.620
G01 X263.043 Y136.045
G01 X266.072 Y135.279
G01 X269.047 Y134.326
G01 X271.957 Y133.189
G01 X274.790 Y131.872
G01 X277.535 Y130.381
G01 X280.182 Y128.721
G01 X282.720 Y126.899
G01 X285.140 Y124.923
G01 X287.431 Y122.799
G01 X289.585 Y120.536
G01 X291.593 Y118.143
G01 X293.449 Y115.629
G01 X295.143 Y113.004
G01 X296.670 Y110.279
G01 X298.024 Y107.463
G01 X299.200 Y104.569
G01 X300.192 Y101.606
G01 X300.998 Y98.587
G01 X301.613 Y95.524
G01 X302.036 Y92.429
G01 X302.265 Y89.313
G01 X302.303 Y86.434
G01 X302.302 Y86.189
G01 X302.186 Y83.067
G01 X301.882 Y79.958
G01 X301.392 Y76.872
G01 X300.717 Y73.821
G01 X299.859 Y70.817
G01 X298.822 Y67.870
G01 X297.610 Y64.991
G01 X296.226 Y62.190
G01 X294.677 Y59.477
G01 X292.967 Y56.862
G01 X291.102 Y54.355
G01 X289.090 Y51.965
G01 X286.938 Y49.700
G01 X284.653 Y47.569
G01 X282.244 Y45.580
G01 X279.720 Y43.739
G01 X277.089 Y42.053
G01 X274.362 Y40.529
G01 X271.548 Y39.172
G01 X268.657 Y37.986
G01 X265.701 Y36.977
G01 X262.689 Y36.148
G01 X259.632 Y35.501
G01 X256.542 Y35.040
G01 X253.430 Y34.765
G01 X250.307 Y34.678
G01 X247.184 Y34.780
G01 X244.073 Y35.069
G01 X240.985 Y35.545
G01 X237.932 Y36.206
G01 X234.924 Y37.050
G01 X231.972 Y38.073
G01 X229.087 Y39.272
G01 X226.279 Y40.643
G01 X223.559 Y42.180
G01 X220.937 Y43.878
G01 X218.421 Y45.731
G01 X216.022 Y47.732
G01 X213.747 Y49.874
G01 X211.606 Y52.149
G01 X209.605 Y54.548
G01 X207.752 Y57.064
G01 X206.055 Y59.687
G01 X204.518 Y62.407
G01 X203.148 Y65.215
G01 X201.949 Y68.100
G01 X200.926 Y71.052
G01 X200.083 Y74.060
G01 X199.422 Y77.114
G01 X198.946 Y80.202
G01 X198.657 Y83.313
G01 X198.556 Y86.435
G01 X198.557 Y86.828
G01 X198.635 Y89.558
G01 X198.901 Y92.671
G01 X199.355 Y95.762
G01 X199.996 Y98.820
G01 X200.821 Y101.834
G01 X201.827 Y104.792
G01 X203.010 Y107.683
G01 X204.366 Y110.498
G01 X205.890 Y113.225
G01 X207.576 Y115.855
G01 X209.419 Y118.378
G01 X211.410 Y120.785
G01 X213.545 Y123.067
G01 X215.813 Y125.215
G01 X218.207 Y127.222
G01 X220.719 Y129.081
G01 X223.338 Y130.783
G01 X226.056 Y132.324
G01 X228.862 Y133.698
G01 X231.746 Y134.899
G01 X234.698 Y135.923
G01 X237.706 Y136.766
G01 X240.760 Y137.426
G01 X243.848 Y137.900
G01 X246.959 Y138.185
G01 X247.399 Y138.211
G01 X250.083 Y138.272
G01 X253.204 Y138.423
G01 X256.319 Y138.658
G01 X259.428 Y138.977
G01 X262.526 Y139.381
G01 X265.613 Y139.868
G01 X268.685 Y140.438
G01 X271.740 Y141.092
G01 X274.777 Y141.828
G01 X277.793 Y142.645
G01 X280.785 Y143.545
G01 X283.752 Y144.525
G01 X286.691 Y145.585
G01 X289.601 Y146.724
G01 X292.479 Y147.941
G01 X295.322 Y149.236
G01 X298.130 Y150.608
G01 X300.899 Y152.054
G01 X303.629 Y153.576
G01 X306.316 Y155.171
G01 X308.959 Y156.838
G01 X311.555 Y158.575
G01 X314.104 Y160.383
G01 X316.603 Y162.259
G01 X319.050 Y164.202
G01 X321.444 Y166.210
G01 X323.782 Y168.282
G01 X326.064 Y170.417
G01 X328.287 Y172.613
G01 X330.449 Y174.869
G01 X332.550 Y177.182
G01 X334.587 Y179.551
G01 X336.560 Y181.974
G01 X338.466 Y184.450
G01 X340.304 Y186.977
G01 X342.073 Y189.552
G01 X343.772 Y192.175
G01 X345.399 Y194.842
G01 X345.818 Y195.556
G01 X346.903 Y194.151
G01 X346.644 Y193.697
G01 X345.051 Y191.009
G01 X343.382 Y188.367
G01 X341.640 Y185.774
G01 X339.825 Y183.230
G01 X337.938 Y180.740
G01 X335.982 Y178.303
G01 X333.957 Y175.923
G01 X331.866 Y173.602
G01 X329.710 Y171.340
G01 X327.491 Y169.141
G01 X325.210 Y167.005
G01 X322.870 Y164.934
G01 X320.472 Y162.931
G01 X318.018 Y160.996
G01 X315.511 Y159.132
G01 X312.951 Y157.340
G01 X310.342 Y155.620
G01 X307.686 Y153.976
G01 X304.983 Y152.407
G01 X304.275 Y152.012
G01 X306.033 Y150.508
G01 X307.496 Y149.192
G01 X308.495 Y149.775
G01 X311.163 Y151.400
G01 X313.787 Y153.096
G01 X316.365 Y154.863
G01 X318.894 Y156.698
G01 X321.372 Y158.600
G01 X323.799 Y160.569
G01 X326.171 Y162.602
G01 X328.489 Y164.698
G01 X330.748 Y166.856
G01 X332.949 Y169.074
G01 X335.090 Y171.351
G01 X337.168 Y173.684
G01 X339.183 Y176.072
G01 X341.133 Y178.513
G01 X343.017 Y181.007
G01 X344.832 Y183.550
G01 X346.579 Y186.140
G01 X348.255 Y188.777
G01 X349.628 Y191.060
G01 X349.949 Y190.729
G01 X352.124 Y188.486
G01 X352.447 Y188.153
G01 X351.055 Y185.885
G01 X349.359 Y183.261
G01 X347.594 Y180.682
G01 X345.763 Y178.150
G01 X343.867 Y175.667
G01 X341.906 Y173.234
G01 X339.883 Y170.853
G01 X337.798 Y168.525
G01 X335.654 Y166.252
G01 X333.451 Y164.036
G01 X331.192 Y161.878
G01 X328.877 Y159.779
G01 X326.508 Y157.742
G01 X324.086 Y155.767
G01 X321.614 Y153.856
G01 X319.094 Y152.009
G01 X316.526 Y150.229
G01 X313.912 Y148.516
G01 X311.255 Y146.872
G01 X310.416 Y146.373
G01 X311.907 Y144.826
G01 X313.162 Y143.461
G01 X314.248 Y144.120
G01 X316.890 Y145.787
G01 X319.490 Y147.521
G01 X322.045 Y149.319
G01 X324.554 Y151.182
G01 X327.015 Y153.107
G01 X329.427 Y155.093
G01 X331.788 Y157.140
G01 X334.097 Y159.246
G01 X336.351 Y161.409
G01 X338.551 Y163.628
G01 X340.694 Y165.902
G01 X342.779 Y168.230
G01 X344.804 Y170.609
G01 X346.769 Y173.039
G01 X348.672 Y175.517
G01 X350.512 Y178.043
G01 X352.288 Y180.614
G01 X353.998 Y183.229
G01 X355.359 Y185.417
G01 X355.774 Y185.061
G01 X358.148 Y183.029
G01 X358.364 Y182.843
G01 X356.850 Y180.440
G01 X355.124 Y177.835
G01 X353.335 Y175.274
G01 X351.484 Y172.756
G01 X349.572 Y170.285
G01 X347.600 Y167.861
G01 X345.569 Y165.487
G01 X343.481 Y163.162
G01 X341.337 Y160.890
G01 X339.137 Y158.670
G01 X336.884 Y156.505
G01 X334.579 Y154.395
G01 X332.223 Y152.343
G01 X329.818 Y150.349
G01 X327.364 Y148.414
G01 X324.864 Y146.539
G01 X322.319 Y144.727
G01 X319.730 Y142.977
G01 X317.100 Y141.291
G01 X315.743 Y140.456
G01 X316.702 Y139.263
G01 X318.165 Y137.357
G01 X318.780 Y137.736
G01 X321.417 Y139.412
G01 X324.014 Y141.150
G01 X326.569 Y142.949
G01 X329.080 Y144.809
G01 X331.546 Y146.727
G01 X333.967 Y148.703
G01 X336.339 Y150.737
G01 X338.663 Y152.826
G01 X340.937 Y154.969
G01 X343.159 Y157.166
G01 X345.328 Y159.414
G01 X347.444 Y161.714
G01 X349.504 Y164.063
G01 X351.508 Y166.461
G01 X353.454 Y168.905
G01 X355.343 Y171.395
G01 X357.171 Y173.928
G01 X358.939 Y176.505
G01 X360.645 Y179.123
G01 X361.462 Y180.426
G01 X362.756 Y179.508
G01 X364.654 Y178.161
G01 X364.231 Y177.485
G01 X362.536 Y174.860
G01 X360.781 Y172.275
G01 X358.967 Y169.730
G01 X357.095 Y167.229
G01 X355.166 Y164.771
G01 X353.180 Y162.358
G01 X351.140 Y159.991
G01 X349.046 Y157.673
G01 X346.898 Y155.403
G01 X344.699 Y153.183
G01 X342.450 Y151.014
G01 X340.151 Y148.898
G01 X337.804 Y146.835
G01 X335.410 Y144.827
G01 X332.970 Y142.875
G01 X330.486 Y140.979
G01 X327.960 Y139.141
G01 X325.391 Y137.362
G01 X322.782 Y135.642
G01 X320.432 Y134.166
G01 X320.628 Y133.876
G01 X322.320 Y131.249
G01 X322.547 Y130.881
G01 X324.827 Y132.312
G01 X327.437 Y134.030
G01 X330.008 Y135.805
G01 X332.539 Y137.638
G01 X335.029 Y139.526
G01 X337.475 Y141.470
G01 X339.877 Y143.468
G01 X342.234 Y145.520
G01 X344.544 Y147.624
G01 X346.807 Y149.779
G01 X349.021 Y151.984
G01 X351.184 Y154.238
G01 X353.298 Y156.540
G01 X355.358 Y158.889
G01 X357.366 Y161.283
G01 X359.320 Y163.722
G01 X361.218 Y166.203
G01 X363.061 Y168.727
G01 X364.846 Y171.291
G01 X366.574 Y173.895
G01 X367.939 Y176.046
G01 X368.438 Y175.756
G01 X371.139 Y174.186
G01 X371.317 Y174.082
G01 X369.753 Y171.618
G01 X368.023 Y169.017
G01 X366.237 Y166.453
G01 X364.395 Y163.929
G01 X362.498 Y161.445
G01 X360.548 Y159.004
G01 X358.546 Y156.605
G01 X356.491 Y154.251
G01 X354.386 Y151.942
G01 X352.231 Y149.679
G01 X350.027 Y147.464
G01 X347.775 Y145.298
G01 X345.477 Y143.181
G01 X343.133 Y141.114
G01 X340.745 Y139.099
G01 X338.313 Y137.137
G01 X335.840 Y135.228
G01 X333.325 Y133.374
G01 X330.770 Y131.574
G01 X328.177 Y129.831
G01 X325.547 Y128.144
G01 X324.511 Y127.502
G01 X325.070 Y125.898
G01 X326.079 Y125.934
G01 X327.884 Y126.967
G01 X330.564 Y128.574
G01 X333.203 Y130.246
G01 X335.802 Y131.982
G01 X338.357 Y133.781
G01 X340.867 Y135.641
G01 X343.332 Y137.562
G01 X345.749 Y139.542
G01 X348.117 Y141.581
G01 X350.434 Y143.677
G01 X352.700 Y145.828
G01 X354.913 Y148.034
G01 X357.071 Y150.294
G01 X359.174 Y152.605
G01 X361.220 Y154.967
G01 X363.208 Y157.378
G01 X365.136 Y159.836
G01 X367.004 Y162.341
G01 X368.810 Y164.891
G01 X370.554 Y167.484
G01 X372.234 Y170.118
G01 X373.849 Y172.793
G01 X374.442 Y173.814
G01 X372.717 Y174.711
G01 X369.990 Y176.236
G01 X367.322 Y177.861
G01 X364.715 Y179.584
G01 X362.174 Y181.403
G01 X359.703 Y183.315
G01 X357.304 Y185.317
G01 X354.982 Y187.407
G01 X352.738 Y189.582
G01 X350.577 Y191.839
G01 X348.501 Y194.174
G01 X346.514 Y196.585
G01 X344.617 Y199.067
G01 X342.813 Y201.619
G01 X341.106 Y204.236
G01 X339.497 Y206.914
G01 X337.988 Y209.651
G01 X336.583 Y212.441
G01 X335.281 Y215.282
G01 X334.087 Y218.169
G01 X333.000 Y221.098
G01 X332.022 Y224.066
G01 X331.156 Y227.068
G01 X330.402 Y230.100
G01 X329.761 Y233.158
G01 X329.233 Y236.238
G01 X328.821 Y239.335
G01 X328.524 Y242.445
G01 X328.342 Y245.565
G01 X328.277 Y248.692
G01 X328.294 Y250.617
G01 X328.268 Y251.816
G01 X328.115 Y254.937
G01 X327.838 Y258.049
G01 X327.438 Y261.148
G01 X326.914 Y264.228
G01 X326.267 Y267.285
G01 X325.500 Y270.314
G01 X324.613 Y273.310
G01 X323.606 Y276.268
G01 X322.483 Y279.184
G01 X321.245 Y282.053
G01 X319.893 Y284.870
G01 X318.431 Y287.631
G01 X316.859 Y290.331
G01 X315.181 Y292.967
G01 X313.400 Y295.534
G01 X311.518 Y298.028
G01 X309.537 Y300.445
G01 X307.462 Y302.781
G01 X305.296 Y305.032
G01 X303.042 Y307.196
G01 X300.703 Y309.268
G01 X298.284 Y311.245
G01 X295.788 Y313.124
G01 X293.219 Y314.903
G01 X290.581 Y316.577
G01 X287.878 Y318.146
G01 X285.116 Y319.605
G01 X282.297 Y320.953
G01 X279.427 Y322.188
G01 X276.510 Y323.308
G01 X273.550 Y324.310
G01 X270.554 Y325.194
G01 X267.524 Y325.958
G01 X264.466 Y326.600
G01 X261.385 Y327.120
G01 X258.286 Y327.517
G01 X255.173 Y327.791
G01 X252.052 Y327.940
G01 X248.928 Y327.965
G01 X245.805 Y327.865
G01 X242.689 Y327.641
G01 X239.584 Y327.293
G01 X236.495 Y326.821
G01 X233.427 Y326.227
G01 X230.386 Y325.511
G01 X227.375 Y324.675
G01 X224.401 Y323.719
G01 X221.466 Y322.646
G01 X218.577 Y321.456
G01 X215.737 Y320.153
G01 X212.952 Y318.737
G01 X210.225 Y317.212
G01 X207.561 Y315.579
G01 X204.964 Y313.841
G01 X202.439 Y312.002
G01 X199.989 Y310.063
G01 X197.618 Y308.028
G01 X195.330 Y305.900
G01 X193.128 Y303.683
G01 X191.016 Y301.380
G01 X188.998 Y298.994
G01 X187.077 Y296.531
G01 X185.255 Y293.992
G01 X183.536 Y291.383
G01 X181.922 Y288.708
G01 X180.416 Y285.970
G01 X179.020 Y283.175
G01 X177.736 Y280.326
G01 X176.567 Y277.429
G01 X175.515 Y274.487
G01 X174.580 Y271.505
G01 X173.765 Y268.489
G01 X173.070 Y265.443
G01 X172.498 Y262.371
G01 X172.048 Y259.279
G01 X171.722 Y256.172
G01 X171.520 Y253.054
G01 X171.442 Y249.930
G01 X171.489 Y246.806
G01 X171.660 Y243.686
G01 X171.955 Y240.575
G01 X172.374 Y237.479
G01 X172.916 Y234.402
G01 X173.580 Y231.349
G01 X174.365 Y228.325
G01 X175.270 Y225.334
G01 X176.294 Y222.382
G01 X177.434 Y219.473
G01 X178.689 Y216.611
G01 X180.057 Y213.802
G01 X181.536 Y211.050
G01 X183.123 Y208.359
G01 X184.816 Y205.733
G01 X186.613 Y203.176
G01 X188.510 Y200.693
G01 X190.504 Y198.288
G01 X192.593 Y195.964
G01 X194.772 Y193.725
G01 X197.039 Y191.575
G01 X199.390 Y189.517
G01 X201.820 Y187.554
G01 X204.328 Y185.689
G01 X206.907 Y183.925
G01 X209.554 Y182.266
G01 X212.266 Y180.714
G01 X215.037 Y179.270
G01 X217.864 Y177.939
G01 X220.741 Y176.721
G01 X223.665 Y175.618
G01 X226.630 Y174.633
G01 X229.632 Y173.767
G01 X232.666 Y173.021
G01 X235.727 Y172.396
G01 X238.811 Y171.894
G01 X241.913 Y171.515
G01 X245.027 Y171.260
G01 X248.149 Y171.129
G01 X251.273 Y171.123
G01 X254.395 Y171.241
G01 X257.511 Y171.483
G01 X260.614 Y171.849
G01 X263.700 Y172.339
G01 X266.763 Y172.951
G01 X269.801 Y173.685
G01 X272.806 Y174.538
G01 X275.775 Y175.512
G01 X278.703 Y176.602
G01 X281.586 Y177.808
G01 X284.418 Y179.128
G01 X287.195 Y180.560
G01 X289.913 Y182.102
G01 X292.567 Y183.750
G01 X295.154 Y185.503
G01 X297.668 Y187.357
G01 X300.107 Y189.310
G01 X302.466 Y191.359
G01 X304.742 Y193.500
G01 X306.930 Y195.730
G01 X309.028 Y198.046
G01 X311.033 Y200.443
G01 X312.940 Y202.918
G01 X314.747 Y205.467
G01 X316.450 Y208.086
G01 X318.049 Y210.770
G01 X319.539 Y213.517
G01 X320.918 Y216.320
G01 X322.185 Y219.177
G01 X323.337 Y222.081
G01 X324.373 Y225.029
G01 X325.290 Y228.016
G01 X326.087 Y231.037
G01 X326.764 Y234.087
G01 X327.318 Y237.162
G01 X327.750 Y240.257
G01 X328.058 Y243.366
G01 X328.242 Y246.485
G01 X328.301 Y249.609
G01 X328.300 Y249.990
G01 X328.480 Y247.253
G01 X328.781 Y244.143
G01 X329.185 Y241.045
G01 X329.691 Y237.962
G01 X330.299 Y234.897
G01 X331.008 Y231.854
G01 X331.817 Y228.835
G01 X332.726 Y225.846
G01 X333.733 Y222.888
G01 X334.837 Y219.965
G01 X336.037 Y217.080
G01 X337.332 Y214.237
G01 X338.721 Y211.438
G01 X340.201 Y208.686
G01 X341.771 Y205.985
G01 X343.430 Y203.337
G01 X345.176 Y200.745
G01 X347.006 Y198.213
G01 X348.513 Y196.253
G01 X348.927 Y195.749
G01 X350.964 Y193.380
G01 X353.088 Y191.088
G01 X355.295 Y188.876
G01 X357.583 Y186.749
G01 X359.949 Y184.707
G01 X362.389 Y182.755
G01 X364.899 Y180.896
G01 X367.478 Y179.130
G01 X370.120 Y177.462
G01 X372.822 Y175.893
G01 X375.581 Y174.426
G01 X378.392 Y173.062
G01 X381.252 Y171.804
G01 X384.157 Y170.653
G01 X387.102 Y169.611
G01 X390.084 Y168.679
G01 X393.099 Y167.858
G01 X396.143 Y167.150
G01 X399.210 Y166.556
G01 X402.298 Y166.077
G01 X405.401 Y165.712
G01 X408.515 Y165.463
G01 X411.637 Y165.330
G01 X414.762 Y165.313
G01 X417.885 Y165.412
G01 X421.002 Y165.627
G01 X424.109 Y165.958
G01 X427.201 Y166.404
G01 X430.275 Y166.965
G01 X433.326 Y167.640
G01 X436.350 Y168.428
G01 X439.342 Y169.327
G01 X442.299 Y170.337
G01 X445.216 Y171.457
G01 X448.089 Y172.684
G01 X450.915 Y174.017
G01 X453.690 Y175.454
G01 X456.408 Y176.994
G01 X459.068 Y178.633
G01 X461.666 Y180.370
G01 X464.196 Y182.203
G01 X466.657 Y184.128
G01 X469.045 Y186.143
G01 X471.356 Y188.246
G01 X473.587 Y190.433
G01 X475.736 Y192.702
G01 X477.798 Y195.049
G01 X479.772 Y197.471
G01 X481.655 Y199.965
G01 X483.443 Y202.527
G01 X485.135 Y205.154
G01 X486.729 Y207.841
G01 X488.221 Y210.587
G01 X489.610 Y213.385
G01 X490.894 Y216.234
G01 X492.071 Y219.128
G01 X493.140 Y222.064
G01 X494.099 Y225.038
G01 X494.947 Y228.045
G01 X495.682 Y231.082
G01 X496.304 Y234.144
G01 X496.812 Y237.227
G01 X497.205 Y240.327
G01 X497.482 Y243.439
G01 X497.644 Y246.559
G01 X497.689 Y249.684
G01 X497.618 Y252.807
G01 X497.431 Y255.926
G01 X497.128 Y259.036
G01 X496.710 Y262.133
G01 X496.177 Y265.211
G01 X495.530 Y268.268
G01 X494.770 Y271.299
G01 X493.898 Y274.299
G01 X492.914 Y277.265
G01 X491.821 Y280.192
G01 X490.620 Y283.076
G01 X489.313 Y285.914
G01 X487.901 Y288.702
G01 X486.386 Y291.435
G01 X484.771 Y294.109
G01 X483.058 Y296.722
G01 X481.248 Y299.269
G01 X479.345 Y301.748
G01 X477.352 Y304.153
G01 X475.270 Y306.483
G01 X473.103 Y308.734
G01 X470.854 Y310.903
G01 X468.525 Y312.987
G01 X466.121 Y314.983
G01 X463.645 Y316.888
G01 X461.099 Y318.700
G01 X458.488 Y320.416
G01 X455.815 Y322.033
G01 X453.083 Y323.550
G01 X450.297 Y324.965
G01 X447.460 Y326.274
G01 X444.577 Y327.478
G01 X441.650 Y328.573
G01 X438.685 Y329.559
G01 X435.686 Y330.434
G01 X432.656 Y331.197
G01 X429.600 Y331.847
G01 X426.521 Y332.383
G01 X423.426 Y332.804
G01 X420.316 Y333.109
G01 X417.197 Y333.299
G01 X414.074 Y333.372
G01 X410.949 Y333.330
G01 X407.829 Y333.171
G01 X404.716 Y332.897
G01 X401.616 Y332.507
G01 X398.533 Y332.002
G01 X395.470 Y331.382
G01 X392.433 Y330.649
G01 X389.425 Y329.804
G01 X386.450 Y328.848
G01 X383.513 Y327.782
G01 X380.618 Y326.607
G01 X377.768 Y325.325
G01 X374.968 Y323.938
G01 X372.222 Y322.449
G01 X369.532 Y320.858
G01 X366.904 Y319.168
G01 X364.341 Y317.382
G01 X361.845 Y315.501
G01 X359.422 Y313.530
G01 X357.073 Y311.469
G01 X354.802 Y309.323
G01 X352.613 Y307.093
G01 X350.508 Y304.784
G01 X349.548 Y303.671
G01 X350.341 Y302.218
G01 X351.778 Y299.443
G01 X353.134 Y296.629
G01 X354.410 Y293.777
G01 X355.605 Y290.889
G01 X356.716 Y287.969
G01 X357.744 Y285.018
G01 X358.687 Y282.039
G01 X359.545 Y279.035
G01 X360.317 Y276.007
G01 X361.003 Y272.958
G01 X361.601 Y269.892
G01 X362.112 Y266.809
G01 X362.534 Y263.713
G01 X362.868 Y260.606
G01 X363.114 Y257.492
G01 X363.270 Y254.371
G01 X363.324 Y252.360
G01 X363.306 Y251.247
G01 X363.415 Y248.125
G01 X363.762 Y245.020
G01 X364.345 Y241.951
G01 X365.160 Y238.936
G01 X366.203 Y235.991
G01 X367.468 Y233.134
G01 X368.947 Y230.382
G01 X370.631 Y227.751
G01 X372.511 Y225.257
G01 X374.576 Y222.912
G01 X376.814 Y220.732
G01 X379.211 Y218.730
G01 X381.754 Y216.915
G01 X384.429 Y215.301
G01 X387.218 Y213.894
G01 X390.107 Y212.705
G01 X393.078 Y211.740
