;  Created by Sandify
;  https://sandify.org
;  Version: 0.2.6
;
;  Machine type: Rectangular
;    Min X (mm): 0
;    Max X (mm): 500
;    Min Y (mm): 0
;    Max Y (mm): 500
;  Content type: shape
;  Layer:
;    Shape: FileImport
;    Name: BinarySupport.thr
;    From file:: BinarySupport.thr
;    Aspect Ratio: true
;    Comments: 
;    Visible: true
;    Initial width: 10
;    Initial height: 10
;    X offset: 0
;    Y offset: 0
;    Rotate (degrees): 0
;    Reverse path: false
;    Fine tuning:
;      Connect to next layer: line
;      Draw portion of path (%): 100
;      Backtrack at end (%): 0
;      Rotate starting point (%): 0
;  Reverse export path: false
;
; File name: 'Binarysupport (CC)'
; File type: gcode
;

G01 X250.000 Y250.000
G01 X250.032 Y250.650
G01 X250.128 Y251.296
G01 X250.287 Y251.932
G01 X250.508 Y252.554
G01 X250.791 Y253.158
G01 X251.134 Y253.738
G01 X251.535 Y254.291
G01 X251.993 Y254.812
G01 X252.505 Y255.297
G01 X253.069 Y255.742
G01 X253.682 Y256.143
G01 X254.340 Y256.496
G01 X255.042 Y256.798
G01 X255.782 Y257.046
G01 X256.558 Y257.236
G01 X257.366 Y257.366
G01 X258.201 Y257.433
G01 X259.059 Y257.434
G01 X259.936 Y257.369
G01 X260.826 Y257.234
G01 X261.727 Y257.029
G01 X262.632 Y256.752
G01 X263.536 Y256.402
G01 X264.436 Y255.979
G01 X265.325 Y255.483
G01 X266.198 Y254.914
G01 X267.051 Y254.271
G01 X267.879 Y253.556
G01 X268.676 Y252.770
G01 X269.437 Y251.914
G01 X270.158 Y250.990
G01 X270.833 Y250.000
G01 X271.458 Y248.946
G01 X272.029 Y247.830
G01 X272.540 Y246.657
G01 X272.987 Y245.428
G01 X273.367 Y244.147
G01 X273.674 Y242.818
G01 X273.906 Y241.446
G01 X274.059 Y240.034
G01 X274.130 Y238.587
G01 X274.115 Y237.110
G01 X274.012 Y235.608
G01 X273.818 Y234.085
G01 X273.531 Y232.548
G01 X273.150 Y231.001
G01 X272.672 Y229.451
G01 X272.097 Y227.903
G01 X271.423 Y226.363
G01 X270.651 Y224.837
G01 X269.779 Y223.331
G01 X268.808 Y221.851
G01 X267.739 Y220.404
G01 X266.573 Y218.995
G01 X265.310 Y217.631
G01 X263.952 Y216.317
G01 X262.502 Y215.060
G01 X260.961 Y213.866
G01 X259.333 Y212.740
G01 X257.621 Y211.688
G01 X255.827 Y210.716
G01 X253.956 Y209.830
G01 X252.013 Y209.034
G01 X250.000 Y208.333
G01 X247.924 Y207.733
G01 X245.788 Y207.238
G01 X243.600 Y206.852
G01 X241.363 Y206.580
G01 X239.085 Y206.424
G01 X236.771 Y206.389
G01 X234.428 Y206.478
G01 X232.062 Y206.693
G01 X229.680 Y207.037
G01 X227.289 Y207.512
G01 X224.897 Y208.119
G01 X222.511 Y208.860
G01 X220.137 Y209.735
G01 X217.785 Y210.746
G01 X215.460 Y211.891
G01 X213.172 Y213.172
G01 X210.926 Y214.586
G01 X208.733 Y216.133
G01 X206.598 Y217.811
G01 X204.529 Y219.617
G01 X202.535 Y221.550
G01 X200.622 Y223.607
G01 X198.797 Y225.783
G01 X197.069 Y228.075
G01 X195.444 Y230.480
G01 X193.929 Y232.991
G01 X192.531 Y235.605
G01 X191.255 Y238.315
G01 X190.108 Y241.116
G01 X189.097 Y244.002
G01 X188.226 Y246.965
G01 X187.500 Y250.000
G01 X186.925 Y253.099
G01 X186.505 Y256.254
G01 X186.244 Y259.457
G01 X186.147 Y262.701
G01 X186.215 Y265.977
G01 X186.453 Y269.277
G01 X186.863 Y272.591
G01 X187.446 Y275.911
G01 X188.204 Y279.227
G01 X189.138 Y282.531
G01 X190.249 Y285.813
G01 X191.537 Y289.064
G01 X193.002 Y292.273
G01 X194.641 Y295.432
G01 X196.455 Y298.531
G01 X198.440 Y301.560
G01 X200.595 Y304.510
G01 X202.916 Y307.372
G01 X205.400 Y310.136
G01 X208.043 Y312.793
G01 X210.840 Y315.335
G01 X213.786 Y317.752
G01 X216.876 Y320.036
G01 X220.103 Y322.178
G01 X223.461 Y324.171
G01 X226.944 Y326.007
G01 X230.543 Y327.678
G01 X234.251 Y329.178
G01 X238.059 Y330.499
G01 X241.960 Y331.636
G01 X245.943 Y332.583
G01 X250.000 Y333.333
G01 X254.121 Y333.883
G01 X258.296 Y334.228
G01 X262.514 Y334.363
G01 X266.766 Y334.286
G01 X271.039 Y333.994
G01 X275.324 Y333.483
G01 X279.609 Y332.753
G01 X283.883 Y331.802
G01 X288.135 Y330.629
G01 X292.352 Y329.235
G01 X296.524 Y327.620
G01 X300.638 Y325.785
G01 X304.683 Y323.732
G01 X308.648 Y321.463
G01 X312.521 Y318.982
G01 X316.291 Y316.291
G01 X319.947 Y313.396
G01 X323.476 Y310.300
G01 X326.869 Y307.010
G01 X330.116 Y303.532
G01 X333.204 Y299.871
G01 X336.125 Y296.035
G01 X338.869 Y292.032
G01 X341.426 Y287.870
G01 X343.787 Y283.557
G01 X345.943 Y279.104
G01 X347.887 Y274.519
G01 X349.611 Y269.814
G01 X351.107 Y264.998
G01 X352.369 Y260.082
G01 X353.391 Y255.079
G01 X354.167 Y250.000
G01 X354.691 Y244.857
G01 X354.961 Y239.662
G01 X354.971 Y234.429
G01 X354.719 Y229.170
G01 X354.203 Y223.899
G01 X353.419 Y218.628
G01 X352.368 Y213.372
G01 X351.049 Y208.144
G01 X349.462 Y202.958
G01 X347.608 Y197.827
G01 X345.489 Y192.766
G01 X343.107 Y187.788
G01 X340.465 Y182.906
G01 X337.568 Y178.135
G01 X334.418 Y173.488
G01 X331.023 Y168.977
G01 X327.387 Y164.617
G01 X323.517 Y160.419
G01 X319.421 Y156.397
G01 X315.106 Y152.562
G01 X310.581 Y148.927
G01 X305.856 Y145.502
G01 X300.939 Y142.298
G01 X295.842 Y139.327
G01 X290.576 Y136.598
G01 X285.152 Y134.121
G01 X279.582 Y131.904
G01 X273.878 Y129.956
G01 X268.055 Y128.285
G01 X262.125 Y126.898
G01 X256.102 Y125.801
G01 X250.000 Y125.000
G01 X243.835 Y124.500
G01 X237.620 Y124.306
G01 X231.372 Y124.421
G01 X225.106 Y124.848
G01 X218.837 Y125.588
G01 X212.580 Y126.644
G01 X206.353 Y128.016
G01 X200.171 Y129.703
G01 X194.050 Y131.705
G01 X188.006 Y134.018
G01 X182.055 Y136.641
G01 X176.213 Y139.570
G01 X170.496 Y142.801
G01 X164.919 Y146.328
G01 X159.497 Y150.145
G01 X154.246 Y154.246
G01 X149.180 Y158.623
G01 X144.315 Y163.267
G01 X139.664 Y168.169
G01 X135.240 Y173.320
G01 X131.057 Y178.708
G01 X127.128 Y184.324
G01 X123.465 Y190.153
G01 X120.079 Y196.185
G01 X116.982 Y202.406
G01 X114.184 Y208.801
G01 X111.695 Y215.356
G01 X109.523 Y222.057
G01 X107.677 Y228.888
G01 X106.165 Y235.833
G01 X104.993 Y242.876
G01 X104.167 Y250.000
G01 X103.692 Y257.188
G01 X103.573 Y264.422
G01 X103.813 Y271.685
G01 X104.415 Y278.959
G01 X105.379 Y286.226
G01 X106.708 Y293.467
G01 X108.401 Y300.665
G01 X110.456 Y307.801
G01 X112.871 Y314.857
G01 X115.645 Y321.814
G01 X118.772 Y328.655
G01 X122.248 Y335.361
G01 X126.068 Y341.915
G01 X130.224 Y348.298
G01 X134.709 Y354.494
G01 X139.515 Y360.485
G01 X144.632 Y366.256
G01 X150.050 Y371.789
G01 X155.759 Y377.070
G01 X161.745 Y382.082
G01 X167.998 Y386.812
G01 X174.503 Y391.245
G01 X181.246 Y395.368
G01 X188.213 Y399.168
G01 X195.387 Y402.633
G01 X202.753 Y405.752
G01 X210.294 Y408.514
G01 X217.993 Y410.910
G01 X225.832 Y412.931
G01 X233.791 Y414.568
G01 X241.854 Y415.816
G01 X250.000 Y416.667
G01 X258.210 Y417.116
G01 X266.464 Y417.160
G01 X274.742 Y416.795
G01 X283.023 Y416.018
G01 X291.288 Y414.830
G01 X299.515 Y413.228
G01 X307.684 Y411.215
G01 X315.774 Y408.792
G01 X323.764 Y405.962
G01 X331.635 Y402.729
G01 X339.366 Y399.097
G01 X346.935 Y395.074
G01 X354.325 Y390.666
G01 X361.514 Y385.881
G01 X368.485 Y380.728
G01 X375.217 Y375.217
G01 X381.692 Y369.359
G01 X387.894 Y363.167
G01 X393.803 Y356.652
G01 X399.405 Y349.829
G01 X404.682 Y342.713
G01 X409.619 Y335.318
G01 X414.201 Y327.661
G01 X418.416 Y319.760
G01 X422.249 Y311.632
G01 X425.688 Y303.294
G01 X428.723 Y294.768
G01 X431.343 Y286.071
G01 X433.539 Y277.225
G01 X435.301 Y268.251
G01 X436.624 Y259.168
G01 X437.500 Y250.000
G01 X437.924 Y240.768
G01 X437.893 Y231.494
G01 X437.403 Y222.201
G01 X436.451 Y212.913
G01 X435.039 Y203.650
G01 X433.164 Y194.438
G01 X430.830 Y185.298
G01 X428.039 Y176.254
G01 X424.795 Y167.328
G01 X421.102 Y158.544
G01 X416.967 Y149.924
G01 X412.396 Y141.490
G01 X407.399 Y133.265
G01 X401.985 Y125.269
G01 X396.164 Y117.525
G01 X389.948 Y110.052
G01 X383.350 Y102.871
G01 X376.383 Y96.002
G01 X369.062 Y89.463
G01 X361.403 Y83.273
G01 X353.423 Y77.449
G01 X345.139 Y72.008
G01 X336.569 Y66.966
G01 X327.733 Y62.337
G01 X318.650 Y58.136
G01 X309.342 Y54.375
G01 X299.830 Y51.068
G01 X290.136 Y48.224
G01 X280.282 Y45.854
G01 X270.293 Y43.966
G01 X260.190 Y42.568
G01 X250.000 Y41.667
G01 X239.746 Y41.267
G01 X229.452 Y41.374
G01 X219.145 Y41.990
G01 X208.848 Y43.116
G01 X198.588 Y44.753
G01 X188.390 Y46.899
G01 X178.279 Y49.554
G01 X168.281 Y52.713
G01 X158.421 Y56.372
G01 X148.723 Y60.525
G01 X139.214 Y65.164
G01 X129.916 Y70.281
G01 X120.854 Y75.867
G01 X112.053 Y81.910
G01 X103.534 Y88.399
G01 X95.320 Y95.320
G01 X87.435 Y102.659
G01 X79.897 Y110.400
G01 X72.730 Y118.527
G01 X65.951 Y127.022
G01 X59.580 Y135.867
G01 X53.635 Y145.041
G01 X48.133 Y154.524
G01 X43.089 Y164.295
G01 X38.520 Y174.331
G01 X34.439 Y184.610
G01 X30.859 Y195.108
G01 X27.791 Y205.800
G01 X25.246 Y216.661
G01 X23.233 Y227.665
G01 X21.760 Y238.787
G01 X20.833 Y250.000
G01 X20.459 Y261.277
G01 X20.641 Y272.590
G01 X21.382 Y283.912
G01 X22.683 Y295.216
G01 X24.544 Y306.474
G01 X26.963 Y317.657
G01 X29.939 Y328.739
G01 X33.466 Y339.691
G01 X37.539 Y350.487
G01 X42.151 Y361.097
G01 X47.295 Y371.497
G01 X52.959 Y381.659
G01 X59.134 Y391.556
G01 X65.806 Y401.164
G01 X72.963 Y410.457
G01 X80.589 Y419.411
G01 X88.668 Y428.002
G01 X97.184 Y436.207
G01 X106.117 Y444.004
G01 X115.448 Y451.372
G01 X125.156 Y458.290
G01 X135.220 Y464.739
G01 X145.616 Y470.701
G01 X156.322 Y476.158
G01 X167.313 Y481.095
G01 X178.563 Y485.497
G01 X190.046 Y489.350
G01 X201.735 Y492.642
G01 X213.604 Y495.362
G01 X225.623 Y497.500
G01 X237.765 Y499.049
G01 X250.000 Y500.000
G01 X262.266 Y499.679
G01 X274.500 Y498.757
G01 X286.674 Y497.236
G01 X298.757 Y495.119
G01 X310.721 Y492.412
G01 X322.537 Y489.122
G01 X334.176 Y485.256
G01 X345.610 Y480.824
G01 X356.813 Y475.837
G01 X367.756 Y470.306
G01 X378.414 Y464.246
G01 X388.761 Y457.671
G01 X398.772 Y450.596
G01 X408.423 Y443.039
G01 X417.691 Y435.019
G01 X426.553 Y426.553
G01 X434.989 Y417.665
G01 X442.978 Y408.373
G01 X450.501 Y398.702
G01 X457.539 Y388.673
G01 X464.077 Y378.313
G01 X470.098 Y367.645
G01 X475.587 Y356.695
G01 X480.532 Y345.490
G01 X484.922 Y334.056
G01 X488.744 Y322.422
G01 X491.991 Y310.616
G01 X494.655 Y298.665
G01 X496.728 Y286.599
G01 X498.207 Y274.446
G01 X499.088 Y262.237
G01 X499.369 Y250.000
G01 X499.049 Y237.765
G01 X498.129 Y225.561
G01 X496.611 Y213.419
G01 X494.500 Y201.366
G01 X491.800 Y189.432
G01 X488.518 Y177.646
G01 X484.662 Y166.037
G01 X480.241 Y154.631
G01 X475.266 Y143.457
G01 X469.750 Y132.541
G01 X463.705 Y121.910
G01 X457.146 Y111.590
G01 X450.089 Y101.604
G01 X442.551 Y91.977
G01 X434.551 Y82.733
G01 X426.107 Y73.893
G01 X417.241 Y65.478
G01 X407.973 Y57.510
G01 X398.325 Y50.006
G01 X388.323 Y42.986
G01 X377.988 Y36.465
G01 X367.347 Y30.459
G01 X356.425 Y24.984
G01 X345.248 Y20.051
G01 X333.844 Y15.673
G01 X322.239 Y11.860
G01 X310.462 Y8.621
G01 X298.542 Y5.965
G01 X286.506 Y3.896
G01 X274.384 Y2.421
G01 X262.206 Y1.543
G01 X250.000 Y1.263
G01 X237.796 Y1.582
G01 X225.623 Y2.500
G01 X213.511 Y4.013
G01 X201.489 Y6.119
G01 X189.586 Y8.813
G01 X177.830 Y12.086
G01 X166.249 Y15.933
G01 X154.873 Y20.342
G01 X143.727 Y25.305
G01 X132.839 Y30.807
G01 X122.235 Y36.837
G01 X111.940 Y43.379
G01 X101.980 Y50.418
G01 X92.378 Y57.937
G01 X83.157 Y65.917
G01 X74.339 Y74.339
G01 X65.946 Y83.183
G01 X57.998 Y92.428
G01 X50.513 Y102.051
G01 X43.511 Y112.028
G01 X37.006 Y122.336
G01 X31.016 Y132.951
G01 X25.554 Y143.845
G01 X20.634 Y154.994
G01 X16.267 Y166.369
G01 X12.464 Y177.944
G01 X9.234 Y189.691
G01 X6.584 Y201.582
G01 X4.521 Y213.587
G01 X3.049 Y225.677
G01 X2.173 Y237.825
G01 X1.894 Y250.000
G01 X2.212 Y262.173
G01 X3.128 Y274.315
G01 X4.638 Y286.396
G01 X6.739 Y298.388
G01 X9.425 Y310.261
G01 X12.691 Y321.987
G01 X16.527 Y333.538
G01 X20.926 Y344.886
G01 X25.875 Y356.003
G01 X31.364 Y366.863
G01 X37.378 Y377.440
G01 X43.904 Y387.709
G01 X50.925 Y397.644
G01 X58.425 Y407.222
G01 X66.385 Y416.419
G01 X74.786 Y425.214
G01 X83.607 Y433.586
G01 X92.828 Y441.514
G01 X102.427 Y448.980
G01 X112.379 Y455.965
G01 X122.661 Y462.452
G01 X133.248 Y468.427
G01 X144.115 Y473.875
G01 X155.235 Y478.783
G01 X166.582 Y483.138
G01 X178.128 Y486.932
G01 X189.845 Y490.154
G01 X201.705 Y492.797
G01 X213.679 Y494.855
G01 X225.739 Y496.322
G01 X237.856 Y497.196
G01 X250.000 Y497.475
G01 X262.142 Y497.157
G01 X274.253 Y496.244
G01 X286.303 Y494.738
G01 X298.265 Y492.642
G01 X310.107 Y489.963
G01 X321.804 Y486.705
G01 X333.325 Y482.878
G01 X344.644 Y478.491
G01 X355.733 Y473.554
G01 X366.566 Y468.079
G01 X377.116 Y462.080
G01 X387.358 Y455.571
G01 X397.268 Y448.568
G01 X406.821 Y441.087
G01 X415.995 Y433.147
G01 X424.768 Y424.768
G01 X433.118 Y415.969
G01 X441.026 Y406.771
G01 X448.473 Y397.197
G01 X455.440 Y387.270
G01 X461.911 Y377.014
G01 X467.870 Y366.454
G01 X473.304 Y355.615
G01 X478.199 Y344.523
G01 X482.544 Y333.206
G01 X486.328 Y321.689
G01 X489.542 Y310.002
G01 X492.178 Y298.172
G01 X494.230 Y286.228
G01 X495.694 Y274.199
G01 X496.566 Y262.113
G01 X496.843 Y250.000
G01 X496.526 Y237.889
G01 X495.616 Y225.809
G01 X494.113 Y213.789
G01 X492.023 Y201.859
G01 X489.350 Y190.046
G01 X486.101 Y178.379
G01 X482.284 Y166.887
G01 X477.908 Y155.598
G01 X472.983 Y144.537
G01 X467.522 Y133.732
G01 X461.539 Y123.209
G01 X455.046 Y112.993
G01 X448.061 Y103.108
G01 X440.599 Y93.579
G01 X432.680 Y84.429
G01 X424.321 Y75.679
G01 X415.545 Y67.350
G01 X406.371 Y59.462
G01 X396.821 Y52.035
G01 X386.920 Y45.085
G01 X376.690 Y38.631
G01 X366.157 Y32.686
G01 X355.345 Y27.266
G01 X344.282 Y22.384
G01 X332.993 Y18.050
G01 X321.506 Y14.276
G01 X309.849 Y11.071
G01 X298.049 Y8.441
G01 X286.136 Y6.394
G01 X274.137 Y4.934
G01 X262.082 Y4.065
G01 X250.000 Y3.788
G01 X237.920 Y4.104
G01 X225.871 Y5.013
G01 X213.882 Y6.511
G01 X201.982 Y8.596
G01 X190.199 Y11.262
G01 X178.563 Y14.503
G01 X167.100 Y18.310
G01 X155.839 Y22.675
G01 X144.807 Y27.587
G01 X134.029 Y33.034
G01 X123.533 Y39.003
G01 X113.343 Y45.479
G01 X103.484 Y52.447
G01 X93.980 Y59.889
G01 X84.853 Y67.788
G01 X76.125 Y76.125
G01 X67.817 Y84.879
G01 X59.950 Y94.030
G01 X52.542 Y103.555
G01 X45.610 Y113.431
G01 X39.172 Y123.635
G01 X33.243 Y134.141
G01 X27.837 Y144.925
G01 X22.967 Y155.960
G01 X18.645 Y167.220
G01 X14.881 Y178.677
G01 X11.683 Y190.305
G01 X9.061 Y202.074
G01 X7.019 Y213.957
G01 X5.562 Y225.925
G01 X4.695 Y237.949
G01 X4.419 Y250.000
G01 X4.735 Y262.049
G01 X5.641 Y274.067
G01 X7.136 Y286.026
G01 X9.215 Y297.895
G01 X11.875 Y309.647
G01 X15.107 Y321.254
G01 X18.905 Y332.687
G01 X23.259 Y343.919
G01 X28.158 Y354.923
G01 X33.591 Y365.673
G01 X39.544 Y376.142
G01 X46.004 Y386.306
G01 X52.954 Y396.140
G01 X60.377 Y405.620
G01 X68.256 Y414.723
G01 X76.571 Y423.429
G01 X85.303 Y431.715
G01 X94.430 Y439.562
G01 X103.931 Y446.951
G01 X113.782 Y453.865
G01 X123.959 Y460.286
G01 X134.439 Y466.200
G01 X145.195 Y471.592
G01 X156.201 Y476.450
G01 X167.432 Y480.761
G01 X178.861 Y484.515
G01 X190.458 Y487.704
G01 X202.197 Y490.320
G01 X214.050 Y492.357
G01 X225.987 Y493.809
G01 X237.980 Y494.674
G01 X250.000 Y494.949
G01 X262.018 Y494.635
G01 X274.005 Y493.731
G01 X285.933 Y492.240
G01 X297.772 Y490.165
G01 X309.494 Y487.513
G01 X321.071 Y484.289
G01 X332.474 Y480.501
G01 X343.678 Y476.158
G01 X354.653 Y471.271
G01 X365.375 Y465.852
G01 X375.818 Y459.914
G01 X385.955 Y453.471
G01 X395.763 Y446.539
G01 X405.219 Y439.135
G01 X414.299 Y431.276
G01 X422.982 Y422.982
G01 X431.247 Y414.273
G01 X439.074 Y405.169
G01 X446.444 Y395.693
G01 X453.340 Y385.867
G01 X459.745 Y375.716
G01 X465.643 Y365.264
G01 X471.022 Y354.535
G01 X475.866 Y343.557
G01 X480.166 Y332.355
G01 X483.911 Y320.956
G01 X487.092 Y309.388
G01 X489.701 Y297.680
G01 X491.732 Y285.858
G01 X493.181 Y273.951
G01 X494.044 Y261.989
G01 X494.318 Y250.000
G01 X494.004 Y238.013
G01 X493.102 Y226.056
G01 X491.615 Y214.160
G01 X489.546 Y202.351
G01 X486.901 Y190.659
G01 X483.685 Y179.113
G01 X479.906 Y167.738
G01 X475.575 Y156.564
G01 X470.701 Y145.616
G01 X465.295 Y134.922
G01 X459.373 Y124.507
G01 X452.946 Y114.396
G01 X446.032 Y104.613
G01 X438.647 Y95.181
G01 X430.809 Y86.125
G01 X422.536 Y77.464
G01 X413.849 Y69.221
G01 X404.769 Y61.414
G01 X395.317 Y54.063
G01 X385.517 Y47.185
G01 X375.392 Y40.797
G01 X364.966 Y34.913
G01 X354.265 Y29.549
G01 X343.315 Y24.717
G01 X332.142 Y20.428
G01 X320.773 Y16.693
G01 X309.235 Y13.520
G01 X297.556 Y10.918
G01 X285.765 Y8.892
G01 X273.889 Y7.447
G01 X261.958 Y6.587
G01 X250.000 Y6.313
G01 X238.044 Y6.626
G01 X226.118 Y7.526
G01 X214.252 Y9.009
G01 X202.474 Y11.073
G01 X190.813 Y13.712
G01 X179.296 Y16.919
G01 X167.951 Y20.688
G01 X156.805 Y25.009
G01 X145.886 Y29.870
G01 X135.220 Y35.261
G01 X124.831 Y41.169
G01 X114.746 Y47.579
G01 X104.989 Y54.475
G01 X95.582 Y61.841
G01 X86.549 Y69.659
G01 X77.911 Y77.911
G01 X69.688 Y86.575
G01 X61.902 Y95.632
G01 X54.570 Y105.059
G01 X47.710 Y114.834
G01 X41.338 Y124.933
G01 X35.470 Y135.331
G01 X30.120 Y146.004
G01 X25.300 Y156.926
G01 X21.022 Y168.071
G01 X17.297 Y179.410
G01 X14.133 Y190.918
G01 X11.537 Y202.567
G01 X9.517 Y214.328
G01 X8.076 Y226.173
G01 X7.218 Y238.073
G01 X6.944 Y250.000
G01 X7.257 Y261.925
G01 X8.154 Y273.820
G01 X9.634 Y285.655
G01 X11.692 Y297.402
G01 X14.324 Y309.034
G01 X17.524 Y320.521
G01 X21.283 Y331.836
G01 X25.592 Y342.953
G01 X30.441 Y353.844
G01 X35.818 Y364.483
G01 X41.710 Y374.844
G01 X48.104 Y384.903
G01 X54.982 Y394.635
G01 X62.329 Y404.018
G01 X70.127 Y413.027
G01 X78.357 Y421.643
G01 X86.999 Y429.844
G01 X96.032 Y437.610
G01 X105.435 Y444.923
G01 X115.185 Y451.765
G01 X125.257 Y458.120
G01 X135.629 Y463.973
G01 X146.274 Y469.309
G01 X157.168 Y474.117
G01 X168.283 Y478.383
G01 X179.594 Y482.099
G01 X191.072 Y485.255
G01 X202.690 Y487.844
G01 X214.420 Y489.859
G01 X226.234 Y491.296
G01 X238.104 Y492.152
G01 X250.000 Y492.424
G01 X261.894 Y492.113
G01 X273.758 Y491.218
G01 X285.562 Y489.742
G01 X297.279 Y487.689
G01 X308.880 Y485.063
G01 X320.338 Y481.872
G01 X331.624 Y478.123
G01 X342.711 Y473.825
G01 X353.574 Y468.988
G01 X364.185 Y463.625
G01 X374.519 Y457.748
G01 X384.552 Y451.372
G01 X394.259 Y444.511
G01 X403.617 Y437.183
G01 X412.603 Y429.405
G01 X421.197 Y421.197
G01 X429.376 Y412.577
G01 X437.122 Y403.567
G01 X444.416 Y394.189
G01 X451.240 Y384.464
G01 X457.579 Y374.418
G01 X463.416 Y364.073
G01 X468.739 Y353.456
G01 X473.533 Y342.591
G01 X477.789 Y331.504
G01 X481.495 Y320.223
G01 X484.642 Y308.775
G01 X487.224 Y297.187
G01 X489.234 Y285.487
G01 X490.668 Y273.704
G01 X491.521 Y261.865
G01 X491.793 Y250.000
G01 X491.482 Y238.137
G01 X490.589 Y226.304
G01 X489.117 Y214.530
G01 X487.070 Y202.844
G01 X484.451 Y191.273
G01 X481.268 Y179.846
G01 X477.529 Y168.589
G01 X473.242 Y157.530
G01 X468.418 Y146.696
G01 X463.068 Y136.113
G01 X457.207 Y125.805
G01 X450.847 Y115.799
G01 X444.004 Y106.117
G01 X436.695 Y96.783
G01 X428.937 Y87.821
G01 X420.750 Y79.250
G01 X412.153 Y71.092
G01 X403.167 Y63.366
G01 X393.813 Y56.091
G01 X384.114 Y49.285
G01 X374.093 Y42.963
G01 X363.776 Y37.140
G01 X353.186 Y31.832
G01 X342.349 Y27.050
G01 X331.291 Y22.806
G01 X320.040 Y19.109
G01 X308.621 Y15.970
G01 X297.064 Y13.395
G01 X285.394 Y11.390
G01 X273.642 Y9.960
G01 X261.834 Y9.109
G01 X250.000 Y8.838
G01 X238.168 Y9.149
G01 X226.366 Y10.039
G01 X214.623 Y11.507
G01 X202.967 Y13.550
G01 X191.426 Y16.161
G01 X180.029 Y19.336
G01 X168.802 Y23.066
G01 X157.772 Y27.342
G01 X146.966 Y32.153
G01 X136.410 Y37.488
G01 X126.130 Y43.335
G01 X116.149 Y49.678
G01 X106.493 Y56.503
G01 X97.184 Y63.793
G01 X88.244 Y71.530
G01 X79.696 Y79.696
G01 X71.560 Y88.271
G01 X63.854 Y97.234
G01 X56.598 Y106.563
G01 X49.810 Y116.237
G01 X43.504 Y126.231
G01 X37.697 Y136.522
G01 X32.403 Y147.084
G01 X27.633 Y157.893
G01 X23.400 Y168.921
G01 X19.714 Y180.143
G01 X16.582 Y191.532
G01 X14.014 Y203.059
G01 X12.015 Y214.698
G01 X10.589 Y226.420
G01 X9.740 Y238.197
G01 X9.470 Y250.000
G01 X9.779 Y261.801
G01 X10.667 Y273.572
G01 X12.132 Y285.284
G01 X14.169 Y296.910
G01 X16.774 Y308.420
G01 X19.940 Y319.788
G01 X23.660 Y330.986
G01 X27.925 Y341.987
G01 X32.724 Y352.764
G01 X38.045 Y363.292
G01 X43.876 Y373.546
G01 X50.203 Y383.500
G01 X57.010 Y393.131
G01 X64.281 Y402.416
G01 X71.998 Y411.332
G01 X80.143 Y419.857
G01 X88.695 Y427.973
G01 X97.634 Y435.658
G01 X106.940 Y442.895
G01 X116.588 Y449.666
G01 X126.556 Y455.954
G01 X136.819 Y461.746
G01 X147.354 Y467.027
G01 X158.134 Y471.784
G01 X169.134 Y476.005
G01 X180.327 Y479.682
G01 X191.685 Y482.805
G01 X203.183 Y485.367
G01 X214.791 Y487.361
G01 X226.482 Y488.783
G01 X238.228 Y489.630
G01 X250.000 Y489.899
G01 X261.770 Y489.590
G01 X273.510 Y488.705
G01 X285.192 Y487.244
G01 X296.787 Y485.212
G01 X308.267 Y482.614
G01 X319.605 Y479.456
G01 X330.773 Y475.745
G01 X341.745 Y471.492
G01 X352.494 Y466.706
G01 X362.995 Y461.398
G01 X373.221 Y455.582
G01 X383.149 Y449.272
G01 X392.755 Y442.483
G01 X402.015 Y435.231
G01 X410.908 Y427.534
G01 X419.411 Y419.411
G01 X427.505 Y410.881
G01 X435.170 Y401.965
G01 X442.388 Y392.684
G01 X449.141 Y383.062
G01 X455.413 Y373.120
G01 X461.189 Y362.883
G01 X466.456 Y352.376
G01 X471.200 Y341.624
G01 X475.411 Y330.653
G01 X479.078 Y319.490
G01 X482.193 Y308.161
G01 X484.748 Y296.694
G01 X486.737 Y285.117
G01 X488.155 Y273.456
G01 X488.999 Y261.741
G01 X489.268 Y250.000
G01 X488.960 Y238.261
G01 X488.076 Y226.552
G01 X486.619 Y214.901
G01 X484.593 Y203.337
G01 X482.001 Y191.887
G01 X478.852 Y180.579
G01 X475.151 Y169.440
G01 X470.909 Y158.497
G01 X466.135 Y147.776
G01 X460.841 Y137.303
G01 X455.041 Y127.103
G01 X448.747 Y117.202
G01 X441.976 Y107.621
G01 X434.743 Y98.385
G01 X427.066 Y89.516
G01 X418.965 Y81.035
G01 X410.457 Y72.963
G01 X401.565 Y65.318
G01 X392.308 Y58.119
G01 X382.711 Y51.384
G01 X372.795 Y45.129
G01 X362.585 Y39.368
G01 X352.106 Y34.115
G01 X341.383 Y29.383
G01 X330.441 Y25.183
G01 X319.307 Y21.526
G01 X308.008 Y18.420
G01 X296.571 Y15.872
G01 X285.024 Y13.888
G01 X273.394 Y12.473
G01 X261.710 Y11.631
G01 X250.000 Y11.364
G01 X238.292 Y11.671
G01 X226.613 Y12.552
G01 X214.993 Y14.005
G01 X203.460 Y16.026
G01 X192.040 Y18.611
G01 X180.762 Y21.753
G01 X169.652 Y25.443
G01 X158.738 Y29.675
G01 X148.046 Y34.436
G01 X137.601 Y39.716
G01 X127.428 Y45.501
G01 X117.552 Y51.778
G01 X107.997 Y58.531
G01 X98.786 Y65.745
G01 X89.940 Y73.401
G01 X81.482 Y81.482
G01 X73.431 Y89.967
G01 X65.806 Y98.836
G01 X58.627 Y108.068
G01 X51.909 Y117.640
G01 X45.670 Y127.529
G01 X39.924 Y137.712
G01 X34.685 Y148.164
G01 X29.966 Y158.859
G01 X25.778 Y169.772
G01 X22.130 Y180.876
G01 X19.032 Y192.146
G01 X16.491 Y203.552
G01 X14.512 Y215.069
G01 X13.102 Y226.668
G01 X12.262 Y238.321
G01 X11.995 Y250.000
G01 X12.301 Y261.677
G01 X13.180 Y273.325
G01 X14.630 Y284.914
G01 X16.646 Y296.417
G01 X19.223 Y307.807
G01 X22.357 Y319.055
G01 X26.038 Y330.135
G01 X30.258 Y341.020
G01 X35.006 Y351.684
G01 X40.272 Y362.102
G01 X46.042 Y372.247
G01 X52.303 Y382.097
G01 X59.039 Y391.627
G01 X66.233 Y400.814
G01 X73.869 Y409.636
G01 X81.928 Y418.072
G01 X90.391 Y426.102
G01 X99.236 Y433.706
G01 X108.444 Y440.866
G01 X117.991 Y447.566
G01 X127.854 Y453.788
G01 X138.010 Y459.519
G01 X148.434 Y464.744
G01 X159.101 Y469.451
G01 X169.985 Y473.628
G01 X181.060 Y477.266
G01 X192.299 Y480.356
G01 X203.675 Y482.890
G01 X215.161 Y484.863
G01 X226.729 Y486.270
G01 X238.352 Y487.108
G01 X250.000 Y487.374
G01 X261.646 Y487.068
G01 X273.263 Y486.191
G01 X284.821 Y484.746
G01 X296.294 Y482.735
G01 X307.653 Y480.164
G01 X318.872 Y477.039
G01 X329.922 Y473.368
G01 X340.779 Y469.159
G01 X351.414 Y464.423
G01 X361.804 Y459.171
G01 X371.923 Y453.416
G01 X381.746 Y447.172
G01 X391.251 Y440.454
G01 X400.413 Y433.279
G01 X409.212 Y425.663
G01 X417.625 Y417.625
G01 X425.634 Y409.185
G01 X433.218 Y400.363
G01 X440.359 Y391.180
G01 X447.041 Y381.659
G01 X453.247 Y371.821
G01 X458.962 Y361.693
G01 X464.173 Y351.296
G01 X468.867 Y340.658
G01 X473.033 Y329.803
G01 X476.662 Y318.757
G01 X479.743 Y307.548
G01 X482.271 Y296.202
G01 X484.239 Y284.746
G01 X485.642 Y273.209
G01 X486.477 Y261.617
G01 X486.742 Y250.000
G01 X486.438 Y238.385
G01 X485.563 Y226.799
G01 X484.122 Y215.271
G01 X482.116 Y203.829
G01 X479.552 Y192.500
G01 X476.435 Y181.312
G01 X472.773 Y170.290
G01 X468.576 Y159.463
G01 X463.852 Y148.855
G01 X458.614 Y138.493
G01 X452.875 Y128.402
G01 X446.647 Y118.604
G01 X439.947 Y109.125
G01 X432.791 Y99.987
G01 X425.195 Y91.212
G01 X417.179 Y82.821
G01 X408.761 Y74.834
G01 X399.963 Y67.270
G01 X390.804 Y60.148
G01 X381.308 Y53.484
G01 X371.497 Y47.295
G01 X361.395 Y41.595
G01 X351.026 Y36.398
G01 X340.416 Y31.716
G01 X329.590 Y27.561
G01 X318.574 Y23.942
G01 X307.394 Y20.869
G01 X296.078 Y18.348
G01 X284.653 Y16.386
G01 X273.147 Y14.987
G01 X261.586 Y14.154
G01 X250.000 Y13.889
G01 X238.416 Y14.193
G01 X226.861 Y15.065
G01 X215.364 Y16.503
G01 X203.952 Y18.503
G01 X192.654 Y21.061
G01 X181.495 Y24.169
G01 X170.503 Y27.821
G01 X159.705 Y32.008
G01 X149.125 Y36.719
G01 X138.791 Y41.943
G01 X128.726 Y47.667
G01 X118.955 Y53.878
G01 X109.502 Y60.560
G01 X100.388 Y67.697
G01 X91.636 Y75.272
G01 X83.267 Y83.267
G01 X75.302 Y91.663
G01 X67.758 Y100.438
G01 X60.655 Y109.572
G01 X54.009 Y119.043
G01 X47.836 Y128.828
G01 X42.151 Y138.903
G01 X36.968 Y149.243
G01 X32.299 Y159.825
G01 X28.155 Y170.623
G01 X24.547 Y181.609
G01 X21.482 Y192.759
G01 X18.967 Y204.045
G01 X17.010 Y215.439
G01 X15.615 Y226.915
G01 X14.784 Y238.445
G01 X14.520 Y250.000
G01 X14.824 Y261.553
G01 X15.693 Y273.077
G01 X17.127 Y284.543
G01 X19.122 Y295.924
G01 X21.673 Y307.193
G01 X24.773 Y318.322
G01 X28.415 Y329.284
G01 X32.591 Y340.054
G01 X37.289 Y350.605
G01 X42.499 Y360.911
G01 X48.208 Y370.949
G01 X54.403 Y380.694
G01 X61.067 Y390.122
G01 X68.185 Y399.212
G01 X75.740 Y407.940
G01 X83.714 Y416.286
G01 X92.087 Y424.231
G01 X100.838 Y431.754
G01 X109.948 Y438.838
G01 X119.394 Y445.466
G01 X129.152 Y451.622
G01 X139.200 Y457.292
G01 X149.513 Y462.461
G01 X160.067 Y467.118
G01 X170.835 Y471.250
G01 X181.793 Y474.849
G01 X192.913 Y477.906
G01 X204.168 Y480.413
G01 X215.532 Y482.365
G01 X226.977 Y483.757
G01 X238.476 Y484.585
G01 X250.000 Y484.848
G01 X261.523 Y484.546
G01 X273.015 Y483.678
G01 X284.451 Y482.248
G01 X295.801 Y480.259
G01 X307.040 Y477.715
G01 X318.139 Y474.623
G01 X329.072 Y470.990
G01 X339.812 Y466.826
G01 X350.335 Y462.140
G01 X360.614 Y456.944
G01 X370.625 Y451.250
G01 X380.343 Y445.073
G01 X389.746 Y438.426
G01 X398.811 Y431.327
G01 X407.516 Y423.792
G01 X415.840 Y415.840
G01 X423.763 Y407.489
G01 X431.266 Y398.761
G01 X438.331 Y389.676
G01 X444.941 Y380.256
G01 X451.081 Y370.523
G01 X456.735 Y360.502
G01 X461.890 Y350.217
G01 X466.534 Y339.691
G01 X470.656 Y328.952
G01 X474.245 Y318.024
G01 X477.294 Y306.934
G01 X479.794 Y295.709
G01 X481.741 Y284.375
G01 X483.129 Y272.961
G01 X483.955 Y261.493
G01 X484.217 Y250.000
G01 X483.915 Y238.508
G01 X483.050 Y227.047
G01 X481.624 Y215.642
G01 X479.639 Y204.322
G01 X477.102 Y193.114
G01 X474.019 Y182.045
G01 X470.396 Y171.141
G01 X466.243 Y160.429
G01 X461.569 Y149.935
G01 X456.387 Y139.684
G01 X450.709 Y129.700
G01 X444.548 Y120.007
G01 X437.919 Y110.630
G01 X430.839 Y101.589
G01 X423.324 Y92.908
G01 X415.393 Y84.607
G01 X407.065 Y76.705
G01 X398.361 Y69.222
G01 X389.300 Y62.176
G01 X379.905 Y55.584
G01 X370.199 Y49.461
G01 X360.205 Y43.822
G01 X349.947 Y38.680
G01 X339.450 Y34.049
G01 X328.739 Y29.939
G01 X317.841 Y26.359
G01 X306.781 Y23.319
G01 X295.586 Y20.825
G01 X284.283 Y18.884
G01 X272.899 Y17.500
G01 X261.462 Y16.676
G01 X250.000 Y16.414
G01 X238.539 Y16.715
G01 X227.108 Y17.578
G01 X215.735 Y19.001
G01 X204.445 Y20.980
G01 X193.267 Y23.510
G01 X182.228 Y26.586
G01 X171.354 Y30.199
G01 X160.671 Y34.341
G01 X150.205 Y39.001
G01 X139.981 Y44.170
G01 X130.024 Y49.833
G01 X120.358 Y55.977
G01 X111.006 Y62.588
G01 X101.990 Y69.649
G01 X93.332 Y77.144
G01 X85.053 Y85.053
G01 X77.173 Y93.359
G01 X69.710 Y102.040
G01 X62.683 Y111.076
G01 X56.109 Y120.446
G01 X50.002 Y130.126
G01 X44.378 Y140.093
G01 X39.251 Y150.323
G01 X34.632 Y160.792
G01 X30.533 Y171.473
G01 X26.963 Y182.343
G01 X23.931 Y193.373
G01 X21.444 Y204.537
G01 X19.508 Y215.810
G01 X18.128 Y227.163
G01 X17.306 Y238.568
G01 X17.045 Y250.000
G01 X17.346 Y261.430
G01 X18.206 Y272.830
G01 X19.625 Y284.173
G01 X21.599 Y295.432
G01 X24.122 Y306.579
G01 X27.190 Y317.589
G01 X30.793 Y328.433
G01 X34.924 Y339.087
G01 X39.572 Y349.525
G01 X44.726 Y359.721
G01 X50.374 Y369.651
G01 X56.502 Y379.291
G01 X63.095 Y388.618
G01 X70.137 Y397.610
G01 X77.611 Y406.244
G01 X85.499 Y414.501
G01 X93.783 Y422.359
G01 X102.440 Y429.802
G01 X111.452 Y436.810
G01 X120.797 Y443.367
G01 X130.450 Y449.456
G01 X140.391 Y455.065
G01 X150.593 Y460.178
G01 X161.033 Y464.784
G01 X171.686 Y468.873
G01 X182.526 Y472.433
G01 X193.526 Y475.456
G01 X204.661 Y477.937
G01 X215.902 Y479.867
G01 X227.224 Y481.244
G01 X238.599 Y482.063
G01 X250.000 Y482.323
G01 X261.399 Y482.024
G01 X272.768 Y481.165
G01 X284.080 Y479.750
G01 X295.309 Y477.782
G01 X306.426 Y475.265
G01 X317.406 Y472.206
G01 X328.221 Y468.613
G01 X338.846 Y464.493
G01 X349.255 Y459.857
G01 X359.423 Y454.717
G01 X369.326 Y449.084
G01 X378.940 Y442.973
G01 X388.242 Y436.398
G01 X397.209 Y429.375
G01 X405.820 Y421.921
G01 X414.054 Y414.054
G01 X421.892 Y405.794
G01 X429.314 Y397.159
G01 X436.303 Y388.171
G01 X442.842 Y378.853
G01 X448.915 Y369.225
G01 X454.508 Y359.312
G01 X459.608 Y349.137
G01 X464.201 Y338.725
G01 X468.278 Y328.101
G01 X471.829 Y317.291
G01 X474.844 Y306.321
G01 X477.317 Y295.216
G01 X479.243 Y284.005
G01 X480.616 Y272.714
G01 X481.433 Y261.370
G01 X481.692 Y250.000
G01 X481.393 Y238.632
G01 X480.537 Y227.294
G01 X479.126 Y216.012
G01 X477.163 Y204.815
G01 X474.653 Y193.727
G01 X471.602 Y182.778
G01 X468.018 Y171.992
G01 X463.910 Y161.396
G01 X459.287 Y151.015
G01 X454.160 Y140.874
G01 X448.543 Y130.998
G01 X442.448 Y121.410
G01 X435.891 Y112.134
G01 X428.887 Y103.191
G01 X421.453 Y94.604
G01 X413.608 Y86.392
G01 X405.370 Y78.576
G01 X396.759 Y71.174
G01 X387.795 Y64.204
G01 X378.502 Y57.683
G01 X368.900 Y51.627
G01 X359.014 Y46.049
G01 X348.867 Y40.963
G01 X338.483 Y36.382
G01 X327.888 Y32.316
G01 X317.108 Y28.776
G01 X306.167 Y25.768
G01 X295.093 Y23.302
G01 X283.912 Y21.382
G01 X272.652 Y20.013
G01 X261.339 Y19.198
G01 X250.000 Y18.939
G01 X238.663 Y19.237
G01 X227.356 Y20.091
G01 X216.105 Y21.499
G01 X204.938 Y23.457
G01 X193.881 Y25.960
G01 X182.961 Y29.002
G01 X172.205 Y32.576
G01 X161.637 Y36.674
G01 X151.285 Y41.284
G01 X141.172 Y46.397
G01 X131.323 Y51.999
G01 X121.761 Y58.077
G01 X112.510 Y64.616
G01 X103.592 Y71.601
G01 X95.028 Y79.015
G01 X86.839 Y86.839
G01 X79.044 Y95.054
G01 X71.662 Y103.642
G01 X64.711 Y112.581
G01 X58.208 Y121.849
G01 X52.168 Y131.424
G01 X46.606 Y141.283
G01 X41.534 Y151.403
G01 X36.965 Y161.758
G01 X32.911 Y172.324
G01 X29.380 Y183.076
G01 X26.381 Y193.986
G01 X23.921 Y205.030
G01 X22.006 Y216.180
G01 X20.641 Y227.410
G01 X19.829 Y238.692
G01 X19.571 Y250.000
G01 X19.868 Y261.306
G01 X20.720 Y272.582
G01 X22.123 Y283.802
G01 X24.076 Y294.939
G01 X26.572 Y305.966
G01 X29.606 Y316.856
G01 X33.171 Y327.583
G01 X37.257 Y338.121
G01 X41.855 Y348.445
G01 X46.953 Y358.531
G01 X52.540 Y368.353
G01 X58.602 Y377.888
G01 X65.123 Y387.114
G01 X72.089 Y396.008
G01 X79.482 Y404.548
G01 X87.285 Y412.715
G01 X95.478 Y420.488
G01 X104.042 Y427.850
G01 X112.957 Y434.781
G01 X122.200 Y441.267
G01 X131.749 Y447.290
G01 X141.581 Y452.838
G01 X151.673 Y457.895
G01 X162.000 Y462.451
G01 X172.537 Y466.495
G01 X183.259 Y470.016
G01 X194.140 Y473.007
G01 X205.153 Y475.460
G01 X216.273 Y477.369
G01 X227.472 Y478.731
G01 X238.723 Y479.541
G01 X250.000 Y479.798
G01 X261.275 Y479.501
G01 X272.520 Y478.652
G01 X283.710 Y477.252
G01 X294.816 Y475.305
G01 X305.812 Y472.816
G01 X316.672 Y469.790
G01 X327.370 Y466.235
G01 X337.879 Y462.160
G01 X348.175 Y457.574
G01 X358.233 Y452.490
G01 X368.028 Y446.918
G01 X377.537 Y440.873
G01 X386.738 Y434.369
G01 X395.607 Y427.423
G01 X404.124 Y420.050
G01 X412.269 Y412.269
G01 X420.021 Y404.098
G01 X427.362 Y395.557
G01 X434.274 Y386.667
G01 X440.742 Y377.450
G01 X446.749 Y367.927
G01 X452.281 Y358.121
G01 X457.325 Y348.057
G01 X461.868 Y337.759
G01 X465.901 Y327.250
G01 X469.412 Y316.558
G01 X472.395 Y305.707
G01 X474.841 Y294.724
G01 X476.745 Y283.634
G01 X478.102 Y272.466
G01 X478.910 Y261.246
G01 X479.167 Y250.000
G01 X478.871 Y238.756
G01 X478.024 Y227.542
G01 X476.628 Y216.383
G01 X474.686 Y205.307
G01 X472.203 Y194.341
G01 X469.186 Y183.511
G01 X465.640 Y172.843
G01 X461.577 Y162.362
G01 X457.004 Y152.095
G01 X451.933 Y142.065
G01 X446.377 Y132.296
G01 X440.348 Y122.813
G01 X433.862 Y113.638
G01 X426.935 Y104.793
G01 X419.582 Y96.300
G01 X411.822 Y88.178
G01 X403.674 Y80.447
G01 X395.157 Y73.126
G01 X386.291 Y66.233
G01 X377.099 Y59.783
G01 X367.602 Y53.793
G01 X357.824 Y48.276
G01 X347.787 Y43.246
G01 X337.517 Y38.715
G01 X327.038 Y34.694
G01 X316.375 Y31.192
G01 X305.554 Y28.218
G01 X294.600 Y25.778
G01 X283.542 Y23.880
G01 X272.404 Y22.526
G01 X261.215 Y21.720
G01 X250.000 Y21.465
G01 X238.787 Y21.760
G01 X227.603 Y22.604
G01 X216.476 Y23.997
G01 X205.430 Y25.933
G01 X194.494 Y28.409
G01 X183.694 Y31.419
G01 X173.055 Y34.954
G01 X162.604 Y39.007
G01 X152.364 Y43.567
G01 X142.362 Y48.624
G01 X132.621 Y54.165
G01 X123.164 Y60.177
G01 X114.014 Y66.645
G01 X105.194 Y73.553
G01 X96.724 Y80.886
G01 X88.624 Y88.624
G01 X80.915 Y96.750
G01 X73.614 Y105.244
G01 X66.740 Y114.085
G01 X60.308 Y123.252
G01 X54.334 Y132.722
G01 X48.833 Y142.474
G01 X43.817 Y152.483
G01 X39.298 Y162.725
G01 X35.288 Y173.175
G01 X31.796 Y183.809
G01 X28.830 Y194.600
G01 X26.398 Y205.523
G01 X24.504 Y216.551
G01 X23.154 Y227.658
G01 X22.351 Y238.816
G01 X22.096 Y250.000
G01 X22.390 Y261.182
G01 X23.233 Y272.335
G01 X24.621 Y283.432
G01 X26.552 Y294.446
G01 X29.022 Y305.352
G01 X32.023 Y316.123
G01 X35.548 Y326.732
G01 X39.590 Y337.155
G01 X44.138 Y347.366
G01 X49.181 Y357.340
G01 X54.706 Y367.055
G01 X60.702 Y376.485
G01 X67.152 Y385.609
G01 X74.041 Y394.406
G01 X81.354 Y402.852
G01 X89.071 Y410.929
G01 X97.174 Y418.617
G01 X105.644 Y425.898
G01 X114.461 Y432.753
G01 X123.603 Y439.167
G01 X133.047 Y445.124
G01 X142.771 Y450.611
G01 X152.752 Y455.613
G01 X162.966 Y460.118
G01 X173.388 Y464.117
G01 X183.992 Y467.600
G01 X194.753 Y470.557
G01 X205.646 Y472.983
G01 X216.643 Y474.871
G01 X227.720 Y476.218
G01 X238.847 Y477.019
G01 X250.000 Y477.273
G01 X261.151 Y476.979
G01 X272.273 Y476.139
G01 X283.339 Y474.754
G01 X294.323 Y472.828
G01 X305.199 Y470.366
G01 X315.939 Y467.373
G01 X326.519 Y463.857
G01 X336.913 Y459.827
G01 X347.096 Y455.292
G01 X357.043 Y450.263
G01 X366.730 Y444.752
G01 X376.134 Y438.774
G01 X385.233 Y432.341
G01 X394.005 Y425.471
G01 X402.428 Y418.179
G01 X410.483 Y410.483
G01 X418.149 Y402.402
G01 X425.410 Y393.955
G01 X432.246 Y385.163
G01 X438.642 Y376.047
G01 X444.583 Y366.629
G01 X450.054 Y356.931
G01 X455.042 Y346.978
G01 X459.535 Y336.792
G01 X463.523 Y326.400
G01 X466.996 Y315.825
G01 X469.945 Y305.093
G01 X472.364 Y294.231
G01 X474.247 Y283.264
G01 X475.589 Y272.219
G01 X476.388 Y261.122
G01 X476.641 Y250.000
G01 X476.349 Y238.880
G01 X475.511 Y227.789
G01 X474.130 Y216.753
G01 X472.209 Y205.800
G01 X469.754 Y194.955
G01 X466.769 Y184.244
G01 X463.263 Y173.693
G01 X459.244 Y163.328
G01 X454.721 Y153.174
G01 X449.706 Y143.255
G01 X444.211 Y133.595
G01 X438.249 Y124.216
G01 X431.834 Y115.143
G01 X424.983 Y106.395
G01 X417.711 Y97.996
G01 X410.036 Y89.964
G01 X401.978 Y82.318
G01 X393.555 Y75.078
G01 X384.787 Y68.261
G01 X375.696 Y61.883
G01 X366.304 Y55.959
G01 X356.633 Y50.503
G01 X346.708 Y45.529
G01 X336.551 Y41.048
G01 X326.187 Y37.072
G01 X315.642 Y33.609
G01 X304.940 Y30.667
G01 X294.108 Y28.255
G01 X283.171 Y26.378
G01 X272.157 Y25.039
G01 X261.091 Y24.242
G01 X250.000 Y23.990
G01 X238.911 Y24.282
G01 X227.851 Y25.117
G01 X216.846 Y26.495
G01 X205.923 Y28.410
G01 X195.108 Y30.859
G01 X184.427 Y33.835
G01 X173.906 Y37.332
G01 X163.570 Y41.340
G01 X153.444 Y45.850
G01 X143.553 Y50.851
G01 X133.919 Y56.331
G01 X124.567 Y62.276
G01 X115.519 Y68.673
G01 X106.796 Y75.505
G01 X98.420 Y82.757
G01 X90.410 Y90.410
G01 X82.786 Y98.446
G01 X75.566 Y106.846
G01 X68.768 Y115.589
G01 X62.408 Y124.655
G01 X56.500 Y134.021
G01 X51.060 Y143.664
G01 X46.099 Y153.562
G01 X41.631 Y163.691
G01 X37.666 Y174.026
G01 X34.213 Y184.542
G01 X31.280 Y195.213
G01 X28.874 Y206.015
G01 X27.002 Y216.921
G01 X25.667 Y227.905
G01 X24.873 Y238.940
G01 X24.621 Y250.000
G01 X24.912 Y261.058
G01 X25.746 Y272.087
G01 X27.119 Y283.061
G01 X29.029 Y293.954
G01 X31.471 Y304.739
G01 X34.439 Y315.390
G01 X37.926 Y325.881
G01 X41.923 Y336.188
G01 X46.420 Y346.286
G01 X51.408 Y356.150
G01 X56.872 Y365.756
G01 X62.801 Y375.082
G01 X69.180 Y384.105
G01 X75.993 Y392.804
G01 X83.225 Y401.156
G01 X90.856 Y409.144
G01 X98.870 Y416.746
G01 X107.246 Y423.946
G01 X115.965 Y430.725
G01 X125.005 Y437.068
G01 X134.345 Y442.958
G01 X143.962 Y448.384
G01 X153.832 Y453.330
G01 X163.932 Y457.785
G01 X174.238 Y461.740
G01 X184.725 Y465.183
G01 X195.367 Y468.108
G01 X206.139 Y470.506
G01 X217.014 Y472.373
G01 X227.967 Y473.705
G01 X238.971 Y474.496
G01 X250.000 Y474.747
G01 X261.027 Y474.457
G01 X272.025 Y473.626
G01 X282.969 Y472.256
G01 X293.831 Y470.352
G01 X304.585 Y467.916
G01 X315.206 Y464.957
G01 X325.669 Y461.480
G01 X335.947 Y457.494
G01 X346.016 Y453.009
G01 X355.852 Y448.036
G01 X365.432 Y442.586
G01 X374.731 Y436.674
G01 X383.729 Y430.313
G01 X392.403 Y423.519
G01 X400.732 Y416.308
G01 X408.697 Y408.697
G01 X416.278 Y400.706
G01 X423.458 Y392.353
G01 X430.218 Y383.659
G01 X436.543 Y374.644
G01 X442.417 Y365.330
G01 X447.827 Y355.741
G01 X452.759 Y345.898
G01 X457.202 Y335.826
G01 X461.145 Y325.549
G01 X464.579 Y315.092
G01 X467.495 Y304.480
G01 X469.887 Y293.738
G01 X471.749 Y282.893
G01 X473.076 Y271.971
G01 X473.866 Y260.998
G01 X474.116 Y250.000
G01 X473.826 Y239.004
G01 X472.998 Y228.037
G01 X471.632 Y217.124
G01 X469.732 Y206.293
G01 X467.304 Y195.568
G01 X464.353 Y184.977
G01 X460.885 Y174.544
G01 X456.911 Y164.295
G01 X452.438 Y154.254
G01 X447.479 Y144.445
G01 X442.045 Y134.893
G01 X436.149 Y125.619
G01 X429.806 Y116.647
G01 X423.031 Y107.997
G01 X415.840 Y99.692
G01 X408.251 Y91.749
G01 X400.282 Y84.189
G01 X391.953 Y77.030
G01 X383.283 Y70.289
G01 X374.293 Y63.982
G01 X365.006 Y58.125
G01 X355.443 Y52.730
G01 X345.628 Y47.812
G01 X335.584 Y43.381
G01 X325.336 Y39.449
G01 X314.909 Y36.025
G01 X304.326 Y33.117
G01 X293.615 Y30.732
G01 X282.801 Y28.875
G01 X271.909 Y27.552
G01 X260.967 Y26.765
G01 X250.000 Y26.515
G01 X239.035 Y26.804
G01 X228.099 Y27.631
G01 X217.217 Y28.993
G01 X206.416 Y30.887
G01 X195.722 Y33.308
G01 X185.160 Y36.252
G01 X174.757 Y39.709
G01 X164.536 Y43.673
G01 X154.524 Y48.133
G01 X144.743 Y53.078
G01 X135.217 Y58.497
G01 X125.970 Y64.376
G01 X117.023 Y70.701
G01 X108.398 Y77.457
G01 X100.115 Y84.628
G01 X92.196 Y92.196
G01 X84.657 Y100.142
G01 X77.518 Y108.448
G01 X70.796 Y117.094
G01 X64.507 Y126.058
G01 X58.666 Y135.319
G01 X53.287 Y144.855
G01 X48.382 Y154.642
G01 X43.964 Y164.657
G01 X40.044 Y174.876
G01 X36.629 Y185.275
G01 X33.729 Y195.827
G01 X31.351 Y206.508
G01 X29.500 Y217.292
G01 X28.180 Y228.153
G01 X27.395 Y239.064
G01 X27.146 Y250.000
G01 X27.435 Y260.934
G01 X28.259 Y271.840
G01 X29.617 Y282.691
G01 X31.506 Y293.461
G01 X33.921 Y304.125
G01 X36.856 Y314.657
G01 X40.304 Y325.031
G01 X44.256 Y335.222
G01 X48.703 Y345.206
G01 X53.635 Y354.959
G01 X59.038 Y364.458
G01 X64.901 Y373.679
G01 X71.208 Y382.601
G01 X77.945 Y391.202
G01 X85.096 Y399.461
G01 X92.642 Y407.358
G01 X100.566 Y414.875
G01 X108.848 Y421.994
G01 X117.470 Y428.697
G01 X126.408 Y434.968
G01 X135.643 Y440.792
G01 X145.152 Y446.156
G01 X154.912 Y451.047
G01 X164.899 Y455.452
G01 X175.089 Y459.362
G01 X185.458 Y462.767
G01 X195.980 Y465.658
G01 X206.631 Y468.030
G01 X217.385 Y469.876
G01 X228.215 Y471.191
G01 X239.095 Y471.974
G01 X250.000 Y472.222
G01 X260.903 Y471.935
G01 X271.778 Y471.113
G01 X282.598 Y469.758
G01 X293.338 Y467.875
G01 X303.972 Y465.467
G01 X314.473 Y462.540
G01 X324.818 Y459.102
G01 X334.980 Y455.161
G01 X344.936 Y450.726
G01 X354.662 Y445.809
G01 X364.133 Y440.420
G01 X373.329 Y434.574
G01 X382.225 Y428.285
G01 X390.801 Y421.567
G01 X399.037 Y414.437
G01 X406.912 Y406.912
G01 X414.407 Y399.010
G01 X421.506 Y390.751
G01 X428.189 Y382.154
G01 X434.443 Y373.241
G01 X440.251 Y364.032
G01 X445.600 Y354.550
G01 X450.476 Y344.818
G01 X454.869 Y334.860
G01 X458.768 Y324.698
G01 X462.163 Y314.359
G01 X465.046 Y303.866
G01 X467.410 Y293.246
G01 X469.251 Y282.523
G01 X470.563 Y271.724
G01 X471.344 Y260.874
G01 X471.591 Y250.000
G01 X471.304 Y239.128
G01 X470.485 Y228.284
G01 X469.134 Y217.495
G01 X467.256 Y206.785
G01 X464.854 Y196.182
G01 X461.936 Y185.710
G01 X458.508 Y175.395
G01 X454.577 Y165.261
G01 X450.155 Y155.334
G01 X445.252 Y145.636
G01 X439.879 Y136.191
G01 X434.049 Y127.022
G01 X427.777 Y118.151
G01 X421.079 Y109.599
G01 X413.969 Y101.387
G01 X406.465 Y93.535
G01 X398.586 Y86.060
G01 X390.351 Y78.982
G01 X381.778 Y72.318
G01 X372.890 Y66.082
G01 X363.708 Y60.290
G01 X354.253 Y54.957
G01 X344.548 Y50.094
G01 X334.618 Y45.714
G01 X324.486 Y41.827
G01 X314.176 Y38.442
G01 X303.713 Y35.567
G01 X293.122 Y33.209
G01 X282.430 Y31.373
G01 X271.662 Y30.065
G01 X260.843 Y29.287
G01 X250.000 Y29.040
G01 X239.159 Y29.326
G01 X228.346 Y30.144
G01 X217.587 Y31.491
G01 X206.908 Y33.363
G01 X196.335 Y35.758
G01 X185.893 Y38.668
G01 X175.607 Y42.087
G01 X165.503 Y46.006
G01 X155.604 Y50.415
G01 X145.933 Y55.305
G01 X136.516 Y60.663
G01 X127.373 Y66.476
G01 X118.527 Y72.730
G01 X110.000 Y79.409
G01 X101.811 Y86.499
G01 X93.981 Y93.981
G01 X86.528 Y101.838
G01 X79.470 Y110.050
G01 X72.825 Y118.598
G01 X66.607 Y127.461
G01 X60.832 Y136.617
G01 X55.514 Y146.045
G01 X50.665 Y155.722
G01 X46.297 Y165.624
G01 X42.421 Y175.727
G01 X39.046 Y186.008
G01 X36.179 Y196.441
G01 X33.828 Y207.001
G01 X31.998 Y217.662
G01 X30.693 Y228.400
G01 X29.917 Y239.188
G01 X29.672 Y250.000
G01 X29.957 Y260.810
G01 X30.772 Y271.592
G01 X32.115 Y282.320
G01 X33.983 Y292.969
G01 X36.370 Y303.511
G01 X39.272 Y313.924
G01 X42.681 Y324.180
G01 X46.589 Y334.256
G01 X50.986 Y344.127
G01 X55.862 Y353.769
G01 X61.204 Y363.160
G01 X67.001 Y372.276
G01 X73.237 Y381.097
G01 X79.897 Y389.600
G01 X86.967 Y397.765
G01 X94.428 Y405.572
G01 X102.262 Y413.004
G01 X110.450 Y420.042
G01 X118.974 Y426.668
G01 X127.811 Y432.868
G01 X136.942 Y438.627
G01 X146.343 Y443.929
G01 X155.992 Y448.764
G01 X165.865 Y453.119
G01 X175.940 Y456.984
G01 X186.191 Y460.350
G01 X196.594 Y463.209
G01 X207.124 Y465.553
G01 X217.755 Y467.378
G01 X228.462 Y468.678
G01 X239.219 Y469.452
G01 X250.000 Y469.697
G01 X260.779 Y469.413
G01 X271.530 Y468.600
G01 X282.228 Y467.261
G01 X292.845 Y465.398
G01 X303.358 Y463.017
G01 X313.740 Y460.124
G01 X323.967 Y456.724
G01 X334.014 Y452.828
G01 X343.857 Y448.443
G01 X353.471 Y443.581
G01 X362.835 Y438.254
G01 X371.926 Y432.475
G01 X380.721 Y426.256
G01 X389.199 Y419.615
G01 X397.341 Y412.565
G01 X405.126 Y405.126
G01 X412.536 Y397.314
G01 X419.554 Y389.149
G01 X426.161 Y380.650
G01 X432.343 Y371.838
G01 X438.085 Y362.734
G01 X443.373 Y353.360
G01 X448.194 Y343.739
G01 X452.536 Y333.893
G01 X456.390 Y323.848
G01 X459.746 Y313.626
G01 X462.596 Y303.253
G01 X464.934 Y292.753
G01 X466.753 Y282.152
G01 X468.050 Y271.476
G01 X468.821 Y260.750
G01 X469.066 Y250.000
G01 X468.782 Y239.252
G01 X467.972 Y228.532
G01 X466.636 Y217.865
G01 X464.779 Y207.278
G01 X462.405 Y196.795
G01 X459.519 Y186.443
G01 X456.130 Y176.246
G01 X452.244 Y166.228
G01 X447.872 Y156.413
G01 X443.025 Y146.826
G01 X437.713 Y137.489
G01 X431.950 Y128.425
G01 X425.749 Y119.656
G01 X419.127 Y111.201
G01 X412.098 Y103.083
G01 X404.680 Y95.320
G01 X396.890 Y87.932
G01 X388.748 Y80.934
G01 X380.274 Y74.346
G01 X371.487 Y68.182
G01 X362.409 Y62.456
G01 X353.062 Y57.184
G01 X343.469 Y52.377
G01 X333.652 Y48.047
G01 X323.635 Y44.204
G01 X313.443 Y40.858
G01 X303.099 Y38.016
G01 X292.630 Y35.685
G01 X282.060 Y33.871
G01 X271.414 Y32.578
G01 X260.719 Y31.809
G01 X250.000 Y31.566
G01 X239.283 Y31.848
G01 X228.594 Y32.657
G01 X217.958 Y33.988
G01 X207.401 Y35.840
G01 X196.949 Y38.208
G01 X186.626 Y41.085
G01 X176.458 Y44.464
G01 X166.469 Y48.339
G01 X156.683 Y52.698
G01 X147.124 Y57.532
G01 X137.814 Y62.829
G01 X128.776 Y68.575
G01 X120.032 Y74.758
G01 X111.602 Y81.361
G01 X103.507 Y88.370
G01 X95.767 Y95.767
G01 X88.399 Y103.534
G01 X81.422 Y111.652
G01 X74.853 Y120.102
G01 X68.707 Y128.864
G01 X62.998 Y137.915
G01 X57.741 Y147.235
G01 X52.948 Y156.801
G01 X48.630 Y166.590
G01 X44.799 Y176.578
G01 X41.462 Y186.741
G01 X38.629 Y197.054
G01 X36.305 Y207.493
G01 X34.496 Y218.033
G01 X33.206 Y228.648
G01 X32.440 Y239.312
G01 X32.197 Y250.000
G01 X32.479 Y260.686
G01 X33.285 Y271.345
G01 X34.613 Y281.950
G01 X36.459 Y292.476
G01 X38.820 Y302.898
G01 X41.689 Y313.191
G01 X45.059 Y323.329
G01 X48.922 Y333.289
G01 X53.269 Y343.047
G01 X58.089 Y352.579
G01 X63.370 Y361.862
G01 X69.100 Y370.873
G01 X75.265 Y379.592
G01 X81.849 Y387.998
G01 X88.838 Y396.069
G01 X96.213 Y403.787
G01 X103.958 Y411.133
G01 X112.053 Y418.090
G01 X120.478 Y424.640
G01 X129.214 Y430.769
G01 X138.240 Y436.461
G01 X147.533 Y441.702
G01 X157.071 Y446.481
G01 X166.832 Y450.786
G01 X176.791 Y454.607
G01 X186.924 Y457.934
G01 X197.208 Y460.759
G01 X207.617 Y463.076
G01 X218.126 Y464.880
G01 X228.710 Y466.165
G01 X239.343 Y466.930
G01 X250.000 Y467.172
G01 X260.655 Y466.890
G01 X271.283 Y466.087
G01 X281.857 Y464.763
G01 X292.353 Y462.921
G01 X302.744 Y460.568
G01 X313.007 Y457.707
G01 X323.116 Y454.347
G01 X333.048 Y450.495
G01 X342.777 Y446.160
G01 X352.281 Y441.354
G01 X361.537 Y436.088
G01 X370.523 Y430.375
G01 X379.216 Y424.228
G01 X387.597 Y417.663
G01 X395.645 Y410.694
G01 X403.340 Y403.340
G01 X410.665 Y395.618
G01 X417.602 Y387.547
G01 X424.133 Y379.146
G01 X430.244 Y370.435
G01 X435.919 Y361.436
G01 X441.146 Y352.169
G01 X445.911 Y342.659
G01 X450.203 Y332.927
G01 X454.012 Y322.997
G01 X457.330 Y312.893
G01 X460.147 Y302.639
G01 X462.457 Y292.260
G01 X464.255 Y281.782
G01 X465.537 Y271.229
G01 X466.299 Y260.626
G01 X466.540 Y250.000
G01 X466.260 Y239.376
G01 X465.458 Y228.779
G01 X464.138 Y218.236
G01 X462.302 Y207.770
G01 X459.955 Y197.409
G01 X457.103 Y187.176
G01 X453.752 Y177.096
G01 X449.911 Y167.194
G01 X445.590 Y157.493
G01 X440.798 Y148.017
G01 X435.547 Y138.788
G01 X429.850 Y129.828
G01 X423.721 Y121.160
G01 X417.174 Y112.803
G01 X410.227 Y104.779
G01 X402.894 Y97.106
G01 X395.194 Y89.803
G01 X387.146 Y82.887
G01 X378.770 Y76.374
G01 X370.084 Y70.281
G01 X361.111 Y64.622
G01 X351.872 Y59.411
G01 X342.389 Y54.660
G01 X332.685 Y50.380
G01 X322.784 Y46.582
G01 X312.709 Y43.275
G01 X302.486 Y40.466
G01 X292.137 Y38.162
G01 X281.689 Y36.369
G01 X271.167 Y35.091
G01 X260.595 Y34.331
G01 X250.000 Y34.091
G01 X239.407 Y34.371
G01 X228.841 Y35.170
G01 X218.328 Y36.486
G01 X207.894 Y38.317
G01 X197.562 Y40.657
G01 X187.359 Y43.501
G01 X177.309 Y46.842
G01 X167.436 Y50.672
G01 X157.763 Y54.981
G01 X148.314 Y59.759
G01 X139.112 Y64.995
G01 X130.179 Y70.675
G01 X121.536 Y76.786
G01 X113.204 Y83.314
G01 X105.203 Y90.241
G01 X97.552 Y97.552
G01 X90.270 Y105.230
G01 X83.375 Y113.254
G01 X76.881 Y121.606
G01 X70.806 Y130.267
G01 X65.164 Y139.214
G01 X59.968 Y148.426
G01 X55.231 Y157.881
G01 X50.963 Y167.556
G01 X47.176 Y177.429
G01 X43.879 Y187.474
G01 X41.078 Y197.668
G01 X38.781 Y207.986
G01 X36.994 Y218.404
G01 X35.720 Y228.895
G01 X34.962 Y239.436
G01 X34.722 Y250.000
G01 X35.001 Y260.562
G01 X35.798 Y271.097
G01 X37.111 Y281.579
G01 X38.936 Y291.983
G01 X41.270 Y302.284
G01 X44.105 Y312.457
G01 X47.437 Y322.478
G01 X51.255 Y332.323
G01 X55.552 Y341.967
G01 X60.316 Y351.388
G01 X65.536 Y360.563
G01 X71.200 Y369.470
G01 X77.293 Y378.088
G01 X83.802 Y386.396
G01 X90.709 Y394.373
G01 X97.999 Y402.001
G01 X105.654 Y409.262
G01 X113.655 Y416.137
G01 X121.982 Y422.612
G01 X130.617 Y428.669
G01 X139.538 Y434.295
G01 X148.723 Y439.475
G01 X158.151 Y444.199
G01 X167.798 Y448.453
G01 X177.641 Y452.229
G01 X187.657 Y455.517
G01 X197.821 Y458.309
G01 X208.109 Y460.599
G01 X218.496 Y462.382
G01 X228.957 Y463.652
G01 X239.467 Y464.408
G01 X250.000 Y464.646
G01 X260.531 Y464.368
G01 X271.035 Y463.574
G01 X281.486 Y462.265
G01 X291.860 Y460.445
G01 X302.131 Y458.118
G01 X312.274 Y455.291
G01 X322.266 Y451.969
G01 X332.081 Y448.162
G01 X341.697 Y443.878
G01 X351.091 Y439.127
G01 X360.239 Y433.922
G01 X369.120 Y428.275
G01 X377.712 Y422.200
G01 X385.995 Y415.710
G01 X393.949 Y408.823
G01 X401.555 Y401.555
G01 X408.794 Y393.923
G01 X415.649 Y385.945
G01 X422.105 Y377.641
G01 X428.144 Y369.032
G01 X433.753 Y360.137
G01 X438.919 Y350.979
G01 X443.628 Y341.579
G01 X447.870 Y331.960
G01 X451.635 Y322.146
G01 X454.913 Y312.160
G01 X457.697 Y302.025
G01 X459.980 Y291.768
G01 X461.757 Y281.411
G01 X463.024 Y270.981
G01 X463.777 Y260.502
G01 X464.015 Y250.000
G01 X463.738 Y239.500
G01 X462.945 Y229.027
G01 X461.640 Y218.606
G01 X459.826 Y208.263
G01 X457.506 Y198.023
G01 X454.686 Y187.909
G01 X451.375 Y177.947
G01 X447.578 Y168.160
G01 X443.307 Y158.573
G01 X438.571 Y149.207
G01 X433.381 Y140.086
G01 X427.750 Y131.231
G01 X421.693 Y122.664
G01 X415.222 Y114.405
G01 X408.355 Y106.475
G01 X401.108 Y98.892
G01 X393.499 Y91.674
G01 X385.544 Y84.839
G01 X377.265 Y78.402
G01 X368.681 Y72.381
G01 X359.813 Y66.788
G01 X350.681 Y61.638
G01 X341.309 Y56.943
G01 X331.719 Y52.713
G01 X321.933 Y48.960
G01 X311.976 Y45.691
G01 X301.872 Y42.915
G01 X291.645 Y40.639
G01 X281.319 Y38.867
G01 X270.919 Y37.604
G01 X260.471 Y36.853
G01 X250.000 Y36.616
G01 X239.531 Y36.893
G01 X229.089 Y37.683
G01 X218.699 Y38.984
G01 X208.386 Y40.794
G01 X198.176 Y43.107
G01 X188.092 Y45.918
G01 X178.160 Y49.220
G01 X168.402 Y53.005
G01 X158.843 Y57.264
G01 X149.505 Y61.986
G01 X140.410 Y67.161
G01 X131.582 Y72.775
G01 X123.040 Y78.814
G01 X114.806 Y85.266
G01 X106.899 Y92.112
G01 X99.338 Y99.338
G01 X92.142 Y106.925
G01 X85.327 Y114.856
G01 X78.910 Y123.111
G01 X72.906 Y131.670
G01 X67.330 Y140.512
G01 X62.195 Y149.616
G01 X57.513 Y158.961
G01 X53.296 Y168.523
G01 X49.554 Y178.279
G01 X46.295 Y188.207
G01 X43.528 Y198.281
G01 X41.258 Y208.479
G01 X39.492 Y218.774
G01 X38.233 Y229.143
G01 X37.484 Y239.560
G01 X37.247 Y250.000
G01 X37.523 Y260.438
G01 X38.311 Y270.850
G01 X39.609 Y281.209
G01 X41.413 Y291.491
G01 X43.719 Y301.671
G01 X46.522 Y311.724
G01 X49.814 Y321.628
G01 X53.588 Y331.356
G01 X57.835 Y340.888
G01 X62.543 Y350.198
G01 X67.702 Y359.265
G01 X73.300 Y368.067
G01 X79.322 Y376.584
G01 X85.754 Y384.794
G01 X92.580 Y392.677
G01 X99.784 Y400.216
G01 X107.349 Y407.391
G01 X115.257 Y414.185
G01 X123.487 Y420.583
G01 X132.020 Y426.569
G01 X140.836 Y432.129
G01 X149.914 Y437.248
G01 X159.231 Y441.916
G01 X168.764 Y446.120
G01 X178.492 Y449.851
G01 X188.390 Y453.101
G01 X198.435 Y455.860
G01 X208.602 Y458.123
G01 X218.867 Y459.884
G01 X229.205 Y461.139
G01 X239.591 Y461.885
G01 X250.000 Y462.121
G01 X260.407 Y461.846
G01 X270.788 Y461.061
G01 X281.116 Y459.767
G01 X291.367 Y457.968
G01 X301.517 Y455.669
G01 X311.541 Y452.874
G01 X321.415 Y449.591
G01 X331.115 Y445.829
G01 X340.618 Y441.595
G01 X349.900 Y436.900
G01 X358.941 Y431.756
G01 X367.717 Y426.175
G01 X376.208 Y420.171
G01 X384.393 Y413.758
G01 X392.253 Y406.952
G01 X399.769 Y399.769
G01 X406.923 Y392.227
G01 X413.697 Y384.343
G01 X420.076 Y376.137
G01 X426.044 Y367.629
G01 X431.587 Y358.839
G01 X436.691 Y349.789
G01 X441.345 Y340.499
G01 X445.537 Y330.994
G01 X449.257 Y321.295
G01 X452.496 Y311.427
G01 X455.247 Y301.412
G01 X457.504 Y291.275
G01 X459.259 Y281.041
G01 X460.511 Y270.734
G01 X461.255 Y260.378
G01 X461.490 Y250.000
G01 X461.215 Y239.624
G01 X460.432 Y229.274
G01 X459.142 Y218.977
G01 X457.349 Y208.756
G01 X455.056 Y198.636
G01 X452.270 Y188.642
G01 X448.997 Y178.798
G01 X445.245 Y169.127
G01 X441.024 Y159.652
G01 X436.343 Y150.397
G01 X431.215 Y141.384
G01 X425.651 Y132.634
G01 X419.664 Y124.168
G01 X413.270 Y116.007
G01 X406.484 Y108.171
G01 X399.323 Y100.677
G01 X391.803 Y93.545
G01 X383.942 Y86.791
G01 X375.761 Y80.431
G01 X367.278 Y74.481
G01 X358.515 Y68.954
G01 X349.491 Y63.865
G01 X340.230 Y59.226
G01 X330.752 Y55.046
G01 X321.083 Y51.337
G01 X311.243 Y48.108
G01 X301.258 Y45.365
G01 X291.152 Y43.116
G01 X280.948 Y41.365
G01 X270.672 Y40.117
G01 X260.347 Y39.376
G01 X250.000 Y39.141
G01 X239.655 Y39.415
G01 X229.336 Y40.196
G01 X219.069 Y41.482
G01 X208.879 Y43.270
G01 X198.790 Y45.556
G01 X188.825 Y48.334
G01 X179.010 Y51.597
G01 X169.368 Y55.338
G01 X159.922 Y59.547
G01 X150.695 Y64.213
G01 X141.709 Y69.327
G01 X132.985 Y74.874
G01 X124.544 Y80.843
G01 X116.408 Y87.218
G01 X108.595 Y93.983
G01 X101.124 Y101.124
G01 X94.013 Y108.621
G01 X87.279 Y116.458
G01 X80.938 Y124.615
G01 X75.006 Y133.072
G01 X69.496 Y141.810
G01 X64.422 Y150.807
G01 X59.796 Y160.040
G01 X55.630 Y169.489
G01 X51.932 Y179.130
G01 X48.712 Y188.940
G01 X45.977 Y198.895
G01 X43.735 Y208.971
G01 X41.990 Y219.145
G01 X40.746 Y229.390
G01 X40.006 Y239.684
G01 X39.773 Y250.000
G01 X40.046 Y260.314
G01 X40.824 Y270.602
G01 X42.107 Y280.838
G01 X43.890 Y290.998
G01 X46.169 Y301.057
G01 X48.938 Y310.991
G01 X52.192 Y320.777
G01 X55.921 Y330.390
G01 X60.117 Y339.808
G01 X64.770 Y349.007
G01 X69.868 Y357.967
G01 X75.399 Y366.664
G01 X81.350 Y375.079
G01 X87.706 Y383.192
G01 X94.451 Y390.981
G01 X101.570 Y398.430
G01 X109.045 Y405.520
G01 X116.859 Y412.233
G01 X124.991 Y418.555
G01 X133.423 Y424.470
G01 X142.135 Y429.963
G01 X151.104 Y435.021
G01 X160.310 Y439.633
G01 X169.731 Y443.787
G01 X179.343 Y447.474
G01 X189.123 Y450.684
G01 X199.048 Y453.410
G01 X209.094 Y455.646
G01 X219.237 Y457.386
G01 X229.452 Y458.626
G01 X239.715 Y459.363
G01 X250.000 Y459.596
G01 X260.283 Y459.324
G01 X270.540 Y458.547
G01 X280.745 Y457.269
G01 X290.875 Y455.491
G01 X300.904 Y453.219
G01 X310.808 Y450.458
G01 X320.564 Y447.214
G01 X330.149 Y443.496
G01 X339.538 Y439.312
G01 X348.710 Y434.673
G01 X357.642 Y429.590
G01 X366.314 Y424.076
G01 X374.703 Y418.143
G01 X382.791 Y411.806
G01 X390.557 Y405.081
G01 X397.984 Y397.984
G01 X405.052 Y390.531
G01 X411.745 Y382.741
G01 X418.048 Y374.633
G01 X423.945 Y366.226
G01 X429.421 Y357.541
G01 X434.464 Y348.598
G01 X439.062 Y339.420
G01 X443.204 Y330.028
G01 X446.879 Y320.445
G01 X450.080 Y310.694
G01 X452.798 Y300.798
G01 X455.027 Y290.782
G01 X456.761 Y280.670
G01 X457.998 Y270.486
G01 X458.733 Y260.254
G01 X458.965 Y250.000
G01 X458.693 Y239.748
G01 X457.919 Y229.522
G01 X456.644 Y219.347
G01 X454.872 Y209.248
G01 X452.607 Y199.250
G01 X449.853 Y189.375
G01 X446.619 Y179.648
G01 X442.912 Y170.093
G01 X438.741 Y160.732
G01 X434.116 Y151.588
G01 X429.049 Y142.682
G01 X423.551 Y134.037
G01 X417.636 Y125.673
G01 X411.318 Y117.609
G01 X404.613 Y109.867
G01 X397.537 Y102.463
G01 X390.107 Y95.416
G01 X382.340 Y88.743
G01 X374.257 Y82.459
G01 X365.875 Y76.580
G01 X357.216 Y71.120
G01 X348.301 Y66.092
G01 X339.150 Y61.508
G01 X329.786 Y57.379
G01 X320.232 Y53.715
G01 X310.510 Y50.524
G01 X300.645 Y47.814
G01 X290.659 Y45.592
G01 X280.578 Y43.863
G01 X270.424 Y42.631
G01 X260.223 Y41.898
G01 X250.000 Y41.667
G01 X239.779 Y41.937
G01 X229.584 Y42.709
G01 X219.440 Y43.980
G01 X209.372 Y45.747
G01 X199.403 Y48.006
G01 X189.558 Y50.751
G01 X179.861 Y53.975
G01 X170.335 Y57.671
G01 X161.002 Y61.829
G01 X151.885 Y66.440
G01 X143.007 Y71.493
G01 X134.388 Y76.974
G01 X126.049 Y82.871
G01 X118.010 Y89.170
G01 X110.291 Y95.854
G01 X102.909 Y102.909
G01 X95.884 Y110.317
G01 X89.231 Y118.060
G01 X82.966 Y126.119
G01 X77.105 Y134.475
G01 X71.662 Y143.108
G01 X66.649 Y151.997
G01 X62.079 Y161.120
G01 X57.963 Y170.455
G01 X54.309 Y179.981
G01 X51.128 Y189.673
G01 X48.427 Y199.509
G01 X46.212 Y209.464
G01 X44.487 Y219.515
G01 X43.259 Y229.638
G01 X42.528 Y239.808
G01 X42.298 Y250.000
G01 X42.568 Y260.190
G01 X43.337 Y270.354
G01 X44.605 Y280.468
G01 X46.366 Y290.505
G01 X48.618 Y300.444
G01 X51.355 Y310.258
G01 X54.569 Y319.926
G01 X58.254 Y329.424
G01 X62.400 Y338.728
G01 X66.997 Y347.817
G01 X72.034 Y356.669
G01 X77.499 Y365.262
G01 X83.378 Y373.575
G01 X89.658 Y381.590
G01 X96.322 Y389.285
G01 X103.356 Y396.644
G01 X110.741 Y403.649
G01 X118.461 Y410.281
G01 X126.495 Y416.527
G01 X134.826 Y422.370
G01 X143.433 Y427.797
G01 X152.295 Y432.794
G01 X161.390 Y437.350
G01 X170.697 Y441.454
G01 X180.193 Y445.096
G01 X189.856 Y448.268
G01 X199.662 Y450.961
G01 X209.587 Y453.169
G01 X219.608 Y454.888
G01 X229.700 Y456.113
G01 X239.839 Y456.841
G01 X250.000 Y457.071
G01 X260.160 Y456.802
G01 X270.293 Y456.034
G01 X280.375 Y454.771
G01 X290.382 Y453.015
G01 X300.290 Y450.769
G01 X310.075 Y448.041
G01 X319.713 Y444.836
G01 X329.182 Y441.163
G01 X338.458 Y437.029
G01 X347.519 Y432.446
G01 X356.344 Y427.424
G01 X364.911 Y421.976
G01 X373.199 Y416.115
G01 X381.189 Y409.854
G01 X388.861 Y403.210
G01 X396.198 Y396.198
G01 X403.181 Y388.835
G01 X409.793 Y381.139
G01 X416.020 Y373.129
G01 X421.845 Y364.823
G01 X427.255 Y356.243
G01 X432.237 Y347.408
G01 X436.780 Y338.340
G01 X440.871 Y329.061
G01 X444.502 Y319.594
G01 X447.663 Y309.961
G01 X450.348 Y300.185
G01 X452.550 Y290.290
G01 X454.264 Y280.300
G01 X455.485 Y270.238
G01 X456.210 Y260.130
G01 X456.439 Y250.000
G01 X456.171 Y239.871
G01 X455.406 Y229.769
G01 X454.146 Y219.718
G01 X452.395 Y209.741
G01 X450.157 Y199.863
G01 X447.437 Y190.108
G01 X444.242 Y180.499
G01 X440.579 Y171.059
G01 X436.458 Y161.812
G01 X431.889 Y152.778
G01 X426.883 Y143.981
G01 X421.451 Y135.440
G01 X415.608 Y127.177
G01 X409.366 Y119.211
G01 X402.742 Y111.563
G01 X395.751 Y104.249
G01 X388.411 Y97.287
G01 X380.738 Y90.695
G01 X372.753 Y84.487
G01 X364.472 Y78.680
G01 X355.918 Y73.286
G01 X347.110 Y68.319
G01 X338.070 Y63.791
G01 X328.820 Y59.712
G01 X319.381 Y56.093
G01 X309.777 Y52.941
G01 X300.031 Y50.264
G01 X290.167 Y48.069
G01 X280.207 Y46.361
G01 X270.177 Y45.144
G01 X260.099 Y44.420
G01 X250.000 Y44.192
G01 X239.902 Y44.460
G01 X229.831 Y45.222
G01 X219.810 Y46.478
G01 X209.864 Y48.224
G01 X200.017 Y50.455
G01 X190.291 Y53.167
G01 X180.712 Y56.353
G01 X171.301 Y60.004
G01 X162.082 Y64.112
G01 X153.076 Y68.667
G01 X144.305 Y73.659
G01 X135.791 Y79.074
G01 X127.553 Y84.899
G01 X119.612 Y91.122
G01 X111.986 Y97.726
G01 X104.695 Y104.695
G01 X97.755 Y112.013
G01 X91.183 Y119.662
G01 X84.994 Y127.624
G01 X79.205 Y135.878
G01 X73.828 Y144.406
G01 X68.876 Y153.187
G01 X64.362 Y162.200
G01 X60.296 Y171.422
G01 X56.687 Y180.832
G01 X53.545 Y190.406
G01 X50.876 Y200.122
G01 X48.688 Y209.957
G01 X46.985 Y219.886
G01 X45.772 Y229.885
G01 X45.051 Y239.931
G01 X44.823 Y250.000
G01 X45.090 Y260.067
G01 X45.850 Y270.107
G01 X47.103 Y280.097
G01 X48.843 Y290.013
G01 X51.068 Y299.830
G01 X53.771 Y309.525
G01 X56.947 Y319.075
G01 X60.587 Y328.457
G01 X64.683 Y337.648
G01 X69.224 Y346.627
G01 X74.200 Y355.370
G01 X79.599 Y363.859
G01 X85.406 Y372.071
G01 X91.610 Y379.988
G01 X98.193 Y387.590
G01 X105.141 Y394.859
G01 X112.437 Y401.777
G01 X120.063 Y408.329
G01 X128.000 Y414.498
G01 X136.229 Y420.270
G01 X144.731 Y425.631
G01 X153.485 Y430.567
G01 X162.470 Y435.067
G01 X171.663 Y439.121
G01 X181.044 Y442.719
G01 X190.589 Y445.851
G01 X200.276 Y448.511
G01 X210.080 Y450.693
G01 X219.978 Y452.390
G01 X229.947 Y453.600
G01 X239.962 Y454.319
G01 X250.000 Y454.545
G01 X260.036 Y454.279
G01 X270.045 Y453.521
G01 X280.004 Y452.273
G01 X289.889 Y450.538
G01 X299.677 Y448.320
G01 X309.342 Y445.625
G01 X318.863 Y442.459
G01 X328.216 Y438.830
G01 X337.379 Y434.746
G01 X346.329 Y430.219
G01 X355.046 Y425.258
G01 X363.508 Y419.876
G01 X371.695 Y414.086
G01 X379.587 Y407.902
G01 X387.166 Y401.339
G01 X394.412 Y394.412
G01 X401.310 Y387.139
G01 X407.841 Y379.537
G01 X413.991 Y371.624
G01 X419.745 Y363.420
G01 X425.089 Y354.944
G01 X430.010 Y346.217
G01 X434.497 Y337.260
G01 X438.538 Y328.095
G01 X442.124 Y318.743
G01 X445.247 Y309.228
G01 X447.899 Y299.571
G01 X450.073 Y289.797
G01 X451.766 Y279.929
G01 X452.972 Y269.991
G01 X453.688 Y260.007
G01 X453.914 Y250.000
G01 X453.649 Y239.995
G01 X452.893 Y230.017
G01 X451.649 Y220.088
G01 X449.919 Y210.234
G01 X447.707 Y200.477
G01 X445.020 Y190.841
G01 X441.864 Y181.350
G01 X438.246 Y172.026
G01 X434.176 Y162.891
G01 X429.662 Y153.969
G01 X424.717 Y145.279
G01 X419.352 Y136.843
G01 X413.579 Y128.681
G01 X407.414 Y120.813
G01 X400.871 Y113.258
G01 X393.966 Y106.034
G01 X386.715 Y99.158
G01 X379.136 Y92.647
G01 X371.248 Y86.516
G01 X363.069 Y80.780
G01 X354.620 Y75.452
G01 X345.920 Y70.547
G01 X336.991 Y66.074
G01 X327.853 Y62.045
G01 X318.530 Y58.470
G01 X309.044 Y55.357
G01 X299.418 Y52.714
G01 X289.674 Y50.546
G01 X279.836 Y48.859
G01 X269.929 Y47.657
G01 X259.976 Y46.942
G01 X250.000 Y46.717
G01 X240.026 Y46.982
G01 X230.079 Y47.735
G01 X220.181 Y48.976
G01 X210.357 Y50.701
G01 X200.630 Y52.905
G01 X191.024 Y55.584
G01 X181.563 Y58.730
G01 X172.267 Y62.337
G01 X163.161 Y66.395
G01 X154.266 Y70.895
G01 X145.603 Y75.825
G01 X137.194 Y81.173
G01 X129.057 Y86.928
G01 X121.214 Y93.074
G01 X113.682 Y99.597
G01 X106.481 Y106.481
G01 X99.626 Y113.709
G01 X93.135 Y121.264
G01 X87.023 Y129.128
G01 X81.305 Y137.281
G01 X75.994 Y145.705
G01 X71.103 Y154.378
G01 X66.645 Y163.279
G01 X62.629 Y172.388
G01 X59.065 Y181.682
G01 X55.961 Y191.139
G01 X53.326 Y200.736
G01 X51.165 Y210.449
G01 X49.483 Y220.256
G01 X48.285 Y230.133
G01 X47.573 Y240.055
G01 X47.348 Y250.000
G01 X47.612 Y259.943
G01 X48.364 Y269.859
G01 X49.600 Y279.726
G01 X51.320 Y289.520
G01 X53.517 Y299.216
G01 X56.188 Y308.792
G01 X59.325 Y318.225
G01 X62.920 Y327.491
G01 X66.966 Y336.569
G01 X71.451 Y345.436
G01 X76.366 Y354.072
G01 X81.698 Y362.456
G01 X87.435 Y370.567
G01 X93.562 Y378.386
G01 X100.064 Y385.894
G01 X106.927 Y393.073
G01 X114.133 Y399.906
G01 X121.665 Y406.377
G01 X129.504 Y412.470
G01 X137.632 Y418.171
G01 X146.029 Y423.465
G01 X154.675 Y428.340
G01 X163.549 Y432.785
G01 X172.630 Y436.788
G01 X181.895 Y440.341
G01 X191.322 Y443.435
G01 X200.889 Y446.062
G01 X210.572 Y448.216
G01 X220.349 Y449.892
G01 X230.195 Y451.087
G01 X240.086 Y451.797
G01 X250.000 Y452.020
G01 X259.912 Y451.757
G01 X269.798 Y451.008
G01 X279.634 Y449.775
G01 X289.397 Y448.061
G01 X299.063 Y445.870
G01 X308.609 Y443.208
G01 X318.012 Y440.081
G01 X327.249 Y436.497
G01 X336.299 Y432.464
G01 X345.139 Y427.992
G01 X353.748 Y423.092
G01 X362.105 Y417.777
G01 X370.191 Y412.058
G01 X377.985 Y405.950
G01 X385.470 Y399.468
G01 X392.627 Y392.627
G01 X399.439 Y385.443
G01 X405.889 Y377.935
G01 X411.963 Y370.120
G01 X417.646 Y362.017
G01 X422.923 Y353.646
G01 X427.783 Y345.027
G01 X432.214 Y336.181
G01 X436.205 Y327.129
G01 X439.747 Y317.892
G01 X442.830 Y308.494
G01 X445.449 Y298.957
G01 X447.597 Y289.304
G01 X449.268 Y279.559
G01 X450.458 Y269.743
G01 X451.166 Y259.883
G01 X451.389 Y250.000
G01 X451.127 Y240.119
G01 X450.380 Y230.264
G01 X449.151 Y220.459
G01 X447.442 Y210.726
G01 X445.258 Y201.090
G01 X442.604 Y191.574
G01 X439.486 Y182.201
G01 X435.913 Y172.992
G01 X431.893 Y163.971
G01 X427.435 Y155.159
G01 X422.551 Y146.577
G01 X417.252 Y138.246
G01 X411.551 Y130.186
G01 X405.462 Y122.415
G01 X399.000 Y114.954
G01 X392.180 Y107.820
G01 X385.019 Y101.029
G01 X377.534 Y94.599
G01 X369.744 Y88.544
G01 X361.666 Y82.879
G01 X353.322 Y77.618
G01 X344.729 Y72.774
G01 X335.911 Y68.357
G01 X326.887 Y64.378
G01 X317.680 Y60.848
G01 X308.311 Y57.774
G01 X298.804 Y55.163
G01 X289.181 Y53.023
G01 X279.466 Y51.357
G01 X269.682 Y50.170
G01 X259.852 Y49.465
G01 X250.000 Y49.242
G01 X240.150 Y49.504
G01 X230.326 Y50.248
G01 X220.551 Y51.474
G01 X210.850 Y53.177
G01 X201.244 Y55.355
G01 X191.758 Y58.000
G01 X182.413 Y61.108
G01 X173.234 Y64.670
G01 X164.241 Y68.678
G01 X155.457 Y73.122
G01 X146.902 Y77.991
G01 X138.597 Y83.273
G01 X130.562 Y88.956
G01 X122.816 Y95.026
G01 X115.378 Y101.468
G01 X108.266 Y108.266
G01 X101.497 Y115.405
G01 X95.087 Y122.866
G01 X89.051 Y130.632
G01 X83.404 Y138.684
G01 X78.160 Y147.003
G01 X73.330 Y155.568
G01 X68.927 Y164.359
G01 X64.962 Y173.355
G01 X61.442 Y182.533
G01 X58.378 Y191.872
G01 X55.776 Y201.349
G01 X53.642 Y210.942
G01 X51.981 Y220.627
G01 X50.798 Y230.380
G01 X50.095 Y240.179
G01 X49.874 Y250.000
G01 X50.135 Y259.819
G01 X50.877 Y269.612
G01 X52.098 Y279.356
G01 X53.797 Y289.027
G01 X55.967 Y298.603
G01 X58.604 Y308.059
G01 X61.702 Y317.374
G01 X65.253 Y326.525
G01 X69.249 Y335.489
G01 X73.678 Y344.246
G01 X78.532 Y352.774
G01 X83.798 Y361.053
G01 X89.463 Y369.062
G01 X95.514 Y376.784
G01 X101.935 Y384.198
G01 X108.713 Y391.287
G01 X115.829 Y398.035
G01 X123.267 Y404.425
G01 X131.008 Y410.442
G01 X139.035 Y416.071
G01 X147.328 Y421.299
G01 X155.866 Y426.113
G01 X164.629 Y430.502
G01 X173.596 Y434.455
G01 X182.746 Y437.963
G01 X192.055 Y441.018
G01 X201.503 Y443.612
G01 X211.065 Y445.739
G01 X220.719 Y447.394
G01 X230.442 Y448.574
G01 X240.210 Y449.274
G01 X250.000 Y449.495
G01 X259.788 Y449.235
G01 X269.550 Y448.495
G01 X279.263 Y447.277
G01 X288.904 Y445.584
G01 X298.449 Y443.421
G01 X307.876 Y440.791
G01 X317.161 Y437.703
G01 X326.283 Y434.163
G01 X335.219 Y430.181
G01 X343.948 Y425.765
G01 X352.449 Y420.926
G01 X360.702 Y415.677
G01 X368.686 Y410.030
G01 X376.383 Y403.998
G01 X383.774 Y397.597
G01 X390.841 Y390.841
G01 X397.568 Y383.747
G01 X403.937 Y376.333
G01 X409.935 Y368.616
G01 X415.546 Y360.614
G01 X420.757 Y352.348
G01 X425.556 Y343.837
G01 X429.931 Y335.101
G01 X433.872 Y326.162
G01 X437.369 Y317.042
G01 X440.414 Y307.761
G01 X443.000 Y298.344
G01 X445.120 Y288.812
G01 X446.770 Y279.188
G01 X447.945 Y269.496
G01 X448.644 Y259.759
G01 X448.864 Y250.000
G01 X448.604 Y240.243
G01 X447.867 Y230.512
G01 X446.653 Y220.829
G01 X444.965 Y211.219
G01 X442.808 Y201.704
G01 X440.187 Y192.307
G01 X437.109 Y183.051
G01 X433.580 Y173.959
G01 X429.610 Y165.051
G01 X425.208 Y156.349
G01 X420.385 Y147.875
G01 X415.152 Y139.649
G01 X409.523 Y131.690
G01 X403.510 Y124.017
G01 X397.129 Y116.650
G01 X390.395 Y109.605
G01 X383.323 Y102.900
G01 X375.932 Y96.551
G01 X368.240 Y90.572
G01 X360.264 Y84.979
G01 X352.023 Y79.784
G01 X343.539 Y75.001
G01 X334.831 Y70.640
G01 X325.921 Y66.711
G01 X316.829 Y63.226
G01 X307.578 Y60.190
G01 X298.190 Y57.613
G01 X288.689 Y55.499
G01 X279.095 Y53.855
G01 X269.434 Y52.683
G01 X259.728 Y51.987
G01 X250.000 Y51.768
G01 X240.274 Y52.026
G01 X230.574 Y52.761
G01 X220.922 Y53.972
G01 X211.342 Y55.654
G01 X201.857 Y57.804
G01 X192.491 Y60.417
G01 X183.264 Y63.486
G01 X174.200 Y67.003
G01 X165.321 Y70.961
G01 X156.647 Y75.349
G01 X148.200 Y80.157
G01 X140.000 Y85.373
G01 X132.066 Y90.984
G01 X124.418 Y96.978
G01 X117.074 Y103.339
G01 X110.052 Y110.052
G01 X103.368 Y117.101
G01 X97.039 Y124.468
G01 X91.079 Y132.136
G01 X85.504 Y140.087
G01 X80.326 Y148.301
G01 X75.557 Y156.759
G01 X71.210 Y165.439
G01 X67.295 Y174.321
G01 X63.820 Y183.384
G01 X60.794 Y192.605
G01 X58.225 Y201.963
G01 X56.118 Y211.435
G01 X54.479 Y220.997
G01 X53.311 Y230.628
G01 X52.617 Y240.303
G01 X52.399 Y250.000
G01 X52.657 Y259.695
G01 X53.390 Y269.364
G01 X54.596 Y278.985
G01 X56.273 Y288.535
G01 X58.417 Y297.989
G01 X61.021 Y307.326
G01 X64.080 Y316.523
G01 X67.586 Y325.558
G01 X71.531 Y334.409
G01 X75.905 Y343.055
G01 X80.698 Y351.476
G01 X85.898 Y359.650
G01 X91.491 Y367.558
G01 X97.466 Y375.182
G01 X103.807 Y382.502
G01 X110.498 Y389.502
G01 X117.525 Y396.164
G01 X124.869 Y402.473
G01 X132.513 Y408.414
G01 X140.438 Y413.971
G01 X148.626 Y419.133
G01 X157.056 Y423.886
G01 X165.709 Y428.219
G01 X174.563 Y432.122
G01 X183.596 Y435.586
G01 X192.788 Y438.602
G01 X202.116 Y441.162
G01 X211.558 Y443.262
G01 X221.090 Y444.896
G01 X230.690 Y446.061
G01 X240.334 Y446.752
G01 X250.000 Y446.970
G01 X259.664 Y446.713
G01 X269.303 Y445.982
G01 X278.893 Y444.779
G01 X288.411 Y443.108
G01 X297.836 Y440.971
G01 X307.143 Y438.375
G01 X316.311 Y435.326
G01 X325.317 Y431.830
G01 X334.139 Y427.898
G01 X342.758 Y423.538
G01 X351.151 Y418.760
G01 X359.299 Y413.577
G01 X367.182 Y408.002
G01 X374.781 Y402.046
G01 X382.078 Y395.726
G01 X389.055 Y389.055
G01 X395.696 Y382.052
G01 X401.985 Y374.731
G01 X407.906 Y367.111
G01 X413.446 Y359.211
G01 X418.591 Y351.050
G01 X423.329 Y342.646
G01 X427.648 Y334.021
G01 X431.539 Y325.196
G01 X434.991 Y316.191
G01 X437.997 Y307.028
G01 X440.550 Y297.730
G01 X442.643 Y288.319
G01 X444.272 Y278.818
G01 X445.432 Y269.248
G01 X446.122 Y259.635
G01 X446.338 Y250.000
G01 X446.082 Y240.367
G01 X445.354 Y230.759
G01 X444.155 Y221.200
G01 X442.488 Y211.712
G01 X440.359 Y202.318
G01 X437.771 Y193.040
G01 X434.731 Y183.902
G01 X431.247 Y174.925
G01 X427.327 Y166.130
G01 X422.981 Y157.540
G01 X418.219 Y149.173
G01 X413.053 Y141.052
G01 X407.494 Y133.194
G01 X401.558 Y125.619
G01 X395.258 Y118.346
G01 X388.609 Y111.391
G01 X381.628 Y104.771
G01 X374.330 Y98.503
G01 X366.735 Y92.601
G01 X358.861 Y87.079
G01 X350.725 Y81.950
G01 X342.349 Y77.228
G01 X333.751 Y72.922
G01 X324.954 Y69.044
G01 X315.978 Y65.603
G01 X306.845 Y62.607
G01 X297.577 Y60.062
G01 X288.196 Y57.976
G01 X278.725 Y56.353
G01 X269.187 Y55.196
G01 X259.604 Y54.509
G01 X250.000 Y54.293
G01 X240.398 Y54.548
G01 X230.821 Y55.275
G01 X221.292 Y56.470
G01 X211.835 Y58.131
G01 X202.471 Y60.254
G01 X193.224 Y62.833
G01 X184.115 Y65.863
G01 X175.167 Y69.336
G01 X166.400 Y73.243
G01 X157.837 Y77.576
G01 X149.498 Y82.323
G01 X141.403 Y87.472
G01 X133.570 Y93.013
G01 X126.020 Y98.930
G01 X118.770 Y105.210
G01 X111.837 Y111.837
G01 X105.239 Y118.796
G01 X98.991 Y126.070
G01 X93.108 Y133.641
G01 X87.604 Y141.490
G01 X82.492 Y149.599
G01 X77.785 Y157.949
G01 X73.493 Y166.518
G01 X69.628 Y175.287
G01 X66.198 Y184.234
G01 X63.211 Y193.338
G01 X60.675 Y202.576
G01 X58.595 Y211.927
G01 X56.977 Y221.368
G01 X55.824 Y230.875
G01 X55.140 Y240.427
G01 X54.924 Y250.000
G01 X55.179 Y259.571
G01 X55.903 Y269.117
G01 X57.094 Y278.615
G01 X58.750 Y288.042
G01 X60.866 Y297.376
G01 X63.437 Y306.593
G01 X66.458 Y315.673
G01 X69.919 Y324.592
G01 X73.814 Y333.330
G01 X78.133 Y341.865
G01 X82.864 Y350.177
G01 X87.997 Y358.247
G01 X93.520 Y366.054
G01 X99.418 Y373.580
G01 X105.678 Y380.806
G01 X112.284 Y387.716
G01 X119.220 Y394.293
G01 X126.471 Y400.521
G01 X134.017 Y406.385
G01 X141.841 Y411.871
G01 X149.924 Y416.967
G01 X158.247 Y421.659
G01 X166.788 Y425.936
G01 X175.529 Y429.789
G01 X184.447 Y433.208
G01 X193.521 Y436.185
G01 X202.730 Y438.713
G01 X212.050 Y440.786
G01 X221.460 Y442.398
G01 X230.937 Y443.547
G01 X240.458 Y444.230
G01 X250.000 Y444.444
G01 X259.540 Y444.191
G01 X269.055 Y443.469
G01 X278.522 Y442.281
G01 X287.919 Y440.631
G01 X297.222 Y438.522
G01 X306.410 Y435.958
G01 X315.460 Y432.948
G01 X324.350 Y429.497
G01 X333.060 Y425.615
G01 X341.567 Y421.311
G01 X349.853 Y416.594
G01 X357.896 Y411.478
G01 X365.678 Y405.973
G01 X373.179 Y400.094
G01 X380.382 Y393.855
G01 X387.270 Y387.270
G01 X393.825 Y380.356
G01 X400.033 Y373.129
G01 X405.878 Y365.607
G01 X411.347 Y357.808
G01 X416.425 Y349.751
G01 X421.102 Y341.456
G01 X425.366 Y332.942
G01 X429.206 Y324.229
G01 X432.614 Y315.340
G01 X435.581 Y306.295
G01 X438.100 Y297.117
G01 X440.166 Y287.826
G01 X441.774 Y278.447
G01 X442.919 Y269.001
G01 X443.599 Y259.511
G01 X443.813 Y250.000
G01 X443.560 Y240.491
G01 X442.841 Y231.007
G01 X441.657 Y221.570
G01 X440.012 Y212.204
G01 X437.909 Y202.931
G01 X435.354 Y193.773
G01 X432.354 Y184.753
G01 X428.914 Y175.891
G01 X425.044 Y167.210
G01 X420.754 Y158.730
G01 X416.053 Y150.472
G01 X410.953 Y142.455
G01 X405.466 Y134.698
G01 X399.606 Y127.221
G01 X393.387 Y120.042
G01 X386.823 Y113.177
G01 X379.932 Y106.642
G01 X372.728 Y100.455
G01 X365.231 Y94.629
G01 X357.458 Y89.178
G01 X349.427 Y84.116
G01 X341.158 Y79.455
G01 X332.672 Y75.205
G01 X323.988 Y71.377
G01 X315.128 Y67.981
G01 X306.112 Y65.023
G01 X296.963 Y62.512
G01 X287.703 Y60.453
G01 X278.354 Y58.851
G01 X268.939 Y57.709
G01 X259.480 Y57.031
G01 X250.000 Y56.818
G01 X240.522 Y57.071
G01 X231.069 Y57.788
G01 X221.663 Y58.968
G01 X212.327 Y60.608
G01 X203.085 Y62.703
G01 X193.957 Y65.250
G01 X184.966 Y68.241
G01 X176.133 Y71.669
G01 X167.480 Y75.526
G01 X159.028 Y79.803
G01 X150.796 Y84.489
G01 X142.805 Y89.572
G01 X135.075 Y95.041
G01 X127.622 Y100.882
G01 X120.466 Y107.081
G01 X113.623 Y113.623
G01 X107.110 Y120.492
G01 X100.943 Y127.672
G01 X95.136 Y135.145
G01 X89.703 Y142.893
G01 X84.658 Y150.898
G01 X80.012 Y159.139
G01 X75.776 Y167.598
G01 X71.961 Y176.254
G01 X68.575 Y185.085
G01 X65.627 Y194.071
G01 X63.124 Y203.190
G01 X61.072 Y212.420
G01 X59.475 Y221.738
G01 X58.337 Y231.123
G01 X57.662 Y240.551
G01 X57.449 Y250.000
G01 X57.701 Y259.447
G01 X58.416 Y268.869
G01 X59.592 Y278.244
G01 X61.227 Y287.549
G01 X63.316 Y296.762
G01 X65.854 Y305.860
G01 X68.835 Y314.822
G01 X72.252 Y323.625
G01 X76.097 Y332.250
G01 X80.360 Y340.675
G01 X85.030 Y348.879
G01 X90.097 Y356.844
G01 X95.548 Y364.549
G01 X101.370 Y371.978
G01 X107.549 Y379.110
G01 X114.069 Y385.931
G01 X120.916 Y392.422
G01 X128.073 Y398.569
G01 X135.521 Y404.357
G01 X143.244 Y409.772
G01 X151.222 Y414.801
G01 X159.437 Y419.432
G01 X167.868 Y423.653
G01 X176.495 Y427.456
G01 X185.298 Y430.830
G01 X194.254 Y433.768
G01 X203.343 Y436.263
G01 X212.543 Y438.309
G01 X221.831 Y439.901
G01 X231.185 Y441.034
G01 X240.582 Y441.708
G01 X250.000 Y441.919
G01 X259.416 Y441.668
G01 X268.808 Y440.956
G01 X278.152 Y439.783
G01 X287.426 Y438.154
G01 X296.609 Y436.072
G01 X305.677 Y433.542
G01 X314.609 Y430.570
G01 X323.384 Y427.164
G01 X331.980 Y423.332
G01 X340.377 Y419.084
G01 X348.555 Y414.428
G01 X356.493 Y409.378
G01 X364.173 Y403.945
G01 X371.577 Y398.142
G01 X378.686 Y391.983
G01 X385.484 Y385.484
G01 X391.954 Y378.660
G01 X398.081 Y371.527
G01 X403.850 Y364.103
G01 X409.247 Y356.405
G01 X414.259 Y348.453
G01 X418.875 Y340.265
G01 X423.083 Y331.862
G01 X426.873 Y323.263
G01 X430.236 Y314.489
G01 X433.164 Y305.562
G01 X435.651 Y296.503
G01 X437.690 Y287.334
G01 X439.276 Y278.076
G01 X440.406 Y268.753
G01 X441.077 Y259.387
G01 X441.288 Y250.000
G01 X441.038 Y240.615
G01 X440.328 Y231.254
G01 X439.159 Y221.941
G01 X437.535 Y212.697
G01 X435.460 Y203.545
G01 X432.938 Y194.506
G01 X429.976 Y185.604
G01 X426.581 Y176.858
G01 X422.762 Y168.290
G01 X418.527 Y159.921
G01 X413.887 Y151.770
G01 X408.853 Y143.858
G01 X403.438 Y136.203
G01 X397.654 Y128.823
G01 X391.516 Y121.738
G01 X385.038 Y114.962
G01 X378.236 Y108.514
G01 X371.126 Y102.407
G01 X363.727 Y96.657
G01 X356.055 Y91.278
G01 X348.129 Y86.282
G01 X339.968 Y81.682
G01 X331.592 Y77.488
G01 X323.022 Y73.710
G01 X314.277 Y70.358
G01 X305.379 Y67.440
G01 X296.350 Y64.961
G01 X287.211 Y62.929
G01 X277.984 Y61.348
G01 X268.691 Y60.222
G01 X259.356 Y59.553
G01 X250.000 Y59.343
G01 X240.646 Y59.593
G01 X231.316 Y60.301
G01 X222.034 Y61.466
G01 X212.820 Y63.084
G01 X203.698 Y65.153
G01 X194.690 Y67.666
G01 X185.816 Y70.618
G01 X177.099 Y74.002
G01 X168.560 Y77.809
G01 X160.218 Y82.030
G01 X152.095 Y86.655
G01 X144.208 Y91.672
G01 X136.579 Y97.069
G01 X129.224 Y102.834
G01 X122.162 Y108.952
G01 X115.409 Y115.409
G01 X108.981 Y122.188
G01 X102.895 Y129.274
G01 X97.164 Y136.649
G01 X91.803 Y144.296
G01 X86.824 Y152.196
G01 X82.239 Y160.330
G01 X78.059 Y168.678
G01 X74.294 Y177.220
G01 X70.953 Y185.936
G01 X68.044 Y194.804
G01 X65.574 Y203.804
G01 X63.549 Y212.913
G01 X61.973 Y222.109
G01 X60.851 Y231.370
G01 X60.184 Y240.675
G01 X59.975 Y250.000
G01 X60.223 Y259.323
G01 X60.929 Y268.622
G01 X62.090 Y277.874
G01 X63.703 Y287.057
G01 X65.765 Y296.148
G01 X68.270 Y305.127
G01 X71.213 Y313.971
G01 X74.585 Y322.659
G01 X78.380 Y331.170
G01 X82.587 Y339.484
G01 X87.196 Y347.581
G01 X92.197 Y355.441
G01 X97.576 Y363.045
G01 X103.322 Y370.376
G01 X109.420 Y377.414
G01 X115.855 Y384.145
G01 X122.612 Y390.551
G01 X129.675 Y396.617
G01 X137.025 Y402.329
G01 X144.647 Y407.672
G01 X152.520 Y412.635
G01 X160.627 Y417.205
G01 X168.948 Y421.371
G01 X177.462 Y425.123
G01 X186.149 Y428.453
G01 X194.987 Y431.352
G01 X203.957 Y433.814
G01 X213.036 Y435.832
G01 X222.201 Y437.403
G01 X231.432 Y438.521
G01 X240.706 Y439.186
G01 X250.000 Y439.394
G01 X259.292 Y439.146
G01 X268.560 Y438.443
G01 X277.781 Y437.285
G01 X286.934 Y435.677
G01 X295.995 Y433.622
G01 X304.944 Y431.125
G01 X313.758 Y428.193
G01 X322.418 Y424.831
G01 X330.900 Y421.050
G01 X339.187 Y416.857
G01 X347.256 Y412.262
G01 X355.090 Y407.278
G01 X362.669 Y401.917
G01 X369.975 Y396.190
G01 X376.990 Y390.112
G01 X383.699 Y383.699
G01 X390.083 Y376.964
G01 X396.129 Y369.925
G01 X401.822 Y362.599
G01 X407.147 Y355.002
G01 X412.093 Y347.155
G01 X416.648 Y339.075
G01 X420.800 Y330.782
G01 X424.540 Y322.297
G01 X427.858 Y313.639
G01 X430.748 Y304.829
G01 X433.201 Y295.890
G01 X435.213 Y286.841
G01 X436.778 Y277.706
G01 X437.893 Y268.506
G01 X438.555 Y259.263
G01 X438.763 Y250.000
G01 X438.516 Y240.739
G01 X437.814 Y231.502
G01 X436.661 Y222.311
G01 X435.058 Y213.190
G01 X433.010 Y204.158
G01 X430.521 Y195.239
G01 X427.598 Y186.454
G01 X424.248 Y177.824
G01 X420.479 Y169.369
G01 X416.300 Y161.111
G01 X411.721 Y153.068
G01 X406.754 Y145.261
G01 X401.410 Y137.707
G01 X395.702 Y130.425
G01 X389.645 Y123.434
G01 X383.252 Y116.748
G01 X376.540 Y110.385
G01 X369.524 Y104.359
G01 X362.222 Y98.686
G01 X354.652 Y93.378
G01 X346.830 Y88.448
G01 X338.777 Y83.909
G01 X330.512 Y79.771
G01 X322.055 Y76.044
G01 X313.426 Y72.736
G01 X304.646 Y69.856
G01 X295.736 Y67.411
G01 X286.718 Y65.406
G01 X277.613 Y63.846
G01 X268.444 Y62.735
G01 X259.232 Y62.076
G01 X250.000 Y61.869
G01 X240.770 Y62.115
G01 X231.564 Y62.814
G01 X222.404 Y63.963
G01 X213.313 Y65.561
G01 X204.312 Y67.602
G01 X195.423 Y70.083
G01 X186.667 Y72.996
G01 X178.066 Y76.335
G01 X169.639 Y80.092
G01 X161.409 Y84.257
G01 X153.393 Y88.821
G01 X145.611 Y93.771
G01 X138.083 Y99.098
G01 X130.826 Y104.786
G01 X123.857 Y110.823
G01 X117.194 Y117.194
G01 X110.852 Y123.884
G01 X104.847 Y130.876
G01 X99.193 Y138.154
G01 X93.903 Y145.699
G01 X88.990 Y153.494
G01 X84.466 Y161.520
G01 X80.341 Y169.758
G01 X76.627 Y178.186
G01 X73.330 Y186.787
G01 X70.460 Y195.537
G01 X68.023 Y204.417
G01 X66.025 Y213.405
G01 X64.471 Y222.479
G01 X63.364 Y231.618
G01 X62.706 Y240.799
G01 X62.500 Y250.000
G01 X62.746 Y259.199
G01 X63.442 Y268.374
G01 X64.588 Y277.503
G01 X66.180 Y286.564
G01 X68.215 Y295.535
G01 X70.687 Y304.394
G01 X73.591 Y313.120
G01 X76.918 Y321.693
G01 X80.663 Y330.091
G01 X84.814 Y338.294
G01 X89.362 Y346.283
G01 X94.296 Y354.038
G01 X99.605 Y361.541
G01 X105.274 Y368.774
G01 X111.291 Y375.719
G01 X117.641 Y382.359
G01 X124.308 Y388.680
G01 X131.277 Y394.665
G01 X138.530 Y400.300
G01 X146.050 Y405.572
G01 X153.819 Y410.469
G01 X161.818 Y414.977
G01 X170.027 Y419.088
G01 X178.428 Y422.790
G01 X186.999 Y426.075
G01 X195.721 Y428.935
G01 X204.571 Y431.364
G01 X213.528 Y433.355
G01 X222.572 Y434.905
G01 X231.680 Y436.008
G01 X240.830 Y436.663
G01 X250.000 Y436.869
G01 X259.168 Y436.624
G01 X268.312 Y435.930
G01 X277.411 Y434.788
G01 X286.441 Y433.201
G01 X295.381 Y431.173
G01 X304.211 Y428.709
G01 X312.908 Y425.815
G01 X321.451 Y422.498
G01 X329.821 Y418.767
G01 X337.996 Y414.629
G01 X345.958 Y410.096
G01 X353.687 Y405.179
G01 X361.165 Y399.888
G01 X368.373 Y394.238
G01 X375.295 Y388.241
G01 X381.913 Y381.913
G01 X388.212 Y375.268
G01 X394.177 Y368.323
G01 X399.793 Y361.094
G01 X405.048 Y353.599
G01 X409.927 Y345.857
G01 X414.421 Y337.885
G01 X418.517 Y329.703
G01 X422.207 Y321.330
G01 X425.481 Y312.788
G01 X428.331 Y304.096
G01 X430.752 Y295.276
G01 X432.736 Y286.349
G01 X434.280 Y277.335
G01 X435.380 Y268.258
G01 X436.033 Y259.139
G01 X436.237 Y250.000
G01 X435.993 Y240.863
G01 X435.301 Y231.749
G01 X434.163 Y222.682
G01 X432.581 Y213.682
G01 X430.560 Y204.772
G01 X428.105 Y195.973
G01 X425.221 Y187.305
G01 X421.915 Y178.790
G01 X418.196 Y170.449
G01 X414.073 Y162.301
G01 X409.555 Y154.366
G01 X404.654 Y146.664
G01 X399.381 Y139.211
G01 X393.750 Y132.027
G01 X387.774 Y125.129
G01 X381.467 Y118.533
G01 X374.844 Y112.256
G01 X367.922 Y106.311
G01 X360.718 Y100.714
G01 X353.249 Y95.477
G01 X345.532 Y90.614
G01 X337.587 Y86.136
G01 X329.433 Y82.054
G01 X321.089 Y78.377
G01 X312.575 Y75.114
G01 X303.913 Y72.273
G01 X295.123 Y69.861
G01 X286.225 Y67.883
G01 X277.243 Y66.344
G01 X268.196 Y65.248
G01 X259.108 Y64.598
G01 X250.000 Y64.394
G01 X240.894 Y64.637
G01 X231.811 Y65.327
G01 X222.775 Y66.461
G01 X213.805 Y68.038
G01 X204.925 Y70.052
G01 X196.156 Y72.499
G01 X187.518 Y75.374
G01 X179.032 Y78.668
G01 X170.719 Y82.375
G01 X162.599 Y86.484
G01 X154.691 Y90.987
G01 X147.014 Y95.871
G01 X139.587 Y101.126
G01 X132.428 Y106.738
G01 X125.553 Y112.694
G01 X118.980 Y118.980
G01 X112.723 Y125.580
G01 X106.799 Y132.478
G01 X101.221 Y139.658
G01 X96.002 Y147.102
G01 X91.156 Y154.792
G01 X86.693 Y162.711
G01 X82.624 Y170.837
G01 X78.960 Y179.153
G01 X75.708 Y187.637
G01 X72.877 Y196.270
G01 X70.473 Y205.031
G01 X68.502 Y213.898
G01 X66.969 Y222.850
G01 X65.877 Y231.865
G01 X65.228 Y240.923
G01 X65.025 Y250.000
G01 X65.268 Y259.075
G01 X65.955 Y268.127
G01 X67.086 Y277.133
G01 X68.657 Y286.071
G01 X70.664 Y294.921
G01 X73.103 Y303.661
G01 X75.968 Y312.270
G01 X79.251 Y320.726
G01 X82.945 Y329.011
G01 X87.041 Y337.103
G01 X91.528 Y344.984
G01 X96.396 Y352.635
G01 X101.633 Y360.037
G01 X107.226 Y367.172
G01 X113.162 Y374.023
G01 X119.426 Y380.574
G01 X126.004 Y386.809
G01 X132.879 Y392.713
G01 X140.034 Y398.272
G01 X147.453 Y403.473
G01 X155.117 Y408.303
G01 X163.008 Y412.750
G01 X171.107 Y416.805
G01 X179.394 Y420.457
G01 X187.850 Y423.697
G01 X196.454 Y426.519
G01 X205.184 Y428.915
G01 X214.021 Y430.879
G01 X222.943 Y432.407
G01 X231.927 Y433.495
G01 X240.954 Y434.141
G01 X250.000 Y434.343
G01 X259.044 Y434.102
G01 X268.065 Y433.417
G01 X277.040 Y432.290
G01 X285.948 Y430.724
G01 X294.768 Y428.723
G01 X303.478 Y426.292
G01 X312.057 Y423.437
G01 X320.485 Y420.165
G01 X328.741 Y416.484
G01 X336.806 Y412.402
G01 X344.660 Y407.930
G01 X352.284 Y403.079
G01 X359.660 Y397.860
G01 X366.771 Y392.286
G01 X373.599 Y386.370
G01 X380.127 Y380.127
G01 X386.341 Y373.572
G01 X392.225 Y366.721
G01 X397.765 Y359.590
G01 X402.948 Y352.197
G01 X407.761 Y344.558
G01 X412.194 Y336.694
G01 X416.234 Y328.623
G01 X419.874 Y320.364
G01 X423.103 Y311.937
G01 X425.915 Y303.363
G01 X428.302 Y294.662
G01 X430.260 Y285.856
G01 X431.782 Y276.965
G01 X432.867 Y268.011
G01 X433.511 Y259.015
G01 X433.712 Y250.000
G01 X433.471 Y240.987
G01 X432.788 Y231.997
G01 X431.665 Y223.053
G01 X430.105 Y214.175
G01 X428.111 Y205.386
G01 X425.688 Y196.706
G01 X422.843 Y188.156
G01 X419.582 Y179.757
G01 X415.913 Y171.529
G01 X411.846 Y163.492
G01 X407.389 Y155.665
G01 X402.554 Y148.067
G01 X397.353 Y140.716
G01 X391.798 Y133.629
G01 X385.902 Y126.825
G01 X379.681 Y120.319
G01 X373.148 Y114.127
G01 X366.320 Y108.263
G01 X359.214 Y102.742
G01 X351.846 Y97.577
G01 X344.234 Y92.780
G01 X336.397 Y88.363
G01 X328.353 Y84.336
G01 X320.122 Y80.710
G01 X311.725 Y77.491
G01 X303.180 Y74.689
G01 X294.509 Y72.310
G01 X285.733 Y70.360
G01 X276.872 Y68.842
G01 X267.949 Y67.762
G01 X258.984 Y67.120
G01 X250.000 Y66.919
G01 X241.018 Y67.159
G01 X232.059 Y67.840
G01 X223.145 Y68.959
G01 X214.298 Y70.514
G01 X205.539 Y72.502
G01 X196.889 Y74.916
G01 X188.368 Y77.751
G01 X179.998 Y81.001
G01 X171.799 Y84.657
G01 X163.789 Y88.711
G01 X155.989 Y93.152
G01 X148.417 Y97.971
G01 X141.092 Y103.154
G01 X134.030 Y108.690
G01 X127.249 Y114.565
G01 X120.766 Y120.766
G01 X114.595 Y127.276
G01 X108.751 Y134.080
G01 X103.249 Y141.162
G01 X98.102 Y148.505
G01 X93.322 Y156.091
G01 X88.920 Y163.901
G01 X84.907 Y171.917
G01 X81.293 Y180.119
G01 X78.086 Y188.488
G01 X75.293 Y197.003
G01 X72.923 Y205.644
G01 X70.979 Y214.390
G01 X69.467 Y223.220
G01 X68.390 Y232.113
G01 X67.751 Y241.047
G01 X67.551 Y250.000
G01 X67.790 Y258.951
G01 X68.468 Y267.879
G01 X69.584 Y276.762
G01 X71.134 Y285.579
G01 X73.114 Y294.308
G01 X75.520 Y302.928
G01 X78.346 Y311.419
G01 X81.584 Y319.760
G01 X85.228 Y327.931
G01 X89.268 Y335.913
G01 X93.694 Y343.686
G01 X98.496 Y351.232
G01 X103.661 Y358.532
G01 X109.178 Y365.570
G01 X115.033 Y372.327
G01 X121.212 Y378.788
G01 X127.700 Y384.938
G01 X134.481 Y390.761
G01 X141.538 Y396.244
G01 X148.856 Y401.373
G01 X156.415 Y406.137
G01 X164.199 Y410.523
G01 X172.187 Y414.522
G01 X180.361 Y418.124
G01 X188.701 Y421.320
G01 X197.187 Y424.102
G01 X205.798 Y426.465
G01 X214.514 Y428.402
G01 X223.313 Y429.909
G01 X232.175 Y430.982
G01 X241.078 Y431.619
G01 X250.000 Y431.818
G01 X258.920 Y431.579
G01 X267.817 Y430.903
G01 X276.670 Y429.792
G01 X285.456 Y428.247
G01 X294.154 Y426.274
G01 X302.745 Y423.876
G01 X311.206 Y421.060
G01 X319.518 Y417.832
G01 X327.661 Y414.201
G01 X335.615 Y410.175
G01 X343.362 Y405.765
G01 X350.881 Y400.979
G01 X358.156 Y395.832
G01 X365.169 Y390.334
G01 X371.903 Y384.499
G01 X378.342 Y378.342
G01 X384.470 Y371.876
G01 X390.273 Y365.119
G01 X395.737 Y358.086
G01 X400.848 Y350.794
G01 X405.595 Y343.260
G01 X409.967 Y335.504
G01 X413.951 Y327.543
G01 X417.541 Y319.398
G01 X420.725 Y311.087
G01 X423.498 Y302.630
G01 X425.853 Y294.049
G01 X427.783 Y285.363
G01 X429.284 Y276.594
G01 X430.354 Y267.763
G01 X430.988 Y258.891
G01 X431.187 Y250.000
G01 X430.949 Y241.111
G01 X430.275 Y232.244
G01 X429.167 Y223.423
G01 X427.628 Y214.668
G01 X425.661 Y205.999
G01 X423.272 Y197.439
G01 X420.465 Y189.007
G01 X417.249 Y180.723
G01 X413.630 Y172.609
G01 X409.619 Y164.682
G01 X405.223 Y156.963
G01 X400.455 Y149.469
G01 X395.325 Y142.220
G01 X389.846 Y135.231
G01 X384.031 Y128.521
G01 X377.895 Y122.105
G01 X371.452 Y115.998
G01 X364.718 Y110.215
G01 X357.710 Y104.770
G01 X350.443 Y99.677
G01 X342.936 Y94.946
G01 X335.206 Y90.590
G01 X327.273 Y86.619
G01 X319.156 Y83.043
G01 X310.874 Y79.869
G01 X302.447 Y77.106
G01 X293.895 Y74.760
G01 X285.240 Y72.836
G01 X276.502 Y71.340
G01 X267.701 Y70.275
G01 X258.860 Y69.642
G01 X250.000 Y69.444
G01 X241.142 Y69.682
G01 X232.306 Y70.353
G01 X223.516 Y71.457
G01 X214.791 Y72.991
G01 X206.153 Y74.951
G01 X197.622 Y77.332
G01 X189.219 Y80.129
G01 X180.965 Y83.334
G01 X172.878 Y86.940
G01 X164.980 Y90.938
G01 X157.287 Y95.318
G01 X149.820 Y100.070
G01 X142.596 Y105.182
G01 X135.632 Y110.642
G01 X128.945 Y116.436
G01 X122.551 Y122.551
G01 X116.466 Y128.972
G01 X110.703 Y135.682
G01 X105.277 Y142.666
G01 X100.202 Y149.908
G01 X95.488 Y157.389
G01 X91.147 Y165.091
G01 X87.190 Y172.997
G01 X83.626 Y181.086
G01 X80.463 Y189.339
G01 X77.710 Y197.736
G01 X75.372 Y206.258
G01 X73.456 Y214.883
G01 X71.965 Y223.591
G01 X70.903 Y232.360
G01 X70.273 Y241.171
G01 X70.076 Y250.000
G01 X70.312 Y258.827
G01 X70.981 Y267.632
G01 X72.082 Y276.392
G01 X73.610 Y285.086
G01 X75.564 Y293.694
G01 X77.937 Y302.195
G01 X80.723 Y310.568
G01 X83.917 Y318.794
G01 X87.511 Y326.852
G01 X91.495 Y334.723
G01 X95.860 Y342.388
G01 X100.595 Y349.829
G01 X105.689 Y357.028
G01 X111.130 Y363.968
G01 X116.904 Y370.631
G01 X122.998 Y377.002
G01 X129.395 Y383.067
G01 X136.083 Y388.809
G01 X143.043 Y394.215
G01 X150.259 Y399.273
G01 X157.713 Y403.971
G01 X165.389 Y408.296
G01 X173.266 Y412.239
G01 X181.327 Y415.791
G01 X189.552 Y418.942
G01 X197.920 Y421.686
G01 X206.411 Y424.015
G01 X215.006 Y425.925
G01 X223.684 Y427.411
G01 X232.422 Y428.469
G01 X241.202 Y429.097
G01 X250.000 Y429.293
G01 X258.797 Y429.057
G01 X267.570 Y428.390
G01 X276.299 Y427.294
G01 X284.963 Y425.770
G01 X293.541 Y423.824
G01 X302.012 Y421.459
G01 X310.355 Y418.682
G01 X318.552 Y415.499
G01 X326.582 Y411.918
G01 X334.425 Y407.948
G01 X342.063 Y403.599
G01 X349.478 Y398.880
G01 X356.652 Y393.803
G01 X363.567 Y388.382
G01 X370.207 Y382.628
G01 X376.556 Y376.556
G01 X382.599 Y370.181
G01 X388.321 Y363.517
G01 X393.708 Y356.581
G01 X398.749 Y349.391
G01 X403.429 Y341.962
G01 X407.739 Y334.314
G01 X411.669 Y326.464
G01 X415.208 Y318.431
G01 X418.348 Y310.236
G01 X421.082 Y301.897
G01 X423.403 Y293.435
G01 X425.306 Y284.871
G01 X426.786 Y276.224
G01 X427.841 Y267.516
G01 X428.466 Y258.767
G01 X428.662 Y250.000
G01 X428.427 Y241.234
G01 X427.762 Y232.492
G01 X426.669 Y223.794
G01 X425.151 Y215.160
G01 X423.212 Y206.613
G01 X420.855 Y198.172
G01 X418.088 Y189.857
G01 X414.916 Y181.690
G01 X411.348 Y173.688
G01 X407.391 Y165.872
G01 X403.057 Y158.261
G01 X398.355 Y150.872
G01 X393.296 Y143.724
G01 X387.894 Y136.833
G01 X382.160 Y130.217
G01 X376.110 Y123.890
G01 X369.757 Y117.869
G01 X363.116 Y112.167
G01 X356.205 Y106.799
G01 X349.040 Y101.776
G01 X341.637 Y97.112
G01 X334.016 Y92.817
G01 X326.194 Y88.902
G01 X318.190 Y85.376
G01 X310.023 Y82.247
G01 X301.714 Y79.522
G01 X293.282 Y77.209
G01 X284.747 Y75.313
G01 X276.131 Y73.838
G01 X267.454 Y72.788
G01 X258.737 Y72.164
G01 X250.000 Y71.970
G01 X241.265 Y72.204
G01 X232.554 Y72.866
G01 X223.886 Y73.955
G01 X215.283 Y75.468
G01 X206.766 Y77.401
G01 X198.355 Y79.749
G01 X190.070 Y82.507
G01 X181.931 Y85.667
G01 X173.958 Y89.223
G01 X166.170 Y93.165
G01 X158.586 Y97.484
G01 X151.223 Y102.170
G01 X144.100 Y107.211
G01 X137.234 Y112.594
G01 X130.641 Y118.308
G01 X124.337 Y124.337
G01 X118.337 Y130.667
G01 X112.655 Y137.284
G01 X107.306 Y144.171
G01 X102.301 Y151.311
G01 X97.654 Y158.687
G01 X93.374 Y166.282
G01 X89.473 Y174.076
G01 X85.959 Y182.052
G01 X82.841 Y190.190
G01 X80.126 Y198.469
G01 X77.822 Y206.872
G01 X75.932 Y215.376
G01 X74.463 Y223.961
G01 X73.416 Y232.608
G01 X72.795 Y241.294
G01 X72.601 Y250.000
G01 X72.834 Y258.704
G01 X73.495 Y267.384
G01 X74.580 Y276.021
G01 X76.087 Y284.593
G01 X78.013 Y293.080
G01 X80.353 Y301.462
G01 X83.101 Y309.717
G01 X86.251 Y317.827
G01 X89.794 Y325.772
G01 X93.722 Y333.532
G01 X98.026 Y341.090
G01 X102.695 Y348.426
G01 X107.718 Y355.524
G01 X113.082 Y362.366
G01 X118.775 Y368.935
G01 X124.783 Y375.217
G01 X131.091 Y381.195
G01 X137.685 Y386.857
G01 X144.547 Y392.187
G01 X151.662 Y397.174
G01 X159.012 Y401.805
G01 X166.579 Y406.069
G01 X174.346 Y409.957
G01 X182.294 Y413.458
G01 X190.402 Y416.565
G01 X198.653 Y419.269
G01 X207.025 Y421.566
G01 X215.499 Y423.449
G01 X224.054 Y424.913
G01 X232.670 Y425.956
G01 X241.325 Y426.574
G01 X250.000 Y426.768
G01 X258.673 Y426.535
G01 X267.322 Y425.877
G01 X275.929 Y424.796
G01 X284.470 Y423.294
G01 X292.927 Y421.374
G01 X301.279 Y419.043
G01 X309.505 Y416.305
G01 X317.586 Y413.166
G01 X325.502 Y409.636
G01 X333.235 Y405.721
G01 X340.765 Y401.433
G01 X348.075 Y396.780
G01 X355.148 Y391.775
G01 X361.965 Y386.430
G01 X368.511 Y380.757
G01 X374.770 Y374.770
G01 X380.728 Y368.485
G01 X386.369 Y361.915
G01 X391.680 Y355.077
G01 X396.649 Y347.988
G01 X401.263 Y340.664
G01 X405.512 Y333.123
G01 X409.386 Y325.384
G01 X412.875 Y317.465
G01 X415.970 Y309.385
G01 X418.665 Y301.164
G01 X420.953 Y292.822
G01 X422.829 Y284.378
G01 X424.288 Y275.853
G01 X425.327 Y267.268
G01 X425.944 Y258.644
G01 X426.136 Y250.000
G01 X425.904 Y241.358
G01 X425.249 Y232.739
G01 X424.171 Y224.164
G01 X422.675 Y215.653
G01 X420.762 Y207.226
G01 X418.439 Y198.905
G01 X415.710 Y190.708
G01 X412.583 Y182.656
G01 X409.065 Y174.768
G01 X405.164 Y167.063
G01 X400.891 Y159.559
G01 X396.255 Y152.275
G01 X391.268 Y145.228
G01 X385.942 Y138.435
G01 X380.289 Y131.913
G01 X374.324 Y125.676
G01 X368.061 Y119.740
G01 X361.514 Y114.119
G01 X354.701 Y108.827
G01 X347.637 Y103.876
G01 X340.339 Y99.278
G01 X332.826 Y95.044
G01 X325.114 Y91.185
G01 X317.223 Y87.709
G01 X309.172 Y84.624
G01 X300.981 Y81.939
G01 X292.668 Y79.659
G01 X284.255 Y77.790
G01 X275.761 Y76.336
G01 X267.206 Y75.301
G01 X258.613 Y74.687
G01 X250.000 Y74.495
G01 X241.389 Y74.726
G01 X232.801 Y75.379
G01 X224.257 Y76.453
G01 X215.776 Y77.945
G01 X207.380 Y79.850
G01 X199.088 Y82.165
G01 X190.921 Y84.884
G01 X182.898 Y88.000
G01 X175.038 Y91.506
G01 X167.360 Y95.392
G01 X159.884 Y99.650
G01 X152.626 Y104.270
G01 X145.605 Y109.239
G01 X138.836 Y114.546
G01 X132.337 Y120.179
G01 X126.122 Y126.122
G01 X120.208 Y132.363
G01 X114.607 Y138.886
G01 X109.334 Y145.675
G01 X104.401 Y152.714
G01 X99.820 Y159.985
G01 X95.601 Y167.472
G01 X91.756 Y175.156
G01 X88.292 Y183.018
G01 X85.219 Y191.040
G01 X82.543 Y199.202
G01 X80.271 Y207.485
G01 X78.409 Y215.868
G01 X76.960 Y224.332
G01 X75.929 Y232.856
G01 X75.317 Y241.418
G01 X75.126 Y250.000
G01 X75.357 Y258.580
G01 X76.008 Y267.137
G01 X77.078 Y275.651
G01 X78.564 Y284.101
G01 X80.463 Y292.467
G01 X82.770 Y300.729
G01 X85.479 Y308.867
G01 X88.584 Y316.861
G01 X92.077 Y324.692
G01 X95.949 Y332.342
G01 X100.192 Y339.792
G01 X104.795 Y347.023
G01 X109.746 Y354.019
G01 X115.034 Y360.764
G01 X120.646 Y367.239
G01 X126.569 Y373.431
G01 X132.787 Y379.324
G01 X139.287 Y384.905
G01 X146.051 Y390.159
G01 X153.065 Y395.074
G01 X160.310 Y399.639
G01 X167.770 Y403.842
G01 X175.426 Y407.674
G01 X183.260 Y411.125
G01 X191.253 Y414.187
G01 X199.386 Y416.853
G01 X207.639 Y419.116
G01 X215.992 Y420.972
G01 X224.425 Y422.415
G01 X232.917 Y423.443
G01 X241.449 Y424.052
G01 X250.000 Y424.242
G01 X258.549 Y424.013
G01 X267.075 Y423.364
G01 X275.558 Y422.298
G01 X283.978 Y420.817
G01 X292.313 Y418.925
G01 X300.546 Y416.626
G01 X308.654 Y413.927
G01 X316.619 Y410.833
G01 X324.422 Y407.353
G01 X332.044 Y403.494
G01 X339.467 Y399.267
G01 X346.672 Y394.680
G01 X353.643 Y389.747
G01 X360.363 Y384.478
G01 X366.815 Y378.886
G01 X372.985 Y372.985
G01 X378.857 Y366.789
G01 X384.417 Y360.313
G01 X389.652 Y353.573
G01 X394.549 Y346.585
G01 X399.097 Y339.366
G01 X403.285 Y331.933
G01 X407.103 Y324.304
G01 X410.542 Y316.498
G01 X413.593 Y308.534
G01 X416.249 Y300.431
G01 X418.504 Y292.208
G01 X420.353 Y283.885
G01 X421.791 Y275.483
G01 X422.814 Y267.021
G01 X423.422 Y258.520
G01 X423.611 Y250.000
G01 X423.382 Y241.482
G01 X422.736 Y232.987
G01 X421.673 Y224.535
G01 X420.198 Y216.146
G01 X418.313 Y207.840
G01 X416.022 Y199.638
G01 X413.332 Y191.559
G01 X410.250 Y183.622
G01 X406.782 Y175.848
G01 X402.937 Y168.253
G01 X398.725 Y160.858
G01 X394.156 Y153.678
G01 X389.240 Y146.733
G01 X383.990 Y140.037
G01 X378.418 Y133.609
G01 X372.538 Y127.462
G01 X366.365 Y121.611
G01 X359.912 Y116.071
G01 X353.197 Y110.855
G01 X346.234 Y105.976
G01 X339.041 Y101.444
G01 X331.635 Y97.271
G01 X324.034 Y93.468
G01 X316.257 Y90.042
G01 X308.322 Y87.002
G01 X300.248 Y84.355
G01 X292.055 Y82.109
G01 X283.762 Y80.267
G01 X275.390 Y78.834
G01 X266.959 Y77.814
G01 X258.489 Y77.209
G01 X250.000 Y77.020
G01 X241.513 Y77.248
G01 X233.049 Y77.892
G01 X224.627 Y78.951
G01 X216.269 Y80.421
G01 X207.993 Y82.300
G01 X199.821 Y84.582
G01 X191.771 Y87.262
G01 X183.864 Y90.333
G01 X176.118 Y93.789
G01 X168.551 Y97.619
G01 X161.182 Y101.816
G01 X154.029 Y106.369
G01 X147.109 Y111.267
G01 X140.438 Y116.498
G01 X134.033 Y122.050
G01 X127.908 Y127.908
G01 X122.079 Y134.059
G01 X116.559 Y140.488
G01 X111.362 Y147.179
G01 X106.501 Y154.117
G01 X101.986 Y161.284
G01 X97.828 Y168.662
G01 X94.038 Y176.236
G01 X90.625 Y183.985
G01 X87.596 Y191.891
G01 X84.960 Y199.936
G01 X82.721 Y208.099
G01 X80.886 Y216.361
G01 X79.458 Y224.703
G01 X78.442 Y233.103
G01 X77.839 Y241.542
G01 X77.652 Y250.000
G01 X77.879 Y258.456
G01 X78.521 Y266.889
G01 X79.575 Y275.280
G01 X81.041 Y283.608
G01 X82.912 Y291.853
G01 X85.186 Y299.996
G01 X87.856 Y308.016
G01 X90.917 Y315.895
G01 X94.359 Y323.613
G01 X98.176 Y331.152
G01 X102.358 Y338.493
G01 X106.894 Y345.620
G01 X111.774 Y352.515
G01 X116.986 Y359.162
G01 X122.517 Y365.543
G01 X128.354 Y371.646
G01 X134.483 Y377.453
G01 X140.889 Y382.953
G01 X147.555 Y388.131
G01 X154.468 Y392.974
G01 X161.608 Y397.473
G01 X168.960 Y401.615
G01 X176.506 Y405.391
G01 X184.226 Y408.792
G01 X192.104 Y411.809
G01 X200.119 Y414.436
G01 X208.252 Y416.667
G01 X216.484 Y418.495
G01 X224.795 Y419.917
G01 X233.165 Y420.930
G01 X241.573 Y421.530
G01 X250.000 Y421.717
G01 X258.425 Y421.491
G01 X266.827 Y420.851
G01 X275.187 Y419.800
G01 X283.485 Y418.340
G01 X291.700 Y416.475
G01 X299.813 Y414.210
G01 X307.803 Y411.549
G01 X315.653 Y408.500
G01 X323.343 Y405.070
G01 X330.854 Y401.267
G01 X338.169 Y397.101
G01 X345.269 Y392.581
G01 X352.139 Y387.719
G01 X358.761 Y382.526
G01 X365.119 Y377.015
G01 X371.199 Y371.199
G01 X376.986 Y365.093
G01 X382.465 Y358.711
G01 X387.623 Y352.069
G01 X392.450 Y345.182
G01 X396.931 Y338.067
G01 X401.058 Y330.742
G01 X404.820 Y323.225
G01 X408.209 Y315.532
G01 X411.215 Y307.684
G01 X413.832 Y299.698
G01 X416.054 Y291.594
G01 X417.876 Y283.393
G01 X419.293 Y275.112
G01 X420.301 Y266.773
G01 X420.899 Y258.396
G01 X421.086 Y250.000
G01 X420.860 Y241.606
G01 X420.223 Y233.235
G01 X419.176 Y224.905
G01 X417.721 Y216.638
G01 X415.863 Y208.453
G01 X413.606 Y200.371
G01 X410.955 Y192.409
G01 X407.917 Y184.589
G01 X404.499 Y176.927
G01 X400.710 Y169.444
G01 X396.559 Y162.156
G01 X392.056 Y155.081
G01 X387.211 Y148.237
G01 X382.038 Y141.639
G01 X376.547 Y135.304
G01 X370.753 Y129.247
G01 X364.669 Y123.482
G01 X358.310 Y118.023
G01 X351.692 Y112.884
G01 X344.831 Y108.075
G01 X337.743 Y103.610
G01 X330.445 Y99.499
G01 X322.955 Y95.750
G01 X315.291 Y92.375
G01 X307.471 Y89.380
G01 X299.515 Y86.772
G01 X291.441 Y84.558
G01 X283.269 Y82.743
G01 X275.020 Y81.332
G01 X266.711 Y80.327
G01 X258.365 Y79.731
G01 X250.000 Y79.545
G01 X241.637 Y79.770
G01 X233.296 Y80.406
G01 X224.998 Y81.449
G01 X216.761 Y82.898
G01 X208.607 Y84.749
G01 X200.554 Y86.998
G01 X192.622 Y89.640
G01 X184.830 Y92.666
G01 X177.197 Y96.071
G01 X169.741 Y99.847
G01 X162.480 Y103.982
G01 X155.432 Y108.469
G01 X148.613 Y113.296
G01 X142.040 Y118.450
G01 X135.728 Y123.921
G01 X129.694 Y129.694
G01 X123.950 Y135.755
G01 X118.511 Y142.090
G01 X113.391 Y148.684
G01 X108.600 Y155.520
G01 X104.152 Y162.582
G01 X100.055 Y169.853
G01 X96.321 Y177.315
G01 X92.958 Y184.951
G01 X89.974 Y192.742
G01 X87.376 Y200.669
G01 X85.170 Y208.712
G01 X83.362 Y216.854
G01 X81.956 Y225.073
G01 X80.955 Y233.351
G01 X80.362 Y241.666
G01 X80.177 Y250.000
G01 X80.401 Y258.332
G01 X81.034 Y266.642
G01 X82.073 Y274.910
G01 X83.517 Y283.115
G01 X85.362 Y291.240
G01 X87.603 Y299.263
G01 X90.234 Y307.165
G01 X93.250 Y314.928
G01 X96.642 Y322.533
G01 X100.403 Y329.961
G01 X104.524 Y337.195
G01 X108.994 Y344.217
G01 X113.803 Y351.011
G01 X118.938 Y357.559
G01 X124.389 Y363.848
G01 X130.140 Y369.860
G01 X136.179 Y375.582
G01 X142.491 Y381.001
G01 X149.060 Y386.102
G01 X155.870 Y390.875
G01 X162.906 Y395.307
G01 X170.150 Y399.388
G01 X177.585 Y403.108
G01 X185.193 Y406.459
G01 X192.954 Y409.432
G01 X200.852 Y412.020
G01 X208.866 Y414.217
G01 X216.977 Y416.018
G01 X225.166 Y417.419
G01 X233.412 Y418.416
G01 X241.697 Y419.008
G01 X250.000 Y419.192
G01 X258.301 Y418.968
G01 X266.580 Y418.338
G01 X274.817 Y417.302
G01 X282.992 Y415.864
G01 X291.086 Y414.026
G01 X299.079 Y411.793
G01 X306.953 Y409.172
G01 X314.687 Y406.167
G01 X322.263 Y402.787
G01 X329.664 Y399.040
G01 X336.870 Y394.935
G01 X343.866 Y390.481
G01 X350.635 Y385.690
G01 X357.159 Y380.574
G01 X363.424 Y375.144
G01 X369.414 Y369.414
G01 X375.114 Y363.397
G01 X380.513 Y357.109
G01 X385.595 Y350.564
G01 X390.350 Y343.779
G01 X394.765 Y336.769
G01 X398.831 Y329.552
G01 X402.537 Y322.145
G01 X405.876 Y314.566
G01 X408.837 Y306.833
G01 X411.416 Y298.965
G01 X413.605 Y290.981
G01 X415.399 Y282.900
G01 X416.795 Y274.742
G01 X417.788 Y266.526
G01 X418.377 Y258.272
G01 X418.561 Y250.000
G01 X418.338 Y241.730
G01 X417.710 Y233.482
G01 X416.678 Y225.276
G01 X415.244 Y217.131
G01 X413.413 Y209.067
G01 X411.189 Y201.104
G01 X408.577 Y193.260
G01 X405.584 Y185.555
G01 X402.216 Y178.007
G01 X398.483 Y170.634
G01 X394.393 Y163.454
G01 X389.956 Y156.484
G01 X385.183 Y149.741
G01 X380.086 Y143.242
G01 X374.676 Y137.000
G01 X368.967 Y131.033
G01 X362.973 Y125.353
G01 X356.708 Y119.975
G01 X350.188 Y114.912
G01 X343.428 Y110.175
G01 X336.444 Y105.776
G01 X329.254 Y101.726
G01 X321.875 Y98.033
G01 X314.324 Y94.708
G01 X306.620 Y91.757
G01 X298.782 Y89.188
G01 X290.827 Y87.008
G01 X282.777 Y85.220
G01 X274.649 Y83.830
G01 X266.464 Y82.840
G01 X258.241 Y82.253
G01 X250.000 Y82.071
G01 X241.761 Y82.293
G01 X233.544 Y82.919
G01 X225.368 Y83.947
G01 X217.254 Y85.375
G01 X209.220 Y87.199
G01 X201.287 Y89.415
G01 X193.473 Y92.017
G01 X185.797 Y94.999
G01 X178.277 Y98.354
G01 X170.932 Y102.074
G01 X163.779 Y106.148
G01 X156.835 Y110.569
G01 X150.117 Y115.324
G01 X143.642 Y120.402
G01 X137.424 Y125.792
G01 X131.479 Y131.479
G01 X125.821 Y137.451
G01 X120.463 Y143.692
G01 X115.419 Y150.188
G01 X110.700 Y156.923
G01 X106.318 Y163.880
G01 X102.282 Y171.043
G01 X98.604 Y178.395
G01 X95.291 Y185.917
G01 X92.352 Y193.592
G01 X89.793 Y201.402
G01 X87.620 Y209.326
G01 X85.839 Y217.346
G01 X84.454 Y225.444
G01 X83.468 Y233.598
G01 X82.884 Y241.790
G01 X82.702 Y250.000
G01 X82.923 Y258.208
G01 X83.547 Y266.394
G01 X84.571 Y274.539
G01 X85.994 Y282.623
G01 X87.811 Y290.626
G01 X90.019 Y298.530
G01 X92.612 Y306.314
G01 X95.583 Y313.962
G01 X98.925 Y321.453
G01 X102.630 Y328.771
G01 X106.690 Y335.897
G01 X111.094 Y342.814
G01 X115.831 Y349.507
G01 X120.890 Y355.957
G01 X126.260 Y362.152
G01 X131.926 Y368.074
G01 X137.875 Y373.711
G01 X144.093 Y379.049
G01 X150.564 Y384.074
G01 X157.273 Y388.775
G01 X164.205 Y393.141
G01 X171.341 Y397.161
G01 X178.665 Y400.825
G01 X186.159 Y404.126
G01 X193.805 Y407.054
G01 X201.585 Y409.603
G01 X209.479 Y411.768
G01 X217.470 Y413.542
G01 X225.536 Y414.921
G01 X233.660 Y415.903
G01 X241.821 Y416.486
