;  Created by Sandify
;  https://sandify.org
;  Version: 0.2.6
;
;  Machine type: Rectangular
;    Min X (mm): 0
;    Max X (mm): 500
;    Min Y (mm): 0
;    Max Y (mm): 500
;  Content type: shape
;  Layer:
;    Shape: FileImport
;    Name: BunchOfValentines.thr
;    From file:: BunchOfValentines.thr
;    Aspect Ratio: true
;    Comments: 
;    Visible: true
;    Initial width: 10
;    Initial height: 10
;    X offset: 0
;    Y offset: 0
;    Rotate (degrees): 0
;    Reverse path: false
;    Fine tuning:
;      Connect to next layer: line
;      Draw portion of path (%): 100
;      Backtrack at end (%): 0
;      Rotate starting point (%): 0
;  Reverse export path: false
;
; File name: 'Bunch of Valentines (E) (C S)'
; File type: gcode
;

G01 X250.000 Y250.000
G01 X250.001 Y250.019
G01 X250.004 Y250.039
G01 X250.009 Y250.058
G01 X250.015 Y250.076
G01 X250.024 Y250.094
G01 X250.034 Y250.112
G01 X250.046 Y250.128
G01 X250.060 Y250.144
G01 X250.075 Y250.158
G01 X250.092 Y250.172
G01 X250.110 Y250.184
G01 X250.130 Y250.194
G01 X250.151 Y250.203
G01 X250.173 Y250.210
G01 X250.196 Y250.216
G01 X250.220 Y250.220
G01 X250.245 Y250.222
G01 X250.271 Y250.222
G01 X250.297 Y250.220
G01 X250.323 Y250.216
G01 X250.350 Y250.210
G01 X250.377 Y250.202
G01 X250.404 Y250.191
G01 X250.431 Y250.179
G01 X250.458 Y250.164
G01 X250.484 Y250.147
G01 X250.509 Y250.128
G01 X250.534 Y250.106
G01 X250.558 Y250.083
G01 X250.581 Y250.057
G01 X250.602 Y250.030
G01 X250.622 Y250.000
G01 X250.641 Y249.969
G01 X250.658 Y249.935
G01 X250.673 Y249.900
G01 X250.687 Y249.863
G01 X250.698 Y249.825
G01 X250.707 Y249.785
G01 X250.714 Y249.744
G01 X250.719 Y249.702
G01 X250.721 Y249.659
G01 X250.720 Y249.615
G01 X250.717 Y249.570
G01 X250.712 Y249.525
G01 X250.703 Y249.479
G01 X250.692 Y249.432
G01 X250.677 Y249.386
G01 X250.660 Y249.340
G01 X250.640 Y249.294
G01 X250.617 Y249.248
G01 X250.591 Y249.203
G01 X250.562 Y249.159
G01 X250.530 Y249.116
G01 X250.495 Y249.074
G01 X250.457 Y249.033
G01 X250.417 Y248.994
G01 X250.373 Y248.956
G01 X250.327 Y248.920
G01 X250.279 Y248.887
G01 X250.228 Y248.855
G01 X250.174 Y248.826
G01 X250.118 Y248.800
G01 X250.060 Y248.776
G01 X250.000 Y248.755
G01 X249.938 Y248.737
G01 X249.874 Y248.722
G01 X249.809 Y248.711
G01 X249.742 Y248.703
G01 X249.674 Y248.698
G01 X249.605 Y248.697
G01 X249.535 Y248.700
G01 X249.464 Y248.706
G01 X249.393 Y248.716
G01 X249.322 Y248.731
G01 X249.250 Y248.749
G01 X249.179 Y248.771
G01 X249.108 Y248.797
G01 X249.038 Y248.827
G01 X248.968 Y248.861
G01 X248.900 Y248.900
G01 X248.833 Y248.942
G01 X248.767 Y248.988
G01 X248.703 Y249.038
G01 X248.642 Y249.092
G01 X248.582 Y249.150
G01 X248.525 Y249.211
G01 X248.470 Y249.277
G01 X248.419 Y249.345
G01 X248.370 Y249.417
G01 X248.325 Y249.492
G01 X248.283 Y249.570
G01 X248.245 Y249.651
G01 X248.211 Y249.735
G01 X248.180 Y249.821
G01 X248.154 Y249.909
G01 X248.133 Y250.000
G01 X248.116 Y250.093
G01 X248.103 Y250.187
G01 X248.095 Y250.283
G01 X248.092 Y250.379
G01 X248.094 Y250.477
G01 X248.102 Y250.576
G01 X248.114 Y250.675
G01 X248.131 Y250.774
G01 X248.154 Y250.873
G01 X248.182 Y250.972
G01 X248.215 Y251.070
G01 X248.253 Y251.167
G01 X248.297 Y251.263
G01 X248.346 Y251.357
G01 X248.400 Y251.450
G01 X248.460 Y251.540
G01 X248.524 Y251.629
G01 X248.593 Y251.714
G01 X248.668 Y251.797
G01 X248.747 Y251.876
G01 X248.830 Y251.952
G01 X248.918 Y252.024
G01 X249.010 Y252.092
G01 X249.107 Y252.156
G01 X249.207 Y252.216
G01 X249.311 Y252.271
G01 X249.419 Y252.321
G01 X249.529 Y252.365
G01 X249.643 Y252.405
G01 X249.760 Y252.439
G01 X249.879 Y252.467
G01 X250.000 Y252.490
G01 X250.123 Y252.506
G01 X250.248 Y252.516
G01 X250.374 Y252.520
G01 X250.501 Y252.518
G01 X250.629 Y252.509
G01 X250.757 Y252.494
G01 X250.885 Y252.472
G01 X251.012 Y252.444
G01 X251.139 Y252.409
G01 X251.265 Y252.367
G01 X251.390 Y252.319
G01 X251.513 Y252.264
G01 X251.634 Y252.203
G01 X251.752 Y252.135
G01 X251.868 Y252.061
G01 X251.980 Y251.980
G01 X252.090 Y251.894
G01 X252.195 Y251.802
G01 X252.297 Y251.703
G01 X252.393 Y251.599
G01 X252.486 Y251.490
G01 X252.573 Y251.375
G01 X252.655 Y251.256
G01 X252.731 Y251.131
G01 X252.802 Y251.003
G01 X252.866 Y250.869
G01 X252.924 Y250.733
G01 X252.976 Y250.592
G01 X253.021 Y250.448
G01 X253.058 Y250.301
G01 X253.089 Y250.152
G01 X253.112 Y250.000
G01 X253.128 Y249.846
G01 X253.136 Y249.691
G01 X253.136 Y249.535
G01 X253.129 Y249.378
G01 X253.113 Y249.220
G01 X253.090 Y249.063
G01 X253.058 Y248.906
G01 X253.019 Y248.750
G01 X252.971 Y248.595
G01 X252.916 Y248.441
G01 X252.853 Y248.290
G01 X252.782 Y248.141
G01 X252.703 Y247.996
G01 X252.616 Y247.853
G01 X252.522 Y247.714
G01 X252.421 Y247.579
G01 X252.312 Y247.449
G01 X252.196 Y247.324
G01 X252.074 Y247.204
G01 X251.945 Y247.089
G01 X251.810 Y246.980
G01 X251.669 Y246.878
G01 X251.522 Y246.782
G01 X251.370 Y246.694
G01 X251.212 Y246.612
G01 X251.050 Y246.538
G01 X250.884 Y246.472
G01 X250.713 Y246.414
G01 X250.539 Y246.364
G01 X250.362 Y246.322
G01 X250.182 Y246.289
G01 X250.000 Y246.266
G01 X249.816 Y246.251
G01 X249.630 Y246.245
G01 X249.443 Y246.248
G01 X249.256 Y246.261
G01 X249.069 Y246.283
G01 X248.882 Y246.315
G01 X248.696 Y246.356
G01 X248.511 Y246.406
G01 X248.328 Y246.466
G01 X248.148 Y246.535
G01 X247.970 Y246.613
G01 X247.796 Y246.701
G01 X247.625 Y246.797
G01 X247.458 Y246.903
G01 X247.296 Y247.017
G01 X247.139 Y247.139
G01 X246.988 Y247.270
G01 X246.843 Y247.409
G01 X246.704 Y247.555
G01 X246.571 Y247.709
G01 X246.447 Y247.870
G01 X246.329 Y248.038
G01 X246.220 Y248.212
G01 X246.119 Y248.392
G01 X246.026 Y248.578
G01 X245.942 Y248.769
G01 X245.868 Y248.965
G01 X245.803 Y249.165
G01 X245.748 Y249.369
G01 X245.703 Y249.577
G01 X245.668 Y249.787
G01 X245.643 Y250.000
G01 X245.629 Y250.215
G01 X245.625 Y250.431
G01 X245.633 Y250.648
G01 X245.651 Y250.865
G01 X245.679 Y251.082
G01 X245.719 Y251.299
G01 X245.770 Y251.514
G01 X245.831 Y251.727
G01 X245.903 Y251.938
G01 X245.986 Y252.145
G01 X246.079 Y252.350
G01 X246.183 Y252.550
G01 X246.297 Y252.746
G01 X246.422 Y252.937
G01 X246.556 Y253.122
G01 X246.699 Y253.301
G01 X246.852 Y253.473
G01 X247.014 Y253.639
G01 X247.184 Y253.796
G01 X247.363 Y253.946
G01 X247.550 Y254.087
G01 X247.744 Y254.220
G01 X247.946 Y254.343
G01 X248.154 Y254.456
G01 X248.368 Y254.560
G01 X248.588 Y254.653
G01 X248.814 Y254.736
G01 X249.044 Y254.807
G01 X249.278 Y254.868
G01 X249.516 Y254.917
G01 X249.757 Y254.954
G01 X250.000 Y254.979
G01 X250.245 Y254.993
G01 X250.492 Y254.994
G01 X250.739 Y254.983
G01 X250.987 Y254.960
G01 X251.233 Y254.924
G01 X251.479 Y254.877
G01 X251.723 Y254.816
G01 X251.965 Y254.744
G01 X252.204 Y254.659
G01 X252.439 Y254.563
G01 X252.670 Y254.454
G01 X252.896 Y254.334
G01 X253.117 Y254.202
G01 X253.332 Y254.060
G01 X253.540 Y253.906
G01 X253.741 Y253.741
G01 X253.934 Y253.566
G01 X254.120 Y253.381
G01 X254.296 Y253.186
G01 X254.464 Y252.982
G01 X254.621 Y252.770
G01 X254.769 Y252.549
G01 X254.906 Y252.320
G01 X255.032 Y252.084
G01 X255.146 Y251.841
G01 X255.249 Y251.592
G01 X255.339 Y251.337
G01 X255.418 Y251.078
G01 X255.483 Y250.813
G01 X255.536 Y250.545
G01 X255.575 Y250.274
G01 X255.602 Y250.000
G01 X255.614 Y249.724
G01 X255.613 Y249.447
G01 X255.599 Y249.170
G01 X255.570 Y248.892
G01 X255.528 Y248.615
G01 X255.472 Y248.340
G01 X255.402 Y248.067
G01 X255.319 Y247.797
G01 X255.222 Y247.530
G01 X255.112 Y247.268
G01 X254.988 Y247.010
G01 X254.852 Y246.758
G01 X254.702 Y246.512
G01 X254.541 Y246.274
G01 X254.367 Y246.042
G01 X254.181 Y245.819
G01 X253.984 Y245.604
G01 X253.776 Y245.399
G01 X253.557 Y245.204
G01 X253.328 Y245.019
G01 X253.090 Y244.845
G01 X252.842 Y244.682
G01 X252.586 Y244.532
G01 X252.322 Y244.393
G01 X252.051 Y244.268
G01 X251.773 Y244.156
G01 X251.489 Y244.057
G01 X251.199 Y243.972
G01 X250.905 Y243.901
G01 X250.606 Y243.845
G01 X250.304 Y243.803
G01 X250.000 Y243.776
G01 X249.694 Y243.764
G01 X249.386 Y243.767
G01 X249.078 Y243.786
G01 X248.771 Y243.819
G01 X248.464 Y243.868
G01 X248.159 Y243.932
G01 X247.857 Y244.012
G01 X247.559 Y244.106
G01 X247.264 Y244.215
G01 X246.974 Y244.339
G01 X246.690 Y244.478
G01 X246.412 Y244.631
G01 X246.142 Y244.798
G01 X245.879 Y244.978
G01 X245.624 Y245.172
G01 X245.379 Y245.379
G01 X245.143 Y245.598
G01 X244.918 Y245.829
G01 X244.704 Y246.072
G01 X244.501 Y246.326
G01 X244.311 Y246.590
G01 X244.133 Y246.864
G01 X243.969 Y247.148
G01 X243.818 Y247.440
G01 X243.682 Y247.739
G01 X243.560 Y248.046
G01 X243.453 Y248.360
G01 X243.361 Y248.679
G01 X243.285 Y249.004
G01 X243.225 Y249.333
G01 X243.181 Y249.665
G01 X243.154 Y250.000
G01 X243.142 Y250.337
G01 X243.148 Y250.675
G01 X243.170 Y251.013
G01 X243.209 Y251.351
G01 X243.264 Y251.687
G01 X243.337 Y252.021
G01 X243.426 Y252.352
G01 X243.531 Y252.680
G01 X243.653 Y253.002
G01 X243.790 Y253.319
G01 X243.944 Y253.630
G01 X244.113 Y253.933
G01 X244.298 Y254.229
G01 X244.497 Y254.516
G01 X244.711 Y254.794
G01 X244.939 Y255.061
G01 X245.180 Y255.318
G01 X245.435 Y255.563
G01 X245.701 Y255.796
G01 X245.980 Y256.016
G01 X246.270 Y256.223
G01 X246.571 Y256.415
G01 X246.881 Y256.594
G01 X247.201 Y256.757
G01 X247.530 Y256.904
G01 X247.866 Y257.036
G01 X248.209 Y257.151
G01 X248.558 Y257.249
G01 X248.913 Y257.330
G01 X249.272 Y257.394
G01 X249.634 Y257.440
G01 X250.000 Y257.469
G01 X250.367 Y257.479
G01 X250.736 Y257.472
G01 X251.104 Y257.446
G01 X251.472 Y257.402
G01 X251.838 Y257.339
G01 X252.202 Y257.259
G01 X252.562 Y257.160
G01 X252.918 Y257.044
G01 X253.268 Y256.910
G01 X253.612 Y256.758
G01 X253.950 Y256.590
G01 X254.279 Y256.404
G01 X254.600 Y256.202
G01 X254.911 Y255.984
G01 X255.212 Y255.750
G01 X255.501 Y255.501
G01 X255.779 Y255.238
G01 X256.044 Y254.960
G01 X256.296 Y254.669
G01 X256.534 Y254.366
G01 X256.757 Y254.050
G01 X256.964 Y253.723
G01 X257.156 Y253.385
G01 X257.332 Y253.037
G01 X257.490 Y252.680
G01 X257.631 Y252.315
G01 X257.754 Y251.942
G01 X257.860 Y251.563
G01 X257.946 Y251.179
G01 X258.014 Y250.789
G01 X258.062 Y250.396
G01 X258.091 Y250.000
G01 X258.101 Y249.602
G01 X258.091 Y249.203
G01 X258.061 Y248.804
G01 X258.012 Y248.406
G01 X257.943 Y248.010
G01 X257.855 Y247.617
G01 X257.746 Y247.228
G01 X257.619 Y246.844
G01 X257.473 Y246.466
G01 X257.307 Y246.094
G01 X257.124 Y245.730
G01 X256.922 Y245.375
G01 X256.702 Y245.029
G01 X256.465 Y244.694
G01 X256.211 Y244.370
G01 X255.941 Y244.059
G01 X255.656 Y243.760
G01 X255.355 Y243.475
G01 X255.040 Y243.204
G01 X254.711 Y242.949
G01 X254.370 Y242.710
G01 X254.016 Y242.487
G01 X253.651 Y242.281
G01 X253.275 Y242.093
G01 X252.890 Y241.924
G01 X252.496 Y241.773
G01 X252.094 Y241.642
G01 X251.685 Y241.530
G01 X251.270 Y241.438
G01 X250.850 Y241.367
G01 X250.427 Y241.316
G01 X250.000 Y241.286
G01 X249.571 Y241.277
G01 X249.142 Y241.290
G01 X248.713 Y241.323
G01 X248.285 Y241.377
G01 X247.859 Y241.453
G01 X247.437 Y241.550
G01 X247.019 Y241.667
G01 X246.606 Y241.806
G01 X246.200 Y241.965
G01 X245.801 Y242.144
G01 X245.410 Y242.343
G01 X245.029 Y242.561
G01 X244.659 Y242.798
G01 X244.299 Y243.054
G01 X243.952 Y243.327
G01 X243.618 Y243.618
G01 X243.299 Y243.926
G01 X242.994 Y244.250
G01 X242.704 Y244.589
G01 X242.431 Y244.943
G01 X242.176 Y245.310
G01 X241.938 Y245.691
G01 X241.719 Y246.083
G01 X241.518 Y246.487
G01 X241.338 Y246.901
G01 X241.178 Y247.324
G01 X241.038 Y247.755
G01 X240.920 Y248.194
G01 X240.823 Y248.639
G01 X240.748 Y249.089
G01 X240.695 Y249.543
G01 X240.664 Y250.000
G01 X240.656 Y250.459
G01 X240.670 Y250.919
G01 X240.707 Y251.378
G01 X240.767 Y251.837
G01 X240.849 Y252.292
G01 X240.954 Y252.744
G01 X241.081 Y253.191
G01 X241.231 Y253.632
G01 X241.402 Y254.067
G01 X241.595 Y254.493
G01 X241.809 Y254.910
G01 X242.043 Y255.317
G01 X242.298 Y255.712
G01 X242.573 Y256.096
G01 X242.866 Y256.466
G01 X243.178 Y256.822
G01 X243.508 Y257.163
G01 X243.855 Y257.488
G01 X244.218 Y257.796
G01 X244.597 Y258.086
G01 X244.990 Y258.358
G01 X245.397 Y258.611
G01 X245.817 Y258.844
G01 X246.249 Y259.057
G01 X246.691 Y259.248
G01 X247.143 Y259.418
G01 X247.604 Y259.566
G01 X248.072 Y259.691
G01 X248.547 Y259.793
G01 X249.028 Y259.872
G01 X249.512 Y259.927
G01 X250.000 Y259.959
G01 X250.490 Y259.966
G01 X250.980 Y259.949
G01 X251.470 Y259.908
G01 X251.958 Y259.843
G01 X252.443 Y259.754
G01 X252.925 Y259.641
G01 X253.401 Y259.505
G01 X253.871 Y259.344
G01 X254.333 Y259.161
G01 X254.786 Y258.954
G01 X255.230 Y258.725
G01 X255.662 Y258.474
G01 X256.083 Y258.202
G01 X256.490 Y257.909
G01 X256.884 Y257.595
G01 X257.262 Y257.262
G01 X257.624 Y256.910
G01 X257.969 Y256.540
G01 X258.296 Y256.152
G01 X258.604 Y255.749
G01 X258.892 Y255.330
G01 X259.160 Y254.896
G01 X259.407 Y254.449
G01 X259.632 Y253.990
G01 X259.834 Y253.519
G01 X260.014 Y253.038
G01 X260.169 Y252.547
G01 X260.301 Y252.049
G01 X260.409 Y251.544
G01 X260.491 Y251.033
G01 X260.549 Y250.518
G01 X260.581 Y250.000
G01 X260.588 Y249.480
G01 X260.569 Y248.959
G01 X260.524 Y248.439
G01 X260.454 Y247.921
G01 X260.358 Y247.405
G01 X260.237 Y246.895
G01 X260.091 Y246.390
G01 X259.919 Y245.891
G01 X259.723 Y245.401
G01 X259.503 Y244.921
G01 X259.259 Y244.450
G01 X258.992 Y243.992
G01 X258.702 Y243.546
G01 X258.390 Y243.115
G01 X258.056 Y242.698
G01 X257.702 Y242.298
G01 X257.328 Y241.915
G01 X256.935 Y241.550
G01 X256.523 Y241.205
G01 X256.095 Y240.879
G01 X255.650 Y240.574
G01 X255.190 Y240.291
G01 X254.715 Y240.031
G01 X254.228 Y239.793
G01 X253.728 Y239.580
G01 X253.218 Y239.391
G01 X252.699 Y239.227
G01 X252.170 Y239.088
G01 X251.635 Y238.976
G01 X251.094 Y238.889
G01 X250.549 Y238.830
G01 X250.000 Y238.797
G01 X249.449 Y238.791
G01 X248.898 Y238.812
G01 X248.348 Y238.860
G01 X247.799 Y238.936
G01 X247.254 Y239.038
G01 X246.714 Y239.167
G01 X246.180 Y239.323
G01 X245.653 Y239.506
G01 X245.135 Y239.714
G01 X244.627 Y239.948
G01 X244.130 Y240.207
G01 X243.646 Y240.491
G01 X243.176 Y240.798
G01 X242.720 Y241.129
G01 X242.280 Y241.483
G01 X241.858 Y241.858
G01 X241.454 Y242.254
G01 X241.069 Y242.671
G01 X240.705 Y243.106
G01 X240.361 Y243.560
G01 X240.040 Y244.030
G01 X239.742 Y244.517
G01 X239.468 Y245.019
G01 X239.218 Y245.534
G01 X238.994 Y246.062
G01 X238.795 Y246.601
G01 X238.623 Y247.150
G01 X238.478 Y247.708
G01 X238.360 Y248.273
G01 X238.270 Y248.845
G01 X238.208 Y249.421
G01 X238.174 Y250.000
G01 X238.169 Y250.581
G01 X238.193 Y251.163
G01 X238.245 Y251.744
G01 X238.325 Y252.322
G01 X238.434 Y252.897
G01 X238.572 Y253.467
G01 X238.737 Y254.030
G01 X238.931 Y254.585
G01 X239.151 Y255.131
G01 X239.399 Y255.666
G01 X239.673 Y256.190
G01 X239.973 Y256.700
G01 X240.298 Y257.195
G01 X240.648 Y257.675
G01 X241.022 Y258.138
G01 X241.418 Y258.582
G01 X241.836 Y259.007
G01 X242.276 Y259.412
G01 X242.735 Y259.795
G01 X243.214 Y260.156
G01 X243.710 Y260.494
G01 X244.224 Y260.807
G01 X244.753 Y261.095
G01 X245.296 Y261.357
G01 X245.852 Y261.592
G01 X246.420 Y261.800
G01 X246.999 Y261.981
G01 X247.587 Y262.133
G01 X248.182 Y262.256
G01 X248.784 Y262.349
G01 X249.390 Y262.414
G01 X250.000 Y262.448
G01 X250.612 Y262.453
G01 X251.224 Y262.427
G01 X251.835 Y262.371
G01 X252.444 Y262.285
G01 X253.048 Y262.169
G01 X253.647 Y262.024
G01 X254.240 Y261.849
G01 X254.823 Y261.644
G01 X255.397 Y261.411
G01 X255.960 Y261.150
G01 X256.510 Y260.861
G01 X257.045 Y260.544
G01 X257.566 Y260.202
G01 X258.070 Y259.833
G01 X258.556 Y259.440
G01 X259.022 Y259.022
G01 X259.468 Y258.582
G01 X259.893 Y258.119
G01 X260.295 Y257.635
G01 X260.674 Y257.132
G01 X261.027 Y256.610
G01 X261.356 Y256.070
G01 X261.657 Y255.514
G01 X261.932 Y254.942
G01 X262.178 Y254.357
G01 X262.396 Y253.760
G01 X262.584 Y253.152
G01 X262.743 Y252.535
G01 X262.871 Y251.909
G01 X262.969 Y251.277
G01 X263.035 Y250.640
G01 X263.071 Y250.000
G01 X263.074 Y249.358
G01 X263.046 Y248.715
G01 X262.987 Y248.074
G01 X262.896 Y247.435
G01 X262.773 Y246.800
G01 X262.619 Y246.172
G01 X262.435 Y245.551
G01 X262.219 Y244.939
G01 X261.974 Y244.337
G01 X261.699 Y243.747
G01 X261.394 Y243.170
G01 X261.062 Y242.609
G01 X260.701 Y242.063
G01 X260.314 Y241.535
G01 X259.901 Y241.026
G01 X259.462 Y240.538
G01 X259.000 Y240.070
G01 X258.514 Y239.626
G01 X258.006 Y239.205
G01 X257.478 Y238.809
G01 X256.930 Y238.439
G01 X256.363 Y238.095
G01 X255.780 Y237.780
G01 X255.181 Y237.493
G01 X254.567 Y237.236
G01 X253.941 Y237.008
G01 X253.303 Y236.812
G01 X252.656 Y236.646
G01 X252.001 Y236.513
G01 X251.338 Y236.412
G01 X250.671 Y236.343
G01 X250.000 Y236.307
G01 X249.327 Y236.304
G01 X248.654 Y236.334
G01 X247.982 Y236.398
G01 X247.313 Y236.494
G01 X246.649 Y236.623
G01 X245.991 Y236.785
G01 X245.341 Y236.979
G01 X244.700 Y237.206
G01 X244.071 Y237.463
G01 X243.454 Y237.752
G01 X242.850 Y238.072
G01 X242.263 Y238.421
G01 X241.692 Y238.799
G01 X241.141 Y239.205
G01 X240.608 Y239.638
G01 X240.098 Y240.098
G01 X239.609 Y240.582
G01 X239.145 Y241.091
G01 X238.705 Y241.623
G01 X238.291 Y242.176
G01 X237.905 Y242.750
G01 X237.547 Y243.343
G01 X237.217 Y243.954
G01 X236.918 Y244.581
G01 X236.650 Y245.223
G01 X236.413 Y245.878
G01 X236.208 Y246.545
G01 X236.036 Y247.222
G01 X235.897 Y247.908
G01 X235.792 Y248.601
G01 X235.721 Y249.299
G01 X235.685 Y250.000
G01 X235.682 Y250.703
G01 X235.715 Y251.407
G01 X235.782 Y252.109
G01 X235.883 Y252.808
G01 X236.019 Y253.502
G01 X236.189 Y254.189
G01 X236.393 Y254.869
G01 X236.631 Y255.538
G01 X236.901 Y256.195
G01 X237.203 Y256.840
G01 X237.538 Y257.470
G01 X237.903 Y258.083
G01 X238.299 Y258.678
G01 X238.724 Y259.254
G01 X239.177 Y259.810
G01 X239.657 Y260.343
G01 X240.164 Y260.852
G01 X240.696 Y261.337
G01 X241.252 Y261.795
G01 X241.831 Y262.226
G01 X242.430 Y262.629
G01 X243.050 Y263.002
G01 X243.688 Y263.345
G01 X244.343 Y263.657
G01 X245.013 Y263.936
G01 X245.698 Y264.183
G01 X246.394 Y264.396
G01 X247.101 Y264.574
G01 X247.817 Y264.718
G01 X248.540 Y264.827
G01 X249.268 Y264.900
G01 X250.000 Y264.938
G01 X250.734 Y264.939
G01 X251.468 Y264.905
G01 X252.200 Y264.834
G01 X252.929 Y264.727
G01 X253.653 Y264.584
G01 X254.370 Y264.406
G01 X255.078 Y264.193
G01 X255.776 Y263.944
G01 X256.462 Y263.662
G01 X257.133 Y263.345
G01 X257.790 Y262.996
G01 X258.429 Y262.614
G01 X259.049 Y262.201
G01 X259.649 Y261.758
G01 X260.228 Y261.284
G01 X260.783 Y260.783
G01 X261.313 Y260.254
G01 X261.818 Y259.699
G01 X262.295 Y259.119
G01 X262.744 Y258.515
G01 X263.163 Y257.890
G01 X263.551 Y257.243
G01 X263.908 Y256.578
G01 X264.232 Y255.895
G01 X264.522 Y255.196
G01 X264.778 Y254.483
G01 X265.000 Y253.757
G01 X265.185 Y253.020
G01 X265.334 Y252.275
G01 X265.447 Y251.521
G01 X265.522 Y250.763
G01 X265.560 Y250.000
G01 X265.561 Y249.236
G01 X265.524 Y248.471
G01 X265.449 Y247.708
G01 X265.337 Y246.949
G01 X265.188 Y246.196
G01 X265.002 Y245.449
G01 X264.779 Y244.712
G01 X264.519 Y243.986
G01 X264.224 Y243.272
G01 X263.894 Y242.573
G01 X263.530 Y241.890
G01 X263.132 Y241.226
G01 X262.701 Y240.580
G01 X262.239 Y239.956
G01 X261.745 Y239.355
G01 X261.223 Y238.777
G01 X260.672 Y238.226
G01 X260.093 Y237.701
G01 X259.489 Y237.205
G01 X258.861 Y236.739
G01 X258.210 Y236.303
G01 X257.537 Y235.900
G01 X256.844 Y235.529
G01 X256.133 Y235.193
G01 X255.406 Y234.892
G01 X254.664 Y234.626
G01 X253.908 Y234.397
G01 X253.142 Y234.205
G01 X252.366 Y234.050
G01 X251.582 Y233.934
G01 X250.793 Y233.856
G01 X250.000 Y233.817
G01 X249.205 Y233.817
G01 X248.410 Y233.857
G01 X247.617 Y233.935
G01 X246.828 Y234.052
G01 X246.044 Y234.208
G01 X245.269 Y234.403
G01 X244.502 Y234.635
G01 X243.748 Y234.905
G01 X243.006 Y235.213
G01 X242.280 Y235.557
G01 X241.571 Y235.936
G01 X240.880 Y236.351
G01 X240.209 Y236.799
G01 X239.561 Y237.280
G01 X238.937 Y237.793
G01 X238.337 Y238.337
G01 X237.765 Y238.910
G01 X237.220 Y239.512
G01 X236.705 Y240.140
G01 X236.221 Y240.793
G01 X235.769 Y241.471
G01 X235.351 Y242.170
G01 X234.967 Y242.890
G01 X234.618 Y243.629
G01 X234.306 Y244.384
G01 X234.030 Y245.156
G01 X233.793 Y245.940
G01 X233.594 Y246.737
G01 X233.435 Y247.543
G01 X233.315 Y248.357
G01 X233.235 Y249.176
G01 X233.195 Y250.000
G01 X233.196 Y250.826
G01 X233.237 Y251.651
G01 X233.319 Y252.474
G01 X233.442 Y253.294
G01 X233.604 Y254.107
G01 X233.807 Y254.912
G01 X234.049 Y255.707
G01 X234.330 Y256.491
G01 X234.650 Y257.260
G01 X235.008 Y258.014
G01 X235.402 Y258.749
G01 X235.833 Y259.466
G01 X236.299 Y260.161
G01 X236.799 Y260.834
G01 X237.332 Y261.481
G01 X237.897 Y262.103
G01 X238.492 Y262.697
G01 X239.117 Y263.261
G01 X239.769 Y263.795
G01 X240.448 Y264.296
G01 X241.151 Y264.764
G01 X241.876 Y265.198
G01 X242.624 Y265.596
G01 X243.390 Y265.957
G01 X244.175 Y266.280
G01 X244.975 Y266.565
G01 X245.789 Y266.811
G01 X246.615 Y267.016
G01 X247.451 Y267.181
G01 X248.296 Y267.305
G01 X249.146 Y267.387
G01 X250.000 Y267.427
G01 X250.856 Y267.426
G01 X251.712 Y267.382
G01 X252.566 Y267.296
G01 X253.415 Y267.169
G01 X254.258 Y266.999
G01 X255.093 Y266.789
G01 X255.917 Y266.537
G01 X256.729 Y266.245
G01 X257.526 Y265.912
G01 X258.307 Y265.541
G01 X259.069 Y265.131
G01 X259.812 Y264.684
G01 X260.532 Y264.201
G01 X261.229 Y263.682
G01 X261.899 Y263.129
G01 X262.543 Y262.543
G01 X263.158 Y261.926
G01 X263.742 Y261.278
G01 X264.295 Y260.602
G01 X264.814 Y259.898
G01 X265.298 Y259.169
G01 X265.747 Y258.417
G01 X266.159 Y257.642
G01 X266.532 Y256.848
G01 X266.866 Y256.035
G01 X267.161 Y255.206
G01 X267.415 Y254.362
G01 X267.627 Y253.506
G01 X267.797 Y252.640
G01 X267.924 Y251.765
G01 X268.009 Y250.885
G01 X268.050 Y250.000
G01 X268.047 Y249.113
G01 X268.002 Y248.227
G01 X267.912 Y247.343
G01 X267.779 Y246.463
G01 X267.603 Y245.591
G01 X267.384 Y244.727
G01 X267.123 Y243.873
G01 X266.820 Y243.033
G01 X266.475 Y242.208
G01 X266.090 Y241.400
G01 X265.665 Y240.611
G01 X265.202 Y239.842
G01 X264.701 Y239.097
G01 X264.163 Y238.377
G01 X263.590 Y237.683
G01 X262.983 Y237.017
G01 X262.344 Y236.381
G01 X261.673 Y235.777
G01 X260.972 Y235.205
G01 X260.244 Y234.669
G01 X259.489 Y234.168
G01 X258.710 Y233.704
G01 X257.909 Y233.279
G01 X257.086 Y232.893
G01 X256.245 Y232.547
G01 X255.386 Y232.243
G01 X254.513 Y231.982
G01 X253.628 Y231.763
G01 X252.731 Y231.588
G01 X251.826 Y231.456
G01 X250.915 Y231.370
G01 X250.000 Y231.328
G01 X249.083 Y231.331
G01 X248.166 Y231.379
G01 X247.252 Y231.472
G01 X246.342 Y231.610
G01 X245.439 Y231.793
G01 X244.546 Y232.020
G01 X243.664 Y232.291
G01 X242.795 Y232.605
G01 X241.942 Y232.962
G01 X241.106 Y233.361
G01 X240.291 Y233.801
G01 X239.497 Y234.281
G01 X238.726 Y234.799
G01 X237.982 Y235.356
G01 X237.265 Y235.949
G01 X236.577 Y236.577
G01 X235.920 Y237.238
G01 X235.296 Y237.932
G01 X234.706 Y238.657
G01 X234.151 Y239.410
G01 X233.634 Y240.191
G01 X233.155 Y240.996
G01 X232.716 Y241.825
G01 X232.318 Y242.676
G01 X231.961 Y243.546
G01 X231.648 Y244.433
G01 X231.378 Y245.335
G01 X231.152 Y246.251
G01 X230.972 Y247.177
G01 X230.837 Y248.113
G01 X230.748 Y249.054
G01 X230.705 Y250.000
G01 X230.709 Y250.948
G01 X230.760 Y251.895
G01 X230.857 Y252.840
G01 X231.000 Y253.779
G01 X231.189 Y254.712
G01 X231.425 Y255.635
G01 X231.705 Y256.546
G01 X232.030 Y257.443
G01 X232.400 Y258.324
G01 X232.812 Y259.187
G01 X233.267 Y260.029
G01 X233.763 Y260.849
G01 X234.299 Y261.644
G01 X234.875 Y262.413
G01 X235.487 Y263.153
G01 X236.137 Y263.863
G01 X236.820 Y264.541
G01 X237.538 Y265.186
G01 X238.286 Y265.794
G01 X239.064 Y266.366
G01 X239.871 Y266.900
G01 X240.703 Y267.394
G01 X241.559 Y267.847
G01 X242.438 Y268.257
G01 X243.336 Y268.625
G01 X244.252 Y268.948
G01 X245.184 Y269.226
G01 X246.130 Y269.458
G01 X247.086 Y269.644
G01 X248.052 Y269.782
G01 X249.024 Y269.874
G01 X250.000 Y269.917
G01 X250.978 Y269.912
G01 X251.956 Y269.860
G01 X252.931 Y269.759
G01 X253.901 Y269.611
G01 X254.863 Y269.414
G01 X255.815 Y269.171
G01 X256.756 Y268.881
G01 X257.681 Y268.545
G01 X258.590 Y268.163
G01 X259.481 Y267.737
G01 X260.349 Y267.267
G01 X261.195 Y266.754
G01 X262.015 Y266.201
G01 X262.808 Y265.607
G01 X263.571 Y264.974
G01 X264.304 Y264.304
G01 X265.003 Y263.598
G01 X265.667 Y262.857
G01 X266.294 Y262.085
G01 X266.884 Y261.281
G01 X267.434 Y260.449
G01 X267.943 Y259.591
G01 X268.409 Y258.707
G01 X268.832 Y257.801
G01 X269.211 Y256.874
G01 X269.543 Y255.928
G01 X269.830 Y254.967
G01 X270.068 Y253.992
G01 X270.259 Y253.005
G01 X270.402 Y252.009
G01 X270.495 Y251.007
G01 X270.539 Y250.000
G01 X270.534 Y248.991
G01 X270.479 Y247.983
G01 X270.375 Y246.978
G01 X270.221 Y245.978
G01 X270.018 Y244.986
G01 X269.767 Y244.004
G01 X269.467 Y243.035
G01 X269.120 Y242.080
G01 X268.726 Y241.143
G01 X268.286 Y240.226
G01 X267.801 Y239.331
G01 X267.272 Y238.459
G01 X266.701 Y237.614
G01 X266.088 Y236.797
G01 X265.435 Y236.011
G01 X264.744 Y235.256
G01 X264.015 Y234.536
G01 X263.252 Y233.852
G01 X262.455 Y233.206
G01 X261.627 Y232.599
G01 X260.769 Y232.032
G01 X259.884 Y231.508
G01 X258.973 Y231.028
G01 X258.039 Y230.593
G01 X257.083 Y230.203
G01 X256.109 Y229.861
G01 X255.118 Y229.567
G01 X254.113 Y229.321
G01 X253.097 Y229.125
G01 X252.070 Y228.979
G01 X251.037 Y228.883
G01 X250.000 Y228.838
G01 X248.961 Y228.844
G01 X247.922 Y228.901
G01 X246.886 Y229.010
G01 X245.856 Y229.168
G01 X244.834 Y229.378
G01 X243.823 Y229.638
G01 X242.825 Y229.947
G01 X241.842 Y230.305
G01 X240.877 Y230.712
G01 X239.933 Y231.165
G01 X239.011 Y231.665
G01 X238.113 Y232.211
G01 X237.243 Y232.800
G01 X236.402 Y233.431
G01 X235.593 Y234.104
G01 X234.816 Y234.816
G01 X234.075 Y235.567
G01 X233.371 Y236.353
G01 X232.706 Y237.174
G01 X232.081 Y238.027
G01 X231.499 Y238.911
G01 X230.960 Y239.823
G01 X230.466 Y240.761
G01 X230.018 Y241.723
G01 X229.617 Y242.707
G01 X229.265 Y243.710
G01 X228.963 Y244.730
G01 X228.711 Y245.765
G01 X228.509 Y246.812
G01 X228.359 Y247.869
G01 X228.261 Y248.932
G01 X228.216 Y250.000
G01 X228.223 Y251.070
G01 X228.282 Y252.139
G01 X228.394 Y253.205
G01 X228.558 Y254.265
G01 X228.774 Y255.317
G01 X229.042 Y256.358
G01 X229.361 Y257.385
G01 X229.730 Y258.396
G01 X230.149 Y259.389
G01 X230.616 Y260.361
G01 X231.132 Y261.309
G01 X231.693 Y262.232
G01 X232.300 Y263.127
G01 X232.950 Y263.993
G01 X233.643 Y264.825
G01 X234.376 Y265.624
G01 X235.149 Y266.386
G01 X235.958 Y267.110
G01 X236.803 Y267.794
G01 X237.681 Y268.436
G01 X238.591 Y269.035
G01 X239.529 Y269.589
G01 X240.495 Y270.097
G01 X241.485 Y270.557
G01 X242.497 Y270.969
G01 X243.530 Y271.330
G01 X244.579 Y271.641
G01 X245.644 Y271.900
G01 X246.721 Y272.106
G01 X247.808 Y272.260
G01 X248.902 Y272.360
G01 X250.000 Y272.407
G01 X251.100 Y272.399
G01 X252.200 Y272.337
G01 X253.296 Y272.222
G01 X254.386 Y272.052
G01 X255.468 Y271.829
G01 X256.538 Y271.553
G01 X257.594 Y271.225
G01 X258.634 Y270.845
G01 X259.655 Y270.414
G01 X260.654 Y269.932
G01 X261.629 Y269.402
G01 X262.578 Y268.825
G01 X263.498 Y268.200
G01 X264.387 Y267.531
G01 X265.243 Y266.818
G01 X266.064 Y266.064
G01 X266.847 Y265.269
G01 X267.591 Y264.437
G01 X268.294 Y263.568
G01 X268.954 Y262.665
G01 X269.569 Y261.729
G01 X270.138 Y260.764
G01 X270.660 Y259.771
G01 X271.132 Y258.753
G01 X271.555 Y257.712
G01 X271.926 Y256.651
G01 X272.245 Y255.572
G01 X272.510 Y254.478
G01 X272.722 Y253.371
G01 X272.879 Y252.253
G01 X272.982 Y251.129
G01 X273.029 Y250.000
G01 X273.021 Y248.869
G01 X272.957 Y247.739
G01 X272.838 Y246.612
G01 X272.663 Y245.492
G01 X272.433 Y244.381
G01 X272.149 Y243.281
G01 X271.811 Y242.196
G01 X271.420 Y241.128
G01 X270.976 Y240.079
G01 X270.481 Y239.052
G01 X269.936 Y238.051
G01 X269.342 Y237.076
G01 X268.700 Y236.131
G01 X268.012 Y235.218
G01 X267.280 Y234.339
G01 X266.504 Y233.496
G01 X265.687 Y232.692
G01 X264.832 Y231.928
G01 X263.939 Y231.206
G01 X263.010 Y230.529
G01 X262.049 Y229.897
G01 X261.058 Y229.313
G01 X260.037 Y228.778
G01 X258.991 Y228.293
G01 X257.922 Y227.859
G01 X256.832 Y227.479
G01 X255.723 Y227.152
G01 X254.599 Y226.879
G01 X253.462 Y226.662
G01 X252.314 Y226.501
G01 X251.160 Y226.396
G01 X250.000 Y226.349
G01 X248.839 Y226.358
G01 X247.678 Y226.424
G01 X246.521 Y226.547
G01 X245.371 Y226.727
G01 X244.230 Y226.963
G01 X243.100 Y227.255
G01 X241.986 Y227.603
G01 X240.889 Y228.005
G01 X239.813 Y228.461
G01 X238.759 Y228.970
G01 X237.731 Y229.530
G01 X236.730 Y230.140
G01 X235.760 Y230.800
G01 X234.823 Y231.507
G01 X233.921 Y232.259
G01 X233.056 Y233.056
G01 X232.230 Y233.895
G01 X231.447 Y234.774
G01 X230.706 Y235.691
G01 X230.011 Y236.644
G01 X229.363 Y237.631
G01 X228.764 Y238.649
G01 X228.215 Y239.696
G01 X227.718 Y240.770
G01 X227.273 Y241.868
G01 X226.883 Y242.988
G01 X226.548 Y244.126
G01 X226.269 Y245.280
G01 X226.047 Y246.447
G01 X225.882 Y247.625
G01 X225.775 Y248.810
G01 X225.726 Y250.000
G01 X225.736 Y251.192
G01 X225.804 Y252.383
G01 X225.931 Y253.570
G01 X226.116 Y254.751
G01 X226.359 Y255.922
G01 X226.660 Y257.080
G01 X227.017 Y258.223
G01 X227.430 Y259.349
G01 X227.898 Y260.453
G01 X228.421 Y261.534
G01 X228.996 Y262.589
G01 X229.623 Y263.616
G01 X230.300 Y264.611
G01 X231.026 Y265.572
G01 X231.798 Y266.497
G01 X232.616 Y267.384
G01 X233.477 Y268.231
G01 X234.379 Y269.035
G01 X235.320 Y269.794
G01 X236.298 Y270.506
G01 X237.311 Y271.171
G01 X238.356 Y271.785
G01 X239.430 Y272.348
G01 X240.532 Y272.857
G01 X241.659 Y273.313
G01 X242.807 Y273.713
G01 X243.974 Y274.056
G01 X245.158 Y274.342
G01 X246.356 Y274.569
G01 X247.564 Y274.738
G01 X248.779 Y274.847
G01 X250.000 Y274.896
G01 X251.223 Y274.886
G01 X252.444 Y274.815
G01 X253.662 Y274.685
G01 X254.872 Y274.494
G01 X256.073 Y274.244
G01 X257.261 Y273.936
G01 X258.433 Y273.569
G01 X259.587 Y273.145
G01 X260.719 Y272.664
G01 X261.828 Y272.128
G01 X262.909 Y271.538
G01 X263.961 Y270.895
G01 X264.981 Y270.200
G01 X265.967 Y269.456
G01 X266.915 Y268.663
G01 X267.824 Y267.824
G01 X268.692 Y266.941
G01 X269.516 Y266.016
G01 X270.294 Y265.051
G01 X271.024 Y264.048
G01 X271.705 Y263.009
G01 X272.334 Y261.938
G01 X272.910 Y260.836
G01 X273.432 Y259.706
G01 X273.899 Y258.551
G01 X274.308 Y257.374
G01 X274.660 Y256.177
G01 X274.952 Y254.963
G01 X275.185 Y253.736
G01 X275.357 Y252.497
G01 X275.469 Y251.251
G01 X275.519 Y250.000
G01 X275.507 Y248.747
G01 X275.435 Y247.495
G01 X275.300 Y246.247
G01 X275.105 Y245.006
G01 X274.848 Y243.776
G01 X274.532 Y242.558
G01 X274.155 Y241.357
G01 X273.720 Y240.175
G01 X273.227 Y239.015
G01 X272.677 Y237.879
G01 X272.072 Y236.771
G01 X271.412 Y235.693
G01 X270.700 Y234.648
G01 X269.937 Y233.638
G01 X269.124 Y232.667
G01 X268.264 Y231.736
G01 X267.359 Y230.847
G01 X266.411 Y230.003
G01 X265.422 Y229.206
G01 X264.394 Y228.459
G01 X263.329 Y227.762
G01 X262.231 Y227.117
G01 X261.102 Y226.527
G01 X259.944 Y225.993
G01 X258.761 Y225.515
G01 X257.554 Y225.096
G01 X256.328 Y224.737
G01 X255.085 Y224.438
G01 X253.827 Y224.200
G01 X252.558 Y224.024
G01 X251.282 Y223.910
G01 X250.000 Y223.859
G01 X248.716 Y223.871
G01 X247.434 Y223.946
G01 X246.156 Y224.084
G01 X244.885 Y224.285
G01 X243.625 Y224.548
G01 X242.378 Y224.873
G01 X241.147 Y225.259
G01 X239.937 Y225.705
G01 X238.748 Y226.210
G01 X237.585 Y226.774
G01 X236.451 Y227.395
G01 X235.347 Y228.070
G01 X234.277 Y228.800
G01 X233.244 Y229.582
G01 X232.249 Y230.415
G01 X231.295 Y231.295
G01 X230.386 Y232.223
G01 X229.522 Y233.194
G01 X228.706 Y234.208
G01 X227.941 Y235.261
G01 X227.228 Y236.351
G01 X226.568 Y237.475
G01 X225.964 Y238.632
G01 X225.418 Y239.818
G01 X224.929 Y241.030
G01 X224.501 Y242.265
G01 X224.133 Y243.521
G01 X223.827 Y244.794
G01 X223.584 Y246.082
G01 X223.404 Y247.381
G01 X223.288 Y248.688
G01 X223.237 Y250.000
G01 X223.249 Y251.314
G01 X223.327 Y252.627
G01 X223.468 Y253.936
G01 X223.674 Y255.236
G01 X223.944 Y256.527
G01 X224.277 Y257.803
G01 X224.673 Y259.062
G01 X225.130 Y260.301
G01 X225.648 Y261.518
G01 X226.225 Y262.708
G01 X226.861 Y263.869
G01 X227.553 Y264.999
G01 X228.300 Y266.094
G01 X229.101 Y267.151
G01 X229.953 Y268.169
G01 X230.855 Y269.145
G01 X231.805 Y270.075
G01 X232.799 Y270.959
G01 X233.837 Y271.793
G01 X234.915 Y272.576
G01 X236.031 Y273.306
G01 X237.182 Y273.981
G01 X238.366 Y274.598
G01 X239.579 Y275.158
G01 X240.820 Y275.657
G01 X242.084 Y276.095
G01 X243.369 Y276.471
G01 X244.672 Y276.783
G01 X245.990 Y277.032
G01 X247.320 Y277.215
G01 X248.657 Y277.333
G01 X250.000 Y277.386
G01 X251.345 Y277.372
G01 X252.688 Y277.293
G01 X254.027 Y277.147
G01 X255.358 Y276.936
G01 X256.678 Y276.660
G01 X257.984 Y276.318
G01 X259.272 Y275.913
G01 X260.540 Y275.445
G01 X261.784 Y274.915
G01 X263.001 Y274.324
G01 X264.189 Y273.673
G01 X265.344 Y272.965
G01 X266.464 Y272.200
G01 X267.546 Y271.380
G01 X268.587 Y270.508
G01 X269.585 Y269.585
G01 X270.537 Y268.613
G01 X271.440 Y267.596
G01 X272.293 Y266.534
G01 X273.094 Y265.431
G01 X273.840 Y264.289
G01 X274.530 Y263.111
G01 X275.161 Y261.900
G01 X275.733 Y260.659
G01 X276.243 Y259.390
G01 X276.691 Y258.097
G01 X277.075 Y256.782
G01 X277.394 Y255.449
G01 X277.647 Y254.101
G01 X277.835 Y252.741
G01 X277.955 Y251.373
G01 X278.008 Y250.000
G01 X277.994 Y248.625
G01 X277.912 Y247.251
G01 X277.763 Y245.882
G01 X277.546 Y244.521
G01 X277.263 Y243.171
G01 X276.914 Y241.836
G01 X276.499 Y240.518
G01 X276.020 Y239.222
G01 X275.477 Y237.950
G01 X274.873 Y236.705
G01 X274.207 Y235.491
G01 X273.482 Y234.310
G01 X272.700 Y233.165
G01 X271.861 Y232.059
G01 X270.969 Y230.995
G01 X270.025 Y229.975
G01 X269.031 Y229.002
G01 X267.990 Y228.079
G01 X266.905 Y227.207
G01 X265.777 Y226.389
G01 X264.609 Y225.626
G01 X263.405 Y224.922
G01 X262.166 Y224.276
G01 X260.897 Y223.692
G01 X259.600 Y223.171
G01 X258.277 Y222.714
G01 X256.933 Y222.322
G01 X255.570 Y221.996
G01 X254.192 Y221.737
G01 X252.802 Y221.546
G01 X251.404 Y221.423
G01 X250.000 Y221.369
G01 X248.594 Y221.384
G01 X247.190 Y221.468
G01 X245.790 Y221.621
G01 X244.399 Y221.843
G01 X243.020 Y222.133
G01 X241.655 Y222.490
G01 X240.309 Y222.915
G01 X238.984 Y223.405
G01 X237.684 Y223.960
G01 X236.412 Y224.578
G01 X235.171 Y225.259
G01 X233.964 Y226.000
G01 X232.794 Y226.801
G01 X231.664 Y227.658
G01 X230.577 Y228.570
G01 X229.535 Y229.535
G01 X228.541 Y230.551
G01 X227.598 Y231.615
G01 X226.707 Y232.725
G01 X225.871 Y233.878
G01 X225.092 Y235.071
G01 X224.373 Y236.302
G01 X223.714 Y237.568
G01 X223.117 Y238.865
G01 X222.585 Y240.191
G01 X222.118 Y241.542
G01 X221.718 Y242.916
G01 X221.385 Y244.308
G01 X221.121 Y245.716
G01 X220.926 Y247.137
G01 X220.802 Y248.566
G01 X220.747 Y250.000
G01 X220.763 Y251.436
G01 X220.849 Y252.871
G01 X221.006 Y254.301
G01 X221.233 Y255.722
G01 X221.529 Y257.132
G01 X221.895 Y258.526
G01 X222.329 Y259.901
G01 X222.830 Y261.254
G01 X223.397 Y262.582
G01 X224.030 Y263.882
G01 X224.725 Y265.149
G01 X225.483 Y266.382
G01 X226.301 Y267.577
G01 X227.177 Y268.731
G01 X228.109 Y269.841
G01 X229.095 Y270.905
G01 X230.133 Y271.920
G01 X231.220 Y272.884
G01 X232.354 Y273.793
G01 X233.532 Y274.647
G01 X234.751 Y275.442
G01 X236.008 Y276.176
G01 X237.301 Y276.849
G01 X238.627 Y277.458
G01 X239.981 Y278.001
G01 X241.361 Y278.477
G01 X242.764 Y278.886
G01 X244.187 Y279.225
G01 X245.625 Y279.494
G01 X247.076 Y279.693
G01 X248.535 Y279.820
G01 X250.000 Y279.876
G01 X251.467 Y279.859
G01 X252.932 Y279.770
G01 X254.392 Y279.610
G01 X255.844 Y279.378
G01 X257.283 Y279.075
G01 X258.706 Y278.701
G01 X260.111 Y278.257
G01 X261.492 Y277.745
G01 X262.848 Y277.165
G01 X264.175 Y276.519
G01 X265.469 Y275.809
G01 X266.728 Y275.035
G01 X267.947 Y274.199
G01 X269.126 Y273.305
G01 X270.259 Y272.352
G01 X271.345 Y271.345
G01 X272.381 Y270.285
G01 X273.365 Y269.175
G01 X274.293 Y268.017
G01 X275.164 Y266.814
G01 X275.975 Y265.569
G01 X276.725 Y264.285
G01 X277.412 Y262.965
G01 X278.033 Y261.612
G01 X278.587 Y260.229
G01 X279.073 Y258.819
G01 X279.490 Y257.387
G01 X279.836 Y255.935
G01 X280.110 Y254.466
G01 X280.312 Y252.986
G01 X280.442 Y251.496
G01 X280.498 Y250.000
G01 X280.481 Y248.503
G01 X280.390 Y247.007
G01 X280.226 Y245.516
G01 X279.988 Y244.035
G01 X279.678 Y242.566
G01 X279.296 Y241.113
G01 X278.843 Y239.680
G01 X278.320 Y238.269
G01 X277.728 Y236.886
G01 X277.068 Y235.532
G01 X276.342 Y234.211
G01 X275.552 Y232.927
G01 X274.699 Y231.682
G01 X273.786 Y230.480
G01 X272.814 Y229.323
G01 X271.785 Y228.215
G01 X270.703 Y227.158
G01 X269.570 Y226.154
G01 X268.388 Y225.207
G01 X267.160 Y224.318
G01 X265.889 Y223.491
G01 X264.578 Y222.726
G01 X263.231 Y222.026
G01 X261.850 Y221.392
G01 X260.438 Y220.827
G01 X259.000 Y220.331
G01 X257.538 Y219.907
G01 X256.056 Y219.554
G01 X254.558 Y219.274
G01 X253.047 Y219.068
G01 X251.526 Y218.937
G01 X250.000 Y218.880
G01 X248.472 Y218.898
G01 X246.946 Y218.991
G01 X245.425 Y219.159
G01 X243.914 Y219.401
G01 X242.415 Y219.718
G01 X240.932 Y220.108
G01 X239.470 Y220.571
G01 X238.031 Y221.105
G01 X236.619 Y221.709
G01 X235.238 Y222.383
G01 X233.891 Y223.124
G01 X232.581 Y223.930
G01 X231.311 Y224.801
G01 X230.085 Y225.733
G01 X228.905 Y226.725
G01 X227.775 Y227.775
G01 X226.696 Y228.879
G01 X225.673 Y230.035
G01 X224.707 Y231.241
G01 X223.801 Y232.494
G01 X222.957 Y233.791
G01 X222.177 Y235.128
G01 X221.463 Y236.503
G01 X220.817 Y237.912
G01 X220.241 Y239.352
G01 X219.736 Y240.819
G01 X219.303 Y242.311
G01 X218.943 Y243.822
G01 X218.659 Y245.351
G01 X218.449 Y246.892
G01 X218.315 Y248.443
G01 X218.257 Y250.000
G01 X218.276 Y251.558
G01 X218.371 Y253.115
G01 X218.543 Y254.666
G01 X218.791 Y256.208
G01 X219.114 Y257.736
G01 X219.512 Y259.248
G01 X219.985 Y260.740
G01 X220.530 Y262.207
G01 X221.147 Y263.647
G01 X221.834 Y265.055
G01 X222.590 Y266.429
G01 X223.413 Y267.765
G01 X224.301 Y269.060
G01 X225.252 Y270.310
G01 X226.264 Y271.513
G01 X227.334 Y272.666
G01 X228.461 Y273.765
G01 X229.641 Y274.808
G01 X230.871 Y275.793
G01 X232.149 Y276.717
G01 X233.471 Y277.577
G01 X234.835 Y278.372
G01 X236.237 Y279.099
G01 X237.674 Y279.758
G01 X239.142 Y280.345
G01 X240.639 Y280.860
G01 X242.160 Y281.301
G01 X243.701 Y281.667
G01 X245.260 Y281.957
G01 X246.831 Y282.171
G01 X248.413 Y282.307
G01 X250.000 Y282.365
G01 X251.589 Y282.346
G01 X253.176 Y282.248
G01 X254.758 Y282.073
G01 X256.329 Y281.820
G01 X257.888 Y281.490
G01 X259.429 Y281.083
G01 X260.949 Y280.601
G01 X262.445 Y280.045
G01 X263.913 Y279.416
G01 X265.349 Y278.715
G01 X266.749 Y277.944
G01 X268.111 Y277.105
G01 X269.431 Y276.199
G01 X270.705 Y275.229
G01 X271.931 Y274.197
G01 X273.106 Y273.106
G01 X274.226 Y271.957
G01 X275.289 Y270.754
G01 X276.293 Y269.500
G01 X277.234 Y268.197
G01 X278.111 Y266.849
G01 X278.921 Y265.459
G01 X279.662 Y264.029
G01 X280.333 Y262.564
G01 X280.931 Y261.067
G01 X281.455 Y259.542
G01 X281.905 Y257.992
G01 X282.277 Y256.420
G01 X282.573 Y254.832
G01 X282.790 Y253.230
G01 X282.928 Y251.618
G01 X282.988 Y250.000
G01 X282.967 Y248.380
G01 X282.867 Y246.763
G01 X282.688 Y245.151
G01 X282.430 Y243.549
G01 X282.093 Y241.961
G01 X281.679 Y240.390
G01 X281.187 Y238.841
G01 X280.620 Y237.317
G01 X279.979 Y235.821
G01 X279.264 Y234.358
G01 X278.478 Y232.931
G01 X277.622 Y231.543
G01 X276.699 Y230.199
G01 X275.710 Y228.900
G01 X274.658 Y227.651
G01 X273.546 Y226.454
G01 X272.375 Y225.313
G01 X271.149 Y224.230
G01 X269.871 Y223.207
G01 X268.543 Y222.248
G01 X267.169 Y221.355
G01 X265.752 Y220.530
G01 X264.295 Y219.775
G01 X262.802 Y219.092
G01 X261.277 Y218.483
G01 X259.723 Y217.949
G01 X258.143 Y217.492
G01 X256.542 Y217.112
G01 X254.923 Y216.812
G01 X253.291 Y216.591
G01 X251.648 Y216.450
G01 X250.000 Y216.390
G01 X248.350 Y216.411
G01 X246.702 Y216.513
G01 X245.060 Y216.696
G01 X243.428 Y216.960
G01 X241.810 Y217.303
G01 X240.210 Y217.726
G01 X238.631 Y218.227
G01 X237.078 Y218.805
G01 X235.555 Y219.459
G01 X234.065 Y220.187
G01 X232.611 Y220.988
G01 X231.198 Y221.860
G01 X229.828 Y222.801
G01 X228.505 Y223.809
G01 X227.233 Y224.880
G01 X226.014 Y226.014
G01 X224.852 Y227.207
G01 X223.749 Y228.456
G01 X222.707 Y229.758
G01 X221.731 Y231.111
G01 X220.821 Y232.511
G01 X219.981 Y233.955
G01 X219.213 Y235.439
G01 X218.517 Y236.959
G01 X217.897 Y238.513
G01 X217.353 Y240.097
G01 X216.888 Y241.706
G01 X216.502 Y243.337
G01 X216.196 Y244.986
G01 X215.971 Y246.648
G01 X215.828 Y248.321
G01 X215.768 Y250.000
G01 X215.789 Y251.681
G01 X215.894 Y253.359
G01 X216.080 Y255.031
G01 X216.349 Y256.694
G01 X216.699 Y258.341
G01 X217.130 Y259.971
G01 X217.641 Y261.578
G01 X218.230 Y263.160
G01 X218.896 Y264.711
G01 X219.638 Y266.229
G01 X220.454 Y267.709
G01 X221.343 Y269.148
G01 X222.301 Y270.543
G01 X223.328 Y271.890
G01 X224.419 Y273.185
G01 X225.574 Y274.426
G01 X226.789 Y275.610
G01 X228.061 Y276.733
G01 X229.388 Y277.793
G01 X230.765 Y278.787
G01 X232.191 Y279.712
G01 X233.661 Y280.568
G01 X235.173 Y281.350
G01 X236.721 Y282.058
G01 X238.304 Y282.689
G01 X239.916 Y283.242
G01 X241.555 Y283.716
G01 X243.215 Y284.109
G01 X244.894 Y284.420
G01 X246.587 Y284.648
G01 X248.291 Y284.793
G01 X250.000 Y284.855
G01 X251.711 Y284.832
G01 X253.420 Y284.726
G01 X255.123 Y284.535
G01 X256.815 Y284.261
G01 X258.493 Y283.905
G01 X260.152 Y283.466
G01 X261.788 Y282.945
G01 X263.398 Y282.345
G01 X264.977 Y281.667
G01 X266.522 Y280.911
G01 X268.029 Y280.079
G01 X269.494 Y279.175
G01 X270.914 Y278.199
G01 X272.284 Y277.154
G01 X273.603 Y276.042
G01 X274.866 Y274.866
G01 X276.071 Y273.629
G01 X277.214 Y272.334
G01 X278.292 Y270.983
G01 X279.304 Y269.580
G01 X280.246 Y268.129
G01 X281.117 Y266.632
G01 X281.913 Y265.094
G01 X282.633 Y263.517
G01 X283.275 Y261.906
G01 X283.838 Y260.265
G01 X284.320 Y258.597
G01 X284.719 Y256.906
G01 X285.035 Y255.197
G01 X285.268 Y253.474
G01 X285.415 Y251.740
G01 X285.477 Y250.000
G01 X285.454 Y248.258
G01 X285.345 Y246.519
G01 X285.151 Y244.786
G01 X284.872 Y243.064
G01 X284.508 Y241.356
G01 X284.061 Y239.668
G01 X283.532 Y238.002
G01 X282.920 Y236.364
G01 X282.229 Y234.757
G01 X281.460 Y233.184
G01 X280.613 Y231.651
G01 X279.692 Y230.160
G01 X278.699 Y228.716
G01 X277.635 Y227.321
G01 X276.503 Y225.979
G01 X275.306 Y224.694
G01 X274.047 Y223.468
G01 X272.729 Y222.305
G01 X271.354 Y221.208
G01 X269.926 Y220.178
G01 X268.449 Y219.220
G01 X266.926 Y218.335
G01 X265.360 Y217.525
G01 X263.755 Y216.792
G01 X262.116 Y216.139
G01 X260.445 Y215.567
G01 X258.748 Y215.077
G01 X257.028 Y214.670
G01 X255.288 Y214.349
G01 X253.535 Y214.113
G01 X251.770 Y213.963
G01 X250.000 Y213.900
G01 X248.228 Y213.924
G01 X246.458 Y214.036
G01 X244.695 Y214.233
G01 X242.942 Y214.518
G01 X241.205 Y214.888
G01 X239.487 Y215.343
G01 X237.793 Y215.882
G01 X236.126 Y216.505
G01 X234.491 Y217.208
G01 X232.891 Y217.991
G01 X231.331 Y218.853
G01 X229.814 Y219.790
G01 X228.345 Y220.801
G01 X226.926 Y221.884
G01 X225.561 Y223.036
G01 X224.254 Y224.254
G01 X223.007 Y225.535
G01 X221.824 Y226.877
G01 X220.708 Y228.275
G01 X219.661 Y229.728
G01 X218.686 Y231.231
G01 X217.786 Y232.781
G01 X216.962 Y234.374
G01 X216.217 Y236.007
G01 X215.553 Y237.675
G01 X214.971 Y239.374
G01 X214.473 Y241.101
G01 X214.060 Y242.851
G01 X213.733 Y244.620
G01 X213.494 Y246.404
G01 X213.342 Y248.199
G01 X213.278 Y250.000
G01 X213.303 Y251.803
G01 X213.416 Y253.603
G01 X213.618 Y255.397
G01 X213.907 Y257.179
G01 X214.284 Y258.946
G01 X214.748 Y260.694
G01 X215.296 Y262.417
G01 X215.930 Y264.112
G01 X216.645 Y265.776
G01 X217.443 Y267.402
G01 X218.319 Y268.989
G01 X219.273 Y270.531
G01 X220.302 Y272.026
G01 X221.403 Y273.469
G01 X222.575 Y274.857
G01 X223.814 Y276.186
G01 X225.117 Y277.454
G01 X226.482 Y278.657
G01 X227.905 Y279.792
G01 X229.382 Y280.857
G01 X230.911 Y281.848
G01 X232.488 Y282.763
G01 X234.108 Y283.601
G01 X235.768 Y284.358
G01 X237.465 Y285.033
G01 X239.193 Y285.625
G01 X240.950 Y286.131
G01 X242.730 Y286.551
G01 X244.529 Y286.882
G01 X246.343 Y287.126
G01 X248.169 Y287.280
G01 X250.000 Y287.344
G01 X251.833 Y287.319
G01 X253.664 Y287.203
G01 X255.488 Y286.998
G01 X257.301 Y286.703
G01 X259.098 Y286.320
G01 X260.874 Y285.848
G01 X262.627 Y285.290
G01 X264.351 Y284.645
G01 X266.042 Y283.917
G01 X267.696 Y283.106
G01 X269.309 Y282.215
G01 X270.877 Y281.245
G01 X272.397 Y280.198
G01 X273.864 Y279.078
G01 X275.275 Y277.887
G01 X276.627 Y276.627
G01 X277.915 Y275.301
G01 X279.138 Y273.913
G01 X280.292 Y272.466
G01 X281.374 Y270.964
G01 X282.382 Y269.409
G01 X283.312 Y267.806
G01 X284.163 Y266.158
G01 X284.933 Y264.470
G01 X285.619 Y262.745
G01 X286.220 Y260.987
G01 X286.735 Y259.202
G01 X287.161 Y257.392
G01 X287.498 Y255.562
G01 X287.745 Y253.718
G01 X287.902 Y251.862
G01 X287.967 Y250.000
G01 X287.940 Y248.136
G01 X287.823 Y246.275
G01 X287.614 Y244.421
G01 X287.314 Y242.578
G01 X286.923 Y240.751
G01 X286.444 Y238.945
G01 X285.876 Y237.164
G01 X285.221 Y235.411
G01 X284.480 Y233.692
G01 X283.655 Y232.011
G01 X282.749 Y230.371
G01 X281.762 Y228.777
G01 X280.698 Y227.233
G01 X279.559 Y225.741
G01 X278.348 Y224.307
G01 X277.067 Y222.933
G01 X275.719 Y221.623
G01 X274.308 Y220.381
G01 X272.837 Y219.208
G01 X271.309 Y218.108
G01 X269.729 Y217.084
G01 X268.099 Y216.139
G01 X266.424 Y215.274
G01 X264.708 Y214.492
G01 X262.954 Y213.795
G01 X261.168 Y213.184
G01 X259.353 Y212.662
G01 X257.513 Y212.229
G01 X255.654 Y211.886
G01 X253.779 Y211.635
G01 X251.893 Y211.477
G01 X250.000 Y211.411
G01 X248.106 Y211.438
G01 X246.214 Y211.558
G01 X244.329 Y211.771
G01 X242.456 Y212.076
G01 X240.600 Y212.473
G01 X238.764 Y212.961
G01 X236.954 Y213.538
G01 X235.173 Y214.204
G01 X233.426 Y214.958
G01 X231.717 Y215.796
G01 X230.051 Y216.717
G01 X228.431 Y217.720
G01 X226.862 Y218.802
G01 X225.347 Y219.960
G01 X223.889 Y221.191
G01 X222.493 Y222.493
G01 X221.162 Y223.863
G01 X219.900 Y225.297
G01 X218.708 Y226.792
G01 X217.591 Y228.345
G01 X216.551 Y229.951
G01 X215.590 Y231.607
G01 X214.711 Y233.310
G01 X213.917 Y235.054
G01 X213.209 Y236.836
G01 X212.588 Y238.651
G01 X212.058 Y240.496
G01 X211.618 Y242.365
G01 X211.271 Y244.255
G01 X211.016 Y246.160
G01 X210.855 Y248.077
G01 X210.788 Y250.000
G01 X210.816 Y251.925
G01 X210.938 Y253.847
G01 X211.155 Y255.762
G01 X211.466 Y257.665
G01 X211.869 Y259.551
G01 X212.365 Y261.416
G01 X212.952 Y263.256
G01 X213.629 Y265.065
G01 X214.395 Y266.840
G01 X215.247 Y268.576
G01 X216.184 Y270.269
G01 X217.203 Y271.914
G01 X218.302 Y273.509
G01 X219.479 Y275.048
G01 X220.730 Y276.529
G01 X222.053 Y277.947
G01 X223.445 Y279.299
G01 X224.902 Y280.582
G01 X226.422 Y281.792
G01 X227.999 Y282.927
G01 X229.631 Y283.983
G01 X231.314 Y284.959
G01 X233.044 Y285.851
G01 X234.816 Y286.658
G01 X236.626 Y287.377
G01 X238.471 Y288.007
G01 X240.345 Y288.546
G01 X242.244 Y288.992
G01 X244.164 Y289.345
G01 X246.099 Y289.604
G01 X248.046 Y289.767
G01 X250.000 Y289.834
G01 X251.956 Y289.805
G01 X253.908 Y289.681
G01 X255.853 Y289.461
G01 X257.786 Y289.145
G01 X259.703 Y288.735
G01 X261.597 Y288.230
G01 X263.466 Y287.634
G01 X265.303 Y286.946
G01 X267.106 Y286.168
G01 X268.869 Y285.302
G01 X270.589 Y284.350
G01 X272.260 Y283.315
G01 X273.880 Y282.198
G01 X275.443 Y281.003
G01 X276.947 Y279.731
G01 X278.387 Y278.387
G01 X279.760 Y276.973
G01 X281.063 Y275.493
G01 X282.292 Y273.949
G01 X283.444 Y272.347
G01 X284.517 Y270.689
G01 X285.508 Y268.979
G01 X286.414 Y267.223
G01 X287.233 Y265.422
G01 X287.963 Y263.583
G01 X288.603 Y261.710
G01 X289.150 Y259.806
G01 X289.603 Y257.877
G01 X289.961 Y255.928
G01 X290.223 Y253.962
G01 X290.388 Y251.984
G01 X290.456 Y250.000
G01 X290.427 Y248.014
G01 X290.300 Y246.031
G01 X290.076 Y244.055
G01 X289.755 Y242.092
G01 X289.338 Y240.146
G01 X288.826 Y238.222
G01 X288.220 Y236.325
G01 X287.521 Y234.458
G01 X286.730 Y232.628
G01 X285.851 Y230.837
G01 X284.884 Y229.091
G01 X283.832 Y227.394
G01 X282.698 Y225.750
G01 X281.484 Y224.162
G01 X280.192 Y222.635
G01 X278.827 Y221.173
G01 X277.391 Y219.779
G01 X275.887 Y218.456
G01 X274.320 Y217.208
G01 X272.693 Y216.038
G01 X271.009 Y214.949
G01 X269.273 Y213.943
G01 X267.489 Y213.023
G01 X265.661 Y212.192
G01 X263.793 Y211.451
G01 X261.891 Y210.802
G01 X259.958 Y210.247
G01 X257.999 Y209.787
G01 X256.019 Y209.423
G01 X254.023 Y209.158
G01 X252.015 Y208.990
G01 X250.000 Y208.921
G01 X247.983 Y208.951
G01 X245.970 Y209.080
G01 X243.964 Y209.308
G01 X241.971 Y209.634
G01 X239.995 Y210.058
G01 X238.042 Y210.578
G01 X236.115 Y211.194
G01 X234.220 Y211.904
G01 X232.362 Y212.707
G01 X230.544 Y213.600
G01 X228.771 Y214.582
G01 X227.048 Y215.650
G01 X225.379 Y216.802
G01 X223.767 Y218.035
G01 X222.217 Y219.346
G01 X220.733 Y220.733
G01 X219.318 Y222.191
G01 X217.975 Y223.718
G01 X216.708 Y225.309
G01 X215.521 Y226.962
G01 X214.415 Y228.671
G01 X213.394 Y230.434
G01 X212.461 Y232.245
G01 X211.617 Y234.101
G01 X210.865 Y235.997
G01 X210.206 Y237.929
G01 X209.643 Y239.891
G01 X209.176 Y241.880
G01 X208.808 Y243.890
G01 X208.538 Y245.916
G01 X208.368 Y247.955
G01 X208.299 Y250.000
G01 X208.330 Y252.047
G01 X208.461 Y254.091
G01 X208.692 Y256.127
G01 X209.024 Y258.151
G01 X209.454 Y260.156
G01 X209.983 Y262.139
G01 X210.608 Y264.095
G01 X211.329 Y266.018
G01 X212.144 Y267.904
G01 X213.051 Y269.750
G01 X214.048 Y271.549
G01 X215.133 Y273.298
G01 X216.302 Y274.992
G01 X217.554 Y276.628
G01 X218.885 Y278.201
G01 X220.293 Y279.707
G01 X221.773 Y281.144
G01 X223.323 Y282.506
G01 X224.938 Y283.792
G01 X226.616 Y284.997
G01 X228.351 Y286.119
G01 X230.140 Y287.155
G01 X231.979 Y288.102
G01 X233.863 Y288.958
G01 X235.787 Y289.721
G01 X237.748 Y290.390
G01 X239.740 Y290.961
G01 X241.758 Y291.434
G01 X243.798 Y291.808
G01 X245.855 Y292.081
G01 X247.924 Y292.253
G01 X250.000 Y292.324
G01 X252.078 Y292.292
G01 X254.152 Y292.159
G01 X256.219 Y291.923
G01 X258.272 Y291.587
G01 X260.307 Y291.150
G01 X262.320 Y290.613
G01 X264.304 Y289.978
G01 X266.256 Y289.246
G01 X268.171 Y288.418
G01 X270.043 Y287.498
G01 X271.869 Y286.486
G01 X273.643 Y285.385
G01 X275.363 Y284.198
G01 X277.023 Y282.927
G01 X278.619 Y281.576
G01 X280.147 Y280.147
G01 X281.605 Y278.645
G01 X282.987 Y277.072
G01 X284.292 Y275.432
G01 X285.514 Y273.730
G01 X286.653 Y271.969
G01 X287.704 Y270.153
G01 X288.665 Y268.287
G01 X289.533 Y266.375
G01 X290.307 Y264.422
G01 X290.985 Y262.433
G01 X291.565 Y260.411
G01 X292.045 Y258.363
G01 X292.424 Y256.293
G01 X292.701 Y254.206
G01 X292.875 Y252.106
G01 X292.946 Y250.000
G01 X292.914 Y247.892
G01 X292.778 Y245.787
G01 X292.539 Y243.690
G01 X292.197 Y241.606
G01 X291.753 Y239.541
G01 X291.208 Y237.500
G01 X290.564 Y235.486
G01 X289.821 Y233.506
G01 X288.981 Y231.563
G01 X288.047 Y229.664
G01 X287.020 Y227.811
G01 X285.902 Y226.011
G01 X284.698 Y224.266
G01 X283.408 Y222.583
G01 X282.037 Y220.963
G01 X280.588 Y219.412
G01 X279.063 Y217.934
G01 X277.467 Y216.532
G01 X275.803 Y215.209
G01 X274.076 Y213.968
G01 X272.289 Y212.814
G01 X270.446 Y211.748
G01 X268.553 Y210.773
G01 X266.613 Y209.892
G01 X264.632 Y209.107
G01 X262.613 Y208.419
G01 X260.563 Y207.832
G01 X258.485 Y207.345
G01 X256.384 Y206.961
G01 X254.267 Y206.680
G01 X252.137 Y206.503
G01 X250.000 Y206.432
G01 X247.861 Y206.465
G01 X245.726 Y206.603
G01 X243.599 Y206.845
G01 X241.485 Y207.192
G01 X239.390 Y207.643
G01 X237.319 Y208.196
G01 X235.276 Y208.850
G01 X233.268 Y209.604
G01 X231.297 Y210.456
G01 X229.370 Y211.405
G01 X227.491 Y212.447
G01 X225.665 Y213.580
G01 X223.896 Y214.802
G01 X222.188 Y216.111
G01 X220.545 Y217.502
G01 X218.972 Y218.972
G01 X217.473 Y220.519
G01 X216.050 Y222.138
G01 X214.709 Y223.826
G01 X213.451 Y225.579
G01 X212.280 Y227.391
G01 X211.199 Y229.260
G01 X210.210 Y231.181
G01 X209.317 Y233.148
G01 X208.521 Y235.158
G01 X207.824 Y237.206
G01 X207.228 Y239.286
G01 X206.735 Y241.394
G01 X206.345 Y243.524
G01 X206.061 Y245.672
G01 X205.882 Y247.833
G01 X205.809 Y250.000
G01 X205.843 Y252.169
G01 X205.983 Y254.335
G01 X206.230 Y256.493
G01 X206.582 Y258.636
G01 X207.039 Y260.761
G01 X207.600 Y262.862
G01 X208.264 Y264.933
G01 X209.029 Y266.971
G01 X209.894 Y268.969
G01 X210.856 Y270.923
G01 X211.913 Y272.829
G01 X213.063 Y274.681
G01 X214.302 Y276.475
G01 X215.630 Y278.207
G01 X217.041 Y279.873
G01 X218.532 Y281.468
G01 X220.101 Y282.988
G01 X221.744 Y284.431
G01 X223.455 Y285.791
G01 X225.233 Y287.067
G01 X227.071 Y288.254
G01 X228.967 Y289.350
G01 X230.915 Y290.352
G01 X232.910 Y291.258
G01 X234.949 Y292.065
G01 X237.025 Y292.772
G01 X239.135 Y293.376
G01 X241.273 Y293.876
G01 X243.433 Y294.271
G01 X245.611 Y294.559
G01 X247.802 Y294.740
G01 X250.000 Y294.813
G01 X252.200 Y294.779
G01 X254.396 Y294.636
G01 X256.584 Y294.386
G01 X258.758 Y294.029
G01 X260.912 Y293.565
G01 X263.042 Y292.995
G01 X265.143 Y292.322
G01 X267.209 Y291.546
G01 X269.235 Y290.669
G01 X271.217 Y289.693
G01 X273.149 Y288.621
G01 X275.027 Y287.455
G01 X276.846 Y286.197
G01 X278.602 Y284.852
G01 X280.291 Y283.421
G01 X281.908 Y281.908
G01 X283.449 Y280.317
G01 X284.912 Y278.651
G01 X286.291 Y276.915
G01 X287.584 Y275.113
G01 X288.788 Y273.249
G01 X289.899 Y271.327
G01 X290.915 Y269.351
G01 X291.833 Y267.328
G01 X292.652 Y265.261
G01 X293.368 Y263.155
G01 X293.980 Y261.016
G01 X294.486 Y258.849
G01 X294.886 Y256.658
G01 X295.178 Y254.450
G01 X295.362 Y252.228
G01 X295.436 Y250.000
G01 X295.400 Y247.770
G01 X295.256 Y245.543
G01 X295.002 Y243.325
G01 X294.639 Y241.121
G01 X294.168 Y238.936
G01 X293.591 Y236.777
G01 X292.908 Y234.647
G01 X292.121 Y232.553
G01 X291.232 Y230.499
G01 X290.242 Y228.490
G01 X289.155 Y226.531
G01 X287.972 Y224.628
G01 X286.697 Y222.783
G01 X285.333 Y221.003
G01 X283.882 Y219.291
G01 X282.348 Y217.652
G01 X280.735 Y216.089
G01 X279.046 Y214.607
G01 X277.286 Y213.209
G01 X275.459 Y211.898
G01 X273.569 Y210.678
G01 X271.620 Y209.552
G01 X269.618 Y208.522
G01 X267.566 Y207.592
G01 X265.471 Y206.762
G01 X263.336 Y206.037
G01 X261.168 Y205.417
G01 X258.970 Y204.903
G01 X256.750 Y204.498
G01 X254.511 Y204.202
G01 X252.259 Y204.017
G01 X250.000 Y203.942
G01 X247.739 Y203.978
G01 X245.482 Y204.125
G01 X243.233 Y204.383
G01 X240.999 Y204.751
G01 X238.785 Y205.228
G01 X236.596 Y205.813
G01 X234.438 Y206.506
G01 X232.315 Y207.304
G01 X230.233 Y208.206
G01 X228.197 Y209.209
G01 X226.211 Y210.311
G01 X224.282 Y211.510
G01 X222.413 Y212.803
G01 X220.608 Y214.186
G01 X218.873 Y215.657
G01 X217.212 Y217.212
G01 X215.628 Y218.847
G01 X214.126 Y220.559
G01 X212.709 Y222.343
G01 X211.381 Y224.195
G01 X210.144 Y226.111
G01 X209.003 Y228.087
G01 X207.960 Y230.116
G01 X207.017 Y232.196
G01 X206.176 Y234.320
G01 X205.441 Y236.483
G01 X204.813 Y238.681
G01 X204.293 Y240.908
G01 X203.882 Y243.159
G01 X203.583 Y245.428
G01 X203.395 Y247.710
G01 X203.320 Y250.000
G01 X203.356 Y252.291
G01 X203.506 Y254.579
G01 X203.767 Y256.858
G01 X204.140 Y259.122
G01 X204.624 Y261.366
G01 X205.218 Y263.585
G01 X205.920 Y265.772
G01 X206.729 Y267.923
G01 X207.643 Y270.033
G01 X208.660 Y272.097
G01 X209.777 Y274.109
G01 X210.993 Y276.064
G01 X212.303 Y277.958
G01 X213.705 Y279.787
G01 X215.196 Y281.545
G01 X216.772 Y283.228
G01 X218.429 Y284.833
G01 X220.164 Y286.355
G01 X221.972 Y287.791
G01 X223.850 Y289.137
G01 X225.791 Y290.390
G01 X227.793 Y291.546
G01 X229.850 Y292.603
G01 X231.958 Y293.558
G01 X234.110 Y294.410
G01 X236.303 Y295.154
G01 X238.530 Y295.791
G01 X240.787 Y296.318
G01 X243.068 Y296.733
G01 X245.367 Y297.036
G01 X247.680 Y297.226
G01 X250.000 Y297.303
G01 X252.322 Y297.265
G01 X254.640 Y297.114
G01 X256.949 Y296.849
G01 X259.244 Y296.470
G01 X261.517 Y295.980
G01 X263.765 Y295.378
G01 X265.982 Y294.666
G01 X268.162 Y293.846
G01 X270.299 Y292.920
G01 X272.390 Y291.889
G01 X274.429 Y290.757
G01 X276.410 Y289.525
G01 X278.329 Y288.197
G01 X280.181 Y286.776
G01 X281.963 Y285.265
G01 X283.668 Y283.668
G01 X285.294 Y281.989
G01 X286.836 Y280.231
G01 X288.291 Y278.398
G01 X289.654 Y276.496
G01 X290.923 Y274.529
G01 X292.095 Y272.500
G01 X293.166 Y270.416
G01 X294.133 Y268.281
G01 X294.996 Y266.100
G01 X295.750 Y263.878
G01 X296.395 Y261.621
G01 X296.928 Y259.335
G01 X297.349 Y257.024
G01 X297.656 Y254.694
G01 X297.848 Y252.351
G01 X297.925 Y250.000
G01 X297.887 Y247.647
G01 X297.733 Y245.299
G01 X297.464 Y242.959
G01 X297.081 Y240.635
G01 X296.583 Y238.331
G01 X295.973 Y236.054
G01 X295.252 Y233.809
G01 X294.421 Y231.600
G01 X293.482 Y229.434
G01 X292.438 Y227.316
G01 X291.290 Y225.251
G01 X290.043 Y223.244
G01 X288.697 Y221.300
G01 X287.257 Y219.424
G01 X285.726 Y217.619
G01 X284.108 Y215.892
G01 X282.407 Y214.245
G01 X280.626 Y212.683
G01 X278.769 Y211.209
G01 X276.842 Y209.828
G01 X274.849 Y208.543
G01 X272.794 Y207.356
G01 X270.682 Y206.272
G01 X268.519 Y205.292
G01 X266.309 Y204.418
G01 X264.059 Y203.654
G01 X261.773 Y203.002
G01 X259.456 Y202.461
G01 X257.115 Y202.035
G01 X254.755 Y201.725
G01 X252.381 Y201.530
G01 X250.000 Y201.452
G01 X247.617 Y201.491
G01 X245.238 Y201.647
G01 X242.868 Y201.920
G01 X240.514 Y202.309
G01 X238.180 Y202.813
G01 X235.873 Y203.431
G01 X233.599 Y204.162
G01 X231.362 Y205.004
G01 X229.168 Y205.955
G01 X227.023 Y207.013
G01 X224.931 Y208.176
G01 X222.899 Y209.440
G01 X220.930 Y210.803
G01 X219.029 Y212.262
G01 X217.201 Y213.812
G01 X215.452 Y215.452
G01 X213.784 Y217.175
G01 X212.201 Y218.980
G01 X210.709 Y220.860
G01 X209.311 Y222.812
G01 X208.009 Y224.831
G01 X206.807 Y226.913
G01 X205.709 Y229.052
G01 X204.716 Y231.243
G01 X203.832 Y233.481
G01 X203.059 Y235.761
G01 X202.398 Y238.076
G01 X201.851 Y240.423
G01 X201.420 Y242.794
G01 X201.105 Y245.184
G01 X200.909 Y247.588
G01 X200.830 Y250.000
G01 X200.870 Y252.414
G01 X201.028 Y254.823
G01 X201.304 Y257.223
G01 X201.698 Y259.608
G01 X202.209 Y261.971
G01 X202.835 Y264.307
G01 X203.576 Y266.611
G01 X204.429 Y268.876
G01 X205.392 Y271.098
G01 X206.464 Y273.270
G01 X207.642 Y275.388
G01 X208.922 Y277.447
G01 X210.303 Y279.441
G01 X211.780 Y281.366
G01 X213.351 Y283.217
G01 X215.011 Y284.989
G01 X216.757 Y286.678
G01 X218.585 Y288.280
G01 X220.489 Y289.791
G01 X222.466 Y291.207
G01 X224.512 Y292.525
G01 X226.620 Y293.742
G01 X228.786 Y294.854
G01 X231.005 Y295.859
G01 X233.271 Y296.754
G01 X235.580 Y297.537
G01 X237.925 Y298.206
G01 X240.301 Y298.759
G01 X242.702 Y299.196
G01 X245.123 Y299.514
G01 X247.558 Y299.713
G01 X250.000 Y299.793
G01 X252.444 Y299.752
G01 X254.884 Y299.591
G01 X257.315 Y299.311
G01 X259.729 Y298.912
G01 X262.122 Y298.395
G01 X264.488 Y297.760
G01 X266.820 Y297.010
G01 X269.114 Y296.146
G01 X271.364 Y295.170
G01 X273.564 Y294.085
G01 X275.708 Y292.892
G01 X277.793 Y291.595
G01 X279.812 Y290.197
G01 X281.761 Y288.701
G01 X283.635 Y287.110
G01 X285.429 Y285.429
G01 X287.139 Y283.661
G01 X288.761 Y281.810
G01 X290.291 Y279.882
G01 X291.724 Y277.879
G01 X293.059 Y275.808
G01 X294.290 Y273.674
G01 X295.416 Y271.480
G01 X296.434 Y269.233
G01 X297.340 Y266.938
G01 X298.132 Y264.601
G01 X298.810 Y262.226
G01 X299.370 Y259.820
G01 X299.812 Y257.389
G01 X300.133 Y254.938
G01 X300.335 Y252.473
G01 X300.415 Y250.000
G01 X300.374 Y247.525
G01 X300.211 Y245.055
G01 X299.927 Y242.594
G01 X299.523 Y240.149
G01 X298.998 Y237.727
G01 X298.356 Y235.331
G01 X297.596 Y232.970
G01 X296.721 Y230.647
G01 X295.733 Y228.370
G01 X294.634 Y226.143
G01 X293.426 Y223.972
G01 X292.113 Y221.861
G01 X290.697 Y219.817
G01 X289.182 Y217.844
G01 X287.571 Y215.947
G01 X285.869 Y214.131
G01 X284.079 Y212.400
G01 X282.205 Y210.758
G01 X280.252 Y209.210
G01 X278.225 Y207.758
G01 X276.128 Y206.407
G01 X273.967 Y205.161
G01 X271.746 Y204.021
G01 X269.472 Y202.991
G01 X267.148 Y202.074
G01 X264.781 Y201.272
G01 X262.377 Y200.587
G01 X259.942 Y200.020
G01 X257.480 Y199.573
G01 X254.999 Y199.247
G01 X252.503 Y199.044
G01 X250.000 Y198.963
G01 X247.495 Y199.005
G01 X244.994 Y199.170
G01 X242.503 Y199.457
G01 X240.028 Y199.867
G01 X237.575 Y200.398
G01 X235.151 Y201.049
G01 X232.760 Y201.818
G01 X230.409 Y202.704
G01 X228.104 Y203.705
G01 X225.849 Y204.818
G01 X223.652 Y206.040
G01 X221.515 Y207.370
G01 X219.446 Y208.803
G01 X217.450 Y210.337
G01 X215.529 Y211.968
G01 X213.691 Y213.691
G01 X211.939 Y215.503
G01 X210.277 Y217.400
G01 X208.710 Y219.377
G01 X207.241 Y221.429
G01 X205.873 Y223.552
G01 X204.612 Y225.739
G01 X203.458 Y227.987
G01 X202.416 Y230.290
G01 X201.488 Y232.642
G01 X200.676 Y235.038
G01 X199.983 Y237.471
G01 X199.409 Y239.937
G01 X198.957 Y242.429
G01 X198.628 Y244.940
G01 X198.422 Y247.466
G01 X198.340 Y250.000
G01 X198.383 Y252.536
G01 X198.550 Y255.067
G01 X198.842 Y257.589
G01 X199.257 Y260.093
G01 X199.794 Y262.576
G01 X200.453 Y265.030
G01 X201.232 Y267.450
G01 X202.129 Y269.829
G01 X203.142 Y272.162
G01 X204.269 Y274.444
G01 X205.506 Y276.668
G01 X206.852 Y278.830
G01 X208.303 Y280.924
G01 X209.856 Y282.945
G01 X211.506 Y284.888
G01 X213.251 Y286.749
G01 X215.085 Y288.522
G01 X217.005 Y290.204
G01 X219.006 Y291.790
G01 X221.083 Y293.277
G01 X223.232 Y294.660
G01 X225.446 Y295.937
G01 X227.721 Y297.104
G01 X230.052 Y298.159
G01 X232.433 Y299.098
G01 X234.857 Y299.919
G01 X237.320 Y300.621
G01 X239.815 Y301.201
G01 X242.337 Y301.659
G01 X244.879 Y301.992
G01 X247.436 Y302.200
G01 X250.000 Y302.282
G01 X252.566 Y302.239
G01 X255.128 Y302.069
G01 X257.680 Y301.774
G01 X260.215 Y301.354
G01 X262.727 Y300.810
G01 X265.211 Y300.143
G01 X267.659 Y299.354
G01 X270.067 Y298.446
G01 X272.428 Y297.421
G01 X274.737 Y296.280
G01 X276.988 Y295.027
G01 X279.176 Y293.665
G01 X281.295 Y292.197
G01 X283.340 Y290.625
G01 X285.306 Y288.955
G01 X287.189 Y287.189
G01 X288.984 Y285.333
G01 X290.685 Y283.390
G01 X292.290 Y281.365
G01 X293.794 Y279.263
G01 X295.194 Y277.088
G01 X296.486 Y274.847
G01 X297.667 Y272.545
G01 X298.734 Y270.186
G01 X299.684 Y267.777
G01 X300.515 Y265.324
G01 X301.225 Y262.831
G01 X301.812 Y260.306
G01 X302.274 Y257.754
G01 X302.611 Y255.182
G01 X302.821 Y252.595
G01 X302.905 Y250.000
G01 X302.860 Y247.403
G01 X302.689 Y244.811
G01 X302.390 Y242.229
G01 X301.964 Y239.664
G01 X301.413 Y237.122
G01 X300.738 Y234.609
G01 X299.940 Y232.131
G01 X299.021 Y229.695
G01 X297.983 Y227.306
G01 X296.829 Y224.969
G01 X295.561 Y222.692
G01 X294.183 Y220.478
G01 X292.696 Y218.334
G01 X291.106 Y216.265
G01 X289.416 Y214.276
G01 X287.629 Y212.371
G01 X285.751 Y210.555
G01 X283.784 Y208.834
G01 X281.735 Y207.210
G01 X279.608 Y205.688
G01 X277.408 Y204.272
G01 X275.141 Y202.965
G01 X272.811 Y201.770
G01 X270.424 Y200.691
G01 X267.987 Y199.730
G01 X265.504 Y198.890
G01 X262.982 Y198.172
G01 X260.427 Y197.578
G01 X257.845 Y197.110
G01 X255.243 Y196.769
G01 X252.625 Y196.557
G01 X250.000 Y196.473
G01 X247.373 Y196.518
G01 X244.750 Y196.692
G01 X242.137 Y196.995
G01 X239.542 Y197.425
G01 X236.970 Y197.983
G01 X234.428 Y198.666
G01 X231.921 Y199.474
G01 X229.457 Y200.404
G01 X227.039 Y201.454
G01 X224.676 Y202.622
G01 X222.372 Y203.905
G01 X220.132 Y205.300
G01 X217.963 Y206.804
G01 X215.870 Y208.413
G01 X213.858 Y210.123
G01 X211.931 Y211.931
G01 X210.094 Y213.831
G01 X208.352 Y215.821
G01 X206.710 Y217.894
G01 X205.171 Y220.046
G01 X203.738 Y222.272
G01 X202.416 Y224.566
G01 X201.208 Y226.923
G01 X200.116 Y229.337
G01 X199.144 Y231.803
G01 X198.294 Y234.315
G01 X197.568 Y236.866
G01 X196.967 Y239.451
G01 X196.494 Y242.063
G01 X196.150 Y244.696
G01 X195.935 Y247.344
G01 X195.851 Y250.000
G01 X195.896 Y252.658
G01 X196.073 Y255.311
G01 X196.379 Y257.954
G01 X196.815 Y260.579
G01 X197.379 Y263.181
G01 X198.071 Y265.753
G01 X198.888 Y268.288
G01 X199.829 Y270.782
G01 X200.891 Y273.227
G01 X202.073 Y275.618
G01 X203.371 Y277.948
G01 X204.782 Y280.213
G01 X206.304 Y282.407
G01 X207.931 Y284.525
G01 X209.662 Y286.560
G01 X211.491 Y288.509
G01 X213.413 Y290.367
G01 X215.426 Y292.129
G01 X217.523 Y293.790
G01 X219.700 Y295.347
G01 X221.952 Y296.796
G01 X224.272 Y298.133
G01 X226.657 Y299.355
G01 X229.099 Y300.459
G01 X231.594 Y301.442
G01 X234.134 Y302.302
G01 X236.715 Y303.036
G01 X239.330 Y303.643
G01 X241.972 Y304.121
G01 X244.635 Y304.469
G01 X247.313 Y304.686
G01 X250.000 Y304.772
G01 X252.688 Y304.725
G01 X255.372 Y304.547
G01 X258.045 Y304.237
G01 X260.701 Y303.796
G01 X263.332 Y303.225
G01 X265.933 Y302.525
G01 X268.498 Y301.698
G01 X271.020 Y300.746
G01 X273.493 Y299.671
G01 X275.911 Y298.476
G01 X278.268 Y297.163
G01 X280.559 Y295.735
G01 X282.778 Y294.196
G01 X284.920 Y292.550
G01 X286.978 Y290.799
G01 X288.950 Y288.950
G01 X290.828 Y287.005
G01 X292.610 Y284.969
G01 X294.290 Y282.848
G01 X295.865 Y280.646
G01 X297.330 Y278.368
G01 X298.682 Y276.021
G01 X299.918 Y273.609
G01 X301.034 Y271.139
G01 X302.028 Y268.616
G01 X302.897 Y266.046
G01 X303.640 Y263.436
G01 X304.254 Y260.792
G01 X304.737 Y258.119
G01 X305.089 Y255.426
G01 X305.308 Y252.717
G01 X305.394 Y250.000
G01 X305.347 Y247.281
G01 X305.166 Y244.567
G01 X304.852 Y241.863
G01 X304.406 Y239.178
G01 X303.828 Y236.517
G01 X303.121 Y233.886
G01 X302.284 Y231.292
G01 X301.321 Y228.742
G01 X300.234 Y226.241
G01 X299.025 Y223.796
G01 X297.697 Y221.412
G01 X296.253 Y219.095
G01 X294.696 Y216.851
G01 X293.031 Y214.686
G01 X291.261 Y212.604
G01 X289.390 Y210.610
G01 X287.423 Y208.711
G01 X285.364 Y206.909
G01 X283.218 Y205.210
G01 X280.991 Y203.618
G01 X278.688 Y202.136
G01 X276.314 Y200.769
G01 X273.875 Y199.520
G01 X271.377 Y198.391
G01 X268.826 Y197.386
G01 X266.227 Y196.507
G01 X263.587 Y195.756
G01 X260.913 Y195.136
G01 X258.211 Y194.647
G01 X255.487 Y194.292
G01 X252.748 Y194.070
G01 X250.000 Y193.983
G01 X247.250 Y194.031
G01 X244.506 Y194.214
G01 X241.772 Y194.532
G01 X239.057 Y194.983
G01 X236.365 Y195.568
G01 X233.705 Y196.284
G01 X231.083 Y197.130
G01 X228.504 Y198.104
G01 X225.975 Y199.203
G01 X223.502 Y200.426
G01 X221.092 Y201.769
G01 X218.749 Y203.230
G01 X216.480 Y204.804
G01 X214.291 Y206.488
G01 X212.186 Y208.278
G01 X210.170 Y210.170
G01 X208.249 Y212.159
G01 X206.428 Y214.241
G01 X204.710 Y216.411
G01 X203.100 Y218.663
G01 X201.603 Y220.992
G01 X200.220 Y223.392
G01 X198.957 Y225.859
G01 X197.816 Y228.385
G01 X196.800 Y230.965
G01 X195.912 Y233.592
G01 X195.153 Y236.261
G01 X194.526 Y238.965
G01 X194.032 Y241.698
G01 X193.672 Y244.452
G01 X193.449 Y247.222
G01 X193.361 Y250.000
G01 X193.410 Y252.780
G01 X193.595 Y255.555
G01 X193.916 Y258.319
G01 X194.373 Y261.065
G01 X194.964 Y263.786
G01 X195.688 Y266.475
G01 X196.544 Y269.127
G01 X197.529 Y271.734
G01 X198.641 Y274.291
G01 X199.877 Y276.791
G01 X201.236 Y279.228
G01 X202.712 Y281.597
G01 X204.304 Y283.890
G01 X206.007 Y286.104
G01 X207.817 Y288.232
G01 X209.730 Y290.270
G01 X211.742 Y292.212
G01 X213.846 Y294.053
G01 X216.040 Y295.790
G01 X218.317 Y297.417
G01 X220.672 Y298.931
G01 X223.099 Y300.329
G01 X225.592 Y301.605
G01 X228.147 Y302.759
G01 X230.755 Y303.786
G01 X233.412 Y304.684
G01 X236.110 Y305.451
G01 X238.844 Y306.085
G01 X241.607 Y306.584
G01 X244.391 Y306.947
G01 X247.191 Y307.173
G01 X250.000 Y307.261
G01 X252.811 Y307.212
G01 X255.616 Y307.024
G01 X258.411 Y306.699
G01 X261.186 Y306.237
G01 X263.937 Y305.640
G01 X266.656 Y304.907
G01 X269.337 Y304.042
G01 X271.973 Y303.046
G01 X274.557 Y301.922
G01 X277.085 Y300.672
G01 X279.548 Y299.298
G01 X281.942 Y297.805
G01 X284.261 Y296.196
G01 X286.499 Y294.474
G01 X288.650 Y292.644
G01 X290.710 Y290.710
G01 X292.673 Y288.676
G01 X294.534 Y286.548
G01 X296.290 Y284.331
G01 X297.935 Y282.029
G01 X299.465 Y279.648
G01 X300.877 Y277.195
G01 X302.168 Y274.674
G01 X303.334 Y272.092
G01 X304.372 Y269.455
G01 X305.280 Y266.769
G01 X306.055 Y264.041
G01 X306.695 Y261.277
G01 X307.200 Y258.485
G01 X307.566 Y255.670
G01 X307.795 Y252.839
G01 X307.884 Y250.000
G01 X307.834 Y247.159
G01 X307.644 Y244.323
G01 X307.315 Y241.498
G01 X306.848 Y238.692
G01 X306.243 Y235.912
G01 X305.503 Y233.163
G01 X304.628 Y230.454
G01 X303.621 Y227.789
G01 X302.485 Y225.177
G01 X301.221 Y222.622
G01 X299.832 Y220.132
G01 X298.323 Y217.712
G01 X296.696 Y215.368
G01 X294.955 Y213.106
G01 X293.105 Y210.932
G01 X291.150 Y208.850
G01 X289.094 Y206.866
G01 X286.943 Y204.985
G01 X284.701 Y203.210
G01 X282.375 Y201.548
G01 X279.968 Y200.001
G01 X277.488 Y198.574
G01 X274.940 Y197.269
G01 X272.330 Y196.091
G01 X269.664 Y195.042
G01 X266.950 Y194.125
G01 X264.192 Y193.341
G01 X261.399 Y192.694
G01 X258.576 Y192.185
G01 X255.731 Y191.814
G01 X252.870 Y191.584
G01 X250.000 Y191.494
G01 X247.128 Y191.545
G01 X244.262 Y191.737
G01 X241.407 Y192.069
G01 X238.571 Y192.542
G01 X235.761 Y193.153
G01 X232.983 Y193.901
G01 X230.244 Y194.786
G01 X227.551 Y195.804
G01 X224.911 Y196.953
G01 X222.329 Y198.231
G01 X219.812 Y199.634
G01 X217.366 Y201.160
G01 X214.997 Y202.804
G01 X212.711 Y204.564
G01 X210.514 Y206.434
G01 X208.410 Y208.410
G01 X206.405 Y210.488
G01 X204.503 Y212.662
G01 X202.711 Y214.928
G01 X201.030 Y217.280
G01 X199.467 Y219.712
G01 X198.025 Y222.219
G01 X196.707 Y224.794
G01 X195.516 Y227.432
G01 X194.456 Y230.126
G01 X193.529 Y232.870
G01 X192.738 Y235.657
G01 X192.084 Y238.480
G01 X191.569 Y241.333
G01 X191.195 Y244.208
G01 X190.962 Y247.100
G01 X190.871 Y250.000
G01 X190.923 Y252.902
G01 X191.117 Y255.799
G01 X191.454 Y258.685
G01 X191.931 Y261.551
G01 X192.549 Y264.391
G01 X193.306 Y267.198
G01 X194.200 Y269.966
G01 X195.229 Y272.687
G01 X196.390 Y275.356
G01 X197.682 Y277.965
G01 X199.100 Y280.508
G01 X200.642 Y282.980
G01 X202.304 Y285.374
G01 X204.082 Y287.684
G01 X205.972 Y289.904
G01 X207.970 Y292.030
G01 X210.070 Y294.056
G01 X212.267 Y295.978
G01 X214.557 Y297.789
G01 X216.934 Y299.487
G01 X219.392 Y301.067
G01 X221.925 Y302.524
G01 X224.528 Y303.856
G01 X227.194 Y305.059
G01 X229.916 Y306.130
G01 X232.689 Y307.067
G01 X235.505 Y307.866
G01 X238.358 Y308.527
G01 X241.241 Y309.047
G01 X244.147 Y309.425
G01 X247.069 Y309.660
G01 X250.000 Y309.751
G01 X252.933 Y309.698
G01 X255.860 Y309.502
G01 X258.776 Y309.162
G01 X261.672 Y308.679
G01 X264.542 Y308.055
G01 X267.379 Y307.290
G01 X270.175 Y306.386
G01 X272.925 Y305.347
G01 X275.622 Y304.173
G01 X278.258 Y302.867
G01 X280.828 Y301.434
G01 X283.326 Y299.875
G01 X285.744 Y298.196
G01 X288.078 Y296.399
G01 X290.322 Y294.489
G01 X292.470 Y292.470
G01 X294.518 Y290.348
G01 X296.459 Y288.128
G01 X298.289 Y285.814
G01 X300.005 Y283.412
G01 X301.601 Y280.928
G01 X303.073 Y278.368
G01 X304.419 Y275.738
G01 X305.634 Y273.044
G01 X306.716 Y270.293
G01 X307.662 Y267.492
G01 X308.470 Y264.646
G01 X309.137 Y261.763
G01 X309.662 Y258.850
G01 X310.044 Y255.914
G01 X310.281 Y252.961
G01 X310.373 Y250.000
G01 X310.320 Y247.037
G01 X310.121 Y244.079
G01 X309.778 Y241.133
G01 X309.290 Y238.207
G01 X308.658 Y235.307
G01 X307.885 Y232.441
G01 X306.972 Y229.615
G01 X305.922 Y226.837
G01 X304.735 Y224.112
G01 X303.416 Y221.448
G01 X301.968 Y218.852
G01 X300.393 Y216.329
G01 X298.695 Y213.885
G01 X296.880 Y211.527
G01 X294.950 Y209.260
G01 X292.911 Y207.089
G01 X290.766 Y205.021
G01 X288.523 Y203.060
G01 X286.185 Y201.211
G01 X283.758 Y199.478
G01 X281.248 Y197.866
G01 X278.662 Y196.378
G01 X276.004 Y195.019
G01 X273.283 Y193.791
G01 X270.503 Y192.698
G01 X267.672 Y191.742
G01 X264.797 Y190.926
G01 X261.885 Y190.252
G01 X258.941 Y189.722
G01 X255.975 Y189.337
G01 X252.992 Y189.097
G01 X250.000 Y189.004
G01 X247.006 Y189.058
G01 X244.018 Y189.259
G01 X241.041 Y189.607
G01 X238.085 Y190.100
G01 X235.156 Y190.738
G01 X232.260 Y191.519
G01 X229.405 Y192.442
G01 X226.598 Y193.503
G01 X223.846 Y194.702
G01 X221.155 Y196.035
G01 X218.532 Y197.499
G01 X215.983 Y199.090
G01 X213.514 Y200.805
G01 X211.132 Y202.639
G01 X208.842 Y204.589
G01 X206.649 Y206.649
G01 X204.560 Y208.816
G01 X202.579 Y211.083
G01 X200.711 Y213.445
G01 X198.960 Y215.896
G01 X197.332 Y218.432
G01 X195.829 Y221.045
G01 X194.456 Y223.730
G01 X193.216 Y226.479
G01 X192.112 Y229.287
G01 X191.147 Y232.147
G01 X190.323 Y235.052
G01 X189.642 Y237.994
G01 X189.106 Y240.967
G01 X188.717 Y243.964
G01 X188.475 Y246.977
G01 X188.382 Y250.000
G01 X188.437 Y253.024
G01 X188.640 Y256.043
G01 X188.991 Y259.050
G01 X189.489 Y262.036
G01 X190.134 Y264.996
G01 X190.923 Y267.921
G01 X191.856 Y270.804
G01 X192.928 Y273.640
G01 X194.140 Y276.420
G01 X195.486 Y279.138
G01 X196.965 Y281.788
G01 X198.572 Y284.363
G01 X200.305 Y286.857
G01 X202.158 Y289.263
G01 X204.128 Y291.576
G01 X206.209 Y293.791
G01 X208.398 Y295.901
G01 X210.688 Y297.902
G01 X213.074 Y299.789
G01 X215.551 Y301.557
G01 X218.112 Y303.202
G01 X220.752 Y304.720
G01 X223.464 Y306.107
G01 X226.241 Y307.359
G01 X229.078 Y308.474
G01 X231.966 Y309.449
G01 X234.900 Y310.281
G01 X237.873 Y310.968
G01 X240.876 Y311.509
G01 X243.903 Y311.902
G01 X246.947 Y312.146
G01 X250.000 Y312.241
G01 X253.055 Y312.185
G01 X256.104 Y311.980
G01 X259.141 Y311.625
G01 X262.158 Y311.121
G01 X265.147 Y310.470
G01 X268.101 Y309.672
G01 X271.014 Y308.731
G01 X273.878 Y307.647
G01 X276.686 Y306.423
G01 X279.432 Y305.063
G01 X282.108 Y303.569
G01 X284.709 Y301.945
G01 X287.227 Y300.195
G01 X289.658 Y298.323
G01 X291.994 Y296.333
G01 X294.231 Y294.231
G01 X296.362 Y292.020
G01 X298.383 Y289.707
G01 X300.289 Y287.297
G01 X302.075 Y284.795
G01 X303.736 Y282.208
G01 X305.269 Y279.542
G01 X306.669 Y276.803
G01 X307.934 Y273.997
G01 X309.060 Y271.132
G01 X310.045 Y268.214
G01 X310.885 Y265.251
G01 X311.579 Y262.249
G01 X312.125 Y259.215
G01 X312.522 Y256.158
G01 X312.768 Y253.084
G01 X312.863 Y250.000
G01 X312.807 Y246.915
G01 X312.599 Y243.835
G01 X312.240 Y240.768
G01 X311.731 Y237.721
G01 X311.073 Y234.702
G01 X310.268 Y231.718
G01 X309.317 Y228.776
G01 X308.222 Y225.884
G01 X306.986 Y223.048
G01 X305.612 Y220.275
G01 X304.103 Y217.572
G01 X302.463 Y214.945
G01 X300.695 Y212.402
G01 X298.804 Y209.947
G01 X296.795 Y207.588
G01 X294.671 Y205.329
G01 X292.438 Y203.177
G01 X290.102 Y201.136
G01 X287.668 Y199.211
G01 X285.141 Y197.408
G01 X282.528 Y195.730
G01 X279.835 Y194.182
G01 X277.069 Y192.768
G01 X274.235 Y191.491
G01 X271.342 Y190.354
G01 X268.395 Y189.360
G01 X265.402 Y188.511
G01 X262.370 Y187.811
G01 X259.307 Y187.259
G01 X256.219 Y186.859
G01 X253.114 Y186.610
G01 X250.000 Y186.515
G01 X246.884 Y186.572
G01 X243.774 Y186.782
G01 X240.676 Y187.144
G01 X237.599 Y187.658
G01 X234.551 Y188.323
G01 X231.537 Y189.137
G01 X228.567 Y190.097
G01 X225.646 Y191.203
G01 X222.782 Y192.452
G01 X219.981 Y193.839
G01 X217.252 Y195.363
G01 X214.600 Y197.020
G01 X212.031 Y198.805
G01 X209.552 Y200.715
G01 X207.170 Y202.744
G01 X204.889 Y204.889
G01 X202.715 Y207.144
G01 X200.654 Y209.503
G01 X198.711 Y211.962
G01 X196.890 Y214.513
G01 X195.196 Y217.152
G01 X193.633 Y219.871
G01 X192.205 Y222.665
G01 X190.916 Y225.527
G01 X189.768 Y228.449
G01 X188.764 Y231.424
G01 X187.908 Y234.447
G01 X187.200 Y237.508
G01 X186.644 Y240.602
G01 X186.240 Y243.720
G01 X185.989 Y246.855
G01 X185.892 Y250.000
G01 X185.950 Y253.147
G01 X186.162 Y256.287
G01 X186.528 Y259.415
G01 X187.048 Y262.522
G01 X187.719 Y265.601
G01 X188.541 Y268.643
G01 X189.511 Y271.643
G01 X190.628 Y274.593
G01 X191.889 Y277.484
G01 X193.290 Y280.312
G01 X194.829 Y283.068
G01 X196.502 Y285.746
G01 X198.305 Y288.340
G01 X200.233 Y290.842
G01 X202.283 Y293.248
G01 X204.449 Y295.551
G01 X206.726 Y297.746
G01 X209.108 Y299.827
G01 X211.591 Y301.789
G01 X214.167 Y303.627
G01 X216.832 Y305.338
G01 X219.578 Y306.915
G01 X222.399 Y308.357
G01 X225.288 Y309.659
G01 X228.239 Y310.818
G01 X231.244 Y311.831
G01 X234.295 Y312.696
G01 X237.387 Y313.410
G01 X240.511 Y313.972
G01 X243.659 Y314.380
G01 X246.825 Y314.633
G01 X250.000 Y314.730
G01 X253.177 Y314.672
G01 X256.348 Y314.457
G01 X259.506 Y314.087
G01 X262.643 Y313.563
G01 X265.752 Y312.885
G01 X268.824 Y312.055
G01 X271.853 Y311.075
G01 X274.831 Y309.947
G01 X277.751 Y308.674
G01 X280.605 Y307.259
G01 X283.388 Y305.705
G01 X286.092 Y304.015
G01 X288.710 Y302.195
G01 X291.237 Y300.248
G01 X293.666 Y298.178
G01 X295.991 Y295.991
G01 X298.207 Y293.692
G01 X300.308 Y291.287
G01 X302.289 Y288.780
G01 X304.145 Y286.178
G01 X305.871 Y283.488
G01 X307.464 Y280.715
G01 X308.920 Y277.867
G01 X310.234 Y274.950
G01 X311.404 Y271.971
G01 X312.427 Y268.937
G01 X313.300 Y265.856
G01 X314.021 Y262.735
G01 X314.588 Y259.581
G01 X314.999 Y256.402
G01 X315.255 Y253.206
G01 X315.353 Y250.000
G01 X315.293 Y246.792
G01 X315.077 Y243.591
G01 X314.703 Y240.402
G01 X314.173 Y237.235
G01 X313.488 Y234.097
G01 X312.650 Y230.995
G01 X311.661 Y227.937
G01 X310.522 Y224.931
G01 X309.236 Y221.983
G01 X307.807 Y219.101
G01 X306.238 Y216.292
G01 X304.533 Y213.562
G01 X302.695 Y210.919
G01 X300.729 Y208.368
G01 X298.639 Y205.916
G01 X296.431 Y203.569
G01 X294.110 Y201.332
G01 X291.681 Y199.211
G01 X289.151 Y197.211
G01 X286.524 Y195.338
G01 X283.808 Y193.595
G01 X281.009 Y191.987
G01 X278.133 Y190.517
G01 X275.188 Y189.191
G01 X272.180 Y188.010
G01 X269.118 Y186.977
G01 X266.007 Y186.096
G01 X262.856 Y185.369
G01 X259.672 Y184.797
G01 X256.463 Y184.381
G01 X253.236 Y184.124
G01 X250.000 Y184.025
G01 X246.762 Y184.085
G01 X243.529 Y184.304
G01 X240.311 Y184.681
G01 X237.114 Y185.216
G01 X233.946 Y185.908
G01 X230.815 Y186.754
G01 X227.728 Y187.753
G01 X224.693 Y188.903
G01 X221.717 Y190.201
G01 X218.808 Y191.644
G01 X215.972 Y193.228
G01 X213.217 Y194.950
G01 X210.548 Y196.805
G01 X207.973 Y198.790
G01 X205.498 Y200.899
G01 X203.129 Y203.129
G01 X200.871 Y205.472
G01 X198.730 Y207.924
G01 X196.711 Y210.479
G01 X194.820 Y213.130
G01 X193.061 Y215.872
G01 X191.438 Y218.698
G01 X189.955 Y221.601
G01 X188.616 Y224.574
G01 X187.424 Y227.610
G01 X186.382 Y230.702
G01 X185.493 Y233.842
G01 X184.758 Y237.023
G01 X184.181 Y240.237
G01 X183.762 Y243.476
G01 X183.502 Y246.733
G01 X183.402 Y250.000
G01 X183.463 Y253.269
G01 X183.684 Y256.532
G01 X184.066 Y259.780
G01 X184.606 Y263.008
G01 X185.304 Y266.206
G01 X186.158 Y269.366
G01 X187.167 Y272.482
G01 X188.328 Y275.545
G01 X189.638 Y278.549
G01 X191.095 Y281.486
G01 X192.694 Y284.348
G01 X194.432 Y287.129
G01 X196.305 Y289.823
G01 X198.309 Y292.422
G01 X200.438 Y294.920
G01 X202.688 Y297.312
G01 X205.054 Y299.590
G01 X207.529 Y301.751
G01 X210.108 Y303.788
G01 X212.784 Y305.697
G01 X215.552 Y307.473
G01 X218.404 Y309.111
G01 X221.335 Y310.608
G01 X224.336 Y311.959
G01 X227.400 Y313.162
G01 X230.521 Y314.214
G01 X233.691 Y315.111
G01 X236.901 Y315.852
G01 X240.145 Y316.435
G01 X243.415 Y316.858
G01 X246.703 Y317.120
G01 X250.000 Y317.220
G01 X253.299 Y317.158
G01 X256.593 Y316.935
G01 X259.872 Y316.550
G01 X263.129 Y316.005
G01 X266.357 Y315.300
G01 X269.547 Y314.437
G01 X272.692 Y313.419
G01 X275.783 Y312.247
G01 X278.815 Y310.924
G01 X281.779 Y309.454
G01 X284.668 Y307.840
G01 X287.475 Y306.085
G01 X290.193 Y304.195
G01 X292.817 Y302.172
G01 X295.338 Y300.023
G01 X297.752 Y297.752
G01 X300.052 Y295.364
G01 X302.232 Y292.866
G01 X304.288 Y290.263
G01 X306.215 Y287.562
G01 X308.007 Y284.768
G01 X309.660 Y281.889
G01 X311.170 Y278.931
G01 X312.534 Y275.903
G01 X313.748 Y272.810
G01 X314.809 Y269.660
G01 X315.715 Y266.461
G01 X316.462 Y263.220
G01 X317.050 Y259.946
G01 X317.477 Y256.646
G01 X317.741 Y253.328
G01 X317.842 Y250.000
G01 X317.780 Y246.670
G01 X317.554 Y243.346
G01 X317.166 Y240.037
G01 X316.615 Y236.749
G01 X315.904 Y233.492
G01 X315.033 Y230.273
G01 X314.005 Y227.099
G01 X312.822 Y223.978
G01 X311.487 Y220.919
G01 X310.003 Y217.928
G01 X308.374 Y215.012
G01 X306.603 Y212.179
G01 X304.695 Y209.436
G01 X302.653 Y206.789
G01 X300.484 Y204.244
G01 X298.192 Y201.808
G01 X295.782 Y199.487
G01 X293.261 Y197.287
G01 X290.634 Y195.212
G01 X287.907 Y193.268
G01 X285.088 Y191.459
G01 X282.182 Y189.791
G01 X279.198 Y188.267
G01 X276.141 Y186.891
G01 X273.019 Y185.666
G01 X269.840 Y184.595
G01 X266.612 Y183.681
G01 X263.342 Y182.927
G01 X260.037 Y182.334
G01 X256.707 Y181.904
G01 X253.358 Y181.637
G01 X250.000 Y181.535
G01 X246.640 Y181.598
G01 X243.285 Y181.826
G01 X239.946 Y182.219
G01 X236.628 Y182.774
G01 X233.341 Y183.493
G01 X230.092 Y184.372
G01 X226.889 Y185.409
G01 X223.740 Y186.603
G01 X220.653 Y187.950
G01 X217.634 Y189.448
G01 X214.692 Y191.092
G01 X211.833 Y192.880
G01 X209.065 Y194.806
G01 X206.394 Y196.866
G01 X203.826 Y199.055
G01 X201.368 Y201.368
G01 X199.026 Y203.800
G01 X196.805 Y206.344
G01 X194.712 Y208.995
G01 X192.750 Y211.747
G01 X190.925 Y214.592
G01 X189.242 Y217.524
G01 X187.704 Y220.536
G01 X186.316 Y223.621
G01 X185.080 Y226.771
G01 X183.999 Y229.979
G01 X183.078 Y233.237
G01 X182.317 Y236.537
G01 X181.718 Y239.871
G01 X181.284 Y243.232
G01 X181.016 Y246.611
G01 X180.913 Y250.000
G01 X180.977 Y253.391
G01 X181.207 Y256.776
G01 X181.603 Y260.146
G01 X182.164 Y263.493
G01 X182.889 Y266.810
G01 X183.776 Y270.089
G01 X184.823 Y273.321
G01 X186.028 Y276.498
G01 X187.388 Y279.613
G01 X188.899 Y282.659
G01 X190.558 Y285.628
G01 X192.362 Y288.512
G01 X194.306 Y291.306
G01 X196.384 Y294.001
G01 X198.594 Y296.592
G01 X200.928 Y299.072
G01 X203.382 Y301.435
G01 X205.949 Y303.676
G01 X208.625 Y305.788
G01 X211.401 Y307.767
G01 X214.272 Y309.608
G01 X217.231 Y311.307
G01 X220.270 Y312.858
G01 X223.383 Y314.259
G01 X226.561 Y315.506
G01 X229.798 Y316.596
G01 X233.086 Y317.526
G01 X236.416 Y318.294
G01 X239.780 Y318.897
G01 X243.171 Y319.335
G01 X246.580 Y319.606
G01 X250.000 Y319.710
G01 X253.421 Y319.645
G01 X256.837 Y319.413
G01 X260.237 Y319.013
G01 X263.615 Y318.446
G01 X266.962 Y317.715
G01 X270.269 Y316.820
G01 X273.530 Y315.763
G01 X276.736 Y314.547
G01 X279.880 Y313.175
G01 X282.953 Y311.650
G01 X285.948 Y309.975
G01 X288.858 Y308.155
G01 X291.677 Y306.194
G01 X294.396 Y304.097
G01 X297.010 Y301.868
G01 X299.512 Y299.512
G01 X301.896 Y297.036
G01 X304.157 Y294.445
G01 X306.288 Y291.746
G01 X308.285 Y288.945
G01 X310.142 Y286.048
G01 X311.856 Y283.063
G01 X313.421 Y279.996
G01 X314.834 Y276.855
G01 X316.092 Y273.648
G01 X317.192 Y270.382
G01 X318.130 Y267.066
G01 X318.904 Y263.706
G01 X319.513 Y260.311
G01 X319.955 Y256.890
G01 X320.228 Y253.450
G01 X320.332 Y250.000
G01 X320.267 Y246.548
G01 X320.032 Y243.102
G01 X319.628 Y239.672
G01 X319.057 Y236.264
G01 X318.319 Y232.887
G01 X317.415 Y229.550
G01 X316.349 Y226.260
G01 X315.122 Y223.026
G01 X313.738 Y219.854
G01 X312.199 Y216.754
G01 X310.509 Y213.732
G01 X308.673 Y210.796
G01 X306.694 Y207.953
G01 X304.578 Y205.209
G01 X302.329 Y202.572
G01 X299.952 Y200.048
G01 X297.454 Y197.642
G01 X294.840 Y195.362
G01 X292.117 Y193.212
G01 X289.290 Y191.198
G01 X286.368 Y189.324
G01 X283.356 Y187.595
G01 X280.262 Y186.016
G01 X277.094 Y184.590
G01 X273.858 Y183.322
G01 X270.563 Y182.213
G01 X267.217 Y181.266
G01 X263.827 Y180.485
G01 X260.403 Y179.871
G01 X256.951 Y179.426
G01 X253.481 Y179.151
G01 X250.000 Y179.046
G01 X246.517 Y179.112
G01 X243.041 Y179.349
G01 X239.580 Y179.756
G01 X236.142 Y180.333
G01 X232.736 Y181.078
G01 X229.369 Y181.989
G01 X226.050 Y183.065
G01 X222.787 Y184.303
G01 X219.588 Y185.700
G01 X216.461 Y187.252
G01 X213.412 Y188.957
G01 X210.450 Y190.810
G01 X207.582 Y192.806
G01 X204.814 Y194.941
G01 X202.154 Y197.210
G01 X199.608 Y199.608
G01 X197.181 Y202.128
G01 X194.881 Y204.765
G01 X192.712 Y207.512
G01 X190.680 Y210.364
G01 X188.790 Y213.312
G01 X187.046 Y216.351
G01 X185.454 Y219.472
G01 X184.015 Y222.668
G01 X182.736 Y225.932
G01 X181.617 Y229.256
G01 X180.663 Y232.632
G01 X179.875 Y236.051
G01 X179.256 Y239.506
G01 X178.807 Y242.988
G01 X178.529 Y246.489
G01 X178.423 Y250.000
G01 X178.490 Y253.513
G01 X178.729 Y257.020
G01 X179.140 Y260.511
G01 X179.722 Y263.979
G01 X180.474 Y267.415
G01 X181.394 Y270.812
G01 X182.479 Y274.159
G01 X183.728 Y277.451
G01 X185.137 Y280.678
G01 X186.703 Y283.833
G01 X188.423 Y286.908
G01 X190.292 Y289.896
G01 X192.306 Y292.789
G01 X194.460 Y295.581
G01 X196.749 Y298.264
G01 X199.168 Y300.832
G01 X201.710 Y303.280
G01 X204.370 Y305.600
G01 X207.142 Y307.788
G01 X210.018 Y309.837
G01 X212.992 Y311.744
G01 X216.057 Y313.502
G01 X219.206 Y315.109
G01 X222.430 Y316.560
G01 X225.723 Y317.851
G01 X229.076 Y318.979
G01 X232.481 Y319.941
G01 X235.930 Y320.736
G01 X239.415 Y321.360
G01 X242.927 Y321.813
G01 X246.458 Y322.093
G01 X250.000 Y322.199
G01 X253.544 Y322.132
G01 X257.081 Y321.890
G01 X260.602 Y321.475
G01 X264.101 Y320.888
G01 X267.567 Y320.130
G01 X270.992 Y319.202
G01 X274.369 Y318.107
G01 X277.689 Y316.847
G01 X280.944 Y315.426
G01 X284.126 Y313.846
G01 X287.228 Y312.111
G01 X290.241 Y310.225
G01 X293.160 Y308.194
G01 X295.975 Y306.021
G01 X298.682 Y303.712
G01 X301.273 Y301.273
G01 X303.741 Y298.708
G01 X306.081 Y296.025
G01 X308.288 Y293.229
G01 X310.355 Y290.328
G01 X312.278 Y287.328
G01 X314.051 Y284.236
G01 X315.672 Y281.060
G01 X317.135 Y277.808
G01 X318.437 Y274.487
G01 X319.574 Y271.105
G01 X320.545 Y267.671
G01 X321.346 Y264.192
G01 X321.976 Y260.677
G01 X322.432 Y257.134
G01 X322.714 Y253.572
G01 X322.822 Y250.000
G01 X322.753 Y246.426
G01 X322.510 Y242.858
G01 X322.091 Y239.306
G01 X321.499 Y235.778
G01 X320.734 Y232.282
G01 X319.798 Y228.827
G01 X318.693 Y225.421
G01 X317.422 Y222.073
G01 X315.988 Y218.790
G01 X314.394 Y215.580
G01 X312.645 Y212.452
G01 X310.743 Y209.413
G01 X308.694 Y206.470
G01 X306.502 Y203.630
G01 X304.173 Y200.900
G01 X301.713 Y198.287
G01 X299.126 Y195.798
G01 X296.420 Y193.438
G01 X293.600 Y191.212
G01 X290.674 Y189.128
G01 X287.648 Y187.189
G01 X284.530 Y185.400
G01 X281.327 Y183.766
G01 X278.046 Y182.290
G01 X274.697 Y180.977
G01 X271.286 Y179.830
G01 X267.822 Y178.851
G01 X264.313 Y178.044
G01 X260.768 Y177.409
G01 X257.195 Y176.948
G01 X253.603 Y176.664
G01 X250.000 Y176.556
G01 X246.395 Y176.625
G01 X242.797 Y176.871
G01 X239.215 Y177.293
G01 X235.657 Y177.891
G01 X232.131 Y178.663
G01 X228.646 Y179.607
G01 X225.212 Y180.721
G01 X221.835 Y182.003
G01 X218.524 Y183.449
G01 X215.287 Y185.057
G01 X212.132 Y186.821
G01 X209.067 Y188.739
G01 X206.099 Y190.806
G01 X203.235 Y193.017
G01 X200.482 Y195.365
G01 X197.847 Y197.847
G01 X195.337 Y200.456
G01 X192.956 Y203.186
G01 X190.712 Y206.029
G01 X188.610 Y208.981
G01 X186.655 Y212.032
G01 X184.851 Y215.177
G01 X183.203 Y218.407
G01 X181.715 Y221.716
G01 X180.391 Y225.094
G01 X179.235 Y228.534
G01 X178.248 Y232.027
G01 X177.433 Y235.566
G01 X176.793 Y239.141
G01 X176.329 Y242.744
G01 X176.042 Y246.367
G01 X175.934 Y250.000
G01 X176.003 Y253.635
G01 X176.252 Y257.264
G01 X176.678 Y260.876
G01 X177.280 Y264.465
G01 X178.059 Y268.020
G01 X179.011 Y271.534
G01 X180.135 Y274.998
G01 X181.428 Y278.404
G01 X182.887 Y281.742
G01 X184.508 Y285.006
G01 X186.288 Y288.188
G01 X188.222 Y291.279
G01 X190.306 Y294.272
G01 X192.535 Y297.160
G01 X194.904 Y299.936
G01 X197.407 Y302.593
G01 X200.038 Y305.125
G01 X202.791 Y307.525
G01 X205.659 Y309.788
G01 X208.635 Y311.907
G01 X211.712 Y313.879
G01 X214.884 Y315.698
G01 X218.141 Y317.360
G01 X221.477 Y318.860
G01 X224.884 Y320.195
G01 X228.353 Y321.361
G01 X231.876 Y322.356
G01 X235.444 Y323.177
G01 X239.049 Y323.823
G01 X242.683 Y324.290
G01 X246.336 Y324.579
G01 X250.000 Y324.689
G01 X253.666 Y324.618
G01 X257.325 Y324.368
G01 X260.968 Y323.938
G01 X264.586 Y323.330
G01 X268.172 Y322.545
G01 X271.715 Y321.584
G01 X275.208 Y320.451
G01 X278.642 Y319.147
G01 X282.008 Y317.676
G01 X285.300 Y316.041
G01 X288.508 Y314.246
G01 X291.625 Y312.296
G01 X294.643 Y310.194
G01 X297.555 Y307.946
G01 X300.354 Y305.557
G01 X303.033 Y303.033
G01 X305.586 Y300.380
G01 X308.006 Y297.604
G01 X310.287 Y294.712
G01 X312.425 Y291.711
G01 X314.413 Y288.608
G01 X316.247 Y285.410
G01 X317.922 Y282.125
G01 X319.435 Y278.761
G01 X320.781 Y275.326
G01 X321.957 Y271.828
G01 X322.960 Y268.275
G01 X323.788 Y264.677
G01 X324.438 Y261.042
G01 X324.910 Y257.378
G01 X325.201 Y253.694
G01 X325.311 Y250.000
G01 X325.240 Y246.304
G01 X324.987 Y242.614
G01 X324.554 Y238.941
G01 X323.940 Y235.292
G01 X323.149 Y231.677
G01 X322.180 Y228.104
G01 X321.037 Y224.583
G01 X319.722 Y221.120
G01 X318.239 Y217.725
G01 X316.590 Y214.407
G01 X314.780 Y211.172
G01 X312.813 Y208.030
G01 X310.694 Y204.987
G01 X308.427 Y202.050
G01 X306.018 Y199.228
G01 X303.473 Y196.527
G01 X300.798 Y193.953
G01 X297.999 Y191.513
G01 X295.083 Y189.213
G01 X292.057 Y187.058
G01 X288.928 Y185.053
G01 X285.703 Y183.204
G01 X282.391 Y181.515
G01 X278.999 Y179.990
G01 X275.535 Y178.633
G01 X272.008 Y177.448
G01 X268.427 Y176.436
G01 X264.799 Y175.602
G01 X261.133 Y174.946
G01 X257.439 Y174.471
G01 X253.725 Y174.177
G01 X250.000 Y174.066
G01 X246.273 Y174.138
G01 X242.553 Y174.393
G01 X238.850 Y174.831
G01 X235.171 Y175.449
G01 X231.526 Y176.248
G01 X227.924 Y177.224
G01 X224.373 Y178.377
G01 X220.882 Y179.703
G01 X217.459 Y181.199
G01 X214.113 Y182.861
G01 X210.852 Y184.686
G01 X207.684 Y186.669
G01 X204.616 Y188.806
G01 X201.655 Y191.092
G01 X198.810 Y193.521
G01 X196.087 Y196.087
G01 X193.492 Y198.784
G01 X191.032 Y201.606
G01 X188.713 Y204.546
G01 X186.540 Y207.597
G01 X184.519 Y210.752
G01 X182.655 Y214.003
G01 X180.952 Y217.343
G01 X179.415 Y220.763
G01 X178.047 Y224.255
G01 X176.852 Y227.811
G01 X175.833 Y231.422
G01 X174.991 Y235.080
G01 X174.330 Y238.775
G01 X173.851 Y242.500
G01 X173.556 Y246.245
G01 X173.444 Y250.000
G01 X173.517 Y253.757
G01 X173.774 Y257.508
G01 X174.215 Y261.242
G01 X174.839 Y264.951
G01 X175.644 Y268.625
G01 X176.629 Y272.257
G01 X177.791 Y275.837
G01 X179.128 Y279.356
G01 X180.636 Y282.807
G01 X182.312 Y286.180
G01 X184.152 Y289.468
G01 X186.152 Y292.662
G01 X188.307 Y295.755
G01 X190.611 Y298.739
G01 X193.060 Y301.608
G01 X195.647 Y304.353
G01 X198.366 Y306.969
G01 X201.211 Y309.449
G01 X204.175 Y311.787
G01 X207.252 Y313.977
G01 X210.432 Y316.015
G01 X213.710 Y317.894
G01 X217.077 Y319.610
G01 X220.525 Y321.160
G01 X224.045 Y322.539
G01 X227.630 Y323.743
G01 X231.271 Y324.771
G01 X234.958 Y325.619
G01 X238.684 Y326.285
G01 X242.439 Y326.768
G01 X246.214 Y327.066
G01 X250.000 Y327.178
G01 X253.788 Y327.105
G01 X257.569 Y326.846
G01 X261.333 Y326.401
G01 X265.072 Y325.772
G01 X268.776 Y324.960
G01 X272.438 Y323.967
G01 X276.046 Y322.795
G01 X279.594 Y321.447
G01 X283.073 Y319.927
G01 X286.473 Y318.237
G01 X289.788 Y316.382
G01 X293.008 Y314.366
G01 X296.126 Y312.193
G01 X299.134 Y309.870
G01 X302.026 Y307.402
G01 X304.793 Y304.793
G01 X307.430 Y302.052
G01 X309.930 Y299.184
G01 X312.287 Y296.195
G01 X314.495 Y293.094
G01 X316.548 Y289.888
G01 X318.443 Y286.583
G01 X320.173 Y283.189
G01 X321.735 Y279.714
G01 X323.125 Y276.164
G01 X324.339 Y272.551
G01 X325.375 Y268.880
G01 X326.230 Y265.163
G01 X326.901 Y261.407
G01 X327.387 Y257.622
G01 X327.688 Y253.817
G01 X327.801 Y250.000
G01 X327.727 Y246.182
G01 X327.465 Y242.370
G01 X327.016 Y238.576
G01 X326.382 Y234.807
G01 X325.564 Y231.072
G01 X324.562 Y227.382
G01 X323.381 Y223.744
G01 X322.022 Y220.167
G01 X320.489 Y216.661
G01 X318.786 Y213.233
G01 X316.916 Y209.892
G01 X314.883 Y206.647
G01 X312.693 Y203.503
G01 X310.351 Y200.471
G01 X307.863 Y197.556
G01 X305.234 Y194.766
G01 X302.470 Y192.108
G01 X299.578 Y189.589
G01 X296.566 Y187.213
G01 X293.440 Y184.988
G01 X290.208 Y182.918
G01 X286.877 Y181.008
G01 X283.455 Y179.264
G01 X279.952 Y177.690
G01 X276.374 Y176.289
G01 X272.731 Y175.065
G01 X269.032 Y174.021
G01 X265.284 Y173.160
G01 X261.499 Y172.483
G01 X257.683 Y171.993
G01 X253.847 Y171.691
G01 X250.000 Y171.577
G01 X246.151 Y171.652
G01 X242.309 Y171.916
G01 X238.484 Y172.368
G01 X234.685 Y173.007
G01 X230.921 Y173.833
G01 X227.201 Y174.842
G01 X223.534 Y176.033
G01 X219.929 Y177.403
G01 X216.395 Y178.948
G01 X212.940 Y180.665
G01 X209.572 Y182.551
G01 X206.301 Y184.599
G01 X203.133 Y186.807
G01 X200.076 Y189.168
G01 X197.138 Y191.676
G01 X194.326 Y194.326
G01 X191.647 Y197.112
G01 X189.107 Y200.027
G01 X186.713 Y203.063
G01 X184.470 Y206.214
G01 X182.384 Y209.472
G01 X180.460 Y212.830
G01 X178.702 Y216.278
G01 X177.115 Y219.810
G01 X175.703 Y223.416
G01 X174.470 Y227.088
G01 X173.418 Y230.817
G01 X172.550 Y234.594
G01 X171.868 Y238.410
G01 X171.374 Y242.256
G01 X171.069 Y246.122
G01 X170.954 Y250.000
G01 X171.030 Y253.880
G01 X171.296 Y257.752
G01 X171.752 Y261.607
G01 X172.397 Y265.436
G01 X173.229 Y269.230
G01 X174.246 Y272.980
G01 X175.447 Y276.676
G01 X176.828 Y280.309
G01 X178.385 Y283.871
G01 X180.116 Y287.354
G01 X182.017 Y290.748
G01 X184.082 Y294.045
G01 X186.307 Y297.238
G01 X188.686 Y300.319
G01 X191.215 Y303.280
G01 X193.886 Y306.114
G01 X196.694 Y308.814
G01 X199.632 Y311.374
G01 X202.692 Y313.787
G01 X205.868 Y316.047
G01 X209.152 Y318.150
G01 X212.536 Y320.089
G01 X216.012 Y321.861
G01 X219.572 Y323.460
G01 X223.207 Y324.883
G01 X226.907 Y326.126
G01 X230.666 Y327.186
G01 X234.473 Y328.061
G01 X238.319 Y328.748
G01 X242.195 Y329.246
G01 X246.092 Y329.553
G01 X250.000 Y329.668
G01 X253.910 Y329.592
G01 X257.813 Y329.323
G01 X261.698 Y328.863
G01 X265.558 Y328.214
G01 X269.381 Y327.375
G01 X273.160 Y326.349
G01 X276.885 Y325.139
G01 X280.547 Y323.747
G01 X284.137 Y322.177
G01 X287.647 Y320.432
G01 X291.068 Y318.517
G01 X294.391 Y316.436
G01 X297.609 Y314.193
G01 X300.714 Y311.795
G01 X303.698 Y309.246
G01 X306.554 Y306.554
G01 X309.275 Y303.724
G01 X311.855 Y300.763
G01 X314.287 Y297.678
G01 X316.565 Y294.477
G01 X318.684 Y291.168
G01 X320.638 Y287.757
G01 X322.423 Y284.254
G01 X324.035 Y280.666
G01 X325.469 Y277.003
G01 X326.722 Y273.273
G01 X327.790 Y269.485
G01 X328.671 Y265.649
G01 X329.364 Y261.772
G01 X329.865 Y257.866
G01 X330.174 Y253.939
G01 X330.290 Y250.000
G01 X330.213 Y246.059
G01 X329.943 Y242.126
G01 X329.479 Y238.210
G01 X328.824 Y234.321
G01 X327.979 Y230.467
G01 X326.945 Y226.659
G01 X325.725 Y222.905
G01 X324.322 Y219.215
G01 X322.740 Y215.597
G01 X320.981 Y212.060
G01 X319.051 Y208.612
G01 X316.953 Y205.263
G01 X314.693 Y202.020
G01 X312.276 Y198.892
G01 X309.707 Y195.884
G01 X306.994 Y193.006
G01 X304.142 Y190.264
G01 X301.158 Y187.664
G01 X298.049 Y185.213
G01 X294.823 Y182.917
G01 X291.488 Y180.782
G01 X288.050 Y178.813
G01 X284.520 Y177.014
G01 X280.904 Y175.390
G01 X277.213 Y173.945
G01 X273.454 Y172.683
G01 X269.637 Y171.606
G01 X265.770 Y170.718
G01 X261.864 Y170.021
G01 X257.927 Y169.515
G01 X253.969 Y169.204
G01 X250.000 Y169.087
G01 X246.029 Y169.165
G01 X242.065 Y169.438
G01 X238.119 Y169.905
G01 X234.200 Y170.566
G01 X230.316 Y171.418
G01 X226.478 Y172.460
G01 X222.695 Y173.689
G01 X218.976 Y175.103
G01 X215.330 Y176.697
G01 X211.766 Y178.470
G01 X208.292 Y180.415
G01 X204.918 Y182.529
G01 X201.650 Y184.807
G01 X198.497 Y187.243
G01 X195.466 Y189.831
G01 X192.566 Y192.566
G01 X189.803 Y195.440
G01 X187.183 Y198.447
G01 X184.713 Y201.580
G01 X182.400 Y204.831
G01 X180.248 Y208.192
G01 X178.264 Y211.656
G01 X176.451 Y215.214
G01 X174.815 Y218.857
G01 X173.359 Y222.577
G01 X172.087 Y226.365
G01 X171.003 Y230.212
G01 X170.108 Y234.108
G01 X169.405 Y238.045
G01 X168.896 Y242.012
G01 X168.582 Y246.000
G01 X168.465 Y250.000
G01 X168.544 Y254.002
G01 X168.819 Y257.996
G01 X169.290 Y261.972
G01 X169.955 Y265.922
G01 X170.814 Y269.835
G01 X171.864 Y273.702
G01 X173.103 Y277.514
G01 X174.527 Y281.262
G01 X176.135 Y284.936
G01 X177.921 Y288.527
G01 X179.881 Y292.027
G01 X182.012 Y295.428
G01 X184.307 Y298.721
G01 X186.762 Y301.898
G01 X189.370 Y304.952
G01 X192.126 Y307.874
G01 X195.022 Y310.659
G01 X198.052 Y313.298
G01 X201.209 Y315.787
G01 X204.485 Y318.118
G01 X207.873 Y320.285
G01 X211.363 Y322.285
G01 X214.948 Y324.111
G01 X218.619 Y325.760
G01 X222.368 Y327.227
G01 X226.185 Y328.508
G01 X230.061 Y329.601
G01 X233.987 Y330.503
G01 X237.954 Y331.211
G01 X241.951 Y331.723
G01 X245.970 Y332.039
G01 X250.000 Y332.158
G01 X254.032 Y332.078
G01 X258.057 Y331.801
G01 X262.064 Y331.326
G01 X266.043 Y330.655
G01 X269.986 Y329.790
G01 X273.883 Y328.732
G01 X277.724 Y327.483
G01 X281.500 Y326.048
G01 X285.202 Y324.428
G01 X288.821 Y322.628
G01 X292.347 Y320.653
G01 X295.774 Y318.506
G01 X299.092 Y316.193
G01 X302.293 Y313.719
G01 X305.370 Y311.091
G01 X308.314 Y308.314
G01 X311.120 Y305.396
G01 X313.779 Y302.342
G01 X316.286 Y299.161
G01 X318.635 Y295.860
G01 X320.819 Y292.447
G01 X322.834 Y288.931
G01 X324.674 Y285.318
G01 X326.335 Y281.619
G01 X327.813 Y277.842
G01 X329.104 Y273.996
G01 X330.205 Y270.090
G01 X331.113 Y266.134
G01 X331.826 Y262.138
G01 X332.343 Y258.110
G01 X332.661 Y254.061
G01 X332.780 Y250.000
G01 X332.700 Y245.937
G01 X332.420 Y241.882
G01 X331.942 Y237.845
G01 X331.266 Y233.835
G01 X330.394 Y229.862
G01 X329.327 Y225.936
G01 X328.069 Y222.066
G01 X326.623 Y218.262
G01 X324.991 Y214.532
G01 X323.177 Y210.886
G01 X321.186 Y207.333
G01 X319.023 Y203.880
G01 X316.693 Y200.537
G01 X314.200 Y197.312
G01 X311.552 Y194.212
G01 X308.754 Y191.246
G01 X305.814 Y188.419
G01 X302.737 Y185.739
G01 X299.532 Y183.214
G01 X296.206 Y180.847
G01 X292.767 Y178.647
G01 X289.224 Y176.617
G01 X285.584 Y174.763
G01 X281.857 Y173.090
G01 X278.052 Y171.601
G01 X274.177 Y170.300
G01 X270.242 Y169.191
G01 X266.256 Y168.276
G01 X262.229 Y167.558
G01 X258.171 Y167.038
G01 X254.091 Y166.717
G01 X250.000 Y166.598
G01 X245.907 Y166.679
G01 X241.821 Y166.960
G01 X237.754 Y167.442
G01 X233.714 Y168.124
G01 X229.711 Y169.003
G01 X225.756 Y170.077
G01 X221.857 Y171.345
G01 X218.024 Y172.802
G01 X214.266 Y174.447
G01 X210.593 Y176.274
G01 X207.013 Y178.280
G01 X203.534 Y180.459
G01 X200.167 Y182.807
G01 X196.917 Y185.319
G01 X193.794 Y187.987
G01 X190.805 Y190.805
G01 X187.958 Y193.768
G01 X185.258 Y196.868
G01 X182.714 Y200.097
G01 X180.330 Y203.448
G01 X178.113 Y206.913
G01 X176.068 Y210.483
G01 X174.201 Y214.150
G01 X172.515 Y217.905
G01 X171.015 Y221.739
G01 X169.705 Y225.643
G01 X168.588 Y229.607
G01 X167.666 Y233.623
G01 X166.942 Y237.680
G01 X166.418 Y241.768
G01 X166.096 Y245.878
G01 X165.975 Y250.000
G01 X166.057 Y254.124
G01 X166.341 Y258.240
G01 X166.827 Y262.338
G01 X167.513 Y266.408
G01 X168.399 Y270.440
G01 X169.482 Y274.425
G01 X170.759 Y278.353
G01 X172.227 Y282.214
G01 X173.884 Y286.000
G01 X175.725 Y289.701
G01 X177.746 Y293.307
G01 X179.942 Y296.811
G01 X182.307 Y300.204
G01 X184.837 Y303.478
G01 X187.525 Y306.624
G01 X190.365 Y309.635
G01 X193.350 Y312.503
G01 X196.473 Y315.223
G01 X199.726 Y317.786
G01 X203.102 Y320.188
G01 X206.593 Y322.421
G01 X210.189 Y324.481
G01 X213.883 Y326.362
G01 X217.666 Y328.060
G01 X221.529 Y329.571
G01 X225.462 Y330.891
G01 X229.456 Y332.016
G01 X233.501 Y332.945
G01 X237.588 Y333.673
G01 X241.707 Y334.201
G01 X245.848 Y334.526
G01 X250.000 Y334.647
G01 X254.154 Y334.565
G01 X258.301 Y334.278
G01 X262.429 Y333.789
G01 X266.529 Y333.097
G01 X270.591 Y332.205
G01 X274.606 Y331.114
G01 X278.563 Y329.827
G01 X282.453 Y328.348
G01 X286.266 Y326.679
G01 X289.994 Y324.824
G01 X293.627 Y322.788
G01 X297.157 Y320.576
G01 X300.575 Y318.192
G01 X303.872 Y315.644
G01 X307.042 Y312.936
G01 X310.075 Y310.075
G01 X312.965 Y307.068
G01 X315.704 Y303.922
G01 X318.286 Y300.644
G01 X320.705 Y297.244
G01 X322.955 Y293.727
G01 X325.030 Y290.104
G01 X326.925 Y286.383
G01 X328.635 Y282.572
G01 X330.157 Y278.681
G01 X331.486 Y274.719
G01 X332.620 Y270.695
G01 X333.555 Y266.620
G01 X334.289 Y262.503
G01 X334.820 Y258.354
G01 X335.148 Y254.183
G01 X335.270 Y250.000
G01 X335.186 Y245.815
G01 X334.898 Y241.638
G01 X334.405 Y237.480
G01 X333.708 Y233.350
G01 X332.809 Y229.258
G01 X331.710 Y225.214
G01 X330.413 Y221.228
G01 X328.923 Y217.309
G01 X327.241 Y213.468
G01 X325.373 Y209.712
G01 X323.322 Y206.053
G01 X321.093 Y202.497
G01 X318.692 Y199.054
G01 X316.125 Y195.733
G01 X313.397 Y192.540
G01 X310.515 Y189.485
G01 X307.486 Y186.574
G01 X304.317 Y183.815
G01 X301.015 Y181.214
G01 X297.589 Y178.777
G01 X294.047 Y176.511
G01 X290.398 Y174.421
G01 X286.649 Y172.513
G01 X282.810 Y170.790
G01 X278.890 Y169.257
G01 X274.899 Y167.918
G01 X270.846 Y166.776
G01 X266.742 Y165.835
G01 X262.594 Y165.095
G01 X258.415 Y164.560
G01 X254.214 Y164.231
G01 X250.000 Y164.108
G01 X245.785 Y164.192
G01 X241.577 Y164.483
G01 X237.388 Y164.980
G01 X233.228 Y165.682
G01 X229.106 Y166.588
G01 X225.033 Y167.695
G01 X221.018 Y169.001
G01 X217.071 Y170.502
G01 X213.202 Y172.196
G01 X209.419 Y174.078
G01 X205.733 Y176.144
G01 X202.151 Y178.389
G01 X198.684 Y180.808
G01 X195.338 Y183.394
G01 X192.122 Y186.142
G01 X189.045 Y189.045
G01 X186.113 Y192.096
G01 X183.334 Y195.289
G01 X180.714 Y198.614
G01 X178.260 Y202.065
G01 X175.978 Y205.633
G01 X173.873 Y209.309
G01 X171.950 Y213.085
G01 X170.215 Y216.952
G01 X168.671 Y220.900
G01 X167.322 Y224.920
G01 X166.173 Y229.002
G01 X165.224 Y233.137
G01 X164.480 Y237.314
G01 X163.941 Y241.524
G01 X163.609 Y245.756
G01 X163.485 Y250.000
G01 X163.570 Y254.246
G01 X163.863 Y258.484
G01 X164.364 Y262.703
G01 X165.072 Y266.893
G01 X165.984 Y271.045
G01 X167.099 Y275.148
G01 X168.415 Y279.192
G01 X169.927 Y283.167
G01 X171.634 Y287.065
G01 X173.529 Y290.874
G01 X175.611 Y294.587
G01 X177.872 Y298.195
G01 X180.308 Y301.687
G01 X182.913 Y305.057
G01 X185.681 Y308.296
G01 X188.605 Y311.395
G01 X191.678 Y314.348
G01 X194.894 Y317.147
G01 X198.243 Y319.786
G01 X201.719 Y322.258
G01 X205.313 Y324.556
G01 X209.016 Y326.676
G01 X212.819 Y328.613
G01 X216.714 Y330.360
G01 X220.690 Y331.915
G01 X224.739 Y333.273
G01 X228.851 Y334.431
G01 X233.016 Y335.386
G01 X237.223 Y336.136
G01 X241.463 Y336.679
G01 X245.725 Y337.013
G01 X250.000 Y337.137
G01 X254.277 Y337.051
G01 X258.545 Y336.756
G01 X262.794 Y336.252
G01 X267.015 Y335.539
G01 X271.196 Y334.620
G01 X275.328 Y333.497
G01 X279.401 Y332.171
G01 X283.405 Y330.648
G01 X287.331 Y328.929
G01 X291.168 Y327.019
G01 X294.907 Y324.923
G01 X298.540 Y322.646
G01 X302.058 Y320.192
G01 X305.452 Y317.568
G01 X308.714 Y314.780
G01 X311.835 Y311.835
G01 X314.809 Y308.740
G01 X317.628 Y305.501
G01 X320.286 Y302.128
G01 X322.775 Y298.627
G01 X325.090 Y295.007
G01 X327.225 Y291.278
G01 X329.175 Y287.447
G01 X330.935 Y283.524
G01 X332.501 Y279.519
G01 X333.869 Y275.441
G01 X335.035 Y271.300
G01 X335.997 Y267.106
G01 X336.752 Y262.868
G01 X337.298 Y258.598
