;  Created by Sandify
;  https://sandify.org
;  Version: 0.2.6
;
;  Machine type: Rectangular
;    Min X (mm): 0
;    Max X (mm): 500
;    Min Y (mm): 0
;    Max Y (mm): 500
;  Content type: shape
;  Layer:
;    Shape: FileImport
;    Name: BucklandDownDorset 5-26-2018.thr
;    From file:: BucklandDownDorset 5-26-2018.thr
;    Aspect Ratio: true
;    Comments: 
;    Visible: true
;    Initial width: 10
;    Initial height: 10
;    X offset: 0
;    Y offset: 0
;    Rotate (degrees): 0
;    Reverse path: false
;    Fine tuning:
;      Connect to next layer: line
;      Draw portion of path (%): 100
;      Backtrack at end (%): 0
;      Rotate starting point (%): 0
;  Reverse export path: false
;
; File name: 'buckland (C C)'
; File type: gcode
;

G01 X250.000 Y250.000
G01 X250.030 Y252.600
G01 X250.000 Y462.350
G01 X249.958 Y462.350
G01 X249.936 Y462.325
G01 X249.915 Y462.300
G01 X249.894 Y462.275
G01 X249.873 Y462.250
G01 X249.851 Y462.200
G01 X249.851 Y462.175
G01 X249.830 Y462.125
G01 X249.830 Y462.075
G01 X249.852 Y462.025
G01 X249.852 Y462.000
G01 X249.873 Y461.950
G01 X249.894 Y461.900
G01 X249.936 Y461.875
G01 X249.979 Y461.825
G01 X250.021 Y461.800
G01 X250.085 Y461.775
G01 X250.148 Y461.750
G01 X250.212 Y461.725
G01 X250.275 Y461.725
G01 X250.339 Y461.700
G01 X250.423 Y461.700
G01 X250.487 Y461.724
G01 X250.572 Y461.724
G01 X250.635 Y461.749
G01 X250.720 Y461.774
G01 X250.784 Y461.824
G01 X250.869 Y461.873
G01 X250.932 Y461.923
G01 X250.996 Y461.973
G01 X251.060 Y462.047
G01 X251.124 Y462.147
G01 X251.167 Y462.222
G01 X251.210 Y462.322
G01 X251.232 Y462.421
G01 X251.254 Y462.546
G01 X251.255 Y462.646
G01 X251.255 Y462.771
G01 X251.256 Y462.896
G01 X251.236 Y463.021
G01 X251.193 Y463.122
G01 X251.152 Y463.247
G01 X251.110 Y463.372
G01 X251.046 Y463.497
G01 X250.983 Y463.598
G01 X250.898 Y463.698
G01 X250.813 Y463.823
G01 X250.706 Y463.899
G01 X250.578 Y463.999
G01 X250.471 Y464.074
G01 X250.321 Y464.150
G01 X250.171 Y464.200
G01 X250.021 Y464.225
G01 X249.871 Y464.250
G01 X249.700 Y464.275
G01 X249.529 Y464.274
G01 X249.357 Y464.249
G01 X249.186 Y464.223
G01 X249.015 Y464.173
G01 X248.844 Y464.097
G01 X248.694 Y464.021
G01 X248.524 Y463.945
G01 X248.375 Y463.844
G01 X248.226 Y463.718
G01 X248.078 Y463.591
G01 X247.951 Y463.465
G01 X247.824 Y463.314
G01 X247.719 Y463.138
G01 X247.636 Y462.962
G01 X247.553 Y462.761
G01 X247.492 Y462.560
G01 X247.452 Y462.360
G01 X247.433 Y462.134
G01 X247.414 Y461.934
G01 X247.438 Y461.710
G01 X247.483 Y461.485
G01 X247.528 Y461.261
G01 X247.615 Y461.037
G01 X247.702 Y460.812
G01 X247.810 Y460.614
G01 X247.938 Y460.415
G01 X248.087 Y460.216
G01 X248.257 Y460.018
G01 X248.426 Y459.844
G01 X248.616 Y459.695
G01 X248.827 Y459.547
G01 X249.037 Y459.423
G01 X249.267 Y459.324
G01 X249.519 Y459.224
G01 X249.770 Y459.175
G01 X250.042 Y459.125
G01 X250.314 Y459.100
G01 X250.586 Y459.124
G01 X250.858 Y459.148
G01 X251.151 Y459.197
G01 X251.423 Y459.270
G01 X251.675 Y459.368
G01 X251.948 Y459.491
G01 X252.201 Y459.638
G01 X252.455 Y459.811
G01 X252.688 Y460.008
G01 X252.901 Y460.205
G01 X253.094 Y460.427
G01 X253.287 Y460.674
G01 X253.438 Y460.922
G01 X253.591 Y461.219
G01 X253.702 Y461.518
G01 X253.792 Y461.816
G01 X253.861 Y462.140
G01 X253.889 Y462.464
G01 X253.894 Y462.789
G01 X253.879 Y463.115
G01 X253.842 Y463.440
G01 X253.763 Y463.767
G01 X253.661 Y464.094
G01 X253.538 Y464.421
G01 X253.393 Y464.723
G01 X253.204 Y465.026
G01 X253.014 Y465.304
G01 X252.781 Y465.582
G01 X252.525 Y465.835
G01 X252.247 Y466.063
G01 X251.946 Y466.266
G01 X251.623 Y466.444
G01 X251.278 Y466.596
G01 X250.932 Y466.723
G01 X250.564 Y466.799
G01 X250.195 Y466.875
G01 X249.805 Y466.900
G01 X249.436 Y466.899
G01 X249.046 Y466.873
G01 X248.656 Y466.821
G01 X248.288 Y466.743
G01 X247.899 Y466.615
G01 X247.532 Y466.461
G01 X247.188 Y466.282
G01 X246.845 Y466.052
G01 X246.525 Y465.822
G01 X246.228 Y465.542
G01 X245.954 Y465.212
G01 X245.702 Y464.882
G01 X245.473 Y464.527
G01 X245.288 Y464.148
G01 X245.125 Y463.769
G01 X244.986 Y463.341
G01 X244.888 Y462.939
G01 X244.814 Y462.512
G01 X244.782 Y462.061
G01 X244.772 Y461.635
G01 X244.825 Y461.187
G01 X244.899 Y460.763
G01 X244.994 Y460.315
G01 X245.151 Y459.894
G01 X245.349 Y459.473
G01 X245.567 Y459.078
G01 X245.825 Y458.708
G01 X246.124 Y458.364
G01 X246.463 Y458.020
G01 X246.822 Y457.726
G01 X247.199 Y457.456
G01 X247.617 Y457.211
G01 X248.054 Y456.991
G01 X248.490 Y456.794
G01 X248.946 Y456.647
G01 X249.422 Y456.549
G01 X249.897 Y456.475
G01 X250.392 Y456.450
G01 X250.888 Y456.448
G01 X251.384 Y456.520
G01 X251.880 Y456.616
G01 X252.357 Y456.762
G01 X252.835 Y456.956
G01 X253.274 Y457.174
G01 X253.714 Y457.442
G01 X254.135 Y457.759
G01 X254.517 Y458.101
G01 X254.900 Y458.467
G01 X255.223 Y458.885
G01 X255.527 Y459.302
G01 X255.812 Y459.769
G01 X256.035 Y460.238
G01 X256.240 Y460.733
G01 X256.403 Y461.253
G01 X256.504 Y461.775
G01 X256.584 Y462.323
G01 X256.601 Y462.873
G01 X256.554 Y463.424
G01 X256.464 Y463.977
G01 X256.330 Y464.507
G01 X256.152 Y465.037
G01 X255.930 Y465.568
G01 X255.662 Y466.076
G01 X255.372 Y466.558
G01 X255.014 Y467.017
G01 X254.632 Y467.451
G01 X254.227 Y467.834
G01 X253.776 Y468.217
G01 X253.300 Y468.550
G01 X252.801 Y468.832
G01 X252.257 Y469.088
G01 X251.711 Y469.293
G01 X251.141 Y469.447
G01 X250.549 Y469.549
G01 X249.934 Y469.600
G01 X249.341 Y469.599
G01 X248.727 Y469.521
G01 X248.135 Y469.417
G01 X247.522 Y469.261
G01 X246.955 Y469.054
G01 X246.389 Y468.820
G01 X245.826 Y468.510
G01 X245.309 Y468.175
G01 X244.793 Y467.813
G01 X244.325 Y467.401
G01 X243.902 Y466.939
G01 X243.505 Y466.428
G01 X243.154 Y465.891
G01 X242.848 Y465.331
G01 X242.588 Y464.747
G01 X242.396 Y464.115
G01 X242.247 Y463.484
G01 X242.143 Y462.830
G01 X242.103 Y462.178
G01 X242.107 Y461.503
G01 X242.174 Y460.855
G01 X242.283 Y460.183
G01 X242.453 Y459.539
G01 X242.685 Y458.922
G01 X242.957 Y458.306
G01 X243.289 Y457.692
G01 X243.660 Y457.128
G01 X244.090 Y456.590
G01 X244.578 Y456.104
G01 X245.104 Y455.667
G01 X245.668 Y455.254
G01 X246.250 Y454.891
G01 X246.890 Y454.576
G01 X247.528 Y454.285
G01 X248.204 Y454.092
G01 X248.899 Y453.922
G01 X249.592 Y453.825
G01 X250.306 Y453.775
G01 X251.019 Y453.772
G01 X251.733 Y453.868
G01 X252.448 Y454.010
G01 X253.145 Y454.201
G01 X253.824 Y454.464
G01 X254.486 Y454.801
G01 X255.130 Y455.161
G01 X255.717 Y455.596
G01 X256.287 Y456.079
G01 X256.821 Y456.612
G01 X257.316 Y457.171
G01 X257.754 Y457.780
G01 X258.153 Y458.416
G01 X258.493 Y459.078
G01 X258.774 Y459.792
G01 X258.995 Y460.533
G01 X259.133 Y461.278
G01 X259.229 Y462.024
G01 X259.241 Y462.799
G01 X259.211 Y463.576
G01 X259.094 Y464.357
G01 X258.932 Y465.115
G01 X258.704 Y465.875
G01 X258.408 Y466.587
G01 X258.066 Y467.300
G01 X257.676 Y467.990
G01 X257.217 Y468.631
G01 X256.688 Y469.223
G01 X256.112 Y469.790
G01 X255.487 Y470.307
G01 X254.835 Y470.747
G01 X254.114 Y471.162
G01 X253.389 Y471.499
G01 X252.617 Y471.785
G01 X251.820 Y471.993
G01 X251.022 Y472.148
G01 X250.200 Y472.250
G01 X249.378 Y472.274
G01 X248.556 Y472.220
G01 X247.712 Y472.113
G01 X246.915 Y471.929
G01 X246.098 Y471.666
G01 X245.329 Y471.351
G01 X244.586 Y470.934
G01 X243.869 Y470.490
G01 X243.201 Y469.970
G01 X242.560 Y469.399
G01 X241.967 Y468.778
G01 X241.446 Y468.107
G01 X240.951 Y467.387
G01 X240.528 Y466.618
G01 X240.172 Y465.851
G01 X239.865 Y465.011
G01 X239.647 Y464.175
G01 X239.496 Y463.317
G01 X239.412 Y462.436
G01 X239.413 Y461.560
G01 X239.500 Y460.664
G01 X239.649 Y459.795
G01 X239.859 Y458.929
G01 X240.150 Y458.092
G01 X240.522 Y457.258
G01 X240.952 Y456.452
G01 X241.438 Y455.697
G01 X241.981 Y454.993
G01 X242.601 Y454.316
G01 X243.255 Y453.688
G01 X243.985 Y453.136
G01 X244.751 Y452.632
G01 X245.571 Y452.202
G01 X246.427 Y451.843
G01 X247.299 Y451.557
G01 X248.208 Y451.342
G01 X249.135 Y451.198
G01 X250.060 Y451.125
G01 X251.006 Y451.147
G01 X251.952 Y451.216
G01 X252.880 Y451.379
G01 X253.791 Y451.614
G01 X254.685 Y451.921
G01 X255.565 Y452.323
G01 X256.410 Y452.774
G01 X257.201 Y453.323
G01 X257.937 Y453.946
G01 X258.640 Y454.618
G01 X259.267 Y455.341
G01 X259.839 Y456.115
G01 X260.356 Y456.941
G01 X260.816 Y457.819
G01 X261.198 Y458.725
G01 X261.501 Y459.660
G01 X261.723 Y460.624
G01 X261.883 Y461.592
G01 X261.939 Y462.590
G01 X261.909 Y463.593
G01 X261.792 Y464.576
G01 X261.608 Y465.563
G01 X261.313 Y466.530
G01 X260.947 Y467.450
G01 X260.512 Y468.372
G01 X260.005 Y469.247
G01 X259.425 Y470.073
G01 X258.773 Y470.876
G01 X258.070 Y471.603
G01 X257.293 Y472.280
G01 X256.465 Y472.881
G01 X255.587 Y473.430
G01 X254.657 Y473.877
G01 X253.701 Y474.269
G01 X252.695 Y474.559
G01 X251.686 Y474.769
G01 X250.630 Y474.899
G01 X249.595 Y474.925
G01 X248.538 Y474.870
G01 X247.483 Y474.736
G01 X246.452 Y474.522
G01 X245.425 Y474.228
G01 X244.447 Y473.856
G01 X243.475 Y473.405
G01 X242.554 Y472.851
G01 X241.685 Y472.219
G01 X240.868 Y471.537
G01 X240.126 Y470.754
G01 X239.436 Y469.921
G01 X238.821 Y469.015
G01 X238.278 Y468.085
G01 X237.831 Y467.084
G01 X237.433 Y466.060
G01 X237.127 Y465.015
G01 X236.913 Y463.925
G01 X236.787 Y462.840
G01 X236.728 Y461.734
G01 X236.797 Y460.637
G01 X236.929 Y459.543
G01 X237.185 Y458.456
G01 X237.522 Y457.375
G01 X237.956 Y456.349
G01 X238.488 Y455.353
G01 X239.095 Y454.409
G01 X239.776 Y453.493
G01 X240.529 Y452.654
G01 X241.335 Y451.864
G01 X242.212 Y451.149
G01 X243.160 Y450.508
G01 X244.140 Y449.939
G01 X245.173 Y449.442
G01 X246.258 Y449.040
G01 X247.376 Y448.758
G01 X248.511 Y448.544
G01 X249.663 Y448.450
G01 X250.814 Y448.448
G01 X251.985 Y448.540
G01 X253.140 Y448.725
G01 X254.279 Y449.004
G01 X255.384 Y449.377
G01 X256.476 Y449.820
G01 X257.517 Y450.359
G01 X258.527 Y450.994
G01 X259.467 Y451.703
G01 X260.337 Y452.511
G01 X261.156 Y453.369
G01 X261.883 Y454.305
G01 X262.540 Y455.317
G01 X263.102 Y456.385
G01 X263.589 Y457.480
G01 X263.957 Y458.634
G01 X264.246 Y459.792
G01 X264.455 Y461.005
G01 X264.559 Y462.201
G01 X264.557 Y463.429
G01 X264.467 Y464.638
G01 X264.289 Y465.853
G01 X263.974 Y467.026
G01 X263.590 Y468.202
G01 X263.086 Y469.310
G01 X262.466 Y470.398
G01 X261.790 Y471.411
G01 X260.994 Y472.378
G01 X260.145 Y473.295
G01 X259.217 Y474.136
G01 X258.212 Y474.875
G01 X257.153 Y475.562
G01 X256.062 Y476.144
G01 X254.896 Y476.647
G01 X253.701 Y477.045
G01 X252.478 Y477.361
G01 X251.229 Y477.547
G01 X249.954 Y477.625
G01 X248.680 Y477.596
G01 X247.430 Y477.460
G01 X246.160 Y477.218
G01 X244.917 Y476.868
G01 X243.727 Y476.413
G01 X242.543 Y475.877
G01 X241.437 Y475.237
G01 X240.362 Y474.518
G01 X239.344 Y473.696
G01 X238.403 Y472.823
G01 X237.541 Y471.850
G01 X236.758 Y470.803
G01 X236.075 Y469.684
G01 X235.469 Y468.517
G01 X235.005 Y467.283
G01 X234.614 Y466.028
G01 X234.340 Y464.730
G01 X234.178 Y463.414
G01 X234.105 Y462.105
G01 X234.143 Y460.754
G01 X234.284 Y459.436
G01 X234.529 Y458.126
G01 X234.894 Y456.849
G01 X235.359 Y455.579
G01 X235.938 Y454.367
G01 X236.630 Y453.211
G01 X237.413 Y452.108
G01 X238.284 Y451.084
G01 X239.244 Y450.111
G01 X240.289 Y449.239
G01 X241.402 Y448.439
G01 X242.562 Y447.735
G01 X243.788 Y447.127
G01 X245.063 Y446.638
G01 X246.389 Y446.242
G01 X247.727 Y445.937
G01 X249.099 Y445.773
G01 X250.489 Y445.724
G01 X251.880 Y445.816
G01 X253.254 Y445.998
G01 X254.614 Y446.296
G01 X255.942 Y446.710
G01 X257.241 Y447.217
G01 X258.512 Y447.842
G01 X259.717 Y448.562
G01 X260.857 Y449.380
G01 X261.912 Y450.296
G01 X262.922 Y451.311
G01 X263.805 Y452.405
G01 X264.621 Y453.576
G01 X265.327 Y454.802
G01 X265.923 Y456.111
G01 X266.423 Y457.451
G01 X266.805 Y458.825
G01 X267.087 Y460.232
G01 X267.247 Y461.674
G01 X267.278 Y463.101
G01 X267.200 Y464.537
G01 X267.011 Y465.981
G01 X266.663 Y467.387
G01 X266.219 Y468.775
G01 X265.653 Y470.094
G01 X264.967 Y471.395
G01 X264.200 Y472.623
G01 X263.310 Y473.805
G01 X262.338 Y474.912
G01 X261.283 Y475.918
G01 X260.147 Y476.848
G01 X258.929 Y477.675
G01 X257.631 Y478.398
G01 X256.277 Y479.014
G01 X254.889 Y479.498
G01 X253.448 Y479.874
G01 X251.979 Y480.141
G01 X250.484 Y480.274
G01 X248.987 Y480.273
G01 X247.491 Y480.161
G01 X245.999 Y479.940
G01 X244.535 Y479.585
G01 X243.101 Y479.121
G01 X241.724 Y478.525
G01 X240.381 Y477.797
G01 X239.120 Y476.964
G01 X237.919 Y476.027
G01 X236.799 Y475.013
G01 X235.765 Y473.873
G01 X234.836 Y472.659
G01 X233.987 Y471.397
G01 X233.245 Y470.038
G01 X232.626 Y468.636
G01 X232.128 Y467.191
G01 X231.753 Y465.680
G01 X231.494 Y464.152
G01 X231.392 Y462.612
G01 X231.400 Y461.057
G01 X231.557 Y459.515
G01 X231.818 Y457.982
G01 X232.221 Y456.461
G01 X232.742 Y454.975
G01 X233.374 Y453.547
G01 X234.117 Y452.177
G01 X234.988 Y450.865
G01 X235.963 Y449.632
G01 X237.061 Y448.479
G01 X238.239 Y447.425
G01 X239.499 Y446.470
G01 X240.857 Y445.636
G01 X242.259 Y444.896
G01 X243.742 Y444.274
G01 X245.251 Y443.792
G01 X246.808 Y443.424
G01 X248.397 Y443.168
G01 X250.000 Y443.050
G01 X251.603 Y443.093
G01 X253.208 Y443.248
G01 X254.801 Y443.565
G01 X256.346 Y443.996
G01 X257.865 Y444.566
G01 X259.340 Y445.252
G01 X260.756 Y446.080
G01 X262.092 Y447.004
G01 X263.367 Y448.024
G01 X264.543 Y449.145
G01 X265.622 Y450.392
G01 X266.596 Y451.693
G01 X267.469 Y453.100
G01 X268.193 Y454.568
G01 X268.809 Y456.119
G01 X269.289 Y457.706
G01 X269.627 Y459.307
G01 X269.847 Y460.968
G01 X269.938 Y462.617
G01 X269.899 Y464.278
G01 X269.706 Y465.953
G01 X269.395 Y467.587
G01 X268.919 Y469.185
G01 X268.321 Y470.766
G01 X267.573 Y472.256
G01 X266.719 Y473.701
G01 X265.736 Y475.076
G01 X264.644 Y476.377
G01 X263.441 Y477.553
G01 X262.153 Y478.652
G01 X260.778 Y479.647
G01 X259.319 Y480.537
G01 X257.798 Y481.294
G01 X256.194 Y481.917
G01 X254.555 Y482.380
G01 X252.886 Y482.732
G01 X251.165 Y482.922
G01 X249.464 Y482.974
G01 X247.741 Y482.889
G01 X246.021 Y482.666
G01 X244.331 Y482.281
G01 X242.673 Y481.784
G01 X241.073 Y481.153
G01 X239.510 Y480.386
G01 X238.033 Y479.488
G01 X236.620 Y478.459
G01 X235.296 Y477.300
G01 X234.083 Y476.040
G01 X232.982 Y474.681
G01 X231.989 Y473.250
G01 X231.108 Y471.722
G01 X230.357 Y470.125
G01 X229.756 Y468.464
G01 X229.256 Y466.785
G01 X228.923 Y465.045
G01 X228.729 Y463.292
G01 X228.693 Y461.505
G01 X228.808 Y459.732
G01 X229.070 Y457.974
G01 X229.495 Y456.233
G01 X230.036 Y454.528
G01 X230.729 Y452.887
G01 X231.572 Y451.283
G01 X232.516 Y449.761
G01 X233.581 Y448.322
G01 X234.782 Y446.988
G01 X236.080 Y445.731
G01 X237.490 Y444.598
G01 X238.992 Y443.587
G01 X240.588 Y442.720
G01 X242.239 Y441.993
G01 X243.970 Y441.380
G01 X245.723 Y440.927
G01 X247.522 Y440.609
G01 X249.353 Y440.424
G01 X251.180 Y440.396
G01 X253.011 Y440.526
G01 X254.810 Y440.814
G01 X256.601 Y441.261
G01 X258.350 Y441.843
G01 X260.043 Y442.588
G01 X261.661 Y443.474
G01 X263.207 Y444.502
G01 X264.682 Y445.650
G01 X266.043 Y446.897
G01 X267.313 Y448.271
G01 X268.467 Y449.723
G01 X269.484 Y451.284
G01 X270.381 Y452.929
G01 X271.132 Y454.637
G01 X271.732 Y456.409
G01 X272.178 Y458.247
G01 X272.461 Y460.103
G01 X272.597 Y461.974
G01 X272.582 Y463.861
G01 X272.409 Y465.739
G01 X272.097 Y467.606
G01 X271.621 Y469.463
G01 X270.994 Y471.256
G01 X270.235 Y472.984
G01 X269.300 Y474.648
G01 X268.252 Y476.240
G01 X267.042 Y477.713
G01 X265.719 Y479.111
G01 X264.279 Y480.383
G01 X262.747 Y481.524
G01 X261.125 Y482.559
G01 X259.414 Y483.460
G01 X257.638 Y484.200
G01 X255.801 Y484.803
G01 X253.929 Y485.267
G01 X252.026 Y485.541
G01 X250.071 Y485.675
G01 X248.139 Y485.618
G01 X246.210 Y485.394
G01 X244.288 Y485.031
G01 X242.399 Y484.502
G01 X240.571 Y483.835
G01 X238.784 Y483.005
G01 X237.085 Y482.041
G01 X235.455 Y480.942
G01 X233.942 Y479.689
G01 X232.521 Y478.332
G01 X231.222 Y476.824
G01 X230.059 Y475.244
G01 X229.037 Y473.544
G01 X228.154 Y471.751
G01 X227.423 Y469.919
G01 X226.847 Y468.024
G01 X226.399 Y466.065
G01 X226.137 Y464.099
G01 X226.016 Y462.098
G01 X226.091 Y460.119
G01 X226.317 Y458.132
G01 X226.708 Y456.163
G01 X227.298 Y454.242
G01 X228.019 Y452.360
G01 X228.906 Y450.544
G01 X229.951 Y448.817
G01 X231.113 Y447.172
G01 X232.426 Y445.612
G01 X233.846 Y444.179
G01 X235.393 Y442.848
G01 X237.024 Y441.661
G01 X238.779 Y440.620
G01 X240.619 Y439.743
G01 X242.512 Y439.002
G01 X244.477 Y438.444
G01 X246.502 Y438.042
G01 X248.535 Y437.819
G01 X250.582 Y437.749
G01 X252.630 Y437.832
G01 X254.684 Y438.092
G01 X256.696 Y438.531
G01 X258.668 Y439.126
G01 X260.587 Y439.880
G01 X262.440 Y440.820
G01 X264.207 Y441.900
G01 X265.874 Y443.149
G01 X267.437 Y444.520
G01 X268.895 Y446.016
G01 X270.207 Y447.620
G01 X271.410 Y449.328
G01 X272.461 Y451.150
G01 X273.350 Y453.037
G01 X274.094 Y454.989
G01 X274.667 Y457.011
G01 X275.062 Y459.078
G01 X275.270 Y461.168
G01 X275.306 Y463.279
G01 X275.163 Y465.385
G01 X274.835 Y467.487
G01 X274.360 Y469.553
G01 X273.711 Y471.585
G01 X272.902 Y473.530
G01 X271.936 Y475.435
G01 X270.803 Y477.225
G01 X269.530 Y478.943
G01 X268.111 Y480.540
G01 X266.547 Y482.011
G01 X264.860 Y483.327
G01 X263.076 Y484.511
G01 X261.197 Y485.559
G01 X259.250 Y486.444
G01 X257.212 Y487.165
G01 X255.136 Y487.720
G01 X253.000 Y488.106
G01 X250.858 Y488.323
G01 X248.689 Y488.346
G01 X246.522 Y488.175
G01 X244.386 Y487.834
G01 X242.285 Y487.300
G01 X240.224 Y486.573
G01 X238.228 Y485.706
G01 X236.303 Y484.676
G01 X234.450 Y483.483
G01 X232.721 Y482.133
G01 X231.112 Y480.678
G01 X229.605 Y479.069
G01 X228.246 Y477.337
G01 X227.057 Y475.486
G01 X226.012 Y473.542
G01 X225.154 Y471.511
G01 X224.455 Y469.418
G01 X223.913 Y467.264
G01 X223.564 Y465.081
G01 X223.403 Y462.870
G01 X223.402 Y460.652
G01 X223.577 Y458.432
G01 X223.959 Y456.238
G01 X224.500 Y454.088
G01 X225.258 Y451.965
G01 X226.176 Y449.936
G01 X227.272 Y447.975
G01 X228.537 Y446.129
G01 X229.948 Y444.368
G01 X231.498 Y442.739
G01 X233.166 Y441.236
G01 X234.968 Y439.881
G01 X236.866 Y438.668
G01 X238.863 Y437.595
G01 X240.936 Y436.730
G01 X243.095 Y436.022
G01 X245.305 Y435.516
G01 X247.555 Y435.184
G01 X249.833 Y435.050
G01 X252.110 Y435.113
G01 X254.375 Y435.348
G01 X256.617 Y435.782
G01 X258.822 Y436.366
G01 X260.980 Y437.153
G01 X263.058 Y438.122
G01 X265.058 Y439.252
G01 X266.946 Y440.548
G01 X268.723 Y442.014
G01 X270.367 Y443.632
G01 X271.876 Y445.379
G01 X273.242 Y447.235
G01 X274.448 Y449.231
G01 X275.478 Y451.294
G01 X276.371 Y453.448
G01 X277.054 Y455.653
G01 X277.565 Y457.931
G01 X277.892 Y460.233
G01 X278.006 Y462.563
G01 X277.920 Y464.894
G01 X277.645 Y467.198
G01 X277.158 Y469.501
G01 X276.491 Y471.748
G01 X275.640 Y473.937
G01 X274.622 Y476.038
G01 X273.437 Y478.074
G01 X272.080 Y480.018
G01 X270.569 Y481.814
G01 X268.907 Y483.486
G01 X267.117 Y485.028
G01 X265.173 Y486.389
G01 X263.128 Y487.588
G01 X260.984 Y488.622
G01 X258.768 Y489.465
G01 X256.485 Y490.137
G01 X254.163 Y490.614
G01 X251.783 Y490.893
G01 X249.398 Y490.999
G01 X247.013 Y490.906
G01 X244.633 Y490.615
G01 X242.290 Y490.101
G01 X240.012 Y489.392
G01 X237.779 Y488.487
G01 X235.644 Y487.391
G01 X233.586 Y486.130
G01 X231.655 Y484.709
G01 X229.831 Y483.129
G01 X228.138 Y481.395
G01 X226.576 Y479.533
G01 X225.190 Y477.552
G01 X223.958 Y475.451
G01 X222.920 Y473.264
G01 X222.099 Y470.971
G01 X221.441 Y468.617
G01 X221.003 Y466.240
G01 X220.763 Y463.810
G01 X220.711 Y461.355
G01 X220.856 Y458.927
G01 X221.215 Y456.503
G01 X221.757 Y454.105
G01 X222.493 Y451.759
G01 X223.412 Y449.486
G01 X224.548 Y447.290
G01 X225.867 Y445.214
G01 X227.364 Y443.254
G01 X229.013 Y441.428
G01 X230.810 Y439.732
G01 X232.752 Y438.186
G01 X234.819 Y436.784
G01 X236.970 Y435.568
G01 X239.229 Y434.536
G01 X241.580 Y433.707
G01 X243.975 Y433.051
G01 X246.439 Y432.615
G01 X248.924 Y432.372
G01 X251.423 Y432.369
G01 X253.908 Y432.583
G01 X256.389 Y432.989
G01 X258.819 Y433.588
G01 X261.206 Y434.385
G01 X263.520 Y435.383
G01 X265.746 Y436.562
G01 X267.850 Y437.929
G01 X269.871 Y439.461
G01 X271.733 Y441.169
G01 X273.452 Y443.031
G01 X274.982 Y445.031
G01 X276.356 Y447.146
G01 X277.552 Y449.406
G01 X278.573 Y451.737
G01 X279.393 Y454.145
G01 X280.001 Y456.608
G01 X280.430 Y459.123
G01 X280.649 Y461.668
G01 X280.647 Y464.219
G01 X280.438 Y466.774
G01 X279.986 Y469.284
G01 X279.332 Y471.769
G01 X278.468 Y474.200
G01 X277.383 Y476.526
G01 X276.149 Y478.786
G01 X274.711 Y480.932
G01 X273.091 Y482.958
G01 X271.334 Y484.833
G01 X269.419 Y486.579
G01 X267.367 Y488.143
G01 X265.183 Y489.544
G01 X262.891 Y490.730
G01 X260.497 Y491.722
G01 X258.006 Y492.518
G01 X255.471 Y493.113
G01 X252.898 Y493.483
G01 X250.292 Y493.650
G01 X247.661 Y493.614
G01 X245.059 Y493.350
G01 X242.492 Y492.884
G01 X239.968 Y492.192
G01 X237.489 Y491.301
G01 X235.113 Y490.189
G01 X232.843 Y488.885
G01 X230.683 Y487.365
G01 X228.660 Y485.686
G01 X226.750 Y483.847
G01 X225.026 Y481.859
G01 X223.442 Y479.720
G01 X222.064 Y477.466
G01 X220.843 Y475.120
G01 X219.847 Y472.668
G01 X219.046 Y470.134
G01 X218.458 Y467.525
G01 X218.115 Y464.897
G01 X218.012 Y462.228
G01 X218.113 Y459.563
G01 X218.433 Y456.906
G01 X218.959 Y454.280
G01 X219.700 Y451.712
G01 X220.647 Y449.199
G01 X221.806 Y446.791
G01 X223.152 Y444.455
G01 X224.707 Y442.268
G01 X226.429 Y440.195
G01 X228.344 Y438.309
G01 X230.413 Y436.575
G01 X232.614 Y435.010
G01 X234.945 Y433.634
G01 X237.373 Y432.439
G01 X239.900 Y431.469
G01 X242.516 Y430.670
G01 X245.154 Y430.110
G01 X247.861 Y429.762
G01 X250.575 Y429.649
G01 X253.291 Y429.795
G01 X256.001 Y430.150
G01 X258.664 Y430.742
G01 X261.289 Y431.549
G01 X263.827 Y432.552
G01 X266.289 Y433.780
G01 X268.640 Y435.214
G01 X270.860 Y436.814
G01 X272.934 Y438.611
G01 X274.859 Y440.586
G01 X276.624 Y442.694
G01 X278.192 Y444.972
G01 X279.548 Y447.376
G01 X280.740 Y449.875
G01 X281.697 Y452.459
G01 X282.451 Y455.124
G01 X282.988 Y457.848
G01 X283.297 Y460.609
G01 X283.364 Y463.382
G01 X283.201 Y466.165
G01 X282.775 Y468.935
G01 X282.137 Y471.632
G01 X281.289 Y474.303
G01 X280.215 Y476.872
G01 X278.936 Y479.357
G01 X277.448 Y481.730
G01 X275.772 Y483.985
G01 X273.927 Y486.091
G01 X271.888 Y488.021
G01 X269.681 Y489.769
G01 X267.359 Y491.352
G01 X264.897 Y492.718
G01 X262.327 Y493.889
G01 X259.651 Y494.835
G01 X256.926 Y495.552
G01 X254.134 Y496.065
G01 X251.330 Y496.346
G01 X248.497 Y496.370
G01 X245.667 Y496.162
G01 X242.848 Y495.696
G01 X240.096 Y495.025
G01 X237.393 Y494.100
G01 X234.770 Y492.973
G01 X232.255 Y491.649
G01 X229.856 Y490.106
G01 X227.577 Y488.348
G01 X225.466 Y486.430
G01 X223.526 Y484.334
G01 X221.759 Y482.063
G01 X220.210 Y479.651
G01 X218.827 Y477.121
G01 X217.678 Y474.485
G01 X216.755 Y471.772
G01 X216.034 Y468.956
G01 X215.565 Y466.124
G01 X215.323 Y463.249
G01 X215.339 Y460.364
G01 X215.603 Y457.468
G01 X216.098 Y454.610
G01 X216.830 Y451.817
G01 X217.794 Y449.062
G01 X218.987 Y446.417
G01 X220.385 Y443.851
G01 X221.987 Y441.436
G01 X223.789 Y439.143
G01 X225.797 Y437.015
G01 X227.966 Y435.068
G01 X230.294 Y433.294
G01 X232.775 Y431.735
G01 X235.375 Y430.383
G01 X238.080 Y429.254
G01 X240.862 Y428.316
G01 X243.727 Y427.639
G01 X246.633 Y427.193
G01 X249.575 Y426.999
G01 X252.514 Y427.057
G01 X255.447 Y427.366
G01 X258.350 Y427.904
G01 X261.201 Y428.699
G01 X263.991 Y429.706
G01 X266.677 Y430.958
G01 X269.261 Y432.411
G01 X271.710 Y434.074
G01 X274.009 Y435.957
G01 X276.154 Y438.040
G01 X278.117 Y440.284
G01 X279.869 Y442.674
G01 X281.423 Y445.212
G01 X282.787 Y447.877
G01 X283.907 Y450.655
G01 X284.810 Y453.520
G01 X285.477 Y456.424
G01 X285.880 Y459.398
G01 X286.043 Y462.388
G01 X285.933 Y465.398
G01 X285.581 Y468.396
G01 X284.991 Y471.326
G01 X284.143 Y474.241
G01 X283.063 Y477.055
G01 X281.770 Y479.764
G01 X280.240 Y482.391
G01 X278.509 Y484.851
G01 X276.557 Y487.193
G01 X274.424 Y489.332
G01 X272.115 Y491.289
G01 X269.633 Y493.058
G01 X267.028 Y494.608
G01 X264.282 Y495.961
G01 X261.447 Y497.060
G01 X258.532 Y497.928
G01 X255.544 Y498.563
G01 X252.515 Y498.962
G01 X249.477 Y499.074
G01 X246.415 Y498.924
G01 X243.363 Y498.511
G01 X240.378 Y497.863
G01 X237.443 Y496.981
G01 X234.590 Y495.843
G01 X231.827 Y494.475
G01 X229.183 Y492.885
G01 X226.686 Y491.100
G01 X224.345 Y489.077
G01 X222.206 Y486.875
G01 X220.228 Y484.467
G01 X218.473 Y481.942
G01 X216.922 Y479.251
G01 X215.590 Y476.451
G01 X214.497 Y473.548
G01 X213.634 Y470.572
G01 X213.044 Y467.508
G01 X212.706 Y464.431
G01 X212.615 Y461.319
G01 X212.801 Y458.203
G01 X213.248 Y455.108
G01 X213.941 Y452.058
G01 X216.126 Y446.984
G01 X219.078 Y442.710
G01 X222.809 Y438.448
G01 X225.716 Y435.744
G01 X229.706 Y432.576
G01 X234.459 Y430.056
G01 X236.790 Y428.913
G01 X240.372 Y427.790
G01 X245.522 Y426.943
G01 X248.834 Y426.721
G01 X250.000 Y426.775
G01 X250.011 Y364.625
G01 X252.500 Y364.673
G01 X254.995 Y364.766
G01 X257.476 Y365.032
G01 X258.952 Y365.278
G01 X259.953 Y365.447
G01 X262.394 Y365.939
G01 X264.821 Y366.536
G01 X267.216 Y367.243
G01 X268.854 Y367.801
G01 X268.089 Y367.617
G01 X265.644 Y367.110
G01 X263.180 Y366.658
G01 X260.717 Y366.282
G01 X258.235 Y365.958
G01 X255.744 Y365.708
G01 X254.406 Y365.591
G01 X253.259 Y365.529
G01 X250.762 Y365.397
G01 X248.258 Y365.337
G01 X245.753 Y365.347
G01 X243.263 Y365.429
G01 X240.769 Y365.582
G01 X238.278 Y365.783
G01 X235.794 Y366.059
G01 X233.314 Y366.385
G01 X230.841 Y366.789
G01 X229.664 Y366.996
G01 X229.464 Y367.037
G01 X230.487 Y366.680
G01 X232.868 Y365.941
G01 X235.291 Y365.290
G01 X237.722 Y364.745
G01 X240.180 Y364.304
G01 X242.652 Y363.938
G01 X245.142 Y363.696
G01 X247.638 Y363.550
G01 X250.136 Y363.500
G01 X252.635 Y363.569
G01 X253.694 Y363.615
G01 X255.132 Y363.709
G01 X257.613 Y363.971
G01 X260.087 Y364.331
G01 X262.539 Y364.792
G01 X264.976 Y365.357
G01 X267.394 Y366.029
G01 X269.771 Y366.788
G01 X272.124 Y367.638
G01 X274.433 Y368.584
G01 X276.714 Y369.629
G01 X277.524 Y370.035
G01 X278.937 Y370.756
G01 X281.105 Y371.971
G01 X283.249 Y373.296
G01 X283.505 Y373.459
G01 X281.450 Y372.709
G01 X279.089 Y371.928
G01 X276.695 Y371.195
G01 X274.289 Y370.501
G01 X271.867 Y369.897
G01 X269.421 Y369.355
G01 X266.973 Y368.895
G01 X266.214 Y368.748
G01 X264.513 Y368.464
G01 X262.030 Y368.114
G01 X259.554 Y367.838
G01 X257.065 Y367.613
G01 X254.572 Y367.461
G01 X252.066 Y367.382
G01 X249.566 Y367.349
G01 X247.065 Y367.388
G01 X244.579 Y367.500
G01 X242.080 Y367.684
G01 X241.461 Y367.741
G01 X239.596 Y367.917
G01 X237.110 Y368.224
G01 X234.638 Y368.609
G01 X232.178 Y369.048
G01 X229.726 Y369.543
G01 X227.301 Y370.099
G01 X224.883 Y370.740
G01 X222.478 Y371.420
G01 X220.097 Y372.194
G01 X217.724 Y373.011
G01 X217.272 Y373.176
G01 X215.394 Y373.882
G01 X213.076 Y374.828
G01 X210.786 Y375.831
G01 X208.525 Y376.894
G01 X207.023 Y377.633
G01 X207.627 Y377.098
G01 X209.535 Y375.461
G01 X211.488 Y373.929
G01 X213.511 Y372.454
G01 X215.596 Y371.056
G01 X217.732 Y369.754
G01 X218.018 Y369.598
G01 X219.908 Y368.540
G01 X222.136 Y367.414
G01 X224.405 Y366.368
G01 X226.716 Y365.399
G01 X229.065 Y364.527
G01 X231.430 Y363.769
G01 X233.846 Y363.077
G01 X236.276 Y362.491
G01 X238.716 Y362.008
G01 X241.187 Y361.603
G01 X241.379 Y361.593
G01 X243.670 Y361.320
G01 X246.165 Y361.109
G01 X248.657 Y361.017
G01 X251.155 Y361.019
G01 X253.657 Y361.115
G01 X256.150 Y361.305
G01 X258.632 Y361.592
G01 X261.099 Y361.976
G01 X263.549 Y362.462
G01 X265.985 Y363.025
G01 X266.034 Y363.044
G01 X268.384 Y363.698
G01 X270.773 Y364.481
G01 X273.115 Y365.331
G01 X275.429 Y366.277
G01 X277.706 Y367.323
G01 X279.931 Y368.452
G01 X282.116 Y369.665
G01 X284.249 Y370.970
G01 X286.336 Y372.343
G01 X288.285 Y373.764
G01 X288.369 Y373.816
G01 X290.332 Y375.346
G01 X292.229 Y376.961
G01 X294.083 Y378.657
G01 X295.857 Y380.423
G01 X297.552 Y382.235
G01 X298.974 Y383.873
G01 X298.687 Y383.712
G01 X296.548 Y382.433
G01 X294.382 Y381.196
G01 X292.170 Y380.033
G01 X290.139 Y379.026
G01 X289.919 Y378.911
G01 X287.657 Y377.870
G01 X285.364 Y376.889
G01 X283.038 Y375.965
G01 X280.691 Y375.090
G01 X278.316 Y374.290
G01 X275.935 Y373.557
G01 X273.520 Y372.894
G01 X271.106 Y372.292
G01 X268.663 Y371.753
G01 X266.581 Y371.347
G01 X266.204 Y371.297
G01 X263.741 Y370.871
G01 X261.268 Y370.550
G01 X258.772 Y370.281
G01 X256.285 Y370.061
G01 X253.791 Y369.940
G01 X251.295 Y369.868
G01 X248.789 Y369.869
G01 X246.293 Y369.918
G01 X243.799 Y370.065
G01 X241.824 Y370.222
G01 X241.302 Y370.261
G01 X238.819 Y370.533
G01 X236.343 Y370.881
G01 X233.872 Y371.282
G01 X231.426 Y371.741
G01 X228.984 Y372.282
G01 X226.558 Y372.884
G01 X224.144 Y373.548
G01 X221.751 Y374.280
G01 X219.396 Y375.060
G01 X217.667 Y375.683
G01 X217.038 Y375.933
G01 X214.713 Y376.859
G01 X212.421 Y377.841
G01 X210.147 Y378.879
G01 X207.918 Y379.983
G01 X205.708 Y381.148
G01 X203.529 Y382.380
G01 X201.378 Y383.656
G01 X199.274 Y385.010
G01 X197.200 Y386.413
G01 X195.828 Y387.380
G01 X195.158 Y387.868
G01 X194.682 Y388.216
G01 X195.743 Y386.674
G01 X197.216 Y384.649
G01 X198.768 Y382.677
G01 X200.399 Y380.785
G01 X202.090 Y378.963
G01 X203.847 Y377.185
G01 X205.684 Y375.479
G01 X207.570 Y373.833
G01 X209.521 Y372.274
G01 X210.750 Y371.361
G01 X211.531 Y370.798
G01 X213.596 Y369.373
G01 X215.710 Y368.046
G01 X217.872 Y366.812
G01 X220.077 Y365.641
G01 X222.330 Y364.556
G01 X224.620 Y363.548
G01 X226.944 Y362.640
G01 X229.309 Y361.801
G01 X231.698 Y361.077
G01 X233.053 Y360.710
G01 X234.110 Y360.438
G01 X236.550 Y359.880
G01 X239.010 Y359.424
G01 X241.477 Y359.042
G01 X243.967 Y358.783
G01 X246.459 Y358.592
G01 X248.958 Y358.520
G01 X251.454 Y358.515
G01 X253.945 Y358.628
G01 X256.438 Y358.810
G01 X257.694 Y358.954
G01 X258.923 Y359.111
G01 X261.394 Y359.484
G01 X263.850 Y359.956
G01 X266.276 Y360.533
G01 X268.697 Y361.189
G01 X271.075 Y361.933
G01 X273.423 Y362.768
G01 X275.747 Y363.696
G01 X278.038 Y364.723
G01 X280.275 Y365.808
G01 X281.268 Y366.321
G01 X282.481 Y367.000
G01 X284.634 Y368.258
G01 X286.750 Y369.607
G01 X288.797 Y371.034
G01 X290.798 Y372.537
G01 X292.742 Y374.096
G01 X294.621 Y375.742
G01 X296.438 Y377.454
G01 X298.196 Y379.257
G01 X299.866 Y381.086
G01 X300.511 Y381.830
G01 X301.496 Y383.004
G01 X303.038 Y384.979
G01 X304.491 Y386.985
G01 X305.870 Y389.072
G01 X307.188 Y391.209
G01 X308.418 Y393.381
G01 X308.901 Y394.318
G01 X307.794 Y393.364
G01 X305.862 Y391.793
G01 X303.870 Y390.261
G01 X301.851 Y388.807
G01 X301.178 Y388.310
G01 X299.790 Y387.381
G01 X297.691 Y386.032
G01 X295.548 Y384.734
G01 X293.384 Y383.503
G01 X291.177 Y382.316
G01 X288.943 Y381.218
G01 X286.668 Y380.159
G01 X284.365 Y379.182
G01 X282.053 Y378.255
G01 X279.698 Y377.410
G01 X279.053 Y377.174
G01 X277.330 Y376.609
G01 X274.941 Y375.878
G01 X272.527 Y375.215
G01 X270.101 Y374.639
G01 X267.653 Y374.101
G01 X265.198 Y373.645
G01 X262.729 Y373.269
G01 X260.253 Y372.948
G01 X257.764 Y372.680
G01 X255.271 Y372.512
G01 X254.730 Y372.484
G01 X252.767 Y372.394
G01 X250.269 Y372.350
G01 X247.772 Y372.380
G01 X245.282 Y372.484
G01 X242.781 Y372.638
G01 X240.296 Y372.892
G01 X237.816 Y373.174
G01 X235.340 Y373.558
G01 X232.880 Y373.999
G01 X230.432 Y374.497
G01 X230.048 Y374.587
G01 X228.001 Y375.080
G01 X225.586 Y375.726
G01 X223.196 Y376.440
G01 X220.815 Y377.220
G01 X218.474 Y378.051
G01 X216.131 Y378.977
G01 X213.830 Y379.934
G01 X211.557 Y380.975
G01 X209.318 Y382.076
G01 X207.100 Y383.239
G01 X206.886 Y383.354
G01 X204.916 Y384.468
G01 X202.775 Y385.745
G01 X200.656 Y387.090
G01 X198.597 Y388.493
G01 X196.557 Y389.942
G01 X194.566 Y391.451
G01 X192.627 Y393.021
G01 X190.721 Y394.623
G01 X188.862 Y396.315
G01 X187.051 Y398.021
G01 X186.982 Y398.100
G01 X186.253 Y398.822
G01 X186.804 Y397.535
G01 X187.832 Y395.256
G01 X188.945 Y393.012
G01 X190.142 Y390.832
G01 X191.415 Y388.683
G01 X192.774 Y386.570
G01 X194.195 Y384.535
G01 X195.693 Y382.530
G01 X197.269 Y380.580
G01 X198.885 Y378.723
G01 X198.907 Y378.704
G01 X200.614 Y376.877
G01 X202.389 Y375.123
G01 X204.236 Y373.413
G01 X206.123 Y371.787
G01 X208.079 Y370.226
G01 X210.094 Y368.749
G01 X212.152 Y367.347
G01 X214.270 Y365.997
G01 X216.422 Y364.738
G01 X218.471 Y363.658
G01 X218.629 Y363.572
G01 X220.875 Y362.465
G01 X223.148 Y361.461
G01 X225.473 Y360.511
G01 X227.824 Y359.681
G01 X230.203 Y358.915
G01 X232.611 Y358.237
G01 X235.040 Y357.640
G01 X237.493 Y357.148
G01 X239.959 Y356.729
G01 X242.118 Y356.459
G01 X242.431 Y356.431
G01 X244.921 Y356.179
G01 X247.423 Y356.044
G01 X249.915 Y356.000
G01 X252.418 Y356.047
G01 X254.909 Y356.187
G01 X257.406 Y356.393
G01 X259.878 Y356.719
G01 X262.351 Y357.115
G01 X264.803 Y357.612
G01 X266.777 Y358.081
G01 X267.226 Y358.187
G01 X269.642 Y358.867
G01 X272.014 Y359.611
G01 X274.378 Y360.467
G01 X276.694 Y361.396
G01 X278.976 Y362.400
G01 X281.224 Y363.483
G01 X283.435 Y364.675
G01 X285.588 Y365.910
G01 X287.716 Y367.259
G01 X289.282 Y368.299
G01 X289.784 Y368.658
G01 X291.795 Y370.137
G01 X293.749 Y371.700
G01 X295.659 Y373.319
G01 X297.496 Y375.006
G01 X299.268 Y376.762
G01 X300.986 Y378.585
G01 X302.623 Y380.462
G01 X304.210 Y382.407
G01 X305.711 Y384.385
G01 X306.716 Y385.808
G01 X307.141 Y386.443
G01 X308.490 Y388.534
G01 X309.776 Y390.677
G01 X310.982 Y392.880
G01 X312.094 Y395.124
G01 X313.137 Y397.397
G01 X314.091 Y399.708
G01 X314.959 Y402.029
G01 X315.740 Y404.413
G01 X315.837 Y404.725
G01 X314.392 Y403.111
G01 X313.294 Y401.944
G01 X312.689 Y401.302
G01 X310.913 Y399.545
G01 X309.095 Y397.826
G01 X307.233 Y396.170
G01 X305.305 Y394.557
G01 X303.351 Y392.997
G01 X301.346 Y391.497
G01 X299.313 Y390.073
G01 X297.223 Y388.680
G01 X295.094 Y387.363
G01 X293.844 Y386.638
G01 X292.941 Y386.112
G01 X290.750 Y384.931
G01 X288.516 Y383.791
G01 X286.258 Y382.711
G01 X283.969 Y381.715
G01 X281.643 Y380.776
G01 X279.310 Y379.910
G01 X276.936 Y379.095
G01 X274.555 Y378.373
G01 X272.143 Y377.694
G01 X270.870 Y377.377
G01 X269.717 Y377.105
G01 X267.270 Y376.577
G01 X264.810 Y376.108
G01 X262.347 Y375.720
G01 X259.865 Y375.413
G01 X257.380 Y375.158
G01 X254.890 Y375.004
G01 X252.385 Y374.877
G01 X249.888 Y374.850
G01 X247.389 Y374.898
G01 X246.226 Y374.943
G01 X244.897 Y374.996
G01 X242.404 Y375.195
G01 X239.918 Y375.445
G01 X237.431 Y375.774
G01 X234.967 Y376.158
G01 X232.517 Y376.624
G01 X230.068 Y377.147
G01 X227.648 Y377.759
G01 X225.233 Y378.434
G01 X222.858 Y379.179
G01 X221.882 Y379.508
G01 X220.481 Y379.990
G01 X218.144 Y380.853
G01 X215.841 Y381.795
G01 X213.543 Y382.812
G01 X211.282 Y383.889
G01 X209.058 Y385.029
G01 X206.878 Y386.212
G01 X204.714 Y387.484
G01 X202.596 Y388.803
G01 X200.517 Y390.199
G01 X199.783 Y390.707
G01 X198.473 Y391.644
G01 X196.478 Y393.147
G01 X194.523 Y394.705
G01 X192.616 Y396.298
G01 X190.742 Y397.976
G01 X188.922 Y399.694
G01 X187.174 Y401.462
G01 X185.445 Y403.286
G01 X183.803 Y405.142
G01 X182.185 Y407.060
G01 X181.708 Y407.643
G01 X180.634 Y409.030
G01 X180.343 Y409.394
G01 X180.803 Y407.439
G01 X181.458 Y405.023
G01 X182.199 Y402.645
G01 X183.018 Y400.273
G01 X183.908 Y397.959
G01 X184.898 Y395.664
G01 X185.961 Y393.401
G01 X187.094 Y391.168
G01 X188.320 Y388.977
G01 X188.632 Y388.460
G01 X189.611 Y386.842
G01 X190.987 Y384.744
G01 X192.424 Y382.725
G01 X193.935 Y380.708
G01 X195.524 Y378.776
G01 X197.162 Y376.915
G01 X198.877 Y375.081
G01 X200.646 Y373.315
G01 X202.490 Y371.625
G01 X204.381 Y369.996
G01 X204.726 Y369.699
G01 X206.327 Y368.429
G01 X208.328 Y366.947
G01 X210.380 Y365.520
G01 X212.482 Y364.169
G01 X214.633 Y362.890
G01 X216.832 Y361.679
G01 X219.059 Y360.552
G01 X221.336 Y359.511
G01 X223.633 Y358.543
G01 X225.967 Y357.676
G01 X226.263 Y357.562
G01 X228.335 Y356.876
G01 X230.740 Y356.142
G01 X233.156 Y355.514
G01 X235.593 Y354.966
G01 X238.044 Y354.518
G01 X240.518 Y354.144
G01 X243.001 Y353.839
G01 X245.488 Y353.652
G01 X247.991 Y353.531
G01 X250.486 Y353.499
G01 X250.652 Y353.498
G01 X252.983 Y353.557
G01 X255.481 Y353.705
G01 X257.967 Y353.945
G01 X260.452 Y354.277
G01 X262.909 Y354.682
G01 X265.360 Y355.184
G01 X267.796 Y355.763
G01 X270.203 Y356.424
G01 X272.585 Y357.171
G01 X274.947 Y358.006
G01 X274.958 Y358.004
G01 X277.266 Y358.914
G01 X279.559 Y359.920
G01 X281.816 Y360.979
G01 X284.041 Y362.147
G01 X286.219 Y363.381
G01 X288.349 Y364.683
G01 X290.429 Y366.060
G01 X292.458 Y367.515
G01 X294.435 Y369.026
G01 X296.284 Y370.545
G01 X296.368 Y370.620
G01 X298.244 Y372.277
G01 X300.048 Y374.006
G01 X301.813 Y375.798
G01 X303.500 Y377.641
G01 X305.118 Y379.536
G01 X306.664 Y381.485
G01 X308.154 Y383.509
G01 X309.567 Y385.565
G01 X310.907 Y387.680
G01 X312.044 Y389.609
G01 X312.160 Y389.831
G01 X313.360 Y392.034
G01 X314.465 Y394.278
G01 X315.500 Y396.554
G01 X316.445 Y398.870
G01 X317.318 Y401.190
G01 X318.105 Y403.577
G01 X318.812 Y405.970
G01 X319.431 Y408.402
G01 X319.964 Y410.842
G01 X320.333 Y412.889
G01 X320.409 Y413.292
G01 X320.686 Y415.159
G01 X320.352 Y414.650
G01 X318.918 Y412.597
G01 X317.426 Y410.595
G01 X315.878 Y408.640
G01 X314.253 Y406.714
G01 X312.604 Y404.849
G01 X310.876 Y403.036
G01 X309.105 Y401.263
G01 X307.285 Y399.554
G01 X305.839 Y398.258
G01 X305.420 Y397.908
G01 X303.503 Y396.299
G01 X301.530 Y394.751
G01 X299.526 Y393.282
G01 X297.477 Y391.840
G01 X295.372 Y390.480
G01 X293.253 Y389.184
G01 X291.073 Y387.940
G01 X288.867 Y386.759
G01 X286.622 Y385.643
G01 X284.989 Y384.886
G01 X284.357 Y384.610
G01 X282.065 Y383.632
G01 X279.738 Y382.735
G01 X277.381 Y381.888
G01 X274.998 Y381.113
G01 X272.600 Y380.406
G01 X270.187 Y379.789
G01 X267.751 Y379.237
G01 X265.289 Y378.745
G01 X262.825 Y378.336
G01 X261.185 Y378.088
G01 X260.351 Y377.982
G01 X257.864 Y377.708
G01 X255.372 Y377.537
G01 X252.880 Y377.392
G01 X250.382 Y377.349
G01 X247.885 Y377.382
G01 X245.383 Y377.491
G01 X242.895 Y377.652
G01 X240.403 Y377.890
G01 X237.926 Y378.208
G01 X236.426 Y378.435
G01 X235.458 Y378.605
G01 X232.993 Y379.084
G01 X230.559 Y379.600
G01 X228.128 Y380.226
G01 X225.735 Y380.895
G01 X223.340 Y381.653
G01 X220.977 Y382.458
G01 X218.653 Y383.340
G01 X216.337 Y384.295
G01 X214.056 Y385.333
G01 X212.818 Y385.932
G01 X211.801 Y386.428
G01 X209.593 Y387.563
G01 X207.417 Y388.789
G01 X205.267 Y390.081
G01 X203.166 Y391.422
G01 X201.092 Y392.834
G01 X199.069 Y394.301
G01 X197.100 Y395.826
G01 X195.156 Y397.403
G01 X193.284 Y399.049
G01 X192.368 Y399.876
G01 X191.442 Y400.751
G01 X189.657 Y402.495
G01 X187.921 Y404.305
G01 X186.231 Y406.156
G01 X184.605 Y408.056
G01 X183.057 Y409.984
G01 X181.537 Y411.975
G01 X180.074 Y414.016
G01 X178.698 Y416.092
G01 X177.368 Y418.214
G01 X176.807 Y419.143
G01 X176.318 Y419.993
G01 X176.341 Y419.567
G01 X176.568 Y417.075
G01 X176.865 Y414.609
G01 X177.249 Y412.125
G01 X177.730 Y409.682
G01 X178.284 Y407.243
G01 X178.924 Y404.814
G01 X179.637 Y402.417
G01 X180.434 Y400.059
G01 X181.323 Y397.715
G01 X181.669 Y396.856
G01 X182.275 Y395.401
G01 X183.306 Y393.151
G01 X184.418 Y390.911
G01 X185.597 Y388.702
G01 X186.869 Y386.536
G01 X188.203 Y384.426
G01 X189.597 Y382.370
G01 X191.070 Y380.348
G01 X192.607 Y378.380
G01 X194.229 Y376.447
G01 X194.745 Y375.855
G01 X195.886 Y374.607
G01 X197.619 Y372.795
G01 X199.404 Y371.052
G01 X201.271 Y369.361
G01 X203.172 Y367.755
G01 X205.126 Y366.212
G01 X207.139 Y364.704
G01 X209.193 Y363.300
G01 X211.303 Y361.951
G01 X213.459 Y360.674
G01 X214.027 Y360.360
G01 X215.640 Y359.485
G01 X217.875 Y358.364
G01 X220.143 Y357.298
G01 X222.450 Y356.339
G01 X224.775 Y355.450
G01 X227.140 Y354.632
G01 X229.532 Y353.903
G01 X231.950 Y353.234
G01 X234.378 Y352.668
G01 X236.828 Y352.180
G01 X237.337 Y352.093
G01 X239.293 Y351.788
G01 X241.773 Y351.467
G01 X244.264 Y351.238
G01 X246.765 Y351.073
G01 X249.263 Y350.997
G01 X251.758 Y351.035
G01 X254.250 Y351.136
G01 X256.746 Y351.301
G01 X259.229 Y351.582
G01 X261.702 Y351.931
G01 X262.070 Y351.988
G01 X264.166 Y352.375
G01 X266.615 Y352.892
G01 X269.035 Y353.489
G01 X271.446 Y354.191
G01 X273.823 Y354.955
G01 X276.168 Y355.786
G01 X278.491 Y356.712
G01 X280.776 Y357.715
G01 X283.035 Y358.795
G01 X285.249 Y359.964
G01 X285.449 Y360.057
G01 X287.430 Y361.194
G01 X289.566 Y362.495
G01 X291.645 Y363.874
G01 X293.689 Y365.300
G01 X295.671 Y366.814
G01 X297.623 Y368.407
G01 X299.500 Y370.045
G01 X301.318 Y371.752
G01 X303.099 Y373.520
G01 X304.793 Y375.347
G01 X304.848 Y375.405
G01 X306.432 Y377.221
G01 X308.023 Y379.166
G01 X309.529 Y381.147
G01 X310.978 Y383.206
G01 X312.350 Y385.272
G01 X313.658 Y387.422
G01 X314.880 Y389.583
G01 X316.047 Y391.798
G01 X317.117 Y394.057
G01 X318.108 Y396.299
G01 X318.129 Y396.344
G01 X319.050 Y398.672
G01 X319.896 Y401.008
G01 X320.670 Y403.404
G01 X321.363 Y405.810
G01 X321.957 Y408.232
G01 X322.479 Y410.658
G01 X322.906 Y413.124
G01 X323.283 Y415.611
G01 X323.538 Y418.093
G01 X323.729 Y420.382
G01 X323.731 Y420.572
G01 X323.833 Y423.085
G01 X323.841 Y425.580
G01 X322.699 Y423.348
G01 X321.485 Y421.173
G01 X320.210 Y419.023
G01 X318.870 Y416.926
G01 X317.457 Y414.858
G01 X315.986 Y412.838
G01 X314.458 Y410.867
G01 X313.091 Y409.205
G01 X312.866 Y408.917
G01 X311.217 Y407.040
G01 X309.514 Y405.233
G01 X307.755 Y403.440
G01 X305.948 Y401.713
G01 X304.077 Y400.053
G01 X302.177 Y398.447
G01 X300.220 Y396.903
G01 X298.198 Y395.394
G01 X296.154 Y393.984
G01 X294.474 Y392.862
G01 X294.064 Y392.597
G01 X291.923 Y391.312
G01 X289.761 Y390.066
G01 X287.543 Y388.890
G01 X285.303 Y387.800
G01 X283.035 Y386.767
G01 X280.723 Y385.793
G01 X278.399 Y384.893
G01 X276.035 Y384.071
G01 X273.654 Y383.318
G01 X271.856 Y382.814
G01 X271.241 Y382.635
G01 X268.823 Y382.040
G01 X266.378 Y381.509
G01 X263.916 Y381.038
G01 X261.448 Y380.649
G01 X258.969 Y380.342
G01 X256.485 Y380.113
G01 X253.991 Y379.964
G01 X251.494 Y379.866
G01 X248.987 Y379.871
G01 X247.272 Y379.896
G01 X246.491 Y379.928
G01 X244.000 Y380.062
G01 X241.506 Y380.298
G01 X239.031 Y380.590
G01 X236.556 Y380.962
G01 X234.104 Y381.392
G01 X231.650 Y381.930
G01 X229.228 Y382.507
G01 X226.811 Y383.171
G01 X224.423 Y383.930
G01 X222.932 Y384.427
G01 X222.057 Y384.733
G01 X219.718 Y385.610
G01 X217.418 Y386.567
G01 X215.135 Y387.576
G01 X212.888 Y388.670
G01 X210.670 Y389.824
G01 X208.486 Y391.069
G01 X206.353 Y392.359
G01 X204.256 Y393.694
G01 X202.181 Y395.125
G01 X201.032 Y395.955
G01 X200.182 Y396.591
G01 X198.215 Y398.134
G01 X196.291 Y399.734
G01 X194.411 Y401.392
G01 X192.593 Y403.117
G01 X190.818 Y404.878
G01 X189.118 Y406.688
G01 X187.458 Y408.561
G01 X185.848 Y410.477
G01 X184.306 Y412.444
G01 X183.543 Y413.484
G01 X182.821 Y414.458
G01 X181.411 Y416.528
G01 X180.057 Y418.619
G01 X178.750 Y420.756
G01 X177.537 Y422.932
G01 X176.361 Y425.149
G01 X175.268 Y427.402
G01 X174.253 Y429.660
G01 X173.864 Y430.581
G01 X173.762 Y429.071
G01 X173.671 Y426.584
G01 X173.648 Y425.430
G01 X173.649 Y424.094
G01 X173.724 Y421.585
G01 X173.856 Y419.097
G01 X174.098 Y416.599
G01 X174.409 Y414.129
G01 X174.798 Y411.665
G01 X175.263 Y409.206
G01 X175.818 Y406.759
G01 X176.449 Y404.346
G01 X177.164 Y401.945
G01 X177.475 Y400.985
G01 X177.949 Y399.576
G01 X178.828 Y397.224
G01 X179.760 Y394.926
G01 X180.779 Y392.642
G01 X181.871 Y390.392
G01 X183.031 Y388.177
G01 X184.271 Y385.999
G01 X185.576 Y383.881
G01 X186.952 Y381.796
G01 X188.396 Y379.742
G01 X188.915 Y379.048
G01 X189.906 Y377.746
G01 X191.479 Y375.805
G01 X193.122 Y373.920
G01 X194.820 Y372.084
G01 X196.571 Y370.321
G01 X198.391 Y368.581
G01 X200.257 Y366.935
G01 X202.176 Y365.327
G01 X204.146 Y363.810
G01 X206.173 Y362.328
G01 X206.752 Y361.936
G01 X208.247 Y360.927
G01 X210.353 Y359.599
G01 X212.512 Y358.348
G01 X214.720 Y357.141
G01 X216.949 Y356.018
G01 X219.220 Y354.981
G01 X221.524 Y354.023
G01 X223.858 Y353.113
G01 X226.220 Y352.297
G01 X228.606 Y351.571
G01 X229.149 Y351.403
G01 X231.012 Y350.904
G01 X233.450 Y350.319
G01 X235.894 Y349.808
G01 X238.358 Y349.395
G01 X240.831 Y349.052
G01 X243.321 Y348.799
G01 X245.816 Y348.611
G01 X248.305 Y348.510
G01 X250.808 Y348.497
G01 X253.303 Y348.570
G01 X253.729 Y348.605
G01 X255.802 Y348.730
G01 X258.292 Y348.953
G01 X260.773 Y349.267
G01 X263.241 Y349.649
G01 X265.696 Y350.127
G01 X268.134 Y350.680
G01 X270.548 Y351.312
G01 X272.944 Y352.027
G01 X275.317 Y352.829
G01 X277.664 Y353.698
G01 X277.920 Y353.785
G01 X279.977 Y354.641
G01 X282.257 Y355.661
G01 X284.498 Y356.739
G01 X286.706 Y357.902
G01 X288.883 Y359.156
G01 X291.021 Y360.454
G01 X293.105 Y361.830
G01 X295.143 Y363.287
G01 X297.126 Y364.777
G01 X299.069 Y366.351
G01 X299.176 Y366.442
G01 X300.960 Y367.990
G01 X302.795 Y369.699
G01 X304.573 Y371.453
G01 X306.299 Y373.278
G01 X307.950 Y375.133
G01 X309.541 Y377.067
G01 X311.074 Y379.025
G01 X312.553 Y381.063
G01 X313.952 Y383.137
G01 X315.280 Y385.244
G01 X316.546 Y387.409
G01 X317.733 Y389.612
G01 X318.842 Y391.825
G01 X319.876 Y394.102
G01 X320.850 Y396.408
G01 X321.745 Y398.752
G01 X322.564 Y401.105
G01 X323.298 Y403.497
G01 X323.964 Y405.894
G01 X324.507 Y408.181
G01 X324.539 Y408.332
G01 X325.053 Y410.797
G01 X325.464 Y413.252
G01 X325.809 Y415.735
G01 X326.064 Y418.201
G01 X326.231 Y420.702
G01 X326.331 Y423.201
G01 X326.346 Y425.705
G01 X326.291 Y428.206
G01 X326.120 Y430.696
G01 X325.927 Y432.890
G01 X325.895 Y433.175
G01 X325.578 Y435.656
G01 X325.542 Y435.994
G01 X324.788 Y433.980
G01 X323.865 Y431.657
G01 X322.870 Y429.363
G01 X321.805 Y427.097
G01 X320.682 Y424.881
G01 X319.469 Y422.675
G01 X318.197 Y420.545
G01 X316.857 Y418.415
G01 X315.703 Y416.721
G01 X315.447 Y416.365
G01 X313.985 Y414.333
G01 X312.449 Y412.354
G01 X310.859 Y410.419
G01 X309.210 Y408.555
G01 X307.498 Y406.736
G01 X305.724 Y404.960
G01 X303.915 Y403.242
G01 X302.042 Y401.591
G01 X300.124 Y399.997
G01 X298.606 Y398.813
G01 X298.147 Y398.463
G01 X296.128 Y396.982
G01 X294.061 Y395.578
G01 X291.963 Y394.245
G01 X289.812 Y392.960
G01 X287.616 Y391.744
G01 X285.396 Y390.613
G01 X283.130 Y389.546
G01 X280.848 Y388.532
G01 X278.529 Y387.624
G01 X276.858 Y386.992
G01 X276.176 Y386.768
G01 X273.804 Y385.982
G01 X271.399 Y385.268
G01 X268.988 Y384.643
G01 X266.549 Y384.083
G01 X264.094 Y383.609
G01 X261.631 Y383.193
G01 X259.157 Y382.885
G01 X256.664 Y382.633
G01 X254.174 Y382.459
G01 X252.542 Y382.401
G01 X251.668 Y382.364
G01 X249.179 Y382.347
G01 X246.675 Y382.433
G01 X244.176 Y382.572
G01 X241.690 Y382.790
G01 X239.210 Y383.088
G01 X236.743 Y383.468
G01 X234.275 Y383.905
G01 X231.834 Y384.453
G01 X229.411 Y385.039
G01 X227.975 Y385.446
G01 X227.006 Y385.741
G01 X224.627 Y386.487
G01 X222.263 Y387.327
G01 X219.933 Y388.217
G01 X217.631 Y389.186
G01 X215.369 Y390.237
G01 X213.139 Y391.348
G01 X210.933 Y392.543
G01 X208.772 Y393.807
G01 X206.649 Y395.113
G01 X205.516 Y395.868
G01 X204.565 Y396.517
G01 X202.542 Y397.950
G01 X200.546 Y399.482
G01 X198.601 Y401.044
G01 X196.708 Y402.692
G01 X194.870 Y404.376
G01 X193.097 Y406.129
G01 X191.361 Y407.941
G01 X189.688 Y409.797
G01 X188.081 Y411.700
G01 X187.328 Y412.643
G01 X186.527 Y413.647
G01 X185.037 Y415.668
G01 X183.615 Y417.714
G01 X182.254 Y419.810
G01 X180.959 Y421.958
G01 X179.723 Y424.128
G01 X178.568 Y426.331
G01 X177.468 Y428.582
G01 X176.455 Y430.869
G01 X175.513 Y433.185
G01 X175.136 Y434.165
G01 X174.627 Y435.524
G01 X173.837 Y437.901
G01 X173.116 Y440.279
G01 X172.865 Y441.175
G01 X172.535 Y439.639
G01 X172.121 Y437.169
G01 X171.763 Y434.687
G01 X171.499 Y432.209
G01 X171.289 Y429.719
G01 X171.181 Y427.212
G01 X171.150 Y424.733
G01 X171.152 Y423.801
G01 X171.182 Y422.221
G01 X171.317 Y419.724
G01 X171.519 Y417.225
G01 X171.792 Y414.755
G01 X172.155 Y412.269
G01 X172.601 Y409.820
G01 X173.107 Y407.369
G01 X173.702 Y404.932
G01 X174.372 Y402.530
G01 X175.115 Y400.163
G01 X175.356 Y399.418
G01 X175.935 Y397.778
G01 X176.826 Y395.456
G01 X177.806 Y393.151
G01 X178.847 Y390.876
G01 X179.960 Y388.637
G01 X181.142 Y386.433
G01 X182.378 Y384.285
G01 X183.714 Y382.158
G01 X185.097 Y380.082
G01 X186.547 Y378.040
G01 X186.927 Y377.530
G01 X188.063 Y376.056
G01 X189.641 Y374.128
G01 X191.275 Y372.224
G01 X192.977 Y370.405
G01 X194.740 Y368.609
G01 X196.550 Y366.884
G01 X198.405 Y365.226
G01 X200.322 Y363.614
G01 X202.289 Y362.066
G01 X204.302 Y360.606
G01 X204.696 Y360.309
G01 X206.356 Y359.175
G01 X208.463 Y357.826
G01 X210.610 Y356.552
G01 X212.792 Y355.321
G01 X215.012 Y354.182
G01 X217.279 Y353.107
G01 X219.562 Y352.110
G01 X221.885 Y351.192
G01 X224.228 Y350.343
G01 X226.604 Y349.563
G01 X226.932 Y349.460
G01 X229.004 Y348.845
G01 X231.423 Y348.234
G01 X233.856 Y347.675
G01 X236.314 Y347.191
G01 X238.779 Y346.802
G01 X241.264 Y346.480
G01 X243.754 Y346.248
G01 X246.241 Y346.101
G01 X248.742 Y346.017
G01 X251.239 Y346.017
G01 X251.440 Y346.014
G01 X253.740 Y346.102
G01 X256.236 Y346.248
G01 X258.726 Y346.481
G01 X261.201 Y346.804
G01 X263.667 Y347.194
G01 X266.124 Y347.678
G01 X268.562 Y348.211
G01 X270.986 Y348.847
G01 X273.380 Y349.541
G01 X275.755 Y350.322
G01 X275.802 Y350.336
G01 X278.098 Y351.171
G01 X280.427 Y352.113
G01 X282.711 Y353.111
G01 X284.977 Y354.185
G01 X287.198 Y355.324
G01 X289.371 Y356.533
G01 X291.526 Y357.830
G01 X293.633 Y359.179
G01 X295.689 Y360.583
G01 X297.626 Y362.021
G01 X297.700 Y362.071
G01 X299.666 Y363.619
G01 X301.573 Y365.208
G01 X303.450 Y366.884
G01 X305.260 Y368.609
G01 X307.012 Y370.382
G01 X308.713 Y372.230
G01 X310.348 Y374.105
G01 X311.926 Y376.033
G01 X313.442 Y378.017
G01 X314.766 Y379.872
G01 X314.892 Y380.060
G01 X316.275 Y382.136
G01 X317.597 Y384.269
G01 X318.858 Y386.433
G01 X320.040 Y388.637
G01 X321.153 Y390.876
G01 X322.194 Y393.151
G01 X323.163 Y395.434
G01 X324.065 Y397.778
G01 X324.874 Y400.141
G01 X325.522 Y402.164
G01 X325.628 Y402.530
G01 X326.298 Y404.932
G01 X326.893 Y407.369
G01 X327.415 Y409.812
G01 X327.845 Y412.269
G01 X328.198 Y414.732
G01 X328.481 Y417.225
G01 X328.683 Y419.724
G01 X328.807 Y422.198
G01 X328.857 Y424.702
G01 X328.838 Y426.684
G01 X328.819 Y427.212
G01 X328.701 Y429.697
G01 X328.520 Y432.201
G01 X328.237 Y434.687
G01 X327.898 Y437.161
G01 X327.455 Y439.615
G01 X326.955 Y442.056
G01 X326.377 Y444.491
G01 X325.844 Y446.416
G01 X325.751 Y445.942
G01 X325.168 Y443.514
G01 X324.699 Y441.738
G01 X324.531 Y441.079
G01 X323.801 Y438.707
G01 X323.002 Y436.335
G01 X322.127 Y433.993
G01 X321.178 Y431.679
G01 X320.141 Y429.401
G01 X319.036 Y427.149
G01 X317.875 Y424.944
G01 X316.634 Y422.771
G01 X315.326 Y420.649
G01 X314.398 Y419.237
G01 X313.945 Y418.553
G01 X312.494 Y416.535
G01 X310.993 Y414.534
G01 X309.404 Y412.588
G01 X307.772 Y410.706
G01 X306.089 Y408.864
G01 X304.336 Y407.094
G01 X302.522 Y405.362
G01 X300.644 Y403.696
G01 X298.741 Y402.107
G01 X297.529 Y401.127
G01 X296.769 Y400.553
G01 X294.747 Y399.079
G01 X292.690 Y397.679
G01 X290.576 Y396.328
G01 X288.430 Y395.045
G01 X286.242 Y393.855
G01 X284.007 Y392.730
G01 X281.752 Y391.660
G01 X279.455 Y390.674
G01 X277.126 Y389.767
G01 X275.805 Y389.280
G01 X274.761 Y388.910
G01 X272.379 Y388.149
G01 X269.991 Y387.479
G01 X267.561 Y386.878
G01 X265.113 Y386.340
G01 X262.660 Y385.887
G01 X260.183 Y385.518
G01 X257.703 Y385.231
G01 X255.215 Y385.024
G01 X252.712 Y384.898
G01 X251.457 Y384.867
G01 X250.216 Y384.850
G01 X247.720 Y384.881
G01 X245.218 Y385.015
G01 X242.733 Y385.205
G01 X240.243 Y385.474
G01 X237.770 Y385.826
G01 X235.309 Y386.260
G01 X232.868 Y386.781
G01 X230.432 Y387.363
G01 X228.021 Y388.036
G01 X226.960 Y388.370
G01 X225.649 Y388.780
G01 X223.279 Y389.616
G01 X220.948 Y390.503
G01 X218.647 Y391.467
G01 X216.385 Y392.540
G01 X214.147 Y393.643
G01 X211.951 Y394.836
G01 X209.788 Y396.092
G01 X207.673 Y397.419
G01 X205.607 Y398.820
G01 X204.817 Y399.392
G01 X203.575 Y400.293
G01 X201.601 Y401.822
G01 X199.673 Y403.406
G01 X197.800 Y405.075
G01 X195.983 Y406.780
G01 X194.219 Y408.549
G01 X192.508 Y410.382
G01 X190.863 Y412.259
G01 X189.286 Y414.184
G01 X187.755 Y416.175
G01 X187.274 Y416.849
G01 X186.298 Y418.217
G01 X184.911 Y420.284
G01 X183.588 Y422.401
G01 X182.331 Y424.569
G01 X181.154 Y426.766
G01 X180.032 Y429.012
G01 X179.004 Y431.268
G01 X178.037 Y433.574
G01 X177.143 Y435.909
G01 X176.344 Y438.280
G01 X176.127 Y438.947
G01 X175.586 Y440.668
G01 X174.937 Y443.072
G01 X174.353 Y445.500
G01 X173.855 Y447.961
G01 X173.417 Y450.416
G01 X173.226 Y451.762
G01 X172.854 Y450.683
G01 X172.104 Y448.299
G01 X171.414 Y445.900
G01 X170.812 Y443.471
G01 X170.268 Y441.028
G01 X170.175 Y440.502
G01 X169.802 Y438.580
G01 X169.422 Y436.105
G01 X169.118 Y433.626
G01 X168.889 Y431.144
G01 X168.742 Y428.637
G01 X168.658 Y426.151
G01 X168.656 Y423.641
G01 X168.741 Y421.138
G01 X168.883 Y418.657
G01 X169.120 Y416.161
G01 X169.168 Y415.767
G01 X169.411 Y413.687
G01 X169.809 Y411.206
G01 X170.258 Y408.748
G01 X170.788 Y406.327
G01 X171.403 Y403.890
G01 X172.077 Y401.483
G01 X172.825 Y399.112
G01 X173.654 Y396.754
G01 X174.562 Y394.408
G01 X175.524 Y392.118
G01 X175.625 Y391.889
G01 X176.572 Y389.845
G01 X177.679 Y387.602
G01 X178.856 Y385.397
G01 X180.099 Y383.225
G01 X181.417 Y381.094
G01 X182.797 Y379.022
G01 X184.232 Y376.979
G01 X185.733 Y374.968
G01 X187.295 Y373.016
G01 X188.917 Y371.119
G01 X188.986 Y371.042
G01 X190.593 Y369.275
G01 X192.344 Y367.463
G01 X194.130 Y365.719
G01 X195.961 Y364.045
G01 X197.866 Y362.398
G01 X199.798 Y360.836
G01 X201.796 Y359.319
G01 X203.827 Y357.884
G01 X205.906 Y356.481
G01 X208.004 Y355.175
G01 X208.034 Y355.161
G01 X210.187 Y353.909
G01 X212.384 Y352.730
G01 X214.622 Y351.591
G01 X216.894 Y350.540
G01 X219.189 Y349.567
G01 X221.517 Y348.645
G01 X223.873 Y347.821
G01 X226.254 Y347.037
G01 X228.653 Y346.364
G01 X230.892 Y345.788
G01 X231.069 Y345.746
G01 X233.514 Y345.183
G01 X235.966 Y344.716
G01 X238.436 Y344.319
G01 X240.909 Y344.011
G01 X243.397 Y343.768
G01 X245.897 Y343.610
G01 X248.391 Y343.511
G01 X250.888 Y343.496
G01 X253.388 Y343.564
G01 X255.562 Y343.685
G01 X255.884 Y343.715
G01 X258.372 Y343.928
G01 X260.855 Y344.227
G01 X263.330 Y344.590
G01 X265.788 Y345.048
G01 X268.233 Y345.576
G01 X270.661 Y346.181
G01 X273.063 Y346.842
G01 X275.449 Y347.586
G01 X277.815 Y348.394
G01 X279.718 Y349.116
G01 X280.152 Y349.298
G01 X282.456 Y350.252
G01 X284.727 Y351.287
G01 X286.975 Y352.404
G01 X289.182 Y353.561
G01 X291.364 Y354.808
G01 X293.492 Y356.107
G01 X295.573 Y357.461
G01 X297.625 Y358.891
G01 X299.636 Y360.406
G01 X301.116 Y361.573
G01 X301.591 Y361.960
G01 X303.489 Y363.558
G01 X305.357 Y365.244
G01 X307.149 Y366.960
G01 X308.905 Y368.742
G01 X310.599 Y370.579
G01 X312.240 Y372.467
G01 X313.823 Y374.409
G01 X315.333 Y376.387
G01 X316.791 Y378.419
G01 X317.781 Y379.877
G01 X318.193 Y380.508
G01 X319.525 Y382.604
G01 X320.793 Y384.762
G01 X321.983 Y386.961
G01 X323.119 Y389.188
G01 X324.182 Y391.453
G01 X325.171 Y393.758
G01 X326.084 Y396.073
G01 X326.931 Y398.422
G01 X327.723 Y400.799
G01 X328.171 Y402.340
G01 X328.417 Y403.197
G01 X329.051 Y405.623
G01 X329.597 Y408.065
G01 X330.083 Y410.506
G01 X330.487 Y412.985
G01 X330.800 Y415.449
G01 X331.060 Y417.935
G01 X331.236 Y420.429
G01 X331.328 Y422.931
G01 X331.350 Y425.431
G01 X331.324 Y426.903
G01 X331.301 Y427.930
G01 X331.163 Y430.436
G01 X330.959 Y432.909
G01 X330.663 Y435.387
G01 X330.301 Y437.884
G01 X329.862 Y440.323
G01 X329.356 Y442.781
G01 X328.762 Y445.209
G01 X328.110 Y447.624
G01 X327.368 Y450.007
G01 X326.945 Y451.242
G01 X326.567 Y452.375
G01 X325.677 Y454.710
G01 X324.800 Y456.840
G01 X324.782 Y456.661
G01 X324.549 Y454.165
G01 X324.242 Y451.695
G01 X323.834 Y449.234
G01 X323.368 Y446.767
G01 X322.795 Y444.339
G01 X322.157 Y441.935
G01 X321.448 Y439.530
G01 X321.071 Y438.417
G01 X320.641 Y437.163
G01 X319.758 Y434.824
G01 X318.802 Y432.512
G01 X317.776 Y430.227
G01 X316.674 Y427.997
G01 X315.489 Y425.798
G01 X314.226 Y423.627
G01 X312.896 Y421.506
G01 X311.502 Y419.433
G01 X310.048 Y417.406
G01 X309.419 Y416.596
G01 X308.519 Y415.430
G01 X306.926 Y413.525
G01 X305.258 Y411.641
G01 X303.532 Y409.823
G01 X301.752 Y408.069
G01 X299.919 Y406.376
G01 X298.021 Y404.745
G01 X296.082 Y403.194
G01 X294.090 Y401.671
G01 X292.038 Y400.255
G01 X291.302 Y399.759
G01 X289.942 Y398.885
G01 X287.810 Y397.584
G01 X285.628 Y396.351
G01 X283.417 Y395.204
G01 X281.161 Y394.145
G01 X278.868 Y393.143
G01 X276.541 Y392.220
G01 X274.194 Y391.370
G01 X271.810 Y390.593
G01 X269.417 Y389.909
G01 X268.694 Y389.730
G01 X266.980 Y389.294
G01 X264.543 Y388.790
G01 X262.079 Y388.324
G01 X259.604 Y387.966
G01 X257.125 Y387.691
G01 X254.635 Y387.497
G01 X252.143 Y387.383
G01 X249.643 Y387.350
G01 X247.141 Y387.420
G01 X244.647 Y387.546
G01 X244.052 Y387.597
G01 X242.152 Y387.777
G01 X239.667 Y388.064
G01 X237.198 Y388.459
G01 X234.756 Y388.916
G01 X232.303 Y389.482
G01 X229.887 Y390.088
G01 X227.492 Y390.813
G01 X225.123 Y391.607
G01 X222.777 Y392.472
G01 X220.465 Y393.415
G01 X220.056 Y393.586
G01 X218.186 Y394.438
G01 X215.938 Y395.542
G01 X213.740 Y396.710
G01 X211.563 Y397.938
G01 X209.444 Y399.264
G01 X207.362 Y400.658
G01 X205.338 Y402.104
G01 X203.352 Y403.624
G01 X201.421 Y405.226
G01 X199.546 Y406.860
G01 X199.320 Y407.077
G01 X197.713 Y408.577
G01 X195.949 Y410.361
G01 X194.248 Y412.185
G01 X192.606 Y414.076
G01 X191.032 Y416.013
G01 X189.531 Y417.999
G01 X188.089 Y420.029
G01 X186.699 Y422.130
G01 X185.400 Y424.262
G01 X184.160 Y426.414
G01 X184.082 Y426.572
G01 X183.000 Y428.650
G01 X181.914 Y430.885
G01 X180.905 Y433.177
G01 X179.967 Y435.495
G01 X179.122 Y437.848
G01 X178.334 Y440.223
G01 X177.654 Y442.611
G01 X177.029 Y445.047
G01 X176.497 Y447.490
G01 X176.042 Y449.935
G01 X176.034 Y449.958
G01 X175.658 Y452.404
G01 X175.375 Y454.883
G01 X175.166 Y457.387
G01 X175.044 Y459.893
G01 X175.005 Y462.346
G01 X174.984 Y462.338
G01 X173.904 Y460.094
G01 X172.894 Y457.806
G01 X171.953 Y455.477
G01 X171.064 Y453.153
G01 X170.297 Y450.891
G01 X170.253 Y450.767
G01 X169.513 Y448.395
G01 X168.843 Y445.986
G01 X168.261 Y443.548
G01 X167.728 Y441.119
G01 X167.292 Y438.640
G01 X166.924 Y436.181
G01 X166.612 Y433.710
G01 X166.386 Y431.215
G01 X166.234 Y428.718
G01 X166.164 Y426.474
G01 X166.155 Y426.220
G01 X166.147 Y423.721
G01 X166.227 Y421.231
G01 X166.360 Y418.732
G01 X166.605 Y416.228
G01 X166.877 Y413.761
G01 X167.257 Y411.289
G01 X167.701 Y408.818
G01 X168.210 Y406.377
G01 X168.795 Y403.945
G01 X169.341 Y401.915
G01 X169.468 Y401.529
G01 X170.185 Y399.135
G01 X170.988 Y396.786
G01 X171.858 Y394.443
G01 X172.806 Y392.113
G01 X173.805 Y389.839
G01 X174.891 Y387.584
G01 X176.035 Y385.360
G01 X177.247 Y383.173
G01 X178.524 Y381.022
G01 X179.562 Y379.367
G01 X179.863 Y378.905
G01 X181.249 Y376.841
G01 X182.715 Y374.820
G01 X184.233 Y372.826
G01 X185.813 Y370.891
G01 X187.449 Y369.013
G01 X189.151 Y367.166
G01 X190.902 Y365.369
G01 X192.688 Y363.641
G01 X194.540 Y361.967
G01 X195.914 Y360.776
G01 X196.442 Y360.338
G01 X198.390 Y358.778
G01 X200.382 Y357.254
G01 X202.414 Y355.818
G01 X204.504 Y354.419
G01 X206.619 Y353.095
G01 X208.766 Y351.844
G01 X210.964 Y350.645
G01 X213.200 Y349.514
G01 X215.465 Y348.443
G01 X216.979 Y347.774
G01 X217.749 Y347.452
G01 X220.080 Y346.519
G01 X222.415 Y345.678
G01 X224.790 Y344.883
G01 X227.183 Y344.175
G01 X229.605 Y343.527
G01 X232.036 Y342.955
G01 X234.481 Y342.457
G01 X236.947 Y342.029
G01 X239.421 Y341.667
G01 X240.930 Y341.502
G01 X241.909 Y341.393
G01 X244.395 Y341.178
G01 X246.893 Y341.072
G01 X249.390 Y340.998
G01 X251.894 Y341.030
G01 X254.386 Y341.119
G01 X256.878 Y341.291
G01 X259.368 Y341.522
G01 X261.848 Y341.839
G01 X264.319 Y342.245
G01 X265.666 Y342.483
G01 X266.772 Y342.695
G01 X269.212 Y343.241
G01 X271.635 Y343.838
G01 X274.043 Y344.515
G01 X276.430 Y345.277
G01 X278.784 Y346.107
G01 X281.126 Y347.003
G01 X283.431 Y347.952
G01 X285.706 Y348.982
G01 X287.942 Y350.074
G01 X289.036 Y350.645
G01 X290.160 Y351.251
G01 X292.338 Y352.473
G01 X294.474 Y353.771
G01 X296.567 Y355.123
G01 X298.634 Y356.550
G01 X300.642 Y358.018
G01 X302.618 Y359.571
G01 X304.539 Y361.167
G01 X306.411 Y362.807
G01 X308.230 Y364.521
G01 X309.006 Y365.276
G01 X310.006 Y366.280
G01 X311.721 Y368.093
G01 X313.385 Y369.959
G01 X314.993 Y371.879
G01 X316.554 Y373.850
G01 X318.029 Y375.839
G01 X319.474 Y377.899
G01 X320.837 Y379.975
G01 X322.139 Y382.113
G01 X323.378 Y384.285
G01 X323.833 Y385.118
G01 X324.563 Y386.486
G01 X325.664 Y388.733
G01 X326.720 Y391.005
G01 X327.688 Y393.295
G01 X328.603 Y395.643
G01 X329.427 Y397.982
G01 X330.206 Y400.372
G01 X330.901 Y402.777
G01 X331.509 Y405.198
G01 X332.058 Y407.619
G01 X332.226 Y408.405
G01 X332.543 Y410.071
G01 X332.944 Y412.562
G01 X333.271 Y415.032
G01 X333.532 Y417.502
G01 X333.720 Y420.003
G01 X333.823 Y422.513
G01 X333.845 Y425.001
G01 X333.807 Y427.511
G01 X333.686 Y429.997
G01 X333.491 Y432.482
G01 X333.438 Y433.139
G01 X333.251 Y434.979
G01 X332.906 Y437.460
G01 X332.494 Y439.906
G01 X332.015 Y442.372
G01 X331.447 Y444.809
G01 X330.811 Y447.210
G01 X330.104 Y449.628
G01 X329.349 Y451.999
G01 X328.484 Y454.347
G01 X327.579 Y456.669
G01 X327.379 Y457.144
G01 X326.592 Y458.981
G01 X325.558 Y461.244
G01 X324.995 Y462.346
G01 X324.984 Y461.103
G01 X324.890 Y458.588
G01 X324.698 Y456.106
G01 X324.442 Y453.619
G01 X324.104 Y451.133
G01 X323.674 Y448.680
G01 X323.167 Y446.228
G01 X322.593 Y443.800
G01 X322.490 Y443.465
G01 X321.936 Y441.403
G01 X321.188 Y439.014
G01 X320.363 Y436.653
G01 X319.463 Y434.321
G01 X318.490 Y432.015
G01 X317.430 Y429.743
G01 X316.312 Y427.519
G01 X315.131 Y425.318
G01 X313.854 Y423.151
G01 X312.519 Y421.058
G01 X312.390 Y420.866
G01 X311.112 Y418.989
G01 X309.645 Y416.966
G01 X308.104 Y414.993
G01 X306.493 Y413.067
G01 X304.838 Y411.203
G01 X303.110 Y409.411
G01 X301.336 Y407.652
G01 X299.494 Y405.960
G01 X297.603 Y404.325
G01 X295.649 Y402.750
G01 X295.589 Y402.716
G01 X293.657 Y401.251
G01 X291.612 Y399.829
G01 X289.524 Y398.454
G01 X287.386 Y397.150
G01 X285.212 Y395.911
G01 X282.995 Y394.762
G01 X280.743 Y393.673
G01 X278.459 Y392.664
G01 X276.129 Y391.737
G01 X273.852 Y390.895
G01 X273.792 Y390.880
G01 X271.417 Y390.097
G01 X269.021 Y389.408
G01 X266.594 Y388.786
G01 X264.148 Y388.228
G01 X261.698 Y387.779
G01 X259.233 Y387.390
G01 X256.750 Y387.084
G01 X254.258 Y386.884
G01 X251.764 Y386.739
G01 X250.000 Y386.700
G01 X248.537 Y386.742
G01 X247.249 Y386.847
G01 X245.065 Y387.011
G01 X241.500 Y387.362
G01 X236.866 Y388.278
G01 X232.638 Y389.070
G01 X228.902 Y390.070
G01 X225.701 Y391.047
G01 X222.525 Y392.170
G01 X218.895 Y393.748
G01 X215.823 Y395.310
G01 X212.881 Y396.779
G01 X210.214 Y398.306
G01 X206.821 Y400.556
G01 X201.566 Y404.328
G01 X195.613 Y409.877
G01 X191.126 Y415.171
G01 X188.355 Y419.035
G01 X186.199 Y422.425
G01 X184.238 Y425.883
G01 X183.052 Y428.188
G01 X182.080 Y430.227
G01 X181.352 Y431.662
G01 X179.977 Y434.964
G01 X178.729 Y438.261
G01 X177.264 Y443.239
G01 X176.328 Y447.160
G01 X175.769 Y450.180
G01 X175.241 Y454.168
G01 X175.022 Y456.749
G01 X174.982 Y458.224
G01 X174.893 Y460.582
G01 X174.892 Y461.855
G01 X174.001 Y460.288
G01 X173.207 Y458.561
G01 X172.705 Y457.362
G01 X172.073 Y455.843
G01 X171.505 Y454.315
G01 X170.662 Y452.030
G01 X169.779 Y449.285
G01 X168.843 Y445.986
G01 X167.976 Y442.341
G01 X167.095 Y437.406
G01 X166.612 Y433.710
G01 X166.234 Y428.718
G01 X166.147 Y423.721
G01 X166.291 Y419.981
G01 X167.062 Y412.509
G01 X168.795 Y403.945
G01 X170.585 Y397.960
G01 X171.858 Y394.443
G01 X174.334 Y388.703
G01 X179.562 Y379.367
G01 X185.019 Y371.857
G01 X190.018 Y366.264
G01 X196.167 Y360.566
G01 X202.414 Y355.818
G01 X207.692 Y352.459
G01 X214.648 Y349.145
G01 X217.749 Y347.452
G01 X223.549 Y345.383
G01 X224.790 Y344.883
G01 X229.945 Y343.809
G01 X234.934 Y342.464
G01 X235.712 Y342.225
G01 X240.356 Y341.847
G01 X244.929 Y341.237
G01 X245.641 Y341.121
G01 X250.018 Y341.000
G01 X250.018 Y340.750
G01 X249.966 Y250.799
G01 X250.005 Y250.817
G01 X250.047 Y250.834
G01 X250.089 Y250.848
G01 X250.133 Y250.860
G01 X250.179 Y250.869
G01 X250.226 Y250.876
G01 X250.274 Y250.881
G01 X250.323 Y250.883
G01 X250.372 Y250.882
G01 X250.423 Y250.879
G01 X250.474 Y250.872
G01 X250.525 Y250.863
G01 X250.576 Y250.850
G01 X250.628 Y250.835
G01 X250.679 Y250.817
G01 X250.731 Y250.795
G01 X250.781 Y250.771
G01 X250.831 Y250.743
G01 X250.880 Y250.712
G01 X250.928 Y250.679
G01 X250.975 Y250.642
G01 X251.020 Y250.602
G01 X251.064 Y250.560
G01 X251.106 Y250.514
G01 X251.146 Y250.466
G01 X251.184 Y250.415
G01 X251.220 Y250.361
G01 X251.253 Y250.305
G01 X251.284 Y250.246
G01 X251.312 Y250.186
G01 X251.337 Y250.123
G01 X251.359 Y250.058
G01 X251.375 Y249.999
G01 X251.800 Y250.006
G01 X462.425 Y249.999
G01 X462.425 Y250.042
G01 X462.400 Y250.063
G01 X462.375 Y250.084
G01 X462.350 Y250.105
G01 X462.325 Y250.127
G01 X462.275 Y250.148
G01 X462.250 Y250.148
G01 X462.200 Y250.169
G01 X462.150 Y250.169
G01 X462.125 Y250.148
G01 X462.075 Y250.148
G01 X462.025 Y250.126
G01 X461.975 Y250.105
G01 X461.950 Y250.063
G01 X461.900 Y250.020
G01 X461.875 Y249.978
G01 X461.850 Y249.914
G01 X461.825 Y249.851
G01 X461.800 Y249.787
G01 X461.800 Y249.724
G01 X461.800 Y249.660
G01 X461.800 Y249.576
G01 X461.799 Y249.512
G01 X461.824 Y249.427
G01 X461.824 Y249.364
G01 X461.874 Y249.279
G01 X461.899 Y249.215
G01 X461.948 Y249.130
G01 X461.998 Y249.066
G01 X462.073 Y249.002
G01 X462.122 Y248.939
G01 X462.222 Y248.874
G01 X462.297 Y248.832
G01 X462.397 Y248.789
G01 X462.496 Y248.767
G01 X462.621 Y248.745
G01 X462.721 Y248.744
G01 X462.846 Y248.743
G01 X462.971 Y248.743
G01 X463.096 Y248.763
G01 X463.222 Y248.805
G01 X463.322 Y248.847
G01 X463.447 Y248.889
G01 X463.572 Y248.953
G01 X463.673 Y249.016
G01 X463.798 Y249.101
G01 X463.898 Y249.186
G01 X463.974 Y249.293
G01 X464.074 Y249.421
G01 X464.149 Y249.528
G01 X464.225 Y249.678
G01 X464.275 Y249.828
G01 X464.325 Y249.978
G01 X464.350 Y250.128
G01 X464.350 Y250.299
G01 X464.349 Y250.471
G01 X464.324 Y250.642
G01 X464.298 Y250.814
G01 X464.248 Y250.985
G01 X464.197 Y251.156
G01 X464.121 Y251.305
G01 X464.020 Y251.476
G01 X463.919 Y251.625
G01 X463.818 Y251.774
G01 X463.666 Y251.922
G01 X463.540 Y252.049
G01 X463.389 Y252.176
G01 X463.213 Y252.281
G01 X463.037 Y252.364
G01 X462.861 Y252.447
G01 X462.660 Y252.509
G01 X462.435 Y252.549
G01 X462.234 Y252.567
G01 X462.009 Y252.586
G01 X461.785 Y252.562
G01 X461.560 Y252.517
G01 X461.336 Y252.472
G01 X461.112 Y252.385
G01 X460.887 Y252.298
G01 X460.689 Y252.190
G01 X460.490 Y252.062
G01 X460.291 Y251.913
G01 X460.118 Y251.743
G01 X459.944 Y251.574
G01 X459.770 Y251.384
G01 X459.622 Y251.173
G01 X459.498 Y250.963
G01 X459.399 Y250.732
G01 X459.299 Y250.481
G01 X459.250 Y250.229
G01 X459.200 Y249.957
G01 X459.175 Y249.685
G01 X459.199 Y249.413
G01 X459.223 Y249.141
G01 X459.272 Y248.869
G01 X459.345 Y248.576
G01 X459.468 Y248.323
G01 X459.591 Y248.050
G01 X459.713 Y247.797
G01 X459.886 Y247.543
G01 X460.083 Y247.310
G01 X460.280 Y247.097
G01 X460.502 Y246.905
G01 X460.749 Y246.711
G01 X461.022 Y246.559
G01 X461.294 Y246.407
G01 X461.593 Y246.296
G01 X461.891 Y246.206
G01 X462.215 Y246.136
G01 X462.539 Y246.109
G01 X462.864 Y246.103
G01 X463.190 Y246.119
G01 X463.516 Y246.177
G01 X463.867 Y246.235
G01 X464.194 Y246.336
G01 X464.496 Y246.460
G01 X464.823 Y246.605
G01 X465.101 Y246.794
G01 X465.404 Y246.983
G01 X465.657 Y247.217
G01 X465.910 Y247.473
G01 X466.138 Y247.751
G01 X466.341 Y248.052
G01 X466.519 Y248.375
G01 X466.671 Y248.721
G01 X466.798 Y249.067
G01 X466.874 Y249.435
G01 X466.950 Y249.804
G01 X466.975 Y250.194
G01 X466.974 Y250.563
G01 X466.948 Y250.954
G01 X466.896 Y251.344
G01 X466.818 Y251.734
G01 X466.690 Y252.101
G01 X466.536 Y252.468
G01 X466.357 Y252.812
G01 X466.152 Y253.155
G01 X465.897 Y253.475
G01 X465.617 Y253.773
G01 X465.312 Y254.048
G01 X464.957 Y254.299
G01 X464.602 Y254.528
G01 X464.223 Y254.713
G01 X463.844 Y254.876
G01 X463.441 Y255.016
G01 X463.014 Y255.113
G01 X462.587 Y255.187
G01 X462.136 Y255.219
G01 X461.711 Y255.208
G01 X461.262 Y255.176
G01 X460.838 Y255.103
G01 X460.390 Y255.007
G01 X459.969 Y254.850
G01 X459.573 Y254.653
G01 X459.178 Y254.434
G01 X458.783 Y254.175
G01 X458.439 Y253.877
G01 X458.095 Y253.537
G01 X457.801 Y253.179
G01 X457.531 Y252.801
G01 X457.286 Y252.383
G01 X457.066 Y251.946
G01 X456.894 Y251.510
G01 X456.747 Y251.054
G01 X456.624 Y250.578
G01 X456.550 Y250.103
G01 X456.525 Y249.607
G01 X456.548 Y249.111
G01 X456.595 Y248.615
G01 X456.691 Y248.118
G01 X456.837 Y247.641
G01 X457.031 Y247.163
G01 X457.249 Y246.724
G01 X457.542 Y246.284
G01 X457.834 Y245.863
G01 X458.176 Y245.481
G01 X458.568 Y245.118
G01 X458.960 Y244.774
G01 X459.402 Y244.470
G01 X459.844 Y244.185
G01 X460.338 Y243.961
G01 X460.833 Y243.757
G01 X461.328 Y243.594
G01 X461.875 Y243.493
G01 X462.399 Y243.434
G01 X462.948 Y243.417
G01 X463.499 Y243.443
G01 X464.052 Y243.533
G01 X464.607 Y243.666
G01 X465.137 Y243.845
G01 X465.643 Y244.068
G01 X466.151 Y244.335
G01 X466.634 Y244.647
G01 X467.092 Y244.983
G01 X467.526 Y245.365
G01 X467.909 Y245.771
G01 X468.292 Y246.222
G01 X468.625 Y246.698
G01 X468.907 Y247.197
G01 X469.163 Y247.742
G01 X469.368 Y248.288
G01 X469.522 Y248.880
G01 X469.624 Y249.450
G01 X469.675 Y250.065
G01 X469.674 Y250.658
G01 X469.621 Y251.273
G01 X469.492 Y251.865
G01 X469.336 Y252.478
G01 X469.154 Y253.046
G01 X468.895 Y253.611
G01 X468.610 Y254.175
G01 X468.275 Y254.693
G01 X467.888 Y255.208
G01 X467.476 Y255.677
G01 X467.014 Y256.099
G01 X466.503 Y256.496
G01 X465.991 Y256.848
G01 X465.406 Y257.153
G01 X464.822 Y257.414
G01 X464.190 Y257.606
G01 X463.559 Y257.755
G01 X462.905 Y257.859
G01 X462.253 Y257.899
G01 X461.603 Y257.896
G01 X460.930 Y257.828
G01 X460.283 Y257.720
G01 X459.614 Y257.549
G01 X458.997 Y257.317
G01 X458.381 Y257.045
G01 X457.792 Y256.713
G01 X457.203 Y256.342
G01 X456.690 Y255.912
G01 X456.179 Y255.423
G01 X455.742 Y254.897
G01 X455.329 Y254.332
G01 X454.966 Y253.751
G01 X454.651 Y253.110
G01 X454.385 Y252.472
G01 X454.167 Y251.796
G01 X453.997 Y251.101
G01 X453.900 Y250.407
G01 X453.850 Y249.693
G01 X453.872 Y248.980
G01 X453.943 Y248.266
G01 X454.085 Y247.550
G01 X454.276 Y246.853
G01 X454.539 Y246.174
G01 X454.876 Y245.512
G01 X455.261 Y244.887
G01 X455.670 Y244.280
G01 X456.154 Y243.710
G01 X456.687 Y243.176
G01 X457.246 Y242.680
G01 X457.855 Y242.243
G01 X458.490 Y241.843
G01 X459.153 Y241.524
G01 X459.867 Y241.243
G01 X460.609 Y241.022
G01 X461.353 Y240.863
G01 X462.125 Y240.787
G01 X462.874 Y240.755
G01 X463.652 Y240.806
G01 X464.432 Y240.902
G01 X465.190 Y241.064
G01 X465.949 Y241.292
G01 X466.687 Y241.588
G01 X467.375 Y241.931
G01 X468.066 Y242.342
G01 X468.707 Y242.801
G01 X469.323 Y243.308
G01 X469.865 Y243.885
G01 X470.382 Y244.511
G01 X470.847 Y245.162
G01 X471.237 Y245.884
G01 X471.574 Y246.609
G01 X471.860 Y247.381
G01 X472.068 Y248.178
G01 X472.223 Y248.977
G01 X472.325 Y249.799
G01 X472.349 Y250.622
G01 X472.295 Y251.444
G01 X472.188 Y252.288
G01 X472.004 Y253.085
G01 X471.741 Y253.902
G01 X471.426 Y254.672
G01 X471.034 Y255.416
G01 X470.565 Y256.132
G01 X470.045 Y256.801
G01 X469.474 Y257.442
G01 X468.853 Y258.013
G01 X468.182 Y258.556
G01 X467.462 Y259.051
G01 X466.718 Y259.476
G01 X465.926 Y259.831
G01 X465.111 Y260.138
G01 X464.250 Y260.356
G01 X463.392 Y260.507
G01 X462.511 Y260.591
G01 X461.635 Y260.590
G01 X460.763 Y260.504
G01 X459.870 Y260.354
G01 X459.004 Y260.144
G01 X458.167 Y259.853
G01 X457.333 Y259.481
G01 X456.552 Y259.052
G01 X455.772 Y258.564
G01 X455.068 Y258.021
G01 X454.391 Y257.401
G01 X453.763 Y256.746
G01 X453.211 Y256.016
G01 X452.707 Y255.251
G01 X452.276 Y254.430
G01 X451.918 Y253.574
G01 X451.632 Y252.701
G01 X451.417 Y251.792
G01 X451.273 Y250.865
G01 X451.200 Y249.939
G01 X451.222 Y248.993
G01 X451.291 Y248.047
G01 X451.454 Y247.118
G01 X451.689 Y246.207
G01 X451.996 Y245.312
G01 X452.398 Y244.432
G01 X452.849 Y243.607
G01 X453.398 Y242.816
G01 X454.021 Y242.059
G01 X454.693 Y241.377
G01 X455.416 Y240.729
G01 X456.190 Y240.157
G01 X457.041 Y239.639
G01 X457.894 Y239.179
G01 X458.801 Y238.818
G01 X459.735 Y238.494
G01 X460.699 Y238.272
G01 X461.668 Y238.133
G01 X462.665 Y238.056
G01 X463.668 Y238.086
G01 X464.651 Y238.203
G01 X465.639 Y238.408
G01 X466.605 Y238.682
G01 X467.549 Y239.047
G01 X468.447 Y239.484
G01 X469.322 Y239.991
G01 X470.148 Y240.571
G01 X470.951 Y241.223
G01 X471.678 Y241.927
G01 X472.355 Y242.703
G01 X472.956 Y243.532
G01 X473.505 Y244.410
G01 X473.977 Y245.340
G01 X474.344 Y246.297
G01 X474.634 Y247.303
G01 X474.844 Y248.313
G01 X474.974 Y249.369
G01 X475.000 Y250.404
G01 X474.945 Y251.461
G01 X474.836 Y252.517
G01 X474.622 Y253.548
G01 X474.304 Y254.553
G01 X473.931 Y255.554
G01 X473.480 Y256.527
G01 X472.926 Y257.425
G01 X472.319 Y258.318
G01 X471.613 Y259.113
G01 X470.829 Y259.877
G01 X469.996 Y260.567
G01 X469.090 Y261.182
G01 X468.160 Y261.726
G01 X467.159 Y262.173
G01 X466.135 Y262.571
G01 X465.090 Y262.877
G01 X464.025 Y263.092
G01 X462.915 Y263.217
G01 X461.811 Y263.255
G01 X460.712 Y263.207
G01 X459.619 Y263.054
G01 X458.531 Y262.819
G01 X457.475 Y262.484
G01 X456.424 Y262.047
G01 X455.428 Y261.515
G01 X454.484 Y260.909
G01 X453.593 Y260.228
G01 X452.729 Y259.474
G01 X451.939 Y258.668
G01 X451.224 Y257.791
G01 X450.583 Y256.842
G01 X450.014 Y255.861
G01 X449.517 Y254.829
G01 X449.115 Y253.743
G01 X448.833 Y252.624
G01 X448.619 Y251.489
G01 X448.525 Y250.337
G01 X448.523 Y249.185
G01 X448.615 Y248.013
G01 X448.800 Y246.858
G01 X449.079 Y245.718
G01 X449.452 Y244.613
G01 X449.895 Y243.520
G01 X450.459 Y242.479
G01 X451.070 Y241.489
G01 X451.778 Y240.529
G01 X452.586 Y239.658
G01 X453.444 Y238.839
G01 X454.404 Y238.110
G01 X455.392 Y237.455
G01 X456.459 Y236.892
G01 X457.557 Y236.426
G01 X458.708 Y236.037
G01 X459.892 Y235.747
G01 X461.080 Y235.539
G01 X462.301 Y235.434
G01 X463.504 Y235.437
G01 X464.713 Y235.527
G01 X465.929 Y235.727
G01 X467.125 Y236.019
G01 X468.278 Y236.427
G01 X469.411 Y236.929
G01 X470.473 Y237.529
G01 X471.512 Y238.226
G01 X472.478 Y239.000
G01 X473.370 Y239.851
G01 X474.210 Y240.779
G01 X474.950 Y241.785
G01 X475.637 Y242.844
G01 X476.219 Y243.958
G01 X476.722 Y245.101
G01 X477.145 Y246.296
G01 X477.436 Y247.520
G01 X477.622 Y248.770
G01 X477.725 Y250.045
G01 X477.696 Y251.320
G01 X477.535 Y252.570
G01 X477.293 Y253.841
G01 X476.944 Y255.061
G01 X476.513 Y256.275
G01 X475.952 Y257.458
G01 X475.312 Y258.565
G01 X474.593 Y259.640
G01 X473.796 Y260.660
G01 X472.898 Y261.600
G01 X471.925 Y262.462
G01 X470.878 Y263.246
G01 X469.759 Y263.929
G01 X468.594 Y264.513
G01 X467.358 Y264.999
G01 X466.103 Y265.390
G01 X464.805 Y265.665
G01 X463.489 Y265.826
G01 X462.180 Y265.900
G01 X460.854 Y265.864
G01 X459.511 Y265.721
G01 X458.202 Y265.455
G01 X456.924 Y265.111
G01 X455.656 Y264.625
G01 X454.442 Y264.067
G01 X453.286 Y263.374
G01 X452.183 Y262.591
G01 X451.159 Y261.720
G01 X450.186 Y260.760
G01 X449.313 Y259.714
G01 X448.514 Y258.600
G01 X447.835 Y257.441
G01 X447.228 Y256.194
G01 X446.714 Y254.918
G01 X446.317 Y253.612
G01 X446.037 Y252.273
G01 X445.848 Y250.900
G01 X445.799 Y249.510
G01 X445.891 Y248.119
G01 X446.073 Y246.744
G01 X446.371 Y245.384
G01 X446.785 Y244.055
G01 X447.292 Y242.755
G01 X447.918 Y241.503
G01 X448.638 Y240.298
G01 X449.456 Y239.158
G01 X450.371 Y238.083
G01 X451.387 Y237.093
G01 X452.480 Y236.189
G01 X453.652 Y235.393
G01 X454.903 Y234.685
G01 X456.186 Y234.071
G01 X457.527 Y233.591
G01 X458.900 Y233.188
G01 X460.308 Y232.927
G01 X461.750 Y232.767
G01 X463.175 Y232.716
G01 X464.611 Y232.794
G01 X466.058 Y233.004
G01 X467.462 Y233.331
G01 X468.849 Y233.775
G01 X470.194 Y234.339
G01 X471.469 Y235.027
G01 X472.722 Y235.793
G01 X473.879 Y236.685
G01 X474.987 Y237.658
G01 X475.993 Y238.713
G01 X476.923 Y239.849
G01 X477.750 Y241.067
G01 X478.472 Y242.365
G01 X479.089 Y243.721
G01 X479.573 Y245.109
G01 X479.949 Y246.550
G01 X480.216 Y248.019
G01 X480.349 Y249.515
G01 X480.348 Y251.013
G01 X480.261 Y252.509
G01 X480.015 Y254.002
G01 X479.660 Y255.466
G01 X479.196 Y256.900
G01 X478.600 Y258.278
G01 X477.872 Y259.621
G01 X477.064 Y260.884
G01 X476.127 Y262.086
G01 X475.088 Y263.204
G01 X473.948 Y264.239
G01 X472.759 Y265.170
G01 X471.472 Y266.017
G01 X470.115 Y266.738
G01 X468.711 Y267.379
G01 X467.266 Y267.877
G01 X465.754 Y268.252
G01 X464.229 Y268.490
G01 X462.687 Y268.614
G01 X461.134 Y268.585
G01 X459.590 Y268.449
G01 X458.057 Y268.188
G01 X456.536 Y267.784
G01 X455.074 Y267.266
G01 X453.622 Y266.631
G01 X452.253 Y265.868
G01 X450.940 Y265.017
G01 X449.707 Y264.042
G01 X448.554 Y262.943
G01 X447.500 Y261.764
G01 X446.570 Y260.486
G01 X445.711 Y259.146
G01 X444.972 Y257.724
G01 X444.374 Y256.260
G01 X443.867 Y254.750
G01 X443.499 Y253.192
G01 X443.243 Y251.603
G01 X443.150 Y249.999
G01 X443.168 Y248.396
G01 X443.323 Y246.790
G01 X443.640 Y245.196
G01 X444.071 Y243.651
G01 X444.641 Y242.132
G01 X445.352 Y240.654
G01 X446.155 Y239.239
G01 X447.079 Y237.903
G01 X448.099 Y236.627
G01 X449.244 Y235.449
G01 X450.467 Y234.371
G01 X451.768 Y233.397
G01 X453.177 Y232.544
G01 X454.667 Y231.798
G01 X456.195 Y231.204
G01 X457.783 Y230.724
G01 X459.406 Y230.362
G01 X461.043 Y230.145
G01 X462.692 Y230.054
G01 X464.355 Y230.115
G01 X466.027 Y230.286
G01 X467.664 Y230.620
G01 X469.260 Y231.074
G01 X470.841 Y231.672
G01 X472.356 Y232.419
G01 X473.777 Y233.297
G01 X475.152 Y234.281
G01 X476.453 Y235.373
G01 X477.653 Y236.552
G01 X478.753 Y237.864
G01 X479.723 Y239.240
G01 X480.612 Y240.677
G01 X481.369 Y242.222
G01 X481.992 Y243.803
G01 X482.455 Y245.442
G01 X482.807 Y247.112
G01 X482.997 Y248.834
G01 X483.049 Y250.535
G01 X482.964 Y252.259
G01 X482.741 Y253.979
G01 X482.356 Y255.670
G01 X481.859 Y257.328
G01 X481.228 Y258.929
G01 X480.461 Y260.492
G01 X479.563 Y261.970
G01 X478.533 Y263.384
G01 X477.376 Y264.685
G01 X476.117 Y265.899
G01 X474.756 Y267.023
G01 X473.325 Y268.016
G01 X471.798 Y268.875
G01 X470.202 Y269.627
G01 X468.539 Y270.250
G01 X466.862 Y270.729
G01 X465.119 Y271.083
G01 X463.367 Y271.278
G01 X461.579 Y271.313
G01 X459.807 Y271.198
G01 X458.051 Y270.916
G01 X456.308 Y270.512
G01 X454.605 Y269.950
G01 X452.963 Y269.257
G01 X451.383 Y268.437
G01 X449.836 Y267.489
G01 X448.398 Y266.404
G01 X447.063 Y265.223
G01 X445.805 Y263.925
G01 X444.673 Y262.514
G01 X443.688 Y260.993
G01 X442.795 Y259.415
G01 X442.069 Y257.744
G01 X441.455 Y256.032
G01 X441.002 Y254.278
G01 X440.684 Y252.478
G01 X440.499 Y250.647
G01 X440.496 Y248.818
G01 X440.601 Y246.988
G01 X440.889 Y245.188
G01 X441.336 Y243.396
G01 X441.943 Y241.644
G01 X442.688 Y239.951
G01 X443.549 Y238.334
G01 X444.577 Y236.787
G01 X445.726 Y235.332
G01 X446.972 Y233.950
G01 X448.345 Y232.680
G01 X449.800 Y231.546
G01 X451.359 Y230.508
G01 X453.004 Y229.610
G01 X454.711 Y228.860
G01 X456.484 Y228.259
G01 X458.324 Y227.834
G01 X460.177 Y227.530
G01 X462.048 Y227.395
G01 X463.936 Y227.410
G01 X465.839 Y227.580
G01 X467.705 Y227.892
G01 X469.537 Y228.371
G01 X471.331 Y228.999
G01 X473.060 Y229.779
G01 X474.722 Y230.693
G01 X476.316 Y231.764
G01 X477.788 Y232.952
G01 X479.186 Y234.275
G01 X480.458 Y235.716
G01 X481.599 Y237.248
G01 X482.634 Y238.871
G01 X483.535 Y240.583
G01 X484.275 Y242.359
G01 X484.903 Y244.196
G01 X485.342 Y246.069
G01 X485.641 Y247.996
G01 X485.750 Y249.928
G01 X485.693 Y251.861
G01 X485.494 Y253.791
G01 X485.106 Y255.713
G01 X484.577 Y257.602
G01 X483.910 Y259.431
G01 X483.080 Y261.219
G01 X482.116 Y262.918
G01 X481.019 Y264.526
G01 X479.764 Y266.063
G01 X478.407 Y267.483
G01 X476.901 Y268.761
G01 X475.321 Y269.924
G01 X473.621 Y270.946
G01 X471.853 Y271.833
G01 X469.994 Y272.583
G01 X468.099 Y273.161
G01 X466.167 Y273.590
G01 X464.174 Y273.871
G01 X462.175 Y273.970
G01 X460.194 Y273.917
G01 X458.207 Y273.690
G01 X456.240 Y273.279
G01 X454.317 Y272.710
G01 X452.436 Y271.968
G01 X450.620 Y271.081
G01 X448.891 Y270.055
G01 X447.249 Y268.874
G01 X445.687 Y267.580
G01 X444.254 Y266.159
G01 X442.947 Y264.614
G01 X441.762 Y262.963
G01 X440.695 Y261.225
G01 X439.818 Y259.384
G01 X439.102 Y257.473
G01 X438.520 Y255.506
G01 X438.117 Y253.499
G01 X437.894 Y251.465
G01 X437.824 Y249.417
G01 X437.907 Y247.368
G01 X438.167 Y245.313
G01 X438.606 Y243.301
G01 X439.201 Y241.328
G01 X439.955 Y239.408
G01 X440.895 Y237.554
G01 X441.975 Y235.786
G01 X443.223 Y234.119
G01 X444.595 Y232.556
G01 X446.093 Y231.116
G01 X447.694 Y229.784
G01 X449.405 Y228.601
G01 X451.227 Y227.551
G01 X453.111 Y226.641
G01 X455.063 Y225.897
G01 X457.087 Y225.344
G01 X459.155 Y224.949
G01 X461.270 Y224.739
G01 X463.356 Y224.706
G01 X465.487 Y224.846
G01 X467.561 Y225.155
G01 X469.627 Y225.631
G01 X471.660 Y226.280
G01 X473.604 Y227.090
G01 X475.510 Y228.056
G01 X477.324 Y229.187
G01 X479.018 Y230.463
G01 X480.614 Y231.882
G01 X482.085 Y233.447
G01 X483.402 Y235.135
G01 X484.586 Y236.919
G01 X485.634 Y238.798
G01 X486.520 Y240.770
G01 X487.240 Y242.785
G01 X487.794 Y244.862
G01 X488.181 Y246.998
G01 X488.398 Y249.141
G01 X488.421 Y251.310
G01 X488.250 Y253.478
G01 X487.909 Y255.615
G01 X487.375 Y257.717
G01 X486.648 Y259.778
G01 X485.781 Y261.774
G01 X484.751 Y263.701
G01 X483.559 Y265.530
G01 X482.233 Y267.286
G01 X480.753 Y268.894
G01 X479.144 Y270.401
G01 X477.413 Y271.738
G01 X475.560 Y272.950
G01 X473.616 Y273.995
G01 X471.610 Y274.857
G01 X469.493 Y275.553
G01 X467.366 Y276.077
G01 X465.159 Y276.423
G01 X462.944 Y276.605
G01 X460.727 Y276.607
G01 X458.509 Y276.411
G01 X456.312 Y276.049
G01 X454.165 Y275.488
G01 X452.064 Y274.754
G01 X450.013 Y273.812
G01 X448.076 Y272.718
G01 X446.204 Y271.471
G01 X444.468 Y270.061
G01 X442.839 Y268.510
G01 X441.310 Y266.840
G01 X439.956 Y265.037
G01 X438.743 Y263.138
G01 X437.695 Y261.143
G01 X436.805 Y259.066
G01 X436.097 Y256.907
G01 X435.591 Y254.696
G01 X435.259 Y252.445
G01 X435.150 Y250.166
G01 X435.188 Y247.888
G01 X435.423 Y245.623
G01 X435.857 Y243.380
G01 X436.466 Y241.173
G01 X437.228 Y239.015
G01 X438.197 Y236.936
G01 X439.327 Y234.935
G01 X440.623 Y233.047
G01 X442.089 Y231.269
G01 X443.706 Y229.624
G01 X445.456 Y228.135
G01 X447.337 Y226.765
G01 X449.307 Y225.562
G01 X451.368 Y224.512
G01 X453.525 Y223.639
G01 X455.727 Y222.936
G01 X458.005 Y222.424
G01 X460.310 Y222.119
G01 X462.637 Y221.983
G01 X464.968 Y222.070
G01 X467.275 Y222.366
G01 X469.578 Y222.854
G01 X471.823 Y223.499
G01 X474.011 Y224.351
G01 X476.140 Y225.389
G01 X478.151 Y226.578
G01 X480.092 Y227.912
G01 X481.889 Y229.423
G01 X483.560 Y231.086
G01 X485.104 Y232.901
G01 X486.463 Y234.821
G01 X487.662 Y236.867
G01 X488.697 Y239.011
G01 X489.539 Y241.228
G01 X490.212 Y243.512
G01 X490.689 Y245.835
G01 X490.993 Y248.216
G01 X491.074 Y250.602
G01 X490.981 Y252.987
G01 X490.690 Y255.367
G01 X490.177 Y257.687
G01 X489.467 Y259.991
G01 X488.562 Y262.224
G01 X487.466 Y264.360
G01 X486.205 Y266.418
G01 X484.784 Y268.350
G01 X483.204 Y270.175
G01 X481.469 Y271.868
G01 X479.610 Y273.408
G01 X477.626 Y274.817
G01 X475.528 Y276.027
G01 X473.341 Y277.065
G01 X471.045 Y277.909
G01 X468.720 Y278.550
G01 X466.314 Y279.006
G01 X463.885 Y279.246
G01 X461.430 Y279.298
G01 X459.004 Y279.133
G01 X456.578 Y278.795
G01 X454.180 Y278.252
G01 X451.833 Y277.516
G01 X449.563 Y276.577
G01 X447.364 Y275.461
G01 X445.288 Y274.142
G01 X443.328 Y272.644
G01 X441.503 Y270.995
G01 X439.809 Y269.178
G01 X438.261 Y267.254
G01 X436.884 Y265.189
G01 X435.669 Y263.017
G01 X434.612 Y260.756
G01 X433.782 Y258.422
G01 X433.126 Y256.026
G01 X432.690 Y253.562
G01 X432.447 Y251.076
G01 X432.444 Y248.576
G01 X432.658 Y246.090
G01 X433.063 Y243.608
G01 X433.663 Y241.177
G01 X434.486 Y238.806
G01 X435.459 Y236.493
G01 X436.638 Y234.266
G01 X438.004 Y232.142
G01 X439.537 Y230.139
G01 X441.245 Y228.277
G01 X443.107 Y226.558
G01 X445.106 Y225.007
G01 X447.245 Y223.630
G01 X449.480 Y222.437
G01 X451.814 Y221.436
G01 X454.222 Y220.616
G01 X456.682 Y219.987
G01 X459.200 Y219.579
G01 X461.745 Y219.360
G01 X464.296 Y219.363
G01 X466.851 Y219.573
G01 X469.386 Y220.022
G01 X471.846 Y220.680
G01 X474.277 Y221.544
G01 X476.600 Y222.607
G01 X478.863 Y223.865
G01 X481.009 Y225.303
G01 X483.033 Y226.900
G01 X484.908 Y228.658
G01 X486.654 Y230.574
G01 X488.217 Y232.626
G01 X489.619 Y234.811
G01 X490.806 Y237.128
G01 X491.823 Y239.522
G01 X492.593 Y241.991
G01 X493.188 Y244.526
G01 X493.558 Y247.101
G01 X493.725 Y249.707
G01 X493.689 Y252.339
G01 X493.425 Y254.941
G01 X492.959 Y257.509
G01 X492.267 Y260.035
G01 X491.377 Y262.489
G01 X490.264 Y264.890
G01 X488.960 Y267.162
G01 X487.440 Y269.322
G01 X485.761 Y271.346
G01 X483.924 Y273.234
G01 X481.933 Y274.982
G01 X479.797 Y276.543
G01 X477.541 Y277.944
G01 X475.197 Y279.143
G01 X472.742 Y280.163
G01 X470.209 Y280.964
G01 X467.603 Y281.530
G01 X464.975 Y281.874
G01 X462.302 Y281.999
G01 X459.637 Y281.897
G01 X456.980 Y281.578
G01 X454.357 Y281.031
G01 X451.789 Y280.290
G01 X449.276 Y279.343
G01 X446.865 Y278.204
G01 X444.532 Y276.838
G01 X442.343 Y275.302
G01 X440.272 Y273.560
G01 X438.383 Y271.664
G01 X436.649 Y269.594
G01 X435.085 Y267.393
G01 X433.709 Y265.060
G01 X432.515 Y262.613
G01 X431.545 Y260.085
G01 X430.770 Y257.487
G01 X430.185 Y254.829
G01 X429.862 Y252.140
G01 X429.749 Y249.424
G01 X429.870 Y246.707
G01 X430.225 Y243.996
G01 X430.817 Y241.332
G01 X431.624 Y238.706
G01 X432.627 Y236.166
G01 X433.856 Y233.723
G01 X435.291 Y231.371
G01 X436.891 Y229.150
G01 X438.685 Y227.056
G01 X440.660 Y225.131
G01 X442.771 Y223.384
G01 X445.049 Y221.816
G01 X447.450 Y220.440
G01 X449.952 Y219.268
G01 X452.536 Y218.311
G01 X455.201 Y217.557
G01 X457.926 Y217.020
G01 X460.686 Y216.712
G01 X463.460 Y216.645
G01 X466.243 Y216.808
G01 X469.009 Y217.213
G01 X471.706 Y217.851
G01 X474.377 Y218.700
G01 X476.946 Y219.775
G01 X479.434 Y221.076
G01 X481.804 Y222.542
G01 X484.059 Y224.219
G01 X486.168 Y226.089
G01 X488.095 Y228.104
G01 X489.868 Y230.310
G01 X491.428 Y232.659
G01 X492.795 Y235.121
G01 X493.965 Y237.693
G01 X494.910 Y240.345
G01 X495.652 Y243.070
G01 X496.140 Y245.864
G01 X496.421 Y248.668
G01 X496.445 Y251.502
G01 X496.237 Y254.333
G01 X495.796 Y257.154
G01 X495.100 Y259.907
G01 X494.175 Y262.610
G01 X493.048 Y265.234
G01 X491.724 Y267.749
G01 X490.181 Y270.149
G01 X488.449 Y272.407
G01 X486.505 Y274.541
G01 X484.409 Y276.482
G01 X482.140 Y278.226
G01 X479.725 Y279.799
G01 X477.198 Y281.159
G01 X474.563 Y282.309
G01 X471.846 Y283.256
G01 X469.058 Y283.959
G01 X466.198 Y284.446
G01 X463.323 Y284.688
G01 X460.438 Y284.672
G01 X457.542 Y284.409
G01 X454.688 Y283.893
G01 X451.895 Y283.161
G01 X449.139 Y282.197
G01 X446.491 Y281.024
G01 X443.950 Y279.629
G01 X441.511 Y278.023
G01 X439.220 Y276.201
G01 X437.090 Y274.212
G01 X435.143 Y272.042
G01 X433.395 Y269.698
G01 X431.810 Y267.232
G01 X430.458 Y264.630
G01 X429.329 Y261.924
G01 X428.391 Y259.141
G01 X427.714 Y256.275
G01 X427.268 Y253.368
G01 X427.074 Y250.424
G01 X427.132 Y247.484
G01 X427.441 Y244.550
G01 X427.979 Y241.646
G01 X428.774 Y238.793
G01 X429.782 Y236.020
G01 X431.034 Y233.334
G01 X432.487 Y230.749
G01 X434.176 Y228.296
G01 X436.031 Y225.981
G01 X438.114 Y223.835
G01 X440.361 Y221.891
G01 X442.751 Y220.138
G01 X445.311 Y218.560
G01 X447.954 Y217.220
G01 X450.733 Y216.100
G01 X453.597 Y215.197
G01 X456.501 Y214.531
G01 X459.472 Y214.107
G01 X462.491 Y213.961
G01 X465.472 Y214.054
G01 X468.469 Y214.406
G01 X471.428 Y215.015
G01 X474.315 Y215.845
G01 X477.129 Y216.925
G01 X479.866 Y218.239
G01 X482.465 Y219.749
G01 X484.950 Y221.478
G01 X487.267 Y223.434
G01 X489.406 Y225.567
G01 X491.365 Y227.901
G01 X493.133 Y230.360
G01 X494.683 Y232.966
G01 X496.036 Y235.713
G01 X497.135 Y238.549
G01 X498.028 Y241.464
G01 X498.663 Y244.453
G01 X499.037 Y247.484
G01 X499.149 Y250.547
G01 X498.999 Y253.585
G01 X498.586 Y256.638
G01 X497.938 Y259.624
G01 X497.056 Y262.560
G01 X495.917 Y265.414
G01 X494.550 Y268.178
G01 X492.959 Y270.823
G01 X491.175 Y273.321
G01 X489.155 Y275.638
G01 X486.950 Y277.801
G01 X484.545 Y279.757
G01 X482.017 Y281.537
G01 X479.325 Y283.088
G01 X476.528 Y284.398
G01 X473.623 Y285.514
G01 X470.650 Y286.355
G01 X467.582 Y286.968
G01 X464.505 Y287.306
G01 X461.396 Y287.376
G01 X458.281 Y287.190
G01 X455.182 Y286.764
G01 X452.135 Y286.051
G01 X447.058 Y283.886
G01 X442.787 Y280.913
G01 X438.525 Y277.182
G01 X435.819 Y274.293
G01 X432.652 Y270.283
G01 X430.130 Y265.547
G01 X428.988 Y263.215
G01 X427.864 Y259.631
G01 X427.043 Y254.480
G01 X426.796 Y251.166
G01 X426.850 Y249.999
G01 X364.725 Y249.988
G01 X364.748 Y247.498
G01 X364.841 Y245.001
G01 X365.107 Y242.519
G01 X365.354 Y241.053
G01 X365.522 Y240.052
G01 X366.015 Y237.609
G01 X366.612 Y235.181
G01 X367.319 Y232.784
G01 X367.877 Y231.146
G01 X367.693 Y231.911
G01 X367.186 Y234.357
G01 X366.734 Y236.823
G01 X366.358 Y239.288
G01 X366.034 Y241.771
G01 X365.782 Y244.252
G01 X365.666 Y245.591
G01 X365.604 Y246.750
G01 X365.472 Y249.237
G01 X365.412 Y251.742
G01 X365.422 Y254.237
G01 X365.503 Y256.741
G01 X365.657 Y259.237
G01 X365.858 Y261.729
G01 X366.133 Y264.215
G01 X366.461 Y266.685
G01 X366.867 Y269.147
G01 X367.072 Y270.337
G01 X367.113 Y270.537
G01 X366.756 Y269.513
G01 X366.017 Y267.131
G01 X365.365 Y264.718
G01 X364.821 Y262.274
G01 X364.380 Y259.814
G01 X364.014 Y257.341
G01 X363.771 Y254.861
G01 X363.625 Y252.363
G01 X363.575 Y249.863
G01 X363.644 Y247.363
G01 X363.690 Y246.315
G01 X363.810 Y244.875
G01 X364.046 Y242.381
G01 X364.407 Y239.917
G01 X364.867 Y237.453
G01 X365.433 Y235.026
G01 X366.104 Y232.606
G01 X366.864 Y230.228
G01 X367.713 Y227.873
G01 X368.660 Y225.563
G01 X369.707 Y223.294
G01 X370.111 Y222.471
G01 X370.835 Y221.069
G01 X372.047 Y218.888
G01 X373.375 Y216.756
G01 X373.538 Y216.500
G01 X372.784 Y218.543
G01 X372.004 Y220.905
G01 X371.271 Y223.301
G01 X370.602 Y225.703
G01 X369.973 Y228.131
G01 X369.431 Y230.579
G01 X368.970 Y233.028
G01 X368.824 Y233.788
G01 X368.540 Y235.490
G01 X368.189 Y237.962
G01 X367.914 Y240.451
G01 X367.689 Y242.942
G01 X367.536 Y245.437
G01 X367.457 Y247.932
G01 X367.424 Y250.434
G01 X367.489 Y252.926
G01 X367.600 Y255.425
G01 X367.759 Y257.925
G01 X367.816 Y258.544
G01 X368.017 Y260.412
G01 X368.325 Y262.888
G01 X368.685 Y265.359
G01 X369.124 Y267.821
G01 X369.619 Y270.274
G01 X370.199 Y272.705
G01 X370.816 Y275.120
G01 X371.520 Y277.531
G01 X372.270 Y279.908
G01 X373.090 Y282.270
G01 X373.255 Y282.722
G01 X373.962 Y284.601
G01 X374.908 Y286.920
G01 X375.911 Y289.211
G01 X376.974 Y291.472
G01 X377.713 Y292.975
G01 X377.178 Y292.371
G01 X375.540 Y290.463
G01 X374.008 Y288.509
G01 X372.534 Y286.485
G01 X371.135 Y284.400
G01 X369.830 Y282.275
G01 X369.677 Y281.977
G01 X368.619 Y280.086
G01 X367.490 Y277.869
G01 X366.444 Y275.599
G01 X365.475 Y273.287
G01 X364.603 Y270.937
G01 X363.845 Y268.571
G01 X363.153 Y266.153
G01 X362.565 Y263.733
G01 X362.084 Y261.279
G01 X361.703 Y258.809
G01 X361.668 Y258.615
G01 X361.395 Y256.334
G01 X361.209 Y253.838
G01 X361.092 Y251.344
G01 X361.094 Y248.844
G01 X361.190 Y246.340
G01 X361.381 Y243.856
G01 X361.667 Y241.373
G01 X362.052 Y238.904
G01 X362.538 Y236.453
G01 X363.126 Y234.012
G01 X363.119 Y233.966
G01 X363.799 Y231.611
G01 X364.556 Y229.225
G01 X365.407 Y226.882
G01 X366.355 Y224.578
G01 X367.401 Y222.300
G01 X368.531 Y220.074
G01 X369.744 Y217.888
G01 X371.049 Y215.754
G01 X372.422 Y213.667
G01 X373.843 Y211.718
G01 X373.895 Y211.633
G01 X375.426 Y209.670
G01 X377.041 Y207.773
G01 X378.737 Y205.918
G01 X380.503 Y204.144
G01 X382.315 Y202.449
G01 X383.953 Y201.027
G01 X383.787 Y201.300
G01 X382.508 Y203.439
G01 X381.276 Y205.620
G01 X380.113 Y207.833
G01 X379.105 Y209.864
G01 X378.986 Y210.071
G01 X377.950 Y212.347
G01 X376.968 Y214.641
G01 X376.040 Y216.955
G01 X375.169 Y219.316
G01 X374.366 Y221.679
G01 X373.636 Y224.074
G01 X372.970 Y226.477
G01 X372.370 Y228.906
G01 X371.829 Y231.338
G01 X371.423 Y233.421
G01 X371.373 Y233.798
G01 X370.972 Y236.259
G01 X370.625 Y238.737
G01 X370.355 Y241.222
G01 X370.160 Y243.709
G01 X370.015 Y246.206
G01 X369.943 Y248.704
G01 X369.944 Y251.211
G01 X370.018 Y253.709
G01 X370.140 Y256.204
G01 X370.298 Y258.168
G01 X370.337 Y258.691
G01 X370.608 Y261.176
G01 X370.957 Y263.653
G01 X371.358 Y266.125
G01 X371.817 Y268.572
G01 X372.358 Y271.016
G01 X372.960 Y273.443
G01 X373.625 Y275.858
G01 X374.359 Y278.240
G01 X375.136 Y280.609
G01 X375.762 Y282.326
G01 X376.012 Y282.955
G01 X376.938 Y285.281
G01 X377.917 Y287.587
G01 X378.959 Y289.849
G01 X380.058 Y292.091
G01 X381.223 Y294.303
G01 X382.456 Y296.482
G01 X383.736 Y298.620
G01 X385.091 Y300.725
G01 X386.494 Y302.799
G01 X387.461 Y304.171
G01 X387.948 Y304.842
G01 X388.297 Y305.317
G01 X386.755 Y304.257
G01 X384.729 Y302.784
G01 X382.758 Y301.232
G01 X380.865 Y299.601
G01 X379.043 Y297.910
G01 X377.265 Y296.152
G01 X375.555 Y294.328
G01 X373.912 Y292.429
G01 X372.353 Y290.478
G01 X371.440 Y289.249
G01 X370.877 Y288.467
G01 X369.452 Y286.401
G01 X368.125 Y284.287
G01 X366.888 Y282.135
G01 X365.720 Y279.918
G01 X364.631 Y277.675
G01 X363.627 Y275.373
G01 X362.718 Y273.048
G01 X361.902 Y270.698
G01 X361.153 Y268.303
G01 X360.786 Y266.947
G01 X360.514 Y265.889
G01 X359.956 Y263.448
G01 X359.499 Y260.997
G01 X359.143 Y258.519
G01 X358.858 Y256.036
G01 X358.667 Y253.543
G01 X358.595 Y251.042
G01 X358.590 Y248.544
G01 X358.703 Y246.052
G01 X358.885 Y243.557
G01 X359.029 Y242.311
G01 X359.186 Y241.081
G01 X359.559 Y238.608
G01 X360.032 Y236.151
G01 X360.609 Y233.724
G01 X361.267 Y231.312
G01 X362.009 Y228.922
G01 X362.868 Y226.567
G01 X363.772 Y224.247
G01 X364.802 Y221.966
G01 X365.884 Y219.717
G01 X366.423 Y218.729
G01 X367.079 Y217.521
G01 X368.337 Y215.368
G01 X369.685 Y213.252
G01 X371.113 Y211.204
G01 X372.616 Y209.203
G01 X374.175 Y207.258
G01 X375.822 Y205.378
G01 X377.533 Y203.562
G01 X379.337 Y201.803
G01 X381.166 Y200.134
G01 X381.909 Y199.488
G01 X383.084 Y198.503
G01 X385.059 Y196.961
G01 X387.065 Y195.508
G01 X389.153 Y194.129
G01 X391.290 Y192.811
G01 X393.462 Y191.581
G01 X394.399 Y191.099
G01 X393.445 Y192.206
G01 X391.873 Y194.138
G01 X390.341 Y196.131
G01 X388.887 Y198.150
G01 X388.391 Y198.823
G01 X387.461 Y200.211
G01 X386.112 Y202.310
G01 X384.814 Y204.454
G01 X383.583 Y206.619
G01 X382.396 Y208.827
G01 X381.298 Y211.062
G01 X380.238 Y213.337
G01 X379.258 Y215.628
G01 X378.334 Y217.954
G01 X377.486 Y220.297
G01 X377.249 Y220.942
G01 X376.685 Y222.666
G01 X375.956 Y225.070
G01 X375.291 Y227.472
G01 X374.715 Y229.899
G01 X374.177 Y232.348
G01 X373.720 Y234.805
G01 X373.345 Y237.275
G01 X373.024 Y239.753
G01 X372.780 Y242.242
G01 X372.587 Y244.725
G01 X372.559 Y245.266
G01 X372.469 Y247.231
G01 X372.425 Y249.730
G01 X372.455 Y252.228
G01 X372.559 Y254.720
G01 X372.713 Y257.211
G01 X372.967 Y259.709
G01 X373.275 Y262.182
G01 X373.634 Y264.656
G01 X374.075 Y267.118
G01 X374.597 Y269.570
G01 X374.664 Y269.951
G01 X375.156 Y271.999
G01 X375.803 Y274.416
G01 X376.516 Y276.807
G01 X377.297 Y279.188
G01 X378.152 Y281.537
G01 X379.057 Y283.862
G01 X380.014 Y286.164
G01 X381.054 Y288.438
G01 X382.152 Y290.691
G01 X383.319 Y292.896
G01 X383.429 Y293.123
G01 X384.549 Y295.081
G01 X385.825 Y297.222
G01 X387.171 Y299.341
G01 X388.569 Y301.415
G01 X390.023 Y303.441
G01 X391.532 Y305.432
G01 X393.103 Y307.372
G01 X394.704 Y309.278
G01 X396.397 Y311.137
G01 X398.103 Y312.948
G01 X398.182 Y313.017
G01 X398.904 Y313.746
G01 X397.617 Y313.195
G01 X395.337 Y312.168
G01 X393.094 Y311.056
G01 X390.913 Y309.859
G01 X388.764 Y308.586
G01 X386.651 Y307.228
G01 X384.616 Y305.807
G01 X382.610 Y304.308
G01 X380.660 Y302.733
G01 X378.803 Y301.117
G01 X378.785 Y301.094
G01 X376.957 Y299.388
G01 X375.202 Y297.613
G01 X373.493 Y295.765
G01 X371.867 Y293.878
G01 X370.305 Y291.921
G01 X368.828 Y289.906
G01 X367.426 Y287.848
G01 X366.076 Y285.728
G01 X364.816 Y283.576
G01 X363.733 Y281.537
G01 X363.648 Y281.379
G01 X362.541 Y279.132
G01 X361.540 Y276.846
G01 X360.589 Y274.521
G01 X359.756 Y272.180
G01 X358.991 Y269.799
G01 X358.313 Y267.390
G01 X357.716 Y264.960
G01 X357.223 Y262.504
G01 X356.828 Y260.050
G01 X356.533 Y257.887
G01 X356.507 Y257.564
G01 X356.279 Y255.073
G01 X356.119 Y252.579
G01 X356.075 Y250.084
G01 X356.122 Y247.580
G01 X356.261 Y245.087
G01 X356.493 Y242.597
G01 X356.793 Y240.114
G01 X357.191 Y237.651
G01 X357.687 Y235.197
G01 X358.156 Y233.222
G01 X358.263 Y232.772
G01 X358.945 Y230.366
G01 X359.687 Y227.982
G01 X360.545 Y225.628
G01 X361.474 Y223.310
G01 X362.476 Y221.016
G01 X363.561 Y218.778
G01 X364.754 Y216.566
G01 X365.988 Y214.412
G01 X367.337 Y212.284
G01 X368.378 Y210.718
G01 X368.737 Y210.216
G01 X370.216 Y208.204
G01 X371.779 Y206.249
G01 X373.403 Y204.352
G01 X375.086 Y202.502
G01 X376.842 Y200.729
G01 X378.665 Y199.011
G01 X380.542 Y197.374
G01 X382.487 Y195.787
G01 X384.465 Y194.286
G01 X385.888 Y193.282
G01 X386.523 Y192.857
G01 X388.614 Y191.509
G01 X390.758 Y190.222
G01 X392.961 Y189.016
G01 X395.205 Y187.905
G01 X397.478 Y186.863
G01 X399.789 Y185.909
G01 X402.110 Y185.042
G01 X404.489 Y184.245
G01 X404.807 Y184.164
G01 X403.193 Y185.609
G01 X402.020 Y186.692
G01 X401.384 Y187.312
G01 X399.627 Y189.088
G01 X397.907 Y190.906
G01 X396.251 Y192.769
G01 X394.632 Y194.682
G01 X393.077 Y196.650
G01 X391.577 Y198.656
G01 X390.154 Y200.690
G01 X388.761 Y202.780
G01 X387.443 Y204.910
G01 X386.718 Y206.160
G01 X386.192 Y207.063
G01 X385.011 Y209.254
G01 X383.871 Y211.490
G01 X382.791 Y213.748
G01 X381.794 Y216.038
G01 X380.852 Y218.352
G01 X379.989 Y220.699
G01 X379.195 Y223.056
G01 X378.451 Y225.456
G01 X377.770 Y227.856
G01 X377.453 Y229.130
G01 X377.181 Y230.283
G01 X376.653 Y232.732
G01 X376.208 Y235.178
G01 X375.821 Y237.655
G01 X375.487 Y240.128
G01 X375.257 Y242.613
G01 X375.080 Y245.119
G01 X374.977 Y247.612
G01 X374.925 Y250.112
G01 X374.973 Y252.612
G01 X375.018 Y253.776
G01 X375.096 Y255.106
G01 X375.270 Y257.600
G01 X375.520 Y260.088
G01 X375.849 Y262.563
G01 X376.234 Y265.029
G01 X376.698 Y267.492
G01 X377.223 Y269.931
G01 X377.836 Y272.352
G01 X378.512 Y274.755
G01 X379.256 Y277.144
G01 X379.584 Y278.121
G01 X380.070 Y279.509
G01 X380.933 Y281.847
G01 X381.871 Y284.164
G01 X382.892 Y286.450
G01 X383.969 Y288.711
G01 X385.109 Y290.937
G01 X386.312 Y293.138
G01 X387.564 Y295.282
G01 X388.884 Y297.400
G01 X390.275 Y299.493
G01 X390.788 Y300.214
G01 X391.725 Y301.524
G01 X393.222 Y303.533
G01 X394.781 Y305.489
G01 X396.380 Y307.382
G01 X398.058 Y309.256
G01 X399.776 Y311.076
G01 X401.537 Y312.839
G01 X403.368 Y314.553
G01 X405.218 Y316.211
G01 X407.142 Y317.813
G01 X407.726 Y318.290
G01 X409.113 Y319.363
G01 X409.477 Y319.655
G01 X407.522 Y319.195
G01 X405.106 Y318.541
G01 X402.727 Y317.800
G01 X400.355 Y316.982
G01 X398.019 Y316.083
G01 X395.723 Y315.093
G01 X393.459 Y314.030
G01 X391.250 Y312.908
G01 X389.059 Y311.683
G01 X388.541 Y311.370
G01 X386.923 Y310.392
G01 X384.824 Y309.016
G01 X382.782 Y307.569
G01 X380.794 Y306.055
G01 X378.857 Y304.479
G01 X376.995 Y302.841
G01 X375.161 Y301.126
G01 X373.400 Y299.344
G01 X371.705 Y297.512
G01 X370.075 Y295.622
G01 X369.778 Y295.276
G01 X368.508 Y293.675
G01 X367.027 Y291.673
G01 X365.599 Y289.621
G01 X364.247 Y287.518
G01 X362.968 Y285.366
G01 X361.757 Y283.167
G01 X360.630 Y280.939
G01 X359.586 Y278.671
G01 X358.622 Y276.362
G01 X357.754 Y274.028
G01 X357.640 Y273.731
G01 X356.954 Y271.658
G01 X356.242 Y269.267
G01 X355.590 Y266.845
G01 X355.042 Y264.406
G01 X354.594 Y261.954
G01 X354.220 Y259.478
G01 X353.915 Y256.993
G01 X353.727 Y254.504
G01 X353.606 Y252.010
G01 X353.574 Y249.513
G01 X353.573 Y249.347
G01 X353.657 Y247.013
G01 X353.805 Y244.514
G01 X354.020 Y242.027
G01 X354.353 Y239.550
G01 X354.758 Y237.092
G01 X355.260 Y234.640
G01 X355.839 Y232.202
G01 X356.500 Y229.793
G01 X357.247 Y227.410
G01 X358.084 Y225.057
G01 X358.104 Y225.030
G01 X358.989 Y222.727
G01 X359.995 Y220.432
G01 X361.082 Y218.178
G01 X362.226 Y215.959
G01 X363.459 Y213.781
G01 X364.766 Y211.661
G01 X366.139 Y209.569
G01 X367.594 Y207.540
G01 X369.105 Y205.562
G01 X370.629 Y203.725
G01 X370.699 Y203.629
G01 X372.361 Y201.764
G01 X374.086 Y199.948
G01 X375.859 Y198.206
G01 X377.703 Y196.518
G01 X379.621 Y194.891
G01 X381.565 Y193.333
G01 X383.589 Y191.842
G01 X385.652 Y190.443
G01 X387.760 Y189.090
G01 X389.673 Y187.977
G01 X389.912 Y187.837
G01 X392.114 Y186.637
G01 X394.359 Y185.533
G01 X396.635 Y184.498
G01 X398.928 Y183.563
G01 X401.272 Y182.681
G01 X403.658 Y181.895
G01 X406.052 Y181.189
G01 X408.461 Y180.580
G01 X410.925 Y180.037
G01 X412.965 Y179.653
G01 X413.375 Y179.593
G01 X415.235 Y179.300
G01 X414.733 Y179.651
G01 X412.680 Y181.085
G01 X410.677 Y182.577
G01 X408.722 Y184.124
G01 X406.790 Y185.733
G01 X404.930 Y187.398
G01 X403.118 Y189.126
G01 X401.344 Y190.898
G01 X399.635 Y192.717
G01 X398.339 Y194.164
G01 X397.989 Y194.583
G01 X396.380 Y196.500
G01 X394.832 Y198.473
G01 X393.363 Y200.477
G01 X391.921 Y202.527
G01 X390.555 Y204.619
G01 X389.264 Y206.752
G01 X388.016 Y208.919
G01 X386.835 Y211.126
G01 X385.743 Y213.365
G01 X384.962 Y215.006
G01 X384.686 Y215.637
G01 X383.711 Y217.943
G01 X382.814 Y220.272
G01 X381.967 Y222.630
G01 X381.189 Y225.000
G01 X380.482 Y227.400
G01 X379.866 Y229.814
G01 X379.313 Y232.251
G01 X378.820 Y234.702
G01 X378.410 Y237.167
G01 X378.163 Y238.821
G01 X378.057 Y239.643
G01 X377.808 Y242.129
G01 X377.612 Y244.624
G01 X377.492 Y247.118
G01 X377.424 Y249.617
G01 X377.457 Y252.116
G01 X377.566 Y254.619
G01 X377.727 Y257.108
G01 X377.990 Y259.604
G01 X378.307 Y262.083
G01 X378.536 Y263.572
G01 X378.680 Y264.550
G01 X379.161 Y267.004
G01 X379.676 Y269.439
G01 X380.302 Y271.871
G01 X380.971 Y274.265
G01 X381.729 Y276.661
G01 X382.537 Y279.012
G01 X383.440 Y281.356
G01 X384.372 Y283.667
