;  Created by Sandify
;  https://sandify.org
;  Version: 0.2.6
;
;  Machine type: Rectangular
;    Min X (mm): 0
;    Max X (mm): 500
;    Min Y (mm): 0
;    Max Y (mm): 500
;  Content type: shape
;  Layer:
;    Shape: FileImport
;    Name: BurstyBezier.thr
;    From file:: BurstyBezier.thr
;    Aspect Ratio: true
;    Comments: 
;    Visible: true
;    Initial width: 10
;    Initial height: 10
;    X offset: 0
;    Y offset: 0
;    Rotate (degrees): 0
;    Reverse path: false
;    Fine tuning:
;      Connect to next layer: line
;      Draw portion of path (%): 100
;      Backtrack at end (%): 0
;      Rotate starting point (%): 0
;  Reverse export path: false
;
; File name: 'BurstyBezier (E)(C N)'
; File type: gcode
;

G01 X250.000 Y250.000
G01 X250.001 Y250.020
G01 X250.004 Y250.039
G01 X250.009 Y250.058
G01 X250.015 Y250.077
G01 X250.024 Y250.095
G01 X250.034 Y250.112
G01 X250.046 Y250.129
G01 X250.060 Y250.144
G01 X250.075 Y250.159
G01 X250.092 Y250.172
G01 X250.110 Y250.184
G01 X250.130 Y250.195
G01 X250.151 Y250.204
G01 X250.173 Y250.211
G01 X250.197 Y250.217
G01 X250.221 Y250.221
G01 X250.246 Y250.223
G01 X250.272 Y250.223
G01 X250.298 Y250.221
G01 X250.325 Y250.217
G01 X250.352 Y250.211
G01 X250.379 Y250.203
G01 X250.406 Y250.192
G01 X250.433 Y250.179
G01 X250.460 Y250.164
G01 X250.486 Y250.147
G01 X250.512 Y250.128
G01 X250.536 Y250.107
G01 X250.560 Y250.083
G01 X250.583 Y250.057
G01 X250.605 Y250.030
G01 X250.625 Y250.000
G01 X250.644 Y249.968
G01 X250.661 Y249.935
G01 X250.676 Y249.900
G01 X250.690 Y249.863
G01 X250.701 Y249.824
G01 X250.710 Y249.785
G01 X250.717 Y249.743
G01 X250.722 Y249.701
G01 X250.724 Y249.658
G01 X250.723 Y249.613
G01 X250.720 Y249.568
G01 X250.715 Y249.523
G01 X250.706 Y249.476
G01 X250.695 Y249.430
G01 X250.680 Y249.384
G01 X250.663 Y249.337
G01 X250.643 Y249.291
G01 X250.620 Y249.245
G01 X250.593 Y249.200
G01 X250.564 Y249.156
G01 X250.532 Y249.112
G01 X250.497 Y249.070
G01 X250.459 Y249.029
G01 X250.419 Y248.990
G01 X250.375 Y248.952
G01 X250.329 Y248.916
G01 X250.280 Y248.882
G01 X250.229 Y248.851
G01 X250.175 Y248.821
G01 X250.119 Y248.795
G01 X250.060 Y248.771
G01 X250.000 Y248.750
G01 X249.938 Y248.732
G01 X249.874 Y248.717
G01 X249.808 Y248.706
G01 X249.741 Y248.697
G01 X249.673 Y248.693
G01 X249.603 Y248.692
G01 X249.533 Y248.694
G01 X249.462 Y248.701
G01 X249.390 Y248.711
G01 X249.319 Y248.725
G01 X249.247 Y248.744
G01 X249.175 Y248.766
G01 X249.104 Y248.792
G01 X249.034 Y248.822
G01 X248.964 Y248.857
G01 X248.895 Y248.895
G01 X248.828 Y248.938
G01 X248.762 Y248.984
G01 X248.698 Y249.034
G01 X248.636 Y249.089
G01 X248.576 Y249.147
G01 X248.519 Y249.208
G01 X248.464 Y249.273
G01 X248.412 Y249.342
G01 X248.363 Y249.414
G01 X248.318 Y249.490
G01 X248.276 Y249.568
G01 X248.238 Y249.649
G01 X248.203 Y249.733
G01 X248.173 Y249.820
G01 X248.147 Y249.909
G01 X248.125 Y250.000
G01 X248.108 Y250.093
G01 X248.095 Y250.188
G01 X248.087 Y250.284
G01 X248.084 Y250.381
G01 X248.086 Y250.479
G01 X248.094 Y250.578
G01 X248.106 Y250.678
G01 X248.123 Y250.777
G01 X248.146 Y250.877
G01 X248.174 Y250.976
G01 X248.207 Y251.074
G01 X248.246 Y251.172
G01 X248.290 Y251.268
G01 X248.339 Y251.363
G01 X248.394 Y251.456
G01 X248.453 Y251.547
G01 X248.518 Y251.635
G01 X248.587 Y251.721
G01 X248.662 Y251.804
G01 X248.741 Y251.884
G01 X248.825 Y251.960
G01 X248.914 Y252.033
G01 X249.006 Y252.101
G01 X249.103 Y252.165
G01 X249.204 Y252.225
G01 X249.308 Y252.280
G01 X249.416 Y252.330
G01 X249.528 Y252.375
G01 X249.642 Y252.415
G01 X249.759 Y252.449
G01 X249.878 Y252.477
G01 X250.000 Y252.500
G01 X250.124 Y252.516
G01 X250.249 Y252.527
G01 X250.375 Y252.531
G01 X250.503 Y252.529
G01 X250.631 Y252.520
G01 X250.760 Y252.504
G01 X250.888 Y252.483
G01 X251.017 Y252.454
G01 X251.144 Y252.419
G01 X251.271 Y252.377
G01 X251.396 Y252.329
G01 X251.519 Y252.274
G01 X251.641 Y252.212
G01 X251.759 Y252.144
G01 X251.876 Y252.069
G01 X251.989 Y251.989
G01 X252.098 Y251.902
G01 X252.204 Y251.809
G01 X252.306 Y251.710
G01 X252.403 Y251.606
G01 X252.496 Y251.496
G01 X252.584 Y251.381
G01 X252.666 Y251.261
G01 X252.743 Y251.136
G01 X252.814 Y251.007
G01 X252.878 Y250.873
G01 X252.937 Y250.736
G01 X252.988 Y250.594
G01 X253.033 Y250.450
G01 X253.071 Y250.302
G01 X253.102 Y250.152
G01 X253.125 Y250.000
G01 X253.141 Y249.846
G01 X253.149 Y249.690
G01 X253.149 Y249.533
G01 X253.142 Y249.375
G01 X253.126 Y249.217
G01 X253.103 Y249.059
G01 X253.071 Y248.901
G01 X253.031 Y248.744
G01 X252.984 Y248.589
G01 X252.928 Y248.435
G01 X252.865 Y248.283
G01 X252.793 Y248.134
G01 X252.714 Y247.987
G01 X252.627 Y247.844
G01 X252.533 Y247.705
G01 X252.431 Y247.569
G01 X252.322 Y247.439
G01 X252.206 Y247.313
G01 X252.083 Y247.192
G01 X251.953 Y247.077
G01 X251.817 Y246.968
G01 X251.676 Y246.865
G01 X251.528 Y246.769
G01 X251.375 Y246.680
G01 X251.217 Y246.598
G01 X251.055 Y246.524
G01 X250.887 Y246.457
G01 X250.716 Y246.399
G01 X250.542 Y246.349
G01 X250.364 Y246.307
G01 X250.183 Y246.274
G01 X250.000 Y246.250
G01 X249.815 Y246.235
G01 X249.629 Y246.229
G01 X249.441 Y246.233
G01 X249.253 Y246.245
G01 X249.065 Y246.268
G01 X248.877 Y246.299
G01 X248.691 Y246.340
G01 X248.505 Y246.391
G01 X248.322 Y246.451
G01 X248.140 Y246.521
G01 X247.962 Y246.599
G01 X247.786 Y246.687
G01 X247.615 Y246.784
G01 X247.448 Y246.890
G01 X247.285 Y247.004
G01 X247.127 Y247.127
G01 X246.975 Y247.259
G01 X246.829 Y247.398
G01 X246.690 Y247.545
G01 X246.557 Y247.700
G01 X246.432 Y247.861
G01 X246.314 Y248.030
G01 X246.204 Y248.205
G01 X246.102 Y248.386
G01 X246.009 Y248.572
G01 X245.926 Y248.764
G01 X245.851 Y248.961
G01 X245.786 Y249.162
G01 X245.730 Y249.367
G01 X245.685 Y249.575
G01 X245.650 Y249.786
G01 X245.625 Y250.000
G01 X245.611 Y250.216
G01 X245.607 Y250.433
G01 X245.614 Y250.651
G01 X245.632 Y250.869
G01 X245.661 Y251.087
G01 X245.701 Y251.304
G01 X245.752 Y251.520
G01 X245.814 Y251.734
G01 X245.886 Y251.946
G01 X245.969 Y252.154
G01 X246.063 Y252.360
G01 X246.167 Y252.561
G01 X246.282 Y252.757
G01 X246.407 Y252.949
G01 X246.541 Y253.135
G01 X246.685 Y253.315
G01 X246.839 Y253.488
G01 X247.002 Y253.654
G01 X247.173 Y253.812
G01 X247.352 Y253.962
G01 X247.540 Y254.104
G01 X247.735 Y254.237
G01 X247.937 Y254.361
G01 X248.146 Y254.475
G01 X248.362 Y254.579
G01 X248.583 Y254.673
G01 X248.809 Y254.755
G01 X249.040 Y254.827
G01 X249.275 Y254.888
G01 X249.514 Y254.937
G01 X249.756 Y254.974
G01 X250.000 Y255.000
G01 X250.246 Y255.013
G01 X250.494 Y255.015
G01 X250.742 Y255.004
G01 X250.991 Y254.981
G01 X251.239 Y254.945
G01 X251.485 Y254.897
G01 X251.731 Y254.836
G01 X251.973 Y254.764
G01 X252.213 Y254.679
G01 X252.449 Y254.582
G01 X252.681 Y254.473
G01 X252.908 Y254.352
G01 X253.130 Y254.220
G01 X253.345 Y254.076
G01 X253.555 Y253.922
G01 X253.757 Y253.757
G01 X253.951 Y253.581
G01 X254.137 Y253.395
G01 X254.314 Y253.200
G01 X254.482 Y252.995
G01 X254.640 Y252.781
G01 X254.789 Y252.560
G01 X254.926 Y252.330
G01 X255.052 Y252.093
G01 X255.167 Y251.849
G01 X255.271 Y251.599
G01 X255.362 Y251.343
G01 X255.440 Y251.082
G01 X255.506 Y250.817
G01 X255.559 Y250.548
G01 X255.599 Y250.275
G01 X255.625 Y250.000
G01 X255.638 Y249.723
G01 X255.637 Y249.445
G01 X255.622 Y249.166
G01 X255.594 Y248.887
G01 X255.551 Y248.610
G01 X255.495 Y248.333
G01 X255.425 Y248.059
G01 X255.341 Y247.788
G01 X255.244 Y247.520
G01 X255.133 Y247.256
G01 X255.009 Y246.998
G01 X254.872 Y246.745
G01 X254.722 Y246.498
G01 X254.560 Y246.258
G01 X254.385 Y246.026
G01 X254.198 Y245.802
G01 X254.000 Y245.586
G01 X253.791 Y245.380
G01 X253.572 Y245.184
G01 X253.342 Y244.998
G01 X253.103 Y244.823
G01 X252.854 Y244.660
G01 X252.597 Y244.509
G01 X252.332 Y244.370
G01 X252.060 Y244.244
G01 X251.780 Y244.131
G01 X251.495 Y244.032
G01 X251.204 Y243.947
G01 X250.908 Y243.876
G01 X250.609 Y243.819
G01 X250.306 Y243.777
G01 X250.000 Y243.750
G01 X249.692 Y243.738
G01 X249.384 Y243.741
G01 X249.074 Y243.760
G01 X248.765 Y243.793
G01 X248.458 Y243.843
G01 X248.152 Y243.907
G01 X247.848 Y243.987
G01 X247.548 Y244.081
G01 X247.253 Y244.191
G01 X246.962 Y244.316
G01 X246.676 Y244.455
G01 X246.397 Y244.608
G01 X246.126 Y244.776
G01 X245.862 Y244.957
G01 X245.606 Y245.152
G01 X245.360 Y245.360
G01 X245.123 Y245.580
G01 X244.897 Y245.812
G01 X244.682 Y246.056
G01 X244.479 Y246.311
G01 X244.287 Y246.576
G01 X244.109 Y246.851
G01 X243.944 Y247.136
G01 X243.793 Y247.429
G01 X243.656 Y247.730
G01 X243.533 Y248.038
G01 X243.426 Y248.353
G01 X243.334 Y248.674
G01 X243.257 Y249.000
G01 X243.197 Y249.330
G01 X243.153 Y249.664
G01 X243.125 Y250.000
G01 X243.114 Y250.338
G01 X243.119 Y250.678
G01 X243.141 Y251.017
G01 X243.180 Y251.356
G01 X243.236 Y251.694
G01 X243.309 Y252.030
G01 X243.398 Y252.362
G01 X243.504 Y252.691
G01 X243.626 Y253.015
G01 X243.765 Y253.333
G01 X243.919 Y253.645
G01 X244.089 Y253.950
G01 X244.274 Y254.247
G01 X244.474 Y254.535
G01 X244.689 Y254.814
G01 X244.918 Y255.082
G01 X245.160 Y255.340
G01 X245.416 Y255.586
G01 X245.684 Y255.820
G01 X245.963 Y256.041
G01 X246.255 Y256.249
G01 X246.557 Y256.442
G01 X246.868 Y256.621
G01 X247.190 Y256.785
G01 X247.519 Y256.933
G01 X247.857 Y257.065
G01 X248.201 Y257.181
G01 X248.552 Y257.279
G01 X248.908 Y257.361
G01 X249.269 Y257.425
G01 X249.633 Y257.471
G01 X250.000 Y257.500
G01 X250.369 Y257.510
G01 X250.739 Y257.503
G01 X251.109 Y257.477
G01 X251.478 Y257.433
G01 X251.846 Y257.370
G01 X252.211 Y257.289
G01 X252.573 Y257.190
G01 X252.930 Y257.073
G01 X253.282 Y256.939
G01 X253.628 Y256.787
G01 X253.966 Y256.617
G01 X254.297 Y256.431
G01 X254.619 Y256.228
G01 X254.931 Y256.009
G01 X255.233 Y255.774
G01 X255.524 Y255.524
G01 X255.803 Y255.260
G01 X256.069 Y254.981
G01 X256.322 Y254.689
G01 X256.561 Y254.384
G01 X256.785 Y254.067
G01 X256.993 Y253.738
G01 X257.186 Y253.399
G01 X257.362 Y253.050
G01 X257.521 Y252.691
G01 X257.663 Y252.325
G01 X257.787 Y251.950
G01 X257.892 Y251.570
G01 X257.979 Y251.184
G01 X258.047 Y250.793
G01 X258.096 Y250.398
G01 X258.125 Y250.000
G01 X258.135 Y249.600
G01 X258.125 Y249.200
G01 X258.095 Y248.799
G01 X258.046 Y248.400
G01 X257.976 Y248.002
G01 X257.887 Y247.607
G01 X257.779 Y247.217
G01 X257.651 Y246.831
G01 X257.504 Y246.451
G01 X257.338 Y246.078
G01 X257.153 Y245.712
G01 X256.951 Y245.356
G01 X256.730 Y245.009
G01 X256.492 Y244.672
G01 X256.237 Y244.347
G01 X255.966 Y244.034
G01 X255.679 Y243.734
G01 X255.377 Y243.448
G01 X255.061 Y243.176
G01 X254.731 Y242.920
G01 X254.388 Y242.679
G01 X254.033 Y242.455
G01 X253.666 Y242.249
G01 X253.289 Y242.060
G01 X252.902 Y241.890
G01 X252.506 Y241.739
G01 X252.102 Y241.607
G01 X251.692 Y241.495
G01 X251.275 Y241.403
G01 X250.854 Y241.331
G01 X250.428 Y241.280
G01 X250.000 Y241.250
G01 X249.570 Y241.241
G01 X249.139 Y241.253
G01 X248.708 Y241.287
G01 X248.278 Y241.342
G01 X247.850 Y241.417
G01 X247.426 Y241.515
G01 X247.006 Y241.633
G01 X246.592 Y241.772
G01 X246.184 Y241.931
G01 X245.783 Y242.111
G01 X245.391 Y242.311
G01 X245.009 Y242.530
G01 X244.636 Y242.768
G01 X244.276 Y243.025
G01 X243.927 Y243.300
G01 X243.592 Y243.592
G01 X243.271 Y243.901
G01 X242.964 Y244.226
G01 X242.674 Y244.567
G01 X242.400 Y244.922
G01 X242.143 Y245.291
G01 X241.904 Y245.673
G01 X241.684 Y246.067
G01 X241.483 Y246.472
G01 X241.302 Y246.888
G01 X241.141 Y247.313
G01 X241.001 Y247.746
G01 X240.882 Y248.186
G01 X240.784 Y248.633
G01 X240.709 Y249.085
G01 X240.656 Y249.541
G01 X240.625 Y250.000
G01 X240.617 Y250.461
G01 X240.631 Y250.923
G01 X240.669 Y251.384
G01 X240.729 Y251.844
G01 X240.811 Y252.302
G01 X240.917 Y252.755
G01 X241.044 Y253.204
G01 X241.194 Y253.647
G01 X241.366 Y254.083
G01 X241.560 Y254.511
G01 X241.775 Y254.930
G01 X242.010 Y255.339
G01 X242.266 Y255.736
G01 X242.542 Y256.121
G01 X242.837 Y256.493
G01 X243.150 Y256.850
G01 X243.481 Y257.192
G01 X243.830 Y257.519
G01 X244.194 Y257.828
G01 X244.575 Y258.120
G01 X244.969 Y258.393
G01 X245.378 Y258.647
G01 X245.800 Y258.881
G01 X246.233 Y259.094
G01 X246.677 Y259.287
G01 X247.131 Y259.457
G01 X247.594 Y259.606
G01 X248.064 Y259.731
G01 X248.541 Y259.834
G01 X249.024 Y259.913
G01 X249.510 Y259.968
G01 X250.000 Y260.000
G01 X250.492 Y260.007
G01 X250.984 Y259.991
G01 X251.476 Y259.950
G01 X251.966 Y259.884
G01 X252.454 Y259.795
G01 X252.937 Y259.682
G01 X253.415 Y259.544
G01 X253.887 Y259.383
G01 X254.351 Y259.199
G01 X254.806 Y258.991
G01 X255.251 Y258.762
G01 X255.686 Y258.510
G01 X256.108 Y258.236
G01 X256.517 Y257.941
G01 X256.912 Y257.627
G01 X257.292 Y257.292
G01 X257.656 Y256.939
G01 X258.002 Y256.567
G01 X258.330 Y256.178
G01 X258.639 Y255.773
G01 X258.929 Y255.352
G01 X259.198 Y254.917
G01 X259.446 Y254.468
G01 X259.672 Y254.006
G01 X259.875 Y253.533
G01 X260.055 Y253.050
G01 X260.212 Y252.558
G01 X260.344 Y252.058
G01 X260.452 Y251.550
G01 X260.535 Y251.038
G01 X260.593 Y250.520
G01 X260.625 Y250.000
G01 X260.632 Y249.478
G01 X260.613 Y248.955
G01 X260.568 Y248.432
G01 X260.497 Y247.912
G01 X260.401 Y247.395
G01 X260.280 Y246.882
G01 X260.133 Y246.374
G01 X259.961 Y245.874
G01 X259.764 Y245.382
G01 X259.543 Y244.899
G01 X259.298 Y244.427
G01 X259.029 Y243.967
G01 X258.738 Y243.519
G01 X258.425 Y243.086
G01 X258.090 Y242.668
G01 X257.734 Y242.266
G01 X257.358 Y241.881
G01 X256.963 Y241.515
G01 X256.550 Y241.168
G01 X256.120 Y240.841
G01 X255.673 Y240.535
G01 X255.211 Y240.251
G01 X254.735 Y239.989
G01 X254.245 Y239.751
G01 X253.744 Y239.536
G01 X253.232 Y239.347
G01 X252.710 Y239.182
G01 X252.180 Y239.043
G01 X251.642 Y238.930
G01 X251.099 Y238.843
G01 X250.551 Y238.783
G01 X250.000 Y238.750
G01 X249.447 Y238.744
G01 X248.893 Y238.765
G01 X248.341 Y238.814
G01 X247.790 Y238.890
G01 X247.243 Y238.992
G01 X246.700 Y239.122
G01 X246.164 Y239.279
G01 X245.635 Y239.462
G01 X245.115 Y239.671
G01 X244.605 Y239.906
G01 X244.106 Y240.166
G01 X243.620 Y240.451
G01 X243.147 Y240.760
G01 X242.690 Y241.092
G01 X242.248 Y241.447
G01 X241.824 Y241.824
G01 X241.418 Y242.222
G01 X241.032 Y242.640
G01 X240.666 Y243.077
G01 X240.321 Y243.533
G01 X239.999 Y244.005
G01 X239.699 Y244.494
G01 X239.424 Y244.998
G01 X239.173 Y245.515
G01 X238.948 Y246.045
G01 X238.748 Y246.587
G01 X238.576 Y247.138
G01 X238.430 Y247.699
G01 X238.311 Y248.266
G01 X238.221 Y248.840
G01 X238.159 Y249.418
G01 X238.125 Y250.000
G01 X238.120 Y250.584
G01 X238.143 Y251.168
G01 X238.196 Y251.751
G01 X238.277 Y252.332
G01 X238.386 Y252.909
G01 X238.524 Y253.481
G01 X238.690 Y254.047
G01 X238.885 Y254.604
G01 X239.106 Y255.152
G01 X239.355 Y255.690
G01 X239.630 Y256.215
G01 X239.931 Y256.728
G01 X240.258 Y257.225
G01 X240.609 Y257.707
G01 X240.984 Y258.172
G01 X241.382 Y258.618
G01 X241.802 Y259.045
G01 X242.244 Y259.451
G01 X242.705 Y259.836
G01 X243.186 Y260.198
G01 X243.684 Y260.537
G01 X244.200 Y260.852
G01 X244.731 Y261.141
G01 X245.276 Y261.404
G01 X245.835 Y261.641
G01 X246.405 Y261.850
G01 X246.986 Y262.031
G01 X247.577 Y262.183
G01 X248.174 Y262.307
G01 X248.779 Y262.401
G01 X249.388 Y262.465
G01 X250.000 Y262.500
G01 X250.614 Y262.504
G01 X251.229 Y262.479
G01 X251.843 Y262.423
G01 X252.454 Y262.336
G01 X253.061 Y262.220
G01 X253.663 Y262.074
G01 X254.257 Y261.898
G01 X254.843 Y261.693
G01 X255.420 Y261.459
G01 X255.985 Y261.196
G01 X256.537 Y260.906
G01 X257.075 Y260.588
G01 X257.597 Y260.244
G01 X258.103 Y259.874
G01 X258.591 Y259.479
G01 X259.060 Y259.060
G01 X259.508 Y258.617
G01 X259.934 Y258.153
G01 X260.338 Y257.667
G01 X260.718 Y257.162
G01 X261.073 Y256.637
G01 X261.403 Y256.095
G01 X261.706 Y255.537
G01 X261.982 Y254.963
G01 X262.229 Y254.376
G01 X262.448 Y253.776
G01 X262.637 Y253.165
G01 X262.796 Y252.545
G01 X262.925 Y251.917
G01 X263.023 Y251.283
G01 X263.090 Y250.643
G01 X263.125 Y250.000
G01 X263.129 Y249.355
G01 X263.101 Y248.710
G01 X263.041 Y248.066
G01 X262.949 Y247.424
G01 X262.826 Y246.787
G01 X262.672 Y246.156
G01 X262.486 Y245.532
G01 X262.270 Y244.917
G01 X262.024 Y244.313
G01 X261.747 Y243.721
G01 X261.442 Y243.142
G01 X261.108 Y242.578
G01 X260.746 Y242.030
G01 X260.357 Y241.500
G01 X259.942 Y240.989
G01 X259.502 Y240.498
G01 X259.037 Y240.029
G01 X258.549 Y239.582
G01 X258.040 Y239.160
G01 X257.509 Y238.762
G01 X256.958 Y238.391
G01 X256.390 Y238.046
G01 X255.804 Y237.729
G01 X255.202 Y237.441
G01 X254.586 Y237.182
G01 X253.957 Y236.954
G01 X253.317 Y236.757
G01 X252.667 Y236.591
G01 X252.009 Y236.457
G01 X251.344 Y236.355
G01 X250.674 Y236.286
G01 X250.000 Y236.250
G01 X249.324 Y236.247
G01 X248.648 Y236.277
G01 X247.974 Y236.341
G01 X247.302 Y236.438
G01 X246.635 Y236.567
G01 X245.975 Y236.730
G01 X245.322 Y236.925
G01 X244.678 Y237.152
G01 X244.046 Y237.411
G01 X243.426 Y237.701
G01 X242.821 Y238.022
G01 X242.231 Y238.372
G01 X241.658 Y238.752
G01 X241.104 Y239.160
G01 X240.569 Y239.595
G01 X240.056 Y240.056
G01 X239.566 Y240.543
G01 X239.099 Y241.054
G01 X238.658 Y241.588
G01 X238.243 Y242.144
G01 X237.854 Y242.720
G01 X237.495 Y243.316
G01 X237.164 Y243.929
G01 X236.864 Y244.559
G01 X236.594 Y245.203
G01 X236.356 Y245.861
G01 X236.151 Y246.531
G01 X235.978 Y247.211
G01 X235.839 Y247.899
G01 X235.733 Y248.595
G01 X235.662 Y249.296
G01 X235.625 Y250.000
G01 X235.623 Y250.706
G01 X235.655 Y251.413
G01 X235.723 Y252.118
G01 X235.825 Y252.820
G01 X235.961 Y253.517
G01 X236.132 Y254.207
G01 X236.337 Y254.889
G01 X236.575 Y255.561
G01 X236.846 Y256.221
G01 X237.150 Y256.868
G01 X237.486 Y257.501
G01 X237.853 Y258.117
G01 X238.250 Y258.714
G01 X238.677 Y259.293
G01 X239.132 Y259.850
G01 X239.614 Y260.386
G01 X240.123 Y260.897
G01 X240.658 Y261.384
G01 X241.216 Y261.844
G01 X241.797 Y262.277
G01 X242.399 Y262.682
G01 X243.021 Y263.057
G01 X243.662 Y263.401
G01 X244.320 Y263.714
G01 X244.993 Y263.994
G01 X245.680 Y264.242
G01 X246.379 Y264.456
G01 X247.089 Y264.635
G01 X247.808 Y264.780
G01 X248.534 Y264.889
G01 X249.265 Y264.962
G01 X250.000 Y265.000
G01 X250.737 Y265.001
G01 X251.474 Y264.967
G01 X252.210 Y264.896
G01 X252.942 Y264.788
G01 X253.668 Y264.645
G01 X254.388 Y264.466
G01 X255.099 Y264.252
G01 X255.800 Y264.003
G01 X256.488 Y263.719
G01 X257.163 Y263.401
G01 X257.822 Y263.050
G01 X258.464 Y262.667
G01 X259.087 Y262.252
G01 X259.689 Y261.807
G01 X260.270 Y261.331
G01 X260.828 Y260.828
G01 X261.360 Y260.296
G01 X261.867 Y259.739
G01 X262.346 Y259.157
G01 X262.797 Y258.551
G01 X263.218 Y257.922
G01 X263.608 Y257.274
G01 X263.966 Y256.605
G01 X264.291 Y255.920
G01 X264.583 Y255.218
G01 X264.840 Y254.502
G01 X265.062 Y253.773
G01 X265.248 Y253.033
G01 X265.398 Y252.284
G01 X265.511 Y251.528
G01 X265.587 Y250.766
G01 X265.625 Y250.000
G01 X265.626 Y249.232
G01 X265.589 Y248.465
G01 X265.514 Y247.699
G01 X265.401 Y246.936
G01 X265.251 Y246.180
G01 X265.064 Y245.430
G01 X264.840 Y244.690
G01 X264.580 Y243.961
G01 X264.284 Y243.244
G01 X263.952 Y242.542
G01 X263.586 Y241.857
G01 X263.187 Y241.189
G01 X262.754 Y240.541
G01 X262.290 Y239.914
G01 X261.794 Y239.310
G01 X261.270 Y238.730
G01 X260.716 Y238.177
G01 X260.135 Y237.650
G01 X259.529 Y237.152
G01 X258.898 Y236.683
G01 X258.244 Y236.246
G01 X257.568 Y235.841
G01 X256.873 Y235.469
G01 X256.159 Y235.131
G01 X255.428 Y234.829
G01 X254.683 Y234.562
G01 X253.925 Y234.332
G01 X253.155 Y234.139
G01 X252.376 Y233.984
G01 X251.589 Y233.867
G01 X250.796 Y233.789
G01 X250.000 Y233.750
G01 X249.202 Y233.750
G01 X248.403 Y233.789
G01 X247.607 Y233.868
G01 X246.815 Y233.986
G01 X246.028 Y234.142
G01 X245.249 Y234.338
G01 X244.479 Y234.571
G01 X243.722 Y234.843
G01 X242.977 Y235.151
G01 X242.248 Y235.497
G01 X241.535 Y235.878
G01 X240.842 Y236.294
G01 X240.169 Y236.744
G01 X239.518 Y237.227
G01 X238.890 Y237.742
G01 X238.289 Y238.289
G01 X237.714 Y238.864
G01 X237.167 Y239.468
G01 X236.650 Y240.099
G01 X236.164 Y240.755
G01 X235.710 Y241.435
G01 X235.290 Y242.137
G01 X234.904 Y242.860
G01 X234.554 Y243.602
G01 X234.240 Y244.361
G01 X233.964 Y245.135
G01 X233.725 Y245.923
G01 X233.526 Y246.723
G01 X233.366 Y247.533
G01 X233.245 Y248.350
G01 X233.165 Y249.173
G01 X233.125 Y250.000
G01 X233.126 Y250.829
G01 X233.167 Y251.658
G01 X233.250 Y252.485
G01 X233.373 Y253.307
G01 X233.536 Y254.124
G01 X233.739 Y254.933
G01 X233.983 Y255.731
G01 X234.265 Y256.518
G01 X234.586 Y257.290
G01 X234.945 Y258.047
G01 X235.342 Y258.786
G01 X235.774 Y259.505
G01 X236.242 Y260.204
G01 X236.744 Y260.879
G01 X237.279 Y261.529
G01 X237.847 Y262.153
G01 X238.444 Y262.750
G01 X239.072 Y263.316
G01 X239.727 Y263.852
G01 X240.408 Y264.356
G01 X241.114 Y264.826
G01 X241.843 Y265.261
G01 X242.593 Y265.661
G01 X243.363 Y266.024
G01 X244.150 Y266.348
G01 X244.954 Y266.634
G01 X245.772 Y266.881
G01 X246.601 Y267.087
G01 X247.441 Y267.253
G01 X248.289 Y267.377
G01 X249.142 Y267.459
G01 X250.000 Y267.500
G01 X250.860 Y267.498
G01 X251.719 Y267.455
G01 X252.576 Y267.369
G01 X253.429 Y267.240
G01 X254.276 Y267.070
G01 X255.114 Y266.859
G01 X255.942 Y266.606
G01 X256.757 Y266.312
G01 X257.557 Y265.979
G01 X258.342 Y265.606
G01 X259.107 Y265.195
G01 X259.853 Y264.746
G01 X260.576 Y264.260
G01 X261.275 Y263.739
G01 X261.949 Y263.184
G01 X262.595 Y262.595
G01 X263.213 Y261.975
G01 X263.799 Y261.325
G01 X264.354 Y260.646
G01 X264.876 Y259.939
G01 X265.362 Y259.208
G01 X265.813 Y258.452
G01 X266.226 Y257.674
G01 X266.601 Y256.876
G01 X266.937 Y256.060
G01 X267.232 Y255.227
G01 X267.487 Y254.380
G01 X267.700 Y253.521
G01 X267.871 Y252.651
G01 X267.999 Y251.773
G01 X268.084 Y250.888
G01 X268.125 Y250.000
G01 X268.123 Y249.110
G01 X268.077 Y248.220
G01 X267.987 Y247.332
G01 X267.853 Y246.449
G01 X267.677 Y245.572
G01 X267.457 Y244.705
G01 X267.194 Y243.848
G01 X266.890 Y243.004
G01 X266.544 Y242.175
G01 X266.157 Y241.364
G01 X265.731 Y240.571
G01 X265.265 Y239.800
G01 X264.762 Y239.052
G01 X264.222 Y238.328
G01 X263.647 Y237.631
G01 X263.037 Y236.963
G01 X262.395 Y236.324
G01 X261.721 Y235.717
G01 X261.018 Y235.144
G01 X260.287 Y234.605
G01 X259.529 Y234.102
G01 X258.747 Y233.636
G01 X257.942 Y233.209
G01 X257.116 Y232.822
G01 X256.271 Y232.475
G01 X255.409 Y232.170
G01 X254.532 Y231.907
G01 X253.643 Y231.687
G01 X252.743 Y231.511
G01 X251.834 Y231.379
G01 X250.919 Y231.292
G01 X250.000 Y231.250
G01 X249.079 Y231.253
G01 X248.158 Y231.301
G01 X247.240 Y231.395
G01 X246.327 Y231.534
G01 X245.420 Y231.717
G01 X244.523 Y231.945
G01 X243.637 Y232.217
G01 X242.765 Y232.533
G01 X241.908 Y232.891
G01 X241.069 Y233.292
G01 X240.250 Y233.733
G01 X239.453 Y234.215
G01 X238.679 Y234.736
G01 X237.932 Y235.295
G01 X237.212 Y235.890
G01 X236.521 Y236.521
G01 X235.861 Y237.185
G01 X235.234 Y237.882
G01 X234.642 Y238.610
G01 X234.085 Y239.366
G01 X233.566 Y240.150
G01 X233.085 Y240.959
G01 X232.644 Y241.791
G01 X232.244 Y242.645
G01 X231.886 Y243.519
G01 X231.571 Y244.410
G01 X231.300 Y245.316
G01 X231.074 Y246.235
G01 X230.893 Y247.166
G01 X230.757 Y248.105
G01 X230.668 Y249.050
G01 X230.625 Y250.000
G01 X230.629 Y250.952
G01 X230.679 Y251.903
G01 X230.777 Y252.852
G01 X230.921 Y253.795
G01 X231.111 Y254.731
G01 X231.347 Y255.658
G01 X231.629 Y256.573
G01 X231.955 Y257.474
G01 X232.326 Y258.359
G01 X232.741 Y259.225
G01 X233.197 Y260.071
G01 X233.695 Y260.894
G01 X234.234 Y261.693
G01 X234.812 Y262.465
G01 X235.427 Y263.208
G01 X236.079 Y263.921
G01 X236.766 Y264.602
G01 X237.486 Y265.249
G01 X238.237 Y265.860
G01 X239.019 Y266.435
G01 X239.828 Y266.970
G01 X240.664 Y267.466
G01 X241.524 Y267.921
G01 X242.406 Y268.333
G01 X243.308 Y268.702
G01 X244.228 Y269.027
G01 X245.164 Y269.306
G01 X246.113 Y269.539
G01 X247.074 Y269.726
G01 X248.043 Y269.865
G01 X249.020 Y269.956
G01 X250.000 Y270.000
G01 X250.982 Y269.995
G01 X251.964 Y269.943
G01 X252.943 Y269.841
G01 X253.917 Y269.692
G01 X254.883 Y269.495
G01 X255.840 Y269.251
G01 X256.784 Y268.960
G01 X257.713 Y268.622
G01 X258.626 Y268.239
G01 X259.520 Y267.811
G01 X260.393 Y267.339
G01 X261.242 Y266.824
G01 X262.065 Y266.268
G01 X262.861 Y265.672
G01 X263.628 Y265.036
G01 X264.363 Y264.363
G01 X265.065 Y263.654
G01 X265.732 Y262.911
G01 X266.362 Y262.135
G01 X266.954 Y261.328
G01 X267.506 Y260.493
G01 X268.017 Y259.630
G01 X268.486 Y258.743
G01 X268.911 Y257.833
G01 X269.291 Y256.902
G01 X269.625 Y255.953
G01 X269.912 Y254.988
G01 X270.152 Y254.008
G01 X270.344 Y253.018
G01 X270.487 Y252.018
G01 X270.581 Y251.011
G01 X270.625 Y250.000
G01 X270.620 Y248.987
G01 X270.565 Y247.975
G01 X270.460 Y246.965
G01 X270.305 Y245.961
G01 X270.102 Y244.965
G01 X269.849 Y243.979
G01 X269.548 Y243.006
G01 X269.199 Y242.047
G01 X268.804 Y241.107
G01 X268.362 Y240.185
G01 X267.875 Y239.286
G01 X267.344 Y238.411
G01 X266.770 Y237.562
G01 X266.155 Y236.742
G01 X265.499 Y235.952
G01 X264.805 Y235.195
G01 X264.074 Y234.472
G01 X263.307 Y233.785
G01 X262.507 Y233.136
G01 X261.676 Y232.526
G01 X260.814 Y231.958
G01 X259.925 Y231.431
G01 X259.010 Y230.949
G01 X258.072 Y230.512
G01 X257.113 Y230.121
G01 X256.135 Y229.777
G01 X255.140 Y229.482
G01 X254.130 Y229.235
G01 X253.109 Y229.038
G01 X252.079 Y228.891
G01 X251.042 Y228.795
G01 X250.000 Y228.750
G01 X248.956 Y228.756
G01 X247.913 Y228.813
G01 X246.873 Y228.922
G01 X245.839 Y229.082
G01 X244.813 Y229.292
G01 X243.797 Y229.553
G01 X242.795 Y229.863
G01 X241.808 Y230.223
G01 X240.839 Y230.631
G01 X239.891 Y231.087
G01 X238.965 Y231.589
G01 X238.064 Y232.136
G01 X237.190 Y232.728
G01 X236.346 Y233.362
G01 X235.533 Y234.038
G01 X234.753 Y234.753
G01 X234.009 Y235.506
G01 X233.302 Y236.296
G01 X232.634 Y237.120
G01 X232.006 Y237.977
G01 X231.421 Y238.864
G01 X230.880 Y239.780
G01 X230.384 Y240.722
G01 X229.934 Y241.689
G01 X229.532 Y242.677
G01 X229.179 Y243.684
G01 X228.875 Y244.709
G01 X228.622 Y245.748
G01 X228.420 Y246.799
G01 X228.269 Y247.860
G01 X228.171 Y248.928
G01 X228.125 Y250.000
G01 X228.132 Y251.074
G01 X228.191 Y252.148
G01 X228.304 Y253.218
G01 X228.469 Y254.283
G01 X228.686 Y255.339
G01 X228.955 Y256.384
G01 X229.275 Y257.416
G01 X229.646 Y258.431
G01 X230.066 Y259.428
G01 X230.536 Y260.404
G01 X231.053 Y261.356
G01 X231.617 Y262.283
G01 X232.226 Y263.182
G01 X232.879 Y264.051
G01 X233.575 Y264.887
G01 X234.311 Y265.689
G01 X235.087 Y266.454
G01 X235.900 Y267.181
G01 X236.748 Y267.868
G01 X237.630 Y268.513
G01 X238.543 Y269.115
G01 X239.486 Y269.671
G01 X240.455 Y270.181
G01 X241.449 Y270.643
G01 X242.466 Y271.056
G01 X243.503 Y271.419
G01 X244.557 Y271.731
G01 X245.626 Y271.991
G01 X246.707 Y272.199
G01 X247.798 Y272.353
G01 X248.897 Y272.453
G01 X250.000 Y272.500
G01 X251.105 Y272.492
G01 X252.209 Y272.431
G01 X253.310 Y272.314
G01 X254.405 Y272.144
G01 X255.491 Y271.920
G01 X256.565 Y271.643
G01 X257.626 Y271.313
G01 X258.670 Y270.932
G01 X259.695 Y270.499
G01 X260.698 Y270.015
G01 X261.678 Y269.483
G01 X262.631 Y268.903
G01 X263.554 Y268.276
G01 X264.447 Y267.604
G01 X265.307 Y266.888
G01 X266.131 Y266.131
G01 X266.917 Y265.333
G01 X267.664 Y264.497
G01 X268.370 Y263.624
G01 X269.033 Y262.717
G01 X269.651 Y261.778
G01 X270.222 Y260.809
G01 X270.746 Y259.812
G01 X271.220 Y258.790
G01 X271.644 Y257.745
G01 X272.017 Y256.679
G01 X272.337 Y255.595
G01 X272.604 Y254.496
G01 X272.817 Y253.385
G01 X272.975 Y252.263
G01 X273.078 Y251.134
G01 X273.125 Y250.000
G01 X273.117 Y248.864
G01 X273.053 Y247.730
G01 X272.933 Y246.598
G01 X272.757 Y245.473
G01 X272.527 Y244.357
G01 X272.241 Y243.253
G01 X271.902 Y242.163
G01 X271.509 Y241.091
G01 X271.064 Y240.038
G01 X270.567 Y239.007
G01 X270.019 Y238.001
G01 X269.423 Y237.022
G01 X268.778 Y236.073
G01 X268.087 Y235.156
G01 X267.352 Y234.273
G01 X266.573 Y233.427
G01 X265.753 Y232.619
G01 X264.893 Y231.852
G01 X263.997 Y231.128
G01 X263.065 Y230.447
G01 X262.099 Y229.813
G01 X261.104 Y229.227
G01 X260.079 Y228.689
G01 X259.029 Y228.202
G01 X257.955 Y227.767
G01 X256.860 Y227.385
G01 X255.747 Y227.056
G01 X254.618 Y226.783
G01 X253.476 Y226.565
G01 X252.324 Y226.403
G01 X251.164 Y226.298
G01 X250.000 Y226.250
G01 X248.834 Y226.259
G01 X247.668 Y226.325
G01 X246.507 Y226.449
G01 X245.351 Y226.630
G01 X244.205 Y226.867
G01 X243.072 Y227.161
G01 X241.953 Y227.510
G01 X240.851 Y227.914
G01 X239.770 Y228.371
G01 X238.712 Y228.882
G01 X237.680 Y229.445
G01 X236.675 Y230.058
G01 X235.701 Y230.720
G01 X234.760 Y231.430
G01 X233.854 Y232.185
G01 X232.985 Y232.985
G01 X232.156 Y233.827
G01 X231.369 Y234.710
G01 X230.626 Y235.631
G01 X229.928 Y236.588
G01 X229.277 Y237.579
G01 X228.675 Y238.602
G01 X228.124 Y239.654
G01 X227.625 Y240.732
G01 X227.179 Y241.834
G01 X226.787 Y242.958
G01 X226.450 Y244.101
G01 X226.170 Y245.260
G01 X225.947 Y246.432
G01 X225.781 Y247.615
G01 X225.674 Y248.805
G01 X225.625 Y250.000
G01 X225.635 Y251.197
G01 X225.703 Y252.393
G01 X225.831 Y253.585
G01 X226.017 Y254.771
G01 X226.261 Y255.946
G01 X226.562 Y257.110
G01 X226.921 Y258.258
G01 X227.336 Y259.388
G01 X227.806 Y260.497
G01 X228.331 Y261.582
G01 X228.909 Y262.642
G01 X229.538 Y263.672
G01 X230.218 Y264.671
G01 X230.947 Y265.637
G01 X231.722 Y266.566
G01 X232.543 Y267.457
G01 X233.408 Y268.307
G01 X234.314 Y269.114
G01 X235.259 Y269.876
G01 X236.241 Y270.592
G01 X237.258 Y271.259
G01 X238.307 Y271.876
G01 X239.386 Y272.441
G01 X240.493 Y272.953
G01 X241.624 Y273.410
G01 X242.777 Y273.811
G01 X243.949 Y274.156
G01 X245.138 Y274.443
G01 X246.340 Y274.671
G01 X247.553 Y274.841
G01 X248.774 Y274.950
G01 X250.000 Y275.000
G01 X251.228 Y274.989
G01 X252.454 Y274.918
G01 X253.677 Y274.787
G01 X254.892 Y274.596
G01 X256.098 Y274.346
G01 X257.291 Y274.036
G01 X258.468 Y273.667
G01 X259.627 Y273.241
G01 X260.764 Y272.759
G01 X261.877 Y272.220
G01 X262.963 Y271.627
G01 X264.019 Y270.982
G01 X265.044 Y270.284
G01 X266.033 Y269.537
G01 X266.986 Y268.741
G01 X267.899 Y267.899
G01 X268.770 Y267.012
G01 X269.597 Y266.083
G01 X270.378 Y265.114
G01 X271.112 Y264.106
G01 X271.795 Y263.063
G01 X272.427 Y261.987
G01 X273.006 Y260.881
G01 X273.530 Y259.746
G01 X273.998 Y258.587
G01 X274.409 Y257.405
G01 X274.762 Y256.203
G01 X275.056 Y254.984
G01 X275.290 Y253.751
G01 X275.463 Y252.508
G01 X275.575 Y251.256
G01 X275.625 Y250.000
G01 X275.614 Y248.742
G01 X275.540 Y247.484
G01 X275.406 Y246.231
G01 X275.209 Y244.986
G01 X274.952 Y243.750
G01 X274.634 Y242.527
G01 X274.256 Y241.321
G01 X273.819 Y240.134
G01 X273.324 Y238.969
G01 X272.771 Y237.828
G01 X272.164 Y236.716
G01 X271.501 Y235.633
G01 X270.786 Y234.584
G01 X270.020 Y233.570
G01 X269.204 Y232.595
G01 X268.341 Y231.659
G01 X267.432 Y230.767
G01 X266.479 Y229.920
G01 X265.486 Y229.120
G01 X264.454 Y228.369
G01 X263.385 Y227.669
G01 X262.282 Y227.022
G01 X261.148 Y226.429
G01 X259.986 Y225.893
G01 X258.797 Y225.413
G01 X257.586 Y224.992
G01 X256.355 Y224.631
G01 X255.106 Y224.331
G01 X253.843 Y224.092
G01 X252.569 Y223.915
G01 X251.287 Y223.801
G01 X250.000 Y223.750
G01 X248.711 Y223.762
G01 X247.423 Y223.838
G01 X246.140 Y223.976
G01 X244.864 Y224.178
G01 X243.598 Y224.442
G01 X242.346 Y224.768
G01 X241.111 Y225.156
G01 X239.895 Y225.604
G01 X238.702 Y226.111
G01 X237.534 Y226.677
G01 X236.394 Y227.300
G01 X235.286 Y227.979
G01 X234.212 Y228.712
G01 X233.174 Y229.497
G01 X232.175 Y230.333
G01 X231.217 Y231.217
G01 X230.304 Y232.149
G01 X229.437 Y233.124
G01 X228.618 Y234.142
G01 X227.849 Y235.199
G01 X227.133 Y236.294
G01 X226.471 Y237.423
G01 X225.864 Y238.585
G01 X225.315 Y239.775
G01 X224.825 Y240.992
G01 X224.394 Y242.233
G01 X224.025 Y243.494
G01 X223.718 Y244.772
G01 X223.474 Y246.065
G01 X223.293 Y247.370
G01 X223.177 Y248.682
G01 X223.125 Y250.000
G01 X223.138 Y251.320
G01 X223.216 Y252.638
G01 X223.358 Y253.952
G01 X223.565 Y255.258
G01 X223.836 Y256.554
G01 X224.170 Y257.835
G01 X224.567 Y259.100
G01 X225.026 Y260.344
G01 X225.546 Y261.566
G01 X226.126 Y262.761
G01 X226.764 Y263.927
G01 X227.459 Y265.061
G01 X228.210 Y266.161
G01 X229.014 Y267.223
G01 X229.870 Y268.245
G01 X230.776 Y269.224
G01 X231.729 Y270.159
G01 X232.728 Y271.046
G01 X233.770 Y271.884
G01 X234.852 Y272.671
G01 X235.973 Y273.403
G01 X237.129 Y274.081
G01 X238.317 Y274.701
G01 X239.536 Y275.262
G01 X240.782 Y275.764
G01 X242.051 Y276.204
G01 X243.342 Y276.581
G01 X244.650 Y276.895
G01 X245.974 Y277.144
G01 X247.308 Y277.329
G01 X248.652 Y277.447
G01 X250.000 Y277.500
G01 X251.350 Y277.486
G01 X252.699 Y277.406
G01 X254.044 Y277.260
G01 X255.380 Y277.048
G01 X256.706 Y276.771
G01 X258.017 Y276.428
G01 X259.311 Y276.021
G01 X260.584 Y275.551
G01 X261.833 Y275.019
G01 X263.055 Y274.425
G01 X264.248 Y273.772
G01 X265.408 Y273.060
G01 X266.533 Y272.292
G01 X267.619 Y271.469
G01 X268.665 Y270.593
G01 X269.666 Y269.666
G01 X270.622 Y268.691
G01 X271.530 Y267.669
G01 X272.386 Y266.603
G01 X273.190 Y265.495
G01 X273.939 Y264.349
G01 X274.632 Y263.166
G01 X275.266 Y261.950
G01 X275.840 Y260.703
G01 X276.352 Y259.429
G01 X276.802 Y258.130
G01 X277.187 Y256.810
G01 X277.508 Y255.472
G01 X277.763 Y254.118
G01 X277.951 Y252.753
G01 X278.072 Y251.379
G01 X278.125 Y250.000
G01 X278.111 Y248.619
G01 X278.028 Y247.239
G01 X277.879 Y245.865
G01 X277.661 Y244.498
G01 X277.377 Y243.142
G01 X277.026 Y241.802
G01 X276.610 Y240.479
G01 X276.128 Y239.177
G01 X275.584 Y237.900
G01 X274.976 Y236.650
G01 X274.308 Y235.430
G01 X273.580 Y234.244
G01 X272.794 Y233.095
G01 X271.952 Y231.984
G01 X271.056 Y230.916
G01 X270.108 Y229.892
G01 X269.111 Y228.915
G01 X268.065 Y227.987
G01 X266.975 Y227.112
G01 X265.842 Y226.290
G01 X264.670 Y225.525
G01 X263.461 Y224.817
G01 X262.217 Y224.169
G01 X260.942 Y223.583
G01 X259.640 Y223.059
G01 X258.312 Y222.600
G01 X256.962 Y222.206
G01 X255.594 Y221.879
G01 X254.210 Y221.619
G01 X252.814 Y221.427
G01 X251.410 Y221.304
G01 X250.000 Y221.250
G01 X248.588 Y221.265
G01 X247.178 Y221.350
G01 X245.773 Y221.503
G01 X244.376 Y221.726
G01 X242.991 Y222.017
G01 X241.620 Y222.376
G01 X240.268 Y222.802
G01 X238.938 Y223.294
G01 X237.633 Y223.851
G01 X236.355 Y224.473
G01 X235.109 Y225.156
G01 X233.897 Y225.900
G01 X232.722 Y226.704
G01 X231.588 Y227.565
G01 X230.496 Y228.481
G01 X229.450 Y229.450
G01 X228.452 Y230.470
G01 X227.504 Y231.538
G01 X226.610 Y232.653
G01 X225.770 Y233.810
G01 X224.988 Y235.009
G01 X224.266 Y236.245
G01 X223.604 Y237.516
G01 X223.005 Y238.818
G01 X222.471 Y240.150
G01 X222.002 Y241.507
G01 X221.600 Y242.886
G01 X221.266 Y244.284
G01 X221.001 Y245.698
G01 X220.805 Y247.125
G01 X220.680 Y248.560
G01 X220.625 Y250.000
G01 X220.641 Y251.442
G01 X220.728 Y252.883
G01 X220.885 Y254.319
G01 X221.113 Y255.746
G01 X221.411 Y257.161
G01 X221.778 Y258.561
G01 X222.213 Y259.942
G01 X222.717 Y261.301
G01 X223.286 Y262.635
G01 X223.921 Y263.939
G01 X224.620 Y265.212
G01 X225.381 Y266.450
G01 X226.202 Y267.650
G01 X227.081 Y268.809
G01 X228.017 Y269.924
G01 X229.008 Y270.992
G01 X230.050 Y272.011
G01 X231.142 Y272.979
G01 X232.280 Y273.892
G01 X233.463 Y274.749
G01 X234.687 Y275.548
G01 X235.950 Y276.285
G01 X237.249 Y276.961
G01 X238.579 Y277.572
G01 X239.939 Y278.118
G01 X241.325 Y278.596
G01 X242.734 Y279.006
G01 X244.163 Y279.347
G01 X245.607 Y279.617
G01 X247.063 Y279.817
G01 X248.529 Y279.944
G01 X250.000 Y280.000
G01 X251.473 Y279.983
G01 X252.944 Y279.894
G01 X254.411 Y279.733
G01 X255.868 Y279.500
G01 X257.313 Y279.196
G01 X258.743 Y278.820
G01 X260.153 Y278.375
G01 X261.540 Y277.861
G01 X262.902 Y277.279
G01 X264.234 Y276.630
G01 X265.534 Y275.916
G01 X266.797 Y275.139
G01 X268.022 Y274.300
G01 X269.205 Y273.402
G01 X270.344 Y272.446
G01 X271.434 Y271.434
G01 X272.475 Y270.370
G01 X273.462 Y269.255
G01 X274.394 Y268.092
G01 X275.269 Y266.884
G01 X276.084 Y265.634
G01 X276.837 Y264.344
G01 X277.526 Y263.019
G01 X278.149 Y261.660
G01 X278.706 Y260.271
G01 X279.194 Y258.856
G01 X279.612 Y257.418
G01 X279.960 Y255.959
G01 X280.236 Y254.485
G01 X280.439 Y252.998
G01 X280.569 Y251.502
G01 X280.625 Y250.000
G01 X280.608 Y248.496
G01 X280.516 Y246.994
G01 X280.351 Y245.498
G01 X280.113 Y244.010
G01 X279.802 Y242.535
G01 X279.418 Y241.076
G01 X278.964 Y239.637
G01 X278.438 Y238.221
G01 X277.844 Y236.831
G01 X277.181 Y235.471
G01 X276.452 Y234.145
G01 X275.659 Y232.855
G01 X274.802 Y231.605
G01 X273.885 Y230.398
G01 X272.909 Y229.237
G01 X271.876 Y228.124
G01 X270.789 Y227.062
G01 X269.651 Y226.055
G01 X268.464 Y225.104
G01 X267.231 Y224.211
G01 X265.955 Y223.380
G01 X264.639 Y222.612
G01 X263.286 Y221.909
G01 X261.899 Y221.273
G01 X260.482 Y220.705
G01 X259.037 Y220.208
G01 X257.569 Y219.781
G01 X256.081 Y219.427
G01 X254.577 Y219.146
G01 X253.059 Y218.939
G01 X251.532 Y218.807
G01 X250.000 Y218.750
G01 X248.466 Y218.768
G01 X246.933 Y218.862
G01 X245.406 Y219.030
G01 X243.888 Y219.274
G01 X242.383 Y219.592
G01 X240.895 Y219.983
G01 X239.426 Y220.448
G01 X237.981 Y220.984
G01 X236.564 Y221.591
G01 X235.177 Y222.268
G01 X233.824 Y223.012
G01 X232.508 Y223.822
G01 X231.233 Y224.696
G01 X230.002 Y225.632
G01 X228.817 Y226.628
G01 X227.682 Y227.682
G01 X226.599 Y228.791
G01 X225.572 Y229.952
G01 X224.602 Y231.163
G01 X223.692 Y232.421
G01 X222.844 Y233.723
G01 X222.061 Y235.066
G01 X221.344 Y236.447
G01 X220.696 Y237.862
G01 X220.117 Y239.308
G01 X219.610 Y240.781
G01 X219.175 Y242.279
G01 X218.814 Y243.797
G01 X218.528 Y245.332
G01 X218.317 Y246.880
G01 X218.183 Y248.437
G01 X218.125 Y250.000
G01 X218.144 Y251.565
G01 X218.240 Y253.128
G01 X218.412 Y254.686
G01 X218.661 Y256.234
G01 X218.986 Y257.769
G01 X219.385 Y259.287
G01 X219.860 Y260.784
G01 X220.407 Y262.258
G01 X221.026 Y263.703
G01 X221.717 Y265.118
G01 X222.476 Y266.497
G01 X223.302 Y267.839
G01 X224.194 Y269.139
G01 X225.149 Y270.395
G01 X226.165 Y271.603
G01 X227.240 Y272.760
G01 X228.371 Y273.864
G01 X229.556 Y274.911
G01 X230.791 Y275.900
G01 X232.074 Y276.828
G01 X233.402 Y277.692
G01 X234.772 Y278.490
G01 X236.180 Y279.221
G01 X237.623 Y279.882
G01 X239.097 Y280.471
G01 X240.600 Y280.988
G01 X242.127 Y281.431
G01 X243.675 Y281.799
G01 X245.240 Y282.090
G01 X246.818 Y282.305
G01 X248.406 Y282.441
G01 X250.000 Y282.500
G01 X251.596 Y282.480
G01 X253.189 Y282.382
G01 X254.777 Y282.206
G01 X256.356 Y281.952
G01 X257.921 Y281.621
G01 X259.468 Y281.213
G01 X260.995 Y280.729
G01 X262.497 Y280.170
G01 X263.971 Y279.539
G01 X265.412 Y278.835
G01 X266.819 Y278.060
G01 X268.186 Y277.218
G01 X269.511 Y276.308
G01 X270.791 Y275.334
G01 X272.022 Y274.298
G01 X273.202 Y273.202
G01 X274.327 Y272.049
G01 X275.395 Y270.841
G01 X276.402 Y269.581
G01 X277.348 Y268.273
G01 X278.228 Y266.919
G01 X279.041 Y265.523
G01 X279.786 Y264.088
G01 X280.459 Y262.617
G01 X281.060 Y261.113
G01 X281.587 Y259.582
G01 X282.038 Y258.025
G01 X282.412 Y256.447
G01 X282.709 Y254.852
G01 X282.927 Y253.243
G01 X283.066 Y251.624
G01 X283.125 Y250.000
G01 X283.105 Y248.374
G01 X283.004 Y246.749
G01 X282.824 Y245.131
G01 X282.565 Y243.522
G01 X282.227 Y241.928
G01 X281.811 Y240.350
G01 X281.317 Y238.794
G01 X280.748 Y237.264
G01 X280.104 Y235.762
G01 X279.386 Y234.293
G01 X278.597 Y232.860
G01 X277.737 Y231.467
G01 X276.810 Y230.116
G01 X275.817 Y228.812
G01 X274.761 Y227.558
G01 X273.644 Y226.356
G01 X272.468 Y225.210
G01 X271.237 Y224.122
G01 X269.954 Y223.096
G01 X268.620 Y222.133
G01 X267.241 Y221.236
G01 X265.818 Y220.407
G01 X264.355 Y219.649
G01 X262.856 Y218.963
G01 X261.324 Y218.352
G01 X259.763 Y217.815
G01 X258.177 Y217.356
G01 X256.569 Y216.975
G01 X254.944 Y216.673
G01 X253.304 Y216.451
G01 X251.655 Y216.310
G01 X250.000 Y216.250
G01 X248.343 Y216.271
G01 X246.688 Y216.374
G01 X245.039 Y216.557
G01 X243.400 Y216.822
G01 X241.776 Y217.167
G01 X240.169 Y217.591
G01 X238.584 Y218.094
G01 X237.025 Y218.675
G01 X235.495 Y219.331
G01 X233.998 Y220.063
G01 X232.539 Y220.867
G01 X231.119 Y221.743
G01 X229.744 Y222.688
G01 X228.416 Y223.700
G01 X227.138 Y224.776
G01 X225.914 Y225.914
G01 X224.747 Y227.112
G01 X223.639 Y228.366
G01 X222.594 Y229.674
G01 X221.613 Y231.032
G01 X220.700 Y232.438
G01 X219.856 Y233.888
G01 X219.084 Y235.378
G01 X218.386 Y236.905
G01 X217.763 Y238.465
G01 X217.217 Y240.055
G01 X216.750 Y241.671
G01 X216.362 Y243.309
G01 X216.055 Y244.965
G01 X215.829 Y246.634
G01 X215.686 Y248.314
G01 X215.625 Y250.000
G01 X215.647 Y251.688
G01 X215.752 Y253.373
G01 X215.939 Y255.052
G01 X216.209 Y256.721
G01 X216.560 Y258.376
G01 X216.993 Y260.013
G01 X217.506 Y261.627
G01 X218.097 Y263.215
G01 X218.766 Y264.772
G01 X219.512 Y266.296
G01 X220.331 Y267.783
G01 X221.223 Y269.228
G01 X222.186 Y270.628
G01 X223.216 Y271.981
G01 X224.313 Y273.282
G01 X225.472 Y274.528
G01 X226.692 Y275.716
G01 X227.970 Y276.844
G01 X229.302 Y277.908
G01 X230.685 Y278.907
G01 X232.117 Y279.836
G01 X233.593 Y280.695
G01 X235.111 Y281.481
G01 X236.666 Y282.191
G01 X238.255 Y282.825
G01 X239.874 Y283.381
G01 X241.519 Y283.856
G01 X243.187 Y284.251
G01 X244.873 Y284.563
G01 X246.573 Y284.793
G01 X248.284 Y284.938
G01 X250.000 Y285.000
G01 X251.718 Y284.977
G01 X253.434 Y284.870
G01 X255.144 Y284.679
G01 X256.843 Y284.404
G01 X258.528 Y284.046
G01 X260.194 Y283.605
G01 X261.837 Y283.083
G01 X263.454 Y282.480
G01 X265.040 Y281.799
G01 X266.591 Y281.039
G01 X268.104 Y280.205
G01 X269.575 Y279.296
G01 X271.001 Y278.316
G01 X272.377 Y277.267
G01 X273.701 Y276.150
G01 X274.970 Y274.970
G01 X276.179 Y273.728
G01 X277.327 Y272.427
G01 X278.410 Y271.071
G01 X279.426 Y269.662
G01 X280.372 Y268.204
G01 X281.246 Y266.701
G01 X282.046 Y265.156
G01 X282.769 Y263.573
G01 X283.414 Y261.956
G01 X283.979 Y260.307
G01 X284.463 Y258.632
G01 X284.864 Y256.935
G01 X285.181 Y255.219
G01 X285.415 Y253.488
G01 X285.563 Y251.747
G01 X285.625 Y250.000
G01 X285.602 Y248.251
G01 X285.492 Y246.504
G01 X285.297 Y244.764
G01 X285.017 Y243.035
G01 X284.652 Y241.320
G01 X284.203 Y239.625
G01 X283.671 Y237.952
G01 X283.058 Y236.307
G01 X282.364 Y234.693
G01 X281.591 Y233.114
G01 X280.741 Y231.575
G01 X279.816 Y230.078
G01 X278.818 Y228.627
G01 X277.750 Y227.226
G01 X276.613 Y225.879
G01 X275.412 Y224.588
G01 X274.147 Y223.358
G01 X272.823 Y222.190
G01 X271.443 Y221.088
G01 X270.009 Y220.054
G01 X268.526 Y219.092
G01 X266.996 Y218.203
G01 X265.424 Y217.389
G01 X263.812 Y216.654
G01 X262.166 Y215.998
G01 X260.489 Y215.423
G01 X258.784 Y214.931
G01 X257.057 Y214.523
G01 X255.310 Y214.200
G01 X253.549 Y213.963
G01 X251.778 Y213.813
G01 X250.000 Y213.750
G01 X248.220 Y213.774
G01 X246.443 Y213.886
G01 X244.672 Y214.084
G01 X242.913 Y214.370
G01 X241.168 Y214.742
G01 X239.443 Y215.199
G01 X237.742 Y215.740
G01 X236.068 Y216.365
G01 X234.426 Y217.071
G01 X232.820 Y217.858
G01 X231.253 Y218.723
G01 X229.730 Y219.664
G01 X228.255 Y220.680
G01 X226.830 Y221.767
G01 X225.459 Y222.923
G01 X224.146 Y224.146
G01 X222.895 Y225.433
G01 X221.707 Y226.780
G01 X220.586 Y228.185
G01 X219.534 Y229.644
G01 X218.556 Y231.153
G01 X217.651 Y232.709
G01 X216.824 Y234.309
G01 X216.076 Y235.948
G01 X215.409 Y237.623
G01 X214.825 Y239.330
G01 X214.325 Y241.064
G01 X213.910 Y242.821
G01 X213.582 Y244.598
G01 X213.341 Y246.389
G01 X213.189 Y248.192
G01 X213.125 Y250.000
G01 X213.150 Y251.810
G01 X213.264 Y253.618
G01 X213.466 Y255.419
G01 X213.757 Y257.209
G01 X214.135 Y258.984
G01 X214.601 Y260.738
G01 X215.152 Y262.469
G01 X215.788 Y264.171
G01 X216.506 Y265.841
G01 X217.307 Y267.475
G01 X218.187 Y269.068
G01 X219.145 Y270.617
G01 X220.178 Y272.118
G01 X221.284 Y273.567
G01 X222.460 Y274.960
G01 X223.704 Y276.296
G01 X225.013 Y277.569
G01 X226.384 Y278.777
G01 X227.813 Y279.916
G01 X229.296 Y280.985
G01 X230.832 Y281.981
G01 X232.415 Y282.900
G01 X234.042 Y283.741
G01 X235.709 Y284.501
G01 X237.413 Y285.179
G01 X239.148 Y285.773
G01 X240.912 Y286.281
G01 X242.699 Y286.703
G01 X244.506 Y287.036
G01 X246.328 Y287.281
G01 X248.161 Y287.435
G01 X250.000 Y287.500
G01 X251.841 Y287.474
G01 X253.679 Y287.358
G01 X255.511 Y287.152
G01 X257.331 Y286.856
G01 X259.135 Y286.471
G01 X260.920 Y285.997
G01 X262.679 Y285.437
G01 X264.410 Y284.790
G01 X266.108 Y284.059
G01 X267.769 Y283.244
G01 X269.389 Y282.349
G01 X270.964 Y281.375
G01 X272.490 Y280.324
G01 X273.963 Y279.199
G01 X275.380 Y278.003
G01 X276.737 Y276.737
G01 X278.032 Y275.406
G01 X279.260 Y274.013
G01 X280.418 Y272.560
G01 X281.505 Y271.051
G01 X282.517 Y269.490
G01 X283.451 Y267.880
G01 X284.306 Y266.225
G01 X285.079 Y264.530
G01 X285.768 Y262.798
G01 X286.371 Y261.033
G01 X286.888 Y259.240
G01 X287.316 Y257.423
G01 X287.654 Y255.586
G01 X287.903 Y253.733
G01 X288.060 Y251.870
G01 X288.125 Y250.000
G01 X288.099 Y248.128
G01 X287.980 Y246.259
G01 X287.770 Y244.397
G01 X287.469 Y242.547
G01 X287.077 Y240.713
G01 X286.595 Y238.899
G01 X286.025 Y237.110
G01 X285.367 Y235.350
G01 X284.623 Y233.624
G01 X283.795 Y231.936
G01 X282.885 Y230.289
G01 X281.895 Y228.689
G01 X280.826 Y227.138
G01 X279.682 Y225.640
G01 X278.466 Y224.200
G01 X277.179 Y222.821
G01 X275.826 Y221.505
G01 X274.409 Y220.257
G01 X272.932 Y219.080
G01 X271.398 Y217.975
G01 X269.811 Y216.947
G01 X268.175 Y215.998
G01 X266.493 Y215.129
G01 X264.769 Y214.344
G01 X263.008 Y213.644
G01 X261.215 Y213.031
G01 X259.392 Y212.506
G01 X257.545 Y212.071
G01 X255.677 Y211.727
G01 X253.794 Y211.475
G01 X251.900 Y211.316
G01 X250.000 Y211.250
G01 X248.098 Y211.277
G01 X246.198 Y211.398
G01 X244.306 Y211.611
G01 X242.425 Y211.918
G01 X240.561 Y212.317
G01 X238.717 Y212.806
G01 X236.899 Y213.386
G01 X235.111 Y214.055
G01 X233.357 Y214.812
G01 X231.641 Y215.653
G01 X229.968 Y216.579
G01 X228.341 Y217.586
G01 X226.765 Y218.672
G01 X225.244 Y219.834
G01 X223.780 Y221.071
G01 X222.379 Y222.379
G01 X221.042 Y223.754
G01 X219.774 Y225.194
G01 X218.578 Y226.696
G01 X217.456 Y228.255
G01 X216.411 Y229.868
G01 X215.447 Y231.531
G01 X214.564 Y233.240
G01 X213.767 Y234.992
G01 X213.055 Y236.781
G01 X212.433 Y238.604
G01 X211.900 Y240.456
G01 X211.458 Y242.334
G01 X211.109 Y244.231
G01 X210.853 Y246.144
G01 X210.692 Y248.069
G01 X210.625 Y250.000
G01 X210.653 Y251.933
G01 X210.776 Y253.863
G01 X210.993 Y255.786
G01 X211.305 Y257.697
G01 X211.710 Y259.591
G01 X212.208 Y261.464
G01 X212.798 Y263.311
G01 X213.478 Y265.128
G01 X214.247 Y266.910
G01 X215.102 Y268.653
G01 X216.043 Y270.353
G01 X217.066 Y272.006
G01 X218.170 Y273.607
G01 X219.351 Y275.153
G01 X220.608 Y276.639
G01 X221.937 Y278.063
G01 X223.334 Y279.421
G01 X224.798 Y280.709
G01 X226.323 Y281.924
G01 X227.907 Y283.064
G01 X229.546 Y284.125
G01 X231.236 Y285.105
G01 X232.973 Y286.001
G01 X234.752 Y286.811
G01 X236.570 Y287.533
G01 X238.423 Y288.165
G01 X240.305 Y288.707
G01 X242.212 Y289.155
G01 X244.139 Y289.509
G01 X246.083 Y289.769
G01 X248.038 Y289.932
G01 X250.000 Y290.000
G01 X251.964 Y289.971
G01 X253.925 Y289.846
G01 X255.878 Y289.625
G01 X257.819 Y289.308
G01 X259.743 Y288.896
G01 X261.645 Y288.390
G01 X263.522 Y287.790
G01 X265.367 Y287.100
G01 X267.177 Y286.318
G01 X268.948 Y285.449
G01 X270.675 Y284.493
G01 X272.353 Y283.454
G01 X273.979 Y282.332
G01 X275.549 Y281.132
G01 X277.059 Y279.855
G01 X278.505 Y278.505
G01 X279.884 Y277.085
G01 X281.192 Y275.599
G01 X282.426 Y274.049
G01 X283.584 Y272.440
G01 X284.661 Y270.775
G01 X285.656 Y269.058
G01 X286.566 Y267.294
G01 X287.388 Y265.487
G01 X288.122 Y263.640
G01 X288.764 Y261.759
G01 X289.313 Y259.847
G01 X289.768 Y257.910
G01 X290.127 Y255.952
G01 X290.391 Y253.978
G01 X290.557 Y251.992
G01 X290.625 Y250.000
G01 X290.596 Y248.006
G01 X290.468 Y246.014
G01 X290.243 Y244.030
G01 X289.921 Y242.059
G01 X289.502 Y240.105
G01 X288.988 Y238.173
G01 X288.379 Y236.268
G01 X287.677 Y234.394
G01 X286.883 Y232.555
G01 X286.000 Y230.757
G01 X285.030 Y229.004
G01 X283.973 Y227.300
G01 X282.834 Y225.648
G01 X281.615 Y224.054
G01 X280.318 Y222.521
G01 X278.947 Y221.053
G01 X277.505 Y219.653
G01 X275.995 Y218.325
G01 X274.421 Y217.072
G01 X272.787 Y215.897
G01 X271.096 Y214.803
G01 X269.353 Y213.793
G01 X267.561 Y212.869
G01 X265.726 Y212.034
G01 X263.851 Y211.290
G01 X261.940 Y210.638
G01 X259.999 Y210.081
G01 X258.032 Y209.619
G01 X256.044 Y209.254
G01 X254.039 Y208.988
G01 X252.023 Y208.819
G01 X250.000 Y208.750
G01 X247.975 Y208.780
G01 X245.953 Y208.910
G01 X243.939 Y209.139
G01 X241.937 Y209.466
G01 X239.953 Y209.891
G01 X237.992 Y210.414
G01 X236.057 Y211.033
G01 X234.155 Y211.746
G01 X232.288 Y212.552
G01 X230.463 Y213.448
G01 X228.683 Y214.434
G01 X226.953 Y215.507
G01 X225.276 Y216.664
G01 X223.658 Y217.902
G01 X222.101 Y219.219
G01 X220.611 Y220.611
G01 X219.190 Y222.075
G01 X217.842 Y223.608
G01 X216.570 Y225.206
G01 X215.377 Y226.866
G01 X214.267 Y228.582
G01 X213.242 Y230.352
G01 X212.304 Y232.171
G01 X211.457 Y234.035
G01 X210.702 Y235.939
G01 X210.040 Y237.878
G01 X209.475 Y239.849
G01 X209.006 Y241.846
G01 X208.636 Y243.864
G01 X208.366 Y245.899
G01 X208.195 Y247.946
G01 X208.125 Y250.000
G01 X208.156 Y252.056
G01 X208.288 Y254.108
G01 X208.520 Y256.153
G01 X208.853 Y258.185
G01 X209.285 Y260.199
G01 X209.816 Y262.190
G01 X210.444 Y264.153
G01 X211.168 Y266.085
G01 X211.987 Y267.979
G01 X212.897 Y269.832
G01 X213.898 Y271.639
G01 X214.987 Y273.395
G01 X216.162 Y275.096
G01 X217.419 Y276.739
G01 X218.756 Y278.318
G01 X220.169 Y279.831
G01 X221.655 Y281.273
G01 X223.212 Y282.642
G01 X224.834 Y283.932
G01 X226.518 Y285.143
G01 X228.261 Y286.269
G01 X230.058 Y287.309
G01 X231.904 Y288.261
G01 X233.796 Y289.121
G01 X235.728 Y289.887
G01 X237.697 Y290.558
G01 X239.697 Y291.132
G01 X241.724 Y291.607
G01 X243.773 Y291.982
G01 X245.838 Y292.256
G01 X247.916 Y292.429
G01 X250.000 Y292.500
G01 X252.086 Y292.468
G01 X254.170 Y292.334
G01 X256.245 Y292.098
G01 X258.307 Y291.760
G01 X260.350 Y291.321
G01 X262.371 Y290.782
G01 X264.364 Y290.144
G01 X266.324 Y289.409
G01 X268.246 Y288.578
G01 X270.126 Y287.654
G01 X271.960 Y286.638
G01 X273.742 Y285.532
G01 X275.468 Y284.340
G01 X277.135 Y283.064
G01 X278.738 Y281.707
G01 X280.273 Y280.273
G01 X281.736 Y278.764
G01 X283.125 Y277.185
G01 X284.434 Y275.538
G01 X285.662 Y273.829
G01 X286.805 Y272.060
G01 X287.861 Y270.237
G01 X288.826 Y268.363
G01 X289.698 Y266.443
G01 X290.475 Y264.482
G01 X291.156 Y262.485
G01 X291.738 Y260.455
G01 X292.220 Y258.398
G01 X292.600 Y256.319
G01 X292.878 Y254.223
G01 X293.054 Y252.115
G01 X293.125 Y250.000
G01 X293.093 Y247.883
G01 X292.956 Y245.769
G01 X292.716 Y243.664
G01 X292.373 Y241.571
G01 X291.927 Y239.498
G01 X291.380 Y237.447
G01 X290.733 Y235.426
G01 X289.987 Y233.437
G01 X289.143 Y231.487
G01 X288.205 Y229.579
G01 X287.174 Y227.719
G01 X286.052 Y225.911
G01 X284.842 Y224.159
G01 X283.547 Y222.468
G01 X282.171 Y220.842
G01 X280.715 Y219.285
G01 X279.184 Y217.800
G01 X277.581 Y216.392
G01 X275.911 Y215.064
G01 X274.176 Y213.818
G01 X272.382 Y212.659
G01 X270.532 Y211.588
G01 X268.630 Y210.609
G01 X266.683 Y209.725
G01 X264.693 Y208.936
G01 X262.666 Y208.246
G01 X260.607 Y207.656
G01 X258.520 Y207.167
G01 X256.411 Y206.781
G01 X254.284 Y206.500
G01 X252.146 Y206.322
G01 X250.000 Y206.250
G01 X247.852 Y206.283
G01 X245.708 Y206.422
G01 X243.572 Y206.666
G01 X241.450 Y207.014
G01 X239.346 Y207.466
G01 X237.266 Y208.022
G01 X235.215 Y208.679
G01 X233.198 Y209.436
G01 X231.219 Y210.292
G01 X229.284 Y211.244
G01 X227.398 Y212.290
G01 X225.564 Y213.428
G01 X223.787 Y214.656
G01 X222.072 Y215.969
G01 X220.423 Y217.366
G01 X218.843 Y218.843
G01 X217.337 Y220.396
G01 X215.909 Y222.022
G01 X214.562 Y223.717
G01 X213.298 Y225.477
G01 X212.123 Y227.297
G01 X211.037 Y229.174
G01 X210.044 Y231.102
G01 X209.147 Y233.078
G01 X208.348 Y235.097
G01 X207.648 Y237.153
G01 X207.050 Y239.241
G01 X206.554 Y241.358
G01 X206.163 Y243.497
G01 X205.878 Y245.654
G01 X205.698 Y247.824
G01 X205.625 Y250.000
G01 X205.659 Y252.178
G01 X205.800 Y254.353
G01 X206.047 Y256.520
G01 X206.401 Y258.672
G01 X206.860 Y260.806
G01 X207.424 Y262.915
G01 X208.090 Y264.996
G01 X208.858 Y267.041
G01 X209.727 Y269.048
G01 X210.692 Y271.010
G01 X211.754 Y272.924
G01 X212.909 Y274.784
G01 X214.154 Y276.585
G01 X215.486 Y278.325
G01 X216.903 Y279.997
G01 X218.401 Y281.599
G01 X219.977 Y283.126
G01 X221.626 Y284.574
G01 X223.345 Y285.940
G01 X225.130 Y287.221
G01 X226.976 Y288.414
G01 X228.879 Y289.514
G01 X230.835 Y290.521
G01 X232.839 Y291.430
G01 X234.886 Y292.241
G01 X236.971 Y292.950
G01 X239.090 Y293.557
G01 X241.236 Y294.059
G01 X243.406 Y294.455
G01 X245.593 Y294.744
G01 X247.793 Y294.926
G01 X250.000 Y295.000
G01 X252.209 Y294.965
G01 X254.415 Y294.822
G01 X256.611 Y294.571
G01 X258.794 Y294.212
G01 X260.958 Y293.746
G01 X263.097 Y293.174
G01 X265.206 Y292.498
G01 X267.281 Y291.719
G01 X269.315 Y290.838
G01 X271.305 Y289.859
G01 X273.245 Y288.782
G01 X275.131 Y287.611
G01 X276.958 Y286.348
G01 X278.721 Y284.997
G01 X280.417 Y283.560
G01 X282.041 Y282.041
G01 X283.589 Y280.443
G01 X285.057 Y278.771
G01 X286.442 Y277.028
G01 X287.741 Y275.218
G01 X288.950 Y273.345
G01 X290.065 Y271.415
G01 X291.086 Y269.432
G01 X292.008 Y267.400
G01 X292.829 Y265.325
G01 X293.548 Y263.210
G01 X294.163 Y261.062
G01 X294.672 Y258.886
G01 X295.073 Y256.686
G01 X295.366 Y254.468
G01 X295.551 Y252.238
G01 X295.625 Y250.000
G01 X295.590 Y247.760
G01 X295.444 Y245.524
G01 X295.189 Y243.297
G01 X294.825 Y241.084
G01 X294.352 Y238.890
G01 X293.773 Y236.722
G01 X293.087 Y234.583
G01 X292.296 Y232.480
G01 X291.403 Y230.418
G01 X290.410 Y228.400
G01 X289.318 Y226.434
G01 X288.131 Y224.522
G01 X286.850 Y222.670
G01 X285.480 Y220.882
G01 X284.023 Y219.163
G01 X282.483 Y217.517
G01 X280.863 Y215.948
G01 X279.167 Y214.460
G01 X277.400 Y213.056
G01 X275.565 Y211.739
G01 X273.667 Y210.514
G01 X271.710 Y209.383
G01 X269.699 Y208.349
G01 X267.639 Y207.415
G01 X265.535 Y206.582
G01 X263.392 Y205.854
G01 X261.214 Y205.231
G01 X259.008 Y204.715
G01 X256.778 Y204.309
G01 X254.529 Y204.012
G01 X252.268 Y203.825
G01 X250.000 Y203.750
G01 X247.730 Y203.786
G01 X245.463 Y203.934
G01 X243.205 Y204.193
G01 X240.962 Y204.562
G01 X238.738 Y205.041
G01 X236.540 Y205.629
G01 X234.373 Y206.325
G01 X232.241 Y207.126
G01 X230.150 Y208.032
G01 X228.106 Y209.039
G01 X226.112 Y210.146
G01 X224.175 Y211.350
G01 X222.298 Y212.648
G01 X220.486 Y214.037
G01 X218.744 Y215.514
G01 X217.075 Y217.075
G01 X215.485 Y218.717
G01 X213.977 Y220.436
G01 X212.554 Y222.228
G01 X211.220 Y224.088
G01 X209.978 Y226.012
G01 X208.832 Y227.995
G01 X207.784 Y230.034
G01 X206.838 Y232.122
G01 X205.994 Y234.254
G01 X205.256 Y236.427
G01 X204.625 Y238.634
G01 X204.102 Y240.870
G01 X203.690 Y243.131
G01 X203.390 Y245.409
G01 X203.201 Y247.701
G01 X203.125 Y250.000
G01 X203.162 Y252.301
G01 X203.312 Y254.598
G01 X203.574 Y256.887
G01 X203.949 Y259.160
G01 X204.435 Y261.413
G01 X205.031 Y263.641
G01 X205.736 Y265.838
G01 X206.549 Y267.998
G01 X207.467 Y270.117
G01 X208.488 Y272.189
G01 X209.610 Y274.209
G01 X210.830 Y276.173
G01 X212.146 Y278.075
G01 X213.554 Y279.911
G01 X215.051 Y281.676
G01 X216.633 Y283.367
G01 X218.298 Y284.978
G01 X220.040 Y286.507
G01 X221.856 Y287.948
G01 X223.741 Y289.300
G01 X225.691 Y290.558
G01 X227.701 Y291.719
G01 X229.766 Y292.781
G01 X231.882 Y293.740
G01 X234.044 Y294.595
G01 X236.245 Y295.343
G01 X238.482 Y295.982
G01 X240.748 Y296.511
G01 X243.039 Y296.928
G01 X245.348 Y297.232
G01 X247.670 Y297.423
G01 X250.000 Y297.500
G01 X252.332 Y297.462
G01 X254.660 Y297.310
G01 X256.978 Y297.044
G01 X259.282 Y296.664
G01 X261.565 Y296.171
G01 X263.823 Y295.567
G01 X266.048 Y294.852
G01 X268.237 Y294.029
G01 X270.384 Y293.098
G01 X272.483 Y292.064
G01 X274.530 Y290.926
G01 X276.520 Y289.690
G01 X278.447 Y288.356
G01 X280.307 Y286.929
G01 X282.096 Y285.412
G01 X283.809 Y283.809
G01 X285.441 Y282.122
G01 X286.990 Y280.357
G01 X288.450 Y278.517
G01 X289.820 Y276.607
G01 X291.094 Y274.631
G01 X292.270 Y272.594
G01 X293.346 Y270.501
G01 X294.317 Y268.357
G01 X295.183 Y266.167
G01 X295.941 Y263.936
G01 X296.588 Y261.670
G01 X297.124 Y259.373
G01 X297.546 Y257.053
G01 X297.854 Y254.713
G01 X298.048 Y252.360
G01 X298.125 Y250.000
G01 X298.087 Y247.638
G01 X297.932 Y245.279
G01 X297.662 Y242.930
G01 X297.277 Y240.596
G01 X296.777 Y238.283
G01 X296.165 Y235.996
G01 X295.441 Y233.741
G01 X294.606 Y231.524
G01 X293.663 Y229.349
G01 X292.615 Y227.222
G01 X291.462 Y225.148
G01 X290.209 Y223.133
G01 X288.858 Y221.181
G01 X287.412 Y219.296
G01 X285.875 Y217.484
G01 X284.250 Y215.750
G01 X282.542 Y214.096
G01 X280.753 Y212.527
G01 X278.889 Y211.048
G01 X276.954 Y209.661
G01 X274.952 Y208.370
G01 X272.889 Y207.179
G01 X270.768 Y206.089
G01 X268.596 Y205.105
G01 X266.377 Y204.228
G01 X264.117 Y203.461
G01 X261.822 Y202.806
G01 X259.495 Y202.263
G01 X257.145 Y201.836
G01 X254.775 Y201.524
G01 X252.391 Y201.328
G01 X250.000 Y201.250
G01 X247.607 Y201.289
G01 X245.218 Y201.446
G01 X242.838 Y201.720
G01 X240.474 Y202.110
G01 X238.131 Y202.616
G01 X235.815 Y203.237
G01 X233.531 Y203.971
G01 X231.284 Y204.817
G01 X229.082 Y205.772
G01 X226.927 Y206.834
G01 X224.827 Y208.001
G01 X222.786 Y209.271
G01 X220.808 Y210.640
G01 X218.900 Y212.104
G01 X217.065 Y213.662
G01 X215.308 Y215.308
G01 X213.633 Y217.039
G01 X212.044 Y218.850
G01 X210.546 Y220.739
G01 X209.141 Y222.699
G01 X207.834 Y224.727
G01 X206.627 Y226.817
G01 X205.524 Y228.965
G01 X204.528 Y231.165
G01 X203.640 Y233.412
G01 X202.863 Y235.701
G01 X202.199 Y238.027
G01 X201.650 Y240.383
G01 X201.217 Y242.764
G01 X200.902 Y245.164
G01 X200.704 Y247.578
G01 X200.625 Y250.000
G01 X200.665 Y252.424
G01 X200.824 Y254.843
G01 X201.101 Y257.253
G01 X201.497 Y259.648
G01 X202.010 Y262.021
G01 X202.639 Y264.367
G01 X203.383 Y266.680
G01 X204.239 Y268.955
G01 X205.207 Y271.186
G01 X206.283 Y273.367
G01 X207.465 Y275.494
G01 X208.751 Y277.561
G01 X210.138 Y279.564
G01 X211.621 Y281.497
G01 X213.198 Y283.355
G01 X214.866 Y285.134
G01 X216.619 Y286.830
G01 X218.454 Y288.439
G01 X220.366 Y289.956
G01 X222.352 Y291.379
G01 X224.405 Y292.702
G01 X226.522 Y293.924
G01 X228.697 Y295.041
G01 X230.926 Y296.050
G01 X233.202 Y296.948
G01 X235.520 Y297.735
G01 X237.875 Y298.407
G01 X240.261 Y298.963
G01 X242.672 Y299.401
G01 X245.103 Y299.720
G01 X247.548 Y299.920
G01 X250.000 Y300.000
G01 X252.454 Y299.959
G01 X254.905 Y299.798
G01 X257.345 Y299.517
G01 X259.770 Y299.116
G01 X262.173 Y298.596
G01 X264.548 Y297.959
G01 X266.891 Y297.206
G01 X269.194 Y296.338
G01 X271.453 Y295.358
G01 X273.662 Y294.268
G01 X275.816 Y293.071
G01 X277.909 Y291.768
G01 X279.936 Y290.364
G01 X281.893 Y288.862
G01 X283.775 Y287.265
G01 X285.576 Y285.576
G01 X287.294 Y283.801
G01 X288.922 Y281.943
G01 X290.458 Y280.006
G01 X291.898 Y277.996
G01 X293.238 Y275.916
G01 X294.475 Y273.772
G01 X295.606 Y271.570
G01 X296.627 Y269.314
G01 X297.537 Y267.009
G01 X298.333 Y264.662
G01 X299.013 Y262.277
G01 X299.576 Y259.861
G01 X300.019 Y257.420
G01 X300.342 Y254.958
G01 X300.545 Y252.483
G01 X300.625 Y250.000
G01 X300.584 Y247.515
G01 X300.420 Y245.034
G01 X300.135 Y242.563
G01 X299.729 Y240.108
G01 X299.203 Y237.675
G01 X298.557 Y235.270
G01 X297.794 Y232.899
G01 X296.916 Y230.567
G01 X295.923 Y228.280
G01 X294.820 Y226.043
G01 X293.607 Y223.863
G01 X292.288 Y221.744
G01 X290.866 Y219.691
G01 X289.345 Y217.710
G01 X287.728 Y215.806
G01 X286.018 Y213.982
G01 X284.221 Y212.243
G01 X282.339 Y210.595
G01 X280.378 Y209.040
G01 X278.343 Y207.582
G01 X276.237 Y206.226
G01 X274.067 Y204.974
G01 X271.837 Y203.829
G01 X269.553 Y202.796
G01 X267.220 Y201.875
G01 X264.843 Y201.069
G01 X262.429 Y200.381
G01 X259.983 Y199.811
G01 X257.511 Y199.363
G01 X255.020 Y199.036
G01 X252.514 Y198.831
G01 X250.000 Y198.750
G01 X247.484 Y198.792
G01 X244.973 Y198.958
G01 X242.471 Y199.247
G01 X239.986 Y199.658
G01 X237.524 Y200.191
G01 X235.089 Y200.845
G01 X232.688 Y201.617
G01 X230.328 Y202.507
G01 X228.013 Y203.512
G01 X225.749 Y204.629
G01 X223.542 Y205.857
G01 X221.397 Y207.192
G01 X219.319 Y208.632
G01 X217.314 Y210.172
G01 X215.386 Y211.809
G01 X213.540 Y213.540
G01 X211.780 Y215.360
G01 X210.111 Y217.264
G01 X208.538 Y219.249
G01 X207.062 Y221.310
G01 X205.690 Y223.441
G01 X204.423 Y225.638
G01 X203.264 Y227.896
G01 X202.218 Y230.208
G01 X201.286 Y232.570
G01 X200.471 Y234.976
G01 X199.774 Y237.419
G01 X199.198 Y239.895
G01 X198.744 Y242.397
G01 X198.414 Y244.919
G01 X198.207 Y247.456
G01 X198.125 Y250.000
G01 X198.168 Y252.546
G01 X198.336 Y255.088
G01 X198.629 Y257.620
G01 X199.045 Y260.136
G01 X199.585 Y262.628
G01 X200.247 Y265.093
G01 X201.029 Y267.522
G01 X201.929 Y269.911
G01 X202.947 Y272.255
G01 X204.078 Y274.546
G01 X205.321 Y276.780
G01 X206.673 Y278.950
G01 X208.130 Y281.053
G01 X209.689 Y283.083
G01 X211.346 Y285.034
G01 X213.098 Y286.902
G01 X214.940 Y288.683
G01 X216.868 Y290.372
G01 X218.877 Y291.964
G01 X220.963 Y293.457
G01 X223.120 Y294.846
G01 X225.344 Y296.129
G01 X227.629 Y297.301
G01 X229.969 Y298.359
G01 X232.359 Y299.302
G01 X234.794 Y300.127
G01 X237.267 Y300.832
G01 X239.773 Y301.415
G01 X242.305 Y301.874
G01 X244.858 Y302.208
G01 X247.425 Y302.417
G01 X250.000 Y302.500
G01 X252.577 Y302.456
G01 X255.150 Y302.286
G01 X257.712 Y301.990
G01 X260.257 Y301.568
G01 X262.780 Y301.021
G01 X265.274 Y300.352
G01 X267.733 Y299.560
G01 X270.151 Y298.648
G01 X272.522 Y297.618
G01 X274.840 Y296.473
G01 X277.101 Y295.215
G01 X279.298 Y293.847
G01 X281.425 Y292.372
G01 X283.479 Y290.794
G01 X285.454 Y289.117
G01 X287.344 Y287.344
G01 X289.146 Y285.480
G01 X290.855 Y283.529
G01 X292.466 Y281.495
G01 X293.977 Y279.384
G01 X295.383 Y277.201
G01 X296.680 Y274.951
G01 X297.866 Y272.639
G01 X298.937 Y270.270
G01 X299.891 Y267.851
G01 X300.725 Y265.387
G01 X301.438 Y262.885
G01 X302.028 Y260.349
G01 X302.492 Y257.786
G01 X302.830 Y255.203
G01 X303.042 Y252.606
G01 X303.125 Y250.000
G01 X303.081 Y247.392
G01 X302.908 Y244.789
G01 X302.608 Y242.196
G01 X302.181 Y239.621
G01 X301.628 Y237.068
G01 X300.950 Y234.545
G01 X300.148 Y232.057
G01 X299.225 Y229.610
G01 X298.183 Y227.211
G01 X297.024 Y224.865
G01 X295.751 Y222.578
G01 X294.367 Y220.355
G01 X292.874 Y218.202
G01 X291.278 Y216.124
G01 X289.580 Y214.127
G01 X287.786 Y212.214
G01 X285.900 Y210.391
G01 X283.925 Y208.662
G01 X281.868 Y207.032
G01 X279.732 Y205.503
G01 X277.523 Y204.081
G01 X275.246 Y202.769
G01 X272.906 Y201.569
G01 X270.509 Y200.486
G01 X268.062 Y199.521
G01 X265.569 Y198.677
G01 X263.036 Y197.956
G01 X260.471 Y197.359
G01 X257.878 Y196.890
G01 X255.265 Y196.548
G01 X252.636 Y196.334
G01 X250.000 Y196.250
G01 X247.362 Y196.295
G01 X244.728 Y196.470
G01 X242.105 Y196.774
G01 X239.499 Y197.206
G01 X236.916 Y197.766
G01 X234.363 Y198.452
G01 X231.846 Y199.263
G01 X229.371 Y200.197
G01 X226.944 Y201.252
G01 X224.570 Y202.424
G01 X222.257 Y203.713
G01 X220.008 Y205.114
G01 X217.830 Y206.624
G01 X215.728 Y208.239
G01 X213.707 Y209.957
G01 X211.772 Y211.772
G01 X209.928 Y213.681
G01 X208.179 Y215.678
G01 X206.530 Y217.760
G01 X204.984 Y219.921
G01 X203.545 Y222.156
G01 X202.218 Y224.460
G01 X201.004 Y226.827
G01 X199.908 Y229.251
G01 X198.932 Y231.728
G01 X198.079 Y234.250
G01 X197.349 Y236.812
G01 X196.746 Y239.407
G01 X196.271 Y242.030
G01 X195.926 Y244.674
G01 X195.710 Y247.333
G01 X195.625 Y250.000
G01 X195.671 Y252.669
G01 X195.848 Y255.334
G01 X196.156 Y257.987
G01 X196.593 Y260.623
G01 X197.160 Y263.236
G01 X197.854 Y265.818
G01 X198.675 Y268.364
G01 X199.620 Y270.868
G01 X200.687 Y273.323
G01 X201.873 Y275.724
G01 X203.177 Y278.065
G01 X204.594 Y280.339
G01 X206.122 Y282.542
G01 X207.756 Y284.669
G01 X209.494 Y286.713
G01 X211.330 Y288.670
G01 X213.261 Y290.535
G01 X215.282 Y292.304
G01 X217.388 Y293.972
G01 X219.574 Y295.536
G01 X221.835 Y296.991
G01 X224.165 Y298.333
G01 X226.560 Y299.561
G01 X229.012 Y300.669
G01 X231.517 Y301.656
G01 X234.068 Y302.520
G01 X236.660 Y303.257
G01 X239.285 Y303.867
G01 X241.938 Y304.347
G01 X244.613 Y304.696
G01 X247.302 Y304.914
G01 X250.000 Y305.000
G01 X252.700 Y304.953
G01 X255.395 Y304.774
G01 X258.079 Y304.463
G01 X260.745 Y304.020
G01 X263.388 Y303.446
G01 X266.000 Y302.744
G01 X268.575 Y301.914
G01 X271.107 Y300.958
G01 X273.591 Y299.878
G01 X276.019 Y298.678
G01 X278.386 Y297.359
G01 X280.687 Y295.926
G01 X282.915 Y294.380
G01 X285.065 Y292.727
G01 X287.132 Y290.969
G01 X289.112 Y289.112
G01 X290.998 Y287.159
G01 X292.787 Y285.115
G01 X294.474 Y282.985
G01 X296.056 Y280.773
G01 X297.527 Y278.487
G01 X298.885 Y276.129
G01 X300.126 Y273.708
G01 X301.246 Y271.227
G01 X302.245 Y268.693
G01 X303.118 Y266.113
G01 X303.863 Y263.492
G01 X304.480 Y260.837
G01 X304.965 Y258.153
G01 X305.318 Y255.448
G01 X305.538 Y252.728
G01 X305.625 Y250.000
G01 X305.578 Y247.270
G01 X305.396 Y244.544
G01 X305.081 Y241.830
G01 X304.633 Y239.133
G01 X304.053 Y236.460
G01 X303.342 Y233.819
G01 X302.502 Y231.214
G01 X301.535 Y228.653
G01 X300.443 Y226.142
G01 X299.229 Y223.686
G01 X297.895 Y221.293
G01 X296.445 Y218.966
G01 X294.882 Y216.713
G01 X293.210 Y214.538
G01 X291.432 Y212.448
G01 X289.554 Y210.446
G01 X287.578 Y208.539
G01 X285.511 Y206.730
G01 X283.357 Y205.024
G01 X281.121 Y203.425
G01 X278.808 Y201.937
G01 X276.424 Y200.564
G01 X273.975 Y199.310
G01 X271.466 Y198.176
G01 X268.904 Y197.167
G01 X266.294 Y196.284
G01 X263.644 Y195.530
G01 X260.959 Y194.907
G01 X258.245 Y194.417
G01 X255.510 Y194.060
G01 X252.759 Y193.837
G01 X250.000 Y193.750
G01 X247.239 Y193.798
G01 X244.483 Y193.982
G01 X241.738 Y194.301
G01 X239.011 Y194.754
G01 X236.309 Y195.341
G01 X233.637 Y196.060
G01 X231.004 Y196.909
G01 X228.414 Y197.887
G01 X225.875 Y198.992
G01 X223.392 Y200.220
G01 X220.971 Y201.568
G01 X218.619 Y203.035
G01 X216.341 Y204.616
G01 X214.142 Y206.307
G01 X212.028 Y208.104
G01 X210.004 Y210.004
G01 X208.075 Y212.002
G01 X206.246 Y214.092
G01 X204.522 Y216.271
G01 X202.905 Y218.532
G01 X201.401 Y220.871
G01 X200.013 Y223.281
G01 X198.745 Y225.758
G01 X197.599 Y228.295
G01 X196.578 Y230.885
G01 X195.686 Y233.524
G01 X194.924 Y236.204
G01 X194.294 Y238.919
G01 X193.799 Y241.663
G01 X193.438 Y244.429
G01 X193.213 Y247.210
G01 X193.125 Y250.000
G01 X193.174 Y252.792
G01 X193.360 Y255.579
G01 X193.683 Y258.354
G01 X194.141 Y261.111
G01 X194.735 Y263.843
G01 X195.462 Y266.544
G01 X196.321 Y269.207
G01 X197.310 Y271.825
G01 X198.427 Y274.392
G01 X199.668 Y276.903
G01 X201.032 Y279.350
G01 X202.515 Y281.728
G01 X204.114 Y284.032
G01 X205.824 Y286.255
G01 X207.641 Y288.392
G01 X209.562 Y290.438
G01 X211.582 Y292.388
G01 X213.696 Y294.237
G01 X215.899 Y295.980
G01 X218.185 Y297.615
G01 X220.550 Y299.135
G01 X222.987 Y300.538
G01 X225.491 Y301.820
G01 X228.055 Y302.979
G01 X230.675 Y304.010
G01 X233.343 Y304.912
G01 X236.052 Y305.682
G01 X238.798 Y306.319
G01 X241.572 Y306.820
G01 X244.368 Y307.184
G01 X247.180 Y307.411
G01 X250.000 Y307.500
G01 X252.822 Y307.450
G01 X255.640 Y307.262
G01 X258.446 Y306.936
G01 X261.233 Y306.472
G01 X263.995 Y305.872
G01 X266.725 Y305.136
G01 X269.417 Y304.268
G01 X272.064 Y303.267
G01 X274.660 Y302.138
G01 X277.197 Y300.883
G01 X279.671 Y299.504
G01 X282.076 Y298.004
G01 X284.404 Y296.388
G01 X286.651 Y294.659
G01 X288.811 Y292.822
G01 X290.880 Y290.880
G01 X292.851 Y288.838
G01 X294.720 Y286.701
G01 X296.482 Y284.474
G01 X298.134 Y282.162
G01 X299.671 Y279.772
G01 X301.089 Y277.308
G01 X302.385 Y274.776
G01 X303.556 Y272.184
G01 X304.599 Y269.536
G01 X305.510 Y266.839
G01 X306.288 Y264.099
G01 X306.932 Y261.324
G01 X307.438 Y258.520
G01 X307.806 Y255.693
G01 X308.035 Y252.851
G01 X308.125 Y250.000
G01 X308.074 Y247.147
G01 X307.884 Y244.299
G01 X307.554 Y241.463
G01 X307.085 Y238.645
G01 X306.478 Y235.853
G01 X305.734 Y233.093
G01 X304.856 Y230.372
G01 X303.845 Y227.697
G01 X302.703 Y225.073
G01 X301.434 Y222.508
G01 X300.040 Y220.007
G01 X298.524 Y217.577
G01 X296.890 Y215.224
G01 X295.143 Y212.952
G01 X293.285 Y210.769
G01 X291.322 Y208.678
G01 X289.257 Y206.686
G01 X287.097 Y204.797
G01 X284.846 Y203.015
G01 X282.510 Y201.346
G01 X280.093 Y199.793
G01 X277.602 Y198.359
G01 X275.044 Y197.050
G01 X272.423 Y195.866
G01 X269.746 Y194.813
G01 X267.020 Y193.892
G01 X264.251 Y193.105
G01 X261.446 Y192.455
G01 X258.612 Y191.944
G01 X255.755 Y191.572
G01 X252.882 Y191.340
G01 X250.000 Y191.250
G01 X247.116 Y191.301
G01 X244.238 Y191.494
G01 X241.371 Y191.828
G01 X238.523 Y192.302
G01 X235.701 Y192.916
G01 X232.912 Y193.668
G01 X230.162 Y194.556
G01 X227.458 Y195.578
G01 X224.806 Y196.732
G01 X222.213 Y198.015
G01 X219.686 Y199.424
G01 X217.230 Y200.956
G01 X214.851 Y202.608
G01 X212.556 Y204.374
G01 X210.349 Y206.252
G01 X208.237 Y208.237
G01 X206.223 Y210.323
G01 X204.314 Y212.506
G01 X202.513 Y214.782
G01 X200.826 Y217.143
G01 X199.257 Y219.586
G01 X197.808 Y222.103
G01 X196.485 Y224.689
G01 X195.289 Y227.338
G01 X194.225 Y230.043
G01 X193.294 Y232.798
G01 X192.499 Y235.597
G01 X191.842 Y238.432
G01 X191.326 Y241.296
G01 X190.950 Y244.184
G01 X190.716 Y247.088
G01 X190.625 Y250.000
G01 X190.677 Y252.914
G01 X190.872 Y255.824
G01 X191.210 Y258.721
G01 X191.689 Y261.599
G01 X192.310 Y264.451
G01 X193.070 Y267.270
G01 X193.967 Y270.049
G01 X195.000 Y272.782
G01 X196.167 Y275.461
G01 X197.464 Y278.081
G01 X198.888 Y280.635
G01 X200.437 Y283.117
G01 X202.106 Y285.521
G01 X203.891 Y287.841
G01 X205.789 Y290.071
G01 X207.795 Y292.205
G01 X209.903 Y294.240
G01 X212.110 Y296.169
G01 X214.409 Y297.989
G01 X216.796 Y299.693
G01 X219.264 Y301.279
G01 X221.808 Y302.743
G01 X224.422 Y304.080
G01 X227.099 Y305.288
G01 X229.833 Y306.364
G01 X232.617 Y307.304
G01 X235.445 Y308.107
G01 X238.310 Y308.770
G01 X241.205 Y309.293
G01 X244.123 Y309.672
G01 X247.057 Y309.908
G01 X250.000 Y310.000
G01 X252.945 Y309.947
G01 X255.885 Y309.750
G01 X258.812 Y309.409
G01 X261.721 Y308.924
G01 X264.603 Y308.297
G01 X267.451 Y307.529
G01 X270.259 Y306.621
G01 X273.021 Y305.577
G01 X275.728 Y304.398
G01 X278.376 Y303.088
G01 X280.957 Y301.648
G01 X283.464 Y300.083
G01 X285.893 Y298.396
G01 X288.237 Y296.592
G01 X290.490 Y294.674
G01 X292.647 Y292.647
G01 X294.703 Y290.517
G01 X296.652 Y288.287
G01 X298.491 Y285.963
G01 X300.213 Y283.551
G01 X301.816 Y281.057
G01 X303.294 Y278.486
G01 X304.645 Y275.845
G01 X305.866 Y273.140
G01 X306.952 Y270.378
G01 X307.902 Y267.564
G01 X308.713 Y264.707
G01 X309.383 Y261.812
G01 X309.911 Y258.887
G01 X310.294 Y255.938
G01 X310.532 Y252.974
G01 X310.625 Y250.000
G01 X310.571 Y247.024
G01 X310.372 Y244.054
G01 X310.027 Y241.096
G01 X309.537 Y238.157
G01 X308.903 Y235.246
G01 X308.127 Y232.367
G01 X307.210 Y229.530
G01 X306.155 Y226.740
G01 X304.963 Y224.004
G01 X303.639 Y221.330
G01 X302.184 Y218.722
G01 X300.603 Y216.188
G01 X298.898 Y213.734
G01 X297.075 Y211.366
G01 X295.137 Y209.090
G01 X293.089 Y206.911
G01 X290.936 Y204.834
G01 X288.683 Y202.864
G01 X286.335 Y201.007
G01 X283.898 Y199.267
G01 X281.378 Y197.648
G01 X278.781 Y196.155
G01 X276.113 Y194.790
G01 X273.380 Y193.557
G01 X270.588 Y192.459
G01 X267.746 Y191.500
G01 X264.859 Y190.680
G01 X261.934 Y190.004
G01 X258.979 Y189.471
G01 X256.000 Y189.084
G01 X253.004 Y188.843
G01 X250.000 Y188.750
G01 X246.994 Y188.804
G01 X243.993 Y189.006
G01 X241.004 Y189.355
G01 X238.035 Y189.850
G01 X235.094 Y190.491
G01 X232.186 Y191.275
G01 X229.319 Y192.202
G01 X226.501 Y193.268
G01 X223.737 Y194.472
G01 X221.035 Y195.810
G01 X218.401 Y197.280
G01 X215.841 Y198.878
G01 X213.362 Y200.600
G01 X210.970 Y202.442
G01 X208.670 Y204.400
G01 X206.469 Y206.469
G01 X204.371 Y208.644
G01 X202.381 Y210.920
G01 X200.505 Y213.292
G01 X198.748 Y215.754
G01 X197.112 Y218.300
G01 X195.603 Y220.924
G01 X194.225 Y223.620
G01 X192.979 Y226.381
G01 X191.871 Y229.201
G01 X190.901 Y232.073
G01 X190.074 Y234.989
G01 X189.391 Y237.944
G01 X188.853 Y240.930
G01 X188.462 Y243.939
G01 X188.219 Y246.965
G01 X188.125 Y250.000
G01 X188.180 Y253.037
G01 X188.384 Y256.069
G01 X188.737 Y259.088
G01 X189.237 Y262.086
G01 X189.885 Y265.058
G01 X190.677 Y267.995
G01 X191.613 Y270.891
G01 X192.691 Y273.738
G01 X193.907 Y276.530
G01 X195.259 Y279.260
G01 X196.744 Y281.921
G01 X198.358 Y284.506
G01 X200.098 Y287.010
G01 X201.959 Y289.427
G01 X203.937 Y291.749
G01 X206.027 Y293.973
G01 X208.224 Y296.092
G01 X210.524 Y298.102
G01 X212.920 Y299.997
G01 X215.407 Y301.772
G01 X217.979 Y303.424
G01 X220.630 Y304.948
G01 X223.353 Y306.340
G01 X226.142 Y307.598
G01 X228.990 Y308.718
G01 X231.891 Y309.697
G01 X234.837 Y310.532
G01 X237.822 Y311.222
G01 X240.838 Y311.766
G01 X243.878 Y312.160
G01 X246.934 Y312.405
G01 X250.000 Y312.500
G01 X253.068 Y312.444
G01 X256.130 Y312.238
G01 X259.179 Y311.881
G01 X262.208 Y311.376
G01 X265.210 Y310.722
G01 X268.177 Y309.921
G01 X271.102 Y308.975
G01 X273.978 Y307.887
G01 X276.797 Y306.658
G01 X279.554 Y305.292
G01 X282.242 Y303.792
G01 X284.853 Y302.162
G01 X287.382 Y300.404
G01 X289.823 Y298.525
G01 X292.169 Y296.527
G01 X294.415 Y294.415
G01 X296.555 Y292.195
G01 X298.585 Y289.873
G01 X300.499 Y287.452
G01 X302.292 Y284.940
G01 X303.960 Y282.342
G01 X305.499 Y279.665
G01 X306.905 Y276.914
G01 X308.176 Y274.097
G01 X309.306 Y271.220
G01 X310.295 Y268.290
G01 X311.138 Y265.314
G01 X311.835 Y262.300
G01 X312.384 Y259.254
G01 X312.782 Y256.184
G01 X313.029 Y253.096
G01 X313.125 Y250.000
G01 X313.068 Y246.902
G01 X312.860 Y243.809
G01 X312.500 Y240.729
G01 X311.989 Y237.670
G01 X311.328 Y234.638
G01 X310.519 Y231.642
G01 X309.564 Y228.688
G01 X308.464 Y225.783
G01 X307.223 Y222.935
G01 X305.844 Y220.151
G01 X304.328 Y217.437
G01 X302.681 Y214.799
G01 X300.906 Y212.245
G01 X299.008 Y209.780
G01 X296.990 Y207.411
G01 X294.857 Y205.143
G01 X292.615 Y202.981
G01 X290.269 Y200.932
G01 X287.825 Y198.999
G01 X285.287 Y197.189
G01 X282.664 Y195.504
G01 X279.959 Y193.950
G01 X277.181 Y192.530
G01 X274.336 Y191.247
G01 X271.431 Y190.105
G01 X268.472 Y189.107
G01 X265.466 Y188.255
G01 X262.422 Y187.552
G01 X259.345 Y186.998
G01 X256.245 Y186.596
G01 X253.127 Y186.346
G01 X250.000 Y186.250
G01 X246.871 Y186.307
G01 X243.748 Y186.518
G01 X240.637 Y186.882
G01 X237.548 Y187.398
G01 X234.486 Y188.066
G01 X231.460 Y188.883
G01 X228.477 Y189.848
G01 X225.544 Y190.958
G01 X222.668 Y192.212
G01 X219.856 Y193.605
G01 X217.115 Y195.136
G01 X214.452 Y196.799
G01 X211.873 Y198.592
G01 X209.384 Y200.509
G01 X206.991 Y202.547
G01 X204.701 Y204.701
G01 X202.518 Y206.965
G01 X200.449 Y209.334
G01 X198.497 Y211.803
G01 X196.669 Y214.365
G01 X194.968 Y217.015
G01 X193.399 Y219.746
G01 X191.965 Y222.551
G01 X190.670 Y225.425
G01 X189.517 Y228.359
G01 X188.509 Y231.347
G01 X187.649 Y234.382
G01 X186.939 Y237.456
G01 X186.380 Y240.563
G01 X185.974 Y243.694
G01 X185.722 Y246.842
G01 X185.625 Y250.000
G01 X185.683 Y253.160
G01 X185.896 Y256.314
G01 X186.264 Y259.454
G01 X186.785 Y262.574
G01 X187.460 Y265.666
G01 X188.285 Y268.721
G01 X189.259 Y271.733
G01 X190.381 Y274.695
G01 X191.647 Y277.599
G01 X193.054 Y280.438
G01 X194.599 Y283.206
G01 X196.279 Y285.895
G01 X198.090 Y288.499
G01 X200.026 Y291.013
G01 X202.084 Y293.428
G01 X204.259 Y295.741
G01 X206.545 Y297.945
G01 X208.938 Y300.034
G01 X211.431 Y302.005
G01 X214.018 Y303.851
G01 X216.694 Y305.568
G01 X219.451 Y307.153
G01 X222.284 Y308.600
G01 X225.185 Y309.908
G01 X228.148 Y311.072
G01 X231.166 Y312.089
G01 X234.230 Y312.957
G01 X237.334 Y313.674
G01 X240.471 Y314.239
G01 X243.633 Y314.648
G01 X246.812 Y314.902
G01 X250.000 Y315.000
G01 X253.190 Y314.941
G01 X256.375 Y314.726
G01 X259.546 Y314.354
G01 X262.696 Y313.828
G01 X265.817 Y313.147
G01 X268.903 Y312.313
G01 X271.944 Y311.329
G01 X274.934 Y310.197
G01 X277.866 Y308.918
G01 X280.733 Y307.497
G01 X283.527 Y305.937
G01 X286.242 Y304.240
G01 X288.872 Y302.412
G01 X291.409 Y300.457
G01 X293.848 Y298.379
G01 X296.183 Y296.183
G01 X298.408 Y293.874
G01 X300.517 Y291.459
G01 X302.507 Y288.942
G01 X304.370 Y286.329
G01 X306.104 Y283.628
G01 X307.704 Y280.843
G01 X309.165 Y277.983
G01 X310.485 Y275.054
G01 X311.660 Y272.062
G01 X312.687 Y269.016
G01 X313.564 Y265.922
G01 X314.287 Y262.788
G01 X314.857 Y259.621
G01 X315.270 Y256.429
G01 X315.526 Y253.219
G01 X315.625 Y250.000
G01 X315.565 Y246.779
G01 X315.348 Y243.564
G01 X314.973 Y240.362
G01 X314.441 Y237.182
G01 X313.753 Y234.031
G01 X312.911 Y230.916
G01 X311.918 Y227.846
G01 X310.774 Y224.827
G01 X309.483 Y221.867
G01 X308.048 Y218.973
G01 X306.473 Y216.152
G01 X304.760 Y213.410
G01 X302.914 Y210.756
G01 X300.940 Y208.194
G01 X298.842 Y205.732
G01 X296.625 Y203.375
G01 X294.294 Y201.129
G01 X291.855 Y198.999
G01 X289.314 Y196.991
G01 X286.676 Y195.110
G01 X283.949 Y193.360
G01 X281.138 Y191.745
G01 X278.250 Y190.270
G01 X275.293 Y188.937
G01 X272.273 Y187.751
G01 X269.197 Y186.715
G01 X266.074 Y185.830
G01 X262.909 Y185.100
G01 X259.712 Y184.525
G01 X256.490 Y184.108
G01 X253.250 Y183.849
G01 X250.000 Y183.750
G01 X246.748 Y183.810
G01 X243.503 Y184.030
G01 X240.271 Y184.409
G01 X237.060 Y184.946
G01 X233.879 Y185.641
G01 X230.735 Y186.491
G01 X227.635 Y187.494
G01 X224.587 Y188.649
G01 X221.599 Y189.952
G01 X218.678 Y191.400
G01 X215.830 Y192.991
G01 X213.063 Y194.720
G01 X210.384 Y196.584
G01 X207.798 Y198.577
G01 X205.312 Y200.695
G01 X202.933 Y202.933
G01 X200.666 Y205.286
G01 X198.516 Y207.748
G01 X196.489 Y210.314
G01 X194.590 Y212.976
G01 X192.824 Y215.730
G01 X191.194 Y218.567
G01 X189.705 Y221.482
G01 X188.360 Y224.468
G01 X187.163 Y227.517
G01 X186.117 Y230.621
G01 X185.224 Y233.774
G01 X184.487 Y236.969
G01 X183.907 Y240.196
G01 X183.486 Y243.449
G01 X183.225 Y246.720
G01 X183.125 Y250.000
G01 X183.186 Y253.282
G01 X183.408 Y256.559
G01 X183.791 Y259.821
G01 X184.333 Y263.062
G01 X185.034 Y266.273
G01 X185.892 Y269.447
G01 X186.906 Y272.576
G01 X188.071 Y275.652
G01 X189.387 Y278.668
G01 X190.849 Y281.617
G01 X192.455 Y284.491
G01 X194.201 Y287.284
G01 X196.082 Y289.989
G01 X198.094 Y292.599
G01 X200.232 Y295.107
G01 X202.491 Y297.509
G01 X204.867 Y299.797
G01 X207.352 Y301.967
G01 X209.942 Y304.013
G01 X212.629 Y305.929
G01 X215.409 Y307.712
G01 X218.273 Y309.357
G01 X221.215 Y310.860
G01 X224.229 Y312.218
G01 X227.306 Y313.425
G01 X230.440 Y314.481
G01 X233.623 Y315.382
G01 X236.847 Y316.126
G01 X240.104 Y316.711
G01 X243.388 Y317.136
G01 X246.689 Y317.399
G01 X250.000 Y317.500
G01 X253.313 Y317.438
G01 X256.620 Y317.214
G01 X259.913 Y316.827
G01 X263.184 Y316.280
G01 X266.425 Y315.572
G01 X269.628 Y314.706
G01 X272.786 Y313.683
G01 X275.891 Y312.506
G01 X278.935 Y311.178
G01 X281.911 Y309.702
G01 X284.812 Y308.081
G01 X287.631 Y306.319
G01 X290.361 Y304.420
G01 X292.995 Y302.390
G01 X295.527 Y300.231
G01 X297.951 Y297.951
G01 X300.260 Y295.553
G01 X302.450 Y293.045
G01 X304.515 Y290.431
G01 X306.449 Y287.718
G01 X308.248 Y284.913
G01 X309.909 Y282.022
G01 X311.425 Y279.052
G01 X312.795 Y276.011
G01 X314.014 Y272.905
G01 X315.079 Y269.742
G01 X315.989 Y266.529
G01 X316.739 Y263.275
G01 X317.330 Y259.987
G01 X317.758 Y256.674
G01 X318.023 Y253.342
G01 X318.125 Y250.000
G01 X318.062 Y246.656
G01 X317.836 Y243.319
G01 X317.446 Y239.995
G01 X316.893 Y236.694
G01 X316.178 Y233.423
G01 X315.304 Y230.190
G01 X314.271 Y227.003
G01 X313.084 Y223.870
G01 X311.743 Y220.798
G01 X310.253 Y217.794
G01 X308.617 Y214.866
G01 X306.839 Y212.022
G01 X304.922 Y209.267
G01 X302.873 Y206.608
G01 X300.694 Y204.053
G01 X298.393 Y201.607
G01 X295.973 Y199.277
G01 X293.441 Y197.067
G01 X290.803 Y194.983
G01 X288.065 Y193.031
G01 X285.234 Y191.215
G01 X282.316 Y189.540
G01 X279.319 Y188.010
G01 X276.250 Y186.628
G01 X273.115 Y185.398
G01 X269.923 Y184.322
G01 X266.681 Y183.405
G01 X263.397 Y182.648
G01 X260.079 Y182.052
G01 X256.735 Y181.620
G01 X253.372 Y181.352
G01 X250.000 Y181.250
G01 X246.626 Y181.313
G01 X243.257 Y181.542
G01 X239.904 Y181.936
G01 X236.572 Y182.494
G01 X233.271 Y183.216
G01 X230.009 Y184.098
G01 X226.793 Y185.140
G01 X223.631 Y186.339
G01 X220.530 Y187.692
G01 X217.499 Y189.196
G01 X214.545 Y190.847
G01 X211.674 Y192.642
G01 X208.894 Y194.576
G01 X206.212 Y196.644
G01 X203.634 Y198.843
G01 X201.165 Y201.165
G01 X198.814 Y203.607
G01 X196.584 Y206.162
G01 X194.481 Y208.825
G01 X192.512 Y211.588
G01 X190.679 Y214.445
G01 X188.989 Y217.389
G01 X187.445 Y220.414
G01 X186.050 Y223.511
G01 X184.809 Y226.674
G01 X183.724 Y229.896
G01 X182.799 Y233.167
G01 X182.035 Y236.481
G01 X181.434 Y239.829
G01 X180.998 Y243.204
G01 X180.728 Y246.597
G01 X180.625 Y250.000
G01 X180.689 Y253.405
G01 X180.920 Y256.804
G01 X181.318 Y260.188
G01 X181.881 Y263.550
G01 X182.609 Y266.880
G01 X183.500 Y270.173
G01 X184.552 Y273.418
G01 X185.762 Y276.608
G01 X187.127 Y279.737
G01 X188.644 Y282.795
G01 X190.311 Y285.776
G01 X192.122 Y288.673
G01 X194.074 Y291.478
G01 X196.161 Y294.185
G01 X198.379 Y296.786
G01 X200.723 Y299.277
G01 X203.188 Y301.650
G01 X205.766 Y303.899
G01 X208.452 Y306.021
G01 X211.240 Y308.008
G01 X214.123 Y309.857
G01 X217.094 Y311.562
G01 X220.146 Y313.120
G01 X223.272 Y314.527
G01 X226.464 Y315.779
G01 X229.714 Y316.874
G01 X233.015 Y317.807
G01 X236.359 Y318.578
G01 X239.737 Y319.184
G01 X243.143 Y319.624
G01 X246.566 Y319.896
G01 X250.000 Y320.000
G01 X253.436 Y319.935
G01 X256.865 Y319.702
G01 X260.280 Y319.300
G01 X263.672 Y318.732
G01 X267.032 Y317.997
G01 X270.354 Y317.098
G01 X273.628 Y316.037
G01 X276.848 Y314.816
G01 X280.004 Y313.438
G01 X283.090 Y311.907
G01 X286.098 Y310.225
G01 X289.020 Y308.398
G01 X291.850 Y306.428
G01 X294.581 Y304.322
G01 X297.206 Y302.084
G01 X299.718 Y299.718
G01 X302.113 Y297.232
G01 X304.382 Y294.631
G01 X306.523 Y291.920
G01 X308.528 Y289.107
G01 X310.393 Y286.198
G01 X312.113 Y283.200
G01 X313.685 Y280.121
G01 X315.105 Y276.967
G01 X316.368 Y273.747
G01 X317.472 Y270.467
G01 X318.414 Y267.137
G01 X319.191 Y263.763
G01 X319.803 Y260.354
G01 X320.246 Y256.919
G01 X320.520 Y253.464
G01 X320.625 Y250.000
G01 X320.559 Y246.534
G01 X320.324 Y243.074
G01 X319.919 Y239.629
G01 X319.345 Y236.207
G01 X318.603 Y232.816
G01 X317.696 Y229.465
G01 X316.625 Y226.161
G01 X315.393 Y222.913
G01 X314.003 Y219.729
G01 X312.458 Y216.616
G01 X310.761 Y213.581
G01 X308.917 Y210.633
G01 X306.930 Y207.777
G01 X304.805 Y205.023
G01 X302.547 Y202.374
G01 X300.160 Y199.840
G01 X297.652 Y197.424
G01 X295.027 Y195.134
G01 X292.292 Y192.975
G01 X289.454 Y190.953
G01 X286.519 Y189.071
G01 X283.495 Y187.335
G01 X280.388 Y185.750
G01 X277.206 Y184.318
G01 X273.957 Y183.044
G01 X270.649 Y181.930
G01 X267.289 Y180.980
G01 X263.885 Y180.196
G01 X260.446 Y179.579
G01 X256.980 Y179.132
G01 X253.495 Y178.855
G01 X250.000 Y178.750
G01 X246.503 Y178.816
G01 X243.012 Y179.054
G01 X239.537 Y179.463
G01 X236.085 Y180.042
G01 X232.664 Y180.791
G01 X229.283 Y181.706
G01 X225.951 Y182.786
G01 X222.674 Y184.029
G01 X219.462 Y185.432
G01 X216.321 Y186.991
G01 X213.260 Y188.703
G01 X210.285 Y190.563
G01 X207.405 Y192.568
G01 X204.626 Y194.712
G01 X201.955 Y196.990
G01 X199.398 Y199.398
G01 X196.961 Y201.928
G01 X194.651 Y204.576
G01 X192.473 Y207.335
G01 X190.433 Y210.199
G01 X188.535 Y213.159
G01 X186.784 Y216.210
G01 X185.185 Y219.345
G01 X183.741 Y222.554
G01 X182.455 Y225.832
G01 X181.332 Y229.170
G01 X180.374 Y232.560
G01 X179.583 Y235.993
G01 X178.961 Y239.462
G01 X178.510 Y242.959
G01 X178.231 Y246.474
G01 X178.125 Y250.000
G01 X178.192 Y253.528
G01 X178.432 Y257.049
G01 X178.845 Y260.555
G01 X179.429 Y264.037
G01 X180.184 Y267.488
G01 X181.108 Y270.898
G01 X182.198 Y274.260
G01 X183.452 Y277.565
G01 X184.867 Y280.806
G01 X186.440 Y283.974
G01 X188.166 Y287.062
G01 X190.043 Y290.062
G01 X192.066 Y292.967
G01 X194.229 Y295.770
G01 X196.527 Y298.465
G01 X198.956 Y301.044
G01 X201.509 Y303.502
G01 X204.180 Y305.832
G01 X206.963 Y308.029
G01 X209.851 Y310.087
G01 X212.838 Y312.001
G01 X215.916 Y313.767
G01 X219.077 Y315.380
G01 X222.315 Y316.837
G01 X225.622 Y318.133
G01 X228.988 Y319.266
G01 X232.408 Y320.233
G01 X235.871 Y321.030
G01 X239.371 Y321.657
G01 X242.898 Y322.112
G01 X246.444 Y322.393
G01 X250.000 Y322.500
G01 X253.558 Y322.432
G01 X257.110 Y322.190
G01 X260.647 Y321.773
G01 X264.159 Y321.184
G01 X267.640 Y320.422
G01 X271.080 Y319.490
G01 X274.471 Y318.391
G01 X277.804 Y317.126
G01 X281.073 Y315.698
G01 X284.268 Y314.112
G01 X287.383 Y312.370
G01 X290.409 Y310.476
G01 X293.339 Y308.436
G01 X296.167 Y306.255
G01 X298.885 Y303.936
G01 X301.486 Y301.486
G01 X303.965 Y298.911
G01 X306.315 Y296.217
G01 X308.531 Y293.409
G01 X310.606 Y290.496
G01 X312.537 Y287.483
G01 X314.318 Y284.379
G01 X315.945 Y281.190
G01 X317.414 Y277.924
G01 X318.722 Y274.589
G01 X319.864 Y271.193
G01 X320.839 Y267.744
G01 X321.643 Y264.251
G01 X322.276 Y260.721
G01 X322.734 Y257.164
G01 X323.017 Y253.587
G01 X323.125 Y250.000
G01 X323.056 Y246.411
G01 X322.812 Y242.829
G01 X322.391 Y239.262
G01 X321.797 Y235.719
G01 X321.028 Y232.208
G01 X320.088 Y228.739
G01 X318.979 Y225.319
G01 X317.703 Y221.956
G01 X316.263 Y218.660
G01 X314.663 Y215.437
G01 X312.906 Y212.296
G01 X310.996 Y209.244
G01 X308.938 Y206.288
G01 X306.738 Y203.437
G01 X304.399 Y200.696
G01 X301.928 Y198.072
G01 X299.331 Y195.572
G01 X296.613 Y193.202
G01 X293.782 Y190.967
G01 X290.843 Y188.874
G01 X287.805 Y186.927
G01 X284.673 Y185.131
G01 X281.457 Y183.490
G01 X278.163 Y182.008
G01 X274.800 Y180.690
G01 X271.374 Y179.538
G01 X267.896 Y178.555
G01 X264.373 Y177.744
G01 X260.813 Y177.106
G01 X257.225 Y176.644
G01 X253.618 Y176.358
G01 X250.000 Y176.250
G01 X246.380 Y176.319
G01 X242.767 Y176.566
G01 X239.170 Y176.990
G01 X235.597 Y177.590
G01 X232.056 Y178.365
G01 X228.557 Y179.314
G01 X225.108 Y180.432
G01 X221.717 Y181.720
G01 X218.393 Y183.172
G01 X215.142 Y184.786
G01 X211.974 Y186.558
G01 X208.896 Y188.484
G01 X205.916 Y190.560
G01 X203.040 Y192.779
G01 X200.276 Y195.138
G01 X197.630 Y197.630
G01 X195.109 Y200.250
G01 X192.719 Y202.990
G01 X190.465 Y205.846
G01 X188.354 Y208.810
G01 X186.391 Y211.874
G01 X184.579 Y215.032
G01 X182.925 Y218.276
G01 X181.431 Y221.598
G01 X180.101 Y224.990
G01 X178.940 Y228.444
G01 X177.949 Y231.952
G01 X177.131 Y235.505
G01 X176.488 Y239.096
G01 X176.022 Y242.714
G01 X175.734 Y246.352
G01 X175.625 Y250.000
G01 X175.695 Y253.650
G01 X175.944 Y257.294
G01 X176.372 Y260.922
G01 X176.977 Y264.525
G01 X177.759 Y268.095
G01 X178.715 Y271.624
G01 X179.844 Y275.102
G01 X181.142 Y278.522
G01 X182.607 Y281.875
G01 X184.235 Y285.152
G01 X186.022 Y288.347
G01 X187.965 Y291.451
G01 X190.058 Y294.456
G01 X192.296 Y297.356
G01 X194.675 Y300.144
G01 X197.188 Y302.812
G01 X199.830 Y305.354
G01 X202.594 Y307.764
G01 X205.474 Y310.037
G01 X208.462 Y312.165
G01 X211.553 Y314.145
G01 X214.737 Y315.972
G01 X218.009 Y317.640
G01 X221.359 Y319.147
G01 X224.779 Y320.487
G01 X228.263 Y321.658
G01 X231.800 Y322.658
G01 X235.383 Y323.482
G01 X239.004 Y324.130
G01 X242.653 Y324.600
G01 X246.321 Y324.890
G01 X250.000 Y325.000
G01 X253.681 Y324.929
G01 X257.355 Y324.678
G01 X261.013 Y324.246
G01 X264.647 Y323.636
G01 X268.247 Y322.847
G01 X271.805 Y321.883
G01 X275.313 Y320.745
G01 X278.761 Y319.435
G01 X282.142 Y317.958
G01 X285.447 Y316.316
G01 X288.668 Y314.514
G01 X291.798 Y312.555
G01 X294.829 Y310.445
G01 X297.753 Y308.187
G01 X300.564 Y305.788
G01 X303.254 Y303.254
G01 X305.817 Y300.590
G01 X308.248 Y297.803
G01 X310.539 Y294.899
G01 X312.685 Y291.885
G01 X314.681 Y288.769
G01 X316.523 Y285.557
G01 X318.205 Y282.259
G01 X319.724 Y278.881
G01 X321.076 Y275.431
G01 X322.256 Y271.919
G01 X323.264 Y268.352
G01 X324.095 Y264.738
G01 X324.749 Y261.088
G01 X325.222 Y257.409
G01 X325.514 Y253.710
G01 X325.625 Y250.000
G01 X325.553 Y246.288
G01 X325.300 Y242.584
G01 X324.864 Y238.895
G01 X324.249 Y235.231
G01 X323.453 Y231.601
G01 X322.481 Y228.013
G01 X321.333 Y224.477
G01 X320.013 Y221.000
G01 X318.523 Y217.591
G01 X316.868 Y214.259
G01 X315.050 Y211.011
G01 X313.075 Y207.855
G01 X310.947 Y204.799
G01 X308.670 Y201.851
G01 X306.252 Y199.017
G01 X303.696 Y196.304
G01 X301.010 Y193.720
G01 X298.199 Y191.269
G01 X295.271 Y188.959
G01 X292.232 Y186.795
G01 X289.090 Y184.782
G01 X285.852 Y182.926
G01 X282.526 Y181.230
G01 X279.120 Y179.699
G01 X275.642 Y178.336
G01 X272.100 Y177.145
G01 X268.504 Y176.130
G01 X264.860 Y175.292
G01 X261.180 Y174.633
G01 X257.470 Y174.156
G01 X253.740 Y173.861
G01 X250.000 Y173.750
G01 X246.258 Y173.822
G01 X242.522 Y174.078
G01 X238.803 Y174.517
G01 X235.109 Y175.138
G01 X231.449 Y175.940
G01 X227.832 Y176.921
G01 X224.266 Y178.079
G01 X220.761 Y179.410
G01 X217.324 Y180.912
G01 X213.964 Y182.581
G01 X210.689 Y184.414
G01 X207.508 Y186.406
G01 X204.427 Y188.551
G01 X201.454 Y190.847
G01 X198.597 Y193.285
G01 X195.862 Y195.862
G01 X193.256 Y198.571
G01 X190.786 Y201.404
G01 X188.457 Y204.357
G01 X186.276 Y207.421
G01 X184.246 Y210.589
G01 X182.375 Y213.853
G01 X180.665 Y217.207
G01 X179.121 Y220.641
G01 X177.748 Y224.148
G01 X176.547 Y227.718
G01 X175.524 Y231.345
G01 X174.679 Y235.018
G01 X174.015 Y238.729
G01 X173.534 Y242.469
G01 X173.237 Y246.229
G01 X173.125 Y250.000
G01 X173.198 Y253.773
G01 X173.456 Y257.539
G01 X173.899 Y261.289
G01 X174.526 Y265.013
G01 X175.334 Y268.703
G01 X176.323 Y272.350
G01 X177.490 Y275.944
G01 X178.832 Y279.479
G01 X180.347 Y282.943
G01 X182.030 Y286.331
G01 X183.878 Y289.632
G01 X185.886 Y292.840
G01 X188.049 Y295.946
G01 X190.363 Y298.942
G01 X192.822 Y301.823
G01 X195.420 Y304.580
G01 X198.151 Y307.207
G01 X201.008 Y309.697
G01 X203.985 Y312.045
G01 X207.074 Y314.244
G01 X210.267 Y316.290
G01 X213.559 Y318.177
G01 X216.940 Y319.900
G01 X220.402 Y321.456
G01 X223.937 Y322.841
G01 X227.537 Y324.051
G01 X231.193 Y325.083
G01 X234.896 Y325.934
G01 X238.637 Y326.603
G01 X242.408 Y327.088
G01 X246.198 Y327.387
G01 X250.000 Y327.500
G01 X253.804 Y327.426
G01 X257.600 Y327.166
G01 X261.380 Y326.719
G01 X265.135 Y326.087
G01 X268.855 Y325.272
G01 X272.531 Y324.275
G01 X276.155 Y323.098
G01 X279.718 Y321.745
G01 X283.211 Y320.218
G01 X286.625 Y318.521
G01 X289.953 Y316.658
G01 X293.187 Y314.634
G01 X296.318 Y312.453
G01 X299.339 Y310.120
G01 X302.243 Y307.641
G01 X305.022 Y305.022
G01 X307.670 Y302.269
G01 X310.180 Y299.389
G01 X312.547 Y296.388
G01 X314.764 Y293.274
G01 X316.826 Y290.054
G01 X318.728 Y286.736
G01 X320.465 Y283.328
G01 X322.034 Y279.837
G01 X323.429 Y276.273
G01 X324.649 Y272.644
G01 X325.689 Y268.959
G01 X326.547 Y265.226
G01 X327.221 Y261.455
G01 X327.710 Y257.654
G01 X328.011 Y253.832
G01 X328.125 Y250.000
G01 X328.050 Y246.166
G01 X327.788 Y242.339
G01 X327.337 Y238.528
G01 X326.700 Y234.743
G01 X325.878 Y230.993
G01 X324.873 Y227.287
G01 X323.687 Y223.634
G01 X322.322 Y220.043
G01 X320.783 Y216.522
G01 X319.072 Y213.080
G01 X317.194 Y209.725
G01 X315.153 Y206.466
G01 X312.955 Y203.310
G01 X310.603 Y200.265
G01 X308.104 Y197.338
G01 X305.464 Y194.536
G01 X302.689 Y191.867
G01 X299.785 Y189.337
G01 X296.760 Y186.951
G01 X293.621 Y184.717
G01 X290.375 Y182.638
G01 X287.030 Y180.721
G01 X283.595 Y178.970
G01 X280.077 Y177.389
G01 X276.484 Y175.982
G01 X272.826 Y174.753
G01 X269.111 Y173.705
G01 X265.348 Y172.840
G01 X261.546 Y172.160
G01 X257.715 Y171.668
G01 X253.863 Y171.364
G01 X250.000 Y171.250
G01 X246.135 Y171.325
G01 X242.277 Y171.590
G01 X238.436 Y172.044
G01 X234.621 Y172.687
G01 X230.842 Y173.515
G01 X227.106 Y174.529
G01 X223.424 Y175.725
G01 X219.804 Y177.100
G01 X216.255 Y178.652
G01 X212.785 Y180.376
G01 X209.404 Y182.270
G01 X206.119 Y184.327
G01 X202.937 Y186.543
G01 X199.868 Y188.914
G01 X196.918 Y191.433
G01 X194.094 Y194.094
G01 X191.404 Y196.892
G01 X188.854 Y199.818
G01 X186.449 Y202.868
G01 X184.197 Y206.032
G01 X182.102 Y209.304
G01 X180.170 Y212.675
G01 X178.405 Y216.138
G01 X176.811 Y219.684
G01 X175.394 Y223.305
G01 X174.155 Y226.993
G01 X173.098 Y230.737
G01 X172.227 Y234.530
G01 X171.542 Y238.362
G01 X171.046 Y242.224
G01 X170.740 Y246.106
G01 X170.625 Y250.000
G01 X170.701 Y253.896
G01 X170.968 Y257.784
G01 X171.426 Y261.655
G01 X172.074 Y265.501
G01 X172.909 Y269.310
G01 X173.931 Y273.075
G01 X175.136 Y276.787
G01 X176.523 Y280.435
G01 X178.087 Y284.012
G01 X179.825 Y287.509
G01 X181.734 Y290.917
G01 X183.807 Y294.229
G01 X186.041 Y297.435
G01 X188.431 Y300.528
G01 X190.970 Y303.502
G01 X193.652 Y306.348
G01 X196.472 Y309.059
G01 X199.422 Y311.629
G01 X202.495 Y314.053
G01 X205.685 Y316.323
G01 X208.982 Y318.434
G01 X212.380 Y320.381
G01 X215.871 Y322.160
G01 X219.445 Y323.766
G01 X223.095 Y325.195
G01 X226.811 Y326.443
G01 X230.585 Y327.508
G01 X234.408 Y328.386
G01 X238.270 Y329.076
G01 X242.162 Y329.576
G01 X246.076 Y329.884
G01 X250.000 Y330.000
G01 X253.926 Y329.923
G01 X257.845 Y329.654
G01 X261.747 Y329.192
G01 X265.622 Y328.539
G01 X269.462 Y327.697
G01 X273.257 Y326.667
G01 X276.997 Y325.452
G01 X280.674 Y324.055
G01 X284.280 Y322.478
G01 X287.804 Y320.726
G01 X291.239 Y318.803
G01 X294.576 Y316.712
G01 X297.807 Y314.461
G01 X300.925 Y312.052
G01 X303.921 Y309.493
G01 X306.790 Y306.790
G01 X309.522 Y303.948
G01 X312.113 Y300.974
G01 X314.555 Y297.877
G01 X316.842 Y294.663
G01 X318.970 Y291.339
G01 X320.933 Y287.914
G01 X322.725 Y284.396
G01 X324.343 Y280.794
G01 X325.783 Y277.116
G01 X327.041 Y273.370
G01 X328.114 Y269.567
G01 X328.999 Y265.714
G01 X329.694 Y261.822
G01 X330.198 Y257.899
G01 X330.508 Y253.955
G01 X330.625 Y250.000
G01 X330.547 Y246.043
G01 X330.276 Y242.094
G01 X329.810 Y238.161
G01 X329.152 Y234.256
G01 X328.303 Y230.386
G01 X327.265 Y226.562
G01 X326.041 Y222.792
G01 X324.632 Y219.086
G01 X323.043 Y215.453
G01 X321.277 Y211.902
G01 X319.339 Y208.440
G01 X317.232 Y205.077
G01 X314.963 Y201.820
G01 X312.535 Y198.679
G01 X309.956 Y195.659
G01 X307.231 Y192.769
G01 X304.367 Y190.015
G01 X301.371 Y187.404
G01 X298.249 Y184.943
G01 X295.010 Y182.638
G01 X291.660 Y180.494
G01 X288.209 Y178.516
G01 X284.664 Y176.710
G01 X281.033 Y175.079
G01 X277.326 Y173.628
G01 X273.552 Y172.361
G01 X269.718 Y171.280
G01 X265.836 Y170.388
G01 X261.913 Y169.687
G01 X257.960 Y169.180
G01 X253.986 Y168.867
G01 X250.000 Y168.750
G01 X246.012 Y168.828
G01 X242.032 Y169.102
G01 X238.070 Y169.571
G01 X234.134 Y170.235
G01 X230.234 Y171.090
G01 X226.380 Y172.136
G01 X222.582 Y173.371
G01 X218.847 Y174.790
G01 X215.186 Y176.392
G01 X211.607 Y178.172
G01 X208.119 Y180.125
G01 X204.730 Y182.248
G01 X201.448 Y184.535
G01 X198.282 Y186.982
G01 X195.239 Y189.581
G01 X192.327 Y192.327
G01 X189.552 Y195.213
G01 X186.921 Y198.233
G01 X184.441 Y201.378
G01 X182.118 Y204.643
G01 X179.958 Y208.018
G01 X177.965 Y211.496
G01 X176.145 Y215.069
G01 X174.502 Y218.728
G01 X173.040 Y222.463
G01 X171.763 Y226.267
G01 X170.673 Y230.130
G01 X169.775 Y234.042
G01 X169.069 Y237.995
G01 X168.558 Y241.979
G01 X168.243 Y245.984
G01 X168.125 Y250.000
G01 X168.204 Y254.018
G01 X168.480 Y258.029
G01 X168.953 Y262.022
G01 X169.622 Y265.988
G01 X170.484 Y269.918
G01 X171.538 Y273.801
G01 X172.782 Y277.629
G01 X174.213 Y281.392
G01 X175.827 Y285.081
G01 X177.620 Y288.688
G01 X179.589 Y292.203
G01 X181.729 Y295.618
G01 X184.033 Y298.924
G01 X186.498 Y302.114
G01 X189.118 Y305.181
G01 X191.885 Y308.115
G01 X194.793 Y310.911
G01 X197.836 Y313.562
G01 X201.006 Y316.061
G01 X204.296 Y318.401
G01 X207.697 Y320.578
G01 X211.202 Y322.586
G01 X214.802 Y324.420
G01 X218.488 Y326.076
G01 X222.253 Y327.549
G01 X226.086 Y328.835
G01 X229.978 Y329.933
G01 X233.920 Y330.838
G01 X237.903 Y331.549
G01 X241.917 Y332.064
G01 X245.953 Y332.381
G01 X250.000 Y332.500
G01 X254.049 Y332.420
G01 X258.090 Y332.142
G01 X262.114 Y331.665
G01 X266.110 Y330.991
G01 X270.070 Y330.122
G01 X273.983 Y329.060
G01 X277.839 Y327.806
G01 X281.631 Y326.364
G01 X285.348 Y324.738
G01 X288.982 Y322.931
G01 X292.524 Y320.947
G01 X295.965 Y318.791
G01 X299.296 Y316.469
G01 X302.511 Y313.985
G01 X305.600 Y311.346
G01 X308.557 Y308.557
G01 X311.374 Y305.627
G01 X314.045 Y302.560
G01 X316.563 Y299.366
G01 X318.921 Y296.052
G01 X321.114 Y292.624
G01 X323.137 Y289.093
G01 X324.985 Y285.465
G01 X326.653 Y281.751
G01 X328.137 Y277.958
G01 X329.434 Y274.096
G01 X330.539 Y270.174
G01 X331.451 Y266.202
G01 X332.167 Y262.188
G01 X332.686 Y258.144
G01 X333.005 Y254.078
G01 X333.125 Y250.000
G01 X333.044 Y245.920
G01 X332.764 Y241.848
G01 X332.283 Y237.794
G01 X331.604 Y233.768
G01 X330.729 Y229.779
G01 X329.658 Y225.836
G01 X328.395 Y221.950
G01 X326.942 Y218.130
G01 X325.303 Y214.384
G01 X323.482 Y210.723
G01 X321.483 Y207.155
G01 X319.311 Y203.688
G01 X316.971 Y200.331
G01 X314.468 Y197.093
G01 X311.809 Y193.980
G01 X308.999 Y191.001
G01 X306.046 Y188.162
G01 X302.957 Y185.472
G01 X299.739 Y182.935
G01 X296.399 Y180.559
G01 X292.946 Y178.350
G01 X289.387 Y176.311
G01 X285.733 Y174.450
G01 X281.990 Y172.769
G01 X278.168 Y171.274
G01 X274.277 Y169.968
G01 X270.326 Y168.855
G01 X266.324 Y167.936
G01 X262.280 Y167.214
G01 X258.205 Y166.692
G01 X254.108 Y166.370
G01 X250.000 Y166.250
G01 X245.890 Y166.331
G01 X241.787 Y166.614
G01 X237.703 Y167.099
G01 X233.646 Y167.783
G01 X229.627 Y168.665
G01 X225.655 Y169.744
G01 X221.739 Y171.017
G01 X217.890 Y172.481
G01 X214.117 Y174.132
G01 X210.428 Y175.967
G01 X206.833 Y177.981
G01 X203.341 Y180.170
G01 X199.959 Y182.527
G01 X196.696 Y185.049
G01 X193.560 Y187.728
G01 X190.559 Y190.559
G01 X187.699 Y193.534
G01 X184.989 Y196.647
G01 X182.433 Y199.889
G01 X180.040 Y203.254
G01 X177.813 Y206.733
G01 X175.760 Y210.318
G01 X173.885 Y214.000
G01 X172.192 Y217.771
G01 X170.686 Y221.621
G01 X169.370 Y225.541
G01 X168.248 Y229.522
G01 X167.323 Y233.554
G01 X166.596 Y237.628
G01 X166.070 Y241.734
G01 X165.746 Y245.861
G01 X165.625 Y250.000
G01 X165.707 Y254.141
G01 X165.992 Y258.274
G01 X166.480 Y262.389
G01 X167.170 Y266.476
G01 X168.059 Y270.525
G01 X169.146 Y274.527
G01 X170.428 Y278.471
G01 X171.903 Y282.349
G01 X173.567 Y286.150
G01 X175.416 Y289.866
G01 X177.445 Y293.488
G01 X179.650 Y297.006
G01 X182.025 Y300.413
G01 X184.566 Y303.700
G01 X187.265 Y306.860
G01 X190.117 Y309.883
G01 X193.114 Y312.764
G01 X196.250 Y315.495
G01 X199.517 Y318.069
G01 X202.907 Y320.480
G01 X206.412 Y322.723
G01 X210.023 Y324.791
G01 X213.733 Y326.680
G01 X217.532 Y328.385
G01 X221.410 Y329.903
G01 X225.360 Y331.228
G01 X229.370 Y332.358
G01 X233.433 Y333.290
G01 X237.537 Y334.022
G01 X241.672 Y334.552
G01 X245.830 Y334.878
G01 X250.000 Y335.000
G01 X254.172 Y334.917
G01 X258.335 Y334.630
G01 X262.481 Y334.138
G01 X266.598 Y333.443
G01 X270.677 Y332.547
G01 X274.708 Y331.452
G01 X278.682 Y330.160
G01 X282.588 Y328.674
G01 X286.417 Y326.998
G01 X290.161 Y325.136
G01 X293.809 Y323.091
G01 X297.354 Y320.870
G01 X300.786 Y318.477
G01 X304.097 Y315.917
G01 X307.279 Y313.198
G01 X310.325 Y310.325
G01 X313.227 Y307.305
G01 X315.978 Y304.146
G01 X318.571 Y300.856
G01 X321.000 Y297.440
G01 X323.259 Y293.910
G01 X325.342 Y290.271
G01 X327.245 Y286.534
G01 X328.963 Y282.707
G01 X330.491 Y278.800
G01 X331.826 Y274.822
G01 X332.964 Y270.781
G01 X333.903 Y266.689
G01 X334.640 Y262.555
G01 X335.174 Y258.389
G01 X335.502 Y254.200
G01 X335.625 Y250.000
G01 X335.541 Y245.798
G01 X335.252 Y241.603
G01 X334.756 Y237.428
G01 X334.056 Y233.280
G01 X333.154 Y229.171
G01 X332.050 Y225.110
G01 X330.748 Y221.108
G01 X329.252 Y217.173
G01 X327.563 Y213.315
G01 X325.687 Y209.545
G01 X323.627 Y205.870
G01 X321.389 Y202.299
G01 X318.979 Y198.842
G01 X316.400 Y195.507
G01 X313.661 Y192.301
G01 X310.767 Y189.233
G01 X307.725 Y186.310
G01 X304.543 Y183.539
G01 X301.228 Y180.927
G01 X297.788 Y178.481
G01 X294.231 Y176.205
G01 X290.566 Y174.107
G01 X286.801 Y172.190
G01 X282.947 Y170.460
G01 X279.011 Y168.921
G01 X275.003 Y167.576
G01 X270.933 Y166.430
G01 X266.811 Y165.484
G01 X262.647 Y164.741
G01 X258.450 Y164.204
G01 X254.231 Y163.873
G01 X250.000 Y163.750
G01 X245.767 Y163.834
G01 X241.542 Y164.126
G01 X237.336 Y164.626
G01 X233.158 Y165.331
G01 X229.019 Y166.240
G01 X224.929 Y167.352
G01 X220.897 Y168.663
G01 X216.934 Y170.171
G01 X213.048 Y171.872
G01 X209.250 Y173.762
G01 X205.548 Y175.837
G01 X201.952 Y178.091
G01 X198.470 Y180.519
G01 X195.110 Y183.116
G01 X191.881 Y185.876
G01 X188.791 Y188.791
G01 X185.847 Y191.855
G01 X183.056 Y195.061
G01 X180.425 Y198.400
G01 X177.961 Y201.865
G01 X175.669 Y205.448
G01 X173.555 Y209.139
G01 X171.625 Y212.931
G01 X169.882 Y216.814
G01 X168.332 Y220.779
G01 X166.978 Y224.816
G01 X165.823 Y228.915
G01 X164.871 Y233.067
G01 X164.123 Y237.261
G01 X163.582 Y241.489
G01 X163.249 Y245.738
G01 X163.125 Y250.000
G01 X163.210 Y254.264
G01 X163.504 Y258.519
G01 X164.007 Y262.756
G01 X164.718 Y266.964
G01 X165.634 Y271.133
G01 X166.754 Y275.252
G01 X168.075 Y279.313
G01 X169.594 Y283.305
G01 X171.307 Y287.219
G01 X173.211 Y291.045
G01 X175.301 Y294.773
G01 X177.571 Y298.395
G01 X180.017 Y301.903
G01 X182.633 Y305.286
G01 X185.413 Y308.538
G01 X188.349 Y311.651
G01 X191.435 Y314.616
G01 X194.664 Y317.427
G01 X198.028 Y320.077
G01 X201.518 Y322.559
G01 X205.126 Y324.867
G01 X208.845 Y326.996
G01 X212.664 Y328.940
G01 X216.575 Y330.695
G01 X220.568 Y332.256
G01 X224.634 Y333.620
G01 X228.763 Y334.783
G01 X232.945 Y335.742
G01 X237.170 Y336.495
G01 X241.427 Y337.040
G01 X245.708 Y337.375
G01 X250.000 Y337.500
G01 X254.294 Y337.414
G01 X258.580 Y337.118
G01 X262.848 Y336.611
G01 X267.086 Y335.895
G01 X271.284 Y334.972
G01 X275.434 Y333.844
G01 X279.524 Y332.514
G01 X283.545 Y330.984
G01 X287.486 Y329.258
G01 X291.339 Y327.340
G01 X295.094 Y325.236
G01 X298.743 Y322.948
G01 X302.275 Y320.485
G01 X305.683 Y317.850
G01 X308.958 Y315.050
G01 X312.093 Y312.093
G01 X315.079 Y308.984
G01 X317.910 Y305.732
G01 X320.579 Y302.345
G01 X323.078 Y298.829
G01 X325.403 Y295.195
G01 X327.547 Y291.450
G01 X329.505 Y287.603
G01 X331.273 Y283.664
G01 X332.845 Y279.642
G01 X334.218 Y275.547
G01 X335.389 Y271.389
G01 X336.355 Y267.177
G01 X337.113 Y262.922
G01 X337.662 Y258.634
G01 X337.999 Y254.323
