;  Created by Sandify
;  https://sandify.org
;  Version: 0.2.6
;
;  Machine type: Rectangular
;    Min X (mm): 0
;    Max X (mm): 500
;    Min Y (mm): 0
;    Max Y (mm): 500
;  Content type: shape
;  Layer:
;    Shape: FileImport
;    Name: Butterfly.thr
;    From file:: Butterfly.thr
;    Aspect Ratio: true
;    Comments: 
;    Visible: true
;    Initial width: 10
;    Initial height: 10
;    X offset: 0
;    Y offset: 0
;    Rotate (degrees): 0
;    Reverse path: false
;    Fine tuning:
;      Connect to next layer: line
;      Draw portion of path (%): 100
;      Backtrack at end (%): 0
;      Rotate starting point (%): 0
;  Reverse export path: false
;
; File name: 'butterfly (C C)'
; File type: gcode
;

G01 X250.000 Y250.000
G01 X250.038 Y250.769
G01 X250.151 Y251.532
G01 X250.339 Y252.285
G01 X250.601 Y253.021
G01 X250.935 Y253.734
G01 X251.341 Y254.421
G01 X251.816 Y255.074
G01 X252.357 Y255.691
G01 X252.963 Y256.264
G01 X253.629 Y256.790
G01 X254.354 Y257.264
G01 X255.133 Y257.682
G01 X255.962 Y258.039
G01 X256.838 Y258.332
G01 X257.756 Y258.557
G01 X258.711 Y258.711
G01 X259.698 Y258.790
G01 X260.713 Y258.792
G01 X261.750 Y258.714
G01 X262.803 Y258.555
G01 X263.868 Y258.312
G01 X264.938 Y257.985
G01 X266.008 Y257.571
G01 X267.072 Y257.071
G01 X268.123 Y256.484
G01 X269.156 Y255.811
G01 X270.165 Y255.051
G01 X271.144 Y254.206
G01 X272.086 Y253.276
G01 X272.986 Y252.264
G01 X273.839 Y251.171
G01 X274.625 Y250.020
G01 X274.975 Y249.908
G01 X271.850 Y249.871
G01 X267.075 Y249.872
G01 X266.675 Y249.872
G01 X263.274 Y249.871
G01 X261.399 Y249.871
G01 X256.049 Y249.872
G01 X255.982 Y249.579
G01 X255.901 Y249.292
G01 X255.807 Y249.012
G01 X255.700 Y248.740
G01 X255.580 Y248.476
G01 X255.448 Y248.220
G01 X255.305 Y247.974
G01 X255.150 Y247.738
G01 X254.985 Y247.511
G01 X254.811 Y247.296
G01 X254.628 Y247.091
G01 X254.436 Y246.898
G01 X254.236 Y246.717
G01 X254.030 Y246.547
G01 X253.817 Y246.390
G01 X253.598 Y246.246
G01 X253.375 Y246.114
G01 X253.147 Y245.995
G01 X252.916 Y245.888
G01 X252.683 Y245.795
G01 X252.447 Y245.714
G01 X252.209 Y245.647
G01 X251.971 Y245.592
G01 X251.734 Y245.550
G01 X251.496 Y245.521
G01 X251.260 Y245.504
G01 X251.026 Y245.499
G01 X250.795 Y245.507
G01 X250.567 Y245.526
G01 X250.343 Y245.556
G01 X250.123 Y245.598
G01 X249.908 Y245.650
G01 X249.698 Y245.713
G01 X249.495 Y245.786
G01 X249.297 Y245.868
G01 X249.107 Y245.959
G01 X248.924 Y246.059
G01 X248.748 Y246.167
G01 X248.580 Y246.283
G01 X248.421 Y246.406
G01 X248.270 Y246.535
G01 X248.128 Y246.670
G01 X247.996 Y246.811
G01 X247.872 Y246.957
G01 X247.758 Y247.107
G01 X247.653 Y247.261
G01 X247.558 Y247.418
G01 X247.473 Y247.578
G01 X247.397 Y247.739
G01 X247.331 Y247.903
G01 X247.274 Y248.067
G01 X247.228 Y248.231
G01 X247.190 Y248.396
G01 X247.162 Y248.560
G01 X247.144 Y248.722
G01 X247.134 Y248.883
G01 X247.133 Y249.042
G01 X247.140 Y249.198
G01 X247.156 Y249.351
G01 X247.180 Y249.501
G01 X247.212 Y249.647
G01 X247.251 Y249.788
G01 X247.278 Y249.872
G01 X238.801 Y249.871
G01 X234.776 Y249.872
G01 X229.500 Y249.871
G01 X226.700 Y249.872
G01 X218.750 Y249.872
G01 X210.500 Y249.870
G01 X206.150 Y249.873
G01 X202.425 Y249.872
G01 X197.275 Y249.874
G01 X191.150 Y249.871
G01 X185.300 Y249.871
G01 X181.275 Y249.870
G01 X176.875 Y249.869
G01 X171.275 Y249.875
G01 X166.300 Y249.875
G01 X162.300 Y249.869
G01 X155.750 Y249.869
G01 X150.500 Y249.872
G01 X146.350 Y249.877
G01 X141.600 Y249.871
G01 X136.600 Y249.877
G01 X132.550 Y249.872
G01 X129.150 Y249.868
G01 X126.025 Y249.877
G01 X123.275 Y249.875
G01 X118.825 Y249.870
G01 X115.350 Y249.867
G01 X115.835 Y248.378
G01 X118.835 Y248.375
G01 X123.286 Y248.367
G01 X126.011 Y248.377
G01 X129.136 Y248.370
G01 X132.561 Y248.369
G01 X136.612 Y248.368
G01 X141.587 Y248.375
G01 X146.363 Y248.374
G01 X150.513 Y248.369
G01 X155.739 Y248.370
G01 X162.290 Y248.369
G01 X166.291 Y248.368
G01 X171.292 Y248.371
G01 X176.868 Y248.370
G01 X181.294 Y248.372
G01 X185.296 Y248.370
G01 X191.148 Y248.370
G01 X197.275 Y248.371
G01 X202.428 Y248.373
G01 X206.130 Y248.372
G01 X210.509 Y248.372
G01 X218.742 Y248.370
G01 X226.707 Y248.372
G01 X229.490 Y248.370
G01 X234.787 Y248.372
G01 X238.793 Y248.370
G01 X239.881 Y248.017
G01 X240.974 Y247.767
G01 X242.065 Y247.618
G01 X243.146 Y247.570
G01 X244.211 Y247.622
G01 X245.252 Y247.771
G01 X246.262 Y248.016
G01 X247.235 Y248.353
G01 X247.275 Y248.370
G01 X247.305 Y248.202
G01 X247.344 Y248.033
G01 X247.393 Y247.864
G01 X247.453 Y247.695
G01 X247.523 Y247.527
G01 X247.604 Y247.360
G01 X247.695 Y247.196
G01 X247.796 Y247.034
G01 X247.908 Y246.875
G01 X248.031 Y246.720
G01 X248.163 Y246.570
G01 X248.306 Y246.426
G01 X248.459 Y246.287
G01 X248.621 Y246.154
G01 X248.792 Y246.029
G01 X248.973 Y245.912
G01 X249.162 Y245.802
G01 X249.359 Y245.702
G01 X249.564 Y245.611
G01 X249.777 Y245.530
G01 X249.996 Y245.459
G01 X250.222 Y245.400
G01 X250.454 Y245.351
G01 X250.691 Y245.315
G01 X250.933 Y245.291
G01 X251.179 Y245.279
G01 X251.428 Y245.280
G01 X251.679 Y245.295
G01 X251.933 Y245.323
G01 X252.188 Y245.364
G01 X252.443 Y245.420
G01 X252.699 Y245.490
G01 X252.953 Y245.573
G01 X253.205 Y245.671
G01 X253.455 Y245.784
G01 X253.701 Y245.910
G01 X253.943 Y246.050
G01 X254.181 Y246.205
G01 X254.412 Y246.373
G01 X254.637 Y246.555
G01 X254.854 Y246.751
G01 X255.064 Y246.960
G01 X255.264 Y247.181
G01 X255.455 Y247.415
G01 X255.635 Y247.661
G01 X255.804 Y247.918
G01 X255.962 Y248.186
G01 X256.060 Y248.372
G01 X258.213 Y248.220
G01 X260.390 Y248.277
G01 X261.384 Y248.372
G01 X263.275 Y248.371
G01 X266.671 Y248.373
G01 X267.073 Y248.371
G01 X271.864 Y248.370
G01 X274.371 Y248.372
G01 X274.946 Y248.361
G01 X275.127 Y247.105
G01 X275.155 Y246.860
G01 X274.350 Y246.876
G01 X271.853 Y246.876
G01 X267.067 Y246.878
G01 X266.685 Y246.874
G01 X263.262 Y246.877
G01 X261.380 Y246.879
G01 X260.099 Y246.689
G01 X258.829 Y246.617
G01 X257.580 Y246.661
G01 X256.358 Y246.818
G01 X256.066 Y246.873
G01 X255.843 Y246.615
G01 X255.609 Y246.372
G01 X255.365 Y246.143
G01 X255.113 Y245.930
G01 X254.852 Y245.732
G01 X254.585 Y245.549
G01 X254.312 Y245.383
G01 X254.033 Y245.232
G01 X253.750 Y245.097
G01 X253.464 Y244.979
G01 X253.175 Y244.877
G01 X252.885 Y244.790
G01 X252.594 Y244.720
G01 X252.303 Y244.666
G01 X252.013 Y244.627
G01 X251.725 Y244.604
G01 X251.439 Y244.596
G01 X251.157 Y244.603
G01 X250.879 Y244.624
G01 X250.606 Y244.659
G01 X250.339 Y244.708
G01 X250.078 Y244.770
G01 X249.824 Y244.845
G01 X249.577 Y244.932
G01 X249.338 Y245.031
G01 X249.108 Y245.141
G01 X248.888 Y245.261
G01 X248.676 Y245.391
G01 X248.475 Y245.530
G01 X248.284 Y245.678
G01 X248.104 Y245.833
G01 X247.936 Y245.996
G01 X247.778 Y246.164
G01 X247.632 Y246.339
G01 X247.497 Y246.518
G01 X247.375 Y246.702
G01 X247.274 Y246.871
G01 X246.687 Y246.554
G01 X246.063 Y246.288
G01 X245.407 Y246.076
G01 X244.721 Y245.921
G01 X244.010 Y245.825
G01 X243.278 Y245.789
G01 X242.530 Y245.816
G01 X241.769 Y245.907
G01 X241.000 Y246.063
G01 X240.229 Y246.285
G01 X239.459 Y246.574
G01 X238.803 Y246.876
G01 X235.980 Y246.821
G01 X234.792 Y246.878
G01 X229.716 Y246.864
G01 X229.487 Y246.875
G01 X226.708 Y246.877
G01 X218.756 Y246.875
G01 X210.499 Y246.873
G01 X206.136 Y246.876
G01 X202.428 Y246.875
G01 X197.268 Y246.875
G01 X191.158 Y246.873
G01 X185.301 Y246.873
G01 X181.296 Y246.879
G01 X176.867 Y246.876
G01 X171.287 Y246.874
G01 X166.308 Y246.878
G01 X162.306 Y246.878
G01 X155.752 Y246.880
G01 X150.499 Y246.876
G01 X146.347 Y246.880
G01 X141.595 Y246.878
G01 X136.618 Y246.871
G01 X132.542 Y246.876
G01 X129.141 Y246.870
G01 X126.014 Y246.876
G01 X123.289 Y246.871
G01 X118.837 Y246.879
G01 X117.612 Y246.877
G01 X118.067 Y246.663
G01 X120.708 Y245.371
G01 X123.284 Y245.374
G01 X126.011 Y245.374
G01 X129.139 Y245.370
G01 X132.541 Y245.371
G01 X136.619 Y245.373
G01 X141.599 Y245.370
G01 X146.353 Y245.375
G01 X150.508 Y245.371
G01 X155.739 Y245.369
G01 X162.297 Y245.375
G01 X166.303 Y245.368
G01 X171.286 Y245.375
G01 X176.871 Y245.373
G01 X181.281 Y245.369
G01 X185.315 Y245.374
G01 X191.157 Y245.372
G01 X197.278 Y245.370
G01 X202.425 Y245.371
G01 X206.144 Y245.370
G01 X210.520 Y245.372
G01 X218.741 Y245.369
G01 X226.705 Y245.373
G01 X229.491 Y245.369
G01 X233.055 Y245.289
G01 X234.788 Y245.373
G01 X236.837 Y245.279
G01 X238.795 Y245.368
G01 X239.498 Y245.042
G01 X240.206 Y244.774
G01 X240.913 Y244.562
G01 X241.617 Y244.407
G01 X242.313 Y244.307
G01 X242.997 Y244.261
G01 X243.667 Y244.268
G01 X244.318 Y244.326
G01 X244.947 Y244.433
G01 X245.551 Y244.587
G01 X246.128 Y244.786
G01 X246.673 Y245.028
G01 X247.184 Y245.310
G01 X247.276 Y245.367
G01 X247.471 Y245.171
G01 X247.679 Y244.984
G01 X247.899 Y244.805
G01 X248.132 Y244.636
G01 X248.376 Y244.478
G01 X248.631 Y244.331
G01 X248.896 Y244.196
G01 X249.172 Y244.073
G01 X249.457 Y243.964
G01 X249.751 Y243.868
G01 X250.053 Y243.787
G01 X250.362 Y243.721
G01 X250.677 Y243.671
G01 X250.999 Y243.637
G01 X251.326 Y243.619
G01 X251.656 Y243.618
G01 X251.990 Y243.634
G01 X252.326 Y243.668
G01 X252.664 Y243.719
G01 X253.002 Y243.789
G01 X253.340 Y243.877
G01 X253.676 Y243.983
G01 X254.009 Y244.108
G01 X254.340 Y244.251
G01 X254.665 Y244.412
G01 X254.985 Y244.592
G01 X255.299 Y244.790
G01 X255.605 Y245.005
G01 X255.903 Y245.239
G01 X256.059 Y245.371
G01 X256.989 Y245.186
G01 X257.950 Y245.081
G01 X258.936 Y245.060
G01 X259.941 Y245.125
G01 X260.960 Y245.277
G01 X261.395 Y245.369
G01 X263.220 Y245.369
G01 X263.266 Y245.371
G01 X265.835 Y245.333
G01 X266.670 Y245.372
G01 X267.084 Y245.369
G01 X271.272 Y245.341
G01 X271.865 Y245.369
G01 X274.338 Y245.370
G01 X275.505 Y245.351
G01 X276.001 Y243.929
G01 X276.030 Y243.836
G01 X274.315 Y243.872
G01 X271.857 Y243.871
G01 X268.555 Y243.800
G01 X267.083 Y243.869
G01 X266.684 Y243.868
G01 X264.597 Y243.806
G01 X263.276 Y243.866
G01 X261.745 Y243.857
G01 X261.382 Y243.875
G01 X260.460 Y243.690
G01 X259.548 Y243.581
G01 X258.653 Y243.544
G01 X257.778 Y243.579
G01 X256.930 Y243.684
G01 X256.111 Y243.854
G01 X256.064 Y243.867
G01 X255.703 Y243.635
G01 X255.334 Y243.424
G01 X254.958 Y243.234
G01 X254.577 Y243.065
G01 X254.191 Y242.916
G01 X253.802 Y242.789
G01 X253.410 Y242.683
G01 X253.017 Y242.597
G01 X252.624 Y242.533
G01 X252.232 Y242.489
G01 X251.842 Y242.465
G01 X251.455 Y242.461
G01 X251.072 Y242.477
G01 X250.694 Y242.512
G01 X250.323 Y242.566
G01 X249.958 Y242.638
G01 X249.601 Y242.727
G01 X249.253 Y242.834
G01 X248.914 Y242.957
G01 X248.586 Y243.096
G01 X248.268 Y243.251
G01 X247.963 Y243.419
G01 X247.669 Y243.601
G01 X247.389 Y243.796
G01 X247.281 Y243.877
G01 X246.778 Y243.609
G01 X246.242 Y243.377
G01 X245.677 Y243.183
G01 X245.084 Y243.030
G01 X244.466 Y242.919
G01 X243.827 Y242.853
G01 X243.168 Y242.833
G01 X242.493 Y242.862
G01 X241.805 Y242.941
G01 X241.108 Y243.070
G01 X240.404 Y243.252
G01 X239.698 Y243.486
G01 X238.993 Y243.774
G01 X238.794 Y243.865
G01 X237.150 Y243.764
G01 X235.472 Y243.811
G01 X234.788 Y243.873
G01 X231.996 Y243.756
G01 X229.497 Y243.871
G01 X226.693 Y243.868
G01 X220.568 Y243.782
G01 X218.746 Y243.870
G01 X210.523 Y243.872
G01 X206.151 Y243.870
G01 X202.418 Y243.872
G01 X197.280 Y243.873
G01 X191.168 Y243.872
G01 X185.315 Y243.870
G01 X181.298 Y243.870
G01 X176.881 Y243.874
G01 X171.288 Y243.873
G01 X166.299 Y243.871
G01 X162.289 Y243.869
G01 X155.749 Y243.876
G01 X150.513 Y243.875
G01 X146.356 Y243.869
G01 X141.598 Y243.870
G01 X136.615 Y243.873
G01 X132.560 Y243.877
G01 X129.130 Y243.868
G01 X125.250 Y243.871
G01 X131.495 Y242.371
G01 X132.548 Y242.368
G01 X136.606 Y242.370
G01 X141.593 Y242.368
G01 X146.356 Y242.370
G01 X150.492 Y242.374
G01 X155.733 Y242.368
G01 X162.306 Y242.370
G01 X166.297 Y242.371
G01 X171.294 Y242.374
G01 X176.872 Y242.368
G01 X181.297 Y242.371
G01 X185.298 Y242.370
G01 X191.168 Y242.369
G01 X197.274 Y242.371
G01 X202.433 Y242.373
G01 X206.133 Y242.371
G01 X210.506 Y242.368
G01 X218.743 Y242.368
G01 X223.831 Y242.231
G01 X226.693 Y242.367
G01 X229.499 Y242.370
G01 X231.914 Y242.239
G01 X234.288 Y242.324
G01 X234.781 Y242.369
G01 X236.287 Y242.260
G01 X237.765 Y242.279
G01 X238.803 Y242.369
G01 X239.530 Y242.085
G01 X240.256 Y241.853
G01 X240.980 Y241.673
G01 X241.697 Y241.544
G01 X242.404 Y241.464
G01 X243.098 Y241.432
G01 X243.777 Y241.447
G01 X244.437 Y241.507
G01 X245.075 Y241.610
G01 X245.690 Y241.755
G01 X246.277 Y241.939
G01 X246.836 Y242.160
G01 X247.279 Y242.371
G01 X247.633 Y242.170
G01 X248.001 Y241.986
G01 X248.381 Y241.819
G01 X248.773 Y241.670
G01 X249.175 Y241.541
G01 X249.588 Y241.431
G01 X250.009 Y241.341
G01 X250.438 Y241.272
G01 X250.873 Y241.224
G01 X251.315 Y241.199
G01 X251.761 Y241.195
G01 X252.210 Y241.215
G01 X252.662 Y241.258
G01 X253.114 Y241.324
G01 X253.567 Y241.413
G01 X254.018 Y241.526
G01 X254.467 Y241.663
G01 X254.912 Y241.824
G01 X255.351 Y242.008
G01 X255.785 Y242.216
G01 X256.064 Y242.365
G01 X256.845 Y242.201
G01 X257.655 Y242.095
G01 X258.491 Y242.052
G01 X259.349 Y242.073
G01 X260.224 Y242.160
G01 X261.112 Y242.314
G01 X261.382 Y242.374
G01 X262.726 Y242.350
G01 X263.263 Y242.372
G01 X265.046 Y242.304
G01 X266.664 Y242.376
G01 X267.074 Y242.373
G01 X270.184 Y242.148
G01 X273.350 Y242.212
G01 X275.064 Y242.367
G01 X273.042 Y241.727
G01 X271.022 Y241.266
G01 X269.016 Y240.981
G01 X267.037 Y240.870
G01 X266.576 Y240.869
G01 X264.918 Y240.800
G01 X263.297 Y240.870
G01 X263.263 Y240.873
G01 X261.999 Y240.845
G01 X261.391 Y240.867
G01 X260.495 Y240.704
G01 X259.612 Y240.605
G01 X258.745 Y240.570
G01 X257.899 Y240.596
G01 X257.078 Y240.681
G01 X256.284 Y240.823
G01 X256.055 Y240.876
G01 X255.559 Y240.659
G01 X255.056 Y240.468
G01 X254.549 Y240.304
G01 X254.037 Y240.166
G01 X253.523 Y240.055
G01 X253.008 Y239.971
G01 X252.493 Y239.913
G01 X251.980 Y239.881
G01 X251.469 Y239.875
G01 X250.963 Y239.895
G01 X250.462 Y239.939
G01 X249.968 Y240.009
G01 X249.482 Y240.102
G01 X249.005 Y240.219
G01 X248.539 Y240.358
G01 X248.083 Y240.520
G01 X247.640 Y240.703
G01 X247.279 Y240.872
G01 X246.700 Y240.635
G01 X246.091 Y240.433
G01 X245.455 Y240.269
G01 X244.794 Y240.146
G01 X244.110 Y240.065
G01 X243.406 Y240.028
G01 X242.685 Y240.037
G01 X241.950 Y240.094
G01 X241.203 Y240.200
G01 X240.448 Y240.355
G01 X239.687 Y240.562
G01 X238.925 Y240.821
G01 X238.801 Y240.868
G01 X237.459 Y240.759
G01 X236.080 Y240.762
G01 X234.780 Y240.867
G01 X232.676 Y240.728
G01 X230.526 Y240.777
G01 X229.492 Y240.867
G01 X226.700 Y240.869
G01 X222.355 Y240.704
G01 X218.757 Y240.871
G01 X211.679 Y240.817
G01 X210.516 Y240.872
G01 X206.141 Y240.868
G01 X202.418 Y240.869
G01 X197.285 Y240.870
G01 X191.154 Y240.872
G01 X185.316 Y240.872
G01 X181.279 Y240.870
G01 X176.868 Y240.871
G01 X171.278 Y240.868
G01 X166.297 Y240.866
G01 X162.299 Y240.874
G01 X155.741 Y240.867
G01 X150.493 Y240.871
G01 X146.352 Y240.867
G01 X141.584 Y240.873
G01 X139.953 Y240.868
G01 X150.704 Y239.496
G01 X151.724 Y239.366
G01 X155.747 Y239.372
G01 X162.292 Y239.372
G01 X166.297 Y239.373
G01 X171.289 Y239.374
G01 X176.869 Y239.367
G01 X181.292 Y239.371
G01 X185.293 Y239.366
G01 X191.153 Y239.365
G01 X197.286 Y239.370
G01 X202.424 Y239.367
G01 X206.145 Y239.371
G01 X210.506 Y239.367
G01 X216.762 Y239.277
G01 X218.758 Y239.373
G01 X222.688 Y239.187
G01 X226.552 Y239.358
G01 X226.710 Y239.373
G01 X229.427 Y239.363
G01 X229.493 Y239.366
G01 X231.507 Y239.227
G01 X233.482 Y239.259
G01 X234.794 Y239.375
G01 X236.138 Y239.265
G01 X237.454 Y239.259
G01 X238.736 Y239.355
G01 X238.796 Y239.362
G01 X239.602 Y239.108
G01 X240.405 Y238.908
G01 X241.202 Y238.759
G01 X241.991 Y238.660
G01 X242.767 Y238.612
G01 X243.528 Y238.611
G01 X244.271 Y238.657
G01 X244.994 Y238.748
G01 X245.693 Y238.881
G01 X246.368 Y239.055
G01 X247.014 Y239.267
G01 X247.278 Y239.368
G01 X247.803 Y239.247
G01 X248.334 Y239.152
G01 X248.868 Y239.084
G01 X249.405 Y239.041
G01 X249.943 Y239.025
G01 X250.482 Y239.036
G01 X251.019 Y239.072
G01 X251.554 Y239.136
G01 X252.085 Y239.225
G01 X252.612 Y239.340
G01 X252.712 Y239.365
G01 X252.241 Y238.979
G01 X251.739 Y238.613
G01 X251.206 Y238.271
G01 X250.643 Y237.955
G01 X250.052 Y237.666
G01 X249.435 Y237.407
G01 X248.792 Y237.179
G01 X248.126 Y236.985
G01 X247.438 Y236.826
G01 X246.729 Y236.703
G01 X246.003 Y236.619
G01 X245.261 Y236.575
G01 X244.505 Y236.572
G01 X243.738 Y236.612
G01 X242.961 Y236.695
G01 X242.178 Y236.823
G01 X241.391 Y236.996
G01 X240.602 Y237.215
G01 X239.815 Y237.481
G01 X239.031 Y237.793
G01 X238.847 Y237.874
G01 X237.591 Y237.771
G01 X236.299 Y237.763
G01 X234.978 Y237.854
G01 X234.792 Y237.875
G01 X232.959 Y237.731
G01 X231.078 Y237.740
G01 X229.497 Y237.866
G01 X226.967 Y237.853
G01 X226.695 Y237.865
G01 X223.180 Y237.667
G01 X219.597 Y237.789
G01 X218.748 Y237.865
G01 X213.182 Y237.746
G01 X210.521 Y237.870
G01 X206.147 Y237.869
G01 X202.423 Y237.867
G01 X197.278 Y237.867
G01 X191.162 Y237.871
G01 X185.303 Y237.867
G01 X181.288 Y237.866
G01 X176.874 Y237.869
G01 X169.358 Y237.863
G01 X181.540 Y237.317
G01 X190.775 Y237.049
G01 X198.106 Y237.197
G01 X198.182 Y236.005
G01 X198.350 Y233.291
G01 X198.545 Y231.439
G01 X198.547 Y228.532
G01 X198.712 Y225.581
G01 X198.897 Y223.752
G01 X198.770 Y220.424
G01 X198.850 Y217.022
G01 X198.915 Y215.982
G01 X198.561 Y211.975
G01 X198.482 Y207.855
G01 X198.516 Y206.540
G01 X197.854 Y201.403
G01 X197.595 Y196.942
G01 X196.228 Y189.929
G01 X195.529 Y183.935
G01 X193.714 Y175.653
G01 X189.876 Y162.155
G01 X185.443 Y150.033
G01 X180.724 Y139.406
G01 X177.000 Y132.182
G01 X173.270 Y125.495
G01 X166.799 Y115.358
G01 X159.641 Y105.589
G01 X154.700 Y99.572
G01 X149.136 Y93.366
G01 X145.945 Y90.101
G01 X153.146 Y88.169
G01 X147.132 Y91.268
G01 X144.663 Y90.583
G01 X142.621 Y91.589
G01 X149.136 Y93.366
G01 X157.238 Y89.117
G01 X159.802 Y87.877
G01 X164.709 Y88.430
G01 X156.645 Y92.406
G01 X151.069 Y95.453
G01 X140.815 Y92.646
G01 X139.171 Y93.738
G01 X152.699 Y97.466
G01 X152.917 Y97.535
G01 X160.699 Y93.278
G01 X168.665 Y89.416
G01 X168.816 Y89.347
G01 X172.378 Y90.455
G01 X164.506 Y94.206
G01 X156.815 Y98.346
G01 X154.700 Y99.572
G01 X141.311 Y95.740
G01 X137.689 Y94.892
G01 X136.325 Y96.075
G01 X149.904 Y99.536
G01 X156.401 Y101.602
G01 X163.903 Y97.379
G01 X171.594 Y93.534
G01 X175.597 Y91.715
G01 X178.533 Y93.056
G01 X170.847 Y96.613
G01 X163.337 Y100.546
G01 X158.053 Y103.605
G01 X144.885 Y99.570
G01 X135.065 Y97.264
G01 X133.907 Y98.520
G01 X147.516 Y101.738
G01 X159.641 Y105.589
G01 X166.886 Y101.420
G01 X174.323 Y97.613
G01 X181.250 Y94.467
G01 X183.783 Y95.927
G01 X176.282 Y99.318
G01 X168.953 Y103.074
G01 X161.816 Y107.186
G01 X161.181 Y107.575
G01 X148.244 Y103.380
G01 X134.696 Y100.131
G01 X132.824 Y99.768
G01 X131.830 Y101.059
G01 X145.458 Y104.065
G01 X158.493 Y108.029
G01 X162.660 Y109.541
G01 X169.661 Y105.431
G01 X176.855 Y101.670
G01 X184.224 Y98.266
G01 X186.148 Y97.449
G01 X188.383 Y98.987
G01 X181.059 Y102.219
G01 X173.905 Y105.806
G01 X166.936 Y109.738
G01 X164.080 Y111.484
G01 X151.361 Y107.141
G01 X138.025 Y103.733
G01 X130.894 Y102.352
G01 X130.032 Y103.665
G01 X143.665 Y106.469
G01 X156.717 Y110.237
G01 X165.468 Y113.418
G01 X172.238 Y109.373
G01 X179.201 Y105.664
G01 X186.341 Y102.300
G01 X190.491 Y100.536
G01 X192.501 Y102.109
G01 X185.358 Y105.207
G01 X178.379 Y108.649
G01 X171.583 Y112.427
G01 X166.799 Y115.358
G01 X154.289 Y110.876
G01 X141.154 Y107.318
G01 X129.231 Y105.009
G01 X128.473 Y106.363
G01 X142.096 Y108.974
G01 X155.154 Y112.556
G01 X167.586 Y117.059
G01 X168.088 Y117.265
G01 X174.634 Y113.287
G01 X181.373 Y109.631
G01 X188.290 Y106.308
G01 X194.414 Y103.704
G01 X196.233 Y105.318
G01 X189.262 Y108.279
G01 X182.452 Y111.576
G01 X175.820 Y115.199
G01 X169.380 Y119.140
G01 X169.348 Y119.161
G01 X157.043 Y114.560
G01 X144.107 Y110.873
G01 X130.600 Y108.149
G01 X127.774 Y107.714
G01 X127.121 Y109.106
G01 X140.721 Y111.531
G01 X153.770 Y114.931
G01 X166.208 Y119.258
G01 X170.541 Y121.039
G01 X176.877 Y117.137
G01 X183.405 Y113.546
G01 X190.110 Y110.277
G01 X196.975 Y107.337
G01 X197.973 Y106.942
G01 X199.643 Y108.546
G01 X192.843 Y111.382
G01 X186.200 Y114.544
G01 X179.729 Y118.023
G01 X173.445 Y121.810
G01 X171.721 Y122.925
G01 X159.609 Y118.214
G01 X146.861 Y114.406
G01 X133.536 Y111.552
G01 X126.510 Y110.475
G01 X125.946 Y111.882
G01 X139.524 Y114.142
G01 X152.566 Y117.381
G01 X165.008 Y121.552
G01 X172.849 Y124.785
G01 X178.977 Y120.952
G01 X185.295 Y117.418
G01 X191.789 Y114.195
G01 X198.444 Y111.290
G01 X201.233 Y110.186
G01 X202.777 Y111.821
G01 X196.145 Y114.535
G01 X189.666 Y117.566
G01 X183.354 Y120.906
G01 X177.224 Y124.545
G01 X173.953 Y126.659
G01 X162.027 Y121.850
G01 X149.461 Y117.934
G01 X136.313 Y114.963
G01 X125.457 Y113.303
G01 X124.968 Y114.735
G01 X138.515 Y116.837
G01 X151.539 Y119.924
G01 X163.976 Y123.947
G01 X175.008 Y128.506
G01 X180.933 Y124.743
G01 X187.047 Y121.270
G01 X193.336 Y118.096
G01 X199.785 Y115.229
G01 X204.251 Y113.461
G01 X205.668 Y115.098
G01 X199.200 Y117.693
G01 X192.881 Y120.597
G01 X186.724 Y123.801
G01 X180.743 Y127.298
G01 X176.039 Y130.337
G01 X164.290 Y125.440
G01 X151.897 Y121.428
G01 X138.919 Y118.353
G01 X125.420 Y116.261
G01 X124.537 Y116.161
G01 X124.137 Y117.604
G01 X137.649 Y119.557
G01 X150.650 Y122.498
G01 X163.075 Y126.380
G01 X174.866 Y131.154
G01 X177.035 Y132.161
G01 X182.766 Y128.470
G01 X188.683 Y125.058
G01 X194.773 Y121.935
G01 X201.022 Y119.109
G01 X207.030 Y116.731
G01 X208.346 Y118.384
G01 X202.043 Y120.868
G01 X195.883 Y123.654
G01 X189.880 Y126.731
G01 X184.049 Y130.093
G01 X178.403 Y133.730
G01 X178.012 Y133.997
G01 X166.430 Y129.017
G01 X154.201 Y124.915
G01 X141.383 Y121.742
G01 X128.039 Y119.544
G01 X123.769 Y119.064
G01 X123.367 Y120.500
G01 X136.849 Y122.314
G01 X149.832 Y125.121
G01 X162.250 Y128.874
G01 X174.045 Y133.524
G01 X178.942 Y135.802
G01 X184.480 Y132.180
G01 X190.201 Y128.827
G01 X196.095 Y125.752
G01 X202.146 Y122.965
G01 X208.341 Y120.472
G01 X209.602 Y120.008
G01 X210.835 Y121.668
G01 X204.692 Y124.040
G01 X198.686 Y126.705
G01 X192.833 Y129.655
G01 X187.145 Y132.882
G01 X181.636 Y136.376
G01 X179.842 Y137.599
G01 X168.415 Y132.545
G01 X156.338 Y128.362
G01 X143.669 Y125.101
G01 X130.471 Y122.810
G01 X123.135 Y121.991
G01 X122.797 Y123.459
G01 X136.241 Y125.142
G01 X149.196 Y127.821
G01 X161.598 Y131.452
G01 X173.386 Y135.984
G01 X180.724 Y139.406
G01 X186.075 Y135.857
G01 X191.608 Y132.567
G01 X197.311 Y129.545
G01 X203.169 Y126.802
G01 X209.170 Y124.343
G01 X212.010 Y123.298
G01 X213.156 Y124.940
G01 X207.172 Y127.210
G01 X201.323 Y129.765
G01 X195.621 Y132.599
G01 X190.079 Y135.701
G01 X184.710 Y139.063
G01 X181.576 Y141.203
G01 X170.293 Y136.076
G01 X158.356 Y131.816
G01 X145.824 Y128.472
G01 X132.760 Y126.093
G01 X122.642 Y124.967
G01 X122.429 Y126.474
G01 X135.829 Y128.039
G01 X148.752 Y130.603
G01 X161.131 Y134.122
G01 X172.905 Y138.549
G01 X182.400 Y142.988
G01 X187.567 Y139.508
G01 X192.913 Y136.278
G01 X198.427 Y133.307
G01 X204.094 Y130.603
G01 X209.903 Y128.176
G01 X214.253 Y126.572
G01 X215.310 Y128.220
G01 X209.484 Y130.387
G01 X203.787 Y132.832
G01 X198.233 Y135.547
G01 X192.833 Y138.525
G01 X187.600 Y141.756
G01 X183.196 Y144.763
G01 X172.048 Y139.575
G01 X160.244 Y135.249
G01 X147.843 Y131.835
G01 X134.907 Y129.381
G01 X122.261 Y127.984
G01 X122.126 Y129.507
G01 X135.484 Y130.958
G01 X148.375 Y133.412
G01 X160.732 Y136.824
G01 X172.494 Y141.149
G01 X183.602 Y146.335
G01 X183.966 Y146.525
G01 X188.956 Y143.117
G01 X194.121 Y139.949
G01 X199.451 Y137.032
G01 X204.932 Y134.374
G01 X210.553 Y131.982
G01 X216.300 Y129.864
G01 X216.333 Y129.853
G01 X217.330 Y131.496
G01 X211.659 Y133.559
G01 X206.111 Y135.892
G01 X200.700 Y138.488
G01 X195.437 Y141.339
G01 X190.335 Y144.438
G01 X185.406 Y147.775
G01 X184.710 Y148.275
G01 X173.685 Y143.034
G01 X162.004 Y138.651
G01 X149.724 Y135.176
G01 X136.908 Y132.658
G01 X123.620 Y131.139
G01 X122.005 Y131.026
G01 X121.918 Y132.558
G01 X135.239 Y133.905
G01 X148.101 Y136.258
G01 X160.439 Y139.574
G01 X172.190 Y143.808
G01 X183.294 Y148.908
G01 X185.443 Y150.033
G01 X190.258 Y146.697
G01 X195.246 Y143.592
G01 X200.395 Y140.730
G01 X205.694 Y138.116
G01 X211.129 Y135.761
G01 X216.689 Y133.670
G01 X218.282 Y133.128
G01 X219.209 Y134.768
G01 X213.693 Y136.732
G01 X208.295 Y138.960
G01 X203.028 Y141.444
G01 X197.904 Y144.176
G01 X192.935 Y147.149
G01 X188.132 Y150.354
G01 X186.142 Y151.785
G01 X175.226 Y146.491
G01 X163.652 Y142.052
G01 X151.478 Y138.519
G01 X138.766 Y135.940
G01 X125.581 Y134.358
G01 X121.864 Y134.102
G01 X121.825 Y135.642
G01 X135.113 Y136.896
G01 X147.951 Y139.161
G01 X160.273 Y142.395
G01 X172.015 Y146.551
G01 X183.118 Y151.580
G01 X186.818 Y153.523
G01 X191.462 Y150.256
G01 X196.275 Y147.214
G01 X201.246 Y144.405
G01 X206.364 Y141.836
G01 X211.616 Y139.516
G01 X216.991 Y137.451
G01 X220.094 Y136.395
G01 X220.966 Y138.028
G01 X215.604 Y139.897
G01 X210.354 Y142.021
G01 X205.230 Y144.394
G01 X200.243 Y147.010
G01 X195.404 Y149.860
G01 X190.725 Y152.936
G01 X187.476 Y155.274
G01 X176.654 Y149.929
G01 X165.171 Y145.438
G01 X153.087 Y141.853
G01 X140.464 Y139.221
G01 X127.367 Y137.585
G01 X121.838 Y137.210
G01 X121.848 Y138.756
G01 X135.109 Y139.929
G01 X147.927 Y142.117
G01 X160.237 Y145.280
G01 X171.973 Y149.372
G01 X183.076 Y154.342
G01 X188.100 Y156.990
G01 X192.576 Y153.793
G01 X197.217 Y150.811
G01 X202.013 Y148.054
G01 X206.952 Y145.529
G01 X212.024 Y143.244
G01 X217.216 Y141.206
G01 X221.787 Y139.650
G01 X222.618 Y141.270
G01 X217.406 Y143.041
G01 X212.302 Y145.061
G01 X207.317 Y147.323
G01 X202.463 Y149.821
G01 X197.751 Y152.547
G01 X193.192 Y155.494
G01 X188.795 Y158.652
G01 X188.709 Y158.718
G01 X177.963 Y153.326
G01 X166.555 Y148.789
G01 X154.545 Y145.158
G01 X141.994 Y142.481
G01 X128.969 Y140.801
G01 X121.911 Y140.329
G01 X121.979 Y141.909
G01 X135.215 Y143.007
G01 X148.016 Y145.127
G01 X160.314 Y148.226
G01 X172.046 Y152.260
G01 X183.149 Y157.181
G01 X189.299 Y160.431
G01 X193.611 Y157.304
G01 X198.084 Y154.386
G01 X202.708 Y151.683
G01 X207.473 Y149.205
G01 X212.367 Y146.958
G01 X217.379 Y144.949
G01 X222.498 Y143.184
G01 X223.372 Y142.911
G01 X224.189 Y144.486
G01 X219.128 Y146.164
G01 X214.168 Y148.083
G01 X209.322 Y150.238
G01 X204.601 Y152.623
G01 X200.016 Y155.230
G01 X195.577 Y158.052
G01 X191.294 Y161.080
G01 X189.876 Y162.155
G01 X179.190 Y156.718
G01 X167.842 Y152.138
G01 X155.890 Y148.466
G01 X143.398 Y145.751
G01 X130.430 Y144.035
G01 X122.092 Y143.486
G01 X122.230 Y145.085
G01 X135.449 Y146.122
G01 X148.240 Y148.186
G01 X160.534 Y151.237
G01 X172.266 Y155.230
G01 X183.375 Y160.116
G01 X190.413 Y163.849
G01 X194.562 Y160.788
G01 X198.868 Y157.927
G01 X203.322 Y155.274
G01 X207.914 Y152.838
G01 X212.632 Y150.624
G01 X217.466 Y148.640
G01 X222.406 Y146.891
G01 X224.834 Y146.130
G01 X225.522 Y147.765
G01 X220.611 Y149.349
G01 X215.796 Y151.169
G01 X211.089 Y153.218
G01 X206.501 Y155.491
G01 X202.041 Y157.980
G01 X197.721 Y160.678
G01 X193.549 Y163.578
G01 X190.940 Y165.553
G01 X180.298 Y160.077
G01 X168.991 Y155.462
G01 X157.081 Y151.760
G01 X144.630 Y149.017
G01 X131.704 Y147.278
G01 X122.383 Y146.677
G01 X122.562 Y148.290
G01 X135.776 Y149.275
G01 X148.566 Y151.295
G01 X160.864 Y154.309
G01 X172.605 Y158.273
G01 X183.725 Y163.139
G01 X191.444 Y167.247
G01 X195.436 Y164.255
G01 X199.581 Y161.455
G01 X203.869 Y158.857
G01 X208.291 Y156.466
G01 X212.837 Y154.291
G01 X217.496 Y152.337
G01 X222.258 Y150.610
G01 X226.195 Y149.378
G01 X226.977 Y150.915
G01 X222.212 Y152.407
G01 X217.538 Y154.127
G01 X212.965 Y156.071
G01 X208.505 Y158.232
G01 X204.168 Y160.603
G01 X199.962 Y163.179
G01 X195.899 Y165.951
G01 X191.988 Y168.913
G01 X191.949 Y168.944
G01 X181.332 Y163.432
G01 X170.051 Y158.787
G01 X158.166 Y155.060
G01 X145.740 Y152.298
G01 X132.842 Y150.545
G01 X122.777 Y149.911
G01 X123.008 Y151.524
G01 X136.226 Y152.469
G01 X149.025 Y154.457
G01 X161.336 Y157.448
G01 X173.093 Y161.398
G01 X184.231 Y166.259
G01 X192.424 Y170.635
G01 X196.259 Y167.708
G01 X200.242 Y164.966
G01 X204.365 Y162.417
G01 X208.619 Y160.069
G01 X212.993 Y157.928
G01 X217.478 Y155.999
G01 X222.064 Y154.290
G01 X226.739 Y152.805
G01 X227.441 Y152.603
G01 X228.035 Y154.211
G01 X223.421 Y155.615
G01 X218.891 Y157.241
G01 X214.457 Y159.083
G01 X210.129 Y161.137
G01 X205.916 Y163.395
G01 X201.828 Y165.853
G01 X197.876 Y168.503
G01 X194.066 Y171.337
G01 X192.857 Y172.300
G01 X182.239 Y166.751
G01 X170.955 Y162.078
G01 X159.067 Y158.331
G01 X146.639 Y155.558
G01 X133.739 Y153.801
G01 X123.265 Y153.157
G01 X123.540 Y154.781
G01 X136.779 Y155.700
G01 X149.604 Y157.671
G01 X161.943 Y160.657
G01 X173.729 Y164.611
G01 X184.897 Y169.488
G01 X193.302 Y173.993
G01 X196.989 Y171.137
G01 X200.820 Y168.461
G01 X204.786 Y165.971
G01 X208.878 Y163.674
G01 X213.087 Y161.577
G01 X217.402 Y159.686
G01 X221.815 Y158.005
G01 X226.314 Y156.540
G01 X228.272 Y155.978
G01 X227.855 Y158.080
G01 X223.415 Y159.426
G01 X219.054 Y160.986
G01 X214.782 Y162.755
G01 X210.608 Y164.729
G01 X206.543 Y166.902
G01 X202.597 Y169.268
G01 X198.778 Y171.821
G01 X195.094 Y174.554
G01 X193.714 Y175.653
G01 X183.067 Y170.064
G01 X171.753 Y165.362
G01 X159.834 Y161.597
G01 X147.376 Y158.816
G01 X134.447 Y157.062
G01 X123.871 Y156.426
G01 X124.209 Y158.074
G01 X137.482 Y158.979
G01 X150.343 Y160.947
G01 X162.719 Y163.941
G01 X174.543 Y167.916
G01 X185.748 Y172.824
G01 X194.118 Y177.326
G01 X197.687 Y174.578
G01 X201.390 Y172.005
G01 X205.221 Y169.615
G01 X209.169 Y167.412
G01 X213.225 Y165.404
G01 X217.380 Y163.595
G01 X221.624 Y161.990
G01 X225.947 Y160.594
G01 X227.470 Y160.157
G01 X227.099 Y162.187
G01 X222.840 Y163.485
G01 X218.652 Y164.990
G01 X214.547 Y166.697
G01 X210.534 Y168.602
G01 X206.622 Y170.699
G01 X202.821 Y172.985
G01 X199.139 Y175.452
G01 X195.586 Y178.095
G01 X194.485 Y178.971
G01 X183.780 Y173.345
G01 X172.406 Y168.620
G01 X160.428 Y164.845
G01 X147.912 Y162.068
G01 X134.928 Y160.331
G01 X124.556 Y159.725
G01 X124.961 Y161.395
G01 X138.289 Y162.298
G01 X151.205 Y164.279
G01 X163.638 Y167.298
G01 X175.517 Y171.313
G01 X186.775 Y176.274
G01 X194.847 Y180.628
G01 X198.299 Y177.981
G01 X201.879 Y175.505
G01 X205.577 Y173.208
G01 X209.385 Y171.094
G01 X213.293 Y169.169
G01 X217.293 Y167.437
G01 X221.373 Y165.903
G01 X225.526 Y164.570
G01 X226.774 Y164.214
G01 X226.462 Y166.193
G01 X222.376 Y167.443
G01 X218.356 Y168.892
G01 X214.412 Y170.537
G01 X210.553 Y172.374
G01 X206.789 Y174.397
G01 X203.128 Y176.604
G01 X199.579 Y178.987
G01 X196.152 Y181.542
G01 X195.205 Y182.296
G01 X184.406 Y176.629
G01 X172.938 Y171.880
G01 X160.865 Y168.099
G01 X148.255 Y165.333
G01 X135.179 Y163.624
G01 X125.375 Y163.066
G01 X125.828 Y164.741
G01 X139.240 Y165.664
G01 X152.241 Y167.681
G01 X164.755 Y170.753
G01 X176.713 Y174.837
G01 X188.046 Y179.883
G01 X195.529 Y183.935
G01 X198.863 Y181.378
G01 X202.317 Y178.989
G01 X205.882 Y176.774
G01 X209.550 Y174.737
G01 X213.311 Y172.884
G01 X217.157 Y171.219
G01 X221.077 Y169.745
G01 X225.063 Y168.465
G01 X226.186 Y168.144
G01 X225.937 Y170.095
G01 X222.017 Y171.292
G01 X218.156 Y172.682
G01 X214.365 Y174.261
G01 X210.652 Y176.026
G01 X207.026 Y177.973
G01 X203.497 Y180.098
G01 X200.073 Y182.396
G01 X196.762 Y184.862
G01 X195.853 Y185.585
G01 X184.924 Y179.878
G01 X173.323 Y175.109
G01 X161.118 Y171.329
G01 X148.377 Y168.585
G01 X135.175 Y166.919
G01 X126.310 Y166.430
G01 X126.803 Y168.120
G01 X140.327 Y169.079
G01 X153.438 Y171.150
G01 X166.059 Y174.296
G01 X178.119 Y178.472
G01 X189.546 Y183.629
G01 X196.139 Y187.211
G01 X199.361 Y184.742
G01 X202.695 Y182.437
G01 X206.133 Y180.301
G01 X209.666 Y178.341
G01 X213.286 Y176.559
G01 X216.984 Y174.959
G01 X220.750 Y173.545
G01 X224.575 Y172.319
G01 X225.699 Y171.998
G01 X225.488 Y173.874
G01 X221.726 Y175.019
G01 X218.018 Y176.351
G01 X214.372 Y177.866
G01 X210.798 Y179.561
G01 X207.304 Y181.434
G01 X203.900 Y183.481
G01 X200.595 Y185.697
G01 X197.396 Y188.077
G01 X196.428 Y188.846
G01 X185.322 Y183.098
G01 X173.543 Y178.313
G01 X161.159 Y174.542
G01 X148.242 Y171.831
G01 X134.868 Y170.224
G01 X127.327 Y169.823
G01 X127.883 Y171.539
G01 X141.559 Y172.554
G01 X154.818 Y174.705
G01 X167.582 Y177.954
G01 X179.776 Y182.254
G01 X191.329 Y187.557
G01 X196.693 Y190.482
G01 X199.802 Y188.092
G01 X203.017 Y185.863
G01 X206.330 Y183.800
G01 X209.731 Y181.907
G01 X213.213 Y180.188
G01 X216.767 Y178.647
G01 X220.382 Y177.285
G01 X224.051 Y176.106
G01 X225.310 Y175.747
G01 X225.142 Y177.572
G01 X221.532 Y178.663
G01 X217.969 Y179.934
G01 X214.463 Y181.383
G01 X211.022 Y183.008
G01 X207.655 Y184.806
G01 X204.371 Y186.774
G01 X201.178 Y188.907
G01 X198.085 Y191.202
G01 X196.947 Y192.108
G01 X185.606 Y186.310
G01 X173.589 Y181.506
G01 X160.967 Y177.748
G01 X147.815 Y175.081
G01 X134.209 Y173.548
G01 X128.480 Y173.255
G01 X129.110 Y174.982
G01 X142.983 Y176.080
G01 X156.434 Y178.343
G01 X169.381 Y181.729
G01 X181.748 Y186.195
G01 X193.461 Y191.689
G01 X197.163 Y193.714
G01 X200.165 Y191.398
G01 X203.267 Y189.239
G01 X206.460 Y187.244
G01 X209.737 Y185.415
G01 X213.087 Y183.755
G01 X216.503 Y182.269
G01 X219.976 Y180.957
G01 X223.496 Y179.822
G01 X225.000 Y179.395
G01 X224.882 Y181.191
G01 X221.416 Y182.221
G01 X217.990 Y183.426
G01 X214.615 Y184.805
G01 X211.297 Y186.355
G01 X208.048 Y188.075
G01 X204.874 Y189.960
G01 X201.784 Y192.009
G01 X198.787 Y194.217
G01 X197.388 Y195.329
G01 X185.749 Y189.480
G01 X173.431 Y184.662
G01 X160.508 Y180.927
G01 X147.058 Y178.321
G01 X133.160 Y176.885
G01 X129.744 Y176.718
G01 X130.442 Y178.465
G01 X144.572 Y179.673
G01 X158.270 Y182.078
G01 X171.454 Y185.640
G01 X184.043 Y190.313
G01 X195.963 Y196.046
G01 X197.595 Y196.942
G01 X200.492 Y194.692
G01 X203.483 Y192.598
G01 X206.559 Y190.663
G01 X209.713 Y188.891
G01 X212.936 Y187.285
G01 X216.219 Y185.848
G01 X219.553 Y184.581
G01 X222.930 Y183.485
G01 X224.775 Y182.964
G01 X224.690 Y184.709
G01 X221.363 Y185.682
G01 X218.070 Y186.826
G01 X214.821 Y188.138
G01 X211.624 Y189.618
G01 X208.488 Y191.264
G01 X205.421 Y193.072
G01 X202.433 Y195.041
G01 X199.531 Y197.166
G01 X197.786 Y198.555
G01 X185.760 Y192.637
G01 X173.050 Y187.797
G01 X159.735 Y184.086
G01 X145.894 Y181.549
G01 X131.614 Y180.229
G01 X131.153 Y180.207
G01 X131.892 Y181.969
G01 X146.369 Y183.330
G01 X160.401 Y185.931
G01 X173.903 Y189.730
G01 X186.792 Y194.681
G01 X197.964 Y200.166
G01 X200.756 Y197.973
G01 X203.638 Y195.933
G01 X206.600 Y194.051
G01 X209.635 Y192.327
G01 X212.734 Y190.766
G01 X215.888 Y189.370
G01 X219.089 Y188.139
G01 X222.328 Y187.076
G01 X224.616 Y186.431
G01 X224.568 Y188.149
G01 X221.372 Y189.063
G01 X218.204 Y190.141
G01 X215.074 Y191.385
G01 X211.990 Y192.793
G01 X208.960 Y194.363
G01 X205.994 Y196.094
G01 X203.099 Y197.982
G01 X200.284 Y200.026
G01 X198.116 Y201.753
G01 X185.606 Y195.762
G01 X172.408 Y190.902
G01 X158.604 Y187.227
G01 X144.278 Y184.782
G01 X132.689 Y183.750
G01 X133.502 Y185.524
G01 X148.418 Y187.078
G01 X162.873 Y189.923
G01 X176.777 Y194.017
G01 X190.043 Y199.310
G01 X198.270 Y203.361
G01 X200.966 Y201.222
G01 X203.746 Y199.234
G01 X206.602 Y197.401
G01 X209.526 Y195.724
G01 X212.509 Y194.207
G01 X215.542 Y192.851
G01 X218.618 Y191.657
G01 X221.728 Y190.627
G01 X224.537 Y189.842
G01 X224.521 Y191.508
G01 X221.451 Y192.361
G01 X218.403 Y193.376
G01 X215.386 Y194.552
G01 X212.409 Y195.889
G01 X209.481 Y197.386
G01 X206.610 Y199.040
G01 X203.805 Y200.850
G01 X201.073 Y202.814
G01 X198.424 Y204.928
G01 X198.397 Y204.951
G01 X185.264 Y198.860
G01 X171.435 Y193.970
G01 X156.998 Y190.333
G01 X142.044 Y187.996
G01 X134.368 Y187.326
G01 X135.272 Y189.131
G01 X150.757 Y190.931
G01 X165.759 Y194.087
G01 X180.183 Y198.553
G01 X193.938 Y204.280
G01 X198.516 Y206.540
G01 X201.117 Y204.444
G01 X203.798 Y202.499
G01 X206.552 Y200.706
G01 X209.369 Y199.067
G01 X212.242 Y197.586
G01 X215.161 Y196.262
G01 X218.119 Y195.097
G01 X221.106 Y194.093
G01 X224.115 Y193.247
G01 X224.534 Y193.143
G01 X224.566 Y194.748
G01 X221.613 Y195.539
G01 X218.677 Y196.489
G01 X215.766 Y197.596
G01 X212.889 Y198.861
G01 X210.055 Y200.284
G01 X207.272 Y201.863
G01 X204.549 Y203.596
G01 X201.894 Y205.481
G01 X199.315 Y207.516
G01 X198.609 Y208.111
G01 X184.693 Y201.902
G01 X170.072 Y196.979
G01 X154.841 Y193.394
G01 X139.096 Y191.195
G01 X136.210 Y190.949
G01 X137.187 Y192.768
G01 X153.433 Y194.892
G01 X169.166 Y198.454
G01 X184.286 Y203.408
G01 X198.695 Y209.700
G01 X198.709 Y209.707
G01 X201.218 Y207.647
G01 X203.805 Y205.735
G01 X206.460 Y203.974
G01 X209.176 Y202.366
G01 X211.944 Y200.912
G01 X214.755 Y199.614
G01 X217.602 Y198.472
G01 X220.474 Y197.487
G01 X223.365 Y196.659
G01 X224.629 Y196.346
G01 X224.706 Y197.917
G01 X221.864 Y198.643
G01 X219.034 Y199.524
G01 X216.222 Y200.561
G01 X213.439 Y201.753
G01 X210.693 Y203.100
G01 X207.992 Y204.601
G01 X205.344 Y206.256
G01 X202.759 Y208.063
G01 X200.244 Y210.019
G01 X198.770 Y211.266
G01 X183.824 Y204.892
G01 X168.161 Y199.913
G01 X151.883 Y196.382
G01 X138.222 Y194.608
G01 X139.294 Y196.456
G01 X156.550 Y199.000
G01 X173.256 Y203.089
G01 X189.301 Y208.674
G01 X198.841 Y212.849
G01 X201.266 Y210.817
G01 X203.765 Y208.933
G01 X206.330 Y207.199
G01 X208.953 Y205.616
G01 X211.625 Y204.186
G01 X214.337 Y202.910
G01 X217.081 Y201.789
G01 X219.848 Y200.822
G01 X222.630 Y200.009
G01 X224.817 Y199.478
G01 X224.942 Y201.012
G01 X222.207 Y201.670
G01 X219.476 Y202.481
G01 X216.759 Y203.445
G01 X214.064 Y204.562
G01 X211.399 Y205.833
G01 X208.774 Y207.257
G01 X206.197 Y208.834
G01 X203.677 Y210.562
G01 X201.222 Y212.439
G01 X198.892 Y214.417
G01 X182.575 Y207.812
G01 X165.521 Y202.745
G01 X147.845 Y199.269
G01 X140.402 Y198.311
G01 X141.517 Y200.183
G01 X160.180 Y203.287
G01 X178.239 Y208.083
G01 X195.573 Y214.516
G01 X198.915 Y215.982
G01 X201.258 Y213.968
G01 X203.673 Y212.101
G01 X206.153 Y210.384
G01 X208.689 Y208.817
G01 X211.271 Y207.403
G01 X213.891 Y206.141
G01 X216.541 Y205.032
G01 X219.211 Y204.077
G01 X221.894 Y203.273
G01 X224.580 Y202.620
G01 X225.085 Y202.515
G01 X225.251 Y204.012
G01 X222.613 Y204.601
G01 X219.975 Y205.339
G01 X217.345 Y206.229
G01 X214.730 Y207.271
G01 X212.140 Y208.465
G01 X209.584 Y209.813
G01 X207.070 Y211.312
G01 X204.608 Y212.962
G01 X202.205 Y214.762
G01 X199.871 Y216.710
G01 X198.941 Y217.547
G01 X180.769 Y210.627
G01 X161.836 Y205.435
G01 X142.817 Y202.098
G01 X144.109 Y204.003
G01 X164.743 Y207.879
G01 X184.698 Y213.647
G01 X198.948 Y219.100
G01 X201.214 Y217.096
G01 X203.551 Y215.238
G01 X205.951 Y213.530
G01 X208.406 Y211.972
G01 X210.906 Y210.566
G01 X213.442 Y209.312
G01 X216.006 Y208.211
G01 X218.589 Y207.262
G01 X221.182 Y206.464
G01 X223.776 Y205.815
G01 X225.434 Y205.478
G01 X225.628 Y206.916
G01 X223.082 Y207.434
G01 X220.529 Y208.099
G01 X217.977 Y208.915
G01 X215.436 Y209.881
G01 X212.914 Y211.000
G01 X210.420 Y212.271
G01 X207.963 Y213.694
G01 X205.552 Y215.268
G01 X203.195 Y216.994
G01 X200.903 Y218.867
G01 X198.935 Y220.647
G01 X178.134 Y213.259
G01 X156.532 Y207.865
G01 X145.484 Y205.936
G01 X146.918 Y207.894
G01 X170.502 Y212.877
G01 X193.298 Y220.049
G01 X198.924 Y222.204
G01 X201.116 Y220.198
G01 X203.379 Y218.340
G01 X205.706 Y216.630
G01 X208.086 Y215.072
G01 X210.511 Y213.665
G01 X212.971 Y212.410
G01 X215.458 Y211.308
G01 X217.962 Y210.358
G01 X220.475 Y209.559
G01 X222.988 Y208.909
G01 X225.493 Y208.406
G01 X225.845 Y208.347
G01 X226.074 Y209.749
G01 X223.613 Y210.195
G01 X221.140 Y210.788
G01 X218.662 Y211.529
G01 X216.190 Y212.421
G01 X213.730 Y213.464
G01 X211.293 Y214.660
G01 X208.888 Y216.008
G01 X206.524 Y217.509
G01 X204.209 Y219.161
G01 X201.954 Y220.963
G01 X199.768 Y222.914
G01 X198.897 Y223.752
G01 X174.084 Y215.605
G01 X148.444 Y209.862
G01 X150.029 Y211.858
G01 X178.443 Y218.594
G01 X198.852 Y225.300
G01 X200.974 Y223.282
G01 X203.169 Y221.412
G01 X205.427 Y219.692
G01 X207.739 Y218.123
G01 X210.096 Y216.707
G01 X212.489 Y215.444
G01 X214.907 Y214.334
G01 X217.343 Y213.376
G01 X219.786 Y212.570
G01 X222.229 Y211.913
G01 X224.661 Y211.404
G01 X226.338 Y211.137
G01 X226.632 Y212.512
G01 X224.249 Y212.880
G01 X221.847 Y213.393
G01 X219.435 Y214.054
G01 X217.022 Y214.866
G01 X214.616 Y215.830
G01 X212.228 Y216.947
G01 X209.865 Y218.218
G01 X207.538 Y219.642
G01 X205.256 Y221.219
G01 X203.029 Y222.949
G01 X200.866 Y224.829
G01 X198.795 Y226.838
G01 X167.230 Y217.353
G01 X151.750 Y213.892
G01 X153.562 Y215.942
G01 X190.888 Y225.800
G01 X198.723 Y228.376
G01 X200.782 Y226.336
G01 X202.915 Y224.445
G01 X205.113 Y222.705
G01 X207.367 Y221.118
G01 X209.665 Y219.684
G01 X212.000 Y218.406
G01 X214.361 Y217.282
G01 X216.739 Y216.311
G01 X219.125 Y215.494
G01 X221.509 Y214.827
G01 X223.882 Y214.310
G01 X226.236 Y213.939
G01 X226.939 Y213.855
G01 X227.261 Y215.165
G01 X224.949 Y215.453
G01 X222.612 Y215.887
G01 X220.259 Y216.469
G01 X217.899 Y217.201
G01 X215.540 Y218.087
G01 X213.193 Y219.126
G01 X210.867 Y220.321
G01 X208.572 Y221.670
G01 X206.317 Y223.176
G01 X204.112 Y224.835
G01 X201.967 Y226.648
G01 X199.892 Y228.611
G01 X198.640 Y229.908
G01 X155.510 Y218.037
G01 X157.620 Y220.175
G01 X198.545 Y231.439
G01 X200.542 Y229.364
G01 X202.616 Y227.439
G01 X204.757 Y225.667
G01 X206.956 Y224.049
G01 X209.202 Y222.588
G01 X211.486 Y221.282
G01 X213.798 Y220.133
G01 X216.127 Y219.140
G01 X218.465 Y218.302
G01 X220.801 Y217.617
G01 X223.127 Y217.083
G01 X225.433 Y216.697
G01 X227.608 Y216.463
G01 X227.983 Y217.749
G01 X225.734 Y217.954
G01 X223.455 Y218.304
G01 X221.153 Y218.802
G01 X218.838 Y219.452
G01 X216.519 Y220.257
G01 X214.206 Y221.216
G01 X211.909 Y222.333
G01 X209.637 Y223.608
G01 X207.401 Y225.041
G01 X205.211 Y226.630
G01 X203.077 Y228.376
G01 X201.008 Y230.276
G01 X199.016 Y232.328
G01 X198.441 Y232.966
G01 X159.919 Y222.363
G01 X162.434 Y224.603
G01 X198.303 Y234.484
G01 X200.244 Y232.362
G01 X202.266 Y230.392
G01 X204.358 Y228.577
G01 X206.511 Y226.918
G01 X208.714 Y225.419
G01 X210.957 Y224.078
G01 X213.230 Y222.897
G01 X215.523 Y221.874
G01 X217.825 Y221.009
G01 X220.126 Y220.301
G01 X222.418 Y219.747
G01 X224.690 Y219.344
G01 X226.933 Y219.088
G01 X228.370 Y219.000
G01 X228.793 Y220.232
G01 X226.601 Y220.349
G01 X224.371 Y220.612
G01 X222.112 Y221.025
G01 X219.835 Y221.590
G01 X217.548 Y222.312
G01 X215.261 Y223.191
G01 X212.985 Y224.229
G01 X210.729 Y225.429
G01 X208.504 Y226.789
G01 X206.321 Y228.309
G01 X204.189 Y229.990
G01 X202.120 Y231.828
G01 X200.124 Y233.822
G01 X198.211 Y235.970
G01 X198.182 Y236.005
G01 X165.281 Y226.946
G01 X168.588 Y229.412
G01 X198.028 Y237.519
G01 X199.952 Y235.349
G01 X201.961 Y233.338
G01 X204.044 Y231.487
G01 X206.189 Y229.799
G01 X208.387 Y228.276
G01 X210.626 Y226.919
G01 X212.895 Y225.727
G01 X215.184 Y224.701
G01 X217.481 Y223.839
G01 X219.777 Y223.139
G01 X222.061 Y222.600
G01 X224.322 Y222.218
G01 X226.552 Y221.990
G01 X228.328 Y221.914
G01 X227.423 Y223.535
G01 X227.346 Y223.682
G01 X225.186 Y223.882
G01 X222.993 Y224.233
G01 X220.778 Y224.738
G01 X218.549 Y225.401
G01 X216.317 Y226.224
G01 X214.092 Y227.208
G01 X211.886 Y228.355
G01 X209.708 Y229.665
G01 X207.570 Y231.138
G01 X205.483 Y232.774
G01 X203.456 Y234.569
G01 X201.502 Y236.523
G01 X200.715 Y237.379
G01 X203.119 Y237.379
G01 X205.048 Y235.498
G01 X207.046 Y233.775
G01 X209.102 Y232.212
G01 X211.204 Y230.811
G01 X213.343 Y229.571
G01 X215.507 Y228.494
G01 X217.686 Y227.578
G01 X219.869 Y226.823
G01 X222.046 Y226.225
G01 X224.206 Y225.784
G01 X226.160 Y225.513
G01 X225.182 Y226.893
G01 X224.802 Y227.473
G01 X222.680 Y227.889
G01 X220.541 Y228.461
G01 X218.394 Y229.192
G01 X216.252 Y230.084
G01 X214.123 Y231.137
G01 X212.020 Y232.353
G01 X209.952 Y233.731
G01 X207.931 Y235.270
G01 X205.967 Y236.970
G01 X205.532 Y237.377
G01 X208.845 Y237.369
G01 X210.853 Y235.848
G01 X212.907 Y234.494
G01 X214.997 Y233.305
G01 X217.112 Y232.283
G01 X219.239 Y231.426
G01 X221.368 Y230.733
G01 X222.168 Y230.515
G01 X220.749 Y231.592
G01 X219.370 Y232.761
G01 X218.036 Y234.023
G01 X217.449 Y234.624
G01 X215.242 Y235.623
G01 X213.058 Y236.803
G01 X212.159 Y237.347
G01 X202.997 Y236.809
G01 X193.711 Y237.146
G01 X191.711 Y237.333
G01 X173.178 Y232.232
G01 X178.915 Y235.369
G01 X187.678 Y237.439
G01 X191.496 Y237.145
G01 X193.998 Y237.183
G01 X197.867 Y237.121
G01 X202.375 Y237.163
G01 X210.019 Y237.088
G01 X211.795 Y237.174
G01 X216.962 Y237.072
G01 X219.240 Y237.180
G01 X222.850 Y237.086
G01 X226.388 Y237.312
G01 X227.248 Y237.417
G01 X229.291 Y237.181
G01 X231.298 Y237.113
G01 X233.260 Y237.209
G01 X235.163 Y237.464
G01 X235.275 Y237.484
G01 X236.588 Y237.416
G01 X237.871 Y237.444
G01 X239.116 Y237.567
G01 X239.344 Y237.600
G01 X240.370 Y237.613
G01 X241.369 Y237.697
G01 X242.336 Y237.847
G01 X243.266 Y238.061
G01 X243.618 Y238.161
G01 X244.313 Y238.085
G01 X245.000 Y238.048
G01 X245.676 Y238.049
G01 X246.340 Y238.087
G01 X246.990 Y238.161
G01 X247.624 Y238.270
G01 X248.239 Y238.411
G01 X248.835 Y238.584
G01 X249.012 Y238.643
G01 X249.575 Y238.742
G01 X250.127 Y238.868
G01 X250.158 Y238.876
G01 X250.774 Y237.783
G01 X251.498 Y236.726
G01 X252.152 Y235.913
G01 X253.241 Y234.069
G01 X254.514 Y232.303
G01 X254.746 Y232.016
G01 X256.847 Y228.409
G01 X258.970 Y225.410
G01 X262.267 Y220.012
G01 X265.479 Y214.530
G01 X268.614 Y208.948
G01 X271.675 Y203.256
G01 X274.636 Y197.492
G01 X277.517 Y191.609
G01 X280.999 Y184.102
G01 X283.682 Y177.988
G01 X286.265 Y171.772
G01 X288.753 Y165.432
G01 X291.145 Y158.966
G01 X293.432 Y152.375
G01 X295.610 Y145.658
G01 X297.677 Y138.816
G01 X299.631 Y131.851
G01 X301.015 Y126.523
G01 X302.751 Y119.293
G01 X304.354 Y111.912
G01 X305.834 Y104.361
G01 X306.834 Y98.590
G01 X308.040 Y90.747
G01 X309.084 Y82.702
G01 X310.169 Y72.364
G01 X310.807 Y63.829
G01 X311.251 Y55.098
G01 X311.478 Y46.065
G01 X311.529 Y38.805
G01 X311.486 Y38.324
G01 X314.221 Y38.876
G01 X311.502 Y39.136
G01 X310.731 Y38.236
G01 X308.682 Y38.126
G01 X311.505 Y41.455
G01 X318.772 Y40.788
G01 X321.729 Y42.815
G01 X311.494 Y43.773
G01 X306.772 Y38.202
G01 X304.997 Y38.406
G01 X311.478 Y46.065
G01 X322.962 Y44.967
G01 X323.959 Y44.903
G01 X325.759 Y47.001
G01 X314.283 Y48.004
G01 X311.448 Y48.355
G01 X303.295 Y38.718
G01 X301.646 Y39.132
G01 X309.902 Y48.737
G01 X311.392 Y50.612
G01 X322.714 Y49.419
G01 X327.265 Y49.122
G01 X328.529 Y51.252
G01 X317.152 Y52.149
G01 X311.324 Y52.868
G01 X303.352 Y43.219
G01 X300.083 Y39.604
G01 X298.586 Y40.125
G01 X306.889 Y49.585
G01 X311.251 Y55.098
G01 X322.402 Y53.836
G01 X329.634 Y53.363
G01 X330.592 Y55.485
G01 X319.330 Y56.292
G01 X311.154 Y57.296
G01 X303.429 Y47.696
G01 X297.128 Y40.716
G01 X295.689 Y41.369
G01 X304.035 Y50.636
G01 X311.064 Y59.497
G01 X322.038 Y58.197
G01 X331.416 Y57.591
G01 X332.145 Y59.697
G01 X321.009 Y60.432
G01 X310.950 Y61.667
G01 X303.458 Y52.158
G01 X295.176 Y42.947
G01 X294.301 Y42.041
G01 X292.954 Y42.780
G01 X301.325 Y51.872
G01 X308.912 Y61.271
G01 X310.807 Y63.829
G01 X321.600 Y62.502
G01 X332.666 Y61.797
G01 X332.763 Y61.793
G01 X333.319 Y63.873
G01 X322.314 Y64.553
G01 X311.580 Y65.854
G01 X310.670 Y65.994
G01 X303.413 Y56.557
G01 X295.372 Y47.405
G01 X291.637 Y43.531
G01 X290.340 Y44.344
G01 X298.726 Y53.261
G01 X306.337 Y62.488
G01 X310.511 Y68.127
G01 X321.129 Y66.765
G01 X332.022 Y66.018
G01 X333.804 Y65.957
G01 X334.229 Y68.023
G01 X323.364 Y68.645
G01 X312.766 Y69.884
G01 X310.342 Y70.258
G01 X303.313 Y60.906
G01 X295.507 Y51.826
G01 X289.094 Y45.172
G01 X287.852 Y46.033
G01 X296.242 Y54.778
G01 X303.868 Y63.839
G01 X310.169 Y72.364
G01 X320.612 Y70.970
G01 X331.332 Y70.184
G01 X334.596 Y70.070
G01 X334.913 Y72.129
G01 X324.192 Y72.697
G01 X313.735 Y73.878
G01 X309.968 Y74.461
G01 X303.163 Y65.195
G01 X295.587 Y56.190
G01 X287.253 Y47.499
G01 X286.641 Y46.904
G01 X285.431 Y47.831
G01 X293.818 Y56.399
G01 X301.453 Y65.287
G01 X308.325 Y74.442
G01 X309.765 Y76.532
G01 X320.025 Y75.128
G01 X330.562 Y74.324
G01 X335.174 Y74.168
G01 X335.379 Y76.188
G01 X324.805 Y76.707
G01 X314.493 Y77.834
G01 X309.551 Y78.601
G01 X302.961 Y69.436
G01 X295.610 Y60.521
G01 X287.508 Y51.908
G01 X284.255 Y48.744
G01 X283.101 Y49.717
G01 X291.477 Y58.113
G01 X299.112 Y66.833
G01 X305.996 Y75.824
G01 X309.327 Y80.667
G01 X319.411 Y79.238
G01 X329.774 Y78.402
G01 X335.564 Y78.204
G01 X335.714 Y80.208
G01 X325.288 Y80.684
G01 X315.121 Y81.762
G01 X309.084 Y82.702
G01 X302.707 Y73.636
G01 X295.578 Y64.809
G01 X287.706 Y56.272
G01 X281.978 Y50.699
G01 X280.828 Y51.656
G01 X289.189 Y59.881
G01 X296.820 Y68.433
G01 X303.710 Y77.261
G01 X308.848 Y84.740
G01 X318.753 Y83.301
G01 X328.936 Y82.446
G01 X335.799 Y82.214
G01 X335.876 Y84.195
G01 X325.605 Y84.626
G01 X315.587 Y85.656
G01 X308.594 Y86.747
G01 X302.425 Y77.786
G01 X295.514 Y69.052
G01 X287.868 Y60.597
G01 X279.756 Y52.706
G01 X278.655 Y53.756
G01 X286.991 Y61.801
G01 X294.610 Y70.175
G01 X301.500 Y78.829
G01 X307.653 Y87.710
G01 X308.314 Y88.745
G01 X318.039 Y87.297
G01 X328.043 Y86.425
G01 X335.920 Y86.162
G01 X335.917 Y88.140
G01 X325.801 Y88.530
G01 X315.935 Y89.513
G01 X308.040 Y90.747
G01 X302.075 Y81.896
G01 X295.377 Y73.262
G01 X287.953 Y64.895
G01 X279.814 Y56.847
G01 X277.584 Y54.814
G01 X276.523 Y55.879
G01 X284.832 Y63.749
G01 X292.434 Y71.953
G01 X299.320 Y80.438
G01 X305.478 Y89.156
G01 X307.750 Y92.717
G01 X317.296 Y91.264
G01 X327.119 Y90.380
G01 X335.909 Y90.091
G01 X335.868 Y92.029
G01 X325.906 Y92.383
G01 X316.190 Y93.323
G01 X307.467 Y94.691
G01 X301.701 Y85.952
G01 X295.212 Y77.419
G01 X288.006 Y69.142
G01 X280.094 Y61.172
G01 X275.489 Y56.976
G01 X274.466 Y58.078
G01 X282.739 Y65.780
G01 X290.318 Y73.816
G01 X297.191 Y82.137
G01 X303.349 Y90.693
G01 X307.143 Y96.651
G01 X316.510 Y95.191
G01 X326.153 Y94.292
G01 X335.782 Y93.977
G01 X335.692 Y95.898
G01 X325.890 Y96.210
G01 X316.330 Y97.102
G01 X307.046 Y98.550
G01 X306.834 Y98.590
G01 X301.267 Y89.958
G01 X294.984 Y81.522
G01 X287.994 Y73.331
G01 X280.305 Y65.436
G01 X273.452 Y59.186
G01 X272.446 Y60.324
G01 X280.682 Y67.853
G01 X288.235 Y75.719
G01 X295.094 Y83.873
G01 X301.248 Y92.265
G01 X306.502 Y100.522
G01 X315.691 Y99.057
G01 X325.155 Y98.145
G01 X334.862 Y97.808
G01 X335.570 Y97.806
G01 X335.432 Y99.710
G01 X325.786 Y99.991
G01 X316.378 Y100.847
G01 X307.242 Y102.254
G01 X306.175 Y102.457
G01 X300.800 Y93.944
G01 X294.720 Y85.617
G01 X287.941 Y77.525
G01 X280.472 Y69.717
G01 X272.327 Y62.242
G01 X271.448 Y61.491
G01 X270.464 Y62.639
G01 X278.658 Y69.992
G01 X286.182 Y77.683
G01 X293.023 Y85.664
G01 X299.172 Y93.887
G01 X304.622 Y102.303
G01 X305.834 Y104.361
G01 X314.845 Y102.893
G01 X324.131 Y101.968
G01 X333.657 Y101.611
G01 X335.277 Y101.608
G01 X335.093 Y103.494
G01 X325.610 Y103.734
G01 X316.362 Y104.542
G01 X307.379 Y105.894
G01 X305.471 Y106.257
G01 X300.284 Y97.858
G01 X294.402 Y89.636
G01 X287.831 Y81.639
G01 X280.579 Y73.914
G01 X272.657 Y66.511
G01 X269.507 Y63.819
G01 X268.542 Y65.002
G01 X276.688 Y72.187
G01 X284.177 Y79.711
G01 X290.994 Y87.527
G01 X297.130 Y95.588
G01 X302.578 Y103.845
G01 X305.113 Y108.156
G01 X313.945 Y106.687
G01 X323.049 Y105.753
G01 X332.394 Y105.378
G01 X334.893 Y105.374
G01 X334.663 Y107.242
G01 X325.340 Y107.452
G01 X316.247 Y108.224
G01 X307.416 Y109.534
G01 X304.733 Y110.047
G01 X299.734 Y101.765
G01 X294.049 Y93.650
G01 X287.684 Y85.751
G01 X280.647 Y78.113
G01 X272.948 Y70.785
G01 X267.604 Y66.216
G01 X266.658 Y67.433
G01 X274.753 Y74.448
G01 X282.202 Y81.803
G01 X288.992 Y89.452
G01 X295.112 Y97.347
G01 X300.555 Y105.443
G01 X304.354 Y111.912
G01 X313.005 Y110.445
G01 X321.927 Y109.505
G01 X331.088 Y109.114
G01 X334.432 Y109.112
G01 X334.184 Y110.948
G01 X325.024 Y111.124
G01 X316.089 Y111.854
G01 X307.411 Y113.116
G01 X303.967 Y113.775
G01 X299.150 Y105.615
G01 X293.658 Y97.612
G01 X287.495 Y89.815
G01 X280.668 Y82.269
G01 X273.189 Y75.022
G01 X265.742 Y68.657
G01 X264.835 Y69.910
G01 X272.875 Y76.758
G01 X280.280 Y83.947
G01 X287.037 Y91.431
G01 X293.136 Y99.164
G01 X298.569 Y107.099
G01 X303.332 Y115.191
G01 X303.572 Y115.636
G01 X312.048 Y114.163
G01 X320.793 Y113.209
G01 X329.775 Y112.795
G01 X333.896 Y112.791
G01 X333.619 Y114.617
G01 X324.622 Y114.761
G01 X315.846 Y115.452
G01 X307.322 Y116.668
G01 X303.165 Y117.466
G01 X298.527 Y109.431
G01 X293.223 Y101.545
G01 X287.258 Y93.854
G01 X280.639 Y86.406
G01 X273.377 Y79.244
G01 X265.483 Y72.415
G01 X263.922 Y71.166
G01 X263.038 Y72.428
G01 X271.019 Y79.107
G01 X278.378 Y86.127
G01 X285.100 Y93.443
G01 X291.176 Y101.011
G01 X296.598 Y108.785
G01 X301.361 Y116.717
G01 X302.751 Y119.293
G01 X311.049 Y117.822
G01 X319.613 Y116.861
G01 X328.414 Y116.431
G01 X333.314 Y116.428
G01 X333.008 Y118.243
G01 X324.173 Y118.357
G01 X315.555 Y119.011
G01 X307.185 Y120.183
G01 X302.330 Y121.119
G01 X297.866 Y113.209
G01 X292.748 Y105.440
G01 X286.979 Y97.857
G01 X280.565 Y90.506
G01 X273.517 Y83.431
G01 X265.845 Y76.678
G01 X262.146 Y73.718
G01 X261.285 Y74.988
G01 X269.204 Y81.503
G01 X276.512 Y88.358
G01 X283.195 Y95.512
G01 X289.244 Y102.918
G01 X294.649 Y110.532
G01 X299.406 Y118.309
G01 X301.901 Y122.941
G01 X310.021 Y121.468
G01 X318.407 Y120.496
G01 X327.027 Y120.047
G01 X332.675 Y120.044
G01 X332.327 Y121.839
G01 X323.657 Y121.923
G01 X315.198 Y122.539
G01 X306.983 Y123.666
G01 X301.461 Y124.734
G01 X297.172 Y116.946
G01 X292.238 Y109.291
G01 X286.662 Y101.812
G01 X280.450 Y94.556
G01 X273.613 Y87.565
G01 X266.160 Y80.885
G01 X260.417 Y76.287
G01 X259.559 Y77.615
G01 X267.411 Y83.959
G01 X274.666 Y90.644
G01 X281.309 Y97.628
G01 X287.328 Y104.866
G01 X292.716 Y112.315
G01 X297.467 Y119.930
G01 X301.015 Y126.523
G01 X308.954 Y125.059
G01 X317.156 Y124.086
G01 X325.590 Y123.626
G01 X331.965 Y123.629
G01 X331.589 Y125.413
G01 X323.086 Y125.463
G01 X314.791 Y126.038
G01 X306.733 Y127.118
G01 X300.561 Y128.311
G01 X296.441 Y120.651
G01 X291.687 Y113.116
G01 X286.301 Y105.748
G01 X280.289 Y98.592
G01 X273.660 Y91.693
G01 X266.424 Y85.092
G01 X258.714 Y78.922
G01 X257.880 Y80.258
G01 X265.664 Y86.439
G01 X272.862 Y92.963
G01 X279.459 Y99.785
G01 X285.444 Y106.863
G01 X290.809 Y114.153
G01 X295.548 Y121.612
G01 X299.658 Y129.196
G01 X300.101 Y130.096
G01 X307.862 Y128.634
G01 X315.883 Y127.654
G01 X324.134 Y127.179
G01 X331.186 Y127.183
G01 X330.796 Y128.935
G01 X322.459 Y128.957
G01 X314.324 Y129.496
G01 X306.422 Y130.533
G01 X299.631 Y131.851
G01 X295.677 Y124.323
G01 X291.099 Y116.911
G01 X285.900 Y109.658
G01 X280.084 Y102.608
G01 X273.660 Y95.803
G01 X266.640 Y89.287
G01 X259.035 Y83.102
G01 X257.058 Y81.623
G01 X256.232 Y82.966
G01 X263.944 Y88.981
G01 X271.081 Y95.336
G01 X277.630 Y101.991
G01 X283.580 Y108.902
G01 X288.920 Y116.029
G01 X293.646 Y123.326
G01 X297.754 Y130.752
G01 X299.156 Y133.604
G01 X306.735 Y132.152
G01 X314.571 Y131.173
G01 X322.635 Y130.689
G01 X330.378 Y130.701
G01 X329.948 Y132.433
G01 X321.780 Y132.425
G01 X313.808 Y132.926
G01 X306.064 Y133.917
G01 X298.673 Y135.354
G01 X294.882 Y127.957
G01 X290.477 Y120.669
G01 X285.462 Y113.531
G01 X279.840 Y106.587
G01 X273.619 Y99.878
G01 X266.810 Y93.448
G01 X259.426 Y87.337
G01 X255.418 Y84.339
G01 X254.616 Y85.715
G01 X262.252 Y91.566
G01 X269.326 Y97.757
G01 X275.824 Y104.248
G01 X281.733 Y110.996
G01 X287.045 Y117.961
G01 X291.754 Y125.099
G01 X295.855 Y132.369
G01 X298.173 Y137.098
G01 X305.576 Y135.646
G01 X313.232 Y134.657
G01 X321.114 Y134.154
G01 X329.192 Y134.156
G01 X329.517 Y134.167
G01 X329.072 Y135.895
G01 X321.072 Y135.855
G01 X313.265 Y136.316
G01 X305.679 Y137.259
G01 X298.343 Y138.663
G01 X297.677 Y138.816
G01 X294.046 Y131.550
G01 X289.812 Y124.384
G01 X284.977 Y117.361
G01 X279.545 Y110.522
G01 X273.524 Y103.909
G01 X266.924 Y97.565
G01 X259.755 Y91.529
G01 X253.828 Y87.095
G01 X253.052 Y88.479
G01 X260.610 Y94.172
G01 X267.617 Y100.204
G01 X274.059 Y106.536
G01 X279.924 Y113.127
G01 X285.204 Y119.935
G01 X289.890 Y126.919
G01 X293.981 Y134.037
G01 X297.164 Y140.555
G01 X304.388 Y139.106
G01 X311.863 Y138.112
G01 X319.561 Y137.594
G01 X327.454 Y137.570
G01 X328.602 Y137.608
G01 X328.129 Y139.324
G01 X320.296 Y139.260
G01 X312.651 Y139.689
G01 X305.222 Y140.593
G01 X298.037 Y141.950
G01 X296.656 Y142.269
G01 X293.184 Y135.133
G01 X289.121 Y128.091
G01 X284.466 Y121.182
G01 X279.224 Y114.449
G01 X273.401 Y107.933
G01 X267.008 Y101.674
G01 X260.055 Y95.714
G01 X252.558 Y90.090
G01 X252.273 Y89.891
G01 X251.506 Y91.307
G01 X258.983 Y96.837
G01 X265.920 Y102.706
G01 X272.305 Y108.874
G01 X278.125 Y115.302
G01 X283.370 Y121.948
G01 X288.034 Y128.772
G01 X292.113 Y135.733
G01 X295.605 Y142.790
G01 X296.131 Y143.976
G01 X303.173 Y142.536
G01 X310.464 Y141.540
G01 X317.975 Y141.011
G01 X325.679 Y140.966
G01 X327.644 Y141.033
G01 X327.159 Y142.715
G01 X319.496 Y142.620
G01 X312.016 Y143.011
G01 X304.746 Y143.868
G01 X297.714 Y145.172
G01 X295.610 Y145.658
G01 X292.293 Y138.656
G01 X288.393 Y131.740
G01 X283.913 Y124.951
G01 X278.856 Y118.328
G01 X273.229 Y111.912
G01 X267.038 Y105.745
G01 X260.298 Y99.864
G01 X253.020 Y94.310
G01 X250.754 Y92.727
G01 X249.999 Y94.175
G01 X257.390 Y99.543
G01 X264.256 Y105.249
G01 X270.580 Y111.254
G01 X276.351 Y117.518
G01 X281.560 Y124.002
G01 X286.199 Y130.666
G01 X290.263 Y137.470
G01 X293.751 Y144.373
G01 X295.074 Y147.361
G01 X301.937 Y145.927
G01 X309.045 Y144.928
G01 X316.371 Y144.384
G01 X323.887 Y144.316
G01 X326.646 Y144.411
G01 X326.135 Y146.080
G01 X318.642 Y145.960
G01 X311.325 Y146.316
G01 X304.215 Y147.130
G01 X297.336 Y148.384
G01 X294.532 Y149.034
G01 X291.366 Y142.169
G01 X287.629 Y135.383
G01 X283.322 Y128.715
G01 X278.449 Y122.206
G01 X273.014 Y115.896
G01 X267.026 Y109.822
G01 X260.496 Y104.026
G01 X253.438 Y98.545
G01 X249.258 Y95.627
G01 X248.531 Y97.082
G01 X255.835 Y102.291
G01 X262.624 Y107.835
G01 X268.885 Y113.678
G01 X274.604 Y119.780
G01 X279.772 Y126.104
G01 X284.382 Y132.608
G01 X288.429 Y139.255
G01 X291.910 Y146.005
G01 X293.984 Y150.706
G01 X300.666 Y149.281
G01 X307.589 Y148.282
G01 X314.727 Y147.728
G01 X322.053 Y147.638
G01 X325.596 Y147.763
G01 X325.058 Y149.419
G01 X317.736 Y149.271
G01 X310.586 Y149.592
G01 X303.636 Y150.363
G01 X296.913 Y151.566
G01 X293.432 Y152.375
G01 X290.416 Y145.645
G01 X286.840 Y138.988
G01 X282.704 Y132.441
G01 X278.011 Y126.044
G01 X272.766 Y119.837
G01 X266.978 Y113.858
G01 X260.656 Y108.145
G01 X253.814 Y102.737
G01 X247.803 Y98.541
G01 X247.089 Y100.028
G01 X254.303 Y105.079
G01 X261.014 Y110.464
G01 X267.208 Y116.146
G01 X272.872 Y122.088
G01 X277.997 Y128.252
G01 X282.575 Y134.598
G01 X286.601 Y141.089
G01 X290.072 Y147.686
G01 X292.865 Y154.038
G01 X299.368 Y152.615
G01 X306.110 Y151.608
G01 X313.064 Y151.036
G01 X320.205 Y150.918
G01 X324.507 Y151.068
G01 X323.953 Y152.718
G01 X316.803 Y152.544
G01 X309.820 Y152.828
G01 X303.030 Y153.556
G01 X296.461 Y154.706
G01 X292.303 Y155.677
G01 X289.433 Y149.084
G01 X286.014 Y142.556
G01 X282.045 Y136.132
G01 X277.530 Y129.851
G01 X272.473 Y123.749
G01 X266.881 Y117.867
G01 X260.764 Y112.241
G01 X254.136 Y106.909
G01 X247.009 Y101.907
G01 X246.375 Y101.494
G01 X245.690 Y102.988
G01 X252.811 Y107.884
G01 X259.442 Y113.113
G01 X265.567 Y118.639
G01 X271.174 Y124.424
G01 X276.253 Y130.431
G01 X280.795 Y136.622
G01 X284.797 Y142.960
G01 X288.254 Y149.405
G01 X291.167 Y155.921
G01 X291.725 Y157.336
G01 X298.049 Y155.918
G01 X304.607 Y154.906
G01 X311.376 Y154.320
G01 X318.329 Y154.176
G01 X323.376 Y154.353
G01 X322.796 Y155.989
G01 X315.816 Y155.792
G01 X308.998 Y156.046
G01 X302.369 Y156.734
G01 X295.954 Y157.837
G01 X291.145 Y158.966
G01 X288.420 Y152.512
G01 X285.156 Y146.116
G01 X281.354 Y139.817
G01 X277.014 Y133.652
G01 X272.143 Y127.659
G01 X266.747 Y121.875
G01 X260.834 Y116.338
G01 X254.418 Y111.084
G01 X247.512 Y106.150
G01 X244.992 Y104.511
G01 X244.308 Y106.012
G01 X251.334 Y110.751
G01 X257.881 Y115.821
G01 X263.934 Y121.186
G01 X269.481 Y126.811
G01 X274.512 Y132.657
G01 X279.018 Y138.690
G01 X282.994 Y144.870
G01 X286.437 Y151.162
G01 X289.346 Y157.527
G01 X290.550 Y160.591
G01 X296.691 Y159.184
G01 X303.062 Y158.172
G01 X309.641 Y157.575
G01 X316.401 Y157.410
G01 X322.202 Y157.618
G01 X321.595 Y159.239
G01 X314.790 Y159.017
G01 X308.141 Y159.236
G01 X301.675 Y159.880
G01 X295.416 Y160.932
G01 X289.961 Y162.218
G01 X287.378 Y155.900
G01 X284.267 Y149.636
G01 X280.628 Y143.460
G01 X276.462 Y137.412
G01 X271.774 Y131.526
G01 X266.569 Y125.841
G01 X260.858 Y120.393
G01 X254.651 Y115.218
G01 X247.962 Y110.351
G01 X243.641 Y107.542
G01 X242.975 Y109.075
G01 X249.902 Y113.658
G01 X256.362 Y118.570
G01 X262.340 Y123.775
G01 X267.824 Y129.240
G01 X272.803 Y134.927
G01 X277.270 Y140.800
G01 X281.217 Y146.824
G01 X284.642 Y152.961
G01 X287.545 Y159.175
G01 X289.360 Y163.812
G01 X295.316 Y162.418
G01 X301.499 Y161.409
G01 X307.886 Y160.804
G01 X314.451 Y160.620
G01 X320.984 Y160.860
G01 X320.359 Y162.474
G01 X313.733 Y162.221
G01 X307.257 Y162.401
G01 X300.957 Y162.997
G01 X294.858 Y163.993
G01 X288.983 Y165.369
G01 X288.753 Y165.432
G01 X286.308 Y159.256
G01 X283.346 Y153.127
G01 X279.866 Y147.081
G01 X275.870 Y141.154
G01 X271.361 Y135.382
G01 X266.347 Y129.802
G01 X260.834 Y124.448
G01 X254.835 Y119.358
G01 X248.362 Y114.565
G01 X242.312 Y110.637
G01 X241.664 Y112.177
G01 X248.490 Y116.605
G01 X254.861 Y121.361
G01 X260.762 Y126.408
G01 X266.180 Y131.714
G01 X271.105 Y137.243
G01 X275.528 Y142.958
G01 X279.444 Y148.826
G01 X282.849 Y154.809
G01 X285.742 Y160.871
G01 X288.122 Y166.978
G01 X288.137 Y167.019
G01 X293.911 Y165.631
G01 X299.909 Y164.617
G01 X306.108 Y163.997
G01 X312.482 Y163.787
G01 X319.008 Y164.003
G01 X319.729 Y164.053
G01 X319.045 Y165.657
G01 X312.597 Y165.381
G01 X306.293 Y165.527
G01 X300.159 Y166.081
G01 X294.220 Y167.025
G01 X288.498 Y168.342
G01 X287.524 Y168.609
G01 X285.215 Y162.572
G01 X282.399 Y156.577
G01 X279.076 Y150.658
G01 X275.247 Y144.851
G01 X270.915 Y139.191
G01 X266.087 Y133.714
G01 X260.770 Y128.454
G01 X254.975 Y123.448
G01 X248.714 Y118.728
G01 X242.002 Y114.329
G01 X241.034 Y113.745
G01 X240.393 Y115.317
G01 X247.115 Y119.592
G01 X253.394 Y124.192
G01 X259.214 Y129.082
G01 X264.564 Y134.230
G01 X269.432 Y139.600
G01 X273.810 Y145.158
G01 X277.692 Y150.869
G01 X281.074 Y156.698
G01 X283.954 Y162.609
G01 X286.333 Y168.568
G01 X286.892 Y170.189
G01 X292.480 Y168.815
G01 X298.288 Y167.806
G01 X304.292 Y167.178
G01 X310.470 Y166.949
G01 X316.796 Y167.134
G01 X318.422 Y167.249
G01 X317.769 Y168.818
G01 X311.496 Y168.516
G01 X305.362 Y168.627
G01 X299.392 Y169.137
G01 X293.610 Y170.028
G01 X288.039 Y171.285
G01 X286.265 Y171.772
G01 X284.088 Y165.879
G01 X281.416 Y160.020
G01 X278.248 Y154.232
G01 X274.584 Y148.549
G01 X270.428 Y143.004
G01 X265.785 Y137.634
G01 X260.663 Y132.473
G01 X255.071 Y127.555
G01 X249.022 Y122.913
G01 X242.530 Y118.580
G01 X239.772 Y116.917
G01 X239.165 Y118.496
G01 X245.780 Y122.619
G01 X251.963 Y127.063
G01 X257.701 Y131.797
G01 X262.979 Y136.786
G01 X267.787 Y141.999
G01 X272.117 Y147.399
G01 X275.962 Y152.954
G01 X279.318 Y158.628
G01 X282.183 Y164.388
G01 X284.558 Y170.199
G01 X285.630 Y173.324
G01 X291.033 Y171.963
G01 X296.651 Y170.955
G01 X302.462 Y170.318
G01 X308.444 Y170.068
G01 X314.571 Y170.221
G01 X317.086 Y170.400
G01 X316.407 Y171.953
G01 X310.314 Y171.626
G01 X304.354 Y171.702
G01 X298.552 Y172.166
G01 X292.931 Y173.004
G01 X287.514 Y174.199
G01 X284.981 Y174.897
G01 X282.935 Y169.143
G01 X280.405 Y163.420
G01 X277.388 Y157.759
G01 X273.887 Y152.197
G01 X269.903 Y146.766
G01 X265.441 Y141.502
G01 X260.510 Y136.437
G01 X255.117 Y131.605
G01 X249.275 Y127.040
G01 X242.998 Y122.773
G01 X238.565 Y120.102
G01 X237.959 Y121.739
G01 X244.463 Y125.709
G01 X250.548 Y129.998
G01 X256.199 Y134.574
G01 X261.403 Y139.404
G01 X266.149 Y144.457
G01 X270.428 Y149.699
G01 X274.234 Y155.095
G01 X277.562 Y160.614
G01 X280.409 Y166.220
G01 X282.777 Y171.880
G01 X284.333 Y176.443
G01 X289.550 Y175.092
G01 X294.979 Y174.083
G01 X300.598 Y173.433
G01 X306.384 Y173.160
G01 X312.314 Y173.276
G01 X315.698 Y173.518
G01 X314.999 Y175.062
G01 X309.089 Y174.709
G01 X303.305 Y174.749
G01 X297.673 Y175.168
G01 X292.215 Y175.952
G01 X286.952 Y177.084
G01 X283.682 Y177.988
G01 X281.762 Y172.378
G01 X279.369 Y166.794
G01 X276.501 Y161.267
G01 X273.159 Y155.831
G01 X269.344 Y150.520
G01 X265.062 Y145.366
G01 X260.319 Y140.403
G01 X255.125 Y135.665
G01 X249.490 Y131.182
G01 X243.427 Y126.988
G01 X237.381 Y123.352
G01 X236.800 Y124.995
G01 X243.192 Y128.816
G01 X249.177 Y132.952
G01 X254.739 Y137.374
G01 X259.866 Y142.049
G01 X264.547 Y146.945
G01 X268.772 Y152.031
G01 X272.535 Y157.272
G01 X275.832 Y162.637
G01 X278.659 Y168.092
G01 X281.017 Y173.604
G01 X282.906 Y179.140
G01 X283.021 Y179.528
G01 X288.054 Y178.186
G01 X293.295 Y177.175
G01 X298.722 Y176.512
G01 X304.313 Y176.214
G01 X310.047 Y176.294
G01 X314.288 Y176.597
G01 X313.553 Y178.149
G01 X307.825 Y177.772
G01 X302.219 Y177.778
G01 X296.757 Y178.153
G01 X291.462 Y178.884
G01 X286.356 Y179.954
G01 X282.352 Y181.064
G01 X280.558 Y175.598
G01 X278.301 Y170.152
G01 X275.580 Y164.758
G01 X272.394 Y159.448
G01 X268.747 Y154.255
G01 X264.642 Y149.213
G01 X260.086 Y144.353
G01 X255.087 Y139.707
G01 X249.657 Y135.308
G01 X243.806 Y131.186
G01 X237.551 Y127.372
G01 X236.237 Y126.640
G01 X235.672 Y128.316
G01 X241.949 Y131.988
G01 X247.829 Y135.972
G01 X253.300 Y140.240
G01 X258.346 Y144.759
G01 X262.958 Y149.499
G01 X267.126 Y154.428
G01 X270.844 Y159.513
G01 X274.106 Y164.724
G01 X276.910 Y170.026
G01 X279.254 Y175.389
G01 X281.141 Y180.779
G01 X281.674 Y182.596
G01 X286.519 Y181.266
G01 X291.567 Y180.256
G01 X296.797 Y179.583
G01 X302.190 Y179.262
G01 X307.722 Y179.307
G01 X312.822 Y179.673
G01 X312.061 Y181.207
G01 X306.519 Y180.805
G01 X301.092 Y180.776
G01 X295.803 Y181.106
G01 X290.674 Y181.782
G01 X285.725 Y182.788
G01 X280.999 Y184.102
G01 X279.325 Y178.782
G01 X277.200 Y173.478
G01 X274.621 Y168.219
G01 X271.589 Y163.040
G01 X268.106 Y157.970
G01 X264.175 Y153.043
G01 X259.803 Y148.290
G01 X254.997 Y143.742
G01 X249.768 Y139.431
G01 X244.129 Y135.387
G01 X238.092 Y131.641
G01 X235.127 Y129.993
G01 X234.590 Y131.674
G01 X240.748 Y135.199
G01 X246.522 Y139.033
G01 X251.897 Y143.147
G01 X256.861 Y147.511
G01 X261.401 Y152.095
G01 X265.509 Y156.868
G01 X269.178 Y161.798
G01 X272.403 Y166.854
G01 X275.180 Y172.004
G01 X277.509 Y177.217
G01 X279.391 Y182.461
G01 X280.312 Y185.630
G01 X284.967 Y184.313
G01 X289.822 Y183.306
G01 X294.855 Y182.623
G01 X300.047 Y182.280
G01 X305.376 Y182.291
G01 X310.819 Y182.667
G01 X311.309 Y182.719
G01 X310.528 Y184.241
G01 X305.171 Y183.817
G01 X299.924 Y183.755
G01 X294.808 Y184.043
G01 X289.845 Y184.666
G01 X285.055 Y185.611
G01 X280.458 Y186.862
G01 X279.621 Y187.128
G01 X278.067 Y181.953
G01 X276.073 Y176.787
G01 X273.636 Y171.663
G01 X270.756 Y166.611
G01 X267.434 Y161.662
G01 X263.676 Y156.848
G01 X259.485 Y152.200
G01 X254.870 Y147.749
G01 X249.841 Y143.525
G01 X244.409 Y139.558
G01 X238.588 Y135.877
G01 X234.050 Y133.361
G01 X233.534 Y135.074
G01 X239.571 Y138.451
G01 X245.237 Y142.134
G01 X250.515 Y146.095
G01 X255.393 Y150.304
G01 X259.860 Y154.732
G01 X263.906 Y159.348
G01 X267.525 Y164.122
G01 X270.710 Y169.024
G01 X273.460 Y174.021
G01 X275.771 Y179.084
G01 X277.646 Y184.181
G01 X278.924 Y188.624
G01 X283.389 Y187.323
G01 X288.048 Y186.320
G01 X292.882 Y185.629
G01 X297.870 Y185.266
G01 X302.994 Y185.243
G01 X308.230 Y185.573
G01 X309.749 Y185.734
G01 X308.953 Y187.248
G01 X303.784 Y186.803
G01 X298.719 Y186.707
G01 X293.779 Y186.951
G01 X288.984 Y187.520
G01 X284.355 Y188.402
G01 X279.909 Y189.581
G01 X278.227 Y190.119
G01 X276.789 Y185.089
G01 X274.921 Y180.065
G01 X272.622 Y175.077
G01 X269.890 Y170.155
G01 X266.728 Y165.331
G01 X263.138 Y160.633
G01 X259.126 Y156.094
G01 X254.700 Y151.743
G01 X249.868 Y147.609
G01 X244.641 Y143.723
G01 X239.033 Y140.113
G01 X233.060 Y136.806
G01 X233.028 Y136.790
G01 X232.522 Y138.512
G01 X238.436 Y141.745
G01 X243.990 Y145.280
G01 X249.168 Y149.090
G01 X253.958 Y153.146
G01 X258.348 Y157.419
G01 X262.330 Y161.881
G01 X265.895 Y166.500
G01 X269.038 Y171.248
G01 X271.755 Y176.094
G01 X274.046 Y181.008
G01 X275.910 Y185.959
G01 X277.350 Y190.918
G01 X277.517 Y191.609
G01 X281.789 Y190.326
G01 X286.250 Y189.328
G01 X290.882 Y188.631
G01 X295.665 Y188.248
G01 X300.580 Y188.192
G01 X305.606 Y188.476
G01 X308.136 Y188.746
G01 X307.312 Y190.240
G01 X302.335 Y189.774
G01 X297.455 Y189.646
G01 X292.693 Y189.847
G01 X288.069 Y190.364
G01 X283.603 Y191.183
G01 X279.312 Y192.290
G01 X276.803 Y193.096
G01 X275.479 Y188.211
G01 X273.736 Y183.328
G01 X271.572 Y178.475
G01 X268.987 Y173.683
G01 X265.981 Y168.982
G01 X262.558 Y164.402
G01 X258.722 Y159.971
G01 X254.481 Y155.720
G01 X249.843 Y151.678
G01 X244.820 Y147.873
G01 X239.423 Y144.334
G01 X233.667 Y141.088
G01 X232.042 Y140.260
G01 X231.562 Y142.013
G01 X237.349 Y145.101
G01 X242.787 Y148.488
G01 X247.862 Y152.147
G01 X252.560 Y156.049
G01 X256.870 Y160.168
G01 X260.783 Y164.474
G01 X264.291 Y168.938
G01 X267.389 Y173.531
G01 X270.072 Y178.224
G01 X272.339 Y182.987
G01 X274.190 Y187.790
G01 X275.627 Y192.605
G01 X276.093 Y194.559
G01 X280.172 Y193.294
G01 X284.434 Y192.303
G01 X288.862 Y191.599
G01 X293.439 Y191.197
G01 X298.144 Y191.109
G01 X302.958 Y191.347
G01 X306.473 Y191.724
G01 X305.627 Y193.203
G01 X300.846 Y192.714
G01 X296.155 Y192.551
G01 X291.575 Y192.705
G01 X287.126 Y193.165
G01 X282.826 Y193.918
G01 X278.693 Y194.949
G01 X275.375 Y196.016
G01 X274.158 Y191.279
G01 X272.535 Y186.540
G01 X270.502 Y181.828
G01 X268.058 Y177.171
G01 X265.204 Y172.599
G01 X261.943 Y168.140
G01 X258.279 Y163.825
G01 X254.220 Y159.680
G01 X249.774 Y155.736
G01 X244.951 Y152.020
G01 X239.764 Y148.559
G01 X234.225 Y145.380
G01 X231.100 Y143.793
G01 X230.642 Y145.579
G01 X236.298 Y148.525
G01 X241.617 Y151.765
G01 X246.584 Y155.273
G01 X251.187 Y159.023
G01 X255.413 Y162.988
G01 X259.254 Y167.138
G01 X262.701 Y171.447
G01 X265.750 Y175.886
G01 X268.395 Y180.426
G01 X270.635 Y185.037
G01 X272.470 Y189.693
G01 X273.900 Y194.363
G01 X274.636 Y197.492
G01 X278.519 Y196.244
G01 X282.582 Y195.257
G01 X286.806 Y194.546
G01 X291.175 Y194.122
G01 X295.670 Y193.999
G01 X300.271 Y194.188
G01 X304.766 Y194.671
G01 X303.897 Y196.134
G01 X299.310 Y195.627
G01 X294.807 Y195.436
G01 X290.408 Y195.550
G01 X286.132 Y195.959
G01 X281.998 Y196.650
G01 X278.022 Y197.612
G01 X274.221 Y198.829
G01 X273.905 Y198.944
G01 X272.796 Y194.353
G01 X271.292 Y189.755
G01 X269.388 Y185.180
G01 X267.083 Y180.656
G01 X264.379 Y176.210
G01 X261.279 Y171.871
G01 X257.785 Y167.668
G01 X253.906 Y163.628
G01 X249.649 Y159.780
G01 X245.023 Y156.151
G01 X240.041 Y152.767
G01 X234.716 Y149.655
G01 X230.197 Y147.368
G01 X229.763 Y149.186
G01 X235.286 Y151.990
G01 X240.483 Y155.085
G01 X245.341 Y158.444
G01 X249.845 Y162.043
G01 X253.986 Y165.854
G01 X257.752 Y169.851
G01 X261.136 Y174.005
G01 X264.133 Y178.290
G01 X266.738 Y182.677
G01 X268.948 Y187.138
G01 X270.764 Y191.645
G01 X272.186 Y196.171
G01 X273.161 Y200.390
G01 X276.848 Y199.161
G01 X280.709 Y198.181
G01 X284.726 Y197.462
G01 X288.885 Y197.018
G01 X293.167 Y196.862
G01 X297.554 Y197.003
G01 X302.027 Y197.451
G01 X303.019 Y197.592
G01 X302.104 Y199.050
G01 X297.716 Y198.524
G01 X293.405 Y198.301
G01 X289.193 Y198.373
G01 X285.095 Y198.728
G01 X281.131 Y199.356
G01 X277.316 Y200.243
G01 X273.666 Y201.377
G01 X272.416 Y201.836
G01 X271.411 Y197.391
G01 X270.020 Y192.937
G01 X268.240 Y188.501
G01 X266.071 Y184.110
G01 X263.513 Y179.793
G01 X260.569 Y175.577
G01 X257.242 Y171.490
G01 X253.538 Y167.558
G01 X249.466 Y163.810
G01 X245.035 Y160.271
G01 X240.255 Y156.969
G01 X235.140 Y153.928
G01 X229.705 Y151.174
G01 X229.344 Y151.007
G01 X228.933 Y152.833
G01 X234.320 Y155.497
G01 X239.394 Y158.448
G01 X244.139 Y161.660
G01 X248.543 Y165.108
G01 X252.595 Y168.767
G01 X256.284 Y172.611
G01 X259.602 Y176.612
G01 X262.545 Y180.744
G01 X265.106 Y184.979
G01 X267.285 Y189.290
G01 X269.078 Y193.649
G01 X270.489 Y198.031
G01 X271.519 Y202.406
G01 X271.675 Y203.256
G01 X275.162 Y202.052
G01 X278.817 Y201.083
G01 X282.624 Y200.363
G01 X286.568 Y199.904
G01 X290.631 Y199.717
G01 X294.797 Y199.813
G01 X299.047 Y200.202
G01 X301.184 Y200.507
G01 X300.250 Y201.952
G01 X296.066 Y201.407
G01 X291.954 Y201.152
G01 X287.932 Y201.179
G01 X284.017 Y201.479
G01 X280.226 Y202.040
G01 X276.576 Y202.850
G01 X273.082 Y203.898
G01 X270.915 Y204.695
G01 X270.009 Y200.395
G01 X268.728 Y196.084
G01 X267.070 Y191.786
G01 X265.032 Y187.530
G01 X262.616 Y183.342
G01 X259.824 Y179.249
G01 X256.659 Y175.278
G01 X253.127 Y171.456
G01 X249.236 Y167.809
G01 X244.995 Y164.363
G01 X240.414 Y161.145
G01 X235.506 Y158.178
G01 X230.285 Y155.487
G01 X228.545 Y154.685
G01 X228.162 Y156.568
G01 X233.409 Y159.095
G01 X238.354 Y161.903
G01 X242.982 Y164.969
G01 X247.281 Y168.269
G01 X251.238 Y171.777
G01 X254.845 Y175.468
G01 X258.093 Y179.316
G01 X260.977 Y183.294
G01 X263.490 Y187.377
G01 X265.631 Y191.538
G01 X267.399 Y195.749
G01 X268.794 Y199.986
G01 X269.817 Y204.220
G01 X270.156 Y206.107
G01 X273.442 Y204.925
G01 X276.890 Y203.966
G01 X280.485 Y203.241
G01 X284.213 Y202.763
G01 X288.058 Y202.544
G01 X292.002 Y202.592
G01 X296.030 Y202.918
G01 X299.301 Y203.385
G01 X298.324 Y204.827
G01 X294.347 Y204.267
G01 X290.435 Y203.983
G01 X286.605 Y203.969
G01 X282.876 Y204.216
G01 X279.262 Y204.712
G01 X275.780 Y205.448
G01 X272.443 Y206.412
G01 X269.385 Y207.541
G01 X268.575 Y203.388
G01 X267.400 Y199.220
G01 X265.859 Y195.063
G01 X263.949 Y190.943
G01 X261.671 Y186.886
G01 X259.027 Y182.919
G01 X256.021 Y179.068
G01 X252.658 Y175.358
G01 X248.945 Y171.816
G01 X244.891 Y168.467
G01 X240.506 Y165.336
G01 X235.803 Y162.447
G01 X230.795 Y159.825
G01 X227.800 Y158.453
G01 X227.447 Y160.369
G01 X232.550 Y162.761
G01 X237.363 Y165.429
G01 X241.870 Y168.352
G01 X246.060 Y171.505
G01 X249.920 Y174.864
G01 X253.440 Y178.404
G01 X256.614 Y182.101
G01 X259.434 Y185.928
G01 X261.896 Y189.860
G01 X263.996 Y193.871
G01 X265.733 Y197.935
G01 X267.107 Y202.027
G01 X268.121 Y206.120
G01 X268.614 Y208.948
G01 X271.695 Y207.791
G01 X274.932 Y206.843
G01 X278.312 Y206.116
G01 X281.819 Y205.621
G01 X285.441 Y205.370
G01 X289.159 Y205.371
G01 X292.960 Y205.635
G01 X296.825 Y206.167
G01 X297.333 Y206.257
G01 X296.330 Y207.679
G01 X292.564 Y207.104
G01 X288.856 Y206.792
G01 X285.224 Y206.737
G01 X281.684 Y206.929
G01 X278.251 Y207.361
G01 X274.940 Y208.021
G01 X271.764 Y208.898
G01 X268.737 Y209.981
G01 X267.838 Y210.353
G01 X267.118 Y206.346
G01 X266.045 Y202.322
G01 X264.615 Y198.306
G01 X262.828 Y194.324
G01 X260.683 Y190.400
G01 X258.182 Y186.561
G01 X255.330 Y182.831
G01 X252.130 Y179.237
G01 X248.591 Y175.804
G01 X244.719 Y172.555
G01 X240.526 Y169.516
G01 X236.023 Y166.710
G01 X231.224 Y164.160
G01 X227.107 Y162.288
G01 X226.789 Y164.235
G01 X231.745 Y166.494
G01 X236.422 Y169.025
G01 X240.806 Y171.805
G01 X244.883 Y174.813
G01 X248.642 Y178.024
G01 X252.073 Y181.414
G01 X255.169 Y184.960
G01 X257.922 Y188.637
G01 X260.328 Y192.418
G01 X262.384 Y196.280
G01 X264.087 Y200.198
G01 X265.438 Y204.145
G01 X266.438 Y208.097
G01 X267.056 Y211.756
G01 X269.930 Y210.627
G01 X272.954 Y209.693
G01 X276.114 Y208.965
G01 X279.399 Y208.456
G01 X282.793 Y208.174
G01 X286.283 Y208.129
G01 X289.852 Y208.331
G01 X293.485 Y208.785
G01 X295.295 Y209.104
G01 X294.248 Y210.521
G01 X290.699 Y209.931
G01 X287.203 Y209.591
G01 X283.775 Y209.494
G01 X280.430 Y209.632
G01 X277.184 Y209.996
G01 X274.049 Y210.577
G01 X271.040 Y211.365
G01 X268.169 Y212.349
G01 X266.278 Y213.134
G01 X265.643 Y209.272
G01 X264.665 Y205.390
G01 X263.342 Y201.515
G01 X261.672 Y197.669
G01 X259.654 Y193.878
G01 X257.292 Y190.167
G01 X254.587 Y186.561
G01 X251.546 Y183.084
G01 X248.174 Y179.761
G01 X244.480 Y176.615
G01 X240.473 Y173.671
G01 X236.166 Y170.951
G01 X231.569 Y168.478
G01 X226.699 Y166.273
G01 X226.487 Y166.186
G01 X226.193 Y168.168
G01 X231.000 Y170.296
G01 X235.538 Y172.692
G01 X239.794 Y175.333
G01 X243.755 Y178.198
G01 X247.409 Y181.263
G01 X250.748 Y184.507
G01 X253.762 Y187.904
G01 X256.444 Y191.432
G01 X258.791 Y195.065
G01 X260.798 Y198.780
G01 X262.463 Y202.552
G01 X263.785 Y206.355
G01 X264.767 Y210.167
G01 X265.411 Y213.963
G01 X265.479 Y214.530
G01 X268.143 Y213.435
G01 X270.949 Y212.519
G01 X273.886 Y211.796
G01 X276.942 Y211.275
G01 X280.103 Y210.965
G01 X283.357 Y210.877
G01 X286.689 Y211.018
G01 X290.084 Y211.395
G01 X293.167 Y211.940
G01 X292.072 Y213.345
G01 X288.746 Y212.745
G01 X285.465 Y212.379
G01 X282.246 Y212.243
G01 X279.102 Y212.327
G01 X276.047 Y212.626
G01 X273.094 Y213.129
G01 X270.256 Y213.828
G01 X267.544 Y214.713
G01 X264.971 Y215.771
G01 X264.686 Y215.903
G01 X264.131 Y212.184
G01 X263.244 Y208.444
G01 X262.021 Y204.708
G01 X260.462 Y200.999
G01 X258.566 Y197.342
G01 X256.335 Y193.760
G01 X253.772 Y190.278
G01 X250.883 Y186.920
G01 X247.673 Y183.710
G01 X244.150 Y180.670
G01 X240.324 Y177.824
G01 X236.206 Y175.195
G01 X231.807 Y172.803
G01 X227.143 Y170.670
G01 X225.927 Y170.176
G01 X225.674 Y172.189
G01 X230.326 Y174.191
G01 X234.721 Y176.454
G01 X238.845 Y178.958
G01 X242.686 Y181.683
G01 X246.231 Y184.605
G01 X249.472 Y187.703
G01 X252.399 Y190.954
G01 X255.006 Y194.334
G01 X257.288 Y197.820
G01 X259.241 Y201.389
G01 X260.863 Y205.015
G01 X262.153 Y208.677
G01 X263.113 Y212.349
G01 X263.743 Y216.008
G01 X263.886 Y217.274
G01 X266.336 Y216.215
G01 X268.921 Y215.322
G01 X271.631 Y214.605
G01 X274.454 Y214.075
G01 X277.378 Y213.740
G01 X280.392 Y213.609
G01 X283.481 Y213.691
G01 X286.633 Y213.992
G01 X289.832 Y214.517
G01 X290.942 Y214.752
G01 X289.801 Y216.148
G01 X286.703 Y215.540
G01 X283.644 Y215.152
G01 X280.639 Y214.977
G01 X277.701 Y215.009
G01 X274.843 Y215.243
G01 X272.077 Y215.668
G01 X269.415 Y216.278
G01 X266.868 Y217.061
G01 X264.448 Y218.010
G01 X263.080 Y218.644
G01 X262.598 Y215.065
G01 X261.795 Y211.465
G01 X260.666 Y207.867
G01 X259.210 Y204.294
G01 X257.428 Y200.771
G01 X255.321 Y197.319
G01 X252.893 Y193.963
G01 X250.148 Y190.726
G01 X247.092 Y187.632
G01 X243.733 Y184.702
G01 X240.080 Y181.958
G01 X236.144 Y179.424
G01 X231.937 Y177.119
G01 X227.473 Y175.065
G01 X225.451 Y174.254
G01 X225.240 Y176.324
G01 X229.733 Y178.203
G01 X233.980 Y180.339
G01 X237.968 Y182.710
G01 X241.682 Y185.298
G01 X245.112 Y188.081
G01 X248.249 Y191.037
G01 X251.084 Y194.144
G01 X253.610 Y197.380
G01 X255.821 Y200.721
G01 X257.714 Y204.146
G01 X259.286 Y207.630
G01 X260.537 Y211.150
G01 X261.466 Y214.684
G01 X262.076 Y218.208
G01 X262.267 Y220.012
G01 X264.500 Y218.990
G01 X266.860 Y218.120
G01 X269.339 Y217.410
G01 X271.926 Y216.870
G01 X274.610 Y216.509
G01 X277.380 Y216.336
G01 X280.223 Y216.357
G01 X283.128 Y216.579
G01 X286.080 Y217.009
G01 X288.622 Y217.542
G01 X287.406 Y218.932
G01 X284.543 Y218.320
G01 X281.713 Y217.912
G01 X278.930 Y217.701
G01 X276.205 Y217.684
G01 X273.550 Y217.853
G01 X270.978 Y218.201
G01 X268.499 Y218.720
G01 X266.124 Y219.403
G01 X263.862 Y220.239
G01 X261.723 Y221.220
G01 X261.457 Y221.356
G01 X261.041 Y217.914
G01 X260.312 Y214.450
G01 X259.267 Y210.988
G01 X257.906 Y207.550
G01 X256.229 Y204.159
G01 X254.237 Y200.837
G01 X251.933 Y197.608
G01 X249.322 Y194.494
G01 X246.411 Y191.517
G01 X243.206 Y188.700
G01 X239.717 Y186.064
G01 X235.954 Y183.630
G01 X231.929 Y181.418
G01 X227.655 Y179.449
G01 X225.057 Y178.421
G01 X224.892 Y180.549
G01 X229.223 Y182.312
G01 X233.319 Y184.326
G01 X237.166 Y186.571
G01 X240.750 Y189.029
G01 X244.062 Y191.678
G01 X247.090 Y194.498
G01 X249.827 Y197.468
G01 X252.265 Y200.565
G01 X254.400 Y203.767
G01 X256.226 Y207.052
G01 X257.742 Y210.398
G01 X258.945 Y213.782
G01 X259.837 Y217.182
G01 X260.419 Y220.575
G01 X260.630 Y222.723
G01 X262.640 Y221.748
G01 X264.769 Y220.908
G01 X267.010 Y220.212
G01 X269.352 Y219.670
G01 X271.787 Y219.290
G01 X274.303 Y219.078
G01 X276.890 Y219.043
G01 X279.536 Y219.190
G01 X282.230 Y219.525
G01 X284.959 Y220.053
G01 X286.136 Y220.339
G01 X284.845 Y221.724
G01 X282.228 Y221.113
G01 X279.638 Y220.688
G01 X277.086 Y220.445
G01 X274.584 Y220.379
G01 X272.144 Y220.485
G01 X269.775 Y220.755
G01 X267.489 Y221.184
G01 X265.294 Y221.763
G01 X263.200 Y222.485
G01 X261.215 Y223.341
G01 X259.803 Y224.066
G01 X259.443 Y220.753
G01 X258.779 Y217.420
G01 X257.810 Y214.088
G01 X256.532 Y210.780
G01 X254.948 Y207.518
G01 X253.059 Y204.325
G01 X250.867 Y201.221
G01 X248.379 Y198.230
G01 X245.599 Y195.373
G01 X242.535 Y192.671
G01 X239.197 Y190.146
G01 X235.594 Y187.817
G01 X231.738 Y185.704
G01 X227.642 Y183.827
G01 X224.754 Y182.705
G01 X224.656 Y184.910
G01 X228.822 Y186.565
G01 X232.762 Y188.465
G01 X236.463 Y190.592
G01 X239.912 Y192.927
G01 X243.097 Y195.450
G01 X246.010 Y198.142
G01 X248.642 Y200.980
G01 X250.985 Y203.945
G01 X253.035 Y207.015
G01 X254.785 Y210.167
G01 X256.235 Y213.381
G01 X257.382 Y216.634
G01 X258.227 Y219.904
G01 X258.770 Y223.170
G01 X258.970 Y225.410
G01 X260.754 Y224.485
G01 X262.649 Y223.679
G01 X264.647 Y223.001
G01 X266.740 Y222.458
G01 X268.920 Y222.060
G01 X271.177 Y221.811
G01 X273.502 Y221.720
G01 X275.885 Y221.792
G01 X278.315 Y222.033
G01 X280.781 Y222.446
G01 X283.272 Y223.037
G01 X283.519 Y223.105
G01 X282.131 Y224.492
G01 X279.768 Y223.887
G01 X277.425 Y223.450
G01 X275.114 Y223.178
G01 X272.845 Y223.066
G01 X270.627 Y223.110
G01 X268.471 Y223.304
G01 X266.386 Y223.642
G01 X264.379 Y224.117
G01 X262.461 Y224.722
G01 X260.638 Y225.451
G01 X258.919 Y226.294
G01 X258.139 Y226.732
G01 X257.820 Y223.543
G01 X257.206 Y220.336
G01 X256.295 Y217.132
G01 X255.085 Y213.953
G01 X253.577 Y210.820
G01 X251.774 Y207.756
G01 X249.678 Y204.781
G01 X247.295 Y201.917
G01 X244.630 Y199.186
G01 X241.691 Y196.607
G01 X238.487 Y194.201
G01 X235.029 Y191.988
G01 X231.327 Y189.986
G01 X227.396 Y188.215
G01 X224.581 Y187.145
G01 X224.538 Y189.407
G01 X228.536 Y190.965
G01 X232.317 Y192.762
G01 X235.868 Y194.781
G01 X239.177 Y197.004
G01 X242.232 Y199.412
G01 X245.023 Y201.985
G01 X247.543 Y204.703
G01 X249.783 Y207.546
G01 X251.739 Y210.492
G01 X253.405 Y213.521
G01 X254.778 Y216.612
G01 X255.858 Y219.742
G01 X256.643 Y222.891
G01 X257.135 Y226.038
G01 X257.298 Y228.057
G01 X258.850 Y227.194
G01 X260.503 Y226.434
G01 X262.251 Y225.784
G01 X264.086 Y225.252
G01 X266.001 Y224.844
G01 X267.989 Y224.567
G01 X270.041 Y224.427
G01 X272.147 Y224.430
G01 X274.300 Y224.581
G01 X276.488 Y224.883
G01 X278.704 Y225.341
G01 X280.678 Y225.879
G01 X279.182 Y227.253
G01 X277.085 Y226.664
G01 X275.002 Y226.223
G01 X272.944 Y225.929
G01 X270.919 Y225.777
G01 X268.936 Y225.764
G01 X267.005 Y225.885
G01 X265.132 Y226.134
G01 X263.327 Y226.506
G01 X261.596 Y226.995
G01 X259.947 Y227.595
G01 X258.385 Y228.299
G01 X256.918 Y229.099
G01 X256.451 Y229.386
G01 X256.157 Y226.305
G01 X255.574 Y223.209
G01 X254.700 Y220.121
G01 X253.536 Y217.060
G01 X252.082 Y214.049
G01 X250.341 Y211.108
G01 X248.316 Y208.258
G01 X246.013 Y205.520
G01 X243.437 Y202.915
G01 X240.597 Y200.462
G01 X237.502 Y198.181
G01 X234.162 Y196.092
G01 X230.589 Y194.211
G01 X226.795 Y192.559
G01 X224.531 Y191.722
G01 X224.567 Y194.088
G01 X228.395 Y195.565
G01 X232.016 Y197.277
G01 X235.414 Y199.206
G01 X238.577 Y201.336
G01 X241.495 Y203.646
G01 X244.157 Y206.119
G01 X246.555 Y208.735
G01 X248.682 Y211.474
G01 X250.531 Y214.315
G01 X252.099 Y217.237
G01 X253.381 Y220.221
G01 X254.377 Y223.245
G01 X255.085 Y226.288
G01 X255.506 Y229.329
G01 X255.603 Y230.697
G01 X256.918 Y229.906
G01 X258.324 Y229.200
G01 X259.814 Y228.586
G01 X261.384 Y228.071
G01 X263.027 Y227.661
G01 X264.736 Y227.362
G01 X266.504 Y227.179
G01 X268.324 Y227.117
G01 X270.188 Y227.181
G01 X272.088 Y227.374
G01 X274.015 Y227.702
G01 X275.962 Y228.165
G01 X277.579 Y228.653
G01 X275.903 Y230.042
G01 X274.089 Y229.478
G01 X272.285 Y229.044
G01 X270.498 Y228.735
G01 X268.736 Y228.549
G01 X267.007 Y228.483
G01 X265.318 Y228.533
G01 X263.677 Y228.694
G01 X262.089 Y228.963
G01 X260.563 Y229.334
G01 X259.103 Y229.802
G01 X257.715 Y230.362
G01 X256.405 Y231.006
G01 X255.178 Y231.729
G01 X254.746 Y232.016
G01 X254.447 Y229.021
G01 X253.865 Y226.019
G01 X252.999 Y223.031
G01 X251.847 Y220.077
G01 X250.412 Y217.177
G01 X248.697 Y214.354
G01 X246.706 Y211.626
G01 X244.445 Y209.014
G01 X241.921 Y206.539
G01 X239.142 Y204.220
G01 X236.117 Y202.075
G01 X232.857 Y200.123
G01 X229.375 Y198.383
G01 X225.683 Y196.870
G01 X224.650 Y196.502
G01 X224.790 Y198.990
G01 X228.454 Y200.417
G01 X231.915 Y202.075
G01 X235.159 Y203.947
G01 X238.174 Y206.015
G01 X240.948 Y208.262
G01 X243.472 Y210.668
G01 X245.736 Y213.214
G01 X247.734 Y215.881
G01 X249.460 Y218.649
G01 X250.909 Y221.497
G01 X252.077 Y224.405
G01 X252.962 Y227.352
G01 X253.564 Y230.318
G01 X253.883 Y233.281
G01 X253.886 Y233.322
G01 X254.961 Y232.615
G01 X256.115 Y231.976
G01 X257.342 Y231.411
G01 X258.639 Y230.925
G01 X260.000 Y230.523
G01 X261.420 Y230.211
G01 X262.894 Y229.994
G01 X264.416 Y229.875
G01 X265.979 Y229.860
G01 X267.576 Y229.951
G01 X269.202 Y230.152
G01 X270.849 Y230.466
G01 X272.509 Y230.895
G01 X274.128 Y231.424
G01 X272.205 Y232.820
G01 X270.691 Y232.302
G01 X269.182 Y231.890
G01 X267.683 Y231.582
G01 X266.202 Y231.375
G01 X264.744 Y231.269
G01 X263.317 Y231.259
G01 X261.925 Y231.342
G01 X260.574 Y231.515
G01 X259.270 Y231.774
G01 X258.018 Y232.114
G01 X256.822 Y232.531
G01 X255.688 Y233.021
G01 X254.618 Y233.578
G01 X253.618 Y234.197
G01 X253.022 Y234.619
G01 X252.674 Y231.675
G01 X252.044 Y228.735
G01 X251.131 Y225.819
G01 X249.936 Y222.948
G01 X248.463 Y220.143
G01 X246.714 Y217.425
G01 X244.696 Y214.813
G01 X242.414 Y212.327
G01 X239.877 Y209.988
G01 X237.094 Y207.813
G01 X234.075 Y205.821
G01 X230.832 Y204.031
G01 X227.377 Y202.458
G01 X224.991 Y201.549
G01 X225.258 Y204.178
G01 X228.774 Y205.610
G01 X232.088 Y207.269
G01 X235.185 Y209.141
G01 X238.053 Y211.207
G01 X240.680 Y213.450
G01 X243.057 Y215.850
G01 X245.174 Y218.389
G01 X247.024 Y221.046
G01 X248.602 Y223.802
G01 X249.901 Y226.636
G01 X250.919 Y229.528
G01 X251.653 Y232.456
G01 X252.103 Y235.400
G01 X252.152 Y235.913
G01 X252.987 Y235.316
G01 X253.885 Y234.769
G01 X254.844 Y234.277
G01 X255.860 Y233.843
G01 X256.930 Y233.473
G01 X258.049 Y233.170
G01 X259.214 Y232.940
G01 X260.420 Y232.784
G01 X261.663 Y232.708
G01 X262.937 Y232.713
G01 X264.238 Y232.803
G01 X265.560 Y232.980
G01 X266.898 Y233.247
G01 X268.246 Y233.606
G01 X269.598 Y234.058
G01 X270.080 Y234.241
G01 X267.702 Y235.670
G01 X266.518 Y235.230
G01 X265.335 Y234.870
G01 X264.157 Y234.589
G01 X262.990 Y234.387
G01 X261.838 Y234.261
G01 X260.706 Y234.209
G01 X259.598 Y234.229
G01 X258.518 Y234.318
G01 X257.471 Y234.474
G01 X256.461 Y234.694
G01 X255.490 Y234.974
G01 X254.564 Y235.311
G01 X253.684 Y235.702
G01 X252.853 Y236.142
G01 X252.076 Y236.627
G01 X251.352 Y237.154
G01 X251.278 Y237.214
G01 X250.796 Y234.243
G01 X250.027 Y231.297
G01 X248.969 Y228.394
G01 X247.628 Y225.558
G01 X246.006 Y222.808
G01 X244.110 Y220.166
G01 X241.946 Y217.651
G01 X239.522 Y215.283
G01 X236.849 Y213.082
G01 X233.938 Y211.066
G01 X230.799 Y209.254
G01 X227.447 Y207.662
G01 X225.615 Y206.923
G01 X226.071 Y209.780
G01 X229.493 Y211.332
G01 X232.702 Y213.116
G01 X235.683 Y215.115
G01 X238.423 Y217.311
G01 X240.912 Y219.685
G01 X243.137 Y222.217
G01 X245.090 Y224.888
G01 X246.763 Y227.677
G01 X248.149 Y230.561
G01 X249.244 Y233.521
G01 X250.044 Y236.534
G01 X250.400 Y238.482
G01 X251.005 Y238.030
G01 X251.656 Y237.611
G01 X252.350 Y237.228
G01 X253.085 Y236.885
G01 X253.860 Y236.584
G01 X254.671 Y236.328
G01 X255.516 Y236.121
G01 X256.392 Y235.965
G01 X257.297 Y235.863
G01 X258.226 Y235.817
G01 X259.177 Y235.828
G01 X260.146 Y235.900
G01 X261.129 Y236.034
G01 X262.123 Y236.232
G01 X263.123 Y236.494
G01 X264.126 Y236.822
G01 X264.910 Y237.124
G01 X264.332 Y237.374
G01 X262.048 Y238.288
G01 X261.232 Y238.675
G01 X260.474 Y238.745
G01 X259.714 Y238.477
G01 X258.953 Y238.255
G01 X258.194 Y238.080
G01 X257.440 Y237.950
G01 X256.693 Y237.865
G01 X255.956 Y237.824
G01 X255.232 Y237.825
G01 X254.522 Y237.868
G01 X253.830 Y237.949
G01 X253.156 Y238.069
G01 X252.504 Y238.226
G01 X251.875 Y238.416
G01 X251.270 Y238.640
G01 X250.692 Y238.894
G01 X250.143 Y239.177
G01 X250.013 Y239.250
G01 X249.347 Y236.369
G01 X248.398 Y233.535
G01 X247.171 Y230.768
G01 X245.669 Y228.089
G01 X243.898 Y225.517
G01 X241.867 Y223.073
G01 X239.583 Y220.777
G01 X237.056 Y218.646
G01 X234.298 Y216.699
G01 X231.321 Y214.953
G01 X228.138 Y213.426
G01 X226.686 Y212.832
G01 X227.488 Y216.093
G01 X231.727 Y219.309
G01 X235.590 Y222.850
G01 X239.057 Y226.685
G01 X242.107 Y230.784
G01 X244.723 Y235.115
G01 X246.302 Y238.295
G01 X245.628 Y238.211
G01 X244.938 Y238.165
G01 X244.232 Y238.159
G01 X244.223 Y238.159
G01 X240.145 Y232.088
G01 X235.466 Y226.404
G01 X230.214 Y221.152
G01 X228.600 Y219.725
G01 X230.271 Y224.016
G01 X238.934 Y233.836
G01 X242.173 Y238.062
G01 X240.274 Y236.643
G01 X238.917 Y235.785
G01 X236.008 Y233.088
G01 X233.747 Y230.351
G01 X230.271 Y224.016
G01 X229.174 Y221.189
G01 X230.461 Y225.589
G01 X231.424 Y228.155
G01 X232.623 Y230.896
G01 X234.580 Y233.375
G01 X237.760 Y236.162
G01 X239.710 Y237.147
G01 X241.530 Y238.287
G01 X241.556 Y238.304
G01 X242.299 Y238.148
G01 X243.036 Y238.036
G01 X243.765 Y237.966
G01 X244.484 Y237.939
G01 X245.190 Y237.953
G01 X245.881 Y238.006
G01 X246.556 Y238.098
G01 X247.211 Y238.226
G01 X247.845 Y238.389
G01 X248.456 Y238.586
G01 X249.043 Y238.813
G01 X249.604 Y239.070
G01 X249.858 Y239.201
G01 X250.393 Y239.095
G01 X250.937 Y239.016
G01 X251.489 Y238.964
G01 X252.050 Y238.940
G01 X252.311 Y238.939
G01 X252.929 Y238.767
G01 X253.569 Y238.631
G01 X254.229 Y238.530
G01 X254.908 Y238.468
G01 X255.602 Y238.445
G01 X256.310 Y238.464
G01 X257.030 Y238.524
G01 X257.758 Y238.628
G01 X258.492 Y238.777
G01 X259.231 Y238.971
G01 X259.970 Y239.211
G01 X260.707 Y239.497
G01 X261.440 Y239.830
G01 X261.896 Y240.063
G01 X263.216 Y240.019
G01 X264.567 Y240.082
G01 X265.942 Y240.256
G01 X267.333 Y240.541
G01 X268.722 Y240.938
G01 X270.746 Y241.187
G01 X272.787 Y241.614
G01 X274.014 Y241.957
G01 X275.685 Y242.349
G01 X276.053 Y243.508
G01 X276.134 Y243.839
G01 X275.649 Y245.269
G01 X275.505 Y245.643
G01 X275.242 Y246.953
G01 X275.191 Y247.169
G01 X275.012 Y248.427
G01 X274.985 Y248.582
G01 X275.085 Y249.809
G01 X275.100 Y250.110
G01 X274.375 Y250.127
G01 X271.850 Y250.124
G01 X267.075 Y250.126
G01 X266.675 Y250.125
G01 X263.274 Y250.126
G01 X261.399 Y250.125
G01 X256.049 Y250.125
G01 X255.982 Y250.418
G01 X255.902 Y250.705
G01 X255.808 Y250.985
G01 X255.701 Y251.257
G01 X255.581 Y251.521
G01 X255.449 Y251.777
G01 X255.306 Y252.023
G01 X255.151 Y252.260
G01 X254.987 Y252.486
G01 X254.813 Y252.702
G01 X254.629 Y252.907
G01 X254.438 Y253.100
G01 X254.238 Y253.281
G01 X254.032 Y253.451
G01 X253.819 Y253.608
G01 X253.601 Y253.753
G01 X253.377 Y253.885
G01 X253.150 Y254.004
G01 X252.919 Y254.111
G01 X252.685 Y254.204
G01 X252.449 Y254.285
G01 X252.212 Y254.352
G01 X251.974 Y254.407
G01 X251.736 Y254.449
G01 X251.499 Y254.479
G01 X251.263 Y254.496
G01 X251.029 Y254.501
G01 X250.798 Y254.493
G01 X250.569 Y254.475
G01 X250.345 Y254.444
G01 X250.125 Y254.403
G01 X249.910 Y254.350
G01 X249.700 Y254.288
G01 X249.497 Y254.215
G01 X249.299 Y254.133
G01 X249.109 Y254.042
G01 X248.925 Y253.942
G01 X248.750 Y253.834
G01 X248.582 Y253.719
G01 X248.423 Y253.596
G01 X248.272 Y253.467
G01 X248.130 Y253.331
G01 X247.997 Y253.191
G01 X247.873 Y253.045
G01 X247.759 Y252.895
G01 X247.654 Y252.741
G01 X247.558 Y252.584
G01 X247.473 Y252.425
G01 X247.397 Y252.263
G01 X247.331 Y252.100
G01 X247.274 Y251.935
G01 X247.227 Y251.771
G01 X247.190 Y251.606
G01 X247.162 Y251.442
G01 X247.143 Y251.280
G01 X247.133 Y251.119
G01 X247.132 Y250.960
G01 X247.139 Y250.803
G01 X247.155 Y250.650
G01 X247.179 Y250.501
G01 X247.210 Y250.355
G01 X247.249 Y250.214
G01 X247.278 Y250.126
G01 X238.801 Y250.125
G01 X234.776 Y250.126
G01 X229.500 Y250.125
G01 X226.700 Y250.126
G01 X218.750 Y250.125
G01 X210.500 Y250.126
G01 X206.150 Y250.127
G01 X202.425 Y250.124
G01 X197.275 Y250.126
G01 X191.150 Y250.123
G01 X185.300 Y250.123
G01 X181.275 Y250.123
G01 X176.875 Y250.124
G01 X171.275 Y250.126
G01 X166.300 Y250.125
G01 X162.300 Y250.122
G01 X155.750 Y250.122
G01 X150.500 Y250.129
G01 X146.350 Y250.124
G01 X141.600 Y250.130
G01 X136.600 Y250.124
G01 X132.550 Y250.129
G01 X129.150 Y250.120
G01 X126.025 Y250.124
G01 X123.275 Y250.126
G01 X118.825 Y250.131
G01 X115.350 Y250.121
G01 X115.909 Y251.542
G01 X118.834 Y251.547
G01 X123.284 Y251.546
G01 X126.010 Y251.550
G01 X129.135 Y251.547
G01 X132.560 Y251.550
G01 X136.610 Y251.542
G01 X141.586 Y251.550
G01 X146.361 Y251.544
G01 X150.512 Y251.542
G01 X155.738 Y251.546
G01 X162.289 Y251.544
G01 X166.314 Y251.548
G01 X171.290 Y251.543
G01 X176.866 Y251.543
G01 X181.292 Y251.546
G01 X185.293 Y251.547
G01 X191.170 Y251.547
G01 X197.273 Y251.545
G01 X202.425 Y251.547
G01 X206.152 Y251.544
G01 X210.505 Y251.545
G01 X218.763 Y251.544
G01 X226.701 Y251.547
G01 X229.508 Y251.546
G01 X234.778 Y251.547
G01 X238.806 Y251.545
G01 X239.935 Y251.897
G01 X241.068 Y252.142
G01 X242.199 Y252.281
G01 X243.319 Y252.315
G01 X244.422 Y252.245
G01 X245.499 Y252.074
G01 X246.544 Y251.803
G01 X247.283 Y251.544
G01 X247.307 Y251.710
G01 X247.342 Y251.877
G01 X247.386 Y252.045
G01 X247.441 Y252.213
G01 X247.506 Y252.381
G01 X247.581 Y252.547
G01 X247.667 Y252.712
G01 X247.763 Y252.874
G01 X247.870 Y253.033
G01 X247.987 Y253.188
G01 X248.114 Y253.340
G01 X248.251 Y253.486
G01 X248.398 Y253.627
G01 X248.555 Y253.761
G01 X248.721 Y253.889
G01 X248.896 Y254.009
G01 X249.080 Y254.122
G01 X249.272 Y254.225
G01 X249.473 Y254.320
G01 X249.681 Y254.405
G01 X249.896 Y254.480
G01 X250.117 Y254.544
G01 X250.345 Y254.598
G01 X250.578 Y254.639
G01 X250.816 Y254.669
G01 X251.059 Y254.686
G01 X251.305 Y254.691
G01 X251.554 Y254.682
G01 X251.805 Y254.661
G01 X252.058 Y254.626
G01 X252.311 Y254.577
G01 X252.565 Y254.514
G01 X252.818 Y254.437
G01 X253.069 Y254.346
G01 X253.319 Y254.241
G01 X253.565 Y254.122
G01 X253.808 Y253.989
G01 X254.046 Y253.842
G01 X254.278 Y253.681
G01 X254.505 Y253.506
G01 X254.724 Y253.318
G01 X254.936 Y253.117
G01 X255.139 Y252.903
G01 X255.333 Y252.676
G01 X255.517 Y252.437
G01 X255.690 Y252.187
G01 X255.852 Y251.925
G01 X256.002 Y251.653
G01 X256.056 Y251.546
G01 X258.320 Y251.694
G01 X260.609 Y251.622
G01 X261.396 Y251.547
G01 X263.260 Y251.545
G01 X266.678 Y251.547
G01 X267.080 Y251.546
G01 X271.870 Y251.547
G01 X274.376 Y251.545
G01 X274.978 Y251.535
G01 X275.156 Y252.791
G01 X275.163 Y252.858
G01 X274.407 Y252.871
G01 X271.862 Y252.871
G01 X267.085 Y252.873
G01 X266.680 Y252.872
G01 X263.268 Y252.872
G01 X261.393 Y252.873
G01 X260.027 Y253.059
G01 X258.672 Y253.118
G01 X257.338 Y253.053
G01 X256.054 Y252.870
G01 X255.843 Y253.129
G01 X255.621 Y253.375
G01 X255.389 Y253.607
G01 X255.149 Y253.825
G01 X254.899 Y254.027
G01 X254.643 Y254.215
G01 X254.380 Y254.387
G01 X254.111 Y254.544
G01 X253.838 Y254.685
G01 X253.561 Y254.810
G01 X253.281 Y254.919
G01 X252.999 Y255.013
G01 X252.716 Y255.091
G01 X252.432 Y255.153
G01 X252.149 Y255.200
G01 X251.867 Y255.232
G01 X251.588 Y255.249
G01 X251.311 Y255.251
G01 X251.038 Y255.239
G01 X250.769 Y255.213
G01 X250.505 Y255.173
G01 X250.247 Y255.120
G01 X249.996 Y255.054
G01 X249.751 Y254.977
G01 X249.515 Y254.887
G01 X249.286 Y254.787
G01 X249.066 Y254.676
G01 X248.855 Y254.555
G01 X248.654 Y254.425
G01 X248.462 Y254.286
G01 X248.281 Y254.140
G01 X248.111 Y253.986
G01 X247.951 Y253.825
G01 X247.803 Y253.659
G01 X247.666 Y253.487
G01 X247.540 Y253.311
G01 X247.426 Y253.131
G01 X247.324 Y252.948
G01 X247.283 Y252.867
G01 X246.665 Y253.190
G01 X246.010 Y253.458
G01 X245.322 Y253.668
G01 X244.605 Y253.818
G01 X243.863 Y253.906
G01 X243.101 Y253.929
G01 X242.323 Y253.886
G01 X241.535 Y253.775
G01 X240.740 Y253.596
G01 X239.944 Y253.347
G01 X239.151 Y253.029
G01 X238.812 Y252.870
G01 X235.763 Y252.916
G01 X234.793 Y252.869
G01 X229.500 Y252.872
G01 X226.701 Y252.871
G01 X218.757 Y252.870
G01 X210.504 Y252.872
G01 X206.144 Y252.872
G01 X202.437 Y252.871
G01 X197.278 Y252.871
G01 X191.170 Y252.873
G01 X185.314 Y252.874
G01 X181.285 Y252.874
G01 X176.881 Y252.875
G01 X171.277 Y252.874
G01 X166.299 Y252.872
G01 X162.297 Y252.869
G01 X155.744 Y252.875
G01 X150.492 Y252.876
G01 X146.365 Y252.871
G01 X141.588 Y252.873
G01 X136.611 Y252.869
G01 X132.560 Y252.866
G01 X129.134 Y252.877
G01 X126.008 Y252.877
G01 X123.283 Y252.877
G01 X117.631 Y252.872
G01 X120.495 Y254.262
G01 X123.272 Y254.259
G01 X126.023 Y254.254
G01 X129.150 Y254.255
G01 X132.552 Y254.253
G01 X136.605 Y254.254
G01 X141.584 Y254.263
G01 X146.363 Y254.262
G01 X150.491 Y254.261
G01 X155.746 Y254.263
G01 X162.303 Y254.256
G01 X166.308 Y254.255
G01 X171.290 Y254.254
G01 X176.874 Y254.260
G01 X181.282 Y254.259
G01 X185.315 Y254.256
G01 X191.154 Y254.256
G01 X197.272 Y254.259
G01 X202.440 Y254.258
G01 X206.131 Y254.260
G01 X210.504 Y254.258
G01 X218.764 Y254.255
G01 X226.711 Y254.257
G01 X229.488 Y254.261
G01 X233.315 Y254.330
G01 X234.785 Y254.258
G01 X236.980 Y254.343
G01 X238.807 Y254.257
G01 X239.517 Y254.587
G01 X240.231 Y254.859
G01 X240.946 Y255.072
G01 X241.657 Y255.228
G01 X242.360 Y255.327
G01 X243.051 Y255.370
G01 X243.728 Y255.359
G01 X244.386 Y255.295
G01 X245.021 Y255.180
G01 X245.631 Y255.017
G01 X246.212 Y254.807
G01 X246.760 Y254.554
G01 X247.275 Y254.259
G01 X247.280 Y254.255
G01 X247.455 Y254.449
G01 X247.642 Y254.636
G01 X247.841 Y254.815
G01 X248.053 Y254.985
G01 X248.276 Y255.147
G01 X248.510 Y255.298
G01 X248.755 Y255.438
G01 X249.010 Y255.567
G01 X249.275 Y255.684
G01 X249.549 Y255.788
G01 X249.831 Y255.879
G01 X250.121 Y255.955
G01 X250.419 Y256.018
G01 X250.722 Y256.065
G01 X251.032 Y256.097
G01 X251.346 Y256.112
G01 X251.664 Y256.112
G01 X251.985 Y256.095
G01 X252.309 Y256.061
G01 X252.634 Y256.009
G01 X252.959 Y255.940
G01 X253.284 Y255.854
G01 X253.607 Y255.750
G01 X253.928 Y255.628
G01 X254.246 Y255.488
G01 X254.559 Y255.330
G01 X254.867 Y255.155
G01 X255.169 Y254.963
G01 X255.463 Y254.753
G01 X255.749 Y254.525
G01 X256.026 Y254.282
G01 X256.054 Y254.255
G01 X257.029 Y254.442
G01 X258.036 Y254.542
G01 X259.067 Y254.552
G01 X260.116 Y254.472
G01 X261.177 Y254.299
G01 X261.381 Y254.255
G01 X263.259 Y254.256
G01 X266.014 Y254.286
G01 X266.665 Y254.255
G01 X267.077 Y254.259
G01 X271.595 Y254.272
G01 X271.864 Y254.259
G01 X274.406 Y254.257
G01 X275.170 Y254.243
G01 X275.932 Y255.692
G01 X276.002 Y255.839
G01 X274.429 Y255.872
G01 X271.851 Y255.869
G01 X268.425 Y255.932
G01 X267.070 Y255.868
G01 X266.671 Y255.871
G01 X264.513 Y255.927
G01 X263.260 Y255.867
G01 X261.719 Y255.889
G01 X261.399 Y255.877
G01 X260.461 Y256.060
G01 X259.533 Y256.167
G01 X258.622 Y256.198
G01 X257.732 Y256.155
G01 X256.868 Y256.041
G01 X256.051 Y255.862
G01 X255.703 Y256.096
G01 X255.347 Y256.309
G01 X254.984 Y256.502
G01 X254.615 Y256.675
G01 X254.241 Y256.828
G01 X253.863 Y256.960
G01 X253.482 Y257.072
G01 X253.100 Y257.163
G01 X252.718 Y257.234
G01 X252.336 Y257.285
G01 X251.956 Y257.316
G01 X251.578 Y257.327
G01 X251.204 Y257.319
G01 X250.835 Y257.293
G01 X250.471 Y257.247
G01 X250.114 Y257.184
G01 X249.763 Y257.104
G01 X249.422 Y257.006
G01 X249.089 Y256.893
G01 X248.765 Y256.763
G01 X248.453 Y256.619
G01 X248.151 Y256.461
G01 X247.861 Y256.289
G01 X247.584 Y256.104
G01 X247.319 Y255.908
G01 X247.277 Y255.874
G01 X246.776 Y256.144
G01 X246.243 Y256.378
G01 X245.680 Y256.574
G01 X245.090 Y256.728
G01 X244.474 Y256.840
G01 X243.836 Y256.907
G01 X243.179 Y256.926
G01 X242.507 Y256.897
G01 X241.821 Y256.818
G01 X241.126 Y256.688
G01 X240.425 Y256.505
G01 X239.721 Y256.269
G01 X239.019 Y255.978
G01 X238.797 Y255.875
G01 X237.105 Y255.975
G01 X235.380 Y255.922
G01 X234.793 Y255.868
G01 X231.904 Y255.981
G01 X229.499 Y255.871
G01 X226.704 Y255.872
G01 X220.329 Y255.947
G01 X218.747 Y255.871
G01 X210.509 Y255.871
G01 X206.141 Y255.872
G01 X202.436 Y255.870
G01 X197.276 Y255.871
G01 X191.167 Y255.873
G01 X185.316 Y255.870
G01 X181.275 Y255.869
G01 X176.885 Y255.869
G01 X171.293 Y255.866
G01 X166.305 Y255.868
G01 X162.296 Y255.867
G01 X155.758 Y255.869
G01 X150.498 Y255.867
G01 X146.341 Y255.873
G01 X141.584 Y255.871
G01 X136.602 Y255.868
G01 X132.546 Y255.865
G01 X129.142 Y255.866
G01 X125.238 Y255.868
G01 X131.479 Y257.369
G01 X132.556 Y257.373
G01 X136.614 Y257.369
G01 X141.600 Y257.371
G01 X146.362 Y257.370
G01 X150.497 Y257.366
G01 X155.737 Y257.367
G01 X162.309 Y257.365
G01 X166.299 Y257.368
G01 X171.295 Y257.372
G01 X176.871 Y257.374
G01 X181.294 Y257.372
G01 X185.293 Y257.369
G01 X191.160 Y257.369
G01 X197.263 Y257.372
G01 X202.418 Y257.371
G01 X206.140 Y257.371
G01 X210.507 Y257.370
G01 X218.758 Y257.371
G01 X224.003 Y257.498
G01 X226.713 Y257.367
G01 X229.509 Y257.366
G01 X231.979 Y257.496
G01 X234.408 Y257.403
G01 X234.791 Y257.368
G01 X236.320 Y257.477
G01 X237.821 Y257.455
G01 X238.808 Y257.368
G01 X239.529 Y257.655
G01 X240.251 Y257.890
G01 X240.970 Y258.073
G01 X241.682 Y258.205
G01 X242.385 Y258.287
G01 X243.075 Y258.321
G01 X243.750 Y258.308
