;  Created by Sandify
;  https://sandify.org
;  Version: 0.2.6
;
;  Machine type: Rectangular
;    Min X (mm): 0
;    Max X (mm): 500
;    Min Y (mm): 0
;    Max Y (mm): 500
;  Content type: shape
;  Layer:
;    Shape: FileImport
;    Name: dither_itsyourmove.thr
;    From file:: dither_itsyourmove.thr
;    Aspect Ratio: true
;    Comments: 
;    Visible: true
;    Initial width: 10
;    Initial height: 10
;    X offset: 0
;    Y offset: 0
;    Rotate (degrees): 0
;    Reverse path: false
;    Fine tuning:
;      Connect to next layer: line
;      Draw portion of path (%): 100
;      Backtrack at end (%): 0
;      Rotate starting point (%): 0
;  Reverse export path: false
;
; File name: 'Itsyourmove (E) (C NW)'
; File type: gcode
;

G01 X250.000 Y250.000
G01 X250.000 Y250.002
G01 X250.000 Y250.004
G01 X250.001 Y250.006
G01 X250.002 Y250.008
G01 X250.002 Y250.010
G01 X250.003 Y250.011
G01 X250.005 Y250.013
G01 X250.006 Y250.015
G01 X250.008 Y250.016
G01 X250.009 Y250.018
G01 X250.011 Y250.019
G01 X250.013 Y250.020
G01 X250.015 Y250.021
G01 X250.018 Y250.022
G01 X250.020 Y250.022
G01 X250.023 Y250.023
G01 X250.025 Y250.023
G01 X250.028 Y250.023
G01 X250.030 Y250.023
G01 X250.033 Y250.022
G01 X250.036 Y250.022
G01 X250.039 Y250.021
G01 X250.041 Y250.020
G01 X250.044 Y250.018
G01 X250.047 Y250.017
G01 X250.050 Y250.015
G01 X250.052 Y250.013
G01 X250.055 Y250.011
G01 X250.057 Y250.009
G01 X250.073 Y250.016
G01 X250.089 Y250.024
G01 X250.105 Y250.033
G01 X250.108 Y250.036
G01 X250.123 Y250.048
G01 X250.137 Y250.061
G01 X250.149 Y250.075
G01 X250.152 Y250.079
G01 X250.163 Y250.095
G01 X250.173 Y250.113
G01 X250.181 Y250.131
G01 X250.183 Y250.136
G01 X250.190 Y250.156
G01 X250.195 Y250.177
G01 X250.198 Y250.199
G01 X250.199 Y250.205
G01 X250.200 Y250.228
G01 X250.200 Y250.251
G01 X250.197 Y250.275
G01 X250.197 Y250.281
G01 X250.192 Y250.305
G01 X250.185 Y250.329
G01 X250.177 Y250.354
G01 X250.174 Y250.360
G01 X250.163 Y250.384
G01 X250.150 Y250.408
G01 X250.135 Y250.432
G01 X250.131 Y250.438
G01 X250.114 Y250.461
G01 X250.094 Y250.483
G01 X250.073 Y250.504
G01 X250.067 Y250.510
G01 X250.026 Y250.320
G01 X250.004 Y250.128
G01 X250.000 Y250.000
G01 X249.998 Y250.034
G01 X249.993 Y250.069
G01 X249.985 Y250.102
G01 X249.973 Y250.135
G01 X249.958 Y250.167
G01 X249.940 Y250.198
G01 X249.919 Y250.227
G01 X249.895 Y250.254
G01 X249.868 Y250.280
G01 X249.838 Y250.304
G01 X249.805 Y250.325
G01 X249.770 Y250.344
G01 X249.733 Y250.360
G01 X249.694 Y250.373
G01 X249.653 Y250.383
G01 X249.610 Y250.390
G01 X249.566 Y250.393
G01 X249.521 Y250.393
G01 X249.475 Y250.390
G01 X249.427 Y250.383
G01 X249.380 Y250.372
G01 X249.332 Y250.357
G01 X249.284 Y250.339
G01 X249.237 Y250.316
G01 X249.190 Y250.290
G01 X249.143 Y250.260
G01 X249.098 Y250.226
G01 X249.054 Y250.188
G01 X249.012 Y250.147
G01 X248.972 Y250.101
G01 X248.934 Y250.052
G01 X248.898 Y250.000
G01 X248.865 Y249.944
G01 X248.859 Y249.933
G01 X248.846 Y249.876
G01 X248.837 Y249.816
G01 X248.830 Y249.756
G01 X248.829 Y249.740
G01 X248.826 Y249.678
G01 X248.826 Y249.615
G01 X248.830 Y249.552
G01 X248.832 Y249.536
G01 X248.840 Y249.471
G01 X248.852 Y249.407
G01 X248.867 Y249.343
G01 X248.872 Y249.326
G01 X248.891 Y249.262
G01 X248.915 Y249.198
G01 X248.942 Y249.134
G01 X248.950 Y249.118
G01 X248.981 Y249.056
G01 X249.017 Y248.994
G01 X249.056 Y248.934
G01 X249.066 Y248.919
G01 X249.110 Y248.861
G01 X249.156 Y248.804
G01 X249.207 Y248.749
G01 X249.220 Y248.735
G01 X249.275 Y248.683
G01 X249.333 Y248.633
G01 X249.394 Y248.586
G01 X249.410 Y248.575
G01 X249.475 Y248.531
G01 X249.542 Y248.490
G01 X249.613 Y248.452
G01 X249.632 Y248.443
G01 X249.705 Y248.410
G01 X249.781 Y248.380
G01 X249.859 Y248.353
G01 X249.880 Y248.347
G01 X249.802 Y248.381
G01 X249.728 Y248.419
G01 X249.656 Y248.460
G01 X249.588 Y248.504
G01 X249.524 Y248.552
G01 X249.463 Y248.602
G01 X249.405 Y248.654
G01 X249.352 Y248.708
G01 X249.302 Y248.765
G01 X249.257 Y248.823
G01 X249.215 Y248.882
G01 X249.177 Y248.943
G01 X249.144 Y249.005
G01 X249.114 Y249.067
G01 X249.089 Y249.130
G01 X249.067 Y249.193
G01 X249.050 Y249.256
G01 X249.036 Y249.319
G01 X249.026 Y249.382
G01 X249.020 Y249.443
G01 X249.017 Y249.504
G01 X249.019 Y249.563
G01 X249.023 Y249.622
G01 X249.031 Y249.678
G01 X249.042 Y249.734
G01 X249.056 Y249.787
G01 X249.072 Y249.838
G01 X249.092 Y249.887
G01 X249.114 Y249.934
G01 X249.138 Y249.978
G01 X249.165 Y250.019
G01 X249.193 Y250.059
G01 X249.223 Y250.095
G01 X249.255 Y250.128
G01 X249.288 Y250.159
G01 X249.322 Y250.187
G01 X249.357 Y250.211
G01 X249.393 Y250.233
G01 X249.430 Y250.252
G01 X249.466 Y250.268
G01 X249.503 Y250.281
G01 X249.540 Y250.290
G01 X249.577 Y250.297
G01 X249.613 Y250.302
G01 X249.648 Y250.303
G01 X249.682 Y250.302
G01 X249.716 Y250.298
G01 X249.748 Y250.291
G01 X249.779 Y250.282
G01 X249.809 Y250.271
G01 X249.836 Y250.258
G01 X249.862 Y250.243
G01 X249.886 Y250.225
G01 X249.908 Y250.206
G01 X249.928 Y250.186
G01 X249.946 Y250.164
G01 X249.961 Y250.141
G01 X249.974 Y250.117
G01 X249.984 Y250.092
G01 X249.992 Y250.066
G01 X249.997 Y250.040
G01 X250.000 Y250.014
G01 X250.000 Y250.000
G01 X250.004 Y250.077
G01 X250.015 Y250.154
G01 X250.034 Y250.229
G01 X250.060 Y250.303
G01 X250.094 Y250.374
G01 X250.134 Y250.443
G01 X250.182 Y250.509
G01 X250.236 Y250.570
G01 X250.297 Y250.628
G01 X250.364 Y250.681
G01 X250.436 Y250.728
G01 X250.514 Y250.770
G01 X250.598 Y250.806
G01 X250.685 Y250.835
G01 X250.777 Y250.858
G01 X250.873 Y250.873
G01 X250.972 Y250.881
G01 X251.074 Y250.881
G01 X251.178 Y250.873
G01 X251.283 Y250.857
G01 X251.390 Y250.833
G01 X251.497 Y250.800
G01 X251.604 Y250.759
G01 X251.711 Y250.709
G01 X251.816 Y250.650
G01 X251.920 Y250.582
G01 X252.021 Y250.506
G01 X252.119 Y250.422
G01 X252.214 Y250.328
G01 X252.270 Y250.266
G01 X252.272 Y250.380
G01 X252.267 Y250.495
G01 X252.257 Y250.610
G01 X252.254 Y250.640
G01 X252.236 Y250.756
G01 X252.213 Y250.871
G01 X252.183 Y250.986
G01 X252.175 Y251.015
G01 X252.138 Y251.129
G01 X252.095 Y251.242
G01 X252.046 Y251.352
G01 X252.032 Y251.381
G01 X251.976 Y251.490
G01 X251.914 Y251.596
G01 X251.846 Y251.700
G01 X251.828 Y251.726
G01 X251.753 Y251.827
G01 X251.673 Y251.924
G01 X251.587 Y252.017
G01 X251.564 Y252.041
G01 X251.472 Y252.130
G01 X251.375 Y252.214
G01 X251.273 Y252.294
G01 X251.246 Y252.314
G01 X251.139 Y252.388
G01 X251.027 Y252.458
G01 X250.911 Y252.522
G01 X250.880 Y252.537
G01 X250.760 Y252.594
G01 X250.636 Y252.645
G01 X250.508 Y252.691
G01 X250.475 Y252.701
G01 X250.344 Y252.739
G01 X250.210 Y252.770
G01 X250.075 Y252.794
G01 X250.039 Y252.800
G01 X250.000 Y250.000
G01 X249.995 Y250.104
G01 X249.980 Y250.208
G01 X249.954 Y250.310
G01 X249.919 Y250.409
G01 X249.873 Y250.506
G01 X249.818 Y250.599
G01 X249.754 Y250.688
G01 X249.681 Y250.771
G01 X249.598 Y250.849
G01 X249.508 Y250.920
G01 X249.410 Y250.985
G01 X249.304 Y251.041
G01 X249.192 Y251.090
G01 X249.073 Y251.129
G01 X248.949 Y251.160
G01 X248.819 Y251.181
G01 X248.686 Y251.191
G01 X248.548 Y251.192
G01 X248.408 Y251.181
G01 X248.265 Y251.159
G01 X248.120 Y251.127
G01 X247.975 Y251.082
G01 X247.830 Y251.026
G01 X247.686 Y250.958
G01 X247.544 Y250.879
G01 X247.404 Y250.788
G01 X247.267 Y250.685
G01 X247.134 Y250.570
G01 X247.007 Y250.444
G01 X246.885 Y250.307
G01 X246.769 Y250.159
G01 X246.661 Y250.000
G01 X246.629 Y249.949
G01 X246.618 Y249.782
G01 X246.615 Y249.615
G01 X246.621 Y249.446
G01 X246.624 Y249.402
G01 X246.640 Y249.233
G01 X246.665 Y249.065
G01 X246.698 Y248.897
G01 X246.708 Y248.853
G01 X246.752 Y248.687
G01 X246.805 Y248.521
G01 X246.866 Y248.358
G01 X246.883 Y248.316
G01 X246.954 Y248.156
G01 X247.034 Y247.999
G01 X247.121 Y247.846
G01 X247.146 Y247.806
G01 X247.243 Y247.658
G01 X247.349 Y247.513
G01 X247.462 Y247.373
G01 X247.492 Y247.338
G01 X247.614 Y247.205
G01 X247.744 Y247.077
G01 X247.880 Y246.956
G01 X247.916 Y246.925
G01 X248.061 Y246.812
G01 X248.211 Y246.705
G01 X248.367 Y246.605
G01 X248.409 Y246.581
G01 X248.572 Y246.490
G01 X248.740 Y246.408
G01 X248.913 Y246.334
G01 X248.958 Y246.316
G01 X249.136 Y246.252
G01 X249.318 Y246.197
G01 X249.503 Y246.151
G01 X249.552 Y246.140
G01 X249.684 Y245.252
G01 X249.902 Y244.369
G01 X250.206 Y243.498
G01 X250.299 Y243.275
G01 X250.629 Y243.297
G01 X250.957 Y243.336
G01 X251.283 Y243.391
G01 X251.367 Y243.408
G01 X251.688 Y243.483
G01 X252.006 Y243.574
G01 X252.319 Y243.680
G01 X252.399 Y243.710
G01 X252.705 Y243.835
G01 X253.004 Y243.976
G01 X253.296 Y244.130
G01 X253.371 Y244.173
G01 X253.653 Y244.345
G01 X253.926 Y244.531
G01 X254.189 Y244.730
G01 X254.256 Y244.784
G01 X254.507 Y244.999
G01 X254.747 Y245.226
G01 X254.975 Y245.465
G01 X255.033 Y245.529
G01 X255.246 Y245.781
G01 X255.447 Y246.044
G01 X255.634 Y246.316
G01 X255.681 Y246.388
G01 X255.851 Y246.671
G01 X256.008 Y246.962
G01 X256.149 Y247.260
G01 X256.184 Y247.339
G01 X256.307 Y247.646
G01 X256.415 Y247.958
G01 X256.507 Y248.275
G01 X256.529 Y248.358
G01 X256.601 Y248.680
G01 X256.658 Y249.006
G01 X256.699 Y249.334
G01 X256.707 Y249.419
G01 X256.047 Y249.774
G01 X255.371 Y250.063
G01 X254.682 Y250.285
G01 X254.502 Y250.332
G01 X254.498 Y250.555
G01 X254.482 Y250.778
G01 X254.456 Y251.001
G01 X254.447 Y251.058
G01 X254.407 Y251.280
G01 X254.355 Y251.501
G01 X254.293 Y251.719
G01 X254.275 Y251.775
G01 X254.198 Y251.990
G01 X254.111 Y252.202
G01 X254.013 Y252.410
G01 X253.986 Y252.464
G01 X253.875 Y252.666
G01 X253.753 Y252.864
G01 X253.621 Y253.056
G01 X253.586 Y253.104
G01 X253.442 Y253.289
G01 X253.288 Y253.466
G01 X253.126 Y253.637
G01 X253.082 Y253.680
G01 X252.908 Y253.841
G01 X252.726 Y253.993
G01 X252.536 Y254.137
G01 X252.486 Y254.173
G01 X252.286 Y254.306
G01 X252.079 Y254.428
G01 X251.866 Y254.541
G01 X251.810 Y254.569
G01 X251.589 Y254.669
G01 X251.363 Y254.758
G01 X251.132 Y254.836
G01 X251.071 Y254.855
G01 X250.835 Y254.919
G01 X250.594 Y254.971
G01 X250.351 Y255.012
G01 X250.287 Y255.020
G01 X250.045 Y255.551
G01 X249.751 Y256.069
G01 X249.407 Y256.570
G01 X249.309 Y256.696
G01 X248.981 Y256.654
G01 X248.656 Y256.596
G01 X248.334 Y256.523
G01 X248.251 Y256.501
G01 X247.934 Y256.407
G01 X247.622 Y256.298
G01 X247.316 Y256.174
G01 X247.238 Y256.139
G01 X246.940 Y255.996
G01 X246.649 Y255.839
G01 X246.367 Y255.667
G01 X246.295 Y255.621
G01 X246.023 Y255.432
G01 X245.762 Y255.230
G01 X245.510 Y255.016
G01 X245.447 Y254.959
G01 X245.209 Y254.729
G01 X244.983 Y254.488
G01 X244.768 Y254.237
G01 X244.715 Y254.170
G01 X244.517 Y253.905
G01 X244.332 Y253.632
G01 X244.160 Y253.349
G01 X244.118 Y253.274
G01 X243.964 Y252.982
G01 X243.825 Y252.682
G01 X243.701 Y252.376
G01 X243.671 Y252.296
G01 X243.566 Y251.982
G01 X243.477 Y251.664
G01 X243.403 Y251.342
G01 X243.387 Y251.258
G01 X243.333 Y250.932
G01 X243.295 Y250.604
G01 X243.274 Y250.274
G01 X243.271 Y250.188
G01 X243.599 Y249.865
G01 X243.942 Y249.574
G01 X244.298 Y249.317
G01 X244.392 Y249.255
G01 X244.418 Y248.978
G01 X244.458 Y248.701
G01 X244.512 Y248.426
G01 X244.528 Y248.355
G01 X244.598 Y248.083
G01 X244.683 Y247.813
G01 X244.781 Y247.547
G01 X244.808 Y247.479
G01 X244.923 Y247.219
G01 X245.050 Y246.964
G01 X245.191 Y246.715
G01 X245.229 Y246.651
G01 X245.386 Y246.411
G01 X245.554 Y246.177
G01 X245.734 Y245.951
G01 X245.783 Y245.894
G01 X245.977 Y245.679
G01 X246.183 Y245.474
G01 X246.399 Y245.278
G01 X246.457 Y245.229
G01 X246.685 Y245.046
G01 X246.924 Y244.875
G01 X247.170 Y244.714
G01 X247.236 Y244.675
G01 X247.493 Y244.529
G01 X247.758 Y244.397
G01 X248.030 Y244.277
G01 X248.102 Y244.248
G01 X248.382 Y244.145
G01 X248.667 Y244.055
G01 X248.957 Y243.980
G01 X249.033 Y243.963
G01 X249.310 Y243.734
G01 X249.607 Y243.519
G01 X249.923 Y243.318
G01 X250.008 Y243.268
G01 X250.339 Y243.277
G01 X250.668 Y243.301
G01 X250.996 Y243.342
G01 X251.081 Y243.355
G01 X251.405 Y243.416
G01 X251.727 Y243.493
G01 X252.044 Y243.586
G01 X252.126 Y243.612
G01 X252.436 Y243.724
G01 X252.741 Y243.851
G01 X253.040 Y243.993
G01 X253.116 Y244.033
G01 X253.405 Y244.193
G01 X253.686 Y244.367
G01 X253.958 Y244.554
G01 X254.027 Y244.605
G01 X254.287 Y244.809
G01 X254.536 Y245.026
G01 X254.775 Y245.255
G01 X254.835 Y245.316
G01 X255.059 Y245.559
G01 X255.271 Y245.812
G01 X255.470 Y246.076
G01 X255.520 Y246.146
G01 X255.702 Y246.421
G01 X255.871 Y246.705
G01 X256.025 Y246.997
G01 X256.063 Y247.074
G01 X256.199 Y247.375
G01 X256.321 Y247.683
G01 X256.427 Y247.996
G01 X256.452 Y248.078
G01 X256.538 Y248.397
G01 X256.609 Y248.719
G01 X256.664 Y249.045
G01 X256.676 Y249.130
G01 X256.713 Y249.459
G01 X256.735 Y249.788
G01 X256.741 Y250.119
G01 X256.740 Y250.205
G01 X256.739 Y250.537
G01 X256.722 Y250.869
G01 X256.688 Y251.201
G01 X256.677 Y251.287
G01 X256.623 Y251.617
G01 X256.552 Y251.945
G01 X256.466 Y252.270
G01 X256.440 Y252.354
G01 X256.333 Y252.674
G01 X256.210 Y252.989
G01 X256.071 Y253.299
G01 X256.033 Y253.378
G01 X255.875 Y253.679
G01 X255.702 Y253.973
G01 X255.514 Y254.259
G01 X255.463 Y254.332
G01 X255.257 Y254.606
G01 X255.037 Y254.870
G01 X254.804 Y255.124
G01 X254.741 Y255.189
G01 X254.492 Y255.429
G01 X254.231 Y255.656
G01 X253.958 Y255.872
G01 X253.885 Y255.926
G01 X253.599 Y256.124
G01 X253.302 Y256.309
G01 X252.996 Y256.479
G01 X252.915 Y256.521
G01 X252.598 Y256.672
G01 X252.273 Y256.809
G01 X251.941 Y256.929
G01 X251.854 Y256.957
G01 X251.514 Y257.057
G01 X251.168 Y257.140
G01 X250.819 Y257.206
G01 X250.727 Y257.221
G01 X250.364 Y257.087
G01 X250.015 Y256.935
G01 X249.682 Y256.766
G01 X249.599 Y256.720
G01 X249.270 Y256.692
G01 X248.942 Y256.648
G01 X248.617 Y256.588
G01 X248.533 Y256.570
G01 X248.213 Y256.490
G01 X247.896 Y256.395
G01 X247.585 Y256.284
G01 X247.505 Y256.253
G01 X247.201 Y256.123
G01 X246.904 Y255.978
G01 X246.615 Y255.819
G01 X246.541 Y255.775
G01 X246.262 Y255.599
G01 X245.992 Y255.408
G01 X245.731 Y255.205
G01 X245.665 Y255.151
G01 X245.418 Y254.932
G01 X245.181 Y254.701
G01 X244.956 Y254.459
G01 X244.900 Y254.394
G01 X244.690 Y254.139
G01 X244.494 Y253.873
G01 X244.310 Y253.598
G01 X244.265 Y253.525
G01 X244.099 Y253.240
G01 X243.947 Y252.946
G01 X243.810 Y252.646
G01 X243.776 Y252.567
G01 X243.658 Y252.258
G01 X243.555 Y251.944
G01 X243.467 Y251.626
G01 X243.447 Y251.542
G01 X243.379 Y251.219
G01 X243.327 Y250.893
G01 X243.292 Y250.564
G01 X243.285 Y250.479
G01 X242.916 Y250.156
G01 X242.563 Y249.799
G01 X242.229 Y249.407
G01 X242.145 Y249.300
G01 X242.172 Y248.913
G01 X242.217 Y248.527
G01 X242.282 Y248.143
G01 X242.302 Y248.044
G01 X242.390 Y247.663
G01 X242.498 Y247.287
G01 X242.624 Y246.915
G01 X242.659 Y246.820
G01 X242.808 Y246.456
G01 X242.976 Y246.098
G01 X243.161 Y245.749
G01 X243.212 Y245.660
G01 X243.418 Y245.322
G01 X243.642 Y244.994
G01 X243.882 Y244.676
G01 X243.947 Y244.596
G01 X244.207 Y244.293
G01 X244.482 Y244.003
G01 X244.772 Y243.726
G01 X244.849 Y243.656
G01 X245.156 Y243.397
G01 X245.477 Y243.153
G01 X245.809 Y242.924
G01 X245.897 Y242.867
G01 X246.244 Y242.659
G01 X246.602 Y242.467
G01 X246.969 Y242.293
G01 X247.066 Y242.251
G01 X247.444 Y242.100
G01 X247.830 Y241.967
G01 X248.224 Y241.853
G01 X248.327 Y241.827
G01 X248.727 Y241.737
G01 X249.132 Y241.667
G01 X249.541 Y241.617
G01 X249.648 Y241.607
G01 X250.056 Y242.112
G01 X250.414 Y242.635
G01 X250.722 Y243.173
G01 X250.793 Y243.315
G01 X251.120 Y243.362
G01 X251.444 Y243.425
G01 X251.765 Y243.504
G01 X251.848 Y243.527
G01 X252.163 Y243.625
G01 X252.473 Y243.739
G01 X252.778 Y243.868
G01 X252.855 Y243.904
G01 X253.151 Y244.051
G01 X253.439 Y244.213
G01 X253.719 Y244.389
G01 X253.790 Y244.436
G01 X254.059 Y244.629
G01 X254.317 Y244.835
G01 X254.566 Y245.053
G01 X254.628 Y245.111
G01 X254.863 Y245.344
G01 X255.085 Y245.589
G01 X255.295 Y245.843
G01 X255.348 Y245.911
G01 X255.542 Y246.178
G01 X255.723 Y246.455
G01 X255.890 Y246.740
G01 X255.931 Y246.815
G01 X256.080 Y247.110
G01 X256.215 Y247.412
G01 X256.334 Y247.720
G01 X256.363 Y247.801
G01 X256.463 Y248.116
G01 X256.548 Y248.435
G01 X256.617 Y248.758
G01 X256.632 Y248.843
G01 X256.681 Y249.170
G01 X256.713 Y249.498
G01 X256.730 Y249.828
G01 X256.731 Y249.914
G01 X257.432 Y250.270
G01 X258.111 Y250.695
G01 X258.766 Y251.186
G01 X258.931 Y251.325
G01 X258.872 Y251.765
G01 X258.792 Y252.202
G01 X258.690 Y252.636
G01 X258.660 Y252.748
G01 X258.531 Y253.176
G01 X258.381 Y253.597
G01 X258.210 Y254.012
G01 X258.163 Y254.118
G01 X257.966 Y254.522
G01 X257.749 Y254.917
G01 X257.513 Y255.302
G01 X257.449 Y255.400
G01 X257.189 Y255.770
G01 X256.910 Y256.127
G01 X256.614 Y256.471
G01 X256.534 Y256.558
G01 X256.216 Y256.884
G01 X255.882 Y257.194
G01 X255.532 Y257.488
G01 X255.439 Y257.561
G01 X255.071 Y257.834
G01 X254.689 Y258.088
G01 X254.295 Y258.324
G01 X254.190 Y258.383
G01 X253.781 Y258.594
G01 X253.361 Y258.786
G01 X252.931 Y258.956
G01 X252.818 Y258.997
G01 X252.378 Y259.142
G01 X251.930 Y259.265
G01 X251.476 Y259.366
G01 X251.357 Y259.388
G01 X250.815 Y258.602
G01 X250.354 Y257.788
G01 X249.974 Y256.951
G01 X249.889 Y256.731
G01 X249.559 Y256.718
G01 X249.230 Y256.688
G01 X248.903 Y256.642
G01 X248.818 Y256.627
G01 X248.495 Y256.562
G01 X248.174 Y256.480
G01 X247.859 Y256.382
G01 X247.778 Y256.355
G01 X247.468 Y256.238
G01 X247.165 Y256.106
G01 X246.869 Y255.960
G01 X246.794 Y255.919
G01 X246.507 Y255.755
G01 X246.229 Y255.577
G01 X245.960 Y255.385
G01 X245.891 Y255.333
G01 X245.635 Y255.125
G01 X245.389 Y254.904
G01 X245.153 Y254.672
G01 X245.094 Y254.610
G01 X244.874 Y254.364
G01 X244.666 Y254.107
G01 X244.471 Y253.840
G01 X244.422 Y253.770
G01 X244.244 Y253.492
G01 X244.080 Y253.205
G01 X243.930 Y252.911
G01 X243.893 Y252.833
G01 X243.761 Y252.530
G01 X243.645 Y252.221
G01 X243.544 Y251.906
G01 X243.520 Y251.824
G01 X243.438 Y251.504
G01 X243.372 Y251.180
G01 X243.322 Y250.853
G01 X243.312 Y250.768
G01 X242.247 Y250.507
G01 X241.194 Y250.142
G01 X240.160 Y249.676
G01 X239.896 Y249.538
G01 X239.914 Y249.042
G01 X239.955 Y248.545
G01 X240.022 Y248.051
G01 X240.043 Y247.923
G01 X240.140 Y247.433
G01 X240.261 Y246.947
G01 X240.406 Y246.466
G01 X240.448 Y246.343
G01 X240.623 Y245.871
G01 X240.821 Y245.408
G01 X241.042 Y244.955
G01 X241.103 Y244.839
G01 X241.352 Y244.399
G01 X241.623 Y243.971
G01 X241.915 Y243.557
G01 X241.995 Y243.451
G01 X242.313 Y243.055
G01 X242.650 Y242.673
G01 X243.007 Y242.309
G01 X243.102 Y242.217
G01 X243.481 Y241.874
G01 X243.878 Y241.550
G01 X244.290 Y241.245
G01 X244.400 Y241.169
G01 X244.831 Y240.889
G01 X245.276 Y240.631
G01 X245.735 Y240.395
G01 X245.856 Y240.337
G01 X246.329 Y240.129
G01 X246.812 Y239.944
G01 X247.305 Y239.783
G01 X247.434 Y239.745
G01 X247.937 Y239.614
G01 X248.447 Y239.508
G01 X248.962 Y239.427
G01 X249.096 Y239.410
G01 X249.585 Y238.509
G01 X250.161 Y237.633
G01 X250.822 Y236.787
G01 X251.007 Y236.574
G01 X251.664 Y236.639
G01 X252.318 Y236.737
G01 X252.966 Y236.867
G01 X253.133 Y236.906
G01 X253.772 Y237.075
G01 X254.401 Y237.276
G01 X255.020 Y237.507
G01 X255.179 Y237.572
G01 X255.783 Y237.841
G01 X256.372 Y238.139
G01 X256.947 Y238.466
G01 X257.093 Y238.556
G01 X257.646 Y238.918
G01 X258.181 Y239.306
G01 X258.695 Y239.720
G01 X258.826 Y239.832
G01 X259.314 Y240.277
G01 X259.780 Y240.746
G01 X260.222 Y241.237
G01 X260.333 Y241.368
G01 X260.744 Y241.885
G01 X261.129 Y242.422
G01 X261.488 Y242.978
G01 X261.576 Y243.125
G01 X261.900 Y243.701
G01 X262.194 Y244.292
G01 X262.460 Y244.897
G01 X262.524 Y245.057
G01 X262.751 Y245.677
G01 X262.948 Y246.308
G01 X263.113 Y246.948
G01 X263.151 Y247.115
G01 X263.277 Y247.764
G01 X263.371 Y248.418
G01 X263.432 Y249.076
G01 X263.443 Y249.247
G01 X262.787 Y249.912
G01 X262.099 Y250.511
G01 X261.385 Y251.043
G01 X261.196 Y251.169
G01 X261.143 Y251.720
G01 X261.062 Y252.268
G01 X260.954 Y252.812
G01 X260.922 Y252.953
G01 X260.781 Y253.491
G01 X260.613 Y254.022
G01 X260.419 Y254.545
G01 X260.364 Y254.679
G01 X260.138 Y255.190
G01 X259.886 Y255.690
G01 X259.610 Y256.177
G01 X259.534 Y256.302
G01 X259.228 Y256.772
G01 X258.898 Y257.228
G01 X258.545 Y257.668
G01 X258.450 Y257.779
G01 X258.071 Y258.197
G01 X257.671 Y258.596
G01 X257.251 Y258.976
G01 X257.138 Y259.071
G01 X256.695 Y259.424
G01 X256.234 Y259.756
G01 X255.756 Y260.066
G01 X255.630 Y260.142
G01 X255.133 Y260.422
G01 X254.623 Y260.677
G01 X254.099 Y260.908
G01 X253.962 Y260.963
G01 X253.424 Y261.161
G01 X252.877 Y261.333
G01 X252.320 Y261.477
G01 X252.175 Y261.511
G01 X251.610 Y261.621
G01 X251.039 Y261.703
G01 X250.465 Y261.758
G01 X250.315 Y261.767
G01 X249.725 Y262.288
G01 X249.086 Y262.777
G01 X248.397 Y263.233
G01 X248.211 Y263.345
G01 X247.559 Y263.241
G01 X246.912 Y263.105
G01 X246.272 Y262.938
G01 X246.108 Y262.889
G01 X245.480 Y262.683
G01 X244.863 Y262.446
G01 X244.259 Y262.179
G01 X244.104 Y262.105
G01 X243.517 Y261.801
G01 X242.946 Y261.468
G01 X242.392 Y261.108
G01 X242.251 Y261.011
G01 X241.720 Y260.617
G01 X241.209 Y260.198
G01 X240.719 Y259.754
G01 X240.596 Y259.635
G01 X240.134 Y259.162
G01 X239.697 Y258.667
G01 X239.284 Y258.151
G01 X239.181 Y258.014
G01 X238.801 Y257.474
G01 X238.447 Y256.915
G01 X238.122 Y256.340
G01 X238.042 Y256.188
G01 X237.753 Y255.594
G01 X237.493 Y254.986
G01 X237.264 Y254.366
G01 X237.209 Y254.204
G01 X237.018 Y253.571
G01 X236.859 Y252.930
G01 X236.731 Y252.282
G01 X236.703 Y252.112
G01 X236.957 Y251.420
G01 X237.246 Y250.758
G01 X237.569 Y250.128
G01 X237.657 Y249.970
G01 X237.656 Y249.363
G01 X237.685 Y248.757
G01 X237.743 Y248.151
G01 X237.763 Y247.994
G01 X237.859 Y247.393
G01 X237.985 Y246.796
G01 X238.140 Y246.205
G01 X238.185 Y246.052
G01 X238.376 Y245.471
G01 X238.597 Y244.899
G01 X238.845 Y244.338
G01 X238.914 Y244.194
G01 X239.197 Y243.648
G01 X239.507 Y243.116
G01 X239.844 Y242.599
G01 X239.934 Y242.470
G01 X240.302 Y241.974
G01 X240.694 Y241.495
G01 X241.110 Y241.037
G01 X241.214 Y240.929
G01 X241.658 Y240.496
G01 X242.124 Y240.084
G01 X242.610 Y239.695
G01 X242.722 Y239.611
G01 X243.232 Y239.251
G01 X243.759 Y238.917
G01 X244.302 Y238.608
G01 X244.419 Y238.546
G01 X244.981 Y238.270
G01 X245.557 Y238.022
G01 X246.144 Y237.801
G01 X246.262 Y237.761
G01 X246.863 Y237.575
G01 X247.473 Y237.419
G01 X248.091 Y237.293
G01 X248.205 Y237.273
G01 X248.814 Y237.008
G01 X249.445 Y236.773
G01 X250.096 Y236.569
G01 X250.208 Y236.538
G01 X250.869 Y236.564
G01 X251.527 Y236.623
G01 X252.181 Y236.714
G01 X252.283 Y236.731
G01 X252.932 Y236.859
G01 X253.573 Y237.019
G01 X254.206 Y237.210
G01 X254.295 Y237.239
G01 X254.916 Y237.466
G01 X255.525 Y237.722
G01 X256.121 Y238.008
G01 X256.197 Y238.047
G01 X256.776 Y238.365
G01 X257.339 Y238.712
G01 X257.884 Y239.086
G01 X257.946 Y239.131
G01 X258.470 Y239.534
G01 X258.973 Y239.962
G01 X259.455 Y240.415
G01 X259.504 Y240.463
G01 X259.960 Y240.940
G01 X260.393 Y241.440
G01 X260.800 Y241.960
G01 X260.836 Y242.008
G01 X261.215 Y242.550
G01 X261.567 Y243.109
G01 X261.891 Y243.685
G01 X261.915 Y243.731
G01 X262.209 Y244.323
G01 X262.472 Y244.929
G01 X262.706 Y245.547
G01 X262.720 Y245.588
G01 X262.922 Y246.217
G01 X263.092 Y246.856
G01 X263.230 Y247.502
G01 X263.237 Y247.536
G01 X263.342 Y248.189
G01 X263.414 Y248.846
G01 X263.455 Y249.505
G01 X263.456 Y249.532
G01 X263.476 Y250.193
G01 X263.464 Y250.855
G01 X263.419 Y251.516
G01 X263.417 Y251.535
G01 X263.343 Y252.195
G01 X263.236 Y252.850
G01 X263.097 Y253.501
G01 X263.095 Y253.512
G01 X262.923 Y254.156
G01 X262.720 Y254.791
G01 X262.486 Y255.416
G01 X262.485 Y255.420
G01 X262.219 Y256.033
G01 X261.924 Y256.634
G01 X261.601 Y257.217
G01 X261.247 Y257.787
G01 X260.866 Y258.341
G01 X260.464 Y258.866
G01 X260.029 Y259.380
G01 X259.569 Y259.874
G01 X259.099 Y260.331
G01 X258.592 Y260.779
G01 X258.063 Y261.202
G01 X257.536 Y261.583
G01 X256.968 Y261.954
G01 X256.381 Y262.297
G01 X255.809 Y262.596
G01 X255.190 Y262.882
G01 X254.557 Y263.138
G01 X253.953 Y263.349
G01 X253.297 Y263.544
G01 X252.632 Y263.707
G01 X252.008 Y263.828
G01 X251.329 Y263.928
G01 X250.645 Y263.994
G01 X250.015 Y264.024
G01 X249.337 Y263.816
G01 X248.678 Y263.574
G01 X248.101 Y263.329
G01 X247.449 Y263.220
G01 X246.804 Y263.079
G01 X246.233 Y262.926
G01 X245.603 Y262.726
G01 X244.984 Y262.495
G01 X244.446 Y262.265
G01 X243.851 Y261.978
G01 X243.271 Y261.662
G01 X242.777 Y261.363
G01 X242.228 Y260.994
G01 X241.698 Y260.600
G01 X241.256 Y260.238
G01 X240.764 Y259.797
G01 X240.295 Y259.332
G01 X239.912 Y258.917
G01 X239.487 Y258.412
G01 X239.087 Y257.886
G01 X238.770 Y257.427
G01 X238.419 Y256.867
G01 X238.096 Y256.290
G01 X237.848 Y255.798
G01 X237.579 Y255.195
G01 X237.339 Y254.579
G01 X237.164 Y254.063
G01 X236.980 Y253.428
G01 X236.827 Y252.785
G01 X236.726 Y252.257
G01 X236.632 Y251.603
G01 X236.569 Y250.945
G01 X236.542 Y250.414
G01 X236.123 Y249.745
G01 X235.739 Y249.037
G01 X235.459 Y248.445
G01 X235.535 Y247.731
G01 X235.647 Y247.021
G01 X235.759 Y246.466
G01 X235.933 Y245.766
G01 X236.141 Y245.075
G01 X236.326 Y244.545
G01 X236.595 Y243.874
G01 X236.896 Y243.215
G01 X237.149 Y242.720
G01 X237.507 Y242.089
G01 X237.896 Y241.475
G01 X238.211 Y241.022
G01 X238.652 Y240.443
G01 X239.122 Y239.886
G01 X239.492 Y239.483
G01 X240.009 Y238.968
G01 X240.551 Y238.477
G01 X240.968 Y238.131
G01 X241.552 Y237.687
G01 X242.157 Y237.273
G01 X242.613 Y236.988
G01 X243.252 Y236.626
G01 X243.909 Y236.295
G01 X244.395 Y236.076
G01 X245.079 Y235.801
G01 X245.777 Y235.560
G01 X246.283 Y235.408
G01 X247.000 Y235.226
G01 X247.725 Y235.080
G01 X248.242 Y234.997
G01 X249.022 Y235.536
G01 X249.744 Y236.114
G01 X250.212 Y236.538
G01 X250.873 Y236.564
G01 X251.531 Y236.623
G01 X251.982 Y236.683
G01 X252.633 Y236.796
G01 X253.278 Y236.941
G01 X253.712 Y237.058
G01 X254.343 Y237.256
G01 X254.963 Y237.484
G01 X255.373 Y237.655
G01 X255.973 Y237.933
G01 X256.557 Y238.241
G01 X256.937 Y238.461
G01 X257.495 Y238.815
G01 X258.035 Y239.196
G01 X258.379 Y239.461
G01 X258.886 Y239.884
G01 X259.371 Y240.333
G01 X259.674 Y240.636
G01 X260.122 Y241.121
G01 X260.545 Y241.629
G01 X260.803 Y241.964
G01 X261.184 Y242.504
G01 X261.539 Y243.062
G01 X261.748 Y243.423
G01 X262.057 Y244.007
G01 X262.336 Y244.606
G01 X262.496 Y244.987
G01 X262.727 Y245.606
G01 X262.927 Y246.236
G01 X263.035 Y246.629
G01 X263.185 Y247.272
G01 X263.303 Y247.922
G01 X263.359 Y248.321
G01 X264.286 Y248.913
G01 X265.185 Y249.592
G01 X265.709 Y250.042
G01 X265.705 Y250.813
G01 X265.664 Y251.585
G01 X265.622 Y252.042
G01 X265.520 Y252.809
G01 X265.380 Y253.571
G01 X265.281 Y254.015
G01 X265.083 Y254.765
G01 X264.847 Y255.505
G01 X264.694 Y255.929
G01 X264.401 Y256.650
G01 X264.073 Y257.357
G01 X263.870 Y257.753
G01 X263.488 Y258.434
G01 X263.072 Y259.096
G01 X262.823 Y259.460
G01 X262.357 Y260.089
G01 X261.860 Y260.695
G01 X261.571 Y261.022
G01 X261.028 Y261.589
G01 X260.457 Y262.129
G01 X260.133 Y262.414
G01 X259.522 Y262.911
G01 X258.886 Y263.377
G01 X258.532 Y263.617
G01 X257.862 Y264.034
G01 X257.172 Y264.419
G01 X256.794 Y264.611
G01 X256.076 Y264.943
G01 X255.341 Y265.240
G01 X254.947 Y265.382
G01 X254.191 Y265.623
G01 X253.423 Y265.827
G01 X253.018 Y265.918
G01 X252.236 Y266.065
G01 X251.446 Y266.173
G01 X251.038 Y266.213
G01 X250.225 Y265.135
G01 X249.520 Y264.019
G01 X249.204 Y263.440
G01 X248.545 Y263.385
G01 X247.890 Y263.298
G01 X247.564 Y263.242
G01 X246.917 Y263.106
G01 X246.278 Y262.939
G01 X245.965 Y262.845
G01 X245.339 Y262.632
G01 X244.725 Y262.388
G01 X244.430 Y262.258
G01 X243.835 Y261.970
G01 X243.255 Y261.653
G01 X242.982 Y261.490
G01 X242.427 Y261.132
G01 X241.890 Y260.747
G01 X241.641 Y260.555
G01 X241.134 Y260.132
G01 X240.647 Y259.685
G01 X240.427 Y259.468
G01 X239.974 Y258.987
G01 X239.545 Y258.484
G01 X239.356 Y258.245
G01 X238.964 Y257.713
G01 X238.599 Y257.162
G01 X238.442 Y256.905
G01 X238.117 Y256.330
G01 X237.820 Y255.739
G01 X237.697 Y255.469
G01 X237.443 Y254.859
G01 X237.220 Y254.237
G01 X237.131 Y253.958
G01 X236.952 Y253.322
G01 X236.805 Y252.678
G01 X236.751 Y252.395
G01 X236.649 Y251.742
G01 X236.580 Y251.085
G01 X236.560 Y250.801
G01 X235.139 Y250.155
G01 X233.753 Y249.372
G01 X233.179 Y248.999
G01 X233.231 Y248.173
G01 X233.323 Y247.349
G01 X233.374 Y247.006
G01 X233.524 Y246.190
G01 X233.714 Y245.382
G01 X233.803 Y245.051
G01 X234.049 Y244.257
G01 X234.334 Y243.474
G01 X234.461 Y243.160
G01 X234.799 Y242.398
G01 X235.175 Y241.653
G01 X235.336 Y241.360
G01 X235.763 Y240.641
G01 X236.225 Y239.944
G01 X236.417 Y239.675
G01 X236.926 Y239.010
G01 X237.468 Y238.370
G01 X237.687 Y238.128
G01 X238.272 Y237.526
G01 X238.887 Y236.952
G01 X239.130 Y236.741
G01 X239.783 Y236.209
G01 X240.462 Y235.710
G01 X240.724 Y235.531
G01 X241.437 Y235.078
G01 X242.171 Y234.660
G01 X242.449 Y234.514
G01 X243.211 Y234.146
G01 X243.991 Y233.816
G01 X244.279 Y233.704
G01 X245.081 Y233.427
G01 X245.896 Y233.188
G01 X246.191 Y233.112
G01 X247.022 Y232.929
G01 X247.861 Y232.786
G01 X248.159 Y232.745
G01 X248.939 Y231.466
G01 X249.840 Y230.226
G01 X250.181 Y229.805
G01 X251.172 Y229.838
G01 X252.160 Y229.920
G01 X252.497 Y229.959
G01 X253.477 Y230.106
G01 X254.449 Y230.300
G01 X254.774 Y230.376
G01 X255.732 Y230.634
G01 X256.675 Y230.939
G01 X256.984 Y231.050
G01 X257.905 Y231.416
G01 X258.808 Y231.826
G01 X259.097 Y231.969
G01 X259.971 Y232.437
G01 X260.821 Y232.948
G01 X261.088 Y233.120
G01 X261.903 Y233.684
G01 X262.689 Y234.288
G01 X262.931 Y234.486
G01 X263.676 Y235.139
G01 X264.389 Y235.828
G01 X264.603 Y236.049
G01 X265.270 Y236.782
G01 X265.900 Y237.547
G01 X266.084 Y237.787
G01 X266.664 Y238.590
G01 X267.204 Y239.422
G01 X267.358 Y239.676
G01 X267.843 Y240.540
G01 X268.286 Y241.427
G01 X268.408 Y241.692
G01 X268.793 Y242.605
G01 X269.134 Y243.536
G01 X269.223 Y243.808
G01 X269.504 Y244.759
G01 X269.738 Y245.722
G01 X269.795 Y245.997
G01 X269.968 Y246.973
G01 X270.092 Y247.957
G01 X270.118 Y248.232
G01 X269.198 Y249.259
G01 X268.228 Y250.192
G01 X267.955 Y250.430
G01 X267.930 Y251.312
G01 X267.862 Y252.192
G01 X267.836 Y252.428
G01 X267.712 Y253.303
G01 X267.546 Y254.172
G01 X267.495 Y254.400
G01 X267.275 Y255.258
G01 X267.013 Y256.106
G01 X266.938 Y256.323
G01 X266.623 Y257.153
G01 X266.268 Y257.968
G01 X266.172 Y258.172
G01 X265.766 Y258.964
G01 X265.322 Y259.736
G01 X265.206 Y259.925
G01 X264.715 Y260.669
G01 X264.187 Y261.390
G01 X264.053 Y261.561
G01 X263.482 Y262.249
G01 X262.877 Y262.908
G01 X262.728 Y263.061
G01 X262.083 Y263.683
G01 X261.408 Y264.273
G01 X261.246 Y264.406
G01 X260.536 Y264.955
G01 X259.799 Y265.469
G01 X259.626 Y265.582
G01 X258.858 Y266.051
G01 X258.068 Y266.482
G01 X257.887 Y266.573
G01 X257.071 Y266.956
G01 X256.237 Y267.300
G01 X256.051 Y267.369
G01 X255.196 Y267.662
G01 X254.327 Y267.913
G01 X254.139 Y267.961
G01 X253.256 Y268.160
G01 X252.363 Y268.315
G01 X252.174 Y268.342
G01 X251.273 Y268.444
G01 X250.366 Y268.502
G01 X250.180 Y268.509
G01 X249.241 Y269.261
G01 X248.229 Y269.963
G01 X248.017 Y270.098
G01 X247.033 Y269.977
G01 X246.056 Y269.807
G01 X245.865 Y269.768
G01 X244.900 Y269.542
G01 X243.948 Y269.268
G01 X243.766 Y269.210
G01 X242.831 Y268.881
G01 X241.913 Y268.506
G01 X241.743 Y268.431
G01 X240.849 Y268.004
G01 X239.977 Y267.533
G01 X239.819 Y267.442
G01 X238.976 Y266.922
G01 X238.159 Y266.360
G01 X238.016 Y266.256
G01 X237.233 Y265.648
G01 X236.480 Y265.003
G01 X236.352 Y264.887
G01 X235.638 Y264.199
G01 X234.959 Y263.478
G01 X234.847 Y263.352
G01 X234.210 Y262.592
G01 X233.611 Y261.802
G01 X233.516 Y261.669
G01 X232.963 Y260.846
G01 X232.452 Y259.997
G01 X232.373 Y259.858
G01 X231.911 Y258.981
G01 X231.492 Y258.083
G01 X231.430 Y257.940
G01 X231.063 Y257.019
G01 X230.741 Y256.082
G01 X230.697 Y255.937
G01 X230.428 Y254.983
G01 X230.207 Y254.017
G01 X230.179 Y253.873
G01 X230.013 Y252.896
G01 X229.895 Y251.911
G01 X229.882 Y251.769
G01 X230.340 Y250.760
G01 X230.848 Y249.800
G01 X230.923 Y249.670
G01 X230.944 Y248.733
G01 X231.012 Y247.797
G01 X231.025 Y247.671
G01 X231.145 Y246.740
G01 X231.310 Y245.815
G01 X231.335 Y245.694
G01 X231.552 Y244.778
G01 X231.814 Y243.874
G01 X231.851 Y243.760
G01 X232.162 Y242.870
G01 X232.518 Y241.996
G01 X232.564 Y241.890
G01 X232.968 Y241.036
G01 X233.413 Y240.202
G01 X233.469 Y240.105
G01 X233.960 Y239.296
G01 X234.490 Y238.511
G01 X234.553 Y238.423
G01 X235.126 Y237.668
G01 X235.737 Y236.941
G01 X235.806 Y236.862
G01 X236.456 Y236.169
G01 X237.139 Y235.508
G01 X237.214 Y235.440
G01 X237.933 Y234.816
G01 X238.682 Y234.228
G01 X238.761 Y234.170
G01 X239.542 Y233.622
G01 X240.349 Y233.114
G01 X240.430 Y233.066
G01 X241.265 Y232.601
G01 X242.122 Y232.177
G01 X242.204 Y232.139
G01 X243.084 Y231.762
G01 X243.982 Y231.428
G01 X244.064 Y231.400
G01 X244.979 Y231.114
G01 X245.908 Y230.873
G01 X245.989 Y230.854
G01 X246.931 Y230.663
G01 X247.882 Y230.519
G01 X247.961 Y230.509
G01 X248.918 Y230.415
G01 X249.881 Y230.367
G01 X249.957 Y230.366
G01 X250.933 Y230.117
G01 X251.933 Y229.917
G01 X252.009 Y229.904
G01 X252.993 Y230.027
G01 X253.970 Y230.198
G01 X254.039 Y230.212
G01 X255.005 Y230.434
G01 X255.959 Y230.703
G01 X256.023 Y230.723
G01 X256.961 Y231.042
G01 X257.883 Y231.406
G01 X257.941 Y231.431
G01 X258.843 Y231.843
G01 X259.723 Y232.299
G01 X259.775 Y232.327
G01 X260.631 Y232.828
G01 X261.460 Y233.371
G01 X261.506 Y233.402
G01 X262.307 Y233.987
G01 X263.078 Y234.610
G01 X263.117 Y234.644
G01 X263.855 Y235.306
G01 X264.559 Y236.003
G01 X264.593 Y236.038
G01 X265.260 Y236.771
G01 X265.891 Y237.536
G01 X265.918 Y237.571
G01 X266.509 Y238.367
G01 X267.060 Y239.191
G01 X267.082 Y239.226
G01 X267.590 Y240.077
G01 X268.056 Y240.952
G01 X268.072 Y240.985
G01 X268.493 Y241.883
G01 X268.869 Y242.800
G01 X268.881 Y242.832
G01 X269.210 Y243.767
G01 X269.493 Y244.717
G01 X269.501 Y244.746
G01 X269.735 Y245.709
G01 X269.922 Y246.683
G01 X269.926 Y246.709
G01 X270.064 Y247.691
G01 X270.153 Y248.678
G01 X270.154 Y248.701
G01 X270.200 Y249.691
G01 X270.197 Y250.683
G01 X270.196 Y250.703
G01 X270.155 Y251.694
G01 X270.065 Y252.683
G01 X270.063 Y252.699
G01 X269.924 Y253.684
G01 X269.736 Y254.661
G01 X269.733 Y254.673
G01 X269.497 Y255.641
G01 X269.213 Y256.596
G01 X269.210 Y256.605
G01 X268.880 Y257.546
G01 X268.503 Y258.471
G01 X268.500 Y258.476
G01 X268.078 Y259.382
G01 X267.611 Y260.266
G01 X267.610 Y260.268
G01 X267.099 Y261.129
G01 X266.547 Y261.964
G01 X265.954 Y262.773
G01 X265.324 Y263.548
G01 X264.654 Y264.296
G01 X263.952 Y265.005
G01 X263.211 Y265.685
G01 X262.445 Y266.321
G01 X261.639 Y266.926
G01 X260.816 Y267.484
G01 X259.954 Y268.009
G01 X259.082 Y268.483
G01 X258.171 Y268.922
G01 X257.259 Y269.309
G01 X256.308 Y269.659
G01 X255.365 Y269.955
G01 X254.383 Y270.211
G01 X253.417 Y270.414
G01 X252.414 Y270.574
G01 X251.434 Y270.683
G01 X250.412 Y270.455
G01 X249.450 Y270.189
G01 X248.460 Y270.137
G01 X247.511 Y270.042
G01 X246.531 Y269.896
G01 X245.599 Y269.711
G01 X244.637 Y269.471
G01 X243.730 Y269.198
G01 X242.795 Y268.867
G01 X241.922 Y268.510
G01 X241.023 Y268.091
G01 X240.190 Y267.654
G01 X239.336 Y267.151
G01 X238.551 Y266.637
G01 X237.749 Y266.056
G01 X237.019 Y265.472
G01 X236.276 Y264.816
G01 X235.607 Y264.168
G01 X234.929 Y263.444
G01 X234.327 Y262.738
G01 X233.721 Y261.953
G01 X233.191 Y261.195
G01 X232.662 Y260.357
G01 X232.207 Y259.555
G01 X231.760 Y258.670
G01 X231.384 Y257.831
G01 X231.022 Y256.908
G01 X230.729 Y256.041
G01 X230.455 Y255.088
G01 X230.245 Y254.199
G01 X230.063 Y253.225
G01 X229.938 Y252.324
G01 X229.848 Y251.336
G01 X229.809 Y250.430
G01 X229.212 Y249.422
G01 X228.712 Y248.453
G01 X228.797 Y247.408
G01 X228.917 Y246.462
G01 X229.099 Y245.428
G01 X229.308 Y244.500
G01 X229.586 Y243.486
G01 X229.880 Y242.582
G01 X230.252 Y241.597
G01 X230.628 Y240.726
G01 X231.091 Y239.778
G01 X231.546 Y238.948
G01 X232.096 Y238.046
G01 X232.625 Y237.263
G01 X233.257 Y236.415
G01 X233.855 Y235.685
G01 X234.565 Y234.898
G01 X235.227 Y234.228
G01 X236.007 Y233.509
G01 X236.728 Y232.904
G01 X237.572 Y232.259
G01 X238.344 Y231.724
G01 X239.246 Y231.159
G01 X240.062 Y230.699
G01 X241.014 Y230.219
G01 X241.868 Y229.836
G01 X242.861 Y229.445
G01 X243.745 Y229.143
G01 X244.772 Y228.844
G01 X245.678 Y228.625
G01 X246.729 Y228.421
G01 X247.650 Y228.286
G01 X248.717 Y228.180
G01 X249.645 Y228.130
G01 X250.689 Y229.039
G01 X251.517 Y229.861
G01 X252.504 Y229.960
G01 X253.347 Y230.083
G01 X254.320 Y230.272
G01 X255.147 Y230.471
G01 X256.099 Y230.747
G01 X256.900 Y231.019
G01 X257.824 Y231.381
G01 X258.595 Y231.724
G01 X259.481 Y232.168
G01 X260.216 Y232.578
G01 X261.058 Y233.101
G01 X261.751 Y233.574
G01 X262.542 Y234.171
G01 X263.187 Y234.704
G01 X263.922 Y235.369
G01 X264.514 Y235.956
G01 X265.185 Y236.685
G01 X265.720 Y237.321
G01 X266.323 Y238.108
G01 X266.797 Y238.787
G01 X267.327 Y239.624
G01 X267.737 Y240.341
G01 X268.189 Y241.223
G01 X268.532 Y241.972
G01 X268.903 Y242.891
G01 X269.176 Y243.664
G01 X269.464 Y244.613
G01 X269.666 Y245.405
G01 X269.868 Y246.376
G01 X269.998 Y247.180
G01 X270.112 Y248.165
G01 X270.170 Y248.976
G01 X271.438 Y249.964
G01 X272.437 Y250.863
G01 X272.385 Y251.965
G01 X272.303 Y252.860
G01 X272.153 Y253.954
G01 X271.992 Y254.836
G01 X271.745 Y255.914
G01 X271.506 Y256.778
G01 X271.164 Y257.831
G01 X270.851 Y258.668
G01 X270.416 Y259.688
G01 X270.030 Y260.493
G01 X269.506 Y261.472
G01 X269.052 Y262.239
G01 X268.442 Y263.169
G01 X267.923 Y263.891
G01 X267.233 Y264.765
G01 X266.653 Y265.437
G01 X265.887 Y266.248
G01 X265.251 Y266.865
G01 X264.416 Y267.607
G01 X263.730 Y268.165
G01 X262.832 Y268.831
G01 X262.100 Y269.326
G01 X261.146 Y269.912
G01 X260.375 Y270.339
G01 X259.371 Y270.840
G01 X258.567 Y271.198
G01 X257.523 Y271.609
G01 X256.692 Y271.895
G01 X255.614 Y272.214
G01 X254.763 Y272.426
G01 X253.659 Y272.650
G01 X252.794 Y272.787
G01 X251.674 Y272.914
G01 X250.802 Y272.974
G01 X249.696 Y271.411
G01 X248.948 Y270.169
G01 X247.960 Y270.093
G01 X247.202 Y270.001
G01 X246.224 Y269.840
G01 X245.479 Y269.684
G01 X244.519 Y269.438
G01 X243.793 Y269.219
G01 X242.857 Y268.891
G01 X242.155 Y268.610
G01 X241.252 Y268.203
G01 X240.578 Y267.864
G01 X239.713 Y267.380
G01 X239.074 Y266.985
G01 X238.253 Y266.428
G01 X237.652 Y265.981
G01 X236.883 Y265.356
G01 X236.324 Y264.861
G01 X235.611 Y264.172
G01 X235.098 Y263.632
G01 X234.448 Y262.884
G01 X233.985 Y262.304
G01 X233.400 Y261.503
G01 X232.990 Y260.887
G01 X232.476 Y260.040
G01 X232.121 Y259.393
G01 X231.682 Y258.504
G01 X231.384 Y257.831
G01 X231.022 Y256.909
G01 X230.784 Y256.215
G01 X230.502 Y255.265
G01 X230.325 Y254.556
G01 X230.125 Y253.585
G01 X230.008 Y252.865
G01 X229.892 Y251.881
G01 X229.837 Y251.156
G01 X227.854 Y250.182
G01 X226.437 Y249.348
G01 X226.480 Y248.191
G01 X226.547 Y247.350
G01 X226.688 Y246.200
G01 X226.826 Y245.369
G01 X227.064 Y244.233
G01 X227.271 Y243.418
G01 X227.605 Y242.305
G01 X227.880 Y241.512
G01 X228.307 Y240.430
G01 X228.647 Y239.664
G01 X229.165 Y238.620
G01 X229.568 Y237.887
G01 X230.172 Y236.890
G01 X230.634 Y236.194
G01 X231.321 Y235.250
G01 X231.839 Y234.597
G01 X232.604 Y233.712
G01 X233.174 Y233.107
G01 X234.012 Y232.288
G01 X234.629 Y231.733
G01 X235.534 Y230.987
G01 X236.195 Y230.487
G01 X237.159 Y229.818
G01 X237.858 Y229.375
G01 X238.877 Y228.789
G01 X239.609 Y228.407
G01 X240.675 Y227.907
G01 X241.435 Y227.588
G01 X242.540 Y227.178
G01 X243.323 Y226.924
G01 X244.459 Y226.608
G01 X245.259 Y226.420
G01 X246.419 Y226.198
G01 X247.230 Y226.078
G01 X248.406 Y225.953
G01 X249.224 Y225.901
G01 X250.435 Y224.225
G01 X251.366 Y223.107
G01 X252.684 Y223.206
G01 X253.586 Y223.312
G01 X254.892 Y223.520
G01 X255.780 Y223.700
G01 X257.064 Y224.015
G01 X257.931 Y224.267
G01 X259.185 Y224.687
G01 X260.026 Y225.008
G01 X261.240 Y225.530
G01 X262.050 Y225.919
G01 X263.217 Y226.539
G01 X263.990 Y226.991
G01 X265.102 Y227.706
G01 X265.833 Y228.218
G01 X266.883 Y229.022
G01 X267.567 Y229.591
G01 X268.547 Y230.478
G01 X269.180 Y231.099
G01 X270.085 Y232.063
G01 X270.663 Y232.733
G01 X271.485 Y233.767
G01 X272.006 Y234.480
G01 X272.741 Y235.578
G01 X273.199 Y236.329
G01 X273.842 Y237.484
G01 X274.237 Y238.266
G01 X274.784 Y239.470
G01 X275.112 Y240.280
G01 X275.559 Y241.524
G01 X275.820 Y242.356
G01 X276.164 Y243.632
G01 X276.356 Y244.479
G01 X276.595 Y245.779
G01 X276.717 Y246.637
G01 X276.850 Y247.952
G01 X276.902 Y248.814
G01 X275.577 Y250.129
G01 X274.680 Y250.914
G01 X274.623 Y252.126
G01 X274.554 Y252.911
G01 X274.399 Y254.115
G01 X274.267 Y254.891
G01 X274.015 Y256.080
G01 X273.821 Y256.842
G01 X273.473 Y258.008
G01 X273.219 Y258.750
G01 X272.778 Y259.886
G01 X272.465 Y260.603
G01 X271.933 Y261.701
G01 X271.564 Y262.390
G01 X270.945 Y263.443
G01 X270.523 Y264.098
G01 X269.820 Y265.099
G01 X269.348 Y265.718
G01 X268.566 Y266.660
G01 X268.047 Y267.238
G01 X267.191 Y268.115
G01 X266.628 Y268.648
G01 X265.704 Y269.455
G01 X265.101 Y269.941
G01 X264.114 Y270.672
G01 X263.475 Y271.107
G01 X262.432 Y271.758
G01 X261.762 Y272.140
G01 X260.668 Y272.707
G01 X259.971 Y273.033
G01 X258.835 Y273.511
G01 X258.115 Y273.781
G01 X256.944 Y274.167
G01 X256.206 Y274.379
G01 X255.006 Y274.671
G01 X254.255 Y274.822
G01 X253.034 Y275.019
G01 X252.275 Y275.110
G01 X251.041 Y275.209
G01 X250.278 Y275.239
G01 X249.000 Y276.267
G01 X248.164 Y276.865
G01 X246.848 Y276.743
G01 X246.046 Y276.636
G01 X244.744 Y276.410
G01 X243.955 Y276.241
G01 X242.675 Y275.912
G01 X241.904 Y275.682
G01 X240.653 Y275.254
G01 X239.905 Y274.964
G01 X238.692 Y274.439
G01 X237.971 Y274.092
G01 X236.804 Y273.473
G01 X236.114 Y273.072
G01 X234.999 Y272.363
G01 X234.345 Y271.910
G01 X233.289 Y271.115
G01 X232.675 Y270.614
G01 X231.684 Y269.739
G01 X231.112 Y269.193
G01 X230.193 Y268.243
G01 X229.668 Y267.656
G01 X228.826 Y266.637
G01 X228.350 Y266.012
G01 X227.590 Y264.930
G01 X227.165 Y264.272
G01 X226.492 Y263.134
G01 X226.121 Y262.446
G01 X225.539 Y261.260
G01 X225.224 Y260.547
G01 X224.736 Y259.319
G01 X224.478 Y258.586
G01 X224.087 Y257.324
G01 X223.887 Y256.575
G01 X223.596 Y255.286
G01 X223.455 Y254.527
G01 X223.265 Y253.219
G01 X223.184 Y252.453
G01 X223.096 Y251.135
G01 X223.075 Y250.367
G01 X223.785 Y249.070
G01 X224.224 Y248.351
G01 X224.318 Y247.086
G01 X224.401 Y246.358
G01 X224.594 Y245.103
G01 X224.732 Y244.385
G01 X225.021 Y243.148
G01 X225.215 Y242.443
G01 X225.599 Y241.230
G01 X225.845 Y240.545
G01 X226.323 Y239.364
G01 X226.621 Y238.700
G01 X227.188 Y237.558
G01 X227.536 Y236.921
G01 X228.190 Y235.825
G01 X228.585 Y235.217
G01 X229.322 Y234.174
G01 X229.762 Y233.599
G01 X230.578 Y232.614
G01 X231.060 Y232.077
G01 X231.950 Y231.156
G01 X232.470 Y230.658
G01 X233.429 Y229.807
G01 X233.985 Y229.351
G01 X235.008 Y228.576
G01 X235.596 Y228.164
G01 X236.676 Y227.469
G01 X237.293 Y227.104
G01 X238.424 Y226.492
G01 X239.065 Y226.176
G01 X240.241 Y225.652
G01 X240.903 Y225.387
G01 X242.117 Y224.953
G01 X242.797 Y224.739
G01 X244.041 Y224.399
G01 X244.734 Y224.238
G01 X246.001 Y223.993
G01 X246.703 Y223.885
G01 X247.987 Y223.737
G01 X248.693 Y223.683
G01 X249.986 Y223.276
G01 X250.708 Y223.081
G01 X252.028 Y223.148
G01 X252.745 Y223.212
G01 X254.056 Y223.379
G01 X254.764 Y223.497
G01 X256.059 Y223.763
G01 X256.754 Y223.933
G01 X258.025 Y224.296
G01 X258.704 Y224.517
G01 X259.944 Y224.975
G01 X260.601 Y225.247
G01 X261.803 Y225.797
G01 X262.437 Y226.116
G01 X263.594 Y226.755
G01 X264.200 Y227.120
G01 X265.305 Y227.845
G01 X265.880 Y228.253
G01 X266.928 Y229.058
G01 X267.470 Y229.508
G01 X268.454 Y230.390
G01 X268.959 Y230.877
G01 X269.874 Y231.830
G01 X270.339 Y232.352
G01 X271.181 Y233.372
G01 X271.604 Y233.926
G01 X272.367 Y235.005
G01 X272.746 Y235.587
G01 X273.426 Y236.721
G01 X273.760 Y237.328
G01 X274.353 Y238.509
G01 X274.640 Y239.138
G01 X275.144 Y240.361
G01 X275.382 Y241.007
G01 X275.793 Y242.263
G01 X275.982 Y242.924
G01 X276.298 Y244.208
G01 X276.436 Y244.878
G01 X276.656 Y246.182
G01 X276.744 Y246.859
G01 X276.866 Y248.175
G01 X276.904 Y248.856
G01 X276.935 Y250.177
G01 X276.926 Y250.857
G01 X276.869 Y252.178
G01 X276.814 Y252.854
G01 X276.659 Y254.169
G01 X276.555 Y254.838
G01 X276.303 Y256.139
G01 X276.150 Y256.797
G01 X275.801 Y258.078
G01 X275.601 Y258.721
G01 X275.158 Y259.973
G01 X274.910 Y260.599
G01 X274.376 Y261.816
G01 X274.084 Y262.421
G01 X273.460 Y263.596
G01 X273.125 Y264.177
G01 X272.416 Y265.304
G01 X272.039 Y265.857
G01 X271.248 Y266.930
G01 X270.832 Y267.453
G01 X269.964 Y268.466
G01 X269.511 Y268.956
G01 X268.570 Y269.903
G01 X268.084 Y270.357
G01 X267.074 Y271.234
G01 X266.557 Y271.650
G01 X265.485 Y272.451
G01 X264.940 Y272.828
G01 X263.810 Y273.549
G01 X263.240 Y273.884
G01 X262.060 Y274.520
G01 X261.468 Y274.812
G01 X260.243 Y275.361
G01 X259.633 Y275.609
G01 X258.370 Y276.067
G01 X257.744 Y276.269
G01 X256.450 Y276.634
G01 X255.812 Y276.789
G01 X254.494 Y277.060
G01 X253.848 Y277.168
G01 X252.512 Y277.341
G01 X251.861 Y277.402
G01 X250.507 Y277.098
G01 X249.865 Y276.928
G01 X248.544 Y276.889
G01 X247.908 Y276.847
G01 X246.593 Y276.712
G01 X245.964 Y276.624
G01 X244.662 Y276.394
G01 X244.043 Y276.261
G01 X242.761 Y275.937
G01 X242.155 Y275.760
G01 X240.900 Y275.344
G01 X240.310 Y275.124
G01 X239.089 Y274.618
G01 X238.518 Y274.357
G01 X237.337 Y273.765
G01 X236.787 Y273.464
G01 X235.652 Y272.787
G01 X235.128 Y272.448
G01 X234.044 Y271.692
G01 X233.547 Y271.317
G01 X232.521 Y270.484
G01 X232.053 Y270.075
G01 X231.090 Y269.171
G01 X230.654 Y268.731
G01 X229.758 Y267.759
G01 X229.357 Y267.291
G01 X228.533 Y266.257
G01 X228.167 Y265.762
G01 X227.420 Y264.672
G01 X227.092 Y264.154
G01 X226.425 Y263.012
G01 X226.135 Y262.473
G01 X225.552 Y261.287
G01 X225.302 Y260.731
G01 X224.806 Y259.506
G01 X224.597 Y258.934
G01 X224.190 Y257.677
G01 X224.023 Y257.094
G01 X223.706 Y255.811
G01 X223.583 Y255.219
G01 X223.358 Y253.917
G01 X223.277 Y253.319
G01 X223.147 Y252.004
G01 X223.109 Y251.404
G01 X222.296 Y250.085
G01 X221.948 Y249.462
G01 X221.991 Y248.085
G01 X222.033 Y247.463
G01 X222.173 Y246.091
G01 X222.259 Y245.475
G01 X222.497 Y244.116
G01 X222.626 Y243.508
G01 X222.961 Y242.168
G01 X223.132 Y241.573
G01 X223.562 Y240.259
G01 X223.774 Y239.678
G01 X224.296 Y238.396
G01 X224.549 Y237.834
G01 X225.162 Y236.591
G01 X225.453 Y236.049
G01 X226.153 Y234.852
G01 X226.481 Y234.332
G01 X227.264 Y233.187
G01 X227.628 Y232.693
G01 X228.491 Y231.605
G01 X228.888 Y231.139
G01 X229.826 Y230.113
G01 X230.254 Y229.677
G01 X231.264 Y228.720
G01 X231.720 Y228.316
G01 X232.796 Y227.431
G01 X233.279 Y227.062
G01 X234.415 Y226.254
G01 X234.922 Y225.920
G01 X236.113 Y225.194
G01 X236.641 Y224.897
G01 X237.881 Y224.256
G01 X238.428 Y223.997
G01 X239.711 Y223.444
G01 X240.274 Y223.225
G01 X241.594 Y222.764
G01 X242.169 Y222.585
G01 X243.520 Y222.217
G01 X244.105 Y222.079
G01 X245.479 Y221.806
G01 X246.071 Y221.710
G01 X247.462 Y221.534
G01 X248.058 Y221.479
G01 X249.482 Y222.582
G01 X250.053 Y223.072
G01 X251.374 Y223.107
G01 X251.934 Y223.142
G01 X253.249 Y223.269
G01 X253.803 Y223.342
G01 X255.107 Y223.561
G01 X255.653 Y223.672
G01 X256.938 Y223.981
G01 X257.473 Y224.130
G01 X258.733 Y224.528
G01 X259.255 Y224.713
G01 X260.485 Y225.197
G01 X260.992 Y225.417
G01 X262.185 Y225.986
G01 X262.673 Y226.241
G01 X263.824 Y226.891
G01 X264.292 Y227.178
G01 X265.395 Y227.907
G01 X265.841 Y228.224
G01 X266.890 Y229.028
G01 X267.312 Y229.374
G01 X268.303 Y230.249
G01 X268.698 Y230.622
G01 X269.627 Y231.563
G01 X269.994 Y231.962
G01 X270.855 Y232.965
G01 X271.193 Y233.388
G01 X271.983 Y234.448
G01 X272.290 Y234.891
G01 X273.004 Y236.003
G01 X273.279 Y236.465
G01 X273.915 Y237.624
G01 X274.157 Y238.103
G01 X274.712 Y239.302
G01 X274.919 Y239.795
G01 X275.390 Y241.030
G01 X275.563 Y241.535
G01 X275.947 Y242.799
G01 X276.084 Y243.313
G01 X276.381 Y244.600
G01 X276.482 Y245.121
G01 X276.690 Y246.426
G01 X276.755 Y246.950
G01 X276.872 Y248.267
G01 X276.901 Y248.793
G01 X278.540 Y250.121
G01 X279.172 Y250.693
G01 X279.121 Y252.125
G01 X279.081 Y252.692
G01 X278.931 Y254.118
G01 X278.852 Y254.679
G01 X278.605 Y256.093
G01 X278.489 Y256.647
G01 X278.145 Y258.041
G01 X277.991 Y258.585
G01 X277.553 Y259.954
G01 X277.363 Y260.484
G01 X276.832 Y261.821
G01 X276.606 Y262.336
G01 X275.984 Y263.635
G01 X275.725 Y264.132
G01 X275.016 Y265.387
G01 X274.724 Y265.864
G01 X273.930 Y267.068
G01 X273.607 Y267.524
G01 X272.732 Y268.672
G01 X272.379 Y269.104
G01 X271.428 Y270.191
G01 X271.048 Y270.596
G01 X270.024 Y271.617
G01 X269.617 Y271.995
G01 X268.526 Y272.945
G01 X268.096 Y273.294
G01 X266.941 Y274.168
G01 X266.490 Y274.487
G01 X265.277 Y275.281
G01 X264.806 Y275.568
G01 X263.542 Y276.279
G01 X263.054 Y276.533
G01 X261.743 Y277.157
G01 X261.240 Y277.376
G01 X259.889 Y277.911
G01 X259.373 Y278.096
G01 X257.988 Y278.539
G01 X257.462 Y278.687
G01 X256.049 Y279.036
G01 X255.515 Y279.149
G01 X254.081 Y279.402
G01 X253.542 Y279.478
G01 X252.093 Y279.634
G01 X251.551 Y279.674
G01 X250.087 Y277.682
G01 X249.594 Y276.925
G01 X248.273 Y276.873
G01 X247.785 Y276.837
G01 X246.471 Y276.696
G01 X245.988 Y276.627
G01 X244.687 Y276.399
G01 X244.211 Y276.298
G01 X242.927 Y275.983
G01 X242.461 Y275.851
G01 X241.201 Y275.450
G01 X240.746 Y275.288
G01 X239.516 Y274.803
G01 X239.074 Y274.612
G01 X237.879 Y274.046
G01 X237.452 Y273.826
G01 X236.298 Y273.181
G01 X235.888 Y272.934
G01 X234.780 Y272.214
G01 X234.388 Y271.941
G01 X233.330 Y271.148
G01 X232.959 Y270.850
G01 X231.956 Y269.989
G01 X231.607 Y269.667
G01 X230.664 Y268.741
G01 X230.338 Y268.398
G01 X229.458 Y267.412
G01 X229.156 Y267.049
G01 X228.345 Y266.006
G01 X228.069 Y265.625
G01 X227.328 Y264.530
G01 X227.079 Y264.133
G01 X226.413 Y262.991
G01 X226.191 Y262.580
G01 X225.602 Y261.396
G01 X225.409 Y260.972
G01 X224.900 Y259.752
G01 X224.735 Y259.318
G01 X224.309 Y258.067
G01 X224.174 Y257.623
G01 X223.831 Y256.347
G01 X223.726 Y255.897
G01 X223.468 Y254.601
G01 X223.393 Y254.146
G01 X223.222 Y252.836
G01 X223.177 Y252.379
G01 X223.093 Y251.060
G01 X223.079 Y250.602
G01 X220.569 Y249.213
G01 X219.719 Y248.677
G01 X219.803 Y247.191
G01 X219.849 Y246.680
G01 X220.031 Y245.202
G01 X220.110 Y244.697
G01 X220.389 Y243.233
G01 X220.501 Y242.735
G01 X220.876 Y241.291
G01 X221.021 Y240.803
G01 X221.490 Y239.386
G01 X221.666 Y238.909
G01 X222.228 Y237.525
G01 X222.434 Y237.062
G01 X223.087 Y235.717
G01 X223.323 Y235.270
G01 X224.062 Y233.969
G01 X224.326 Y233.539
G01 X225.150 Y232.289
G01 X225.441 Y231.878
G01 X226.346 Y230.684
G01 X226.663 Y230.294
G01 X227.645 Y229.161
G01 X227.985 Y228.793
G01 X229.040 Y227.726
G01 X229.403 Y227.382
G01 X230.527 Y226.385
G01 X230.910 Y226.066
G01 X232.097 Y225.144
G01 X232.500 Y224.852
G01 X233.746 Y224.009
G01 X234.166 Y223.744
G01 X235.465 Y222.983
G01 X235.900 Y222.747
G01 X237.247 Y222.072
G01 X237.696 Y221.865
G01 X239.085 Y221.279
G01 X239.545 Y221.102
G01 X240.971 Y220.607
G01 X241.440 Y220.461
G01 X242.896 Y220.059
G01 X243.373 Y219.944
G01 X244.853 Y219.638
G01 X245.335 Y219.555
G01 X246.833 Y219.345
G01 X247.319 Y219.293
G01 X248.828 Y219.181
G01 X249.315 Y219.161
G01 X250.886 Y217.035
G01 X251.434 Y216.371
G01 X253.083 Y216.481
G01 X253.608 Y216.534
G01 X255.246 Y216.751
G01 X255.766 Y216.838
G01 X257.386 Y217.160
G01 X257.897 Y217.280
G01 X259.493 Y217.707
G01 X259.995 Y217.858
G01 X261.560 Y218.387
G01 X262.048 Y218.570
G01 X263.576 Y219.199
G01 X264.051 Y219.413
G01 X265.535 Y220.139
G01 X265.993 Y220.382
G01 X267.427 Y221.202
G01 X267.867 Y221.474
G01 X269.245 Y222.385
G01 X269.666 Y222.683
G01 X270.983 Y223.680
G01 X271.382 Y224.004
G01 X272.632 Y225.084
G01 X273.009 Y225.432
G01 X274.186 Y226.590
G01 X274.539 Y226.960
G01 X275.640 Y228.192
G01 X275.967 Y228.582
G01 X276.986 Y229.882
G01 X277.286 Y230.291
G01 X278.221 Y231.654
G01 X278.493 Y232.080
G01 X279.338 Y233.500
G01 X279.582 Y233.941
G01 X280.334 Y235.412
G01 X280.549 Y235.867
G01 X281.206 Y237.383
G01 X281.390 Y237.849
G01 X281.949 Y239.404
G01 X282.102 Y239.879
G01 X282.560 Y241.466
G01 X282.683 Y241.949
G01 X283.039 Y243.562
G01 X283.130 Y244.050
G01 X283.382 Y245.683
G01 X283.442 Y246.174
G01 X283.589 Y247.820
G01 X283.618 Y248.312
G01 X281.934 Y249.966
G01 X281.418 Y250.425
G01 X281.377 Y251.967
G01 X281.350 Y252.425
G01 X281.211 Y253.962
G01 X281.155 Y254.416
G01 X280.918 Y255.942
G01 X280.834 Y256.390
G01 X280.500 Y257.900
G01 X280.388 Y258.340
G01 X279.959 Y259.827
G01 X279.819 Y260.258
G01 X279.296 Y261.716
G01 X279.130 Y262.136
G01 X278.515 Y263.559
G01 X278.323 Y263.967
G01 X277.619 Y265.348
G01 X277.402 Y265.743
G01 X276.611 Y267.078
G01 X276.370 Y267.457
G01 X275.496 Y268.740
G01 X275.232 Y269.102
G01 X274.278 Y270.328
G01 X273.993 Y270.672
G01 X272.962 Y271.837
G01 X272.657 Y272.161
G01 X271.554 Y273.259
G01 X271.229 Y273.562
G01 X270.058 Y274.589
G01 X269.716 Y274.871
G01 X268.482 Y275.822
G01 X268.123 Y276.082
G01 X266.831 Y276.954
G01 X266.458 Y277.190
G01 X265.112 Y277.980
G01 X264.726 Y278.191
G01 X263.332 Y278.895
G01 X262.934 Y279.081
G01 X261.498 Y279.697
G01 X261.090 Y279.857
G01 X259.617 Y280.382
G01 X259.201 Y280.515
G01 X257.697 Y280.947
G01 X257.275 Y281.054
G01 X255.745 Y281.391
G01 X255.318 Y281.471
G01 X253.769 Y281.711
G01 X253.339 Y281.764
G01 X251.778 Y281.908
G01 X251.346 Y281.934
G01 X249.768 Y283.293
G01 X249.311 Y283.653
G01 X247.661 Y283.579
G01 X247.210 Y283.544
G01 X245.567 Y283.367
G01 X245.121 Y283.304
G01 X243.492 Y283.025
G01 X243.052 Y282.935
G01 X241.444 Y282.554
G01 X241.011 Y282.438
G01 X239.431 Y281.958
G01 X239.008 Y281.814
G01 X237.460 Y281.237
G01 X237.048 Y281.068
G01 X235.539 Y280.395
G01 X235.139 Y280.202
G01 X233.675 Y279.436
G01 X233.290 Y279.219
G01 X231.876 Y278.364
G01 X231.506 Y278.124
G01 X230.149 Y277.183
G01 X229.795 Y276.922
G01 X228.499 Y275.898
G01 X228.164 Y275.616
G01 X226.933 Y274.514
G01 X226.617 Y274.212
G01 X225.457 Y273.036
G01 X225.162 Y272.717
G01 X224.077 Y271.471
G01 X223.802 Y271.135
G01 X222.797 Y269.824
G01 X222.545 Y269.473
G01 X221.622 Y268.102
G01 X221.393 Y267.738
G01 X220.557 Y266.313
G01 X220.351 Y265.936
G01 X219.605 Y264.462
G01 X219.424 Y264.074
G01 X218.770 Y262.557
G01 X218.613 Y262.160
G01 X218.054 Y260.606
G01 X217.923 Y260.201
G01 X217.461 Y258.615
G01 X217.355 Y258.205
G01 X216.992 Y256.593
G01 X216.912 Y256.179
G01 X216.649 Y254.548
G01 X216.594 Y254.130
G01 X216.432 Y252.486
G01 X216.404 Y252.068
G01 X217.238 Y250.406
G01 X217.462 Y249.999
G01 X217.484 Y248.401
G01 X217.502 Y247.999
G01 X217.622 Y246.404
G01 X217.664 Y246.005
G01 X217.882 Y244.420
G01 X217.949 Y244.025
G01 X218.263 Y242.455
G01 X218.354 Y242.066
G01 X218.765 Y240.517
G01 X218.879 Y240.135
G01 X219.384 Y238.614
G01 X219.520 Y238.240
G01 X220.118 Y236.752
G01 X220.277 Y236.389
G01 X220.965 Y234.938
G01 X221.146 Y234.586
G01 X221.922 Y233.180
G01 X222.123 Y232.841
G01 X222.984 Y231.484
G01 X223.205 Y231.158
G01 X224.148 Y229.855
G01 X224.387 Y229.545
G01 X225.409 Y228.301
G01 X225.666 Y228.006
G01 X226.762 Y226.826
G01 X227.036 Y226.549
G01 X228.203 Y225.437
G01 X228.493 Y225.177
G01 X229.726 Y224.138
G01 X230.030 Y223.897
G01 X231.325 Y222.934
G01 X231.642 Y222.713
G01 X232.994 Y221.830
G01 X233.324 Y221.629
G01 X234.728 Y220.829
G01 X235.068 Y220.649
G01 X236.519 Y219.936
G01 X236.868 Y219.777
G01 X238.361 Y219.153
G01 X238.718 Y219.016
G01 X240.247 Y218.483
G01 X240.611 Y218.368
G01 X242.170 Y217.929
G01 X242.539 Y217.836
G01 X244.123 Y217.492
G01 X244.497 Y217.422
G01 X246.100 Y217.174
G01 X246.475 Y217.128
G01 X248.091 Y216.977
G01 X248.468 Y216.953
G01 X250.093 Y216.449
G01 X250.475 Y216.343
G01 X252.126 Y216.407
G01 X252.507 Y216.433
G01 X254.151 Y216.597
G01 X254.528 Y216.646
G01 X256.159 Y216.908
G01 X256.531 Y216.980
G01 X258.143 Y217.340
G01 X258.509 Y217.433
G01 X260.096 Y217.890
G01 X260.455 Y218.005
G01 X262.012 Y218.556
G01 X262.361 Y218.692
G01 X263.882 Y219.336
G01 X264.222 Y219.492
G01 X265.702 Y220.227
G01 X266.030 Y220.402
G01 X267.463 Y221.224
G01 X267.779 Y221.418
G01 X269.160 Y222.325
G01 X269.462 Y222.537
G01 X270.786 Y223.525
G01 X271.075 Y223.754
G01 X272.337 Y224.820
G01 X272.611 Y225.065
G01 X273.807 Y226.204
G01 X274.064 Y226.464
G01 X275.190 Y227.674
G01 X275.430 Y227.948
G01 X276.481 Y229.222
G01 X276.704 Y229.509
G01 X277.677 Y230.844
G01 X277.881 Y231.142
G01 X278.773 Y232.533
G01 X278.958 Y232.842
G01 X279.765 Y234.283
G01 X279.931 Y234.602
G01 X280.651 Y236.089
G01 X280.797 Y236.415
G01 X281.426 Y237.943
G01 X281.552 Y238.276
G01 X282.090 Y239.839
G01 X282.195 Y240.178
G01 X282.638 Y241.770
G01 X282.723 Y242.114
G01 X283.071 Y243.729
G01 X283.135 Y244.076
G01 X283.385 Y245.709
G01 X283.428 Y246.058
G01 X283.582 Y247.703
G01 X283.604 Y248.052
G01 X283.659 Y249.703
G01 X283.660 Y250.052
G01 X283.635 Y251.705
G01 X283.619 Y252.052
G01 X283.495 Y253.702
G01 X283.459 Y254.047
G01 X283.237 Y255.686
G01 X283.181 Y256.028
G01 X282.862 Y257.652
G01 X282.786 Y257.989
G01 X282.371 Y259.593
G01 X282.276 Y259.923
G01 X281.766 Y261.500
G01 X281.651 Y261.823
G01 X281.049 Y263.369
G01 X280.916 Y263.684
G01 X280.223 Y265.192
G01 X280.071 Y265.497
G01 X279.290 Y266.963
G01 X279.122 Y267.258
G01 X278.254 Y268.675
G01 X278.069 Y268.959
G01 X277.119 Y270.324
G01 X276.918 Y270.595
G01 X275.889 Y271.902
G01 X275.673 Y272.160
G01 X274.567 Y273.405
G01 X274.337 Y273.650
G01 X273.159 Y274.828
G01 X272.916 Y275.058
G01 X271.670 Y276.166
G01 X271.415 Y276.380
G01 X270.105 Y277.413
G01 X269.838 Y277.611
G01 X268.469 Y278.566
G01 X268.192 Y278.747
G01 X266.768 Y279.620
G01 X266.481 Y279.785
G01 X265.008 Y280.573
G01 X264.713 Y280.720
G01 X263.195 Y281.421
G01 X262.893 Y281.550
G01 X261.335 Y282.161
G01 X261.027 Y282.271
G01 X259.435 Y282.790
G01 X259.122 Y282.882
G01 X257.502 Y283.307
G01 X257.185 Y283.381
G01 X255.541 Y283.710
G01 X255.222 Y283.765
G01 X253.561 Y283.998
G01 X253.239 Y284.033
G01 X251.566 Y284.169
G01 X251.245 Y284.185
G01 X249.572 Y283.745
G01 X249.257 Y283.652
G01 X247.607 Y283.575
G01 X247.293 Y283.551
G01 X245.650 Y283.378
G01 X245.340 Y283.336
G01 X243.710 Y283.067
G01 X243.403 Y283.007
G01 X241.792 Y282.644
G01 X241.490 Y282.567
G01 X239.903 Y282.110
G01 X239.608 Y282.016
G01 X238.049 Y281.467
G01 X237.761 Y281.356
G01 X236.238 Y280.718
G01 X235.958 Y280.591
G01 X234.474 Y279.865
G01 X234.203 Y279.723
G01 X232.763 Y278.912
G01 X232.502 Y278.754
G01 X231.112 Y277.861
G01 X230.862 Y277.690
G01 X229.526 Y276.717
G01 X229.287 Y276.532
G01 X228.010 Y275.484
G01 X227.782 Y275.286
G01 X226.568 Y274.165
G01 X226.354 Y273.955
G01 X225.207 Y272.766
G01 X225.005 Y272.545
G01 X223.929 Y271.291
G01 X223.742 Y271.060
G01 X222.740 Y269.746
G01 X222.567 Y269.505
G01 X221.643 Y268.135
G01 X221.485 Y267.886
G01 X220.642 Y266.465
G01 X220.499 Y266.208
G01 X219.739 Y264.741
G01 X219.612 Y264.476
G01 X218.938 Y262.968
G01 X218.827 Y262.698
G01 X218.241 Y261.153
G01 X218.146 Y260.878
G01 X217.651 Y259.302
G01 X217.572 Y259.023
G01 X217.168 Y257.421
G01 X217.106 Y257.139
G01 X216.795 Y255.517
G01 X216.749 Y255.233
G01 X216.533 Y253.595
G01 X216.503 Y253.310
G01 X216.381 Y251.663
G01 X216.368 Y251.378
G01 X215.379 Y249.718
G01 X215.217 Y249.423
G01 X215.270 Y247.716
G01 X215.287 Y247.424
G01 X215.438 Y245.722
G01 X215.472 Y245.432
G01 X215.720 Y243.740
G01 X215.771 Y243.454
G01 X216.116 Y241.778
G01 X216.183 Y241.497
G01 X216.624 Y239.843
G01 X216.706 Y239.566
G01 X217.242 Y237.939
G01 X217.340 Y237.669
G01 X217.968 Y236.074
G01 X218.081 Y235.810
G01 X218.800 Y234.253
G01 X218.927 Y233.998
G01 X219.734 Y232.483
G01 X219.875 Y232.236
G01 X220.768 Y230.770
G01 X220.923 Y230.532
G01 X221.899 Y229.118
G01 X222.066 Y228.891
G01 X223.122 Y227.534
G01 X223.301 Y227.317
G01 X224.433 Y226.023
G01 X224.624 Y225.817
G01 X225.829 Y224.588
G01 X226.030 Y224.394
G01 X227.304 Y223.236
G01 X227.516 Y223.054
G01 X228.854 Y221.969
G01 X229.075 Y221.801
G01 X230.474 Y220.793
G01 X230.703 Y220.638
G01 X232.158 Y219.712
G01 X232.394 Y219.571
G01 X233.901 Y218.728
G01 X234.144 Y218.600
G01 X235.697 Y217.844
G01 X235.946 Y217.732
G01 X237.540 Y217.064
G01 X237.794 Y216.966
G01 X239.424 Y216.391
G01 X239.683 Y216.308
G01 X241.344 Y215.825
G01 X241.606 Y215.757
G01 X243.293 Y215.369
G01 X243.557 Y215.316
G01 X245.264 Y215.024
G01 X245.530 Y214.987
G01 X247.252 Y214.792
G01 X247.519 Y214.770
G01 X249.250 Y214.673
G01 X249.516 Y214.665
G01 X251.199 Y216.139
G01 X251.444 Y216.371
G01 X253.092 Y216.482
G01 X253.343 Y216.506
G01 X254.982 Y216.711
G01 X255.230 Y216.749
G01 X256.855 Y217.045
G01 X257.099 Y217.097
G01 X258.705 Y217.485
G01 X258.945 Y217.550
G01 X260.526 Y218.028
G01 X260.761 Y218.106
G01 X262.313 Y218.673
G01 X262.542 Y218.764
G01 X264.059 Y219.417
G01 X264.282 Y219.520
G01 X265.760 Y220.257
G01 X265.975 Y220.372
G01 X267.410 Y221.192
G01 X267.617 Y221.318
G01 X269.003 Y222.217
G01 X269.202 Y222.355
G01 X270.536 Y223.330
G01 X270.726 Y223.478
G01 X272.003 Y224.527
G01 X272.183 Y224.684
G01 X273.399 Y225.803
G01 X273.570 Y225.970
G01 X274.721 Y227.155
G01 X274.881 Y227.330
G01 X275.964 Y228.579
G01 X276.114 Y228.762
G01 X277.124 Y230.068
G01 X277.263 Y230.259
G01 X278.199 Y231.620
G01 X278.326 Y231.817
G01 X279.184 Y233.229
G01 X279.300 Y233.432
G01 X280.078 Y234.889
G01 X280.181 Y235.097
G01 X280.876 Y236.596
G01 X280.968 Y236.809
G01 X281.577 Y238.344
G01 X281.657 Y238.561
G01 X282.180 Y240.128
G01 X282.246 Y240.347
G01 X282.681 Y241.941
G01 X282.735 Y242.163
G01 X283.080 Y243.778
G01 X283.121 Y244.002
G01 X283.376 Y245.634
G01 X283.404 Y245.858
G01 X283.567 Y247.502
G01 X283.583 Y247.727
G01 X283.654 Y249.377
G01 X283.658 Y249.601
G01 X285.626 Y251.327
G01 X285.885 Y251.575
G01 X285.782 Y253.335
G01 X285.762 Y253.571
G01 X285.561 Y255.324
G01 X285.527 Y255.558
G01 X285.229 Y257.298
G01 X285.183 Y257.529
G01 X284.788 Y259.250
G01 X284.729 Y259.477
G01 X284.239 Y261.175
G01 X284.168 Y261.397
G01 X283.584 Y263.066
G01 X283.502 Y263.283
G01 X282.825 Y264.918
G01 X282.731 Y265.129
G01 X281.965 Y266.725
G01 X281.860 Y266.930
G01 X281.006 Y268.482
G01 X280.890 Y268.679
G01 X279.950 Y270.182
G01 X279.824 Y270.372
G01 X278.803 Y271.822
G01 X278.667 Y272.004
G01 X277.566 Y273.395
G01 X277.421 Y273.569
G01 X276.244 Y274.898
G01 X276.090 Y275.062
G01 X274.841 Y276.325
G01 X274.679 Y276.480
G01 X273.361 Y277.672
G01 X273.191 Y277.817
G01 X271.809 Y278.936
G01 X271.633 Y279.071
G01 X270.190 Y280.112
G01 X270.007 Y280.236
G01 X268.508 Y281.197
G01 X268.319 Y281.310
G01 X266.769 Y282.187
G01 X266.575 Y282.290
G01 X264.978 Y283.080
G01 X264.780 Y283.172
G01 X263.141 Y283.873
G01 X262.938 Y283.953
G01 X261.262 Y284.564
G01 X261.057 Y284.632
G01 X259.348 Y285.150
G01 X259.140 Y285.207
G01 X257.405 Y285.630
G01 X257.196 Y285.675
G01 X255.439 Y286.003
G01 X255.228 Y286.036
G01 X253.455 Y286.267
G01 X253.244 Y286.288
G01 X251.460 Y286.421
G01 X251.248 Y286.431
G01 X249.496 Y283.950
G01 X249.306 Y283.653
G01 X247.656 Y283.578
G01 X247.463 Y283.564
G01 X245.819 Y283.399
G01 X245.628 Y283.375
G01 X243.996 Y283.120
G01 X243.807 Y283.085
G01 X242.191 Y282.742
G01 X242.006 Y282.697
G01 X240.412 Y282.265
G01 X240.230 Y282.211
G01 X238.661 Y281.693
G01 X238.484 Y281.629
G01 X236.946 Y281.026
G01 X236.773 Y280.952
G01 X235.270 Y280.266
G01 X235.103 Y280.184
G01 X233.640 Y279.417
G01 X233.478 Y279.326
G01 X232.059 Y278.480
G01 X231.903 Y278.381
G01 X230.532 Y277.459
G01 X230.382 Y277.352
G01 X229.064 Y276.357
G01 X228.921 Y276.243
G01 X227.659 Y275.177
G01 X227.523 Y275.056
G01 X226.321 Y273.923
G01 X226.193 Y273.795
G01 X225.054 Y272.598
G01 X224.934 Y272.465
G01 X223.861 Y271.208
G01 X223.749 Y271.069
G01 X222.747 Y269.755
G01 X222.643 Y269.611
G01 X221.714 Y268.245
G01 X221.618 Y268.096
G01 X220.764 Y266.681
G01 X220.678 Y266.528
G01 X219.902 Y265.070
G01 X219.824 Y264.913
G01 X219.129 Y263.415
G01 X219.060 Y263.255
G01 X218.446 Y261.721
G01 X218.387 Y261.558
G01 X217.858 Y259.993
G01 X217.807 Y259.829
G01 X217.363 Y258.237
G01 X217.322 Y258.071
G01 X216.965 Y256.458
G01 X216.933 Y256.291
G01 X216.664 Y254.661
G01 X216.641 Y254.493
G01 X216.461 Y252.851
G01 X216.447 Y252.683
G01 X216.356 Y251.034
G01 X216.351 Y250.866
G01 X213.283 Y249.143
G01 X212.979 Y248.952
G01 X213.057 Y247.136
G01 X213.070 Y246.954
G01 X213.247 Y245.144
G01 X213.269 Y244.964
G01 X213.543 Y243.164
G01 X213.575 Y242.987
G01 X213.946 Y241.204
G01 X213.987 Y241.030
G01 X214.454 Y239.268
G01 X214.504 Y239.097
G01 X215.066 Y237.363
G01 X215.125 Y237.196
G01 X215.779 Y235.493
G01 X215.847 Y235.330
G01 X216.592 Y233.664
G01 X216.668 Y233.506
G01 X217.502 Y231.882
G01 X217.586 Y231.729
G01 X218.506 Y230.151
G01 X218.598 Y230.003
G01 X219.603 Y228.477
G01 X219.702 Y228.335
G01 X220.787 Y226.863
G01 X220.893 Y226.728
G01 X222.057 Y225.316
G01 X222.169 Y225.187
G01 X223.407 Y223.839
G01 X223.526 Y223.717
G01 X224.835 Y222.437
G01 X224.959 Y222.322
G01 X226.336 Y221.113
G01 X226.465 Y221.006
G01 X227.906 Y219.872
G01 X228.040 Y219.772
G01 X229.540 Y218.716
G01 X229.678 Y218.624
G01 X231.234 Y217.650
G01 X231.376 Y217.566
G01 X232.982 Y216.676
G01 X233.127 Y216.600
G01 X234.779 Y215.796
G01 X234.928 Y215.729
G01 X236.622 Y215.014
G01 X236.773 Y214.955
G01 X238.503 Y214.332
G01 X238.656 Y214.281
G01 X240.418 Y213.750
G01 X240.573 Y213.708
G01 X242.361 Y213.272
G01 X242.517 Y213.239
G01 X244.327 Y212.898
G01 X244.484 Y212.873
G01 X246.310 Y212.630
G01 X246.467 Y212.613
G01 X248.305 Y212.467
G01 X248.462 Y212.459
G01 X250.327 Y209.829
G01 X250.496 Y209.611
G01 X252.477 Y209.684
G01 X252.643 Y209.695
G01 X254.618 Y209.873
G01 X254.782 Y209.892
G01 X256.744 Y210.175
G01 X256.906 Y210.203
G01 X258.850 Y210.589
G01 X259.009 Y210.626
G01 X260.930 Y211.115
G01 X261.086 Y211.159
G01 X262.978 Y211.750
G01 X263.131 Y211.802
G01 X264.989 Y212.492
G01 X265.137 Y212.552
G01 X266.956 Y213.339
G01 X267.100 Y213.406
G01 X268.875 Y214.290
G01 X269.014 Y214.363
G01 X270.740 Y215.339
G01 X270.874 Y215.420
G01 X272.546 Y216.486
G01 X272.675 Y216.573
G01 X274.288 Y217.726
G01 X274.411 Y217.819
G01 X275.961 Y219.055
G01 X276.078 Y219.154
G01 X277.560 Y220.471
G01 X277.671 Y220.575
G01 X279.082 Y221.968
G01 X279.186 Y222.078
G01 X280.521 Y223.543
G01 X280.619 Y223.657
G01 X281.875 Y225.191
G01 X281.967 Y225.309
G01 X283.140 Y226.907
G01 X283.224 Y227.029
G01 X284.311 Y228.687
G01 X284.388 Y228.812
G01 X285.387 Y230.524
G01 X285.457 Y230.652
G01 X286.363 Y232.415
G01 X286.426 Y232.546
G01 X287.239 Y234.354
G01 X287.294 Y234.487
G01 X288.011 Y236.336
G01 X288.059 Y236.470
G01 X288.677 Y238.354
G01 X288.717 Y238.490
G01 X289.235 Y240.403
G01 X289.269 Y240.540
G01 X289.685 Y242.478
G01 X289.711 Y242.615
G01 X290.026 Y244.573
G01 X290.044 Y244.710
G01 X290.255 Y246.681
G01 X290.266 Y246.818
G01 X290.374 Y248.798
G01 X290.378 Y248.934
G01 X288.290 Y250.869
G01 X288.144 Y250.994
G01 X288.067 Y252.866
G01 X288.059 Y252.992
G01 X287.883 Y254.859
G01 X287.868 Y254.984
G01 X287.595 Y256.839
G01 X287.574 Y256.962
G01 X287.204 Y258.802
G01 X287.176 Y258.923
G01 X286.711 Y260.741
G01 X286.677 Y260.860
G01 X286.116 Y262.652
G01 X286.077 Y262.768
G01 X285.423 Y264.529
G01 X285.378 Y264.642
G01 X284.632 Y266.368
G01 X284.582 Y266.477
G01 X283.747 Y268.163
G01 X283.691 Y268.268
G01 X282.769 Y269.909
G01 X282.708 Y270.011
G01 X281.702 Y271.602
G01 X281.636 Y271.700
G01 X280.547 Y273.236
G01 X280.477 Y273.330
G01 X279.309 Y274.808
G01 X279.234 Y274.898
G01 X277.990 Y276.314
G01 X277.912 Y276.399
G01 X276.595 Y277.749
G01 X276.514 Y277.829
G01 X275.128 Y279.109
G01 X275.042 Y279.184
G01 X273.591 Y280.392
G01 X273.503 Y280.461
G01 X271.990 Y281.592
G01 X271.899 Y281.656
G01 X270.329 Y282.708
G01 X270.235 Y282.767
G01 X268.612 Y283.735
G01 X268.516 Y283.789
G01 X266.843 Y284.673
G01 X266.746 Y284.721
G01 X265.029 Y285.517
G01 X264.930 Y285.560
G01 X263.173 Y286.266
G01 X263.073 Y286.303
G01 X261.281 Y286.918
G01 X261.180 Y286.950
G01 X259.358 Y287.471
G01 X259.256 Y287.497
G01 X257.408 Y287.923
G01 X257.306 Y287.944
G01 X255.438 Y288.274
G01 X255.336 Y288.290
G01 X253.452 Y288.523
G01 X253.350 Y288.533
G01 X251.456 Y288.668
G01 X251.355 Y288.673
G01 X249.433 Y290.303
G01 X249.327 Y290.386
G01 X247.346 Y290.305
G01 X247.242 Y290.298
G01 X245.268 Y290.114
G01 X245.166 Y290.102
G01 X243.204 Y289.816
G01 X243.104 Y289.799
G01 X241.159 Y289.413
G01 X241.061 Y289.390
G01 X239.139 Y288.904
G01 X239.043 Y288.877
G01 X237.148 Y288.293
G01 X237.055 Y288.261
G01 X235.193 Y287.580
G01 X235.102 Y287.544
G01 X233.277 Y286.768
G01 X233.189 Y286.727
G01 X231.407 Y285.858
G01 X231.322 Y285.814
G01 X229.587 Y284.855
G01 X229.506 Y284.806
G01 X227.822 Y283.759
G01 X227.744 Y283.707
G01 X226.117 Y282.575
G01 X226.042 Y282.519
G01 X224.475 Y281.305
G01 X224.404 Y281.246
G01 X222.901 Y279.953
G01 X222.834 Y279.891
G01 X221.400 Y278.522
G01 X221.336 Y278.459
G01 X219.974 Y277.018
G01 X219.915 Y276.952
G01 X218.629 Y275.443
G01 X218.573 Y275.374
G01 X217.366 Y273.802
G01 X217.315 Y273.731
G01 X216.190 Y272.099
G01 X216.142 Y272.027
G01 X215.102 Y270.339
G01 X215.059 Y270.265
G01 X214.107 Y268.526
G01 X214.069 Y268.451
G01 X213.206 Y266.666
G01 X213.172 Y266.590
G01 X212.403 Y264.763
G01 X212.373 Y264.686
G01 X211.697 Y262.822
G01 X211.671 Y262.745
G01 X211.092 Y260.849
G01 X211.071 Y260.772
G01 X210.589 Y258.848
G01 X210.572 Y258.771
G01 X210.189 Y256.826
G01 X210.176 Y256.748
G01 X209.893 Y254.786
G01 X209.883 Y254.709
G01 X209.701 Y252.735
G01 X209.696 Y252.658
G01 X209.614 Y250.677
G01 X209.612 Y250.602
G01 X210.700 Y248.656
G01 X210.743 Y248.585
G01 X210.842 Y246.659
G01 X210.847 Y246.587
G01 X211.045 Y244.668
G01 X211.054 Y244.598
G01 X211.349 Y242.690
G01 X211.361 Y242.621
G01 X211.752 Y240.730
G01 X211.768 Y240.663
G01 X212.256 Y238.793
G01 X212.275 Y238.728
G01 X212.857 Y236.884
G01 X212.878 Y236.820
G01 X213.554 Y235.008
G01 X213.578 Y234.946
G01 X214.345 Y233.170
G01 X214.373 Y233.111
G01 X215.229 Y231.374
G01 X215.259 Y231.317
G01 X216.202 Y229.626
G01 X216.235 Y229.571
G01 X217.264 Y227.929
G01 X217.298 Y227.877
G01 X218.409 Y226.288
G01 X218.446 Y226.238
G01 X219.636 Y224.707
G01 X219.675 Y224.660
G01 X220.942 Y223.191
G01 X220.983 Y223.146
G01 X222.323 Y221.742
G01 X222.365 Y221.700
G01 X223.775 Y220.365
G01 X223.818 Y220.326
G01 X225.295 Y219.064
G01 X225.339 Y219.028
G01 X226.879 Y217.841
G01 X226.924 Y217.807
G01 X228.522 Y216.699
G01 X228.569 Y216.669
G01 X230.221 Y215.642
G01 X230.269 Y215.614
G01 X231.972 Y214.672
G01 X232.019 Y214.647
G01 X233.768 Y213.791
G01 X233.817 Y213.769
G01 X235.608 Y213.003
G01 X235.656 Y212.983
G01 X237.484 Y212.307
G01 X237.533 Y212.291
G01 X239.393 Y211.708
G01 X239.442 Y211.694
G01 X241.330 Y211.205
G01 X241.378 Y211.193
G01 X243.290 Y210.800
G01 X243.338 Y210.791
G01 X245.267 Y210.494
G01 X245.315 Y210.488
G01 X247.258 Y210.288
G01 X247.304 Y210.285
G01 X249.256 Y210.183
G01 X249.302 Y210.181
G01 X251.274 Y209.641
G01 X251.320 Y209.630
G01 X253.299 Y209.743
G01 X253.344 Y209.747
G01 X255.315 Y209.959
G01 X255.359 Y209.965
G01 X257.317 Y210.276
G01 X257.359 Y210.284
G01 X259.299 Y210.693
G01 X259.340 Y210.703
G01 X261.257 Y211.208
G01 X261.297 Y211.220
G01 X263.186 Y211.821
G01 X263.224 Y211.834
G01 X265.081 Y212.529
G01 X265.118 Y212.544
G01 X266.937 Y213.331
G01 X266.972 Y213.347
G01 X268.750 Y214.224
G01 X268.784 Y214.241
G01 X270.516 Y215.206
G01 X270.547 Y215.225
G01 X272.229 Y216.275
G01 X272.259 Y216.294
G01 X273.886 Y217.427
G01 X273.914 Y217.448
G01 X275.482 Y218.660
G01 X275.508 Y218.682
G01 X277.014 Y219.971
G01 X277.039 Y219.993
G01 X278.479 Y221.356
G01 X278.501 Y221.379
G01 X279.871 Y222.812
G01 X279.893 Y222.835
G01 X281.190 Y224.334
G01 X281.209 Y224.358
G01 X282.430 Y225.920
G01 X282.447 Y225.944
G01 X283.588 Y227.565
G01 X283.604 Y227.589
G01 X284.664 Y229.265
G01 X284.678 Y229.289
G01 X285.652 Y231.015
G01 X285.665 Y231.039
G01 X286.552 Y232.812
G01 X286.563 Y232.835
G01 X287.362 Y234.650
G01 X287.371 Y234.673
G01 X288.078 Y236.525
G01 X288.086 Y236.548
G01 X288.700 Y238.433
G01 X288.707 Y238.455
G01 X289.227 Y240.368
G01 X289.232 Y240.390
G01 X289.656 Y242.327
G01 X289.661 Y242.348
G01 X289.988 Y244.303
G01 X289.991 Y244.324
G01 X290.222 Y246.293
G01 X290.223 Y246.312
G01 X290.356 Y248.291
G01 X290.357 Y248.309
G01 X290.394 Y250.292
G01 X290.394 Y250.309
G01 X290.347 Y252.292
G01 X290.346 Y252.309
G01 X290.202 Y254.288
G01 X290.200 Y254.304
G01 X289.958 Y256.274
G01 X289.956 Y256.290
G01 X289.616 Y258.246
G01 X289.613 Y258.260
G01 X289.177 Y260.199
G01 X289.174 Y260.212
G01 X288.642 Y262.127
G01 X288.638 Y262.139
G01 X288.013 Y264.026
G01 X288.009 Y264.038
G01 X287.290 Y265.893
G01 X287.286 Y265.903
G01 X286.477 Y267.721
G01 X286.472 Y267.730
G01 X285.574 Y269.507
G01 X285.569 Y269.515
G01 X284.584 Y271.246
G01 X284.580 Y271.253
G01 X283.509 Y272.934
G01 X283.505 Y272.941
G01 X282.353 Y274.568
G01 X282.349 Y274.573
G01 X281.118 Y276.142
G01 X281.114 Y276.147
G01 X279.806 Y277.654
G01 X279.803 Y277.658
G01 X278.422 Y279.099
G01 X278.419 Y279.102
G01 X276.969 Y280.475
G01 X276.966 Y280.477
G01 X275.449 Y281.777
G01 X275.447 Y281.779
G01 X273.868 Y283.003
G01 X273.866 Y283.004
G01 X272.228 Y284.150
G01 X270.534 Y285.215
G01 X268.790 Y286.195
G01 X267.001 Y287.089
G01 X265.169 Y287.894
G01 X263.301 Y288.608
G01 X261.400 Y289.229
G01 X259.470 Y289.757
G01 X257.517 Y290.190
G01 X255.546 Y290.527
G01 X253.560 Y290.767
G01 X251.565 Y290.909
G01 X249.571 Y290.390
G01 X247.600 Y290.321
G01 X245.635 Y290.155
G01 X243.682 Y289.895
G01 X241.745 Y289.539
G01 X239.828 Y289.090
G01 X237.936 Y288.548
G01 X236.073 Y287.915
G01 X234.244 Y287.192
G01 X232.454 Y286.382
G01 X230.705 Y285.486
G01 X229.003 Y284.506
G01 X227.352 Y283.445
G01 X225.754 Y282.306
G01 X224.214 Y281.090
G01 X222.736 Y279.803
G01 X221.323 Y278.445
G01 X219.977 Y277.021
G01 X218.703 Y275.534
G01 X217.503 Y273.988
G01 X216.379 Y272.387
G01 X215.335 Y270.733
G01 X214.373 Y269.032
G01 X213.494 Y267.286
G01 X212.701 Y265.501
G01 X211.995 Y263.681
G01 X211.379 Y261.829
G01 X210.853 Y259.951
G01 X210.418 Y258.050
G01 X210.076 Y256.131
G01 X209.827 Y254.199
G01 X209.671 Y252.258
G01 X209.609 Y250.312
G01 X208.506 Y248.320
G01 X208.618 Y246.323
G01 X208.825 Y244.334
G01 X209.129 Y242.357
G01 X209.527 Y240.396
G01 X210.019 Y238.457
G01 X210.603 Y236.544
G01 X211.279 Y234.662
G01 X212.044 Y232.813
G01 X212.897 Y231.004
G01 X213.836 Y229.238
G01 X214.859 Y227.519
G01 X215.962 Y225.851
G01 X217.145 Y224.237
G01 X218.403 Y222.682
G01 X219.735 Y221.190
G01 X221.136 Y219.762
G01 X222.604 Y218.403
G01 X224.135 Y217.116
G01 X225.726 Y215.904
G01 X227.373 Y214.769
G01 X229.073 Y213.714
G01 X230.821 Y212.742
G01 X232.613 Y211.853
G01 X234.446 Y211.052
G01 X236.315 Y210.338
G01 X238.215 Y209.715
G01 X240.144 Y209.183
G01 X242.095 Y208.743
G01 X244.065 Y208.397
G01 X246.049 Y208.145
G01 X248.043 Y207.987
G01 X250.041 Y209.608
G01 X251.960 Y209.656
G01 X253.874 Y209.794
G01 X255.779 Y210.023
G01 X257.669 Y210.343
G01 X259.542 Y210.751
G01 X261.392 Y211.248
G01 X263.216 Y211.831
G01 X265.010 Y212.501
G01 X266.769 Y213.254
G01 X268.490 Y214.089
G01 X270.169 Y215.004
G01 X271.802 Y215.997
G01 X273.385 Y217.066
G01 X274.916 Y218.208
G01 X276.390 Y219.421
G01 X277.805 Y220.702
G01 X279.157 Y222.047
G01 X280.444 Y223.454
G01 X281.663 Y224.920
G01 X282.810 Y226.441
G01 X283.884 Y228.014
G01 X284.882 Y229.635
G01 X285.803 Y231.301
G01 X286.644 Y233.007
G01 X287.403 Y234.750
G01 X288.079 Y236.527
G01 X288.670 Y238.332
G01 X289.176 Y240.163
G01 X289.595 Y242.015
G01 X289.926 Y243.883
G01 X290.169 Y245.764
G01 X290.324 Y247.654
G01 X290.389 Y249.549
G01 X292.622 Y251.524
G01 X292.520 Y253.522
G01 X292.325 Y255.512
G01 X292.037 Y257.492
G01 X291.656 Y259.456
G01 X291.184 Y261.399
G01 X290.621 Y263.319
G01 X289.970 Y265.210
G01 X289.230 Y267.069
G01 X288.405 Y268.891
G01 X287.495 Y270.672
G01 X286.503 Y272.409
G01 X285.431 Y274.098
G01 X284.281 Y275.735
G01 X283.057 Y277.316
G01 X281.759 Y278.839
G01 X280.393 Y280.299
G01 X278.959 Y281.695
G01 X277.463 Y283.022
G01 X275.906 Y284.278
G01 X274.292 Y285.460
G01 X272.625 Y286.565
G01 X270.908 Y287.592
G01 X269.146 Y288.538
G01 X267.342 Y289.401
G01 X265.499 Y290.180
G01 X263.622 Y290.872
G01 X261.715 Y291.476
G01 X259.783 Y291.991
G01 X257.828 Y292.415
G01 X255.856 Y292.749
G01 X253.870 Y292.991
G01 X251.876 Y293.141
G01 X249.884 Y290.392
G01 X248.015 Y290.343
G01 X246.151 Y290.208
G01 X244.295 Y289.987
G01 X242.453 Y289.681
G01 X240.627 Y289.290
G01 X238.822 Y288.815
G01 X237.042 Y288.257
G01 X235.290 Y287.618
G01 X233.570 Y286.899
G01 X231.885 Y286.102
G01 X230.240 Y285.229
G01 X228.637 Y284.281
G01 X227.081 Y283.260
G01 X225.573 Y282.169
G01 X224.118 Y281.011
G01 X222.719 Y279.787
G01 X221.377 Y278.500
G01 X220.097 Y277.154
G01 X218.881 Y275.751
G01 X217.730 Y274.293
G01 X216.648 Y272.785
G01 X215.637 Y271.230
G01 X214.699 Y269.631
G01 X213.836 Y267.990
G01 X213.049 Y266.313
G01 X212.340 Y264.602
G01 X211.710 Y262.860
G01 X211.161 Y261.093
G01 X210.694 Y259.303
G01 X210.309 Y257.494
G01 X210.008 Y255.669
G01 X209.790 Y253.834
G01 X209.657 Y251.992
G01 X209.608 Y250.146
G01 X206.266 Y248.158
G01 X206.379 Y246.160
G01 X206.584 Y244.171
G01 X206.879 Y242.193
G01 X207.264 Y240.230
G01 X207.739 Y238.286
G01 X208.301 Y236.367
G01 X208.951 Y234.475
G01 X209.686 Y232.615
G01 X210.505 Y230.790
G01 X211.406 Y229.004
G01 X212.387 Y227.261
G01 X213.447 Y225.564
G01 X214.583 Y223.918
G01 X215.792 Y222.325
G01 X217.073 Y220.788
G01 X218.423 Y219.311
G01 X219.837 Y217.898
G01 X221.315 Y216.549
G01 X222.852 Y215.269
G01 X224.446 Y214.061
G01 X226.093 Y212.925
G01 X227.790 Y211.866
G01 X229.532 Y210.885
G01 X231.318 Y209.983
G01 X233.143 Y209.164
G01 X235.003 Y208.427
G01 X236.894 Y207.776
G01 X238.812 Y207.211
G01 X240.755 Y206.733
G01 X242.717 Y206.344
G01 X244.694 Y206.043
G01 X246.683 Y205.832
G01 X248.680 Y205.711
G01 X250.723 Y202.882
G01 X252.848 Y202.962
G01 X254.966 Y203.138
G01 X257.073 Y203.410
G01 X259.165 Y203.776
G01 X261.238 Y204.236
G01 X263.287 Y204.788
G01 X265.308 Y205.432
G01 X267.298 Y206.166
G01 X269.252 Y206.988
G01 X271.166 Y207.897
G01 X273.037 Y208.891
G01 X274.861 Y209.967
G01 X276.634 Y211.124
G01 X278.352 Y212.359
G01 X280.013 Y213.669
G01 X281.612 Y215.052
G01 X283.148 Y216.505
G01 X284.616 Y218.025
G01 X286.014 Y219.608
G01 X287.340 Y221.252
G01 X288.590 Y222.953
G01 X289.762 Y224.708
G01 X290.854 Y226.513
G01 X291.863 Y228.364
G01 X292.789 Y230.257
G01 X293.629 Y232.190
G01 X294.381 Y234.157
G01 X295.044 Y236.155
G01 X295.618 Y238.181
G01 X296.100 Y240.229
G01 X296.490 Y242.296
G01 X296.787 Y244.377
G01 X296.992 Y246.469
G01 X297.102 Y248.567
G01 X294.880 Y250.636
G01 X294.824 Y252.635
G01 X294.677 Y254.630
G01 X294.443 Y256.616
G01 X294.120 Y258.590
G01 X293.710 Y260.548
G01 X293.213 Y262.486
G01 X292.630 Y264.399
G01 X291.963 Y266.285
G01 X291.213 Y268.139
G01 X290.381 Y269.958
G01 X289.469 Y271.739
G01 X288.479 Y273.477
G01 X287.413 Y275.170
G01 X286.273 Y276.813
G01 X285.061 Y278.405
G01 X283.780 Y279.941
G01 X282.432 Y281.419
G01 X281.020 Y282.835
G01 X279.547 Y284.188
G01 X278.015 Y285.474
G01 X276.428 Y286.691
G01 X274.788 Y287.837
G01 X273.100 Y288.909
G01 X271.366 Y289.906
G01 X269.589 Y290.825
G01 X267.774 Y291.664
G01 X265.923 Y292.423
G01 X264.041 Y293.099
G01 X262.130 Y293.692
G01 X260.195 Y294.199
G01 X258.240 Y294.621
G01 X256.268 Y294.957
G01 X254.284 Y295.205
G01 X252.290 Y295.365
G01 X250.291 Y295.438
G01 X248.228 Y297.091
G01 X246.159 Y296.967
G01 X244.097 Y296.753
G01 X242.048 Y296.448
G01 X240.015 Y296.054
G01 X238.002 Y295.571
G01 X236.012 Y295.000
G01 X234.050 Y294.343
G01 X232.120 Y293.600
G01 X230.225 Y292.774
G01 X228.368 Y291.866
G01 X226.554 Y290.877
G01 X224.786 Y289.811
G01 X223.066 Y288.668
G01 X221.399 Y287.452
G01 X219.787 Y286.164
G01 X218.233 Y284.807
G01 X216.741 Y283.384
G01 X215.313 Y281.898
G01 X213.951 Y280.351
G01 X212.659 Y278.746
G01 X211.439 Y277.088
G01 X210.293 Y275.378
G01 X209.223 Y273.620
G01 X208.231 Y271.818
G01 X207.319 Y269.975
G01 X206.488 Y268.095
G01 X205.741 Y266.181
G01 X205.078 Y264.236
G01 X204.500 Y262.266
G01 X204.009 Y260.273
G01 X203.606 Y258.261
G01 X203.290 Y256.234
G01 X203.063 Y254.196
G01 X202.925 Y252.151
G01 X202.876 Y250.102
G01 X204.022 Y248.100
G01 X204.133 Y246.103
G01 X204.330 Y244.113
G01 X204.614 Y242.133
G01 X204.983 Y240.167
G01 X205.437 Y238.219
G01 X205.975 Y236.292
G01 X206.596 Y234.391
G01 X207.299 Y232.518
G01 X208.083 Y230.677
G01 X208.946 Y228.872
G01 X209.886 Y227.107
G01 X210.902 Y225.383
G01 X211.991 Y223.706
G01 X213.151 Y222.077
G01 X214.382 Y220.499
G01 X215.679 Y218.977
G01 X217.040 Y217.512
G01 X218.464 Y216.107
G01 X219.947 Y214.765
G01 X221.487 Y213.488
G01 X223.080 Y212.279
G01 X224.724 Y211.140
G01 X226.415 Y210.073
G01 X228.152 Y209.080
G01 X229.929 Y208.162
G01 X231.745 Y207.322
G01 X233.595 Y206.561
G01 X235.476 Y205.880
G01 X237.384 Y205.281
G01 X239.317 Y204.764
G01 X241.270 Y204.331
G01 X243.240 Y203.983
G01 X245.222 Y203.720
G01 X247.214 Y203.542
G01 X249.212 Y203.450
G01 X251.227 Y202.892
G01 X253.248 Y202.988
G01 X255.262 Y203.171
G01 X257.267 Y203.440
G01 X259.257 Y203.794
G01 X261.230 Y204.234
G01 X263.181 Y204.757
G01 X265.108 Y205.363
G01 X267.006 Y206.051
G01 X268.872 Y206.820
G01 X270.703 Y207.667
G01 X272.495 Y208.592
G01 X274.246 Y209.592
G01 X275.951 Y210.666
G01 X277.609 Y211.811
G01 X279.216 Y213.025
G01 X280.769 Y214.307
G01 X282.265 Y215.654
G01 X283.702 Y217.063
G01 X285.077 Y218.532
G01 X286.388 Y220.057
G01 X287.632 Y221.636
G01 X288.807 Y223.266
G01 X289.911 Y224.944
G01 X290.942 Y226.668
G01 X291.899 Y228.433
G01 X292.779 Y230.236
G01 X293.582 Y232.075
G01 X294.305 Y233.946
G01 X294.948 Y235.846
G01 X295.509 Y237.770
G01 X295.988 Y239.716
G01 X296.384 Y241.679
G01 X296.695 Y243.658
G01 X296.922 Y245.646
G01 X297.065 Y247.642
G01 X297.123 Y249.642
G01 X297.108 Y251.642
G01 X297.011 Y253.640
G01 X296.829 Y255.632
G01 X296.563 Y257.615
G01 X296.214 Y259.584
G01 X295.781 Y261.537
G01 X295.266 Y263.470
G01 X294.669 Y265.379
G01 X293.993 Y267.261
G01 X293.237 Y269.113
G01 X292.403 Y270.931
G01 X291.493 Y272.713
G01 X290.509 Y274.454
G01 X289.452 Y276.152
G01 X288.324 Y277.804
G01 X287.128 Y279.407
G01 X285.865 Y280.958
G01 X284.538 Y282.454
G01 X283.148 Y283.893
G01 X281.699 Y285.273
G01 X280.193 Y286.589
G01 X278.633 Y287.841
G01 X277.022 Y289.027
G01 X275.363 Y290.143
G01 X273.657 Y291.188
G01 X271.910 Y292.161
G01 X270.122 Y293.059
G01 X268.299 Y293.881
G01 X266.442 Y294.626
G01 X264.556 Y295.292
G01 X262.644 Y295.878
G01 X260.709 Y296.384
G01 X258.754 Y296.807
G01 X256.783 Y297.148
G01 X254.799 Y297.406
G01 X252.807 Y297.581
G01 X250.808 Y297.672
G01 X248.822 Y297.109
G01 X246.849 Y297.019
G01 X244.881 Y296.845
G01 X242.923 Y296.590
G01 X240.978 Y296.252
G01 X239.049 Y295.834
G01 X237.140 Y295.335
G01 X235.255 Y294.758
G01 X233.395 Y294.102
G01 X231.566 Y293.369
G01 X229.769 Y292.560
G01 X228.008 Y291.678
G01 X226.286 Y290.722
G01 X224.606 Y289.696
G01 X222.971 Y288.602
G01 X221.383 Y287.440
G01 X219.846 Y286.213
G01 X218.362 Y284.924
G01 X216.933 Y283.574
G01 X215.562 Y282.167
G01 X214.251 Y280.704
G01 X213.003 Y279.188
G01 X211.820 Y277.622
G01 X210.703 Y276.008
G01 X209.655 Y274.350
G01 X208.676 Y272.650
G01 X207.770 Y270.911
G01 X206.937 Y269.137
G01 X206.178 Y267.330
G01 X205.496 Y265.494
G01 X204.891 Y263.632
G01 X204.363 Y261.746
G01 X203.915 Y259.841
G01 X203.546 Y257.920
G01 X203.258 Y255.986
G01 X203.050 Y254.042
G01 X202.922 Y252.092
G01 X202.876 Y250.138
G01 X201.776 Y248.141
G01 X201.880 Y246.143
G01 X202.066 Y244.152
G01 X202.335 Y242.170
G01 X202.685 Y240.201
G01 X203.117 Y238.248
G01 X203.629 Y236.314
G01 X204.221 Y234.403
G01 X204.891 Y232.519
G01 X205.638 Y230.664
G01 X206.462 Y228.841
G01 X207.360 Y227.053
G01 X208.331 Y225.305
G01 X209.374 Y223.598
G01 X210.486 Y221.935
G01 X211.665 Y220.320
G01 X212.911 Y218.755
G01 X214.220 Y217.242
G01 X215.590 Y215.785
G01 X217.019 Y214.386
G01 X218.504 Y213.046
G01 X220.043 Y211.769
G01 X221.634 Y210.556
G01 X223.273 Y209.410
G01 X224.958 Y208.332
G01 X226.686 Y207.325
G01 X228.454 Y206.389
G01 X230.259 Y205.527
G01 X232.098 Y204.740
G01 X233.968 Y204.028
G01 X235.865 Y203.395
G01 X237.786 Y202.839
G01 X239.729 Y202.364
G01 X241.690 Y201.968
G01 X243.665 Y201.653
G01 X245.652 Y201.419
G01 X247.646 Y201.267
G01 X249.645 Y201.197
G01 X251.588 Y202.903
G01 X253.516 Y203.007
G01 X255.437 Y203.191
G01 X257.348 Y203.452
G01 X259.246 Y203.792
G01 X261.129 Y204.209
G01 X262.992 Y204.702
G01 X264.833 Y205.271
G01 X266.649 Y205.915
G01 X268.436 Y206.632
G01 X270.192 Y207.421
G01 X271.914 Y208.281
G01 X273.599 Y209.211
G01 X275.244 Y210.208
G01 X276.846 Y211.271
G01 X278.403 Y212.398
G01 X279.913 Y213.587
G01 X281.372 Y214.837
G01 X282.779 Y216.144
G01 X284.131 Y217.507
G01 X285.426 Y218.925
G01 X286.662 Y220.393
G01 X287.836 Y221.909
G01 X288.948 Y223.472
G01 X289.995 Y225.078
G01 X290.975 Y226.726
G01 X291.888 Y228.411
G01 X292.730 Y230.131
G01 X293.502 Y231.883
G01 X294.202 Y233.665
G01 X294.829 Y235.473
G01 X295.382 Y237.305
G01 X295.860 Y239.157
G01 X296.262 Y241.026
G01 X296.588 Y242.910
G01 X296.837 Y244.805
G01 X297.009 Y246.707
G01 X297.104 Y248.615
G01 X299.369 Y250.549
G01 X299.320 Y252.549
G01 X299.191 Y254.545
G01 X298.981 Y256.534
G01 X298.691 Y258.513
G01 X298.321 Y260.479
G01 X297.872 Y262.428
G01 X297.344 Y264.357
G01 X296.739 Y266.263
G01 X296.057 Y268.144
G01 X295.299 Y269.995
G01 X294.468 Y271.815
G01 X293.564 Y273.599
G01 X292.588 Y275.345
G01 X291.543 Y277.051
G01 X290.430 Y278.713
G01 X289.251 Y280.328
G01 X288.008 Y281.895
G01 X286.702 Y283.410
G01 X285.337 Y284.872
G01 X283.913 Y286.277
G01 X282.435 Y287.624
G01 X280.903 Y288.911
G01 X279.320 Y290.134
G01 X277.690 Y291.293
G01 X276.015 Y292.385
G01 X274.297 Y293.410
G01 X272.538 Y294.364
G01 X270.744 Y295.247
G01 X268.915 Y296.057
G01 X267.055 Y296.793
G01 X265.167 Y297.454
G01 X263.254 Y298.038
G01 X261.319 Y298.545
G01 X259.366 Y298.974
G01 X257.396 Y299.324
G01 X255.414 Y299.595
G01 X253.424 Y299.787
G01 X251.427 Y299.898
G01 X249.459 Y297.121
G01 X247.572 Y297.061
G01 X245.691 Y296.927
G01 X243.816 Y296.717
G01 X241.952 Y296.432
G01 X240.101 Y296.073
G01 X238.267 Y295.640
G01 X236.452 Y295.135
G01 X234.659 Y294.557
G01 X232.891 Y293.909
G01 X231.151 Y293.190
G01 X229.442 Y292.403
G01 X227.766 Y291.549
G01 X226.125 Y290.629
G01 X224.524 Y289.644
G01 X222.963 Y288.596
G01 X221.446 Y287.488
G01 X219.974 Y286.320
G01 X218.551 Y285.094
G01 X217.177 Y283.813
G01 X215.857 Y282.479
G01 X214.591 Y281.094
G01 X213.381 Y279.660
G01 X212.230 Y278.179
G01 X211.138 Y276.654
G01 X210.109 Y275.088
G01 X209.143 Y273.482
G01 X208.242 Y271.839
G01 X207.407 Y270.163
G01 X206.640 Y268.455
G01 X205.941 Y266.718
G01 X205.312 Y264.956
G01 X204.754 Y263.170
G01 X204.267 Y261.365
G01 X203.852 Y259.542
G01 X203.510 Y257.704
G01 X203.241 Y255.855
G01 X203.046 Y253.997
G01 X202.924 Y252.133
G01 X202.877 Y250.266
G01 X199.527 Y248.285
G01 X199.620 Y246.287
G01 X199.793 Y244.294
G01 X200.044 Y242.310
G01 X200.373 Y240.337
G01 X200.780 Y238.379
G01 X201.265 Y236.438
G01 X201.826 Y234.518
G01 X202.462 Y232.622
G01 X203.172 Y230.752
G01 X203.956 Y228.912
G01 X204.812 Y227.104
G01 X205.738 Y225.332
G01 X206.734 Y223.597
G01 X207.798 Y221.903
G01 X208.927 Y220.252
G01 X210.121 Y218.647
G01 X211.377 Y217.090
G01 X212.694 Y215.585
G01 X214.068 Y214.132
G01 X215.499 Y212.734
G01 X216.984 Y211.394
G01 X218.521 Y210.113
G01 X220.107 Y208.894
G01 X221.739 Y207.738
G01 X223.416 Y206.647
G01 X225.134 Y205.624
G01 X226.891 Y204.668
G01 X228.684 Y203.782
G01 X230.511 Y202.968
G01 X232.369 Y202.225
G01 X234.254 Y201.556
G01 X236.164 Y200.962
G01 X238.095 Y200.443
G01 X240.046 Y200.000
G01 X242.012 Y199.635
G01 X243.991 Y199.346
G01 X245.981 Y199.136
G01 X247.977 Y199.003
G01 X249.976 Y198.949
G01 X252.084 Y196.184
G01 X254.189 Y196.307
G01 X256.288 Y196.513
G01 X258.376 Y196.800
G01 X260.451 Y197.168
G01 X262.510 Y197.617
G01 X264.548 Y198.146
G01 X266.565 Y198.755
G01 X268.555 Y199.441
G01 X270.516 Y200.205
G01 X272.445 Y201.044
G01 X274.339 Y201.958
G01 X276.196 Y202.945
G01 X278.012 Y204.003
G01 X279.786 Y205.131
G01 X281.514 Y206.327
G01 X283.193 Y207.589
G01 X284.821 Y208.915
G01 X286.396 Y210.304
G01 X287.915 Y211.752
G01 X289.376 Y213.258
G01 X290.777 Y214.819
G01 X292.116 Y216.434
G01 X293.390 Y218.098
G01 X294.599 Y219.811
G01 X295.740 Y221.568
G01 X296.811 Y223.369
G01 X297.811 Y225.209
G01 X298.738 Y227.086
G01 X299.592 Y228.997
G01 X300.370 Y230.940
G01 X301.072 Y232.911
G01 X301.697 Y234.906
G01 X302.244 Y236.925
G01 X302.713 Y238.962
G01 X303.101 Y241.015
G01 X303.410 Y243.082
G01 X303.638 Y245.158
G01 X303.785 Y247.241
G01 X303.852 Y249.327
G01 X301.603 Y251.356
G01 X301.526 Y253.354
G01 X301.371 Y255.348
G01 X301.139 Y257.335
G01 X300.831 Y259.311
G01 X300.446 Y261.274
G01 X299.985 Y263.221
G01 X299.450 Y265.148
G01 X298.840 Y267.052
G01 X298.158 Y268.933
G01 X297.403 Y270.785
G01 X296.577 Y272.606
G01 X295.681 Y274.395
G01 X294.717 Y276.148
G01 X293.686 Y277.862
G01 X292.590 Y279.535
G01 X291.430 Y281.164
G01 X290.208 Y282.747
G01 X288.925 Y284.283
G01 X287.585 Y285.767
G01 X286.188 Y287.199
G01 X284.737 Y288.576
G01 X283.234 Y289.896
G01 X281.682 Y291.157
G01 X280.081 Y292.357
G01 X278.436 Y293.495
G01 X276.749 Y294.569
G01 X275.021 Y295.577
G01 X273.256 Y296.518
G01 X271.456 Y297.390
G01 X269.624 Y298.193
G01 X267.762 Y298.924
G01 X265.874 Y299.583
G01 X263.961 Y300.170
G01 X262.028 Y300.682
G01 X260.076 Y301.120
G01 X258.109 Y301.482
G01 X256.129 Y301.769
G01 X254.140 Y301.980
G01 X252.144 Y302.114
G01 X250.145 Y302.172
G01 X248.086 Y303.822
G01 X246.025 Y303.709
G01 X243.970 Y303.517
G01 X241.926 Y303.247
G01 X239.893 Y302.899
G01 X237.875 Y302.473
G01 X235.877 Y301.971
G01 X233.899 Y301.393
G01 X231.945 Y300.739
G01 X230.018 Y300.012
G01 X228.121 Y299.212
G01 X226.257 Y298.339
G01 X224.427 Y297.397
G01 X222.635 Y296.386
G01 X220.884 Y295.307
G01 X219.176 Y294.163
G01 X217.513 Y292.954
G01 X215.898 Y291.683
G01 X214.332 Y290.352
G01 X212.819 Y288.962
G01 X211.361 Y287.516
G01 X209.959 Y286.016
G01 X208.616 Y284.464
G01 X207.333 Y282.863
G01 X206.112 Y281.214
G01 X204.955 Y279.520
G01 X203.864 Y277.784
G01 X202.840 Y276.008
G01 X201.885 Y274.195
G01 X201.000 Y272.347
G01 X200.185 Y270.468
G01 X199.443 Y268.559
G01 X198.774 Y266.625
G01 X198.179 Y264.666
G01 X197.660 Y262.687
G01 X197.216 Y260.690
G01 X196.848 Y258.678
G01 X196.557 Y256.654
G01 X196.343 Y254.621
G01 X196.206 Y252.582
G01 X196.147 Y250.540
G01 X197.277 Y248.528
G01 X197.357 Y246.530
G01 X197.513 Y244.536
G01 X197.744 Y242.549
G01 X198.050 Y240.573
G01 X198.432 Y238.609
G01 X198.887 Y236.661
G01 X199.415 Y234.732
G01 X200.017 Y232.824
G01 X200.690 Y230.940
G01 X201.433 Y229.084
G01 X202.247 Y227.256
G01 X203.129 Y225.461
G01 X204.078 Y223.701
G01 X205.093 Y221.977
G01 X206.172 Y220.294
G01 X207.315 Y218.651
G01 X208.518 Y217.054
G01 X209.781 Y215.503
G01 X211.102 Y214.000
G01 X212.478 Y212.549
G01 X213.908 Y211.151
G01 X215.390 Y209.807
G01 X216.921 Y208.520
G01 X218.500 Y207.292
G01 X220.124 Y206.124
G01 X221.791 Y205.019
G01 X223.498 Y203.977
G01 X225.244 Y203.000
G01 X227.024 Y202.089
G01 X228.838 Y201.246
G01 X230.682 Y200.472
G01 X232.555 Y199.767
G01 X234.452 Y199.134
G01 X236.372 Y198.573
G01 X238.312 Y198.084
G01 X240.268 Y197.668
G01 X242.239 Y197.326
G01 X244.221 Y197.058
G01 X246.212 Y196.865
G01 X248.209 Y196.747
G01 X250.211 Y196.144
G01 X252.231 Y196.190
G01 X254.248 Y196.312
G01 X256.258 Y196.509
G01 X258.258 Y196.781
G01 X260.247 Y197.128
G01 X262.221 Y197.549
G01 X264.178 Y198.044
G01 X266.114 Y198.611
G01 X268.026 Y199.251
G01 X269.913 Y199.961
G01 X271.772 Y200.741
G01 X273.600 Y201.590
G01 X275.394 Y202.507
G01 X277.152 Y203.490
G01 X278.872 Y204.537
G01 X280.551 Y205.648
G01 X282.187 Y206.821
G01 X283.778 Y208.053
G01 X285.321 Y209.344
G01 X286.814 Y210.692
G01 X288.256 Y212.093
G01 X289.644 Y213.547
G01 X290.977 Y215.052
G01 X292.251 Y216.604
G01 X293.468 Y218.203
G01 X294.623 Y219.846
G01 X295.716 Y221.530
G01 X296.745 Y223.254
G01 X297.709 Y225.014
G01 X298.607 Y226.808
G01 X299.436 Y228.635
G01 X300.198 Y230.490
G01 X300.889 Y232.372
G01 X301.510 Y234.277
G01 X302.059 Y236.205
G01 X302.536 Y238.150
G01 X302.940 Y240.112
G01 X303.271 Y242.087
G01 X303.528 Y244.072
G01 X303.712 Y246.065
G01 X303.821 Y248.063
G01 X303.856 Y250.063
G01 X303.830 Y252.063
G01 X303.730 Y254.061
G01 X303.555 Y256.054
G01 X303.307 Y258.038
G01 X302.985 Y260.012
G01 X302.590 Y261.973
G01 X302.123 Y263.918
G01 X301.584 Y265.844
G01 X300.974 Y267.749
G01 X300.294 Y269.630
G01 X299.544 Y271.485
G01 X298.727 Y273.310
G01 X297.842 Y275.104
G01 X296.892 Y276.864
G01 X295.877 Y278.588
G01 X294.799 Y280.273
G01 X293.659 Y281.916
G01 X292.460 Y283.517
G01 X291.202 Y285.072
G01 X289.888 Y286.580
G01 X288.518 Y288.038
G01 X287.096 Y289.444
G01 X285.623 Y290.797
G01 X284.101 Y292.095
G01 X282.532 Y293.335
G01 X280.918 Y294.517
G01 X279.262 Y295.638
G01 X277.565 Y296.698
G01 X275.831 Y297.694
G01 X274.061 Y298.626
G01 X272.258 Y299.491
G01 X270.424 Y300.290
G01 X268.562 Y301.021
G01 X266.674 Y301.682
G01 X264.763 Y302.274
G01 X262.832 Y302.795
G01 X260.884 Y303.244
G01 X258.919 Y303.621
G01 X256.943 Y303.926
G01 X254.956 Y304.158
G01 X252.962 Y304.317
G01 X250.963 Y304.402
G01 X248.974 Y303.846
G01 X246.996 Y303.772
G01 X245.023 Y303.626
G01 X243.057 Y303.406
G01 X241.101 Y303.116
G01 X239.157 Y302.753
G01 X237.229 Y302.320
G01 X235.318 Y301.816
G01 X233.428 Y301.243
G01 X231.560 Y300.600
G01 X229.717 Y299.890
G01 X227.902 Y299.113
G01 X226.117 Y298.271
G01 X224.365 Y297.363
G01 X222.647 Y296.393
G01 X220.967 Y295.360
G01 X219.326 Y294.267
G01 X217.726 Y293.114
G01 X216.170 Y291.904
G01 X214.660 Y290.639
G01 X213.197 Y289.319
G01 X211.784 Y287.947
G01 X210.423 Y286.525
G01 X209.114 Y285.054
G01 X207.860 Y283.537
G01 X206.663 Y281.975
G01 X205.524 Y280.371
G01 X204.445 Y278.727
G01 X203.427 Y277.045
G01 X202.471 Y275.327
G01 X201.579 Y273.576
G01 X200.751 Y271.794
G01 X199.989 Y269.983
G01 X199.293 Y268.147
G01 X198.666 Y266.287
G01 X198.106 Y264.405
G01 X197.616 Y262.505
G01 X197.195 Y260.588
G01 X196.845 Y258.658
G01 X196.565 Y256.717
G01 X196.356 Y254.767
G01 X196.218 Y252.812
G01 X196.151 Y250.854
G01 X195.026 Y248.871
G01 X195.091 Y246.872
G01 X195.228 Y244.877
G01 X195.437 Y242.887
G01 X195.719 Y240.907
G01 X196.073 Y238.938
G01 X196.498 Y236.984
G01 X196.993 Y235.046
G01 X197.558 Y233.127
G01 X198.193 Y231.231
G01 X198.896 Y229.358
G01 X199.667 Y227.512
G01 X200.504 Y225.696
G01 X201.407 Y223.911
G01 X202.373 Y222.160
G01 X203.403 Y220.445
G01 X204.493 Y218.769
G01 X205.645 Y217.133
G01 X206.854 Y215.540
G01 X208.120 Y213.991
G01 X209.442 Y212.490
G01 X210.817 Y211.038
G01 X212.244 Y209.636
G01 X213.720 Y208.287
G01 X215.244 Y206.992
G01 X216.815 Y205.753
G01 X218.429 Y204.571
G01 X220.084 Y203.449
G01 X221.779 Y202.387
G01 X223.512 Y201.387
G01 X225.279 Y200.451
G01 X227.079 Y199.579
G01 X228.909 Y198.772
G01 X230.768 Y198.032
G01 X232.651 Y197.360
G01 X234.558 Y196.756
G01 X236.485 Y196.221
G01 X238.431 Y195.756
G01 X240.391 Y195.362
G01 X242.365 Y195.038
G01 X244.350 Y194.786
G01 X246.342 Y194.605
G01 X248.339 Y194.497
G01 X250.328 Y196.145
G01 X252.267 Y196.192
G01 X254.202 Y196.308
G01 X256.131 Y196.494
G01 X258.052 Y196.749
G01 X259.963 Y197.073
G01 X261.859 Y197.466
G01 X263.741 Y197.926
G01 X265.603 Y198.454
G01 X267.446 Y199.048
G01 X269.265 Y199.708
G01 X271.059 Y200.432
G01 X272.825 Y201.220
G01 X274.561 Y202.071
G01 X276.266 Y202.983
G01 X277.936 Y203.956
G01 X279.570 Y204.988
G01 X281.166 Y206.078
G01 X282.721 Y207.224
G01 X284.233 Y208.425
G01 X285.702 Y209.678
G01 X287.124 Y210.984
G01 X288.498 Y212.339
G01 X289.822 Y213.742
G01 X291.095 Y215.191
G01 X292.315 Y216.685
G01 X293.480 Y218.221
G01 X294.590 Y219.797
G01 X295.642 Y221.412
G01 X296.635 Y223.063
G01 X297.569 Y224.748
G01 X298.441 Y226.465
G01 X299.251 Y228.212
G01 X299.999 Y229.986
G01 X300.682 Y231.785
G01 X301.301 Y233.607
G01 X301.853 Y235.450
G01 X302.339 Y237.310
G01 X302.759 Y239.187
G01 X303.111 Y241.076
G01 X303.396 Y242.977
G01 X303.613 Y244.886
G01 X303.761 Y246.802
G01 X303.841 Y248.720
G01 X306.100 Y250.668
G01 X306.053 Y252.667
G01 X305.935 Y254.664
G01 X305.746 Y256.655
G01 X305.487 Y258.638
G01 X305.156 Y260.611
G01 X304.756 Y262.571
G01 X304.286 Y264.515
G01 X303.747 Y266.442
G01 X303.140 Y268.348
G01 X302.466 Y270.230
G01 X301.725 Y272.088
G01 X300.919 Y273.918
G01 X300.048 Y275.719
G01 X299.113 Y277.487
G01 X298.117 Y279.221
G01 X297.059 Y280.919
G01 X295.942 Y282.578
G01 X294.766 Y284.196
G01 X293.534 Y285.772
G01 X292.247 Y287.302
G01 X290.906 Y288.787
G01 X289.513 Y290.222
G01 X288.070 Y291.608
G01 X286.579 Y292.941
G01 X285.042 Y294.221
G01 X283.460 Y295.445
G01 X281.836 Y296.613
G01 X280.171 Y297.722
G01 X278.468 Y298.772
G01 X276.729 Y299.760
G01 X274.957 Y300.686
G01 X273.153 Y301.549
G01 X271.319 Y302.348
G01 X269.458 Y303.081
G01 X267.573 Y303.748
G01 X265.665 Y304.348
G01 X263.737 Y304.880
G01 X261.791 Y305.344
G01 X259.831 Y305.738
G01 X257.857 Y306.063
G01 X255.873 Y306.318
G01 X253.882 Y306.503
G01 X251.885 Y306.618
G01 X249.891 Y303.856
G01 X247.990 Y303.818
G01 X246.093 Y303.714
G01 X244.200 Y303.543
G01 X242.316 Y303.305
G01 X240.441 Y303.001
G01 X238.578 Y302.631
G01 X236.731 Y302.195
G01 X234.900 Y301.696
G01 X233.088 Y301.132
G01 X231.297 Y300.504
G01 X229.531 Y299.814
G01 X227.790 Y299.063
G01 X226.077 Y298.250
G01 X224.393 Y297.379
G01 X222.742 Y296.448
G01 X221.125 Y295.461
G01 X219.544 Y294.418
G01 X218.001 Y293.319
G01 X216.498 Y292.168
G01 X215.037 Y290.964
G01 X213.619 Y289.710
G01 X212.247 Y288.407
G01 X210.921 Y287.058
G01 X209.644 Y285.663
G01 X208.417 Y284.225
G01 X207.242 Y282.745
G01 X206.119 Y281.224
G01 X205.051 Y279.666
G01 X204.039 Y278.071
G01 X203.082 Y276.443
G01 X202.184 Y274.782
G01 X201.345 Y273.091
G01 X200.566 Y271.372
G01 X199.848 Y269.627
G01 X199.191 Y267.858
G01 X198.597 Y266.068
G01 X198.066 Y264.259
G01 X197.599 Y262.433
G01 X197.196 Y260.591
G01 X196.858 Y258.737
G01 X196.584 Y256.873
G01 X196.377 Y255.001
G01 X196.235 Y253.123
G01 X196.159 Y251.242
G01 X192.778 Y249.320
G01 X192.824 Y247.320
G01 X192.940 Y245.323
G01 X193.126 Y243.332
G01 X193.381 Y241.348
G01 X193.705 Y239.375
G01 X194.098 Y237.414
G01 X194.559 Y235.468
G01 X195.088 Y233.539
G01 X195.684 Y231.630
G01 X196.346 Y229.742
G01 X197.073 Y227.880
G01 X197.865 Y226.043
G01 X198.720 Y224.235
G01 X199.639 Y222.458
G01 X200.618 Y220.715
G01 X201.657 Y219.006
G01 X202.755 Y217.334
G01 X203.911 Y215.702
G01 X205.123 Y214.111
G01 X206.389 Y212.563
G01 X207.709 Y211.060
G01 X209.080 Y209.604
G01 X210.501 Y208.196
G01 X211.970 Y206.839
G01 X213.486 Y205.533
G01 X215.046 Y204.281
G01 X216.649 Y203.084
G01 X218.292 Y201.944
G01 X219.974 Y200.861
G01 X221.692 Y199.837
G01 X223.445 Y198.873
G01 X225.230 Y197.971
G01 X227.046 Y197.131
G01 X228.889 Y196.355
G01 X230.759 Y195.644
G01 X232.652 Y194.997
G01 X234.566 Y194.417
G01 X236.499 Y193.903
G01 X238.449 Y193.457
G01 X240.413 Y193.078
G01 X242.389 Y192.768
G01 X244.374 Y192.527
G01 X246.367 Y192.354
G01 X248.365 Y192.250
G01 X250.382 Y189.413
G01 X252.478 Y189.463
G01 X254.572 Y189.585
G01 X256.658 Y189.779
G01 X258.737 Y190.046
G01 X260.804 Y190.383
G01 X262.859 Y190.793
G01 X264.897 Y191.272
G01 X266.917 Y191.822
G01 X268.917 Y192.441
G01 X270.893 Y193.129
G01 X272.844 Y193.884
G01 X274.768 Y194.706
G01 X276.662 Y195.594
G01 X278.523 Y196.546
G01 X280.351 Y197.562
G01 X282.141 Y198.640
G01 X283.894 Y199.780
G01 X285.605 Y200.978
G01 X287.274 Y202.235
G01 X288.898 Y203.548
G01 X290.476 Y204.916
G01 X292.005 Y206.337
G01 X293.484 Y207.810
G01 X294.911 Y209.332
G01 X296.285 Y210.903
G01 X297.603 Y212.519
G01 X298.865 Y214.179
G01 X300.068 Y215.881
G01 X301.212 Y217.624
G01 X302.295 Y219.404
G01 X303.316 Y221.221
G01 X304.274 Y223.070
G01 X305.168 Y224.952
G01 X305.996 Y226.862
G01 X306.757 Y228.799
G01 X307.452 Y230.761
G01 X308.079 Y232.745
G01 X308.637 Y234.750
G01 X309.126 Y236.771
G01 X309.545 Y238.809
G01 X309.894 Y240.858
G01 X310.173 Y242.919
G01 X310.380 Y244.987
G01 X310.516 Y247.060
G01 X310.582 Y249.136
G01 X308.339 Y251.169
G01 X308.277 Y253.168
G01 X308.147 Y255.164
G01 X307.948 Y257.154
G01 X307.681 Y259.136
G01 X307.346 Y261.108
G01 X306.944 Y263.067
G01 X306.476 Y265.011
G01 X305.941 Y266.939
G01 X305.340 Y268.847
G01 X304.674 Y270.733
G01 X303.944 Y272.596
G01 X303.151 Y274.432
G01 X302.296 Y276.240
G01 X301.380 Y278.018
G01 X300.402 Y279.763
G01 X299.367 Y281.474
G01 X298.273 Y283.149
G01 X297.123 Y284.785
G01 X295.917 Y286.381
G01 X294.658 Y287.935
G01 X293.346 Y289.445
G01 X291.985 Y290.909
G01 X290.573 Y292.327
G01 X289.114 Y293.695
G01 X287.609 Y295.013
G01 X286.060 Y296.278
G01 X284.469 Y297.490
G01 X282.837 Y298.648
G01 X281.167 Y299.748
G01 X279.460 Y300.792
G01 X277.719 Y301.776
G01 X275.946 Y302.701
G01 X274.142 Y303.565
G01 X272.310 Y304.366
G01 X270.451 Y305.105
G01 X268.569 Y305.781
G01 X266.664 Y306.391
G01 X264.740 Y306.937
G01 X262.798 Y307.417
G01 X260.841 Y307.831
G01 X258.871 Y308.178
G01 X256.891 Y308.458
G01 X254.902 Y308.671
G01 X252.907 Y308.815
G01 X250.908 Y308.892
G01 X248.878 Y310.577
G01 X246.822 Y310.504
G01 X244.771 Y310.362
