;  Created by Sandify
;  https://sandify.org
;  Version: 0.2.6
;
;  Machine type: Rectangular
;    Min X (mm): 0
;    Max X (mm): 500
;    Min Y (mm): 0
;    Max Y (mm): 500
;  Content type: shape
;  Layer:
;    Shape: FileImport
;    Name: dither_cells.thr
;    From file:: dither_cells.thr
;    Aspect Ratio: true
;    Comments: 
;    Visible: true
;    Initial width: 10
;    Initial height: 10
;    X offset: 0
;    Y offset: 0
;    Rotate (degrees): 0
;    Reverse path: false
;    Fine tuning:
;      Connect to next layer: line
;      Draw portion of path (%): 100
;      Backtrack at end (%): 0
;      Rotate starting point (%): 0
;  Reverse export path: false
;
; File name: 'cells (C SE)'
; File type: gcode
;

G01 X250.000 Y250.000
G01 X250.000 Y250.500
G01 X250.025 Y250.507
G01 X250.051 Y250.513
G01 X250.077 Y250.518
G01 X250.104 Y250.522
G01 X250.131 Y250.524
G01 X250.159 Y250.524
G01 X250.161 Y250.524
G01 X250.000 Y250.001
G01 X250.339 Y250.495
G01 X250.368 Y250.485
G01 X250.397 Y250.473
G01 X250.426 Y250.459
G01 X250.454 Y250.444
G01 X250.482 Y250.427
G01 X250.509 Y250.408
G01 X250.008 Y250.006
G01 X250.009 Y250.007
G01 X250.011 Y250.007
G01 X250.012 Y250.007
G01 X250.014 Y250.007
G01 X250.015 Y250.007
G01 X250.017 Y250.007
G01 X250.660 Y250.259
G01 X250.681 Y250.229
G01 X250.700 Y250.198
G01 X250.718 Y250.166
G01 X250.735 Y250.132
G01 X250.750 Y250.097
G01 X250.763 Y250.061
G01 X250.764 Y250.058
G01 X250.028 Y250.002
G01 X250.031 Y250.001
G01 X250.033 Y249.999
G01 X250.035 Y249.997
G01 X250.036 Y249.995
G01 X250.038 Y249.993
G01 X250.040 Y249.991
G01 X250.806 Y249.815
G01 X250.806 Y249.772
G01 X250.803 Y249.730
G01 X250.799 Y249.687
G01 X250.792 Y249.644
G01 X250.782 Y249.601
G01 X250.771 Y249.558
G01 X250.048 Y249.972
G01 X250.049 Y249.968
G01 X250.050 Y249.964
G01 X250.050 Y249.960
G01 X250.050 Y249.956
G01 X250.050 Y249.952
G01 X250.049 Y249.947
G01 X250.648 Y249.301
G01 X250.620 Y249.261
G01 X250.590 Y249.223
G01 X250.557 Y249.186
G01 X250.523 Y249.150
G01 X250.485 Y249.116
G01 X250.446 Y249.084
G01 X250.443 Y249.081
G01 X250.040 Y249.917
G01 X250.037 Y249.912
G01 X250.034 Y249.907
G01 X250.030 Y249.902
G01 X250.026 Y249.897
G01 X250.022 Y249.893
G01 X250.017 Y249.888
G01 X250.160 Y248.922
G01 X250.108 Y248.904
G01 X250.055 Y248.888
G01 X250.000 Y248.875
G01 X249.945 Y248.864
G01 X249.888 Y248.857
G01 X249.830 Y248.852
G01 X249.979 Y249.864
G01 X249.972 Y249.861
G01 X249.964 Y249.859
G01 X249.956 Y249.857
G01 X249.947 Y249.855
G01 X249.939 Y249.854
G01 X249.930 Y249.853
G01 X249.464 Y248.888
G01 X249.404 Y248.904
G01 X249.344 Y248.924
G01 X249.285 Y248.948
G01 X249.227 Y248.974
G01 X249.170 Y249.004
G01 X249.113 Y249.036
G01 X249.109 Y249.039
G01 X249.869 Y249.860
G01 X249.859 Y249.863
G01 X249.848 Y249.867
G01 X249.838 Y249.871
G01 X249.828 Y249.876
G01 X249.818 Y249.882
G01 X249.808 Y249.889
G01 X248.795 Y249.308
G01 X248.751 Y249.362
G01 X248.709 Y249.418
G01 X248.670 Y249.478
G01 X248.633 Y249.539
G01 X248.600 Y249.603
G01 X248.569 Y249.669
G01 X248.568 Y249.671
G01 X249.751 Y249.944
G01 X249.743 Y249.955
G01 X249.735 Y249.967
G01 X249.728 Y249.979
G01 X249.722 Y249.993
G01 X249.716 Y250.006
G01 X249.711 Y250.021
G01 X248.452 Y250.117
G01 X248.446 Y250.195
G01 X248.444 Y250.273
G01 X248.445 Y250.352
G01 X248.451 Y250.432
G01 X248.461 Y250.512
G01 X248.475 Y250.592
G01 X248.476 Y250.598
G01 X249.695 Y250.121
G01 X249.695 Y250.138
G01 X249.697 Y250.156
G01 X249.699 Y250.174
G01 X249.703 Y250.192
G01 X249.707 Y250.210
G01 X249.713 Y250.228
G01 X248.654 Y251.079
G01 X248.697 Y251.153
G01 X248.745 Y251.226
G01 X248.797 Y251.297
G01 X248.852 Y251.366
G01 X248.912 Y251.432
G01 X248.975 Y251.496
G01 X248.976 Y251.497
G01 X249.770 Y250.339
G01 X249.783 Y250.356
G01 X249.797 Y250.372
G01 X249.813 Y250.388
G01 X249.829 Y250.404
G01 X249.847 Y250.419
G01 X249.865 Y250.433
G01 X249.440 Y251.822
G01 X249.526 Y251.862
G01 X249.615 Y251.898
G01 X249.706 Y251.930
G01 X249.800 Y251.958
G01 X249.895 Y251.981
G01 X249.992 Y251.999
G01 X249.994 Y251.999
G01 X250.000 Y250.500
G01 X250.025 Y250.507
G01 X250.051 Y250.514
G01 X250.077 Y250.518
G01 X250.104 Y250.522
G01 X250.131 Y250.524
G01 X250.159 Y250.524
G01 X250.161 Y250.524
G01 X250.623 Y252.003
G01 X250.726 Y251.985
G01 X250.829 Y251.962
G01 X250.931 Y251.933
G01 X251.033 Y251.899
G01 X251.133 Y251.860
G01 X251.232 Y251.816
G01 X251.234 Y251.815
G01 X250.339 Y250.495
G01 X250.368 Y250.485
G01 X250.397 Y250.473
G01 X250.426 Y250.459
G01 X250.454 Y250.444
G01 X250.482 Y250.427
G01 X250.509 Y250.408
G01 X251.797 Y251.430
G01 X251.878 Y251.350
G01 X251.957 Y251.265
G01 X252.031 Y251.176
G01 X252.101 Y251.083
G01 X252.167 Y250.986
G01 X252.229 Y250.884
G01 X252.230 Y250.883
G01 X250.660 Y250.259
G01 X250.681 Y250.229
G01 X250.700 Y250.198
G01 X250.718 Y250.166
G01 X250.735 Y250.132
G01 X250.750 Y250.097
G01 X250.763 Y250.061
G01 X250.764 Y250.058
G01 X252.499 Y250.181
G01 X252.522 Y250.058
G01 X252.540 Y249.934
G01 X252.551 Y249.808
G01 X252.556 Y249.681
G01 X252.555 Y249.553
G01 X252.547 Y249.424
G01 X252.547 Y249.422
G01 X250.806 Y249.815
G01 X250.806 Y249.772
G01 X250.803 Y249.730
G01 X250.799 Y249.687
G01 X250.792 Y249.644
G01 X250.782 Y249.601
G01 X250.771 Y249.558
G01 X252.356 Y248.636
G01 X252.302 Y248.512
G01 X252.241 Y248.390
G01 X252.174 Y248.271
G01 X252.100 Y248.154
G01 X252.020 Y248.041
G01 X251.934 Y247.930
G01 X251.933 Y247.929
G01 X250.648 Y249.301
G01 X250.620 Y249.261
G01 X250.590 Y249.223
G01 X250.557 Y249.186
G01 X250.523 Y249.150
G01 X250.486 Y249.116
G01 X250.446 Y249.084
G01 X250.443 Y249.081
G01 X251.273 Y247.339
G01 X251.148 Y247.262
G01 X251.019 Y247.191
G01 X250.886 Y247.126
G01 X250.748 Y247.067
G01 X250.607 Y247.015
G01 X250.463 Y246.970
G01 X250.461 Y246.970
G01 X250.160 Y248.922
G01 X250.109 Y248.904
G01 X250.055 Y248.888
G01 X250.001 Y248.875
G01 X249.945 Y248.864
G01 X249.888 Y248.857
G01 X249.830 Y248.852
G01 X249.522 Y246.851
G01 X249.364 Y246.859
G01 X249.206 Y246.874
G01 X249.047 Y246.898
G01 X248.890 Y246.930
G01 X248.733 Y246.970
G01 X248.577 Y247.017
G01 X248.574 Y247.018
G01 X249.464 Y248.888
G01 X249.404 Y248.904
G01 X249.345 Y248.924
G01 X249.286 Y248.947
G01 X249.227 Y248.974
G01 X249.170 Y249.003
G01 X249.114 Y249.036
G01 X249.109 Y249.039
G01 X247.660 Y247.491
G01 X247.525 Y247.595
G01 X247.394 Y247.705
G01 X247.269 Y247.823
G01 X247.148 Y247.948
G01 X247.034 Y248.079
G01 X246.925 Y248.217
G01 X246.923 Y248.219
G01 X248.795 Y249.308
G01 X248.751 Y249.361
G01 X248.709 Y249.418
G01 X248.670 Y249.477
G01 X248.633 Y249.539
G01 X248.600 Y249.603
G01 X248.569 Y249.669
G01 X248.569 Y249.670
G01 X246.407 Y249.184
G01 X246.350 Y249.358
G01 X246.302 Y249.535
G01 X246.262 Y249.715
G01 X246.232 Y249.899
G01 X246.210 Y250.084
G01 X246.197 Y250.271
G01 X246.197 Y250.274
G01 X248.452 Y250.117
G01 X248.446 Y250.194
G01 X248.444 Y250.273
G01 X248.445 Y250.352
G01 X248.451 Y250.431
G01 X248.461 Y250.511
G01 X248.475 Y250.591
G01 X248.476 Y250.597
G01 X246.329 Y251.452
G01 X246.384 Y251.640
G01 X246.450 Y251.825
G01 X246.524 Y252.009
G01 X246.608 Y252.189
G01 X246.702 Y252.365
G01 X246.805 Y252.538
G01 X246.806 Y252.541
G01 X248.653 Y251.078
G01 X248.697 Y251.153
G01 X248.745 Y251.226
G01 X248.796 Y251.296
G01 X248.852 Y251.365
G01 X248.911 Y251.432
G01 X248.975 Y251.495
G01 X248.976 Y251.496
G01 X247.627 Y253.489
G01 X247.790 Y253.621
G01 X247.959 Y253.745
G01 X248.135 Y253.861
G01 X248.318 Y253.969
G01 X248.507 Y254.068
G01 X248.701 Y254.159
G01 X248.704 Y254.160
G01 X249.439 Y251.822
G01 X249.525 Y251.862
G01 X249.614 Y251.898
G01 X249.705 Y251.930
G01 X249.799 Y251.958
G01 X249.894 Y251.980
G01 X249.992 Y251.999
G01 X249.999 Y252.000
G01 X250.013 Y254.501
G01 X250.235 Y254.519
G01 X250.459 Y254.525
G01 X250.684 Y254.521
G01 X250.909 Y254.505
G01 X251.135 Y254.478
G01 X251.360 Y254.439
G01 X251.364 Y254.439
G01 X250.622 Y252.003
G01 X250.725 Y251.985
G01 X250.828 Y251.962
G01 X250.930 Y251.933
G01 X251.032 Y251.900
G01 X251.132 Y251.861
G01 X251.231 Y251.816
G01 X251.233 Y251.815
G01 X252.704 Y253.955
G01 X252.909 Y253.837
G01 X253.110 Y253.708
G01 X253.304 Y253.569
G01 X253.493 Y253.420
G01 X253.675 Y253.260
G01 X253.849 Y253.091
G01 X253.852 Y253.089
G01 X251.796 Y251.431
G01 X251.878 Y251.351
G01 X251.956 Y251.266
G01 X252.030 Y251.177
G01 X252.101 Y251.084
G01 X252.167 Y250.987
G01 X252.228 Y250.885
G01 X252.233 Y250.877
G01 X254.744 Y251.846
G01 X254.853 Y251.619
G01 X254.951 Y251.386
G01 X255.037 Y251.147
G01 X255.112 Y250.903
G01 X255.175 Y250.654
G01 X255.226 Y250.401
G01 X255.227 Y250.397
G01 X252.499 Y250.182
G01 X252.522 Y250.060
G01 X252.540 Y249.935
G01 X252.551 Y249.809
G01 X252.556 Y249.682
G01 X252.555 Y249.554
G01 X252.547 Y249.426
G01 X252.547 Y249.424
G01 X255.262 Y248.792
G01 X255.221 Y248.528
G01 X255.167 Y248.265
G01 X255.100 Y248.004
G01 X255.019 Y247.746
G01 X254.926 Y247.491
G01 X254.819 Y247.239
G01 X254.817 Y247.235
G01 X252.357 Y248.637
G01 X252.303 Y248.513
G01 X252.242 Y248.391
G01 X252.175 Y248.272
G01 X252.101 Y248.155
G01 X252.021 Y248.041
G01 X251.935 Y247.931
G01 X251.928 Y247.923
G01 X253.876 Y245.798
G01 X253.682 Y245.592
G01 X253.478 Y245.396
G01 X253.263 Y245.209
G01 X253.037 Y245.032
G01 X252.803 Y244.865
G01 X252.559 Y244.710
G01 X252.555 Y244.708
G01 X251.274 Y247.340
G01 X251.149 Y247.263
G01 X251.020 Y247.192
G01 X250.887 Y247.127
G01 X250.750 Y247.068
G01 X250.609 Y247.016
G01 X250.464 Y246.971
G01 X250.462 Y246.970
G01 X250.892 Y244.023
G01 X250.601 Y243.960
G01 X250.305 Y243.910
G01 X250.006 Y243.875
G01 X249.704 Y243.855
G01 X249.400 Y243.850
G01 X249.095 Y243.859
G01 X249.090 Y243.860
G01 X249.523 Y246.851
G01 X249.365 Y246.859
G01 X249.207 Y246.874
G01 X249.049 Y246.898
G01 X248.891 Y246.929
G01 X248.734 Y246.969
G01 X248.578 Y247.017
G01 X248.566 Y247.021
G01 X247.215 Y244.261
G01 X246.923 Y244.380
G01 X246.636 Y244.514
G01 X246.355 Y244.662
G01 X246.081 Y244.825
G01 X245.814 Y245.002
G01 X245.554 Y245.193
G01 X245.550 Y245.196
G01 X247.661 Y247.490
G01 X247.526 Y247.594
G01 X247.395 Y247.704
G01 X247.270 Y247.822
G01 X247.149 Y247.947
G01 X247.035 Y248.078
G01 X246.926 Y248.215
G01 X246.925 Y248.217
G01 X244.173 Y246.647
G01 X243.990 Y246.924
G01 X243.820 Y247.211
G01 X243.663 Y247.507
G01 X243.521 Y247.811
G01 X243.394 Y248.124
G01 X243.282 Y248.444
G01 X243.280 Y248.449
G01 X246.408 Y249.183
G01 X246.351 Y249.356
G01 X246.303 Y249.533
G01 X246.263 Y249.714
G01 X246.232 Y249.897
G01 X246.210 Y250.082
G01 X246.197 Y250.270
G01 X246.197 Y250.285
G01 X242.944 Y250.550
G01 X242.950 Y250.900
G01 X242.973 Y251.250
G01 X243.014 Y251.600
G01 X243.073 Y251.949
G01 X243.149 Y252.296
G01 X243.242 Y252.640
G01 X243.244 Y252.645
G01 X246.328 Y251.451
G01 X246.384 Y251.638
G01 X246.449 Y251.824
G01 X246.523 Y252.007
G01 X246.608 Y252.187
G01 X246.701 Y252.364
G01 X246.804 Y252.537
G01 X246.805 Y252.539
G01 X244.190 Y254.647
G01 X244.403 Y254.947
G01 X244.631 Y255.237
G01 X244.873 Y255.516
G01 X245.131 Y255.784
G01 X245.402 Y256.040
G01 X245.687 Y256.284
G01 X245.691 Y256.287
G01 X247.626 Y253.488
G01 X247.788 Y253.620
G01 X247.957 Y253.744
G01 X248.133 Y253.860
G01 X248.316 Y253.968
G01 X248.505 Y254.068
G01 X248.700 Y254.158
G01 X248.715 Y254.165
G01 X247.721 Y257.473
G01 X248.082 Y257.606
G01 X248.452 Y257.721
G01 X248.828 Y257.818
G01 X249.210 Y257.897
G01 X249.597 Y257.958
G01 X249.988 Y257.999
G01 X249.994 Y257.999
G01 X250.011 Y254.501
G01 X250.233 Y254.519
G01 X250.456 Y254.525
G01 X250.681 Y254.521
G01 X250.907 Y254.505
G01 X251.133 Y254.478
G01 X251.358 Y254.440
G01 X251.362 Y254.439
G01 X252.427 Y257.825
G01 X252.819 Y257.726
G01 X253.207 Y257.608
G01 X253.590 Y257.470
G01 X253.968 Y257.313
G01 X254.338 Y257.137
G01 X254.701 Y256.941
G01 X254.707 Y256.938
G01 X252.702 Y253.956
G01 X252.907 Y253.838
G01 X253.108 Y253.710
G01 X253.303 Y253.570
G01 X253.491 Y253.421
G01 X253.673 Y253.262
G01 X253.848 Y253.093
G01 X253.851 Y253.090
G01 X256.710 Y255.350
G01 X256.991 Y255.034
G01 X257.256 Y254.702
G01 X257.507 Y254.357
G01 X257.740 Y253.998
G01 X257.957 Y253.627
G01 X258.155 Y253.244
G01 X258.170 Y253.213
G01 X254.743 Y251.848
G01 X254.852 Y251.621
G01 X254.950 Y251.388
G01 X255.037 Y251.149
G01 X255.112 Y250.905
G01 X255.175 Y250.656
G01 X255.226 Y250.404
G01 X255.226 Y250.400
G01 X258.958 Y250.656
G01 X259.012 Y250.217
G01 X259.045 Y249.774
G01 X259.057 Y249.328
G01 X259.046 Y248.880
G01 X259.013 Y248.432
G01 X258.957 Y247.984
G01 X258.956 Y247.977
G01 X255.262 Y248.794
G01 X255.221 Y248.530
G01 X255.168 Y248.268
G01 X255.100 Y248.007
G01 X255.020 Y247.748
G01 X254.927 Y247.493
G01 X254.820 Y247.242
G01 X254.818 Y247.238
G01 X258.131 Y245.305
G01 X257.919 Y244.893
G01 X257.687 Y244.491
G01 X257.434 Y244.099
G01 X257.161 Y243.719
G01 X256.868 Y243.351
G01 X256.557 Y242.998
G01 X256.532 Y242.970
G01 X253.878 Y245.800
G01 X253.684 Y245.594
G01 X253.480 Y245.397
G01 X253.265 Y245.210
G01 X253.040 Y245.033
G01 X252.805 Y244.867
G01 X252.561 Y244.711
G01 X252.557 Y244.709
G01 X254.240 Y241.157
G01 X253.815 Y240.927
G01 X253.377 Y240.718
G01 X252.927 Y240.531
G01 X252.468 Y240.365
G01 X251.999 Y240.221
G01 X251.522 Y240.100
G01 X251.515 Y240.099
G01 X250.895 Y244.024
G01 X250.603 Y243.960
G01 X250.308 Y243.911
G01 X250.009 Y243.875
G01 X249.707 Y243.855
G01 X249.403 Y243.850
G01 X249.098 Y243.859
G01 X249.093 Y243.860
G01 X248.473 Y239.882
G01 X247.972 Y239.934
G01 X247.471 Y240.012
G01 X246.974 Y240.114
G01 X246.480 Y240.241
G01 X245.992 Y240.392
G01 X245.510 Y240.568
G01 X245.472 Y240.583
G01 X247.218 Y244.260
G01 X246.926 Y244.379
G01 X246.639 Y244.512
G01 X246.358 Y244.661
G01 X246.083 Y244.823
G01 X245.816 Y245.000
G01 X245.557 Y245.191
G01 X245.553 Y245.194
G01 X242.729 Y242.192
G01 X242.329 Y242.533
G01 X241.945 Y242.894
G01 X241.577 Y243.275
G01 X241.228 Y243.675
G01 X240.898 Y244.094
G01 X240.588 Y244.529
G01 X240.583 Y244.536
G01 X244.175 Y246.644
G01 X243.991 Y246.921
G01 X243.821 Y247.208
G01 X243.665 Y247.504
G01 X243.523 Y247.808
G01 X243.395 Y248.121
G01 X243.283 Y248.441
G01 X243.281 Y248.446
G01 X239.166 Y247.530
G01 X239.021 Y248.058
G01 X238.902 Y248.594
G01 X238.810 Y249.138
G01 X238.744 Y249.687
G01 X238.705 Y250.240
G01 X238.693 Y250.797
G01 X238.694 Y250.841
G01 X242.944 Y250.547
G01 X242.950 Y250.897
G01 X242.973 Y251.247
G01 X243.014 Y251.596
G01 X243.072 Y251.945
G01 X243.148 Y252.292
G01 X243.241 Y252.637
G01 X243.243 Y252.642
G01 X239.240 Y254.246
G01 X239.427 Y254.784
G01 X239.641 Y255.314
G01 X239.881 Y255.835
G01 X240.148 Y256.345
G01 X240.441 Y256.843
G01 X240.758 Y257.327
G01 X240.764 Y257.334
G01 X244.188 Y254.645
G01 X244.401 Y254.944
G01 X244.628 Y255.234
G01 X244.871 Y255.514
G01 X245.128 Y255.782
G01 X245.399 Y256.038
G01 X245.684 Y256.281
G01 X245.689 Y256.285
G01 X243.227 Y259.940
G01 X243.703 Y260.294
G01 X244.197 Y260.624
G01 X244.708 Y260.931
G01 X245.236 Y261.213
G01 X245.779 Y261.469
G01 X246.335 Y261.699
G01 X246.380 Y261.716
G01 X247.717 Y257.471
G01 X248.079 Y257.604
G01 X248.448 Y257.720
G01 X248.824 Y257.818
G01 X249.206 Y257.897
G01 X249.593 Y257.957
G01 X249.984 Y257.999
G01 X249.990 Y257.999
G01 X250.024 Y262.501
G01 X250.639 Y262.524
G01 X251.257 Y262.517
G01 X251.875 Y262.479
G01 X252.493 Y262.411
G01 X253.109 Y262.311
G01 X253.720 Y262.182
G01 X253.732 Y262.179
G01 X252.425 Y257.825
G01 X252.817 Y257.727
G01 X253.205 Y257.609
G01 X253.588 Y257.471
G01 X253.965 Y257.314
G01 X254.336 Y257.138
G01 X254.699 Y256.943
G01 X254.705 Y256.939
G01 X257.319 Y260.721
G01 X257.861 Y260.381
G01 X258.386 Y260.013
G01 X258.895 Y259.619
G01 X259.385 Y259.199
G01 X259.855 Y258.754
G01 X260.303 Y258.285
G01 X260.312 Y258.276
G01 X256.710 Y255.351
G01 X256.990 Y255.034
G01 X257.256 Y254.703
G01 X257.506 Y254.357
G01 X257.740 Y253.999
G01 X257.957 Y253.627
G01 X258.155 Y253.245
G01 X258.171 Y253.213
G01 X262.554 Y254.890
G01 X262.817 Y254.281
G01 X263.051 Y253.658
G01 X263.254 Y253.023
G01 X263.427 Y252.376
G01 X263.568 Y251.719
G01 X263.676 Y251.054
G01 X263.678 Y251.042
G01 X258.958 Y250.654
G01 X259.013 Y250.215
G01 X259.046 Y249.771
G01 X259.057 Y249.325
G01 X259.046 Y248.878
G01 X259.013 Y248.429
G01 X258.957 Y247.982
G01 X258.956 Y247.973
G01 X263.616 Y246.874
G01 X263.486 Y246.198
G01 X263.323 Y245.528
G01 X263.126 Y244.865
G01 X262.896 Y244.210
G01 X262.633 Y243.565
G01 X262.338 Y242.932
G01 X262.333 Y242.921
G01 X258.128 Y245.300
G01 X257.917 Y244.888
G01 X257.684 Y244.486
G01 X257.431 Y244.095
G01 X257.158 Y243.715
G01 X256.865 Y243.347
G01 X256.554 Y242.994
G01 X256.548 Y242.987
G01 X259.847 Y239.387
G01 X259.341 Y238.885
G01 X258.810 Y238.406
G01 X258.255 Y237.953
G01 X257.676 Y237.526
G01 X257.075 Y237.128
G01 X256.453 Y236.758
G01 X256.401 Y236.729
G01 X254.233 Y241.153
G01 X253.807 Y240.923
G01 X253.369 Y240.715
G01 X252.920 Y240.528
G01 X252.460 Y240.362
G01 X251.991 Y240.219
G01 X251.514 Y240.098
G01 X251.505 Y240.096
G01 X252.207 Y235.167
G01 X251.481 Y235.034
G01 X250.747 Y234.937
G01 X250.007 Y234.875
G01 X249.262 Y234.850
G01 X248.516 Y234.862
G01 X247.768 Y234.910
G01 X247.755 Y234.912
G01 X248.462 Y239.883
G01 X247.960 Y239.936
G01 X247.460 Y240.014
G01 X246.963 Y240.116
G01 X246.469 Y240.244
G01 X245.981 Y240.396
G01 X245.499 Y240.573
G01 X245.491 Y240.576
G01 X243.257 Y236.020
G01 X242.558 Y236.330
G01 X241.873 Y236.674
G01 X241.205 Y237.053
G01 X240.554 Y237.465
G01 X239.922 Y237.910
G01 X239.311 Y238.387
G01 X239.300 Y238.396
G01 X242.744 Y242.180
G01 X242.343 Y242.520
G01 X241.958 Y242.881
G01 X241.590 Y243.261
G01 X241.240 Y243.661
G01 X240.909 Y244.079
G01 X240.598 Y244.513
G01 X240.574 Y244.550
G01 X236.073 Y242.006
G01 X235.658 Y242.679
G01 X235.276 Y243.374
G01 X234.927 Y244.088
G01 X234.613 Y244.820
G01 X234.334 Y245.569
G01 X234.092 Y246.333
G01 X234.088 Y246.348
G01 X239.160 Y247.548
G01 X239.016 Y248.076
G01 X238.899 Y248.613
G01 X238.807 Y249.156
G01 X238.742 Y249.706
G01 X238.704 Y250.259
G01 X238.694 Y250.816
G01 X238.694 Y250.826
G01 X233.447 Y251.262
G01 X233.484 Y252.078
G01 X233.561 Y252.894
G01 X233.679 Y253.707
G01 X233.837 Y254.516
G01 X234.035 Y255.318
G01 X234.273 Y256.111
G01 X234.278 Y256.125
G01 X239.236 Y254.233
G01 X239.422 Y254.771
G01 X239.636 Y255.302
G01 X239.875 Y255.823
G01 X240.142 Y256.333
G01 X240.433 Y256.831
G01 X240.751 Y257.316
G01 X240.757 Y257.324
G01 X236.590 Y260.695
G01 X237.096 Y261.371
G01 X237.637 Y262.022
G01 X238.210 Y262.648
G01 X238.815 Y263.246
G01 X239.451 Y263.816
G01 X240.115 Y264.355
G01 X240.171 Y264.398
G01 X243.248 Y259.957
G01 X243.725 Y260.309
G01 X244.220 Y260.639
G01 X244.732 Y260.944
G01 X245.261 Y261.225
G01 X245.804 Y261.480
G01 X246.361 Y261.709
G01 X246.371 Y261.713
G01 X244.810 Y266.940
G01 X245.636 Y267.220
G01 X246.477 Y267.459
G01 X247.331 Y267.657
G01 X248.196 Y267.813
G01 X249.070 Y267.927
G01 X249.950 Y267.997
G01 X249.967 Y267.998
G01 X250.016 Y262.501
G01 X250.631 Y262.524
G01 X251.249 Y262.517
G01 X251.868 Y262.480
G01 X252.485 Y262.412
G01 X253.101 Y262.313
G01 X253.713 Y262.183
G01 X253.724 Y262.181
G01 X255.402 Y267.471
G01 X256.269 Y267.230
G01 X257.125 Y266.945
G01 X257.969 Y266.618
G01 X258.797 Y266.249
G01 X259.608 Y265.838
G01 X260.400 Y265.387
G01 X260.415 Y265.378
G01 X257.313 Y260.725
G01 X257.854 Y260.385
G01 X258.380 Y260.018
G01 X258.889 Y259.624
G01 X259.379 Y259.204
G01 X259.849 Y258.760
G01 X260.298 Y258.291
G01 X260.334 Y258.251
G01 X264.783 Y261.727
G01 X265.380 Y261.016
G01 X265.942 Y260.274
G01 X266.469 Y259.504
G01 X266.958 Y258.706
G01 X267.409 Y257.883
G01 X267.820 Y257.037
G01 X267.827 Y257.022
G01 X262.550 Y254.898
G01 X262.814 Y254.289
G01 X263.048 Y253.666
G01 X263.252 Y253.030
G01 X263.425 Y252.384
G01 X263.566 Y251.727
G01 X263.675 Y251.063
G01 X263.677 Y251.050
G01 X269.406 Y251.429
G01 X269.501 Y250.476
G01 X269.550 Y249.518
G01 X269.552 Y248.555
G01 X269.506 Y247.592
G01 X269.412 Y246.629
G01 X269.271 Y245.670
G01 X269.268 Y245.652
G01 X263.618 Y246.882
G01 X263.488 Y246.207
G01 X263.325 Y245.536
G01 X263.129 Y244.873
G01 X262.899 Y244.218
G01 X262.637 Y243.573
G01 X262.342 Y242.940
G01 X262.336 Y242.928
G01 X267.368 Y239.971
G01 X266.897 Y239.104
G01 X266.382 Y238.260
G01 X265.825 Y237.439
G01 X265.227 Y236.645
G01 X264.589 Y235.879
G01 X263.913 Y235.144
G01 X263.855 Y235.085
G01 X259.821 Y239.361
G01 X259.315 Y238.859
G01 X258.782 Y238.382
G01 X258.225 Y237.930
G01 X257.645 Y237.505
G01 X257.043 Y237.108
G01 X256.420 Y236.740
G01 X256.409 Y236.733
G01 X258.930 Y231.364
G01 X258.025 Y230.902
G01 X257.095 Y230.484
G01 X256.144 Y230.111
G01 X255.173 Y229.785
G01 X254.185 Y229.506
G01 X253.182 Y229.275
G01 X253.163 Y229.271
G01 X252.216 Y235.169
G01 X251.490 Y235.035
G01 X250.756 Y234.938
G01 X250.016 Y234.876
G01 X249.271 Y234.850
G01 X248.525 Y234.861
G01 X247.778 Y234.910
G01 X247.764 Y234.911
G01 X246.814 Y228.959
G01 X245.775 Y229.091
G01 X244.742 Y229.274
G01 X243.716 Y229.508
G01 X242.701 Y229.793
G01 X241.698 Y230.128
G01 X240.711 Y230.513
G01 X240.693 Y230.521
G01 X243.265 Y236.017
G01 X242.566 Y236.326
G01 X241.882 Y236.670
G01 X241.213 Y237.048
G01 X240.562 Y237.460
G01 X239.930 Y237.904
G01 X239.319 Y238.381
G01 X239.269 Y238.422
G01 X235.057 Y233.978
G01 X234.252 Y234.695
G01 X233.481 Y235.451
G01 X232.746 Y236.247
G01 X232.050 Y237.080
G01 X231.394 Y237.948
G01 X230.780 Y238.849
G01 X230.769 Y238.866
G01 X236.078 Y241.998
G01 X235.663 Y242.671
G01 X235.280 Y243.365
G01 X234.931 Y244.079
G01 X234.616 Y244.811
G01 X234.338 Y245.560
G01 X234.095 Y246.324
G01 X234.091 Y246.338
G01 X228.016 Y245.013
G01 X227.746 Y246.088
G01 X227.529 Y247.178
G01 X227.365 Y248.280
G01 X227.255 Y249.392
G01 X227.200 Y250.510
G01 X227.200 Y251.632
G01 X227.201 Y251.652
G01 X233.447 Y251.252
G01 X233.483 Y252.068
G01 X233.560 Y252.884
G01 X233.677 Y253.697
G01 X233.835 Y254.506
G01 X234.033 Y255.308
G01 X234.270 Y256.101
G01 X234.275 Y256.116
G01 X228.418 Y258.472
G01 X228.811 Y259.542
G01 X229.258 Y260.595
G01 X229.756 Y261.626
G01 X230.306 Y262.634
G01 X230.906 Y263.617
G01 X231.555 Y264.570
G01 X231.611 Y264.647
G01 X236.615 Y260.731
G01 X237.123 Y261.405
G01 X237.665 Y262.055
G01 X238.241 Y262.680
G01 X238.847 Y263.277
G01 X239.484 Y263.844
G01 X240.150 Y264.382
G01 X240.163 Y264.391
G01 X236.609 Y269.724
G01 X237.565 Y270.403
G01 X238.555 Y271.036
G01 X239.577 Y271.621
G01 X240.630 Y272.157
G01 X241.709 Y272.640
G01 X242.814 Y273.072
G01 X242.835 Y273.079
G01 X244.800 Y266.937
G01 X245.626 Y267.217
G01 X246.467 Y267.456
G01 X247.321 Y267.655
G01 X248.185 Y267.811
G01 X249.059 Y267.926
G01 X249.940 Y267.997
G01 X249.956 Y267.998
G01 X250.017 Y274.501
G01 X251.222 Y274.525
G01 X252.429 Y274.490
G01 X253.636 Y274.396
G01 X254.839 Y274.242
G01 X256.036 Y274.028
G01 X257.224 Y273.756
G01 X257.246 Y273.750
G01 X255.391 Y267.474
G01 X256.258 Y267.233
G01 X257.115 Y266.949
G01 X257.958 Y266.622
G01 X258.787 Y266.254
G01 X259.598 Y265.843
G01 X260.391 Y265.393
G01 X260.455 Y265.354
G01 X264.235 Y270.763
G01 X265.270 Y270.084
G01 X266.273 Y269.353
G01 X267.241 Y268.572
G01 X268.171 Y267.743
G01 X269.061 Y266.866
G01 X269.909 Y265.946
G01 X269.925 Y265.928
G01 X264.775 Y261.736
G01 X265.373 Y261.025
G01 X265.936 Y260.283
G01 X266.463 Y259.513
G01 X266.953 Y258.716
G01 X267.404 Y257.894
G01 X267.815 Y257.048
G01 X267.822 Y257.032
G01 X274.078 Y259.413
G01 X274.565 Y258.238
G01 X274.994 Y257.038
G01 X275.364 Y255.816
G01 X275.674 Y254.575
G01 X275.924 Y253.316
G01 X276.111 Y252.045
G01 X276.114 Y252.021
G01 X269.404 Y251.441
G01 X269.500 Y250.488
G01 X269.550 Y249.529
G01 X269.552 Y248.567
G01 X269.507 Y247.603
G01 X269.414 Y246.641
G01 X269.273 Y245.682
G01 X269.270 Y245.664
G01 X275.875 Y244.092
G01 X275.609 Y242.814
G01 X275.280 Y241.548
G01 X274.888 Y240.297
G01 X274.434 Y239.065
G01 X273.919 Y237.853
G01 X273.343 Y236.666
G01 X273.293 Y236.569
G01 X267.345 Y239.926
G01 X266.871 Y239.060
G01 X266.355 Y238.216
G01 X265.796 Y237.397
G01 X265.195 Y236.604
G01 X264.555 Y235.840
G01 X263.877 Y235.107
G01 X263.864 Y235.094
G01 X268.490 Y229.994
G01 X267.523 Y229.067
G01 X266.510 Y228.186
G01 X265.452 Y227.354
G01 X264.353 Y226.574
G01 X263.214 Y225.847
G01 X262.038 Y225.176
G01 X262.016 Y225.164
G01 X258.941 Y231.370
G01 X258.036 Y230.907
G01 X257.107 Y230.488
G01 X256.156 Y230.115
G01 X255.185 Y229.788
G01 X254.197 Y229.509
G01 X253.194 Y229.278
G01 X253.176 Y229.274
G01 X254.146 Y222.362
G01 X252.791 Y222.133
G01 X251.423 Y221.971
G01 X250.046 Y221.877
G01 X248.663 Y221.850
G01 X247.278 Y221.891
G01 X245.893 Y222.000
G01 X245.868 Y222.003
G01 X246.827 Y228.958
G01 X245.788 Y229.089
G01 X244.754 Y229.271
G01 X243.729 Y229.504
G01 X242.713 Y229.789
G01 X241.711 Y230.123
G01 X240.723 Y230.508
G01 X240.643 Y230.542
G01 X237.495 Y224.205
G01 X236.216 Y224.797
G01 X234.965 Y225.453
G01 X233.745 Y226.172
G01 X232.560 Y226.951
G01 X231.412 Y227.789
G01 X230.304 Y228.684
G01 X230.284 Y228.701
G01 X235.067 Y233.970
G01 X234.262 Y234.685
G01 X233.490 Y235.442
G01 X232.755 Y236.237
G01 X232.058 Y237.069
G01 X231.402 Y237.937
G01 X230.788 Y238.838
G01 X230.777 Y238.855
G01 X224.528 Y235.339
G01 X223.785 Y236.579
G01 X223.104 Y237.857
G01 X222.484 Y239.169
G01 X221.929 Y240.513
G01 X221.440 Y241.885
G01 X221.017 Y243.283
G01 X221.010 Y243.309
G01 X228.020 Y245.000
G01 X227.749 Y246.075
G01 X227.531 Y247.165
G01 X227.367 Y248.267
G01 X227.256 Y249.378
G01 X227.201 Y250.496
G01 X227.200 Y251.618
G01 X227.200 Y251.638
G01 X219.961 Y252.254
G01 X220.047 Y253.732
G01 X220.206 Y255.208
G01 X220.438 Y256.677
G01 X220.743 Y258.136
G01 X221.120 Y259.581
G01 X221.568 Y261.008
G01 X221.608 Y261.125
G01 X228.437 Y258.527
G01 X228.833 Y259.597
G01 X229.282 Y260.649
G01 X229.783 Y261.679
G01 X230.336 Y262.686
G01 X230.939 Y263.667
G01 X231.590 Y264.619
G01 X231.603 Y264.636
G01 X225.903 Y269.295
G01 X226.833 Y270.494
G01 X227.822 Y271.650
G01 X228.869 Y272.757
G01 X229.972 Y273.813
G01 X231.127 Y274.816
G01 X232.333 Y275.763
G01 X232.355 Y275.780
G01 X236.597 Y269.715
G01 X237.553 Y270.395
G01 X238.542 Y271.029
G01 X239.565 Y271.614
G01 X240.617 Y272.150
G01 X241.696 Y272.635
G01 X242.801 Y273.067
G01 X242.821 Y273.074
G01 X240.701 Y280.223
G01 X242.180 Y280.703
G01 X243.683 Y281.111
G01 X245.208 Y281.445
G01 X246.751 Y281.704
G01 X248.307 Y281.888
G01 X249.873 Y281.995
G01 X249.902 Y281.996
G01 X250.002 Y274.500
G01 X251.207 Y274.525
G01 X252.414 Y274.491
G01 X253.621 Y274.397
G01 X254.825 Y274.244
G01 X256.022 Y274.031
G01 X257.210 Y273.759
G01 X257.307 Y273.734
G01 X258.467 Y277.328
G01 X259.626 Y280.922
G01 X261.154 Y280.471
G01 X262.660 Y279.945
G01 X264.141 Y279.345
G01 X265.594 Y278.671
G01 X267.015 Y277.925
G01 X268.400 Y277.109
G01 X268.426 Y277.093
G01 X266.324 Y273.932
G01 X264.222 Y270.771
G01 X265.258 Y270.093
G01 X266.261 Y269.362
G01 X267.229 Y268.582
G01 X268.160 Y267.753
G01 X269.051 Y266.878
G01 X269.899 Y265.957
G01 X269.915 Y265.940
G01 X272.932 Y268.288
G01 X275.949 Y270.637
G01 X276.982 Y269.376
G01 X277.954 Y268.063
G01 X278.862 Y266.702
G01 X279.704 Y265.294
G01 X280.476 Y263.845
G01 X281.178 Y262.356
G01 X281.191 Y262.329
G01 X277.631 Y260.878
G01 X274.072 Y259.428
G01 X274.559 Y258.253
G01 X274.989 Y257.053
G01 X275.360 Y255.831
G01 X275.671 Y254.590
G01 X275.921 Y253.332
G01 X276.109 Y252.061
G01 X276.112 Y252.037
G01 X279.975 Y252.285
G01 X283.839 Y252.533
G01 X283.987 Y250.871
G01 X284.053 Y249.201
G01 X284.037 Y247.526
G01 X283.939 Y245.851
G01 X283.758 Y244.180
G01 X283.495 Y242.516
G01 X283.469 Y242.380
G01 X279.666 Y243.203
G01 X275.863 Y244.026
G01 X275.593 Y242.749
G01 X275.261 Y241.483
G01 X274.866 Y240.233
G01 X274.409 Y239.001
G01 X273.890 Y237.791
G01 X273.312 Y236.605
G01 X273.301 Y236.583
G01 X276.670 Y234.581
G01 X280.038 Y232.578
G01 X279.202 Y231.090
G01 X278.292 Y229.641
G01 X277.310 Y228.237
G01 X276.258 Y226.880
G01 X275.139 Y225.574
G01 X273.955 Y224.322
G01 X273.932 Y224.300
G01 X271.217 Y227.153
G01 X268.501 Y230.006
G01 X267.535 Y229.078
G01 X266.522 Y228.197
G01 X265.465 Y227.364
G01 X264.366 Y226.583
G01 X263.228 Y225.856
G01 X262.052 Y225.184
G01 X262.030 Y225.172
G01 X263.710 Y221.579
G01 X265.389 Y217.985
G01 X263.825 Y217.208
G01 X262.222 Y216.507
G01 X260.583 Y215.884
G01 X258.913 Y215.342
G01 X257.215 Y214.882
G01 X255.493 Y214.505
G01 X255.461 Y214.499
G01 X254.812 Y218.432
G01 X254.163 Y222.365
G01 X252.807 Y222.136
G01 X251.440 Y221.973
G01 X250.063 Y221.877
G01 X248.680 Y221.850
G01 X247.295 Y221.890
G01 X245.910 Y221.999
G01 X245.796 Y222.011
G01 X245.144 Y218.050
G01 X244.491 Y214.089
G01 X242.722 Y214.337
G01 X240.965 Y214.672
G01 X239.222 Y215.094
G01 X237.500 Y215.602
G01 X235.801 Y216.196
G01 X234.131 Y216.873
G01 X234.100 Y216.886
G01 X235.806 Y220.542
G01 X237.511 Y224.198
G01 X236.232 Y224.790
G01 X234.980 Y225.445
G01 X233.760 Y226.163
G01 X232.574 Y226.941
G01 X231.426 Y227.778
G01 X230.317 Y228.673
G01 X230.297 Y228.690
G01 X227.497 Y225.747
G01 X224.697 Y222.805
G01 X223.345 Y224.032
G01 X222.052 Y225.326
G01 X220.823 Y226.685
G01 X219.659 Y228.105
G01 X218.565 Y229.584
G01 X217.542 Y231.117
G01 X217.524 Y231.146
G01 X221.030 Y233.235
G01 X224.537 Y235.324
G01 X223.794 Y236.563
G01 X223.112 Y237.841
G01 X222.491 Y239.153
G01 X221.935 Y240.496
G01 X221.445 Y241.868
G01 X221.022 Y243.266
G01 X221.015 Y243.292
G01 X216.998 Y242.423
G01 X212.982 Y241.555
G01 X212.545 Y243.370
G01 X212.197 Y245.207
G01 X211.939 Y247.062
G01 X211.772 Y248.932
G01 X211.698 Y250.810
G01 X211.715 Y252.693
G01 X211.721 Y252.848
G01 X215.842 Y252.589
G01 X219.963 Y252.330
G01 X220.054 Y253.809
G01 X220.217 Y255.284
G01 X220.453 Y256.753
G01 X220.761 Y258.211
G01 X221.141 Y259.655
G01 X221.593 Y261.082
G01 X221.602 Y261.108
G01 X217.753 Y262.679
G01 X213.904 Y264.250
G01 X214.584 Y266.032
G01 X215.352 Y267.782
G01 X216.206 Y269.495
G01 X217.146 Y271.167
G01 X218.168 Y272.794
G01 X219.271 Y274.371
G01 X219.292 Y274.400
G01 X222.592 Y271.840
G01 X225.892 Y269.279
G01 X226.821 Y270.480
G01 X227.810 Y271.636
G01 X228.856 Y272.743
G01 X229.958 Y273.801
G01 X231.113 Y274.804
G01 X232.318 Y275.752
G01 X232.340 Y275.769
G01 X230.015 Y279.272
G01 X227.689 Y282.776
G01 X229.288 Y283.890
G01 X230.943 Y284.927
G01 X232.649 Y285.883
G01 X234.403 Y286.755
G01 X236.202 Y287.542
G01 X238.039 Y288.240
G01 X238.074 Y288.252
G01 X239.379 Y284.234
G01 X240.683 Y280.217
G01 X242.162 Y280.698
G01 X243.665 Y281.106
G01 X245.189 Y281.441
G01 X246.732 Y281.701
G01 X248.288 Y281.886
G01 X249.854 Y281.994
G01 X249.984 Y281.999
G01 X250.045 Y286.251
G01 X250.106 Y290.504
G01 X252.097 Y290.520
G01 X254.090 Y290.438
G01 X256.080 Y290.259
G01 X258.062 Y289.981
G01 X260.031 Y289.606
G01 X261.983 Y289.133
G01 X262.008 Y289.127
G01 X260.803 Y285.028
G01 X259.598 Y280.929
G01 X261.126 Y280.480
G01 X262.633 Y279.956
G01 X264.115 Y279.357
G01 X265.568 Y278.684
G01 X266.990 Y277.939
G01 X268.376 Y277.124
G01 X268.393 Y277.114
G01 X270.860 Y280.635
G01 X273.328 Y284.157
G01 X275.019 Y283.028
G01 X276.655 Y281.815
G01 X278.232 Y280.521
G01 X279.747 Y279.149
G01 X281.195 Y277.702
G01 X282.572 Y276.182
G01 X282.674 Y276.063
G01 X279.330 Y273.329
G01 X275.986 Y270.594
G01 X277.017 Y269.332
G01 X277.986 Y268.017
G01 X278.892 Y266.654
G01 X279.731 Y265.246
G01 X280.502 Y263.795
G01 X281.201 Y262.305
G01 X281.209 Y262.286
G01 X285.279 Y263.816
G01 X289.349 Y265.347
G01 X290.122 Y263.421
G01 X290.802 Y261.455
G01 X291.385 Y259.455
G01 X291.870 Y257.426
G01 X292.255 Y255.372
G01 X292.540 Y253.297
G01 X292.543 Y253.271
G01 X288.193 Y252.883
G01 X283.843 Y252.495
G01 X283.989 Y250.833
G01 X284.054 Y249.163
G01 X284.036 Y247.488
G01 X283.936 Y245.813
G01 X283.753 Y244.142
G01 X283.488 Y242.479
G01 X283.484 Y242.458
G01 X287.756 Y241.426
G01 X292.029 Y240.394
G01 X291.577 Y238.324
G01 X291.023 Y236.275
G01 X290.368 Y234.252
G01 X289.613 Y232.260
G01 X288.760 Y230.305
G01 X287.810 Y228.391
G01 X287.733 Y228.246
G01 X283.881 Y230.404
G01 X280.029 Y232.561
G01 X279.192 Y231.073
G01 X278.281 Y229.626
G01 X277.299 Y228.222
G01 X276.246 Y226.865
G01 X275.126 Y225.560
G01 X273.941 Y224.309
G01 X273.926 Y224.293
G01 X276.902 Y220.994
G01 X279.878 Y217.695
G01 X278.304 Y216.212
G01 X276.656 Y214.805
G01 X274.939 Y213.479
G01 X273.155 Y212.236
G01 X271.310 Y211.081
G01 X269.406 Y210.016
G01 X269.382 Y210.003
G01 X267.386 Y213.995
G01 X265.390 Y217.986
G01 X263.826 Y217.208
G01 X262.223 Y216.507
G01 X260.584 Y215.885
G01 X258.914 Y215.343
G01 X257.216 Y214.882
G01 X255.494 Y214.505
G01 X255.362 Y214.480
G01 X255.962 Y210.029
G01 X256.563 Y205.579
G01 X254.382 Y205.236
G01 X252.184 Y205.001
G01 X249.974 Y204.874
G01 X247.756 Y204.855
G01 X245.536 Y204.946
G01 X243.320 Y205.146
G01 X243.292 Y205.149
G01 X243.902 Y209.618
G01 X244.513 Y214.086
G01 X242.744 Y214.333
G01 X240.986 Y214.668
G01 X239.244 Y215.089
G01 X237.521 Y215.596
G01 X235.822 Y216.188
G01 X234.151 Y216.864
G01 X234.130 Y216.873
G01 X232.105 Y212.812
G01 X230.079 Y208.751
G01 X228.043 Y209.712
G01 X226.054 Y210.774
G01 X224.116 Y211.934
G01 X222.234 Y213.190
G01 X220.413 Y214.539
G01 X218.658 Y215.979
G01 X218.636 Y215.997
G01 X221.683 Y219.387
G01 X224.730 Y222.776
G01 X223.377 Y224.002
G01 X222.083 Y225.295
G01 X220.851 Y226.652
G01 X219.686 Y228.071
G01 X218.590 Y229.548
G01 X217.566 Y231.080
G01 X217.490 Y231.199
G01 X213.484 Y228.967
G01 X209.478 Y226.735
G01 X208.318 Y228.717
G01 X207.254 Y230.757
G01 X206.291 Y232.849
G01 X205.431 Y234.991
G01 X204.675 Y237.175
G01 X204.026 Y239.397
G01 X204.019 Y239.426
G01 X208.493 Y240.516
G01 X212.968 Y241.606
G01 X212.533 Y243.422
G01 X212.188 Y245.260
G01 X211.933 Y247.115
G01 X211.769 Y248.985
G01 X211.697 Y250.864
G01 X211.717 Y252.747
G01 X211.718 Y252.771
G01 X207.103 Y253.180
G01 X202.487 Y253.589
G01 X202.645 Y255.925
G01 X202.917 Y258.255
G01 X203.304 Y260.572
G01 X203.806 Y262.871
G01 X204.420 Y265.147
G01 X205.147 Y267.393
G01 X205.207 Y267.563
G01 X209.561 Y265.922
G01 X213.915 Y264.280
G01 X214.596 Y266.062
G01 X215.366 Y267.811
G01 X216.222 Y269.524
G01 X217.162 Y271.195
G01 X218.186 Y272.821
G01 X219.290 Y274.398
G01 X219.304 Y274.417
G01 X215.688 Y277.391
G01 X212.073 Y280.364
G01 X213.551 Y282.240
G01 X215.121 Y284.044
G01 X216.781 Y285.771
G01 X218.527 Y287.416
G01 X220.354 Y288.977
G01 X222.258 Y290.449
G01 X222.283 Y290.467
G01 X224.990 Y286.624
G01 X227.698 Y282.782
G01 X229.297 Y283.896
G01 X230.952 Y284.932
G01 X232.658 Y285.888
G01 X234.413 Y286.760
G01 X236.211 Y287.546
G01 X238.049 Y288.244
G01 X238.073 Y288.252
G01 X236.740 Y292.789
G01 X235.406 Y297.326
G01 X237.727 Y298.061
G01 X240.084 Y298.681
G01 X242.473 Y299.186
G01 X244.888 Y299.574
G01 X247.322 Y299.843
G01 X249.771 Y299.992
G01 X249.959 Y299.999
G01 X250.026 Y295.251
G01 X250.094 Y290.503
G01 X252.085 Y290.520
G01 X254.077 Y290.439
G01 X256.067 Y290.260
G01 X258.049 Y289.983
G01 X260.019 Y289.608
G01 X261.971 Y289.137
G01 X261.995 Y289.130
G01 X263.471 Y293.673
G01 X264.947 Y298.216
G01 X267.322 Y297.498
G01 X269.662 Y296.664
G01 X271.962 Y295.714
G01 X274.216 Y294.650
G01 X276.419 Y293.475
G01 X278.564 Y292.192
G01 X278.591 Y292.175
G01 X275.954 Y288.169
G01 X273.317 Y284.164
G01 X275.008 Y283.035
G01 X276.645 Y281.823
G01 X278.223 Y280.530
G01 X279.737 Y279.158
G01 X281.186 Y277.711
G01 X282.563 Y276.192
G01 X282.666 Y276.073
G01 X286.486 Y279.019
G01 X290.307 Y281.965
G01 X291.891 Y279.995
G01 X293.379 Y277.946
G01 X294.767 Y275.824
G01 X296.051 Y273.632
G01 X297.228 Y271.377
G01 X298.293 Y269.063
G01 X298.306 Y269.033
G01 X293.825 Y267.196
G01 X289.343 Y265.359
G01 X290.118 Y263.433
G01 X290.798 Y261.468
G01 X291.382 Y259.468
G01 X291.867 Y257.439
G01 X292.253 Y255.385
G01 X292.538 Y253.311
G01 X292.541 Y253.284
G01 X297.404 Y253.577
G01 X302.268 Y253.870
G01 X302.475 Y251.303
G01 X302.556 Y248.724
G01 X302.510 Y246.141
G01 X302.337 Y243.559
G01 X302.037 Y240.985
G01 X301.610 Y238.425
G01 X301.572 Y238.230
G01 X296.789 Y239.252
G01 X292.006 Y240.274
G01 X291.548 Y238.205
G01 X290.988 Y236.157
G01 X290.327 Y234.136
G01 X289.566 Y232.147
G01 X288.707 Y230.194
G01 X287.752 Y228.282
G01 X287.739 Y228.258
G01 X291.960 Y225.730
G01 X296.180 Y223.202
G01 X294.878 Y220.924
G01 X293.462 Y218.710
G01 X291.938 Y216.564
G01 X290.308 Y214.493
G01 X288.575 Y212.502
G01 X286.744 Y210.595
G01 X286.720 Y210.572
G01 X283.304 Y214.138
G01 X279.888 Y217.705
G01 X278.314 Y216.221
G01 X276.667 Y214.814
G01 X274.950 Y213.487
G01 X273.167 Y212.244
G01 X271.322 Y211.088
G01 X269.419 Y210.023
G01 X269.394 Y210.010
G01 X271.484 Y205.504
G01 X273.575 Y200.998
G01 X271.174 Y199.825
G01 X268.714 Y198.770
G01 X266.202 Y197.835
G01 X263.644 Y197.024
G01 X261.044 Y196.338
G01 X258.410 Y195.780
G01 X258.207 Y195.743
G01 X257.392 Y200.662
G01 X256.576 Y205.581
G01 X254.396 Y205.238
G01 X252.198 Y205.002
G01 X249.988 Y204.874
G01 X247.770 Y204.855
G01 X245.550 Y204.945
G01 X243.334 Y205.144
G01 X243.306 Y205.148
G01 X242.479 Y200.201
G01 X241.653 Y195.255
G01 X238.961 Y195.649
G01 X236.287 Y196.177
G01 X233.638 Y196.836
G01 X231.021 Y197.625
G01 X228.442 Y198.543
G01 X225.908 Y199.589
G01 X225.876 Y199.603
G01 X227.984 Y204.174
G01 X230.092 Y208.745
G01 X228.056 Y209.705
G01 X226.067 Y210.767
G01 X224.128 Y211.926
G01 X222.246 Y213.182
G01 X220.425 Y214.530
G01 X218.669 Y215.969
G01 X218.537 Y216.083
G01 X215.030 Y212.432
G01 X211.522 Y208.781
G01 X209.487 Y210.661
G01 X207.543 Y212.641
G01 X205.696 Y214.718
G01 X203.950 Y216.886
G01 X202.311 Y219.140
G01 X200.782 Y221.475
G01 X200.764 Y221.505
G01 X205.125 Y224.114
G01 X209.485 Y226.722
G01 X208.325 Y228.704
G01 X207.261 Y230.743
G01 X206.297 Y232.836
G01 X205.436 Y234.977
G01 X204.679 Y237.161
G01 X204.030 Y239.383
G01 X204.023 Y239.412
G01 X199.023 Y238.353
G01 X194.024 Y237.294
G01 X193.385 Y240.041
G01 X192.882 Y242.821
G01 X192.514 Y245.626
G01 X192.285 Y248.450
G01 X192.195 Y251.285
G01 X192.244 Y254.126
G01 X192.245 Y254.162
G01 X197.366 Y253.868
G01 X202.486 Y253.574
G01 X202.643 Y255.911
G01 X202.915 Y258.240
G01 X203.301 Y260.558
G01 X203.802 Y262.857
G01 X204.416 Y265.132
G01 X205.142 Y267.379
G01 X205.202 Y267.549
G01 X200.434 Y269.516
G01 X195.665 Y271.482
G01 X196.708 Y274.157
G01 X197.882 Y276.782
G01 X199.186 Y279.349
G01 X200.616 Y281.853
G01 X202.170 Y284.287
G01 X203.843 Y286.645
G01 X203.865 Y286.675
G01 X207.965 Y283.514
G01 X212.064 Y280.352
G01 X213.541 Y282.228
G01 X215.111 Y284.032
G01 X216.770 Y285.760
G01 X218.515 Y287.406
G01 X220.342 Y288.968
G01 X222.246 Y290.440
G01 X222.271 Y290.458
G01 X219.405 Y294.804
G01 X216.540 Y299.149
G01 X218.947 Y300.805
G01 X221.436 Y302.342
G01 X224.002 Y303.758
G01 X226.638 Y305.047
G01 X229.337 Y306.207
G01 X232.095 Y307.235
G01 X232.309 Y307.308
G01 X233.924 Y302.340
G01 X235.539 Y297.371
G01 X237.862 Y298.099
G01 X240.221 Y298.714
G01 X242.612 Y299.212
G01 X245.027 Y299.593
G01 X247.463 Y299.855
G01 X249.912 Y299.997
G01 X249.943 Y299.998
G01 X250.032 Y305.251
G01 X250.121 Y310.503
G01 X253.094 Y310.511
G01 X256.068 Y310.372
G01 X259.036 Y310.086
G01 X261.990 Y309.655
G01 X264.924 Y309.078
G01 X267.830 Y308.357
G01 X267.867 Y308.347
G01 X266.399 Y303.284
G01 X264.931 Y298.220
G01 X267.306 Y297.503
G01 X269.647 Y296.669
G01 X271.947 Y295.720
G01 X274.202 Y294.657
G01 X276.405 Y293.483
G01 X278.551 Y292.201
G01 X278.578 Y292.184
G01 X281.630 Y296.517
G01 X284.683 Y300.851
G01 X287.188 Y299.157
G01 X289.611 Y297.340
G01 X291.946 Y295.403
G01 X294.185 Y293.351
G01 X296.324 Y291.188
G01 X298.356 Y288.920
G01 X298.508 Y288.742
G01 X294.402 Y285.360
G01 X290.297 Y281.977
G01 X291.882 Y280.008
G01 X293.370 Y277.959
G01 X294.759 Y275.837
G01 X296.043 Y273.646
G01 X297.220 Y271.391
G01 X298.287 Y269.078
G01 X298.300 Y269.048
G01 X303.311 Y270.919
G01 X308.322 Y272.789
G01 X309.453 Y269.928
G01 X310.443 Y267.010
G01 X311.290 Y264.044
G01 X311.992 Y261.035
G01 X312.546 Y257.991
G01 X312.950 Y254.919
G01 X312.954 Y254.880
G01 X307.610 Y254.383
G01 X302.266 Y253.886
G01 X302.474 Y251.319
G01 X302.556 Y248.741
G01 X302.510 Y246.158
G01 X302.338 Y243.576
G01 X302.039 Y241.002
G01 X301.613 Y238.442
G01 X301.575 Y238.246
G01 X306.813 Y236.950
G01 X312.052 Y235.653
G01 X311.358 Y232.602
G01 X310.514 Y229.584
G01 X309.522 Y226.607
G01 X308.383 Y223.678
G01 X307.100 Y220.805
G01 X305.675 Y217.994
G01 X305.656 Y217.959
G01 X300.922 Y220.588
G01 X296.188 Y223.216
G01 X294.886 Y220.938
G01 X293.472 Y218.724
G01 X291.948 Y216.578
G01 X290.318 Y214.506
G01 X288.586 Y212.514
G01 X286.756 Y210.607
G01 X286.732 Y210.583
G01 X290.368 Y206.532
G01 X294.004 Y202.481
G01 X291.677 Y200.310
G01 X289.242 Y198.254
G01 X286.706 Y196.318
G01 X284.075 Y194.505
G01 X281.354 Y192.822
G01 X278.549 Y191.272
G01 X278.513 Y191.253
G01 X276.051 Y196.129
G01 X273.590 Y201.006
G01 X271.189 Y199.832
G01 X268.730 Y198.776
G01 X266.219 Y197.841
G01 X263.660 Y197.029
G01 X261.061 Y196.342
G01 X258.427 Y195.783
G01 X258.224 Y195.746
G01 X258.945 Y190.302
G01 X259.665 Y184.857
G01 X256.466 Y184.372
G01 X253.242 Y184.044
G01 X250.002 Y183.875
G01 X246.753 Y183.864
G01 X243.503 Y184.014
G01 X240.260 Y184.323
G01 X240.219 Y184.328
G01 X240.945 Y189.790
G01 X241.670 Y195.253
G01 X238.978 Y195.646
G01 X236.304 Y196.173
G01 X233.655 Y196.831
G01 X231.037 Y197.620
G01 X228.458 Y198.537
G01 X225.924 Y199.582
G01 X225.892 Y199.596
G01 X223.407 Y194.645
G01 X220.923 Y189.694
G01 X217.955 Y191.114
G01 X215.058 Y192.680
G01 X212.236 Y194.389
G01 X209.498 Y196.236
G01 X206.851 Y198.219
G01 X204.301 Y200.332
G01 X204.110 Y200.499
G01 X207.822 Y204.634
G01 X211.535 Y208.770
G01 X209.499 Y210.649
G01 X207.555 Y212.628
G01 X205.707 Y214.704
G01 X203.961 Y216.872
G01 X202.321 Y219.125
G01 X200.792 Y221.460
G01 X200.773 Y221.490
G01 X195.886 Y218.783
G01 X190.998 Y216.076
G01 X189.323 Y218.971
G01 X187.791 Y221.948
G01 X186.404 Y225.001
G01 X185.168 Y228.122
G01 X184.084 Y231.305
G01 X183.158 Y234.541
G01 X183.147 Y234.582
G01 X188.587 Y235.930
G01 X194.028 Y237.277
G01 X193.389 Y240.024
G01 X192.884 Y242.803
G01 X192.516 Y245.608
G01 X192.286 Y248.432
G01 X192.195 Y251.267
G01 X192.243 Y254.108
G01 X192.253 Y254.326
G01 X186.643 Y254.855
G01 X181.033 Y255.384
G01 X181.289 Y258.774
G01 X181.711 Y262.151
G01 X182.300 Y265.507
G01 X183.054 Y268.835
G01 X183.971 Y272.127
G01 X185.051 Y275.374
G01 X185.065 Y275.414
G01 X190.363 Y273.440
G01 X195.659 Y271.465
G01 X196.701 Y274.141
G01 X197.874 Y276.766
G01 X199.177 Y279.333
G01 X200.606 Y281.838
G01 X202.159 Y284.272
G01 X203.832 Y286.631
G01 X203.854 Y286.660
G01 X199.475 Y290.280
G01 X195.095 Y293.901
G01 X197.246 Y296.604
G01 X199.530 Y299.201
G01 X201.941 Y301.686
G01 X204.475 Y304.053
G01 X207.126 Y306.295
G01 X209.888 Y308.408
G01 X209.923 Y308.434
G01 X213.224 Y303.786
G01 X216.525 Y299.139
G01 X218.932 Y300.795
G01 X221.421 Y302.333
G01 X223.986 Y303.749
G01 X226.621 Y305.040
G01 X229.320 Y306.201
G01 X232.077 Y307.229
G01 X232.291 Y307.302
G01 X230.706 Y312.809
G01 X229.122 Y318.316
G01 X232.476 Y319.349
G01 X235.882 Y320.217
G01 X239.330 Y320.917
G01 X242.814 Y321.448
G01 X246.323 Y321.808
G01 X249.851 Y321.996
G01 X249.895 Y321.997
G01 X249.999 Y316.250
G01 X250.102 Y310.503
G01 X253.075 Y310.511
G01 X256.049 Y310.373
G01 X259.017 Y310.089
G01 X261.972 Y309.658
G01 X264.906 Y309.082
G01 X267.812 Y308.362
G01 X267.848 Y308.352
G01 X269.647 Y313.843
G01 X271.446 Y319.333
G01 X274.854 Y318.286
G01 X278.211 Y317.071
G01 X281.509 Y315.691
G01 X284.739 Y314.149
G01 X287.894 Y312.448
G01 X290.965 Y310.591
G01 X291.197 Y310.443
G01 X288.013 Y305.600
G01 X284.829 Y300.757
G01 X287.331 Y299.056
G01 X289.749 Y297.231
G01 X292.077 Y295.288
G01 X294.311 Y293.229
G01 X296.444 Y291.060
G01 X298.470 Y288.786
G01 X298.495 Y288.757
G01 X303.117 Y292.302
G01 X307.739 Y295.848
G01 X309.997 Y293.015
G01 X312.115 Y290.071
G01 X314.089 Y287.022
G01 X315.913 Y283.876
G01 X317.582 Y280.641
G01 X319.093 Y277.323
G01 X319.111 Y277.280
G01 X313.712 Y275.044
G01 X308.314 Y272.807
G01 X309.446 Y269.946
G01 X310.437 Y267.029
G01 X311.286 Y264.062
G01 X311.988 Y261.054
G01 X312.543 Y258.010
G01 X312.948 Y254.938
G01 X312.952 Y254.899
G01 X318.815 Y255.238
G01 X324.678 Y255.576
G01 X324.958 Y251.908
G01 X325.057 Y248.225
G01 X324.975 Y244.537
G01 X324.711 Y240.853
G01 X324.267 Y237.182
G01 X323.642 Y233.533
G01 X323.587 Y233.254
G01 X317.821 Y234.463
G01 X312.056 Y235.673
G01 X311.363 Y232.621
G01 X310.520 Y229.603
G01 X309.529 Y226.626
G01 X308.391 Y223.696
G01 X307.108 Y220.823
G01 X305.684 Y218.012
G01 X305.666 Y217.977
G01 X310.737 Y214.922
G01 X315.808 Y211.866
G01 X313.939 Y208.631
G01 X311.910 Y205.487
G01 X309.727 Y202.442
G01 X307.394 Y199.505
G01 X304.917 Y196.683
G01 X302.300 Y193.982
G01 X302.266 Y193.948
G01 X298.142 Y198.221
G01 X294.019 Y202.495
G01 X291.692 Y200.324
G01 X289.258 Y198.267
G01 X286.723 Y196.329
G01 X284.092 Y194.516
G01 X281.371 Y192.832
G01 X278.567 Y191.281
G01 X278.349 Y191.168
G01 X280.830 Y185.740
G01 X283.311 Y180.312
G01 X279.889 Y178.671
G01 X276.386 Y177.199
G01 X272.811 Y175.899
G01 X269.172 Y174.775
G01 X265.477 Y173.829
G01 X261.735 Y173.066
G01 X261.688 Y173.057
G01 X260.687 Y178.959
G01 X259.685 Y184.861
G01 X256.486 Y184.375
G01 X253.263 Y184.046
G01 X250.023 Y183.875
G01 X246.774 Y183.864
G01 X243.524 Y184.013
G01 X240.281 Y184.321
G01 X240.240 Y184.326
G01 X239.234 Y178.395
G01 X238.228 Y172.464
G01 X234.418 Y173.039
G01 X230.636 Y173.801
G01 X226.892 Y174.749
G01 X223.194 Y175.881
G01 X219.552 Y177.195
G01 X215.974 Y178.689
G01 X215.929 Y178.709
G01 X218.435 Y184.197
G01 X220.942 Y189.686
G01 X217.974 Y191.105
G01 X215.076 Y192.670
G01 X212.254 Y194.377
G01 X209.515 Y196.224
G01 X206.868 Y198.206
G01 X204.317 Y200.318
G01 X204.125 Y200.485
G01 X199.913 Y196.123
G01 X195.701 Y191.761
G01 X192.838 Y194.426
G01 X190.106 Y197.233
G01 X187.512 Y200.174
G01 X185.062 Y203.242
G01 X182.763 Y206.431
G01 X180.621 Y209.733
G01 X180.595 Y209.775
G01 X185.802 Y212.917
G01 X191.009 Y216.058
G01 X189.334 Y218.952
G01 X187.800 Y221.929
G01 X186.413 Y224.981
G01 X185.175 Y228.102
G01 X184.091 Y231.284
G01 X183.163 Y234.520
G01 X183.152 Y234.561
G01 X177.170 Y233.310
G01 X171.188 Y232.059
G01 X170.305 Y235.931
G01 X169.612 Y239.846
G01 X169.111 Y243.795
G01 X168.805 Y247.768
G01 X168.694 Y251.757
G01 X168.779 Y255.752
G01 X168.793 Y256.058
G01 X174.913 Y255.710
G01 X181.032 Y255.362
G01 X181.287 Y258.752
G01 X181.708 Y262.129
G01 X182.296 Y265.486
G01 X183.049 Y268.814
G01 X183.965 Y272.106
G01 X185.043 Y275.353
G01 X185.058 Y275.394
G01 X179.371 Y277.757
G01 X173.683 Y280.119
G01 X175.161 Y283.869
G01 X176.824 Y287.546
G01 X178.667 Y291.141
G01 X180.688 Y294.646
G01 X182.880 Y298.052
G01 X185.240 Y301.350
G01 X185.271 Y301.391
G01 X190.176 Y297.637
G01 X195.082 Y293.884
G01 X197.232 Y296.587
G01 X199.515 Y299.185
G01 X201.926 Y301.671
G01 X204.459 Y304.038
G01 X207.109 Y306.282
G01 X209.870 Y308.395
G01 X209.905 Y308.421
G01 X206.502 Y313.611
G01 X203.099 Y318.801
G01 X206.478 Y321.106
G01 X209.971 Y323.244
G01 X213.569 Y325.211
G01 X217.264 Y327.001
G01 X221.047 Y328.609
G01 X224.909 Y330.031
G01 X225.208 Y330.133
G01 X227.154 Y324.220
G01 X229.101 Y318.308
G01 X232.455 Y319.342
G01 X235.860 Y320.211
G01 X239.308 Y320.913
G01 X242.791 Y321.446
G01 X246.300 Y321.807
G01 X249.828 Y321.995
G01 X249.873 Y321.997
G01 X249.995 Y328.250
G01 X250.117 Y334.503
G01 X254.268 Y334.497
G01 X258.419 Y334.287
G01 X262.560 Y333.873
G01 X266.680 Y333.255
G01 X270.770 Y332.435
G01 X274.820 Y331.414
G01 X274.870 Y331.400
G01 X273.147 Y325.370
G01 X271.424 Y319.339
G01 X274.833 Y318.293
G01 X278.190 Y317.079
G01 X281.488 Y315.700
G01 X284.719 Y314.159
G01 X287.874 Y312.459
G01 X290.946 Y310.603
G01 X291.178 Y310.455
G01 X294.836 Y315.586
G01 X298.494 Y320.718
G01 X301.968 Y318.335
G01 X305.324 Y315.781
G01 X308.555 Y313.063
G01 X311.652 Y310.185
G01 X314.608 Y307.155
G01 X317.414 Y303.980
G01 X317.449 Y303.939
G01 X312.587 Y299.902
G01 X307.725 Y295.866
G01 X309.983 Y293.033
G01 X312.102 Y290.090
G01 X314.077 Y287.042
G01 X315.902 Y283.897
G01 X317.572 Y280.662
G01 X319.084 Y277.344
G01 X319.102 Y277.302
G01 X325.056 Y279.507
G01 X331.010 Y281.713
G01 X332.567 Y277.732
G01 X333.927 Y273.676
G01 X335.088 Y269.552
G01 X336.047 Y265.372
G01 X336.800 Y261.144
G01 X337.345 Y256.880
G01 X337.378 Y256.552
G01 X331.039 Y255.959
G01 X324.699 Y255.365
G01 X324.968 Y251.696
G01 X325.057 Y248.013
G01 X324.964 Y244.325
G01 X324.691 Y240.642
G01 X324.236 Y236.971
G01 X323.601 Y233.323
G01 X323.591 Y233.277
G01 X329.797 Y231.725
G01 X336.004 Y230.173
G01 X335.027 Y225.948
G01 X333.843 Y221.772
G01 X332.454 Y217.654
G01 X330.862 Y213.604
G01 X329.072 Y209.633
G01 X327.086 Y205.750
G01 X327.059 Y205.701
G01 X321.440 Y208.794
G01 X315.820 Y211.887
G01 X313.951 Y208.651
G01 X311.924 Y205.506
G01 X309.741 Y202.461
G01 X307.409 Y199.523
G01 X304.933 Y196.700
G01 X302.317 Y193.998
G01 X302.283 Y193.965
G01 X306.576 Y189.158
G01 X310.869 Y184.351
G01 X307.642 Y181.363
G01 X304.268 Y178.534
G01 X300.755 Y175.871
G01 X297.111 Y173.380
G01 X293.345 Y171.069
G01 X289.466 Y168.943
G01 X289.164 Y168.788
G01 X286.248 Y174.556
G01 X283.333 Y180.323
G01 X279.911 Y178.682
G01 X276.409 Y177.208
G01 X272.834 Y175.907
G01 X269.195 Y174.782
G01 X265.501 Y173.835
G01 X261.760 Y173.070
G01 X261.712 Y173.062
G01 X262.548 Y166.623
G01 X263.384 Y160.184
G01 X258.971 Y159.531
G01 X254.526 Y159.094
G01 X250.060 Y158.876
G01 X245.584 Y158.878
G01 X241.108 Y159.099
G01 X236.643 Y159.540
G01 X236.586 Y159.547
G01 X237.419 Y166.004
G01 X238.252 Y172.460
G01 X234.442 Y173.034
G01 X230.660 Y173.795
G01 X226.915 Y174.742
G01 X223.217 Y175.874
G01 X219.574 Y177.187
G01 X215.996 Y178.679
G01 X215.725 Y178.800
G01 X212.758 Y172.971
G01 X209.792 Y167.142
G01 X205.724 Y169.122
G01 X201.753 Y171.301
G01 X197.890 Y173.676
G01 X194.143 Y176.240
G01 X190.523 Y178.988
G01 X187.038 Y181.914
G01 X186.995 Y181.952
G01 X191.358 Y186.848
G01 X195.721 Y191.744
G01 X192.857 Y194.409
G01 X190.124 Y197.214
G01 X187.528 Y200.154
G01 X185.078 Y203.222
G01 X182.778 Y206.410
G01 X180.634 Y209.711
G01 X180.608 Y209.754
G01 X174.837 Y206.576
G01 X169.066 Y203.399
G01 X166.782 Y207.377
G01 X164.693 Y211.468
G01 X162.806 Y215.661
G01 X161.125 Y219.946
G01 X159.654 Y224.314
G01 X158.398 Y228.754
G01 X158.384 Y228.811
G01 X164.789 Y230.423
G01 X171.195 Y232.035
G01 X170.310 Y235.906
G01 X169.616 Y239.821
G01 X169.114 Y243.770
G01 X168.806 Y247.743
G01 X168.694 Y251.732
G01 X168.777 Y255.726
G01 X168.792 Y256.032
G01 X162.187 Y256.672
G01 X155.582 Y257.312
G01 X155.948 Y261.949
G01 X156.541 Y266.569
G01 X157.362 Y271.158
G01 X158.408 Y275.707
G01 X159.678 Y280.205
G01 X161.168 Y284.640
G01 X161.189 Y284.696
G01 X167.431 Y282.395
G01 X173.673 Y280.094
G01 X175.151 Y283.845
G01 X176.812 Y287.522
G01 X178.655 Y291.118
G01 X180.674 Y294.624
G01 X182.866 Y298.030
G01 X185.225 Y301.329
G01 X185.256 Y301.370
G01 X180.115 Y305.641
G01 X174.975 Y309.912
G01 X177.924 Y313.593
G01 X181.053 Y317.129
G01 X184.356 Y320.510
G01 X187.825 Y323.729
G01 X191.452 Y326.778
G01 X195.228 Y329.647
G01 X195.524 Y329.860
G01 X199.407 Y324.399
G01 X203.290 Y318.938
G01 X206.676 Y321.233
G01 X210.176 Y323.362
G01 X213.779 Y325.319
G01 X217.480 Y327.098
G01 X221.267 Y328.696
G01 X225.133 Y330.108
G01 X225.183 Y330.124
G01 X223.338 Y336.598
G01 X221.493 Y343.071
G01 X226.067 Y344.463
G01 X230.709 Y345.631
G01 X235.409 Y346.570
G01 X240.154 Y347.279
G01 X244.933 Y347.754
G01 X249.736 Y347.994
G01 X249.797 Y347.995
G01 X249.943 Y341.249
G01 X250.090 Y334.502
G01 X254.241 Y334.498
G01 X258.392 Y334.289
G01 X262.533 Y333.876
G01 X266.653 Y333.260
G01 X270.744 Y332.441
G01 X274.793 Y331.421
G01 X274.845 Y331.407
G01 X276.971 Y337.844
G01 X279.098 Y344.280
G01 X283.726 Y342.842
G01 X288.284 Y341.177
G01 X292.759 Y339.288
G01 X297.141 Y337.179
G01 X301.419 Y334.855
G01 X305.582 Y332.320
G01 X305.896 Y332.118
G01 X302.184 Y326.425
G01 X298.472 Y320.733
G01 X301.946 Y318.351
G01 X305.303 Y315.798
G01 X308.535 Y313.080
G01 X311.633 Y310.204
G01 X314.590 Y307.175
G01 X317.397 Y304.001
G01 X317.432 Y303.959
G01 X322.859 Y308.101
G01 X328.285 Y312.243
G01 X331.335 Y308.391
G01 X334.195 Y304.390
G01 X336.858 Y300.248
G01 X339.317 Y295.977
G01 X341.567 Y291.584
G01 X343.600 Y287.082
G01 X343.624 Y287.024
G01 X337.312 Y284.381
G01 X330.999 Y281.738
G01 X332.557 Y277.758
G01 X333.919 Y273.702
G01 X335.081 Y269.579
G01 X336.041 Y265.399
G01 X336.796 Y261.172
G01 X337.342 Y256.907
G01 X337.375 Y256.579
G01 X344.240 Y256.936
G01 X351.105 Y257.294
G01 X351.453 Y252.326
G01 X351.556 Y247.343
G01 X351.414 Y242.354
G01 X351.028 Y237.374
G01 X350.396 Y232.412
G01 X349.521 Y227.483
G01 X349.508 Y227.420
G01 X342.759 Y228.809
G01 X336.009 Y230.199
G01 X335.034 Y225.975
G01 X333.851 Y221.798
G01 X332.463 Y217.680
G01 X330.873 Y213.630
G01 X329.084 Y209.658
G01 X327.099 Y205.774
G01 X327.073 Y205.725
G01 X332.993 Y202.139
G01 X338.913 Y198.552
G01 X336.375 Y194.191
G01 X333.624 Y189.954
G01 X330.665 Y185.854
G01 X327.504 Y181.899
G01 X324.150 Y178.100
G01 X320.609 Y174.466
G01 X320.563 Y174.421
G01 X315.726 Y179.396
G01 X310.889 Y184.370
G01 X307.663 Y181.381
G01 X304.290 Y178.551
G01 X300.778 Y175.887
G01 X297.135 Y173.396
G01 X293.370 Y171.083
G01 X289.491 Y168.956
G01 X289.189 Y168.801
G01 X292.071 Y162.455
G01 X294.952 Y156.109
G01 X290.335 Y153.912
G01 X285.610 Y151.943
G01 X280.789 Y150.206
G01 X275.883 Y148.706
G01 X270.904 Y147.447
G01 X265.864 Y146.433
G01 X265.800 Y146.422
G01 X264.605 Y153.306
G01 X263.411 Y160.189
G01 X258.999 Y159.534
G01 X254.554 Y159.096
G01 X250.089 Y158.877
G01 X245.612 Y158.877
G01 X241.136 Y159.097
G01 X236.671 Y159.537
G01 X236.614 Y159.544
G01 X235.424 Y152.629
G01 X234.233 Y145.714
G01 X229.113 Y146.501
G01 X224.031 Y147.541
G01 X219.002 Y148.830
G01 X214.037 Y150.366
G01 X209.147 Y152.146
G01 X204.346 Y154.165
G01 X203.981 Y154.330
G01 X206.900 Y160.730
G01 X209.818 Y167.130
G01 X205.749 Y169.109
G01 X201.778 Y171.287
G01 X197.914 Y173.660
G01 X194.167 Y176.223
G01 X190.546 Y178.970
G01 X187.060 Y181.895
G01 X187.016 Y181.933
G01 X182.096 Y176.863
G01 X177.177 Y171.793
G01 X173.345 Y175.381
G01 X169.690 Y179.156
G01 X166.221 Y183.111
G01 X162.947 Y187.235
G01 X159.876 Y191.520
G01 X157.017 Y195.955
G01 X156.982 Y196.013
G01 X163.031 Y199.693
G01 X169.081 Y203.374
G01 X166.796 Y207.352
G01 X164.706 Y211.442
G01 X162.817 Y215.634
G01 X161.135 Y219.919
G01 X159.663 Y224.286
G01 X158.406 Y228.726
G01 X158.318 Y229.069
G01 X151.348 Y227.652
G01 X144.378 Y226.235
G01 X143.226 Y231.427
G01 X142.329 Y236.674
G01 X141.690 Y241.965
G01 X141.311 Y247.286
G01 X141.194 Y252.625
G01 X141.339 Y257.969
G01 X141.342 Y258.038
G01 X148.462 Y257.660
G01 X155.581 Y257.282
G01 X155.945 Y261.920
G01 X156.537 Y266.539
G01 X157.356 Y271.129
G01 X158.401 Y275.679
G01 X159.669 Y280.177
G01 X161.158 Y284.612
G01 X161.179 Y284.668
G01 X154.573 Y287.431
G01 X147.967 Y290.193
G01 X149.957 Y295.199
G01 X152.192 Y300.107
G01 X154.668 Y304.903
G01 X157.379 Y309.577
G01 X160.320 Y314.118
G01 X163.483 Y318.513
G01 X163.525 Y318.568
G01 X169.241 Y314.228
G01 X174.956 Y309.888
G01 X177.904 Y313.570
G01 X181.032 Y317.106
G01 X184.334 Y320.489
G01 X187.802 Y323.709
G01 X191.428 Y326.758
G01 X195.204 Y329.629
G01 X195.499 Y329.842
G01 X191.580 Y335.892
G01 X187.662 Y341.941
G01 X192.188 Y344.989
G01 X196.863 Y347.814
G01 X201.676 Y350.408
G01 X206.615 Y352.766
G01 X211.670 Y354.880
G01 X216.828 Y356.746
G01 X216.894 Y356.768
G01 X219.179 Y349.915
G01 X221.464 Y343.061
G01 X226.038 Y344.455
G01 X230.680 Y345.624
G01 X235.379 Y346.565
G01 X240.124 Y347.275
G01 X244.903 Y347.751
G01 X249.705 Y347.993
G01 X249.767 Y347.994
G01 X249.926 Y355.248
G01 X250.085 Y362.502
G01 X255.611 Y362.479
G01 X261.135 Y362.185
G01 X266.643 Y361.620
G01 X272.123 Y360.784
G01 X277.561 Y359.679
G01 X282.943 Y358.307
G01 X283.353 Y358.190
G01 X281.360 Y351.197
G01 X279.366 Y344.203
G01 X283.991 Y342.752
G01 X288.544 Y341.074
G01 X293.014 Y339.172
G01 X297.390 Y337.051
G01 X301.662 Y334.714
G01 X305.818 Y332.168
G01 X305.870 Y332.134
G01 X310.125 Y338.071
G01 X314.378 Y344.007
G01 X318.985 Y340.829
G01 X323.435 Y337.425
G01 X327.716 Y333.803
G01 X331.819 Y329.971
G01 X335.733 Y325.939
G01 X339.448 Y321.714
G01 X339.494 Y321.659
G01 X333.879 Y316.963
G01 X328.265 Y312.266
G01 X331.316 Y308.416
G01 X334.177 Y304.415
G01 X336.842 Y300.275
G01 X339.303 Y296.004
G01 X341.553 Y291.612
G01 X343.587 Y287.111
G01 X343.612 Y287.053
G01 X350.511 Y289.589
G01 X357.411 Y292.125
G01 X359.461 Y286.842
G01 X361.251 Y281.459
G01 X362.777 Y275.989
G01 X364.033 Y270.445
G01 X365.017 Y264.840
G01 X365.725 Y259.188
G01 X365.768 Y258.753
G01 X358.435 Y258.039
G01 X351.102 Y257.325
G01 X351.451 Y252.358
G01 X351.556 Y247.374
G01 X351.416 Y242.386
G01 X351.031 Y237.405
G01 X350.401 Y232.444
G01 X349.527 Y227.514
G01 X349.515 Y227.451
G01 X356.688 Y225.638
G01 X363.860 Y223.825
G01 X362.554 Y218.237
G01 X360.973 Y212.714
G01 X359.121 Y207.271
G01 X357.002 Y201.919
G01 X354.621 Y196.672
G01 X351.982 Y191.543
G01 X351.947 Y191.479
G01 X345.437 Y195.029
G01 X338.928 Y198.580
G01 X336.392 Y194.218
G01 X333.642 Y189.981
G01 X330.684 Y185.879
G01 X327.525 Y181.923
G01 X324.172 Y178.123
G01 X320.632 Y174.489
G01 X320.353 Y174.217
G01 X325.282 Y168.635
G01 X330.210 Y163.053
G01 X325.925 Y159.130
G01 X321.447 Y155.418
G01 X316.788 Y151.926
G01 X311.958 Y148.665
G01 X306.968 Y145.641
G01 X301.831 Y142.863
G01 X301.766 Y142.830
G01 X298.374 Y149.477
G01 X294.981 Y156.124
G01 X290.364 Y153.926
G01 X285.640 Y151.955
G01 X280.820 Y150.216
G01 X275.914 Y148.715
G01 X270.936 Y147.454
G01 X265.896 Y146.439
G01 X265.832 Y146.428
G01 X266.778 Y138.994
G01 X267.724 Y131.560
G01 X261.903 Y130.713
G01 X256.042 Y130.151
G01 X250.154 Y129.878
G01 X244.254 Y129.894
G01 X238.356 Y130.200
G01 X232.474 Y130.796
G01 X232.399 Y130.805
G01 X232.866 Y134.532
G01 X233.332 Y138.258
G01 X233.799 Y141.983
G01 X234.266 Y145.709
G01 X229.145 Y146.496
G01 X224.063 Y147.534
G01 X219.034 Y148.821
G01 X214.068 Y150.355
G01 X209.178 Y152.134
G01 X204.376 Y154.152
G01 X204.012 Y154.316
G01 X202.293 Y150.960
G01 X200.574 Y147.604
G01 X198.856 Y144.247
G01 X197.137 Y140.891
G01 X191.788 Y143.510
G01 X186.570 Y146.390
G01 X181.493 Y149.527
G01 X176.572 Y152.912
G01 X171.819 Y156.538
G01 X167.244 Y160.398
G01 X167.188 Y160.448
G01 X169.691 Y163.278
G01 X172.195 Y166.109
G01 X174.698 Y168.940
G01 X177.201 Y171.771
G01 X173.369 Y175.357
G01 X169.713 Y179.132
G01 X166.243 Y183.085
G01 X162.967 Y187.209
G01 X159.895 Y191.493
G01 X157.034 Y195.927
G01 X156.999 Y195.984
G01 X153.670 Y194.162
G01 X150.342 Y192.340
G01 X147.013 Y190.518
G01 X143.685 Y188.696
G01 X140.696 Y193.931
G01 X137.965 Y199.311
G01 X135.498 Y204.825
G01 X133.303 Y210.458
G01 X131.386 Y216.198
G01 X129.751 Y222.031
G01 X129.637 Y222.482
G01 X133.324 Y223.412
G01 X137.012 Y224.342
G01 X140.699 Y225.273
G01 X144.386 Y226.203
G01 X143.232 Y231.394
G01 X142.334 Y236.641
G01 X141.693 Y241.931
G01 X141.313 Y247.252
G01 X141.193 Y252.592
G01 X141.337 Y257.936
G01 X141.340 Y258.003
G01 X137.541 Y258.380
G01 X133.741 Y258.758
G01 X129.941 Y259.136
G01 X126.141 Y259.514
G01 X126.635 Y265.596
G01 X127.427 Y271.651
G01 X128.517 Y277.667
G01 X129.902 Y283.628
G01 X131.580 Y289.519
G01 X133.547 Y295.327
G01 X133.574 Y295.401
G01 X137.169 Y294.091
G01 X140.765 Y292.781
G01 X144.360 Y291.471
G01 X147.955 Y290.162
G01 X149.943 Y295.168
G01 X152.177 Y300.076
G01 X154.652 Y304.873
G01 X157.361 Y309.548
G01 X160.301 Y314.090
G01 X163.463 Y318.486
G01 X163.504 Y318.541
G01 X160.555 Y321.003
G01 X157.606 Y323.466
G01 X154.657 Y325.929
G01 X151.708 Y328.392
G01 X155.579 Y333.202
G01 X159.687 Y337.822
G01 X164.020 Y342.238
G01 X168.570 Y346.441
G01 X173.324 Y350.419
G01 X178.274 Y354.162
G01 X178.661 Y354.439
G01 X180.904 Y351.310
G01 X183.148 Y348.180
G01 X185.391 Y345.051
G01 X187.634 Y341.921
G01 X192.159 Y344.970
G01 X196.833 Y347.797
G01 X201.645 Y350.393
G01 X206.584 Y352.752
G01 X211.638 Y354.868
G01 X216.795 Y356.735
G01 X216.861 Y356.757
G01 X215.810 Y360.478
G01 X214.760 Y364.199
G01 X213.710 Y367.920
G01 X212.659 Y371.640
G01 X218.642 Y373.447
G01 X224.713 Y374.959
G01 X230.856 Y376.173
G01 X237.057 Y377.085
G01 X243.302 Y377.691
G01 X249.575 Y377.991
G01 X249.655 Y377.993
G01 X249.754 Y374.120
G01 X249.852 Y370.247
G01 X249.951 Y366.374
G01 X250.050 Y362.501
G01 X255.576 Y362.480
G01 X261.100 Y362.188
G01 X266.608 Y361.624
G01 X272.088 Y360.790
G01 X277.527 Y359.687
G01 X282.910 Y358.316
G01 X283.320 Y358.200
G01 X284.561 Y361.887
G01 X285.802 Y365.574
G01 X287.044 Y369.260
G01 X288.284 Y372.947
G01 X294.314 Y371.038
G01 X300.249 Y368.834
G01 X306.074 Y366.338
G01 X311.774 Y363.557
G01 X317.337 Y360.496
G01 X322.749 Y357.163
G01 X322.816 Y357.119
G01 X320.699 Y353.846
G01 X318.583 Y350.573
G01 X316.466 Y347.299
G01 X314.349 Y344.026
G01 X318.956 Y340.850
G01 X323.407 Y337.447
G01 X327.690 Y333.827
G01 X331.794 Y329.996
G01 X335.709 Y325.965
G01 X339.425 Y321.742
G01 X339.471 Y321.687
G01 X342.588 Y324.054
G01 X345.705 Y326.420
G01 X348.823 Y328.786
G01 X351.940 Y331.153
G01 X355.902 Y326.127
G01 X359.616 Y320.908
G01 X363.072 Y315.507
G01 X366.262 Y309.938
G01 X369.178 Y304.213
G01 X371.812 Y298.347
G01 X372.002 Y297.892
G01 X368.386 Y296.375
G01 X364.769 Y294.857
G01 X361.153 Y293.340
G01 X357.536 Y291.823
G01 X359.571 Y286.534
G01 X361.347 Y281.146
G01 X362.857 Y275.671
G01 X364.097 Y270.123
G01 X365.065 Y264.515
G01 X365.757 Y258.861
G01 X365.764 Y258.789
G01 X369.697 Y258.984
G01 X373.630 Y259.179
G01 X377.563 Y259.374
G01 X381.496 Y259.568
G01 X381.934 Y253.107
G01 X382.054 Y246.627
G01 X381.857 Y240.142
G01 X381.340 Y233.668
G01 X380.506 Y227.221
G01 X379.355 Y220.817
G01 X379.338 Y220.737
G01 X375.470 Y221.517
G01 X371.603 Y222.298
G01 X367.735 Y223.079
G01 X363.868 Y223.860
G01 X362.563 Y218.272
G01 X360.984 Y212.749
G01 X359.134 Y207.305
G01 X357.017 Y201.952
G01 X354.637 Y196.705
G01 X351.999 Y191.575
G01 X351.965 Y191.511
G01 X355.348 Y189.450
G01 X358.730 Y187.389
G01 X362.114 Y185.328
G01 X365.496 Y183.266
G01 X362.190 Y177.610
G01 X358.607 Y172.118
G01 X354.754 Y166.803
G01 X350.642 Y161.679
G01 X346.279 Y156.758
G01 X341.675 Y152.053
G01 X341.313 Y151.702
G01 X338.543 Y154.545
G01 X335.775 Y157.390
G01 X333.006 Y160.234
G01 X330.237 Y163.078
G01 X325.952 Y159.154
G01 X321.476 Y155.440
G01 X316.818 Y151.948
G01 X311.989 Y148.685
G01 X307.000 Y145.659
G01 X301.864 Y142.880
G01 X301.799 Y142.846
G01 X303.437 Y139.213
G01 X305.076 Y135.580
G01 X306.714 Y131.948
G01 X308.353 Y128.314
G01 X302.361 Y125.479
G01 X296.232 Y122.939
G01 X289.980 Y120.701
G01 X283.619 Y118.771
G01 X277.165 Y117.153
G01 X270.634 Y115.853
G01 X270.551 Y115.839
G01 X269.853 Y119.771
G01 X269.156 Y123.702
G01 X268.458 Y127.634
G01 X267.761 Y131.566
G01 X261.940 Y130.717
G01 X256.079 Y130.154
G01 X250.191 Y129.879
G01 X244.291 Y129.893
G01 X238.393 Y130.197
G01 X232.511 Y130.791
G01 X232.061 Y130.849
G01 X231.359 Y126.902
G01 X230.656 Y122.955
G01 X229.954 Y119.007
G01 X229.250 Y115.060
G01 X222.628 Y116.114
G01 X216.060 Y117.493
G01 X209.561 Y119.195
G01 X203.147 Y121.215
G01 X196.834 Y123.550
G01 X190.638 Y126.194
G01 X190.560 Y126.230
G01 X192.213 Y129.891
G01 X193.866 Y133.552
G01 X195.518 Y137.214
G01 X197.171 Y140.875
G01 X191.822 Y143.492
G01 X186.602 Y146.371
G01 X181.525 Y149.506
G01 X176.603 Y152.890
G01 X171.848 Y156.515
G01 X167.273 Y160.373
G01 X167.216 Y160.423
G01 X164.400 Y157.536
G01 X161.584 Y154.648
G01 X158.769 Y151.761
G01 X155.952 Y148.874
G01 X151.010 Y153.520
G01 X146.298 Y158.407
G01 X141.827 Y163.524
G01 X137.609 Y168.860
G01 X133.654 Y174.402
G01 X129.972 Y180.136
G01 X129.928 Y180.210
G01 X133.372 Y182.324
G01 X136.816 Y184.437
G01 X140.260 Y186.550
G01 X143.704 Y188.664
G01 X140.714 Y193.897
G01 X137.981 Y199.277
G01 X135.513 Y204.789
G01 X133.316 Y210.422
G01 X131.397 Y216.161
G01 X129.760 Y221.994
G01 X129.646 Y222.444
G01 X125.669 Y221.646
G01 X121.691 Y220.848
G01 X117.714 Y220.050
G01 X113.736 Y219.252
G01 X112.262 Y225.953
G01 X111.119 Y232.724
G01 X110.308 Y239.550
G01 X109.833 Y246.413
G01 X109.695 Y253.298
G01 X109.895 Y260.188
G01 X109.900 Y260.275
G01 X113.960 Y260.075
G01 X118.019 Y259.875
G01 X122.079 Y259.675
G01 X126.139 Y259.476
G01 X126.631 Y265.557
G01 X127.421 Y271.613
G01 X128.509 Y277.629
G01 X129.893 Y283.590
G01 X131.569 Y289.482
G01 X133.534 Y295.291
G01 X133.560 Y295.363
G01 X129.800 Y296.948
G01 X126.039 Y298.532
G01 X122.278 Y300.116
G01 X118.518 Y301.700
G01 X121.093 Y308.144
G01 X123.984 Y314.459
G01 X127.185 Y320.630
G01 X130.688 Y326.642
G01 X134.485 Y332.481
G01 X138.568 Y338.131
G01 X138.893 Y338.556
G01 X142.151 Y336.086
G01 X145.408 Y333.615
G01 X148.666 Y331.145
G01 X151.924 Y328.674
G01 X155.810 Y333.474
G01 X159.931 Y338.082
G01 X164.277 Y342.486
G01 X168.838 Y346.676
G01 X173.605 Y350.641
G01 X178.565 Y354.371
G01 X178.629 Y354.416
G01 X176.406 Y357.867
G01 X174.184 Y361.318
G01 X171.961 Y364.768
G01 X169.738 Y368.219
G01 X175.567 Y372.128
G01 X181.586 Y375.749
G01 X187.781 Y379.074
G01 X194.138 Y382.093
G01 X200.641 Y384.799
G01 X207.276 Y387.185
G01 X207.360 Y387.213
G01 X208.676 Y383.317
G01 X209.990 Y379.420
G01 X211.306 Y375.524
G01 X212.622 Y371.628
G01 X218.604 Y373.437
G01 X224.674 Y374.951
G01 X230.817 Y376.166
G01 X237.018 Y377.080
G01 X243.262 Y377.688
G01 X249.535 Y377.990
G01 X249.615 Y377.992
G01 X249.716 Y382.119
G01 X249.816 Y386.246
G01 X249.918 Y390.373
G01 X250.019 Y394.500
G01 X257.116 Y394.458
G01 X264.209 Y394.067
G01 X271.280 Y393.328
G01 X278.313 Y392.242
G01 X285.291 Y390.810
G01 X292.196 Y389.036
G01 X292.722 Y388.886
G01 X291.603 Y384.904
G01 X290.485 Y380.922
G01 X289.365 Y376.940
G01 X288.246 Y372.958
G01 X294.276 Y371.051
G01 X300.212 Y368.849
G01 X306.037 Y366.355
G01 X311.739 Y363.575
G01 X317.303 Y360.516
G01 X322.715 Y357.185
G01 X322.782 Y357.141
G01 X325.210 Y360.510
G01 X327.636 Y363.879
G01 X330.064 Y367.248
G01 X332.492 Y370.617
G01 X338.391 Y366.530
G01 X344.089 Y362.155
G01 X349.570 Y357.502
G01 X354.820 Y352.580
G01 X359.827 Y347.402
G01 X364.579 Y341.979
G01 X364.637 Y341.909
G01 X361.456 Y339.228
G01 X358.276 Y336.547
G01 X355.095 Y333.866
G01 X351.914 Y331.184
G01 X355.877 Y326.160
G01 X359.593 Y320.941
G01 X363.051 Y315.542
G01 X366.243 Y309.974
G01 X369.161 Y304.250
G01 X371.797 Y298.384
G01 X371.987 Y297.929
G01 X375.915 Y299.348
G01 X379.842 Y300.766
G01 X383.770 Y302.186
G01 X387.698 Y303.604
G01 X390.290 Y296.826
G01 X392.548 Y289.922
G01 X394.466 Y282.909
G01 X396.040 Y275.804
G01 X397.263 Y268.624
G01 X398.134 Y261.386
G01 X398.143 Y261.294
G01 X393.980 Y260.873
G01 X389.817 Y260.451
G01 X385.655 Y260.031
G01 X381.492 Y259.609
G01 X381.932 Y253.148
G01 X382.055 Y246.668
G01 X381.859 Y240.183
G01 X381.344 Y233.709
G01 X380.512 Y227.262
G01 X379.363 Y220.857
G01 X379.346 Y220.777
G01 X383.416 Y219.738
G01 X387.485 Y218.698
G01 X391.554 Y217.658
G01 X395.623 Y216.618
G01 X393.940 Y209.476
G01 X391.907 Y202.419
G01 X389.527 Y195.464
G01 X386.806 Y188.628
G01 X383.751 Y181.928
G01 X380.367 Y175.380
G01 X380.322 Y175.299
G01 X376.621 Y177.300
G01 X372.919 Y179.300
G01 X369.217 Y181.301
G01 X365.516 Y183.302
G01 X362.212 Y177.645
G01 X358.630 Y172.152
G01 X354.780 Y166.836
G01 X350.669 Y161.711
G01 X346.307 Y156.788
G01 X341.705 Y152.082
G01 X341.343 Y151.730
G01 X344.131 Y148.557
G01 X346.918 Y145.384
G01 X349.705 Y142.210
G01 X352.493 Y139.037
G01 X347.012 Y134.037
G01 X341.287 Y129.308
G01 X335.332 Y124.862
G01 X329.160 Y120.710
G01 X322.786 Y116.862
G01 X316.225 Y113.329
G01 X316.141 Y113.286
G01 X314.203 Y117.048
G01 X312.265 Y120.810
G01 X310.327 Y124.571
G01 X308.390 Y128.333
G01 X302.400 Y125.496
G01 X296.271 Y122.954
G01 X290.020 Y120.714
G01 X283.660 Y118.782
G01 X277.206 Y117.162
G01 X270.675 Y115.860
G01 X270.592 Y115.846
G01 X271.118 Y111.631
G01 X271.644 Y107.416
G01 X272.169 Y103.201
G01 X272.695 Y98.986
G01 X265.271 Y97.918
G01 X257.797 Y97.216
G01 X250.291 Y96.880
G01 X242.771 Y96.914
G01 X235.255 Y97.317
G01 X227.762 Y98.089
G01 X227.189 Y98.163
G01 X227.715 Y102.386
G01 X228.241 Y106.609
G01 X228.767 Y110.832
G01 X229.293 Y115.054
G01 X222.671 Y116.106
G01 X216.102 Y117.483
G01 X209.602 Y119.183
G01 X203.188 Y121.201
G01 X196.874 Y123.534
G01 X190.677 Y126.176
G01 X190.599 Y126.212
G01 X188.643 Y122.415
G01 X186.686 Y118.618
G01 X184.729 Y114.821
G01 X182.772 Y111.024
G01 X175.968 Y114.369
G01 X169.331 Y118.048
G01 X162.876 Y122.051
G01 X156.620 Y126.371
G01 X150.578 Y130.996
G01 X144.765 Y135.917
G01 X144.694 Y135.981
G01 X147.516 Y139.197
G01 X150.339 Y142.413
G01 X153.161 Y145.629
G01 X155.984 Y148.845
G01 X151.041 Y153.490
G01 X146.327 Y158.375
G01 X141.855 Y163.492
G01 X137.635 Y168.826
G01 X133.678 Y174.366
G01 X129.995 Y180.100
G01 X129.724 Y180.547
G01 X125.945 Y178.505
G01 X122.165 Y176.464
G01 X118.386 Y174.423
G01 X114.606 Y172.382
G01 X110.838 Y179.056
G01 X107.398 Y185.913
G01 X104.297 Y192.937
G01 X101.541 Y200.111
G01 X99.139 Y207.418
G01 X97.097 Y214.841
G01 X97.073 Y214.937
G01 X101.242 Y216.005
G01 X105.410 Y217.073
G01 X109.578 Y218.141
G01 X113.746 Y219.209
G01 X112.271 Y225.909
G01 X111.125 Y232.680
G01 X110.312 Y239.505
G01 X109.834 Y246.369
G01 X109.694 Y253.254
G01 X109.893 Y260.144
G01 X109.897 Y260.232
G01 X105.600 Y260.669
G01 X101.304 Y261.108
G01 X97.007 Y261.546
G01 X92.710 Y261.984
G01 X93.349 Y269.705
G01 X94.368 Y277.392
G01 X95.764 Y285.026
G01 X97.535 Y292.589
G01 X99.676 Y300.063
G01 X102.184 Y307.429
G01 X102.218 Y307.521
G01 X106.289 Y306.055
G01 X110.360 Y304.590
G01 X114.431 Y303.125
G01 X118.502 Y301.659
G01 X121.076 Y308.103
G01 X123.965 Y314.419
G01 X127.163 Y320.591
G01 X130.665 Y326.605
G01 X134.460 Y332.444
G01 X138.541 Y338.096
G01 X138.866 Y338.521
G01 X135.548 Y341.323
G01 X132.230 Y344.125
G01 X128.912 Y346.929
G01 X125.594 Y349.731
G01 X130.533 Y355.808
G01 X135.769 Y361.640
G01 X141.289 Y367.213
G01 X147.082 Y372.513
G01 X153.133 Y377.527
G01 X159.428 Y382.241
G01 X159.510 Y382.299
G01 X162.057 Y378.773
G01 X164.606 Y375.246
G01 X167.153 Y371.719
G01 X169.701 Y368.193
G01 X175.528 Y372.104
G01 X181.546 Y375.727
G01 X187.740 Y379.054
G01 X194.096 Y382.075
G01 X200.598 Y384.783
G01 X207.232 Y387.171
G01 X207.318 Y387.199
G01 X206.142 Y391.405
G01 X204.966 Y395.611
G01 X203.791 Y399.816
G01 X202.615 Y404.022
G01 X210.194 Y406.297
G01 X217.884 Y408.200
G01 X225.664 Y409.724
G01 X233.516 Y410.865
G01 X241.422 Y411.621
G01 X249.362 Y411.987
G01 X249.971 Y411.999
G01 X250.085 Y407.626
G01 X250.200 Y403.253
G01 X250.313 Y398.880
G01 X250.427 Y394.507
G01 X257.524 Y394.445
G01 X264.616 Y394.034
G01 X271.686 Y393.275
G01 X278.717 Y392.169
G01 X285.691 Y390.717
G01 X292.591 Y388.924
G01 X292.679 Y388.899
G01 X294.090 Y393.057
G01 X295.501 Y397.214
G01 X296.912 Y401.372
G01 X298.323 Y405.530
G01 X305.945 Y403.104
G01 X313.445 Y400.305
G01 X320.805 Y397.138
G01 X328.007 Y393.610
G01 X335.033 Y389.730
G01 X341.866 Y385.507
G01 X341.952 Y385.451
G01 X339.577 Y381.749
G01 X337.202 Y378.046
G01 X334.828 Y374.344
G01 X332.454 Y370.642
G01 X338.355 Y366.557
G01 X344.053 Y362.184
G01 X349.536 Y357.532
G01 X354.788 Y352.612
G01 X359.796 Y347.435
G01 X364.549 Y342.014
G01 X364.607 Y341.944
G01 X368.130 Y344.605
G01 X371.653 Y347.265
G01 X375.176 Y349.925
G01 X378.699 Y352.586
G01 X383.693 Y346.231
G01 X388.373 Y339.632
G01 X392.727 Y332.805
G01 X396.744 Y325.768
G01 X400.414 Y318.535
G01 X403.728 Y311.124
G01 X403.967 Y310.549
G01 X399.895 Y308.824
G01 X395.824 Y307.098
G01 X391.752 Y305.373
G01 X387.681 Y303.647
G01 X390.275 Y296.869
G01 X392.535 Y289.966
G01 X394.455 Y282.954
G01 X396.031 Y275.850
G01 X397.256 Y268.670
G01 X398.129 Y261.432
G01 X398.138 Y261.340
G01 X402.572 Y261.548
G01 X407.005 Y261.757
G01 X411.439 Y261.965
G01 X415.872 Y262.174
G01 X416.413 Y254.024
G01 X416.552 Y245.850
G01 X416.290 Y237.672
G01 X415.626 Y229.510
G01 X414.562 Y221.383
G01 X413.099 Y213.312
G01 X413.078 Y213.209
G01 X408.716 Y214.072
G01 X404.355 Y214.937
G01 X399.994 Y215.800
G01 X395.633 Y216.663
G01 X393.952 Y209.521
G01 X391.921 Y202.463
G01 X389.543 Y195.508
G01 X386.825 Y188.671
G01 X383.771 Y181.970
G01 X380.389 Y175.421
G01 X380.117 Y174.926
G01 X383.914 Y172.582
G01 X387.712 Y170.239
G01 X391.509 Y167.896
G01 X395.307 Y165.553
G01 X391.109 Y158.447
G01 X386.563 Y151.549
G01 X381.680 Y144.877
G01 X376.471 Y138.448
G01 X370.947 Y132.277
G01 X365.123 Y126.379
G01 X365.047 Y126.306
G01 X361.917 Y129.497
G01 X358.787 Y132.688
G01 X355.658 Y135.879
G01 X352.528 Y139.070
G01 X347.049 Y134.069
G01 X341.325 Y129.338
G01 X335.371 Y124.890
G01 X329.201 Y120.736
G01 X322.828 Y116.886
G01 X316.268 Y113.350
G01 X316.183 Y113.307
G01 X318.017 Y109.213
G01 X319.851 Y105.119
G01 X321.685 Y101.025
G01 X323.520 Y96.931
G01 X315.977 Y93.375
G01 X308.261 Y90.191
G01 X300.392 Y87.387
G01 X292.389 Y84.971
G01 X284.269 Y82.949
G01 X276.053 Y81.326
G01 X275.948 Y81.308
G01 X275.146 Y85.729
G01 X274.344 Y90.151
G01 X273.543 Y94.572
G01 X272.741 Y98.994
G01 X265.318 Y97.924
G01 X257.845 Y97.219
G01 X250.339 Y96.881
G01 X242.819 Y96.912
G01 X235.303 Y97.313
G01 X227.809 Y98.083
G01 X227.236 Y98.157
G01 X226.434 Y93.719
G01 X225.633 Y89.281
G01 X224.831 Y84.843
G01 X224.030 Y80.404
G01 X215.711 Y81.741
G01 X207.460 Y83.485
G01 X199.298 Y85.635
G01 X191.245 Y88.184
G01 X183.320 Y91.129
G01 X175.542 Y94.461
G01 X175.444 Y94.506
G01 X177.288 Y98.630
G01 X179.131 Y102.755
G01 X180.974 Y106.879
G01 X182.817 Y111.003
G01 X176.012 Y114.346
G01 X169.373 Y118.023
G01 X162.917 Y122.024
G01 X156.660 Y126.342
G01 X150.617 Y130.965
G01 X144.802 Y135.884
G01 X144.730 Y135.949
G01 X141.556 Y132.710
G01 X138.382 Y129.473
G01 X135.208 Y126.235
G01 X132.035 Y122.997
G01 X125.842 Y128.837
G01 X119.937 Y134.978
G01 X114.336 Y141.408
G01 X109.053 Y148.110
G01 X104.101 Y155.069
G01 X99.493 Y162.269
G01 X99.154 Y162.832
G01 X103.023 Y165.208
G01 X106.892 Y167.586
G01 X110.761 Y169.964
G01 X114.631 Y172.341
G01 X110.860 Y179.014
G01 X107.419 Y185.870
G01 X104.315 Y192.893
G01 X101.558 Y200.066
G01 X99.153 Y207.372
G01 X97.109 Y214.794
G01 X97.085 Y214.889
G01 X92.614 Y214.003
G01 X88.143 Y213.118
G01 X83.672 Y212.232
G01 X79.201 Y211.347
G01 X77.366 Y219.749
G01 X75.945 Y228.238
G01 X74.941 Y236.793
G01 X74.357 Y245.395
G01 X74.196 Y254.022
G01 X74.459 Y262.654
G01 X74.465 Y262.764
G01 X79.026 Y262.557
G01 X83.586 Y262.349
G01 X88.147 Y262.142
G01 X92.707 Y261.934
G01 X93.344 Y269.655
G01 X94.360 Y277.342
G01 X95.754 Y284.977
G01 X97.522 Y292.540
G01 X99.661 Y300.015
G01 X102.167 Y307.381
G01 X102.201 Y307.475
G01 X97.984 Y309.264
G01 X93.766 Y311.053
G01 X89.548 Y312.842
G01 X85.330 Y314.632
G01 X88.566 Y322.694
G01 X92.196 Y330.595
G01 X96.213 Y338.314
G01 X100.608 Y345.833
G01 X105.371 Y353.133
G01 X110.490 Y360.197
G01 X110.897 Y360.728
G01 X114.564 Y357.969
G01 X118.230 Y355.210
G01 X121.898 Y352.451
G01 X125.564 Y349.692
G01 X130.501 Y355.770
G01 X135.735 Y361.604
G01 X141.254 Y367.179
G01 X147.044 Y372.480
G01 X153.094 Y377.496
G01 X159.387 Y382.212
G01 X159.469 Y382.270
G01 X156.984 Y386.148
G01 X154.501 Y390.026
G01 X152.016 Y393.904
G01 X149.532 Y397.782
G01 X156.827 Y402.660
G01 X164.359 Y407.178
G01 X172.110 Y411.324
G01 X180.062 Y415.087
G01 X188.196 Y418.459
G01 X196.492 Y421.430
G01 X196.599 Y421.465
G01 X198.091 Y417.100
G01 X199.582 Y412.735
G01 X201.075 Y408.371
G01 X202.566 Y404.006
G01 X210.145 Y406.284
G01 X217.833 Y408.189
G01 X225.613 Y409.715
G01 X233.465 Y410.859
G01 X241.370 Y411.617
G01 X249.310 Y411.986
G01 X249.921 Y411.998
G01 X250.060 Y416.626
G01 X250.200 Y421.253
G01 X250.338 Y425.880
G01 X250.478 Y430.507
G01 X259.342 Y430.415
G01 X268.198 Y429.887
G01 X277.025 Y428.924
G01 X285.801 Y427.529
G01 X294.506 Y425.702
G01 X303.117 Y423.449
G01 X303.226 Y423.417
G01 X301.989 Y418.949
G01 X300.750 Y414.481
G01 X299.513 Y410.012
G01 X298.275 Y405.544
G01 X305.897 Y403.121
G01 X313.398 Y400.324
G01 X320.759 Y397.159
G01 X327.962 Y393.634
G01 X334.989 Y389.756
G01 X341.823 Y385.534
G01 X341.909 Y385.478
G01 X344.638 Y389.247
G01 X347.368 Y393.015
G01 X350.097 Y396.784
G01 X352.826 Y400.553
G01 X360.180 Y395.445
G01 X367.280 Y389.978
G01 X374.108 Y384.164
G01 X380.649 Y378.017
G01 X386.885 Y371.552
G01 X392.800 Y364.782
G01 X393.240 Y364.251
G01 X389.679 Y361.245
G01 X386.117 Y358.239
G01 X382.556 Y355.233
G01 X378.995 Y352.227
G01 X383.971 Y345.857
G01 X388.632 Y339.245
G01 X392.967 Y332.406
G01 X396.965 Y325.356
G01 X400.615 Y318.113
G01 X403.907 Y310.693
G01 X403.947 Y310.597
G01 X408.350 Y312.175
G01 X412.752 Y313.753
G01 X417.155 Y315.331
G01 X421.558 Y316.908
G01 X424.777 Y308.457
G01 X427.579 Y299.852
G01 X429.958 Y291.112
G01 X431.906 Y282.258
G01 X433.419 Y273.313
G01 X434.491 Y264.296
G01 X434.502 Y264.181
G01 X429.844 Y263.692
G01 X425.185 Y263.202
G01 X420.526 Y262.714
G01 X415.868 Y262.225
G01 X416.411 Y254.075
G01 X416.553 Y245.902
G01 X416.293 Y237.724
G01 X415.632 Y229.561
G01 X414.570 Y221.434
G01 X413.110 Y213.363
G01 X413.088 Y213.260
G01 X417.640 Y212.086
G01 X422.192 Y210.911
G01 X426.743 Y209.736
G01 X431.295 Y208.561
G01 X429.188 Y199.674
G01 X426.646 Y190.895
G01 X423.674 Y182.243
G01 X420.278 Y173.742
G01 X416.465 Y165.410
G01 X412.245 Y157.269
G01 X411.904 Y156.652
G01 X407.761 Y158.888
G01 X403.618 Y161.125
G01 X399.475 Y163.362
G01 X395.333 Y165.598
G01 X391.136 Y158.491
G01 X386.593 Y151.592
G01 X381.712 Y144.919
G01 X376.504 Y138.488
G01 X370.983 Y132.315
G01 X365.161 Y126.415
G01 X365.084 Y126.342
G01 X368.194 Y122.785
G01 X371.304 Y119.228
G01 X374.413 Y115.670
G01 X377.522 Y112.113
G01 X370.700 Y105.906
G01 X363.576 Y100.036
G01 X356.166 Y94.519
G01 X348.489 Y89.367
G01 X340.561 Y84.595
G01 X332.402 Y80.214
G01 X332.296 Y80.161
G01 X330.114 Y84.360
G01 X327.931 Y88.558
G01 X325.749 Y92.757
G01 X323.567 Y96.955
G01 X316.025 Y93.397
G01 X308.311 Y90.210
G01 X300.443 Y87.404
G01 X292.440 Y84.985
G01 X284.321 Y82.960
G01 X276.105 Y81.335
G01 X275.472 Y81.227
G01 X276.033 Y76.512
G01 X276.594 Y71.796
G01 X277.155 Y67.081
G01 X277.716 Y62.366
G01 X268.490 Y61.080
G01 X259.206 Y60.248
G01 X249.884 Y59.873
G01 X240.547 Y59.955
G01 X231.218 Y60.496
G01 X221.920 Y61.496
G01 X221.802 Y61.511
G01 X222.372 Y66.233
G01 X222.942 Y70.954
G01 X223.513 Y75.676
G01 X224.083 Y80.397
G01 X215.763 Y81.731
G01 X207.512 Y83.473
G01 X199.350 Y85.620
G01 X191.296 Y88.167
G01 X183.370 Y91.109
G01 X175.591 Y94.439
G01 X175.493 Y94.484
G01 X173.296 Y90.247
G01 X171.100 Y86.010
G01 X168.904 Y81.773
G01 X166.707 Y77.536
G01 X158.272 Y81.697
G01 X150.044 Y86.270
G01 X142.045 Y91.245
G01 X134.293 Y96.611
G01 X126.808 Y102.356
G01 X119.608 Y108.466
G01 X119.518 Y108.546
G01 X122.657 Y112.150
G01 X125.796 Y115.754
G01 X128.936 Y119.357
G01 X132.076 Y122.961
G01 X125.880 Y128.799
G01 X119.973 Y134.939
G01 X114.370 Y141.366
G01 X109.085 Y148.067
G01 X104.131 Y155.024
G01 X99.521 Y162.223
G01 X99.182 Y162.784
G01 X94.956 Y160.515
G01 X90.730 Y158.248
G01 X86.504 Y155.979
G01 X82.278 Y153.711
G01 X77.618 Y161.987
G01 X73.367 Y170.488
G01 X69.535 Y179.194
G01 X66.133 Y188.086
G01 X63.168 Y197.140
G01 X60.650 Y206.337
G01 X60.620 Y206.455
G01 X65.269 Y207.665
G01 X69.917 Y208.875
G01 X74.566 Y210.084
G01 X79.214 Y211.294
G01 X77.377 Y219.695
G01 X75.952 Y228.184
G01 X74.946 Y236.739
G01 X74.359 Y245.341
G01 X74.196 Y253.968
G01 X74.456 Y262.600
G01 X74.463 Y262.710
G01 X69.668 Y263.211
G01 X64.875 Y263.711
G01 X60.080 Y264.212
G01 X55.287 Y264.712
G01 X56.090 Y274.268
G01 X57.362 Y283.780
G01 X59.100 Y293.226
G01 X61.302 Y302.582
G01 X63.963 Y311.826
G01 X67.077 Y320.936
G01 X67.334 Y321.628
G01 X71.877 Y319.996
G01 X76.420 Y318.364
G01 X80.963 Y316.732
G01 X85.506 Y315.100
G01 X88.764 Y323.154
G01 X92.417 Y331.044
G01 X96.456 Y338.752
G01 X100.873 Y346.259
G01 X105.656 Y353.547
G01 X110.795 Y360.596
G01 X110.862 Y360.683
G01 X107.170 Y363.818
G01 X103.478 Y366.954
G01 X99.785 Y370.089
G01 X96.093 Y373.225
G01 X102.208 Y380.731
G01 X108.690 Y387.934
G01 X115.522 Y394.815
G01 X122.690 Y401.358
G01 X130.176 Y407.546
G01 X137.963 Y413.364
G01 X138.064 Y413.436
G01 X140.920 Y409.514
G01 X143.775 Y405.593
G01 X146.631 Y401.671
G01 X149.486 Y397.750
G01 X156.780 Y402.630
G01 X164.311 Y407.150
G01 X172.061 Y411.299
G01 X180.011 Y415.065
G01 X188.144 Y418.439
G01 X196.439 Y421.412
G01 X196.546 Y421.448
G01 X195.247 Y426.139
G01 X193.948 Y430.830
G01 X192.649 Y435.521
G01 X191.350 Y440.212
G01 X200.715 Y443.012
G01 X210.214 Y445.351
G01 X219.824 Y447.222
G01 X229.521 Y448.620
G01 X239.283 Y449.542
G01 X249.087 Y449.983
G01 X249.839 Y449.997
G01 X249.984 Y445.125
G01 X250.130 Y440.252
G01 X250.276 Y435.379
G01 X250.422 Y430.507
G01 X259.286 Y430.417
G01 X268.142 Y429.892
G01 X276.970 Y428.932
G01 X285.746 Y427.539
G01 X294.451 Y425.715
G01 X303.063 Y423.464
G01 X303.172 Y423.433
G01 X304.756 Y428.061
G01 X306.340 Y432.689
G01 X307.923 Y437.317
G01 X309.507 Y441.945
G01 X318.907 Y438.942
G01 X328.156 Y435.477
G01 X337.231 Y431.560
G01 X346.109 Y427.199
G01 X354.770 Y422.404
G01 X363.191 Y417.186
G01 X363.297 Y417.116
G01 X360.667 Y412.983
G01 X358.038 Y408.850
G01 X355.408 Y404.717
G01 X352.779 Y400.584
G01 X360.134 Y395.478
G01 X367.236 Y390.013
G01 X374.066 Y384.202
G01 X380.608 Y378.057
G01 X386.846 Y371.594
G01 X392.764 Y364.826
G01 X393.204 Y364.295
G01 X397.143 Y367.236
G01 X401.082 Y370.176
G01 X405.022 Y373.115
G01 X408.961 Y376.056
G01 X415.083 Y368.196
G01 X420.816 Y360.038
G01 X426.146 Y351.603
G01 X431.060 Y342.910
G01 X435.544 Y333.978
G01 X439.588 Y324.831
G01 X439.636 Y324.714
G01 X435.111 Y322.776
G01 X430.587 Y320.837
G01 X426.061 Y318.900
G01 X421.536 Y316.961
G01 X424.758 Y308.511
G01 X427.563 Y299.907
G01 X429.944 Y291.167
G01 X431.895 Y282.315
G01 X433.410 Y273.369
G01 X434.486 Y264.353
G01 X434.497 Y264.238
G01 X439.431 Y264.457
G01 X444.366 Y264.677
G01 X449.300 Y264.897
G01 X454.235 Y265.117
G01 X454.889 Y255.081
G01 X455.049 Y245.018
G01 X454.716 Y234.951
G01 X453.888 Y224.905
G01 X452.567 Y214.904
G01 X450.755 Y204.972
G01 X450.729 Y204.846
G01 X445.874 Y205.789
G01 X441.018 Y206.732
G01 X436.162 Y207.675
G01 X431.307 Y208.617
G01 X429.203 Y199.730
G01 X426.664 Y190.950
G01 X423.694 Y182.298
G01 X420.300 Y173.795
G01 X416.490 Y165.462
G01 X412.273 Y157.320
G01 X411.933 Y156.704
G01 X416.150 Y154.087
G01 X420.368 Y151.470
G01 X424.584 Y148.852
G01 X428.802 Y146.236
G01 X423.628 Y137.501
G01 X418.028 Y129.024
G01 X412.014 Y120.826
G01 X405.600 Y112.926
G01 X398.801 Y105.346
G01 X391.632 Y98.102
G01 X391.539 Y98.013
G01 X388.046 Y101.549
G01 X384.552 Y105.083
G01 X381.058 Y108.618
G01 X377.565 Y112.153
G01 X370.744 Y105.944
G01 X363.622 Y100.072
G01 X356.214 Y94.552
G01 X348.538 Y89.399
G01 X340.612 Y84.624
G01 X332.454 Y80.241
G01 X332.349 Y80.188
G01 X334.376 Y75.631
G01 X336.404 Y71.075
G01 X338.431 Y66.519
G01 X340.459 Y61.963
G01 X331.186 Y57.603
G01 X321.703 Y53.702
G01 X312.032 Y50.267
G01 X302.196 Y47.309
G01 X292.220 Y44.836
G01 X282.127 Y42.853
G01 X281.349 Y42.722
G01 X280.456 Y47.635
G01 X279.561 Y52.549
G01 X278.668 Y57.462
G01 X277.774 Y62.375
G01 X268.549 Y61.087
G01 X259.264 Y60.252
G01 X249.943 Y59.874
G01 X240.606 Y59.953
G01 X231.277 Y60.492
G01 X221.979 Y61.488
G01 X221.862 Y61.503
G01 X220.959 Y56.575
G01 X220.056 Y51.646
G01 X219.152 Y46.717
G01 X218.249 Y41.788
G01 X208.039 Y43.439
G01 X197.915 Y45.591
G01 X187.900 Y48.240
G01 X178.021 Y51.379
G01 X168.299 Y55.002
G01 X158.761 Y59.101
G01 X158.642 Y59.156
G01 X160.671 Y63.745
G01 X162.701 Y68.334
G01 X164.731 Y72.923
G01 X166.761 Y77.511
G01 X158.325 Y81.669
G01 X150.096 Y86.239
G01 X142.095 Y91.212
G01 X134.341 Y96.576
G01 X126.854 Y102.318
G01 X119.652 Y108.426
G01 X119.113 Y108.909
G01 X115.568 Y105.333
G01 X112.023 Y101.757
G01 X108.479 Y98.182
G01 X104.934 Y94.607
G01 X97.368 Y101.800
G01 X90.159 Y109.361
G01 X83.324 Y117.273
G01 X76.882 Y125.517
G01 X70.847 Y134.074
G01 X65.235 Y142.923
G01 X65.167 Y143.037
G01 X69.452 Y145.693
G01 X73.737 Y148.348
G01 X78.023 Y151.003
G01 X82.309 Y153.659
G01 X77.647 Y161.934
G01 X73.393 Y170.433
G01 X69.558 Y179.139
G01 X66.153 Y188.029
G01 X63.185 Y197.083
G01 X60.664 Y206.278
G01 X60.635 Y206.395
G01 X55.670 Y205.425
G01 X50.706 Y204.454
G01 X45.741 Y203.484
G01 X40.776 Y202.514
G01 X38.539 Y212.809
G01 X36.808 Y223.210
G01 X35.589 Y233.691
G01 X34.885 Y244.227
G01 X34.698 Y254.792
G01 X35.031 Y265.362
G01 X35.039 Y265.497
G01 X40.100 Y265.285
G01 X45.161 Y265.074
G01 X50.222 Y264.862
G01 X55.283 Y264.652
G01 X56.083 Y274.208
G01 X57.352 Y283.720
G01 X59.088 Y293.166
G01 X61.287 Y302.523
G01 X63.945 Y311.769
G01 X67.056 Y320.879
G01 X67.313 Y321.571
G01 X62.645 Y323.583
G01 X57.977 Y325.594
G01 X53.310 Y327.605
G01 X48.642 Y329.617
G01 X52.643 Y339.468
G01 X57.126 Y349.119
G01 X62.081 Y358.545
G01 X67.497 Y367.723
G01 X73.361 Y376.631
G01 X79.659 Y385.247
G01 X79.741 Y385.353
G01 X83.820 Y382.310
G01 X87.898 Y379.265
G01 X91.977 Y376.220
G01 X96.055 Y373.176
G01 X102.168 Y380.684
G01 X108.647 Y387.889
G01 X115.478 Y394.773
G01 X122.644 Y401.318
G01 X130.128 Y407.508
G01 X137.913 Y413.328
G01 X138.013 Y413.399
G01 X135.270 Y417.706
G01 X132.526 Y422.013
G01 X129.782 Y426.319
G01 X127.039 Y430.626
G01 X135.964 Y436.582
G01 X145.179 Y442.096
G01 X154.659 Y447.155
G01 X164.384 Y451.746
G01 X174.330 Y455.858
G01 X184.474 Y459.479
G01 X185.259 Y459.736
G01 X186.916 Y454.898
G01 X188.572 Y450.061
G01 X190.229 Y445.223
G01 X191.886 Y440.386
G01 X201.260 Y443.160
G01 X210.766 Y445.472
G01 X220.381 Y447.316
G01 X230.083 Y448.687
G01 X239.848 Y449.580
G01 X249.653 Y449.994
G01 X249.777 Y449.996
G01 X249.945 Y455.124
G01 X250.112 Y460.251
G01 X250.279 Y465.379
G01 X250.447 Y470.506
G01 X261.275 Y470.383
G01 X272.091 Y469.728
G01 X282.870 Y468.541
G01 X293.586 Y466.826
G01 X304.213 Y464.586
G01 X314.725 Y461.824
G01 X314.857 Y461.786
G01 X313.505 Y456.830
G01 X312.152 Y451.875
G01 X310.799 Y446.919
G01 X309.447 Y441.963
G01 X318.848 Y438.962
G01 X328.098 Y435.501
G01 X337.174 Y431.587
G01 X346.054 Y427.228
G01 X354.716 Y422.436
G01 X363.139 Y417.220
G01 X363.243 Y417.151
G01 X366.277 Y421.318
G01 X369.311 Y425.484
G01 X372.344 Y429.651
G01 X375.379 Y433.817
G01 X384.347 Y427.575
G01 X393.004 Y420.896
G01 X401.329 Y413.794
G01 X409.302 Y406.287
G01 X416.902 Y398.392
G01 X424.110 Y390.127
G01 X424.646 Y389.479
G01 X420.715 Y386.135
G01 X416.784 Y382.792
G01 X412.852 Y379.449
G01 X408.921 Y376.105
G01 X415.046 Y368.246
G01 X420.781 Y360.091
G01 X426.114 Y351.657
G01 X431.030 Y342.965
G01 X435.517 Y334.036
G01 X439.564 Y324.889
G01 X439.612 Y324.773
G01 X444.491 Y326.507
G01 X449.369 Y328.241
G01 X454.248 Y329.976
G01 X459.127 Y331.710
G01 X463.042 Y321.403
G01 X466.448 Y310.908
G01 X469.338 Y300.251
G01 X471.702 Y289.458
G01 X473.536 Y278.553
G01 X474.833 Y267.563
G01 X474.846 Y267.424
G01 X469.692 Y266.862
G01 X464.537 Y266.302
G01 X459.383 Y265.742
G01 X454.229 Y265.180
G01 X454.886 Y255.145
G01 X455.050 Y245.082
G01 X454.719 Y235.015
G01 X453.895 Y224.968
G01 X452.577 Y214.967
G01 X450.768 Y205.035
G01 X450.609 Y204.277
G01 X455.639 Y202.947
G01 X460.668 Y201.619
G01 X465.697 Y200.291
G01 X470.726 Y198.961
G01 X468.116 Y188.147
G01 X464.976 Y177.466
G01 X461.313 Y166.944
G01 X457.135 Y156.607
G01 X452.451 Y146.480
G01 X447.272 Y136.588
G01 X447.204 Y136.465
G01 X442.611 Y138.921
G01 X438.019 Y141.378
G01 X433.426 Y143.835
G01 X428.833 Y146.292
G01 X423.662 Y137.555
G01 X418.065 Y129.076
G01 X412.053 Y120.876
G01 X405.642 Y112.975
G01 X398.845 Y105.393
G01 X391.678 Y98.147
G01 X391.585 Y98.057
G01 X395.014 Y94.114
G01 X398.445 Y90.172
G01 X401.874 Y86.230
G01 X405.303 Y82.286
G01 X396.994 Y74.740
G01 X388.318 Y67.605
G01 X379.296 Y60.899
G01 X369.949 Y54.640
G01 X360.300 Y48.843
G01 X350.370 Y43.523
G01 X350.241 Y43.458
G01 X347.810 Y48.092
G01 X345.379 Y52.725
G01 X342.947 Y57.358
G01 X340.517 Y61.992
G01 X331.245 Y57.630
G01 X321.763 Y53.725
G01 X312.093 Y50.287
G01 X302.259 Y47.326
G01 X292.284 Y44.850
G01 X282.191 Y42.864
G01 X281.412 Y42.732
G01 X282.020 Y37.518
G01 X282.629 Y32.304
G01 X283.236 Y27.090
G01 X283.843 Y21.875
G01 X272.625 Y20.322
G01 X261.336 Y19.321
G01 X250.004 Y18.875
G01 X238.655 Y18.985
G01 X227.317 Y19.653
G01 X216.017 Y20.877
G01 X215.873 Y20.897
G01 X216.483 Y26.117
G01 X217.094 Y31.338
G01 X217.703 Y36.559
G01 X218.314 Y41.779
G01 X208.104 Y43.427
G01 X197.978 Y45.576
G01 X187.963 Y48.222
G01 X178.083 Y51.358
G01 X168.360 Y54.978
G01 X158.820 Y59.074
G01 X158.700 Y59.129
G01 X156.261 Y54.453
G01 X153.824 Y49.777
G01 X151.386 Y45.101
G01 X148.947 Y40.426
G01 X138.704 Y45.489
G01 X128.716 Y51.052
G01 X119.005 Y57.103
G01 X109.596 Y63.629
G01 X100.513 Y70.613
G01 X91.776 Y78.040
G01 X91.121 Y78.628
G01 X94.586 Y82.612
G01 X98.052 Y86.595
G01 X101.516 Y90.579
G01 X104.983 Y94.562
G01 X97.415 Y101.753
G01 X90.203 Y109.312
G01 X83.366 Y117.222
G01 X76.921 Y125.464
G01 X70.883 Y134.019
G01 X65.269 Y142.866
G01 X65.200 Y142.981
G01 X60.527 Y140.487
G01 X55.854 Y137.992
G01 X51.180 Y135.498
G01 X46.507 Y133.004
G01 X40.860 Y143.053
G01 X35.710 Y153.374
G01 X31.069 Y163.943
G01 X26.950 Y174.735
G01 X23.363 Y185.724
G01 X20.317 Y196.884
G01 X20.281 Y197.028
G01 X25.409 Y198.383
G01 X30.537 Y199.738
G01 X35.664 Y201.095
G01 X40.792 Y202.449
G01 X38.551 Y212.744
G01 X36.817 Y223.144
G01 X35.595 Y233.624
G01 X34.887 Y244.160
G01 X34.698 Y254.726
G01 X35.028 Y265.296
G01 X35.074 Y266.104
G01 X29.785 Y266.686
G01 X24.496 Y267.270
G01 X19.207 Y267.852
G01 X13.918 Y268.435
G01 X14.938 Y280.019
G01 X16.526 Y291.546
G01 X18.680 Y302.990
G01 X21.395 Y314.323
G01 X24.665 Y325.516
G01 X28.483 Y336.544
G01 X28.536 Y336.684
G01 X33.557 Y334.901
G01 X38.577 Y333.118
G01 X43.598 Y331.337
G01 X48.619 Y329.554
G01 X52.616 Y339.407
G01 X57.096 Y349.058
G01 X62.048 Y358.486
G01 X67.461 Y367.666
G01 X73.322 Y376.575
G01 X79.618 Y385.193
G01 X79.701 Y385.301
G01 X75.635 Y388.771
G01 X71.569 Y392.239
G01 X67.502 Y395.708
G01 X63.437 Y399.178
G01 X70.853 Y408.265
G01 X78.712 Y416.984
G01 X86.996 Y425.313
G01 X95.684 Y433.231
G01 X104.757 Y440.718
G01 X114.194 Y447.756
G01 X114.316 Y447.843
G01 X117.483 Y443.529
G01 X120.649 Y439.215
G01 X123.817 Y434.901
G01 X126.983 Y430.587
G01 X135.907 Y436.545
G01 X145.120 Y442.062
G01 X154.599 Y447.124
G01 X164.322 Y451.719
G01 X174.267 Y455.833
G01 X184.409 Y459.457
G01 X185.192 Y459.714
G01 X183.788 Y464.896
G01 X182.386 Y470.079
G01 X180.982 Y475.261
G01 X179.579 Y480.443
G01 X190.929 Y483.787
G01 X202.438 Y486.572
G01 X214.078 Y488.791
G01 X225.821 Y490.437
G01 X237.639 Y491.505
G01 X249.503 Y491.992
G01 X249.655 Y491.995
G01 X249.836 Y486.622
G01 X250.016 Y481.250
G01 X250.198 Y475.878
G01 X250.379 Y470.505
G01 X261.206 Y470.385
G01 X272.023 Y469.733
G01 X282.802 Y468.550
G01 X293.519 Y466.839
G01 X304.147 Y464.601
G01 X314.659 Y461.843
G01 X314.793 Y461.805
G01 X316.551 Y466.903
G01 X318.308 Y472.001
G01 X320.067 Y477.099
G01 X321.826 Y482.196
G01 X333.191 Y478.554
G01 X344.373 Y474.356
G01 X355.342 Y469.611
G01 X366.073 Y464.329
G01 X376.540 Y458.523
G01 X386.715 Y452.205
G01 X387.484 Y451.699
G01 X384.589 Y447.142
G01 X381.694 Y442.585
G01 X378.800 Y438.026
G01 X375.904 Y433.469
G01 X384.855 Y427.202
G01 X393.494 Y420.497
G01 X401.799 Y413.372
G01 X409.751 Y405.842
G01 X417.329 Y397.925
G01 X424.514 Y389.639
G01 X424.601 Y389.534
G01 X428.950 Y392.763
G01 X433.299 Y395.991
G01 X437.648 Y399.221
G01 X441.997 Y402.450
G01 X449.387 Y392.946
G01 X456.306 Y383.084
G01 X462.738 Y372.888
G01 X468.665 Y362.380
G01 X474.074 Y351.587
G01 X478.950 Y340.534
G01 X479.008 Y340.391
G01 X474.032 Y338.237
G01 X469.054 Y336.083
G01 X464.078 Y333.928
G01 X459.101 Y331.775
G01 X463.019 Y321.469
G01 X466.428 Y310.975
G01 X469.321 Y300.319
G01 X471.689 Y289.526
G01 X473.526 Y278.622
G01 X474.826 Y267.632
G01 X474.839 Y267.492
G01 X480.275 Y267.720
G01 X485.710 Y267.950
G01 X491.146 Y268.179
G01 X496.581 Y268.407
G01 X497.361 Y256.290
G01 X497.546 Y244.141
G01 X497.134 Y231.989
G01 X496.125 Y219.863
G01 X494.521 Y207.793
G01 X492.325 Y195.808
G01 X492.132 Y194.892
G01 X486.785 Y195.927
G01 X481.437 Y196.962
G01 X476.089 Y197.995
G01 X470.741 Y199.030
G01 X468.134 Y188.215
G01 X464.998 Y177.533
G01 X461.338 Y167.010
G01 X457.163 Y156.672
G01 X452.482 Y146.543
G01 X447.306 Y136.650
G01 X447.239 Y136.528
G01 X451.875 Y133.635
G01 X456.510 Y130.741
G01 X461.146 Y127.849
G01 X465.782 Y124.956
G01 X459.533 Y114.424
G01 X452.770 Y104.204
G01 X445.508 Y94.321
G01 X442.050 Y89.951

