;  Created by Sandify
;  https://sandify.org
;  Version: 0.2.6
;
;  Machine type: Rectangular
;    Min X (mm): 0
;    Max X (mm): 500
;    Min Y (mm): 0
;    Max Y (mm): 500
;  Content type: shape
;  Layer:
;    Shape: FileImport
;    Name: Cheesefoot Head 8-9-2012.thr
;    From file:: Cheesefoot Head 8-9-2012.thr
;    Aspect Ratio: true
;    Comments: 
;    Visible: true
;    Initial width: 10
;    Initial height: 10
;    X offset: 0
;    Y offset: 0
;    Rotate (degrees): 0
;    Reverse path: false
;    Fine tuning:
;      Connect to next layer: line
;      Draw portion of path (%): 100
;      Backtrack at end (%): 0
;      Rotate starting point (%): 0
;  Reverse export path: false
;
; File name: 'cheesefoot (C C)'
; File type: gcode
;

G01 X250.000 Y250.000
G01 X250.000 Y257.875
G01 X249.612 Y257.897
G01 X249.222 Y257.899
G01 X248.831 Y257.883
G01 X248.756 Y257.877
G01 X248.341 Y257.954
G01 X247.915 Y258.008
G01 X247.479 Y258.039
G01 X247.036 Y258.046
G01 X246.586 Y258.029
G01 X246.131 Y257.987
G01 X245.672 Y257.919
G01 X245.439 Y257.874
G01 X244.859 Y257.949
G01 X244.261 Y257.985
G01 X243.648 Y257.980
G01 X243.022 Y257.934
G01 X242.574 Y257.876
G01 X241.729 Y257.951
G01 X240.861 Y257.961
G01 X239.972 Y257.904
G01 X239.616 Y257.863
G01 X238.370 Y257.940
G01 X237.093 Y257.912
G01 X236.559 Y257.870
G01 X234.711 Y257.971
G01 X232.825 Y257.909
G01 X232.377 Y257.870
G01 X229.709 Y257.891
G01 X229.215 Y257.869
G01 X227.777 Y257.944
G01 X223.237 Y259.278
G01 X219.458 Y262.096
G01 X217.719 Y264.656
G01 X216.889 Y266.060
G01 X216.275 Y268.454
G01 X215.864 Y270.657
G01 X215.840 Y271.241
G01 X215.841 Y273.641
G01 X215.853 Y273.978
G01 X215.827 Y276.592
G01 X215.852 Y277.349
G01 X215.844 Y279.909
G01 X215.856 Y282.335
G01 X215.839 Y285.690
G01 X215.846 Y285.899
G01 X215.835 Y289.635
G01 X215.840 Y289.767
G01 X215.844 Y293.523
G01 X215.849 Y298.111
G01 X215.847 Y302.403
G01 X215.853 Y306.275
G01 X215.842 Y308.045
G01 X215.852 Y311.163
G01 X215.854 Y315.397
G01 X215.856 Y317.702
G01 X215.846 Y319.652
G01 X215.976 Y321.436
G01 X217.421 Y325.931
G01 X220.352 Y329.635
G01 X224.012 Y331.885
G01 X224.372 Y332.093
G01 X228.515 Y332.927
G01 X229.007 Y333.012
G01 X229.210 Y333.011
G01 X233.643 Y332.247
G01 X233.662 Y332.243
G01 X237.766 Y329.919
G01 X240.800 Y326.297
G01 X242.396 Y321.874
G01 X242.584 Y319.631
G01 X242.347 Y317.140
G01 X240.660 Y312.734
G01 X238.068 Y309.817
G01 X237.547 Y309.179
G01 X234.846 Y307.781
G01 X233.394 Y306.954
G01 X230.465 Y306.517
G01 X229.212 Y306.284
G01 X228.896 Y306.273
G01 X225.766 Y306.279
G01 X224.972 Y306.286
G01 X223.640 Y306.283
G01 X220.180 Y306.301
G01 X219.587 Y306.284
G01 X215.921 Y306.277
G01 X215.853 Y306.275
G01 X211.943 Y306.291
G01 X211.241 Y306.267
G01 X206.942 Y306.372
G01 X203.850 Y306.271
G01 X198.997 Y306.309
G01 X198.034 Y306.277
G01 X193.207 Y306.272
G01 X189.680 Y306.283
G01 X185.038 Y306.279
G01 X182.027 Y306.283
G01 X180.798 Y306.282
G01 X177.963 Y306.580
G01 X173.602 Y308.380
G01 X170.144 Y311.593
G01 X167.994 Y315.814
G01 X167.446 Y319.633
G01 X167.439 Y320.206
G01 X167.442 Y323.334
G01 X167.434 Y323.889
G01 X167.435 Y328.316
G01 X167.445 Y330.742
G01 X167.434 Y334.302
G01 X167.446 Y338.155
G01 X167.443 Y341.918
G01 X167.432 Y346.529
G01 X167.442 Y350.808
G01 X167.437 Y354.685
G01 X167.445 Y356.437
G01 X167.439 Y359.579
G01 X167.439 Y363.807
G01 X167.437 Y363.929
G01 X167.433 Y367.061
G01 X167.443 Y368.046
G01 X167.827 Y371.254
G01 X169.745 Y375.569
G01 X173.060 Y378.939
G01 X177.315 Y380.956
G01 X180.809 Y381.424
G01 X181.614 Y381.422
G01 X184.730 Y381.408
G01 X185.035 Y381.420
G01 X191.828 Y381.426
G01 X196.396 Y381.413
G01 X200.247 Y381.423
G01 X205.017 Y381.414
G01 X208.221 Y381.419
G01 X210.451 Y381.428
G01 X214.111 Y381.412
G01 X218.022 Y381.415
G01 X221.689 Y381.410
G01 X224.985 Y381.415
G01 X225.341 Y381.406
G01 X228.467 Y381.423
G01 X229.210 Y381.416
G01 X232.777 Y380.922
G01 X237.028 Y378.899
G01 X240.305 Y375.501
G01 X242.210 Y371.175
G01 X242.577 Y368.042
G01 X242.488 Y366.483
G01 X241.115 Y361.948
G01 X238.256 Y358.215
G01 X234.265 Y355.685
G01 X229.659 Y354.692
G01 X229.216 Y354.682
G01 X224.983 Y355.371
G01 X220.840 Y357.619
G01 X217.738 Y361.189
G01 X216.070 Y365.598
G01 X215.847 Y368.059
G01 X215.845 Y369.541
G01 X215.850 Y372.297
G01 X215.840 Y376.727
G01 X215.848 Y379.161
G01 X215.847 Y382.701
G01 X215.854 Y386.571
G01 X215.852 Y390.330
G01 X215.851 Y394.931
G01 X215.848 Y399.217
G01 X215.847 Y403.087
G01 X215.843 Y404.853
G01 X215.844 Y408.000
G01 X215.848 Y412.219
G01 X215.844 Y413.291
G01 X215.852 Y416.407
G01 X215.842 Y416.456
G01 X216.647 Y421.028
G01 X219.022 Y425.106
G01 X222.662 Y428.114
G01 X227.134 Y429.651
G01 X229.210 Y429.827
G01 X231.839 Y429.559
G01 X236.225 Y427.842
G01 X239.752 Y424.675
G01 X241.946 Y420.510
G01 X242.588 Y416.460
G01 X242.566 Y415.833
G01 X241.512 Y411.227
G01 X238.940 Y407.287
G01 X235.139 Y404.487
G01 X230.615 Y403.153
G01 X229.221 Y403.096
G01 X227.005 Y403.083
G01 X224.980 Y403.094
G01 X223.641 Y403.097
G01 X219.589 Y403.084
G01 X215.847 Y403.087
G01 X211.235 Y403.093
G01 X203.847 Y403.095
G01 X198.039 Y403.097
G01 X193.193 Y403.101
G01 X189.684 Y403.097
G01 X185.041 Y403.088
G01 X183.279 Y403.093
G01 X180.807 Y403.089
G01 X179.824 Y403.136
G01 X175.255 Y404.300
G01 X171.378 Y406.988
G01 X168.673 Y410.860
G01 X167.478 Y415.435
G01 X167.448 Y416.454
G01 X167.948 Y420.121
G01 X170.034 Y424.362
G01 X173.441 Y427.602
G01 X177.779 Y429.463
G01 X180.811 Y429.824
G01 X182.498 Y429.716
G01 X186.991 Y428.294
G01 X190.722 Y425.404
G01 X193.214 Y421.414
G01 X194.175 Y416.780
G01 X194.170 Y416.462
G01 X194.177 Y413.561
G01 X194.183 Y412.216
G01 X194.169 Y409.352
G01 X194.182 Y404.448
G01 X194.165 Y401.781
G01 X194.175 Y397.996
G01 X194.178 Y394.867
G01 X194.173 Y391.538
G01 X194.177 Y388.714
G01 X194.175 Y386.041
G01 X194.178 Y382.252
G01 X194.169 Y378.985
G01 X194.167 Y375.463
G01 X194.170 Y372.283
G01 X194.170 Y369.832
G01 X194.182 Y368.043
G01 X194.023 Y366.000
G01 X192.481 Y361.543
G01 X189.494 Y357.892
G01 X185.417 Y355.503
G01 X180.817 Y354.679
G01 X180.783 Y354.686
G01 X177.656 Y354.685
G01 X176.566 Y354.688
G01 X175.229 Y354.691
G01 X171.197 Y354.678
G01 X167.437 Y354.685
G01 X162.826 Y354.680
G01 X155.439 Y354.692
G01 X149.628 Y354.679
G01 X144.785 Y354.689
G01 X141.282 Y354.684
G01 X136.638 Y354.679
G01 X133.936 Y354.685
G01 X132.399 Y354.693
G01 X129.994 Y354.914
G01 X125.569 Y356.562
G01 X122.010 Y359.632
G01 X119.736 Y363.767
G01 X119.031 Y368.058
G01 X119.031 Y368.319
G01 X119.040 Y371.439
G01 X119.034 Y372.276
G01 X119.039 Y376.709
G01 X119.020 Y379.158
G01 X119.033 Y382.707
G01 X119.037 Y386.582
G01 X119.033 Y390.330
G01 X119.030 Y394.943
G01 X119.019 Y399.219
G01 X119.024 Y403.093
G01 X119.043 Y404.848
G01 X119.035 Y408.004
G01 X119.026 Y412.229
G01 X119.030 Y415.177
G01 X119.040 Y416.460
G01 X119.321 Y419.214
G01 X121.097 Y423.601
G01 X124.274 Y427.082
G01 X128.478 Y429.238
G01 X132.387 Y429.829
G01 X133.154 Y429.792
G01 X137.763 Y428.702
G01 X141.670 Y426.097
G01 X144.439 Y422.252
G01 X145.711 Y417.720
G01 X145.758 Y416.453
G01 X145.313 Y413.003
G01 X143.326 Y408.736
G01 X139.947 Y405.434
G01 X135.651 Y403.487
G01 X132.402 Y403.098
G01 X131.438 Y403.081
G01 X128.321 Y403.082
G01 X128.167 Y403.087
G01 X126.825 Y403.101
G01 X122.776 Y403.085
G01 X119.024 Y403.093
G01 X114.419 Y403.095
G01 X107.030 Y403.099
G01 X101.224 Y403.092
G01 X96.385 Y403.093
G01 X92.875 Y403.092
G01 X88.223 Y403.084
G01 X87.706 Y403.082
G01 X84.589 Y403.079
G01 X83.983 Y403.086
G01 X80.197 Y403.649
G01 X75.980 Y405.764
G01 X72.764 Y409.218
G01 X70.935 Y413.567
G01 X70.639 Y416.456
G01 X70.752 Y418.263
G01 X72.458 Y423.227
G01 X73.935 Y424.976
G01 X75.429 Y426.607
G01 X77.483 Y428.127
G01 X82.344 Y429.714
G01 X83.993 Y429.811
G01 X87.054 Y429.462
G01 X91.379 Y427.603
G01 X94.805 Y424.328
G01 X96.859 Y420.093
G01 X97.362 Y416.463
G01 X97.369 Y415.756
G01 X97.358 Y412.640
G01 X97.352 Y412.222
G01 X97.350 Y409.359
G01 X97.360 Y404.451
G01 X97.369 Y401.778
G01 X97.357 Y397.983
G01 X97.360 Y394.844
G01 X97.358 Y391.517
G01 X97.371 Y388.721
G01 X97.358 Y386.053
G01 X97.357 Y382.265
G01 X97.352 Y378.991
G01 X97.369 Y375.458
G01 X97.362 Y372.275
G01 X97.357 Y372.028
G01 X97.370 Y368.897
G01 X97.350 Y368.056
G01 X96.919 Y364.642
G01 X94.932 Y360.352
G01 X91.572 Y357.042
G01 X87.280 Y355.080
G01 X83.997 Y354.677
G01 X82.572 Y354.758
G01 X78.043 Y356.090
G01 X74.250 Y358.892
G01 X71.680 Y362.843
G01 X70.638 Y367.460
G01 X70.638 Y368.051
G01 X71.274 Y372.141
G01 X73.486 Y376.307
G01 X76.997 Y379.454
G01 X81.382 Y381.162
G01 X83.992 Y381.411
G01 X85.405 Y381.421
G01 X88.223 Y381.412
G01 X95.016 Y381.417
G01 X99.595 Y381.410
G01 X103.443 Y381.419
G01 X108.204 Y381.409
G01 X111.398 Y381.417
G01 X113.637 Y381.408
G01 X117.284 Y381.421
G01 X121.213 Y381.415
G01 X124.877 Y381.409
G01 X128.165 Y381.411
G01 X129.132 Y381.419
G01 X132.252 Y381.415
G01 X132.398 Y381.412
G01 X136.833 Y380.654
G01 X140.932 Y378.340
G01 X143.979 Y374.729
G01 X145.572 Y370.297
G01 X145.773 Y368.047
G01 X145.767 Y366.402
G01 X145.770 Y363.808
G01 X145.771 Y360.945
G01 X145.761 Y356.047
G01 X145.761 Y353.366
G01 X145.773 Y349.579
G01 X145.771 Y346.439
G01 X145.759 Y343.118
G01 X145.763 Y340.321
G01 X145.768 Y337.632
G01 X145.762 Y333.846
G01 X145.765 Y330.580
G01 X145.765 Y327.057
G01 X145.775 Y323.873
G01 X145.763 Y322.682
G01 X145.772 Y319.635
G01 X145.771 Y319.500
G01 X144.879 Y314.870
G01 X142.457 Y310.820
G01 X138.759 Y307.884
G01 X134.292 Y306.407
G01 X132.395 Y306.273
G01 X130.516 Y306.279
G01 X128.168 Y306.273
G01 X126.824 Y306.282
G01 X122.791 Y306.274
G01 X119.027 Y306.272
G01 X114.414 Y306.272
G01 X107.027 Y306.277
G01 X101.212 Y306.276
G01 X96.386 Y306.282
G01 X92.872 Y306.272
G01 X88.235 Y306.277
G01 X86.778 Y306.272
G01 X84.001 Y306.265
G01 X83.506 Y306.284
G01 X78.887 Y307.294
G01 X74.916 Y309.833
G01 X72.075 Y313.599
G01 X70.705 Y318.122
G01 X70.618 Y319.637
G01 X71.005 Y322.845
G01 X72.927 Y327.150
G01 X76.223 Y330.519
G01 X80.484 Y332.555
G01 X83.998 Y333.011
G01 X85.197 Y332.948
G01 X89.751 Y331.703
G01 X93.577 Y328.966
G01 X96.210 Y325.049
G01 X97.326 Y320.463
G01 X97.358 Y319.635
G01 X97.353 Y317.053
G01 X97.347 Y315.406
G01 X97.361 Y312.528
G01 X97.372 Y307.641
G01 X97.367 Y304.955
G01 X97.351 Y301.179
G01 X97.356 Y298.039
G01 X97.366 Y294.718
G01 X97.347 Y291.903
G01 X97.362 Y289.235
G01 X97.359 Y285.434
G01 X97.356 Y282.183
G01 X97.364 Y278.643
G01 X97.362 Y275.479
G01 X97.348 Y273.336
G01 X97.369 Y271.228
G01 X97.262 Y269.673
G01 X95.894 Y265.166
G01 X93.038 Y261.399
G01 X89.069 Y258.860
G01 X84.437 Y257.870
G01 X83.987 Y257.874
G01 X79.790 Y258.551
G01 X75.635 Y260.806
G01 X72.529 Y264.352
G01 X70.856 Y268.770
G01 X70.627 Y271.228
G01 X70.809 Y273.499
G01 X72.433 Y277.927
G01 X75.474 Y281.523
G01 X79.580 Y283.854
G01 X83.993 Y284.602
G01 X84.147 Y284.605
G01 X87.287 Y284.595
G01 X88.233 Y284.597
G01 X95.017 Y284.608
G01 X99.578 Y284.601
G01 X103.431 Y284.611
G01 X108.185 Y284.599
G01 X111.405 Y284.607
G01 X113.622 Y284.605
G01 X117.288 Y284.608
G01 X121.218 Y284.603
G01 X124.871 Y284.603
G01 X128.167 Y284.598
G01 X131.004 Y284.604
G01 X132.411 Y284.604
G01 X135.017 Y284.337
G01 X139.409 Y282.616
G01 X142.932 Y279.470
G01 X145.135 Y275.306
G01 X145.767 Y271.237
G01 X145.745 Y270.623
G01 X144.712 Y266.020
G01 X142.124 Y262.078
G01 X138.334 Y259.267
G01 X133.821 Y257.947
G01 X132.388 Y257.868
G01 X129.108 Y258.281
G01 X124.818 Y260.237
G01 X121.463 Y263.559
G01 X119.463 Y267.836
G01 X119.034 Y271.229
G01 X119.027 Y272.105
G01 X119.033 Y275.228
G01 X119.029 Y275.473
G01 X119.046 Y279.903
G01 X119.034 Y282.341
G01 X119.030 Y285.894
G01 X119.026 Y289.755
G01 X119.040 Y293.514
G01 X119.035 Y298.117
G01 X119.043 Y302.396
G01 X119.027 Y306.272
G01 X119.037 Y308.045
G01 X119.034 Y311.176
G01 X119.026 Y315.413
G01 X119.040 Y315.832
G01 X119.040 Y318.946
G01 X119.037 Y319.635
G01 X119.547 Y323.278
G01 X121.620 Y327.531
G01 X125.018 Y330.798
G01 X129.352 Y332.663
G01 X132.400 Y333.017
G01 X133.500 Y333.012
G01 X136.617 Y333.016
G01 X136.638 Y333.001
G01 X143.413 Y333.013
G01 X147.986 Y333.018
G01 X151.845 Y333.010
G01 X156.607 Y333.008
G01 X159.813 Y333.012
G01 X162.040 Y333.017
G01 X165.707 Y333.004
G01 X169.620 Y333.011
G01 X173.281 Y332.999
G01 X176.574 Y333.011
G01 X177.221 Y333.014
G01 X180.357 Y333.003
G01 X180.799 Y333.014
G01 X184.799 Y332.399
G01 X188.988 Y330.207
G01 X192.155 Y326.710
G01 X193.906 Y322.321
G01 X194.179 Y319.639
G01 X194.169 Y318.312
G01 X194.171 Y315.415
G01 X194.175 Y312.531
G01 X194.170 Y307.646
G01 X194.168 Y304.968
G01 X194.182 Y301.172
G01 X194.175 Y298.041
G01 X194.173 Y294.712
G01 X194.177 Y291.902
G01 X194.177 Y289.223
G01 X194.173 Y285.438
G01 X194.184 Y282.173
G01 X194.174 Y278.653
G01 X194.186 Y275.469
G01 X194.168 Y274.572
G01 X194.178 Y271.446
G01 X194.177 Y271.235
G01 X193.649 Y268.325
G01 X193.445 Y266.895
G01 X191.937 Y264.283
G01 X191.145 Y262.772
G01 X188.188 Y260.268
G01 X187.575 Y259.703
G01 X183.136 Y258.076
G01 X180.796 Y257.867
G01 X178.430 Y258.085
G01 X173.996 Y259.735
G01 X170.426 Y262.817
G01 X168.137 Y266.952
G01 X167.438 Y271.240
G01 X167.458 Y271.613
G01 X168.298 Y275.738
G01 X168.414 Y276.233
G01 X170.692 Y279.868
G01 X170.929 Y280.223
G01 X174.653 Y283.107
G01 X179.181 Y284.498
G01 X180.818 Y284.595
G01 X182.841 Y284.605
G01 X185.043 Y284.605
G01 X191.836 Y284.596
G01 X196.400 Y284.605
G01 X200.253 Y284.606
G01 X205.015 Y284.597
G01 X208.222 Y284.607
G01 X210.447 Y284.599
G01 X214.112 Y284.598
G01 X217.452 Y284.616
G01 X218.036 Y284.594
G01 X221.030 Y284.617
G01 X221.692 Y284.594
G01 X224.401 Y284.619
G01 X224.978 Y284.601
G01 X227.470 Y284.613
G01 X227.821 Y284.602
G01 X229.211 Y284.611
G01 X231.586 Y284.372
G01 X231.829 Y284.339
G01 X234.361 Y283.426
G01 X236.224 Y282.610
G01 X238.936 Y280.254
G01 X239.742 Y279.466
G01 X241.949 Y275.300
G01 X242.579 Y271.241
G01 X242.440 Y268.646
G01 X242.535 Y266.095
G01 X242.581 Y265.601
G01 X242.430 Y264.091
G01 X242.407 Y262.607
G01 X242.511 Y261.158
G01 X242.582 Y260.615
G01 X242.508 Y259.674
G01 X242.506 Y258.752
G01 X242.574 Y257.876
G01 X243.118 Y258.057
G01 X243.661 Y258.205
G01 X244.202 Y258.318
G01 X244.738 Y258.399
G01 X245.268 Y258.448
G01 X245.790 Y258.466
G01 X246.302 Y258.453
G01 X246.802 Y258.411
G01 X247.290 Y258.340
G01 X247.762 Y258.243
G01 X248.218 Y258.120
G01 X248.657 Y257.972
G01 X249.076 Y257.802
G01 X249.476 Y257.610
G01 X249.854 Y257.398
G01 X250.211 Y257.168
G01 X250.544 Y256.921
G01 X250.854 Y256.660
G01 X251.140 Y256.385
G01 X251.401 Y256.099
G01 X251.636 Y255.803
G01 X251.846 Y255.499
G01 X252.031 Y255.189
G01 X252.189 Y254.875
G01 X252.322 Y254.558
G01 X252.430 Y254.241
G01 X252.512 Y253.924
G01 X252.569 Y253.610
G01 X252.601 Y253.300
G01 X252.610 Y252.996
G01 X252.596 Y252.700
G01 X252.559 Y252.413
G01 X252.501 Y252.136
G01 X252.422 Y251.871
G01 X252.323 Y251.619
G01 X252.206 Y251.382
G01 X252.072 Y251.161
G01 X251.922 Y250.956
G01 X251.758 Y250.769
G01 X251.580 Y250.601
G01 X251.390 Y250.452
G01 X251.190 Y250.323
G01 X250.982 Y250.215
G01 X250.766 Y250.129
G01 X250.545 Y250.064
G01 X250.319 Y250.022
G01 X250.092 Y250.002
G01 X250.000 Y250.000
G01 X250.642 Y249.968
G01 X251.279 Y249.874
G01 X251.907 Y249.717
G01 X252.522 Y249.498
G01 X253.118 Y249.219
G01 X253.691 Y248.880
G01 X254.236 Y248.484
G01 X254.751 Y248.032
G01 X255.230 Y247.527
G01 X255.669 Y246.970
G01 X256.065 Y246.365
G01 X256.414 Y245.715
G01 X256.712 Y245.022
G01 X256.956 Y244.291
G01 X257.144 Y243.525
G01 X257.272 Y242.728
G01 X257.318 Y242.262
G01 X257.426 Y242.124
G01 X257.494 Y241.226
G01 X257.491 Y240.304
G01 X257.417 Y239.385
G01 X257.568 Y237.951
G01 X257.594 Y236.479
G01 X257.492 Y234.978
G01 X257.419 Y234.399
G01 X257.560 Y231.858
G01 X257.467 Y229.270
G01 X257.421 Y228.759
G01 X258.051 Y224.700
G01 X260.257 Y220.534
G01 X262.885 Y218.119
G01 X263.775 Y217.390
G01 X266.203 Y216.352
G01 X268.170 Y215.661
G01 X270.538 Y215.406
G01 X270.789 Y215.389
G01 X272.179 Y215.398
G01 X274.662 Y215.387
G01 X275.021 Y215.399
G01 X277.717 Y215.385
G01 X278.308 Y215.406
G01 X281.283 Y215.385
G01 X281.967 Y215.409
G01 X285.296 Y215.381
G01 X285.888 Y215.401
G01 X289.552 Y215.401
G01 X291.778 Y215.392
G01 X294.985 Y215.403
G01 X299.747 Y215.393
G01 X303.599 Y215.394
G01 X308.163 Y215.403
G01 X314.957 Y215.394
G01 X317.158 Y215.394
G01 X319.182 Y215.404
G01 X320.819 Y215.501
G01 X325.347 Y216.893
G01 X329.070 Y219.776
G01 X331.365 Y223.396
G01 X331.586 Y223.766
G01 X332.452 Y227.888
G01 X332.542 Y228.386
G01 X332.562 Y228.760
G01 X331.863 Y233.047
G01 X329.574 Y237.183
G01 X326.004 Y240.264
G01 X321.570 Y241.914
G01 X319.204 Y242.132
G01 X316.864 Y241.924
G01 X312.425 Y240.297
G01 X309.490 Y237.737
G01 X308.855 Y237.227
G01 X307.415 Y234.555
G01 X306.555 Y233.104
G01 X306.101 Y230.194
G01 X305.822 Y228.765
G01 X305.822 Y228.554
G01 X305.832 Y225.428
G01 X305.816 Y224.536
G01 X305.829 Y221.352
G01 X305.816 Y217.826
G01 X305.827 Y214.562
G01 X305.822 Y210.776
G01 X305.823 Y208.098
G01 X305.826 Y205.287
G01 X305.824 Y201.959
G01 X305.818 Y198.828
G01 X305.832 Y195.032
G01 X305.830 Y192.354
G01 X305.825 Y187.468
G01 X305.829 Y184.585
G01 X305.831 Y181.688
G01 X305.820 Y180.361
G01 X306.093 Y177.679
G01 X307.844 Y173.290
G01 X311.011 Y169.793
G01 X315.200 Y167.600
G01 X319.201 Y166.985
G01 X319.643 Y166.996
G01 X322.779 Y166.986
G01 X323.425 Y166.988
G01 X326.718 Y167.000
G01 X330.380 Y166.989
G01 X334.292 Y166.995
G01 X337.968 Y166.991
G01 X340.186 Y166.987
G01 X343.392 Y166.991
G01 X348.154 Y166.989
G01 X352.013 Y166.981
G01 X356.587 Y166.986
G01 X363.362 Y166.998
G01 X363.382 Y166.983
G01 X366.500 Y166.987
G01 X367.607 Y166.993
G01 X370.647 Y167.336
G01 X374.981 Y169.201
G01 X378.379 Y172.468
G01 X380.452 Y176.721
G01 X380.962 Y180.364
G01 X380.959 Y181.053
G01 X380.966 Y184.180
G01 X380.973 Y184.586
G01 X380.966 Y188.823
G01 X380.963 Y191.954
G01 X380.973 Y193.727
G01 X380.957 Y197.603
G01 X380.965 Y201.882
G01 X380.960 Y206.485
G01 X380.974 Y210.244
G01 X380.970 Y214.105
G01 X380.966 Y217.658
G01 X380.954 Y220.096
G01 X380.971 Y224.526
G01 X380.970 Y224.784
G01 X380.975 Y227.908
G01 X380.965 Y228.770
G01 X380.537 Y232.163
G01 X378.537 Y236.440
G01 X375.182 Y239.762
G01 X370.892 Y241.718
G01 X367.612 Y242.131
G01 X366.178 Y242.052
G01 X361.666 Y240.732
G01 X357.876 Y237.921
G01 X355.288 Y233.979
G01 X354.255 Y229.376
G01 X354.233 Y228.762
G01 X354.865 Y224.693
G01 X357.068 Y220.529
G01 X360.590 Y217.383
G01 X364.982 Y215.662
G01 X367.589 Y215.396
G01 X368.995 Y215.395
G01 X371.832 Y215.401
G01 X375.128 Y215.396
G01 X378.782 Y215.396
G01 X382.711 Y215.391
G01 X386.378 Y215.394
G01 X388.594 Y215.392
G01 X391.815 Y215.400
G01 X396.572 Y215.402
G01 X400.421 Y215.397
G01 X404.983 Y215.391
G01 X411.766 Y215.402
G01 X412.713 Y215.403
G01 X415.853 Y215.394
G01 X416.007 Y215.396
G01 X420.420 Y216.145
G01 X424.526 Y218.475
G01 X427.567 Y222.072
G01 X429.193 Y226.517
G01 X429.373 Y228.771
G01 X429.144 Y231.228
G01 X427.470 Y235.646
G01 X424.365 Y239.192
G01 X420.210 Y241.448
G01 X416.013 Y242.124
G01 X415.563 Y242.129
G01 X410.931 Y241.139
G01 X406.962 Y238.600
G01 X404.105 Y234.833
G01 X402.738 Y230.326
G01 X402.631 Y228.771
G01 X402.651 Y226.663
G01 X402.641 Y224.536
G01 X402.636 Y221.356
G01 X402.644 Y217.815
G01 X402.641 Y214.565
G01 X402.642 Y210.780
G01 X402.653 Y208.096
G01 X402.638 Y205.297
G01 X402.644 Y201.960
G01 X402.649 Y198.820
G01 X402.633 Y195.044
G01 X402.628 Y192.358
G01 X402.639 Y187.470
G01 X402.653 Y184.593
G01 X402.646 Y182.945
G01 X402.641 Y180.364
G01 X402.674 Y179.536
G01 X403.790 Y174.950
G01 X406.423 Y171.033
G01 X410.248 Y168.296
G01 X414.802 Y167.051
G01 X416.001 Y166.988
G01 X419.524 Y167.461
G01 X423.777 Y169.480
G01 X427.072 Y172.849
G01 X428.994 Y177.154
G01 X429.382 Y180.362
G01 X429.294 Y181.877
G01 X427.924 Y186.399
G01 X425.083 Y190.166
G01 X421.113 Y192.705
G01 X416.493 Y193.714
G01 X415.998 Y193.734
G01 X413.222 Y193.727
G01 X411.765 Y193.722
G01 X407.127 Y193.727
G01 X403.614 Y193.717
G01 X398.788 Y193.723
G01 X392.972 Y193.722
G01 X385.586 Y193.727
G01 X380.973 Y193.727
G01 X377.208 Y193.725
G01 X373.175 Y193.717
G01 X371.832 Y193.726
G01 X369.484 Y193.720
G01 X367.605 Y193.726
G01 X365.708 Y193.592
G01 X361.241 Y192.115
G01 X357.543 Y189.179
G01 X355.120 Y185.130
G01 X354.228 Y180.499
G01 X354.228 Y180.364
G01 X354.237 Y177.317
G01 X354.224 Y176.126
G01 X354.234 Y172.942
G01 X354.234 Y169.419
G01 X354.238 Y166.154
G01 X354.231 Y162.367
G01 X354.236 Y159.678
G01 X354.240 Y156.882
G01 X354.228 Y153.561
G01 X354.226 Y150.420
G01 X354.238 Y146.633
G01 X354.238 Y143.952
G01 X354.229 Y139.055
G01 X354.229 Y136.191
G01 X354.232 Y133.597
G01 X354.226 Y131.952
G01 X354.427 Y129.702
G01 X356.020 Y125.270
G01 X359.067 Y121.659
G01 X363.166 Y119.345
G01 X367.601 Y118.588
G01 X367.747 Y118.584
G01 X370.867 Y118.580
G01 X371.834 Y118.588
G01 X375.122 Y118.590
G01 X378.786 Y118.584
G01 X382.715 Y118.578
G01 X386.362 Y118.591
G01 X388.601 Y118.582
G01 X391.795 Y118.590
G01 X396.556 Y118.580
G01 X400.404 Y118.589
G01 X404.983 Y118.582
G01 X411.776 Y118.587
G01 X414.607 Y118.594
G01 X416.007 Y118.588
G01 X418.617 Y118.837
G01 X423.002 Y120.545
G01 X426.513 Y123.691
G01 X428.725 Y127.858
G01 X429.361 Y131.948
G01 X429.361 Y132.539
G01 X428.319 Y137.156
G01 X425.749 Y141.107
G01 X421.966 Y143.926
G01 X417.427 Y145.241
G01 X416.002 Y145.322
G01 X412.720 Y144.919
G01 X408.427 Y142.957
G01 X405.067 Y139.646
G01 X403.080 Y135.357
G01 X402.649 Y131.943
G01 X402.630 Y131.102
G01 X402.642 Y127.970
G01 X402.637 Y127.724
G01 X402.630 Y124.541
G01 X402.647 Y121.008
G01 X402.642 Y117.734
G01 X402.641 Y113.946
G01 X402.642 Y111.293
G01 X402.641 Y108.482
G01 X402.639 Y105.155
G01 X402.642 Y102.016
G01 X402.629 Y98.221
G01 X402.639 Y95.548
G01 X402.649 Y90.640
G01 X402.647 Y87.776
G01 X402.641 Y87.359
G01 X402.630 Y84.243
G01 X402.637 Y83.536
G01 X403.140 Y79.906
G01 X405.193 Y75.671
G01 X408.620 Y72.395
G01 X412.944 Y70.537
G01 X416.005 Y70.187
G01 X417.654 Y70.285
G01 X422.516 Y71.871
G01 X424.570 Y73.391
G01 X426.064 Y75.022
G01 X427.541 Y76.772
G01 X429.247 Y81.736
G01 X429.360 Y83.543
G01 X429.064 Y86.432
G01 X427.235 Y90.781
G01 X424.019 Y94.235
G01 X419.802 Y96.350
G01 X416.016 Y96.913
G01 X415.410 Y96.920
G01 X412.293 Y96.917
G01 X411.776 Y96.915
G01 X407.124 Y96.907
G01 X403.613 Y96.906
G01 X398.775 Y96.906
G01 X392.969 Y96.900
G01 X385.579 Y96.904
G01 X380.975 Y96.906
G01 X377.223 Y96.914
G01 X373.174 Y96.898
G01 X371.832 Y96.912
G01 X371.678 Y96.917
G01 X368.561 Y96.918
G01 X367.597 Y96.901
G01 X364.348 Y96.512
G01 X360.052 Y94.566
G01 X356.673 Y91.263
G01 X354.686 Y86.996
G01 X354.241 Y83.546
G01 X354.288 Y82.279
G01 X355.560 Y77.747
G01 X358.329 Y73.902
G01 X362.253 Y71.308
G01 X366.844 Y70.207
G01 X367.611 Y70.170
G01 X371.520 Y70.761
G01 X375.725 Y72.918
G01 X378.902 Y76.398
G01 X380.677 Y80.785
G01 X380.958 Y83.539
G01 X380.969 Y84.822
G01 X380.972 Y87.770
G01 X380.980 Y92.008
G01 X380.956 Y95.151
G01 X380.975 Y96.906
G01 X380.979 Y100.780
G01 X380.969 Y105.056
G01 X380.966 Y109.669
G01 X380.962 Y113.417
G01 X380.966 Y117.292
G01 X380.979 Y120.841
G01 X380.960 Y123.290
G01 X380.965 Y127.723
G01 X380.971 Y128.573
G01 X380.968 Y131.680
G01 X380.968 Y131.941
G01 X380.264 Y136.232
G01 X377.989 Y140.367
G01 X374.430 Y143.437
G01 X370.016 Y145.098
G01 X367.600 Y145.306
G01 X366.063 Y145.314
G01 X363.361 Y145.320
G01 X358.717 Y145.315
G01 X355.214 Y145.310
G01 X350.372 Y145.321
G01 X344.560 Y145.308
G01 X337.173 Y145.319
G01 X332.562 Y145.314
G01 X328.803 Y145.321
G01 X324.770 Y145.309
G01 X323.433 Y145.312
G01 X322.343 Y145.314
G01 X319.217 Y145.313
G01 X319.192 Y145.327
G01 X314.582 Y144.497
G01 X310.505 Y142.108
G01 X307.518 Y138.457
G01 X305.976 Y134.000
G01 X305.817 Y131.956
G01 X305.829 Y130.167
G01 X305.829 Y127.717
G01 X305.832 Y124.537
G01 X305.830 Y121.014
G01 X305.821 Y117.748
G01 X305.824 Y113.958
G01 X305.822 Y111.286
G01 X305.826 Y108.462
G01 X305.836 Y105.138
G01 X305.824 Y102.003
G01 X305.834 Y98.219
G01 X305.817 Y95.552
G01 X305.830 Y90.647
G01 X305.816 Y87.784
G01 X305.822 Y86.438
G01 X305.828 Y83.537
G01 X305.824 Y83.220
G01 X306.784 Y78.586
G01 X309.277 Y74.595
G01 X313.008 Y71.706
G01 X317.501 Y70.283
G01 X319.188 Y70.176
G01 X322.220 Y70.536
G01 X326.557 Y72.398
G01 X329.965 Y75.637
G01 X332.051 Y79.878
G01 X332.551 Y83.546
G01 X332.521 Y84.564
G01 X331.326 Y89.139
G01 X328.621 Y93.012
G01 X324.743 Y95.700
G01 X320.190 Y96.870
G01 X319.192 Y96.910
G01 X316.720 Y96.907
G01 X314.958 Y96.911
G01 X310.315 Y96.903
G01 X306.806 Y96.899
G01 X301.960 Y96.902
G01 X296.151 Y96.905
G01 X288.764 Y96.906
G01 X284.152 Y96.913
G01 X280.409 Y96.916
G01 X276.358 Y96.902
G01 X275.019 Y96.906
G01 X272.994 Y96.917
G01 X270.793 Y96.906
G01 X269.383 Y96.847
G01 X264.860 Y95.513
G01 X261.059 Y92.713
G01 X258.487 Y88.773
G01 X257.433 Y84.167
G01 X257.411 Y83.540
G01 X258.053 Y79.490
G01 X260.246 Y75.325
G01 X263.773 Y72.158
G01 X268.160 Y70.441
G01 X270.789 Y70.173
G01 X272.865 Y70.349
G01 X277.337 Y71.886
G01 X280.977 Y74.894
G01 X283.352 Y78.972
G01 X284.157 Y83.543
G01 X284.147 Y83.592
G01 X284.155 Y86.709
G01 X284.151 Y87.781
G01 X284.155 Y91.999
G01 X284.156 Y95.147
G01 X284.152 Y96.913
G01 X284.151 Y100.783
G01 X284.148 Y105.068
G01 X284.147 Y109.670
G01 X284.145 Y113.429
G01 X284.152 Y117.299
G01 X284.151 Y120.839
G01 X284.159 Y123.273
G01 X284.149 Y127.703
G01 X284.154 Y130.458
G01 X284.152 Y131.941
G01 X283.929 Y134.401
G01 X282.261 Y138.811
G01 X279.159 Y142.380
G01 X275.016 Y144.629
G01 X270.784 Y145.318
G01 X270.350 Y145.310
G01 X265.734 Y144.315
G01 X261.743 Y141.785
G01 X258.884 Y138.052
G01 X257.511 Y133.517
G01 X257.422 Y131.958
G01 X257.789 Y128.825
G01 X259.694 Y124.499
G01 X262.971 Y121.101
G01 X267.222 Y119.078
G01 X270.789 Y118.584
G01 X271.532 Y118.577
G01 X274.658 Y118.594
G01 X275.027 Y118.587
G01 X278.310 Y118.590
G01 X281.978 Y118.585
G01 X285.888 Y118.587
G01 X289.562 Y118.575
G01 X291.778 Y118.581
G01 X294.982 Y118.585
G01 X299.752 Y118.577
G01 X303.603 Y118.587
G01 X308.171 Y118.573
G01 X314.964 Y118.580
G01 X315.269 Y118.591
G01 X318.398 Y118.584
G01 X319.190 Y118.575
G01 X322.684 Y119.044
G01 X326.939 Y121.060
G01 X330.255 Y124.431
G01 X332.172 Y128.746
G01 X332.556 Y131.954
G01 X332.567 Y132.939
G01 X332.562 Y136.070
G01 X332.560 Y136.192
G01 X332.560 Y140.421
G01 X332.554 Y143.563
G01 X332.562 Y145.314
G01 X332.558 Y149.192
G01 X332.567 Y153.470
G01 X332.557 Y158.082
G01 X332.554 Y161.844
G01 X332.566 Y165.698
G01 X332.554 Y169.258
G01 X332.564 Y171.683
G01 X332.565 Y176.111
G01 X332.558 Y176.666
G01 X332.560 Y179.794
G01 X332.554 Y180.366
G01 X332.006 Y184.185
G01 X329.856 Y188.406
G01 X326.398 Y191.620
G01 X322.036 Y193.419
G01 X319.202 Y193.717
G01 X317.972 Y193.717
G01 X314.962 Y193.721
G01 X310.319 Y193.716
G01 X306.792 Y193.727
G01 X301.966 Y193.723
G01 X297.090 Y193.695
G01 X296.149 Y193.729
G01 X291.779 Y193.629
G01 X288.759 Y193.732
G01 X284.832 Y193.707
G01 X284.153 Y193.728
G01 X280.487 Y193.714
G01 X280.412 Y193.716
G01 X276.940 Y193.699
G01 X276.359 Y193.717
G01 X275.028 Y193.713
G01 X274.233 Y193.721
G01 X271.109 Y193.729
G01 X270.787 Y193.716
G01 X267.859 Y193.215
G01 X266.605 Y193.046
G01 X263.963 Y191.581
G01 X262.452 Y190.821
G01 X259.917 Y187.882
G01 X259.340 Y187.266
G01 X257.653 Y182.860
G01 X257.415 Y180.369
G01 X257.603 Y178.126
G01 X259.199 Y173.703
G01 X262.233 Y170.081
G01 X266.337 Y167.757
G01 X270.770 Y166.991
G01 X270.789 Y166.989
G01 X271.001 Y166.990
G01 X275.147 Y167.800
G01 X275.628 Y167.907
G01 X279.303 Y170.140
G01 X279.655 Y170.368
G01 X282.578 Y174.069
G01 X284.024 Y178.564
G01 X284.153 Y180.348
G01 X284.143 Y182.297
G01 X284.146 Y184.603
G01 X284.147 Y188.837
G01 X284.158 Y191.954
G01 X284.153 Y193.728
G01 X284.153 Y197.597
G01 X284.151 Y201.889
G01 X284.156 Y206.477
G01 X284.160 Y210.232
G01 X284.159 Y213.972
G01 X284.154 Y214.101
G01 X284.152 Y217.461
G01 X284.144 Y217.665
G01 X284.156 Y220.091
G01 X284.148 Y222.650
G01 X284.172 Y225.282
G01 X284.147 Y226.022
G01 X284.169 Y228.429
G01 X284.160 Y228.759
G01 X284.136 Y229.342
G01 X283.663 Y231.823
G01 X283.111 Y233.940
G01 X281.464 Y236.604
G01 X280.542 Y237.904
G01 X276.762 Y240.722
G01 X272.223 Y242.056
G01 X270.785 Y242.131
G01 X268.109 Y242.108
G01 X267.623 Y242.130
G01 X265.728 Y242.028
G01 X263.870 Y242.092
G01 X263.441 Y242.130
G01 X262.153 Y242.059
G01 X260.893 Y242.093
G01 X260.384 Y242.137
G01 X259.489 Y242.053
G01 X258.612 Y242.037
G01 X257.757 Y242.086
G01 X257.426 Y242.124
G01 X256.793 Y242.048
G01 X256.170 Y242.014
G01 X255.561 Y242.022
G01 X254.968 Y242.069
G01 X254.561 Y242.126
G01 X254.100 Y242.044
G01 X253.643 Y241.989
G01 X253.190 Y241.960
G01 X252.744 Y241.955
G01 X252.304 Y241.974
G01 X251.873 Y242.016
G01 X251.452 Y242.081
G01 X251.244 Y242.123
G01 X250.852 Y242.102
G01 X250.462 Y242.101
G01 X250.074 Y242.119
G01 X250.000 Y242.125
G01 X249.612 Y242.103
G01 X249.222 Y242.101
G01 X248.831 Y242.117
G01 X248.756 Y242.123
G01 X248.341 Y242.046
G01 X247.914 Y241.992
G01 X247.479 Y241.961
G01 X247.036 Y241.954
G01 X246.586 Y241.971
G01 X246.131 Y242.013
G01 X245.672 Y242.081
G01 X245.439 Y242.126
G01 X244.859 Y242.051
G01 X244.261 Y242.015
G01 X243.648 Y242.020
G01 X243.022 Y242.066
G01 X242.574 Y242.124
G01 X241.729 Y242.049
G01 X240.861 Y242.039
G01 X239.972 Y242.096
G01 X239.616 Y242.137
G01 X238.370 Y242.060
G01 X237.093 Y242.088
G01 X236.559 Y242.130
G01 X234.711 Y242.029
G01 X232.825 Y242.092
G01 X232.377 Y242.130
G01 X229.709 Y242.109
G01 X229.215 Y242.131
G01 X227.778 Y242.054
G01 X223.237 Y240.723
G01 X219.459 Y237.901
G01 X217.717 Y235.339
G01 X216.889 Y233.941
G01 X216.275 Y231.546
G01 X215.864 Y229.343
G01 X215.840 Y228.760
G01 X215.840 Y226.360
G01 X215.853 Y226.022
G01 X215.827 Y223.408
G01 X215.852 Y222.651
G01 X215.844 Y220.092
G01 X215.856 Y217.665
G01 X215.839 Y214.310
G01 X215.846 Y214.102
G01 X215.834 Y210.365
G01 X215.839 Y210.233
G01 X215.843 Y206.478
G01 X215.853 Y201.886
G01 X215.846 Y197.597
G01 X215.852 Y193.725
G01 X215.847 Y191.952
G01 X215.852 Y188.837
G01 X215.853 Y184.603
G01 X215.856 Y182.298
G01 X215.845 Y180.348
G01 X215.975 Y178.564
G01 X217.428 Y174.066
G01 X220.351 Y170.365
G01 X224.012 Y168.115
G01 X224.371 Y167.908
G01 X228.514 Y167.074
G01 X229.006 Y166.989
G01 X229.218 Y166.987
G01 X233.652 Y167.755
G01 X233.662 Y167.757
G01 X237.765 Y170.081
G01 X240.800 Y173.703
G01 X242.396 Y178.126
G01 X242.584 Y180.369
G01 X242.346 Y182.860
G01 X240.659 Y187.267
G01 X238.068 Y190.183
G01 X237.547 Y190.821
G01 X234.846 Y192.219
G01 X233.394 Y193.047
G01 X230.465 Y193.483
G01 X229.212 Y193.716
G01 X228.895 Y193.727
G01 X225.766 Y193.721
G01 X224.972 Y193.714
G01 X223.640 Y193.717
G01 X220.180 Y193.699
G01 X219.587 Y193.716
G01 X215.921 Y193.723
G01 X215.852 Y193.725
G01 X211.943 Y193.710
G01 X211.240 Y193.733
G01 X206.942 Y193.629
G01 X203.850 Y193.730
G01 X198.997 Y193.691
G01 X198.033 Y193.724
G01 X193.207 Y193.728
G01 X189.680 Y193.717
G01 X185.037 Y193.722
G01 X182.027 Y193.718
G01 X180.797 Y193.718
G01 X177.963 Y193.421
G01 X173.602 Y191.621
G01 X170.143 Y188.407
G01 X167.993 Y184.186
G01 X167.445 Y180.368
G01 X167.439 Y179.795
G01 X167.441 Y176.667
G01 X167.434 Y176.112
G01 X167.434 Y171.684
G01 X167.445 Y169.259
G01 X167.433 Y165.699
G01 X167.445 Y161.845
G01 X167.442 Y158.083
G01 X167.432 Y153.471
G01 X167.441 Y149.193
G01 X167.436 Y145.316
G01 X167.444 Y143.564
G01 X167.438 Y140.422
G01 X167.438 Y136.193
G01 X167.448 Y136.063
G01 X167.432 Y132.940
G01 X167.442 Y131.955
G01 X167.826 Y128.747
G01 X169.756 Y124.424
G01 X173.059 Y121.061
G01 X177.314 Y119.045
G01 X180.808 Y118.576
G01 X181.613 Y118.579
G01 X184.729 Y118.592
G01 X185.034 Y118.581
G01 X191.827 Y118.574
G01 X196.409 Y118.582
G01 X200.259 Y118.573
G01 X205.016 Y118.586
G01 X208.220 Y118.581
G01 X210.450 Y118.572
G01 X214.110 Y118.588
G01 X218.021 Y118.585
G01 X221.688 Y118.590
G01 X224.984 Y118.585
G01 X225.340 Y118.594
G01 X228.466 Y118.577
G01 X229.209 Y118.584
G01 X232.776 Y119.078
G01 X237.027 Y121.101
G01 X240.316 Y124.498
G01 X242.209 Y128.825
G01 X242.576 Y131.958
G01 X242.487 Y133.517
G01 X241.114 Y138.052
G01 X238.255 Y141.785
G01 X234.264 Y144.315
G01 X229.658 Y145.308
G01 X229.215 Y145.319
G01 X224.982 Y144.629
G01 X220.850 Y142.378
G01 X217.748 Y138.808
G01 X216.080 Y134.399
G01 X215.846 Y131.941
G01 X215.856 Y130.455
G01 X215.850 Y127.704
G01 X215.852 Y123.270
G01 X215.847 Y120.839
G01 X215.846 Y117.300
G01 X215.853 Y113.429
G01 X215.851 Y109.670
G01 X215.850 Y105.069
G01 X215.847 Y100.784
G01 X215.846 Y96.914
G01 X215.842 Y95.148
G01 X215.843 Y92.000
G01 X215.847 Y87.781
G01 X215.843 Y86.709
G01 X215.850 Y83.593
G01 X215.840 Y83.544
G01 X216.662 Y78.969
G01 X219.020 Y74.894
G01 X222.660 Y71.886
G01 X227.133 Y70.350
G01 X229.209 Y70.173
G01 X231.838 Y70.441
G01 X236.242 Y72.156
G01 X239.751 Y75.325
G01 X241.945 Y79.490
G01 X242.586 Y83.540
G01 X242.564 Y84.167
G01 X241.510 Y88.773
G01 X238.939 Y92.713
G01 X235.138 Y95.513
G01 X230.614 Y96.847
G01 X229.220 Y96.904
G01 X227.019 Y96.915
G01 X224.978 Y96.906
G01 X223.640 Y96.903
G01 X219.588 Y96.917
G01 X215.846 Y96.914
G01 X211.234 Y96.907
G01 X203.846 Y96.906
G01 X198.038 Y96.903
G01 X193.191 Y96.900
G01 X189.683 Y96.904
G01 X185.040 Y96.912
G01 X183.278 Y96.908
G01 X180.806 Y96.911
G01 X179.823 Y96.864
G01 X175.254 Y95.701
G01 X171.377 Y93.013
G01 X168.672 Y89.141
G01 X167.477 Y84.565
G01 X167.447 Y83.547
G01 X167.947 Y79.879
G01 X170.032 Y75.638
G01 X173.440 Y72.399
G01 X177.777 Y70.538
G01 X180.810 Y70.177
G01 X182.497 Y70.284
G01 X186.990 Y71.707
G01 X190.738 Y74.590
G01 X193.213 Y78.587
G01 X194.174 Y83.220
G01 X194.169 Y83.538
G01 X194.176 Y86.439
G01 X194.182 Y87.785
G01 X194.167 Y90.648
G01 X194.180 Y95.553
G01 X194.179 Y98.214
G01 X194.174 Y102.004
G01 X194.177 Y105.133
G01 X194.172 Y108.463
G01 X194.176 Y111.287
G01 X194.174 Y113.959
G01 X194.177 Y117.749
G01 X194.181 Y121.010
G01 X194.179 Y124.532
G01 X194.169 Y127.718
G01 X194.169 Y130.168
G01 X194.181 Y131.957
G01 X194.022 Y134.000
G01 X192.480 Y138.457
G01 X189.493 Y142.108
G01 X185.417 Y144.498
G01 X180.817 Y145.321
G01 X180.782 Y145.314
G01 X177.656 Y145.315
G01 X176.566 Y145.313
G01 X175.228 Y145.310
G01 X171.196 Y145.322
G01 X167.436 Y145.316
G01 X162.826 Y145.320
G01 X155.438 Y145.309
G01 X149.627 Y145.322
G01 X144.785 Y145.311
G01 X141.281 Y145.317
G01 X136.638 Y145.322
G01 X133.935 Y145.316
G01 X132.399 Y145.308
G01 X129.993 Y145.087
G01 X125.568 Y143.439
G01 X122.009 Y140.369
G01 X119.746 Y136.221
G01 X119.030 Y131.943
G01 X119.030 Y131.682
G01 X119.039 Y128.562
G01 X119.033 Y127.725
G01 X119.038 Y123.292
G01 X119.032 Y120.829
G01 X119.032 Y117.294
G01 X119.036 Y113.419
G01 X119.032 Y109.671
G01 X119.029 Y105.058
G01 X119.018 Y100.782
G01 X119.022 Y96.908
G01 X119.042 Y95.153
G01 X119.033 Y91.997
G01 X119.025 Y87.772
G01 X119.029 Y84.824
G01 X119.039 Y83.541
G01 X119.320 Y80.787
G01 X121.096 Y76.400
G01 X124.272 Y72.919
G01 X128.477 Y70.762
G01 X132.386 Y70.172
G01 X133.171 Y70.197
G01 X137.762 Y71.299
G01 X141.669 Y73.904
G01 X144.437 Y77.748
G01 X145.709 Y82.281
G01 X145.774 Y83.537
G01 X145.312 Y86.998
G01 X143.325 Y91.264
G01 X139.946 Y94.567
G01 X135.650 Y96.514
G01 X132.401 Y96.903
G01 X131.437 Y96.920
G01 X128.320 Y96.919
G01 X128.166 Y96.914
G01 X126.823 Y96.899
G01 X122.775 Y96.916
G01 X119.022 Y96.908
G01 X114.418 Y96.906
G01 X107.029 Y96.902
G01 X101.223 Y96.909
G01 X96.384 Y96.909
G01 X92.874 Y96.910
G01 X88.222 Y96.917
G01 X87.705 Y96.919
G01 X84.588 Y96.923
G01 X83.997 Y96.899
G01 X80.196 Y96.352
G01 X75.978 Y94.237
G01 X72.763 Y90.783
G01 X70.934 Y86.434
G01 X70.637 Y83.545
G01 X70.751 Y81.739
G01 X72.457 Y76.774
G01 X73.934 Y75.025
G01 X75.427 Y73.394
G01 X77.481 Y71.874
G01 X82.343 Y70.288
G01 X83.992 Y70.190
G01 X87.053 Y70.539
G01 X91.378 Y72.398
G01 X94.804 Y75.673
G01 X96.858 Y79.908
G01 X97.361 Y83.538
G01 X97.367 Y84.245
G01 X97.356 Y87.362
G01 X97.351 Y87.779
G01 X97.348 Y90.642
G01 X97.359 Y95.550
G01 X97.368 Y98.223
G01 X97.356 Y102.019
G01 X97.373 Y105.142
G01 X97.357 Y108.485
G01 X97.370 Y111.280
G01 X97.357 Y113.949
G01 X97.356 Y117.736
G01 X97.351 Y121.010
G01 X97.368 Y124.543
G01 X97.361 Y127.726
G01 X97.356 Y127.973
G01 X97.369 Y131.104
G01 X97.349 Y131.945
G01 X96.918 Y135.359
G01 X94.932 Y139.649
G01 X91.571 Y142.959
G01 X87.279 Y144.921
G01 X83.997 Y145.325
G01 X82.572 Y145.243
G01 X78.043 Y143.911
G01 X74.249 Y141.109
G01 X71.679 Y137.158
G01 X70.638 Y132.542
G01 X70.637 Y131.951
G01 X71.273 Y127.860
G01 X73.485 Y123.694
G01 X76.996 Y120.547
G01 X81.394 Y118.822
G01 X83.991 Y118.590
G01 X85.404 Y118.580
G01 X88.222 Y118.589
G01 X95.015 Y118.585
G01 X99.594 Y118.592
G01 X103.442 Y118.582
G01 X108.203 Y118.592
G01 X111.410 Y118.570
G01 X113.636 Y118.593
G01 X117.283 Y118.580
G01 X121.212 Y118.586
G01 X124.876 Y118.592
G01 X128.164 Y118.589
G01 X129.131 Y118.582
G01 X132.251 Y118.585
G01 X132.397 Y118.589
G01 X136.832 Y119.347
G01 X140.931 Y121.661
G01 X143.978 Y125.272
G01 X145.571 Y129.704
G01 X145.772 Y131.953
G01 X145.766 Y133.599
G01 X145.769 Y136.193
G01 X145.770 Y139.056
G01 X145.760 Y143.954
G01 X145.771 Y146.624
G01 X145.772 Y150.422
G01 X145.771 Y153.562
G01 X145.768 Y156.873
G01 X145.762 Y159.679
G01 X145.768 Y162.369
G01 X145.761 Y166.155
G01 X145.764 Y169.421
G01 X145.765 Y172.944
G01 X145.774 Y176.128
G01 X145.762 Y177.319
G01 X145.771 Y180.365
G01 X145.771 Y180.501
G01 X144.879 Y185.131
G01 X142.456 Y189.181
G01 X138.759 Y192.116
G01 X134.292 Y193.593
G01 X132.395 Y193.727
G01 X130.516 Y193.721
G01 X128.168 Y193.728
G01 X126.824 Y193.719
G01 X122.791 Y193.727
G01 X119.032 Y193.716
G01 X114.413 Y193.729
G01 X107.027 Y193.724
G01 X101.211 Y193.725
G01 X96.385 Y193.719
G01 X92.872 Y193.730
G01 X88.234 Y193.724
G01 X86.777 Y193.729
G01 X84.007 Y193.719
G01 X83.506 Y193.717
G01 X78.887 Y192.708
G01 X74.916 Y190.168
G01 X72.075 Y186.402
G01 X70.705 Y181.880
G01 X70.624 Y180.346
G01 X71.004 Y177.157
G01 X72.927 Y172.851
G01 X76.222 Y169.482
G01 X80.483 Y167.446
G01 X83.998 Y166.990
G01 X85.197 Y167.053
G01 X89.751 Y168.298
G01 X93.576 Y171.036
G01 X96.209 Y174.952
G01 X97.325 Y179.538
G01 X97.365 Y180.351
G01 X97.359 Y182.932
G01 X97.346 Y184.596
G01 X97.367 Y187.457
G01 X97.371 Y192.360
G01 X97.366 Y195.046
G01 X97.351 Y198.822
G01 X97.355 Y201.963
G01 X97.365 Y205.284
G01 X97.346 Y208.099
G01 X97.362 Y210.767
G01 X97.362 Y214.552
G01 X97.356 Y217.818
G01 X97.364 Y221.358
G01 X97.362 Y224.523
G01 X97.348 Y226.665
G01 X97.369 Y228.773
G01 X97.262 Y230.328
G01 X95.894 Y234.835
G01 X93.038 Y238.602
G01 X89.070 Y241.126
G01 X84.438 Y242.115
G01 X83.987 Y242.127
G01 X79.790 Y241.450
G01 X75.634 Y239.195
G01 X72.529 Y235.649
G01 X70.856 Y231.231
G01 X70.627 Y228.774
G01 X70.809 Y226.502
G01 X72.432 Y222.075
G01 X75.474 Y218.478
G01 X79.580 Y216.147
G01 X83.993 Y215.399
G01 X84.146 Y215.396
G01 X87.287 Y215.406
G01 X88.233 Y215.404
G01 X95.017 Y215.393
G01 X99.578 Y215.400
G01 X103.431 Y215.390
G01 X108.184 Y215.402
G01 X111.405 Y215.394
G01 X113.622 Y215.396
G01 X117.288 Y215.393
G01 X121.218 Y215.398
G01 X124.871 Y215.398
G01 X128.167 Y215.403
G01 X131.004 Y215.397
G01 X132.411 Y215.397
G01 X135.021 Y215.653
G01 X139.409 Y217.385
G01 X142.932 Y220.531
G01 X145.135 Y224.694
G01 X145.766 Y228.763
G01 X145.747 Y229.367
G01 X144.713 Y233.970
G01 X142.124 Y237.923
G01 X138.334 Y240.734
G01 X133.821 Y242.054
G01 X132.388 Y242.133
G01 X129.108 Y241.719
G01 X124.818 Y239.764
G01 X121.463 Y236.442
G01 X119.463 Y232.165
G01 X119.036 Y228.759
G01 X119.027 Y227.896
G01 X119.032 Y224.773
G01 X119.029 Y224.528
G01 X119.045 Y220.098
G01 X119.034 Y217.660
G01 X119.029 Y214.107
G01 X119.029 Y210.233
G01 X119.040 Y206.486
G01 X119.034 Y201.883
G01 X119.043 Y197.605
G01 X119.032 Y193.716
G01 X119.036 Y191.956
G01 X119.033 Y188.825
G01 X119.026 Y184.588
G01 X119.040 Y184.169
G01 X119.040 Y181.055
G01 X119.037 Y180.366
G01 X119.554 Y176.710
G01 X121.619 Y172.470
G01 X125.017 Y169.203
G01 X129.352 Y167.338
G01 X132.400 Y166.983
G01 X133.499 Y166.989
G01 X136.617 Y166.985
G01 X136.637 Y167.000
G01 X143.412 Y166.988
G01 X147.986 Y166.982
G01 X151.844 Y166.990
G01 X156.607 Y166.993
G01 X159.813 Y166.989
G01 X162.039 Y166.983
G01 X165.707 Y166.997
G01 X169.619 Y166.990
G01 X173.280 Y167.002
G01 X176.574 Y166.989
G01 X177.228 Y166.979
G01 X180.356 Y166.997
G01 X180.798 Y166.986
G01 X184.799 Y167.601
G01 X188.988 Y169.793
G01 X192.155 Y173.290
G01 X193.906 Y177.680
G01 X194.179 Y180.361
G01 X194.168 Y181.688
G01 X194.170 Y184.585
G01 X194.180 Y187.464
G01 X194.169 Y192.355
G01 X194.167 Y195.033
G01 X194.181 Y198.828
G01 X194.175 Y201.960
G01 X194.173 Y205.288
G01 X194.176 Y208.098
G01 X194.177 Y210.777
G01 X194.176 Y214.557
G01 X194.183 Y217.827
G01 X194.174 Y221.347
G01 X194.186 Y224.532
G01 X194.168 Y225.428
G01 X194.178 Y228.555
G01 X194.177 Y228.766
G01 X193.649 Y231.675
G01 X193.445 Y233.105
G01 X191.937 Y235.717
G01 X191.145 Y237.228
G01 X188.188 Y239.733
G01 X187.574 Y240.298
G01 X183.136 Y241.925
G01 X180.796 Y242.133
G01 X178.430 Y241.915
G01 X173.996 Y240.265
G01 X170.425 Y237.184
G01 X168.137 Y233.048
G01 X167.438 Y228.761
G01 X167.458 Y228.387
G01 X168.298 Y224.263
G01 X168.414 Y223.768
G01 X170.692 Y220.132
G01 X170.929 Y219.777
G01 X174.652 Y216.894
G01 X179.180 Y215.502
G01 X180.817 Y215.405
G01 X182.841 Y215.395
G01 X185.043 Y215.395
G01 X191.836 Y215.404
G01 X196.400 Y215.395
G01 X200.253 Y215.394
G01 X205.015 Y215.404
G01 X208.222 Y215.393
G01 X210.451 Y215.397
G01 X214.111 Y215.402
G01 X217.452 Y215.384
G01 X218.036 Y215.406
G01 X221.030 Y215.383
G01 X221.692 Y215.406
G01 X224.401 Y215.381
G01 X224.978 Y215.400
G01 X227.470 Y215.387
G01 X227.821 Y215.398
G01 X229.210 Y215.389
G01 X231.586 Y215.628
G01 X231.829 Y215.661
G01 X234.361 Y216.574
G01 X236.224 Y217.390
G01 X238.935 Y219.746
G01 X239.742 Y220.534
G01 X241.949 Y224.700
G01 X242.579 Y228.759
G01 X242.440 Y231.354
G01 X242.535 Y233.905
G01 X242.581 Y234.399
G01 X242.430 Y235.909
G01 X242.407 Y237.393
G01 X242.510 Y238.842
G01 X242.582 Y239.385
G01 X242.508 Y240.326
G01 X242.506 Y241.248
G01 X242.574 Y242.124
G01 X243.118 Y241.943
G01 X243.661 Y241.795
G01 X244.202 Y241.682
G01 X244.738 Y241.601
G01 X245.268 Y241.552
G01 X245.790 Y241.534
G01 X246.302 Y241.547
G01 X246.802 Y241.589
G01 X247.290 Y241.660
G01 X247.762 Y241.757
G01 X248.218 Y241.880
G01 X248.656 Y242.028
G01 X249.076 Y242.198
G01 X249.476 Y242.390
G01 X249.854 Y242.602
G01 X250.211 Y242.832
G01 X250.544 Y243.079
G01 X250.854 Y243.340
G01 X251.140 Y243.615
G01 X251.401 Y243.901
G01 X251.636 Y244.197
G01 X251.846 Y244.501
G01 X252.031 Y244.811
G01 X252.189 Y245.125
G01 X252.322 Y245.442
G01 X252.430 Y245.759
G01 X252.512 Y246.076
G01 X252.569 Y246.390
G01 X252.601 Y246.700
G01 X252.610 Y247.004
G01 X252.596 Y247.300
G01 X252.559 Y247.587
G01 X252.501 Y247.864
G01 X252.422 Y248.129
G01 X252.323 Y248.381
G01 X252.206 Y248.618
G01 X252.072 Y248.839
G01 X251.922 Y249.044
G01 X251.758 Y249.231
G01 X251.580 Y249.399
G01 X251.390 Y249.548
G01 X251.190 Y249.677
G01 X250.982 Y249.785
G01 X250.766 Y249.871
G01 X250.545 Y249.936
G01 X250.319 Y249.978
G01 X250.092 Y249.998
G01 X250.000 Y250.000
G01 X250.600 Y250.029
G01 X251.196 Y250.118
G01 X251.783 Y250.265
G01 X252.358 Y250.469
G01 X252.915 Y250.730
G01 X253.450 Y251.047
G01 X253.961 Y251.417
G01 X254.442 Y251.840
G01 X254.889 Y252.312
G01 X255.300 Y252.833
G01 X255.670 Y253.398
G01 X255.996 Y254.006
G01 X256.275 Y254.654
G01 X256.503 Y255.337
G01 X256.679 Y256.053
G01 X256.799 Y256.799
G01 X256.843 Y257.258
G01 X257.111 Y257.554
G01 X257.259 Y257.724
G01 X257.426 Y257.876
G01 X258.271 Y257.951
G01 X259.139 Y257.961
G01 X260.028 Y257.904
G01 X260.384 Y257.863
G01 X261.630 Y257.940
G01 X262.907 Y257.912
G01 X263.441 Y257.870
G01 X265.289 Y257.971
G01 X267.175 Y257.909
G01 X267.623 Y257.870
G01 X270.291 Y257.891
G01 X270.785 Y257.869
G01 X272.223 Y257.944
G01 X276.763 Y259.278
G01 X280.542 Y262.096
G01 X282.281 Y264.656
G01 X283.111 Y266.060
G01 X283.725 Y268.454
G01 X284.136 Y270.657
G01 X284.160 Y271.241
G01 X284.159 Y273.641
G01 X284.147 Y273.978
G01 X284.173 Y276.592
G01 X284.148 Y277.349
G01 X284.156 Y279.909
G01 X284.144 Y282.335
G01 X284.161 Y285.690
G01 X284.154 Y285.899
G01 X284.165 Y289.635
G01 X284.160 Y289.767
G01 X284.156 Y293.523
G01 X284.151 Y298.111
G01 X284.153 Y302.403
G01 X284.147 Y306.275
G01 X284.158 Y308.045
G01 X284.148 Y311.163
G01 X284.146 Y315.397
G01 X284.144 Y317.702
G01 X284.154 Y319.652
G01 X284.024 Y321.436
G01 X282.579 Y325.931
G01 X279.648 Y329.635
G01 X275.988 Y331.885
G01 X275.628 Y332.093
G01 X271.485 Y332.927
G01 X270.993 Y333.012
G01 X270.790 Y333.011
G01 X266.357 Y332.247
G01 X266.338 Y332.243
G01 X262.234 Y329.919
G01 X259.200 Y326.297
G01 X257.604 Y321.874
G01 X257.416 Y319.631
G01 X257.653 Y317.140
G01 X259.340 Y312.734
G01 X261.932 Y309.817
G01 X262.453 Y309.179
G01 X265.154 Y307.781
G01 X266.606 Y306.954
G01 X269.535 Y306.517
G01 X270.788 Y306.284
G01 X271.104 Y306.273
G01 X274.234 Y306.279
G01 X275.028 Y306.286
G01 X276.360 Y306.283
G01 X279.820 Y306.301
G01 X280.413 Y306.284
G01 X284.079 Y306.277
G01 X284.147 Y306.275
G01 X288.057 Y306.291
G01 X288.759 Y306.267
G01 X293.058 Y306.372
G01 X296.150 Y306.271
G01 X301.003 Y306.309
G01 X301.966 Y306.277
G01 X306.793 Y306.272
G01 X310.320 Y306.283
G01 X314.962 Y306.279
G01 X317.973 Y306.283
G01 X319.202 Y306.282
G01 X322.037 Y306.580
G01 X326.398 Y308.380
G01 X329.856 Y311.593
G01 X332.006 Y315.814
G01 X332.554 Y319.633
G01 X332.561 Y320.206
G01 X332.558 Y323.334
G01 X332.566 Y323.889
G01 X332.565 Y328.316
G01 X332.555 Y330.742
G01 X332.566 Y334.302
G01 X332.554 Y338.155
G01 X332.557 Y341.918
G01 X332.568 Y346.529
G01 X332.558 Y350.808
G01 X332.563 Y354.685
G01 X332.555 Y356.437
G01 X332.561 Y359.579
G01 X332.561 Y363.807
G01 X332.563 Y363.929
G01 X332.567 Y367.061
G01 X332.557 Y368.046
G01 X332.173 Y371.254
G01 X330.255 Y375.569
G01 X326.940 Y378.939
G01 X322.685 Y380.956
G01 X319.191 Y381.424
G01 X318.386 Y381.422
G01 X315.270 Y381.408
G01 X314.965 Y381.420
G01 X308.172 Y381.426
G01 X303.604 Y381.413
G01 X299.753 Y381.423
G01 X294.983 Y381.414
G01 X291.779 Y381.419
G01 X289.549 Y381.428
G01 X285.889 Y381.412
G01 X281.978 Y381.415
G01 X278.311 Y381.410
G01 X275.015 Y381.415
G01 X274.659 Y381.406
G01 X271.533 Y381.423
G01 X270.790 Y381.416
G01 X267.223 Y380.922
G01 X262.972 Y378.899
G01 X259.695 Y375.501
G01 X257.790 Y371.175
G01 X257.423 Y368.042
G01 X257.512 Y366.483
G01 X258.885 Y361.948
G01 X261.744 Y358.215
G01 X265.735 Y355.685
G01 X270.341 Y354.692
G01 X270.784 Y354.682
G01 X275.017 Y355.371
G01 X279.160 Y357.619
G01 X282.262 Y361.189
G01 X283.930 Y365.598
G01 X284.153 Y368.059
G01 X284.155 Y369.541
G01 X284.150 Y372.297
G01 X284.160 Y376.727
G01 X284.152 Y379.161
G01 X284.153 Y382.701
G01 X284.146 Y386.571
G01 X284.148 Y390.330
G01 X284.149 Y394.931
G01 X284.152 Y399.217
G01 X284.153 Y403.087
G01 X284.157 Y404.853
G01 X284.156 Y408.000
G01 X284.152 Y412.219
G01 X284.156 Y413.291
G01 X284.148 Y416.407
G01 X284.158 Y416.456
G01 X283.353 Y421.028
G01 X280.978 Y425.106
G01 X277.338 Y428.114
G01 X272.866 Y429.651
G01 X270.790 Y429.827
G01 X268.161 Y429.559
G01 X263.775 Y427.842
G01 X260.248 Y424.675
G01 X258.054 Y420.510
G01 X257.412 Y416.460
G01 X257.434 Y415.833
G01 X258.488 Y411.227
G01 X261.060 Y407.287
G01 X264.861 Y404.487
G01 X269.385 Y403.153
G01 X270.779 Y403.096
G01 X272.995 Y403.083
G01 X275.020 Y403.094
G01 X276.359 Y403.097
G01 X280.411 Y403.084
G01 X284.153 Y403.087
G01 X288.765 Y403.093
G01 X296.153 Y403.095
G01 X301.961 Y403.097
G01 X306.807 Y403.101
G01 X310.316 Y403.097
G01 X314.959 Y403.088
G01 X316.721 Y403.093
G01 X319.193 Y403.089
G01 X320.176 Y403.136
G01 X324.745 Y404.300
G01 X328.622 Y406.988
G01 X331.327 Y410.860
G01 X332.522 Y415.435
G01 X332.552 Y416.454
G01 X332.052 Y420.121
G01 X329.966 Y424.362
G01 X326.559 Y427.602
G01 X322.221 Y429.463
G01 X319.189 Y429.824
G01 X317.502 Y429.716
G01 X313.009 Y428.294
G01 X309.278 Y425.404
G01 X306.786 Y421.414
G01 X305.825 Y416.780
G01 X305.830 Y416.462
G01 X305.823 Y413.561
G01 X305.817 Y412.216
G01 X305.831 Y409.352
G01 X305.818 Y404.448
G01 X305.835 Y401.781
G01 X305.825 Y397.996
G01 X305.822 Y394.867
G01 X305.827 Y391.538
G01 X305.823 Y388.714
G01 X305.825 Y386.041
G01 X305.822 Y382.252
G01 X305.831 Y378.985
G01 X305.833 Y375.463
G01 X305.830 Y372.283
G01 X305.830 Y369.832
G01 X305.818 Y368.043
G01 X305.977 Y366.000
G01 X307.519 Y361.543
G01 X310.506 Y357.892
G01 X314.583 Y355.503
G01 X319.183 Y354.679
G01 X319.217 Y354.686
G01 X322.344 Y354.685
G01 X323.434 Y354.688
G01 X324.771 Y354.691
G01 X328.803 Y354.678
G01 X332.563 Y354.685
G01 X337.174 Y354.680
G01 X344.561 Y354.692
G01 X350.372 Y354.679
G01 X355.215 Y354.689
G01 X358.718 Y354.684
G01 X363.362 Y354.679
G01 X366.064 Y354.685
G01 X367.601 Y354.693
G01 X370.006 Y354.914
G01 X374.431 Y356.562
G01 X377.990 Y359.632
G01 X380.264 Y363.767
G01 X380.969 Y368.058
G01 X380.969 Y368.319
G01 X380.960 Y371.439
G01 X380.966 Y372.276
G01 X380.961 Y376.709
G01 X380.980 Y379.158
G01 X380.967 Y382.707
G01 X380.963 Y386.582
G01 X380.967 Y390.330
G01 X380.970 Y394.943
G01 X380.981 Y399.219
G01 X380.976 Y403.093
G01 X380.957 Y404.848
G01 X380.965 Y408.004
G01 X380.974 Y412.229
G01 X380.970 Y415.177
G01 X380.960 Y416.460
G01 X380.679 Y419.214
G01 X378.903 Y423.601
G01 X375.726 Y427.082
G01 X371.522 Y429.238
G01 X367.613 Y429.829
G01 X366.846 Y429.792
G01 X362.237 Y428.702
G01 X358.330 Y426.097
G01 X355.561 Y422.252
G01 X354.289 Y417.720
G01 X354.242 Y416.453
G01 X354.687 Y413.003
G01 X356.674 Y408.736
G01 X360.053 Y405.434
G01 X364.349 Y403.487
G01 X367.598 Y403.098
G01 X368.562 Y403.081
G01 X371.679 Y403.082
G01 X371.833 Y403.087
G01 X373.175 Y403.101
G01 X377.224 Y403.085
G01 X380.976 Y403.093
G01 X385.581 Y403.095
G01 X392.970 Y403.099
G01 X398.776 Y403.092
G01 X403.615 Y403.093
G01 X407.125 Y403.092
G01 X411.777 Y403.084
G01 X412.294 Y403.082
G01 X415.411 Y403.079
G01 X416.017 Y403.086
G01 X419.803 Y403.649
G01 X424.020 Y405.764
G01 X427.236 Y409.218
G01 X429.065 Y413.567
G01 X429.361 Y416.456
G01 X429.248 Y418.263
G01 X427.542 Y423.227
G01 X426.065 Y424.976
G01 X424.571 Y426.607
G01 X422.517 Y428.127
G01 X417.656 Y429.714
G01 X416.007 Y429.811
G01 X412.946 Y429.462
G01 X408.621 Y427.603
G01 X405.195 Y424.328
G01 X403.141 Y420.093
G01 X402.638 Y416.463
G01 X402.631 Y415.756
G01 X402.642 Y412.640
G01 X402.648 Y412.222
G01 X402.650 Y409.359
G01 X402.640 Y404.451
G01 X402.631 Y401.778
G01 X402.643 Y397.983
G01 X402.640 Y394.844
G01 X402.642 Y391.517
G01 X402.629 Y388.721
G01 X402.642 Y386.053
G01 X402.643 Y382.265
G01 X402.648 Y378.991
G01 X402.631 Y375.458
G01 X402.638 Y372.275
G01 X402.643 Y372.028
G01 X402.630 Y368.897
G01 X402.650 Y368.056
G01 X403.081 Y364.642
G01 X405.068 Y360.352
G01 X408.428 Y357.042
G01 X412.720 Y355.080
G01 X416.003 Y354.677
G01 X417.428 Y354.758
G01 X421.957 Y356.090
G01 X425.750 Y358.892
G01 X428.320 Y362.843
G01 X429.362 Y367.460
G01 X429.362 Y368.051
G01 X428.726 Y372.141
G01 X426.514 Y376.307
G01 X423.003 Y379.454
G01 X418.618 Y381.162
G01 X416.008 Y381.411
G01 X414.595 Y381.421
G01 X411.777 Y381.412
G01 X404.984 Y381.417
G01 X400.405 Y381.410
G01 X396.557 Y381.419
G01 X391.796 Y381.409
G01 X388.602 Y381.417
G01 X386.363 Y381.408
G01 X382.716 Y381.421
G01 X378.787 Y381.415
G01 X375.123 Y381.409
G01 X371.835 Y381.411
G01 X370.868 Y381.419
G01 X367.748 Y381.415
G01 X367.602 Y381.412
G01 X363.167 Y380.654
G01 X359.068 Y378.340
G01 X356.021 Y374.729
G01 X354.428 Y370.297
G01 X354.227 Y368.047
G01 X354.233 Y366.402
G01 X354.230 Y363.808
G01 X354.229 Y360.945
G01 X354.239 Y356.047
G01 X354.239 Y353.366
G01 X354.227 Y349.579
G01 X354.229 Y346.439
G01 X354.241 Y343.118
G01 X354.237 Y340.321
G01 X354.232 Y337.632
G01 X354.238 Y333.846
G01 X354.235 Y330.580
G01 X354.235 Y327.057
G01 X354.225 Y323.873
G01 X354.237 Y322.682
G01 X354.228 Y319.635
G01 X354.229 Y319.500
G01 X355.121 Y314.870
G01 X357.543 Y310.820
G01 X361.241 Y307.884
G01 X365.708 Y306.407
G01 X367.605 Y306.273
G01 X369.484 Y306.279
G01 X371.832 Y306.273
G01 X373.176 Y306.282
G01 X377.209 Y306.274
G01 X380.973 Y306.272
G01 X385.586 Y306.272
G01 X392.973 Y306.277
G01 X398.788 Y306.276
G01 X403.614 Y306.282
G01 X407.128 Y306.272
G01 X411.765 Y306.277
G01 X413.222 Y306.272
G01 X415.999 Y306.265
G01 X416.494 Y306.284
G01 X421.113 Y307.294
G01 X425.084 Y309.833
G01 X427.925 Y313.599
G01 X429.295 Y318.122
G01 X429.382 Y319.637
G01 X428.995 Y322.845
G01 X427.073 Y327.150
G01 X423.777 Y330.519
G01 X419.516 Y332.555
G01 X416.002 Y333.011
G01 X414.803 Y332.948
G01 X410.249 Y331.703
G01 X406.423 Y328.966
G01 X403.790 Y325.049
G01 X402.674 Y320.463
G01 X402.642 Y319.635
G01 X402.647 Y317.053
G01 X402.653 Y315.406
G01 X402.639 Y312.528
G01 X402.628 Y307.641
G01 X402.633 Y304.955
G01 X402.649 Y301.179
G01 X402.644 Y298.039
G01 X402.634 Y294.718
G01 X402.653 Y291.903
G01 X402.638 Y289.235
G01 X402.641 Y285.434
G01 X402.644 Y282.183
G01 X402.636 Y278.643
G01 X402.638 Y275.479
G01 X402.652 Y273.336
G01 X402.631 Y271.228
G01 X402.738 Y269.673
G01 X404.106 Y265.166
G01 X406.962 Y261.399
G01 X410.931 Y258.860
G01 X415.563 Y257.870
G01 X416.013 Y257.874
G01 X420.210 Y258.551
G01 X424.365 Y260.806
G01 X427.471 Y264.352
G01 X429.144 Y268.770
G01 X429.373 Y271.228
G01 X429.191 Y273.499
G01 X427.567 Y277.927
G01 X424.526 Y281.523
G01 X420.420 Y283.854
G01 X416.007 Y284.602
G01 X415.853 Y284.605
G01 X412.713 Y284.595
G01 X411.767 Y284.597
G01 X404.983 Y284.608
G01 X400.422 Y284.601
G01 X396.569 Y284.611
G01 X391.815 Y284.599
G01 X388.595 Y284.607
G01 X386.378 Y284.605
G01 X382.712 Y284.608
G01 X378.782 Y284.603
G01 X375.129 Y284.603
G01 X371.833 Y284.598
G01 X368.996 Y284.604
G01 X367.589 Y284.604
G01 X364.983 Y284.337
G01 X360.591 Y282.616
G01 X357.068 Y279.470
G01 X354.865 Y275.306
G01 X354.233 Y271.237
G01 X354.255 Y270.623
G01 X355.288 Y266.020
G01 X357.876 Y262.078
G01 X361.666 Y259.267
G01 X366.179 Y257.947
G01 X367.612 Y257.868
G01 X370.892 Y258.281
G01 X375.182 Y260.237
G01 X378.537 Y263.559
G01 X380.537 Y267.836
G01 X380.966 Y271.229
G01 X380.973 Y272.105
G01 X380.967 Y275.228
G01 X380.971 Y275.473
G01 X380.954 Y279.903
G01 X380.966 Y282.341
G01 X380.970 Y285.894
G01 X380.974 Y289.755
G01 X380.960 Y293.514
G01 X380.965 Y298.117
G01 X380.957 Y302.396
G01 X380.973 Y306.272
G01 X380.963 Y308.045
G01 X380.966 Y311.176
G01 X380.974 Y315.413
G01 X380.960 Y315.832
G01 X380.960 Y318.946
G01 X380.963 Y319.635
G01 X380.453 Y323.278
G01 X378.380 Y327.531
G01 X374.982 Y330.798
G01 X370.648 Y332.663
G01 X367.600 Y333.017
G01 X366.500 Y333.012
G01 X363.383 Y333.016
G01 X363.362 Y333.001
G01 X356.587 Y333.013
G01 X352.014 Y333.018
G01 X348.155 Y333.010
G01 X343.393 Y333.008
G01 X340.187 Y333.012
G01 X337.960 Y333.017
G01 X334.293 Y333.004
G01 X330.380 Y333.011
G01 X326.719 Y332.999
G01 X323.426 Y333.011
G01 X322.779 Y333.014
G01 X319.643 Y333.003
G01 X319.201 Y333.014
G01 X315.201 Y332.399
G01 X311.012 Y330.207
G01 X307.845 Y326.710
G01 X306.094 Y322.321
G01 X305.821 Y319.639
G01 X305.831 Y318.312
G01 X305.829 Y315.415
G01 X305.825 Y312.531
G01 X305.830 Y307.646
G01 X305.832 Y304.968
G01 X305.818 Y301.172
G01 X305.825 Y298.041
G01 X305.827 Y294.712
G01 X305.823 Y291.902
G01 X305.823 Y289.223
G01 X305.827 Y285.438
G01 X305.816 Y282.173
G01 X305.826 Y278.653
G01 X305.814 Y275.469
G01 X305.832 Y274.572
G01 X305.822 Y271.446
G01 X305.823 Y271.235
G01 X306.351 Y268.325
G01 X306.555 Y266.895
G01 X308.063 Y264.283
G01 X308.855 Y262.772
G01 X311.812 Y260.268
G01 X312.425 Y259.703
G01 X316.864 Y258.076
G01 X319.204 Y257.867
G01 X321.570 Y258.085
G01 X326.004 Y259.735
G01 X329.574 Y262.817
G01 X331.863 Y266.952
G01 X332.562 Y271.240
G01 X332.542 Y271.613
G01 X331.702 Y275.738
G01 X331.586 Y276.233
G01 X329.308 Y279.868
G01 X329.071 Y280.223
G01 X325.347 Y283.107
G01 X320.819 Y284.498
G01 X319.182 Y284.595
G01 X317.159 Y284.605
G01 X314.957 Y284.605
G01 X308.164 Y284.596
G01 X303.600 Y284.605
G01 X299.747 Y284.606
G01 X294.985 Y284.597
G01 X291.778 Y284.607
G01 X289.553 Y284.599
G01 X285.888 Y284.598
G01 X282.548 Y284.616
G01 X281.964 Y284.594
G01 X278.970 Y284.617
G01 X278.308 Y284.594
G01 X275.599 Y284.619
G01 X275.022 Y284.601
G01 X272.530 Y284.613
G01 X272.179 Y284.602
G01 X270.789 Y284.611
G01 X268.414 Y284.372
G01 X268.171 Y284.339
G01 X265.639 Y283.426
G01 X263.776 Y282.610
G01 X261.064 Y280.254
G01 X260.258 Y279.466
G01 X258.051 Y275.300
G01 X257.421 Y271.241
G01 X257.560 Y268.646
G01 X257.465 Y266.095
G01 X257.419 Y265.601
G01 X257.570 Y264.091
G01 X257.593 Y262.607
G01 X257.489 Y261.158
G01 X257.418 Y260.615
G01 X257.492 Y259.674
G01 X257.494 Y258.752
G01 X257.426 Y257.876
G01 X257.538 Y257.247
G01 X257.606 Y256.626
G01 X257.632 Y256.016
G01 X257.618 Y255.420
G01 X257.564 Y254.841
G01 X257.472 Y254.281
G01 X257.420 Y254.042
G01 X257.519 Y253.629
G01 X257.595 Y253.217
G01 X257.649 Y252.805
G01 X257.681 Y252.397
G01 X257.692 Y251.992
G01 X257.682 Y251.591
G01 X257.651 Y251.197
G01 X257.600 Y250.809
G01 X257.530 Y250.430
G01 X257.441 Y250.059
G01 X257.425 Y250.000
G01 X257.472 Y249.633
G01 X257.501 Y249.261
G01 X257.511 Y248.886
G01 X257.502 Y248.508
G01 X257.474 Y248.128
G01 X257.427 Y247.747
G01 X257.413 Y247.655
G01 X257.473 Y247.225
G01 X257.509 Y246.785
G01 X257.519 Y246.334
G01 X257.503 Y245.874
G01 X257.459 Y245.408
G01 X257.429 Y245.191
G01 X257.467 Y244.628
G01 X257.467 Y244.051
G01 X257.428 Y243.462
G01 X257.418 Y243.369
G01 X257.442 Y242.660
G01 X257.426 Y242.124
G01 X256.793 Y242.048
G01 X256.170 Y242.014
G01 X255.561 Y242.022
G01 X254.968 Y242.069
G01 X254.561 Y242.126
G01 X254.117 Y242.013
G01 X253.672 Y241.925
G01 X253.229 Y241.861
G01 X252.789 Y241.821
G01 X252.353 Y241.804
G01 X251.922 Y241.810
G01 X251.497 Y241.838
G01 X251.079 Y241.888
G01 X250.671 Y241.959
G01 X250.271 Y242.050
G01 X250.000 Y242.125
G01 X249.610 Y242.065
G01 X249.214 Y242.025
G01 X248.814 Y242.004
G01 X248.409 Y242.004
G01 X248.002 Y242.024
G01 X247.593 Y242.065
G01 X247.183 Y242.127
G01 X247.104 Y242.142
G01 X246.641 Y242.103
G01 X246.167 Y242.091
G01 X245.684 Y242.107
G01 X245.439 Y242.126
G01 X244.859 Y242.051
G01 X244.261 Y242.015
G01 X243.648 Y242.020
G01 X243.022 Y242.066
G01 X242.574 Y242.124
G01 X242.471 Y242.762
G01 X242.413 Y243.391
G01 X242.397 Y244.007
G01 X242.423 Y244.609
G01 X242.489 Y245.193
G01 X242.573 Y245.664
G01 X242.487 Y246.094
G01 X242.425 Y246.523
G01 X242.386 Y246.948
G01 X242.371 Y247.369
G01 X242.378 Y247.783
G01 X242.408 Y248.191
G01 X242.458 Y248.590
G01 X242.529 Y248.979
G01 X242.572 Y249.167
G01 X242.500 Y249.530
G01 X242.446 Y249.898
G01 X242.410 Y250.270
G01 X242.393 Y250.646
G01 X242.395 Y251.023
G01 X242.415 Y251.402
G01 X242.454 Y251.782
G01 X242.512 Y252.161
G01 X242.573 Y252.462
G01 X242.518 Y252.895
G01 X242.489 Y253.339
G01 X242.486 Y253.792
G01 X242.510 Y254.254
G01 X242.561 Y254.722
G01 X242.574 Y254.815
G01 X242.491 Y255.410
G01 X242.449 Y256.024
G01 X242.450 Y256.655
G01 X242.496 Y257.299
G01 X242.574 Y257.876
G01 X243.208 Y257.952
G01 X243.830 Y257.986
G01 X244.439 Y257.978
G01 X245.032 Y257.931
G01 X245.438 Y257.874
G01 X245.913 Y257.928
G01 X246.382 Y257.955
G01 X246.843 Y257.955
G01 X247.295 Y257.929
G01 X247.731 Y257.880
G01 X248.137 Y257.911
G01 X248.541 Y257.921
G01 X248.941 Y257.910
G01 X249.336 Y257.880
G01 X249.378 Y257.875
G01 X249.765 Y257.924
G01 X250.154 Y257.954
G01 X250.546 Y257.964
G01 X250.940 Y257.955
G01 X251.333 Y257.927
G01 X251.727 Y257.879
G01 X251.861 Y257.858
G01 X252.290 Y257.916
G01 X252.729 Y257.950
G01 X253.177 Y257.960
G01 X253.633 Y257.945
G01 X254.094 Y257.904
G01 X254.372 Y257.867
G01 X254.910 Y257.896
G01 X255.461 Y257.891
G01 X255.891 Y257.863
G01 X256.547 Y257.899
G01 X257.220 Y257.888
G01 X257.426 Y257.876
G01 X255.797 Y256.148
G01 X254.356 Y254.620
G01 X252.761 Y252.928
G01 X250.103 Y250.109
G01 X250.102 Y250.098
G01 X250.099 Y250.087
G01 X250.097 Y250.076
G01 X250.093 Y250.066
G01 X250.088 Y250.057
G01 X250.083 Y250.048
G01 X250.077 Y250.039
G01 X250.071 Y250.032
G01 X250.064 Y250.025
G01 X250.057 Y250.019
G01 X250.049 Y250.014
G01 X250.041 Y250.009
G01 X250.032 Y250.006
G01 X250.023 Y250.003
G01 X250.014 Y250.001
G01 X250.005 Y250.000

