;  Created by Sandify
;  https://sandify.org
;  Version: 0.2.6
;
;  Machine type: Rectangular
;    Min X (mm): 0
;    Max X (mm): 500
;    Min Y (mm): 0
;    Max Y (mm): 500
;  Content type: shape
;  Layer:
;    Shape: FileImport
;    Name: CleyHill 7-18-2017.thr
;    From file:: CleyHill 7-18-2017.thr
;    Aspect Ratio: true
;    Comments: 
;    Visible: true
;    Initial width: 10
;    Initial height: 10
;    X offset: 0
;    Y offset: 0
;    Rotate (degrees): 0
;    Reverse path: false
;    Fine tuning:
;      Connect to next layer: line
;      Draw portion of path (%): 100
;      Backtrack at end (%): 0
;      Rotate starting point (%): 0
;  Reverse export path: false
;
; File name: 'cleyhill (C SE)'
; File type: gcode
;

G01 X250.000 Y250.000
G01 X250.004 Y250.078
G01 X250.015 Y250.155
G01 X250.034 Y250.232
G01 X250.061 Y250.306
G01 X250.095 Y250.379
G01 X250.136 Y250.449
G01 X250.184 Y250.515
G01 X250.239 Y250.577
G01 X250.301 Y250.636
G01 X250.368 Y250.689
G01 X250.442 Y250.737
G01 X250.521 Y250.780
G01 X250.605 Y250.816
G01 X250.694 Y250.845
G01 X250.787 Y250.868
G01 X250.884 Y250.884
G01 X250.984 Y250.892
G01 X251.087 Y250.892
G01 X251.192 Y250.884
G01 X251.299 Y250.868
G01 X251.407 Y250.843
G01 X251.516 Y250.810
G01 X251.624 Y250.768
G01 X251.732 Y250.718
G01 X251.839 Y250.658
G01 X251.944 Y250.590
G01 X252.046 Y250.513
G01 X252.145 Y250.427
G01 X252.241 Y250.332
G01 X252.332 Y250.230
G01 X252.419 Y250.119
G01 X252.500 Y250.000
G01 X255.000 Y250.000
G01 X257.500 Y250.000
G01 X260.000 Y250.000
G01 X262.500 Y250.000
G01 X265.000 Y250.000
G01 X267.500 Y250.000
G01 X270.000 Y250.000
G01 X272.500 Y250.000
G01 X274.850 Y250.000
G01 X275.000 Y250.000
G01 X277.500 Y250.000
G01 X280.000 Y250.000
G01 X282.500 Y250.000
G01 X285.000 Y250.000
G01 X287.475 Y250.000
G01 X289.975 Y250.000
G01 X292.475 Y250.000
G01 X294.975 Y250.000
G01 X297.475 Y250.000
G01 X299.725 Y250.000
G01 X299.975 Y250.000
G01 X302.475 Y250.000
G01 X304.975 Y250.000
G01 X307.475 Y250.000
G01 X309.975 Y250.000
G01 X312.475 Y250.000
G01 X314.975 Y250.000
G01 X317.475 Y250.000
G01 X319.975 Y250.000
G01 X322.000 Y250.000
G01 X321.774 Y250.409
G01 X320.715 Y252.235
G01 X320.503 Y252.574
G01 X319.263 Y254.738
G01 X318.025 Y256.907
G01 X316.762 Y259.068
G01 X315.519 Y261.233
G01 X314.269 Y263.396
G01 X313.007 Y265.559
G01 X311.757 Y267.725
G01 X310.514 Y269.892
G01 X309.280 Y272.056
G01 X308.292 Y273.764
G01 X308.021 Y274.224
G01 X306.768 Y276.386
G01 X305.517 Y278.544
G01 X304.263 Y280.709
G01 X303.009 Y282.873
G01 X301.780 Y285.046
G01 X300.526 Y287.212
G01 X299.275 Y289.376
G01 X298.028 Y291.540
G01 X296.767 Y293.690
G01 X295.855 Y295.290
G01 X295.527 Y295.865
G01 X294.274 Y298.033
G01 X293.021 Y300.184
G01 X291.769 Y302.355
G01 X290.521 Y304.515
G01 X289.267 Y306.676
G01 X288.033 Y308.856
G01 X286.779 Y311.024
G01 X286.000 Y312.354
G01 X285.048 Y312.350
G01 X282.555 Y312.364
G01 X280.850 Y312.361
G01 X280.054 Y312.361
G01 X277.556 Y312.358
G01 X275.057 Y312.354
G01 X272.553 Y312.346
G01 X270.056 Y312.354
G01 X267.558 Y312.350
G01 X265.055 Y312.358
G01 X262.554 Y312.349
G01 X260.055 Y312.344
G01 X257.562 Y312.343
G01 X255.986 Y312.363
G01 X255.061 Y312.345
G01 X252.564 Y312.347
G01 X250.062 Y312.350
G01 X247.561 Y312.352
G01 X245.064 Y312.355
G01 X242.563 Y312.358
G01 X240.064 Y312.363
G01 X237.569 Y312.348
G01 X235.063 Y312.361
G01 X232.567 Y312.359
G01 X231.127 Y312.356
G01 X230.071 Y312.342
G01 X227.567 Y312.363
G01 X225.074 Y312.352
G01 X222.570 Y312.359
G01 X220.067 Y312.363
G01 X217.580 Y312.350
G01 X215.070 Y312.358
G01 X214.000 Y312.354
G01 X213.287 Y311.122
G01 X212.034 Y308.959
G01 X210.781 Y306.801
G01 X210.124 Y305.667
G01 X209.542 Y304.624
G01 X208.289 Y302.465
G01 X207.037 Y300.299
G01 X205.796 Y298.131
G01 X204.542 Y295.970
G01 X203.298 Y293.796
G01 X202.033 Y291.648
G01 X200.800 Y289.469
G01 X199.545 Y287.308
G01 X198.290 Y285.149
G01 X197.701 Y284.130
G01 X197.035 Y282.992
G01 X195.799 Y280.818
G01 X194.540 Y278.655
G01 X193.283 Y276.494
G01 X192.048 Y274.324
G01 X190.788 Y272.166
G01 X189.547 Y270.000
G01 X188.301 Y267.835
G01 X187.047 Y265.673
G01 X185.804 Y263.501
G01 X185.266 Y262.604
G01 X184.551 Y261.342
G01 X183.303 Y259.174
G01 X182.036 Y257.011
G01 X180.794 Y254.845
G01 X179.551 Y252.685
G01 X178.302 Y250.516
G01 X178.000 Y250.000
G01 X178.944 Y248.358
G01 X180.204 Y246.192
G01 X181.460 Y244.029
G01 X182.690 Y241.863
G01 X183.144 Y241.069
G01 X183.948 Y239.699
G01 X185.189 Y237.529
G01 X186.438 Y235.365
G01 X187.699 Y233.206
G01 X188.951 Y231.041
G01 X190.195 Y228.878
G01 X191.436 Y226.710
G01 X192.698 Y224.548
G01 X193.936 Y222.376
G01 X195.192 Y220.222
G01 X195.591 Y219.551
G01 X196.452 Y218.061
G01 X197.691 Y215.885
G01 X198.947 Y213.730
G01 X200.186 Y211.554
G01 X201.439 Y209.395
G01 X202.690 Y207.233
G01 X203.937 Y205.065
G01 X205.197 Y202.908
G01 X206.444 Y200.747
G01 X207.684 Y198.571
G01 X208.012 Y198.013
G01 X208.946 Y196.420
G01 X210.194 Y194.253
G01 X211.442 Y192.087
G01 X212.690 Y189.917
G01 X213.932 Y187.743
G01 X214.000 Y187.646
G01 X216.369 Y187.641
G01 X218.870 Y187.638
G01 X221.378 Y187.656
G01 X223.875 Y187.652
G01 X226.375 Y187.651
G01 X226.886 Y187.646
G01 X228.876 Y187.657
G01 X231.367 Y187.650
G01 X233.868 Y187.653
G01 X236.365 Y187.648
G01 X238.865 Y187.636
G01 X241.366 Y187.645
G01 X243.864 Y187.651
G01 X246.362 Y187.656
G01 X248.865 Y187.635
G01 X251.360 Y187.640
G01 X251.747 Y187.649
G01 X253.859 Y187.644
G01 X256.357 Y187.648
G01 X258.857 Y187.651
G01 X261.359 Y187.651
G01 X263.859 Y187.647
G01 X266.358 Y187.634
G01 X268.861 Y187.640
G01 X271.355 Y187.656
G01 X273.852 Y187.657
G01 X276.358 Y187.642
G01 X276.609 Y187.640
G01 X278.852 Y187.652
G01 X281.357 Y187.640
G01 X283.854 Y187.648
G01 X286.001 Y187.646
G01 X286.174 Y187.949
G01 X287.426 Y190.107
G01 X288.671 Y192.282
G01 X289.930 Y194.434
G01 X291.174 Y196.607
G01 X292.428 Y198.761
G01 X293.665 Y200.943
G01 X293.731 Y201.036
G01 X294.924 Y203.093
G01 X296.162 Y205.275
G01 X297.419 Y207.428
G01 X298.665 Y209.598
G01 X299.913 Y211.765
G01 X301.163 Y213.929
G01 X302.411 Y216.088
G01 X303.664 Y218.255
G01 X304.912 Y220.414
G01 X306.158 Y222.568
G01 X306.164 Y222.579
G01 X307.416 Y224.745
G01 X308.669 Y226.907
G01 X309.902 Y229.080
G01 X311.161 Y231.235
G01 X312.406 Y233.406
G01 X313.659 Y235.565
G01 X314.901 Y237.734
G01 X316.158 Y239.894
G01 X317.409 Y242.064
G01 X318.572 Y244.103
G01 X318.658 Y244.227
G01 X319.907 Y246.390
G01 X321.160 Y248.556
G01 X322.000 Y250.008
G01 X321.274 Y249.595
G01 X319.105 Y248.342
G01 X316.937 Y247.094
G01 X314.792 Y245.842
G01 X312.617 Y244.596
G01 X310.459 Y243.342
G01 X308.291 Y242.095
G01 X306.359 Y240.986
G01 X306.133 Y240.844
G01 X303.956 Y239.596
G01 X301.805 Y238.345
G01 X299.625 Y237.096
G01 X297.460 Y235.848
G01 X295.304 Y234.599
G01 X293.147 Y233.345
G01 X290.984 Y232.095
G01 X288.808 Y230.851
G01 X286.675 Y229.607
G01 X286.653 Y229.595
G01 X284.851 Y228.547
G01 X284.490 Y228.344
G01 X282.592 Y227.232
G01 X282.331 Y227.090
G01 X280.511 Y226.047
G01 X280.148 Y225.855
G01 X278.434 Y224.840
G01 X277.993 Y224.599
G01 X276.348 Y223.621
G01 X275.836 Y223.340
G01 X274.228 Y222.410
G01 X273.657 Y222.106
G01 X272.106 Y221.180
G01 X271.503 Y220.847
G01 X269.968 Y219.946
G01 X269.334 Y219.603
G01 X267.811 Y218.706
G01 X267.168 Y218.357
G01 X265.641 Y217.457
G01 X265.001 Y217.109
G01 X263.454 Y216.200
G01 X263.312 Y216.122
G01 X262.839 Y215.859
G01 X261.261 Y214.920
G01 X260.680 Y214.601
G01 X259.049 Y213.641
G01 X258.516 Y213.351
G01 X256.819 Y212.357
G01 X256.350 Y212.103
G01 X254.574 Y211.059
G01 X254.186 Y210.848
G01 X252.313 Y209.757
G01 X252.022 Y209.601
G01 X250.038 Y208.447
G01 X249.859 Y208.350
G01 X247.749 Y207.140
G01 X247.695 Y207.112
G01 X245.530 Y205.851
G01 X243.367 Y204.607
G01 X241.785 Y203.698
G01 X241.197 Y203.348
G01 X239.040 Y202.113
G01 X236.872 Y200.848
G01 X234.706 Y199.594
G01 X232.538 Y198.347
G01 X230.377 Y197.097
G01 X228.212 Y195.843
G01 X226.050 Y194.606
G01 X223.885 Y193.355
G01 X221.723 Y192.112
G01 X220.254 Y191.251
G01 X219.558 Y190.849
G01 X217.395 Y189.615
G01 X215.228 Y188.356
G01 X214.000 Y187.646
G01 X214.538 Y188.577
G01 X215.788 Y190.742
G01 X217.038 Y192.907
G01 X218.288 Y195.072
G01 X219.538 Y197.237
G01 X220.788 Y199.402
G01 X222.038 Y201.567
G01 X222.813 Y202.910
G01 X223.288 Y203.732
G01 X224.538 Y205.898
G01 X225.788 Y208.063
G01 X227.038 Y210.228
G01 X228.288 Y212.393
G01 X229.538 Y214.558
G01 X230.788 Y216.723
G01 X232.038 Y218.888
G01 X233.288 Y221.053
G01 X234.538 Y223.218
G01 X235.250 Y224.452
G01 X235.788 Y225.383
G01 X236.488 Y226.596
G01 X237.038 Y227.548
G01 X237.738 Y228.761
G01 X238.275 Y229.692
G01 X238.975 Y230.904
G01 X239.525 Y231.857
G01 X240.213 Y233.047
G01 X240.775 Y234.022
G01 X241.463 Y235.213
G01 X242.025 Y236.187
G01 X242.700 Y237.356
G01 X243.275 Y238.352
G01 X243.950 Y239.521
G01 X244.525 Y240.517
G01 X245.188 Y241.664
G01 X245.775 Y242.682
G01 X246.438 Y243.830
G01 X247.025 Y244.847
G01 X247.675 Y245.973
G01 X248.275 Y247.012
G01 X249.525 Y249.177
G01 X249.495 Y249.217
G01 X249.467 Y249.257
G01 X249.443 Y249.298
G01 X249.421 Y249.339
G01 X249.401 Y249.381
G01 X249.385 Y249.424
G01 X249.371 Y249.466
G01 X249.359 Y249.508
G01 X249.351 Y249.551
G01 X249.345 Y249.592
G01 X249.341 Y249.634
G01 X249.340 Y249.674
G01 X249.341 Y249.714
G01 X249.344 Y249.753
G01 X249.350 Y249.791
G01 X249.358 Y249.828
G01 X249.367 Y249.863
G01 X249.379 Y249.897
G01 X249.392 Y249.930
G01 X249.408 Y249.961
G01 X249.424 Y249.991
G01 X249.442 Y250.018
G01 X249.461 Y250.044
G01 X249.482 Y250.068
G01 X249.503 Y250.090
G01 X249.526 Y250.111
G01 X249.549 Y250.129
G01 X249.573 Y250.145
G01 X249.597 Y250.159
G01 X249.621 Y250.172
G01 X249.646 Y250.182
G01 X249.671 Y250.190
G01 X249.696 Y250.196
G01 X249.720 Y250.201
G01 X249.744 Y250.203
G01 X249.768 Y250.204
G01 X249.791 Y250.202
G01 X249.813 Y250.199
G01 X249.835 Y250.195
G01 X249.855 Y250.188
G01 X249.875 Y250.181
G01 X249.893 Y250.171
G01 X249.911 Y250.161
G01 X249.926 Y250.149
G01 X249.941 Y250.136
G01 X249.954 Y250.122
G01 X249.965 Y250.107
G01 X249.975 Y250.092
G01 X249.984 Y250.075
G01 X249.990 Y250.059
G01 X249.995 Y250.041
G01 X249.998 Y250.024
G01 X250.000 Y250.006
G01 X250.000 Y250.000
G01 X249.993 Y250.145
G01 X249.972 Y250.289
G01 X249.936 Y250.431
G01 X249.887 Y250.570
G01 X249.823 Y250.705
G01 X249.747 Y250.834
G01 X249.657 Y250.958
G01 X249.555 Y251.074
G01 X249.441 Y251.182
G01 X249.315 Y251.282
G01 X249.225 Y251.342
G01 X247.975 Y253.508
G01 X246.726 Y255.673
G01 X245.476 Y257.838
G01 X244.226 Y260.003
G01 X242.976 Y262.168
G01 X241.726 Y264.334
G01 X240.477 Y266.499
G01 X239.902 Y267.495
G01 X239.227 Y268.664
G01 X237.977 Y270.829
G01 X236.727 Y272.994
G01 X235.477 Y275.159
G01 X234.228 Y277.325
G01 X232.978 Y279.490
G01 X231.728 Y281.655
G01 X230.478 Y283.820
G01 X229.229 Y285.985
G01 X227.979 Y288.151
G01 X227.466 Y289.038
G01 X226.729 Y290.316
G01 X225.492 Y292.459
G01 X224.242 Y294.625
G01 X222.992 Y296.790
G01 X221.742 Y298.955
G01 X220.493 Y301.120
G01 X219.243 Y303.285
G01 X217.993 Y305.450
G01 X216.743 Y307.616
G01 X215.493 Y309.781
G01 X215.043 Y310.560
G01 X214.244 Y311.946
G01 X214.019 Y312.336
G01 X215.779 Y311.323
G01 X217.950 Y310.058
G01 X220.109 Y308.815
G01 X222.269 Y307.569
G01 X224.436 Y306.320
G01 X226.604 Y305.060
G01 X228.763 Y303.811
G01 X230.923 Y302.571
G01 X233.093 Y301.311
G01 X233.756 Y300.922
G01 X235.253 Y300.074
G01 X237.419 Y298.804
G01 X239.581 Y297.573
G01 X241.743 Y296.320
G01 X243.907 Y295.065
G01 X246.074 Y293.799
G01 X248.237 Y292.563
G01 X250.318 Y291.350
G01 X250.401 Y291.298
G01 X252.365 Y290.189
G01 X252.564 Y290.068
G01 X254.425 Y289.000
G01 X254.727 Y288.813
G01 X255.275 Y288.490
G01 X256.891 Y287.548
G01 X258.591 Y286.595
G01 X259.056 Y286.313
G01 X260.691 Y285.375
G01 X261.216 Y285.049
G01 X262.807 Y284.149
G01 X263.382 Y283.797
G01 X264.942 Y282.920
G01 X265.545 Y282.554
G01 X267.090 Y281.690
G01 X267.716 Y281.311
G01 X269.250 Y280.433
G01 X269.872 Y280.048
G01 X271.428 Y279.181
G01 X272.043 Y278.810
G01 X273.617 Y277.915
G01 X274.205 Y277.553
G01 X275.826 Y276.640
G01 X276.371 Y276.308
G01 X276.798 Y276.053
G01 X278.480 Y275.091
G01 X278.535 Y275.057
G01 X280.281 Y274.065
G01 X280.701 Y273.807
G01 X282.524 Y272.756
G01 X282.856 Y272.550
G01 X284.776 Y271.437
G01 X285.009 Y271.291
G01 X287.072 Y270.123
G01 X287.189 Y270.051
G01 X289.341 Y268.795
G01 X291.519 Y267.549
G01 X293.684 Y266.298
G01 X295.844 Y265.045
G01 X298.008 Y263.794
G01 X298.319 Y263.612
G01 X300.156 Y262.540
G01 X302.321 Y261.288
G01 X304.483 Y260.038
G01 X306.647 Y258.787
G01 X308.819 Y257.540
G01 X310.976 Y256.290
G01 X313.149 Y255.037
G01 X315.315 Y253.786
G01 X317.477 Y252.538
G01 X319.638 Y251.288
G01 X319.840 Y251.166
G01 X321.800 Y250.036
G01 X321.850 Y250.007
G01 X324.300 Y250.007
G01 X326.800 Y250.007
G01 X329.300 Y250.008
G01 X331.800 Y250.008
G01 X334.300 Y250.008
G01 X336.800 Y250.008
G01 X339.300 Y250.009
G01 X341.775 Y250.009
G01 X344.275 Y250.009
G01 X344.400 Y250.009
G01 X346.775 Y250.009
G01 X349.275 Y250.010
G01 X351.775 Y250.010
G01 X354.275 Y250.010
G01 X356.775 Y250.010
G01 X359.275 Y250.011
G01 X361.775 Y250.011
G01 X364.275 Y250.011
G01 X366.775 Y250.011
G01 X369.250 Y250.011
G01 X369.275 Y250.011
G01 X371.775 Y250.012
G01 X374.275 Y250.012
G01 X376.775 Y250.012
G01 X379.275 Y250.012
G01 X381.775 Y250.013
G01 X384.275 Y250.013
G01 X386.775 Y250.013
G01 X389.275 Y250.013
G01 X391.775 Y250.014
G01 X393.150 Y250.014
G01 X393.325 Y250.014
G01 X393.700 Y250.014
G01 X391.775 Y250.014
G01 X389.275 Y250.013
G01 X386.775 Y250.013
G01 X384.275 Y250.013
G01 X381.775 Y250.013
G01 X379.275 Y250.012
G01 X376.775 Y250.012
G01 X374.275 Y250.012
G01 X371.775 Y250.012
G01 X369.275 Y250.011
G01 X369.250 Y250.011
G01 X366.775 Y250.011
G01 X364.275 Y250.011
G01 X361.775 Y250.011
G01 X359.275 Y250.011
G01 X356.775 Y250.010
G01 X354.275 Y250.010
G01 X351.775 Y250.010
G01 X349.275 Y250.010
G01 X346.775 Y250.009
G01 X344.400 Y250.009
G01 X344.275 Y250.009
G01 X341.775 Y250.009
G01 X339.300 Y250.009
G01 X336.800 Y250.008
G01 X334.300 Y250.008
G01 X331.800 Y250.008
G01 X329.300 Y250.008
G01 X326.800 Y250.007
G01 X324.300 Y250.007
G01 X322.000 Y250.007
G01 X321.900 Y250.179
G01 X320.768 Y252.138
G01 X320.636 Y252.339
G01 X319.404 Y254.503
G01 X318.149 Y256.672
G01 X316.894 Y258.834
G01 X315.635 Y260.996
G01 X314.394 Y263.160
G01 X313.142 Y265.325
G01 X311.901 Y267.492
G01 X310.645 Y269.654
G01 X309.393 Y271.821
G01 X308.333 Y273.665
G01 X308.148 Y273.983
G01 X306.903 Y276.152
G01 X305.659 Y278.322
G01 X304.394 Y280.476
G01 X303.150 Y282.645
G01 X301.910 Y284.809
G01 X300.645 Y286.965
G01 X299.401 Y289.137
G01 X298.164 Y291.306
G01 X296.905 Y293.469
G01 X295.909 Y295.199
G01 X295.658 Y295.630
G01 X294.415 Y297.800
G01 X293.162 Y299.963
G01 X291.905 Y302.118
G01 X290.657 Y304.289
G01 X289.408 Y306.456
G01 X288.164 Y308.621
G01 X286.902 Y310.774
G01 X286.000 Y312.354
G01 X286.338 Y312.938
G01 X287.588 Y315.103
G01 X288.525 Y316.727
G01 X288.838 Y317.268
G01 X290.088 Y319.434
G01 X291.338 Y321.599
G01 X292.588 Y323.764
G01 X293.838 Y325.929
G01 X295.088 Y328.094
G01 X296.338 Y330.259
G01 X297.588 Y332.424
G01 X298.838 Y334.589
G01 X300.088 Y336.754
G01 X300.950 Y338.248
G01 X301.338 Y338.919
G01 X302.588 Y341.084
G01 X303.838 Y343.249
G01 X305.088 Y345.414
G01 X306.338 Y347.579
G01 X307.588 Y349.744
G01 X308.838 Y351.909
G01 X310.088 Y354.075
G01 X311.338 Y356.240
G01 X312.588 Y358.405
G01 X313.388 Y359.790
G01 X313.838 Y360.570
G01 X315.075 Y362.713
G01 X316.325 Y364.878
G01 X317.575 Y367.043
G01 X318.188 Y368.104
G01 X318.825 Y369.208
G01 X320.075 Y371.373
G01 X321.325 Y373.538
G01 X321.425 Y373.712
G01 X322.000 Y374.708
G01 X321.325 Y373.538
G01 X320.075 Y371.373
G01 X318.825 Y369.208
G01 X317.575 Y367.043
G01 X316.325 Y364.878
G01 X315.075 Y362.713
G01 X313.838 Y360.570
G01 X313.388 Y359.790
G01 X312.588 Y358.405
G01 X311.338 Y356.240
G01 X310.088 Y354.075
G01 X308.838 Y351.909
G01 X307.588 Y349.744
G01 X306.338 Y347.579
G01 X305.088 Y345.414
G01 X303.838 Y343.249
G01 X302.588 Y341.084
G01 X301.338 Y338.919
G01 X300.950 Y338.248
G01 X300.088 Y336.754
G01 X298.838 Y334.589
G01 X297.588 Y332.424
G01 X296.338 Y330.259
G01 X295.088 Y328.094
G01 X293.838 Y325.929
G01 X292.588 Y323.764
G01 X291.338 Y321.599
G01 X290.088 Y319.434
G01 X288.838 Y317.268
G01 X288.525 Y316.727
G01 X287.588 Y315.103
G01 X286.338 Y312.938
G01 X286.000 Y312.354
G01 X284.181 Y312.345
G01 X281.686 Y312.362
G01 X279.189 Y312.357
G01 X276.687 Y312.354
G01 X274.183 Y312.349
G01 X271.688 Y312.361
G01 X269.189 Y312.365
G01 X266.688 Y312.356
G01 X266.189 Y312.358
G01 X264.193 Y312.355
G01 X261.690 Y312.364
G01 X259.188 Y312.352
G01 X256.690 Y312.342
G01 X254.191 Y312.359
G01 X251.696 Y312.352
G01 X249.196 Y312.345
G01 X246.698 Y312.363
G01 X244.197 Y312.356
G01 X241.696 Y312.349
G01 X241.328 Y312.350
G01 X239.201 Y312.347
G01 X236.698 Y312.347
G01 X234.198 Y312.354
G01 X231.701 Y312.345
G01 X229.200 Y312.347
G01 X226.697 Y312.363
G01 X224.203 Y312.349
G01 X221.704 Y312.355
G01 X219.204 Y312.361
G01 X216.714 Y312.346
G01 X216.467 Y312.356
G01 X214.206 Y312.357
G01 X214.000 Y312.354
G01 X212.850 Y314.346
G01 X211.600 Y316.511
G01 X210.350 Y318.676
G01 X209.100 Y320.841
G01 X207.850 Y323.006
G01 X206.600 Y325.171
G01 X205.350 Y327.336
G01 X204.112 Y329.479
G01 X202.862 Y331.644
G01 X202.800 Y331.753
G01 X201.612 Y333.810
G01 X200.362 Y335.975
G01 X199.112 Y338.140
G01 X197.862 Y340.305
G01 X196.612 Y342.470
G01 X195.362 Y344.635
G01 X194.112 Y346.800
G01 X192.862 Y348.965
G01 X191.612 Y351.130
G01 X190.375 Y353.273
G01 X190.362 Y353.295
G01 X189.112 Y355.460
G01 X187.862 Y357.625
G01 X186.612 Y359.790
G01 X185.362 Y361.955
G01 X184.112 Y364.120
G01 X182.862 Y366.285
G01 X181.612 Y368.451
G01 X180.362 Y370.616
G01 X179.112 Y372.781
G01 X178.137 Y374.469
G01 X178.050 Y374.621
G01 X178.000 Y374.708
G01 X179.112 Y372.781
G01 X180.362 Y370.616
G01 X181.612 Y368.451
G01 X182.862 Y366.285
G01 X184.112 Y364.120
G01 X185.362 Y361.955
G01 X186.612 Y359.790
G01 X187.862 Y357.625
G01 X189.112 Y355.460
G01 X190.362 Y353.295
G01 X190.375 Y353.273
G01 X191.612 Y351.130
G01 X192.862 Y348.965
G01 X194.112 Y346.800
G01 X195.362 Y344.635
G01 X196.612 Y342.470
G01 X197.862 Y340.305
G01 X199.112 Y338.140
G01 X200.362 Y335.975
G01 X201.612 Y333.810
G01 X202.800 Y331.753
G01 X202.862 Y331.644
G01 X204.112 Y329.479
G01 X205.350 Y327.336
G01 X206.600 Y325.171
G01 X207.850 Y323.006
G01 X209.100 Y320.841
G01 X210.350 Y318.676
G01 X211.600 Y316.511
G01 X212.850 Y314.346
G01 X214.000 Y312.354
G01 X213.894 Y312.177
G01 X212.765 Y310.218
G01 X212.650 Y310.000
G01 X211.392 Y307.850
G01 X210.147 Y305.683
G01 X208.902 Y303.515
G01 X207.643 Y301.363
G01 X206.406 Y299.186
G01 X205.157 Y297.020
G01 X203.901 Y294.862
G01 X202.657 Y292.693
G01 X201.405 Y290.525
G01 X200.339 Y288.685
G01 X200.155 Y288.366
G01 X198.900 Y286.203
G01 X197.647 Y284.046
G01 X196.410 Y281.869
G01 X195.153 Y279.707
G01 X193.900 Y277.550
G01 X192.665 Y275.377
G01 X191.408 Y273.219
G01 X190.146 Y271.058
G01 X188.904 Y268.892
G01 X187.902 Y267.159
G01 X187.654 Y266.725
G01 X186.396 Y264.564
G01 X185.149 Y262.398
G01 X183.912 Y260.231
G01 X182.656 Y258.065
G01 X181.403 Y255.900
G01 X180.150 Y253.740
G01 X178.917 Y251.571
G01 X178.000 Y250.000
G01 X177.325 Y250.000
G01 X174.825 Y250.000
G01 X172.950 Y250.000
G01 X172.325 Y250.000
G01 X169.825 Y250.000
G01 X167.325 Y250.000
G01 X164.825 Y250.000
G01 X162.325 Y250.000
G01 X159.825 Y250.000
G01 X157.325 Y250.000
G01 X154.825 Y250.000
G01 X152.325 Y250.000
G01 X149.825 Y250.000
G01 X148.100 Y250.000
G01 X147.325 Y250.000
G01 X144.825 Y250.000
G01 X142.325 Y250.000
G01 X139.825 Y250.000
G01 X137.325 Y250.000
G01 X134.825 Y250.000
G01 X132.325 Y250.000
G01 X129.825 Y250.000
G01 X127.325 Y250.000
G01 X124.825 Y250.000
G01 X123.225 Y250.000
G01 X122.325 Y250.000
G01 X119.850 Y250.000
G01 X117.350 Y250.000
G01 X114.850 Y250.000
G01 X113.625 Y249.999
G01 X112.350 Y249.999
G01 X109.850 Y249.999
G01 X107.350 Y249.999
G01 X107.150 Y249.999
G01 X106.000 Y249.999
G01 X107.350 Y249.999
G01 X109.850 Y249.999
G01 X112.350 Y249.999
G01 X114.850 Y250.000
G01 X117.350 Y250.000
G01 X119.850 Y250.000
G01 X122.325 Y250.000
G01 X123.225 Y250.000
G01 X124.825 Y250.000
G01 X127.325 Y250.000
G01 X129.825 Y250.000
G01 X132.325 Y250.000
G01 X134.825 Y250.000
G01 X137.325 Y250.000
G01 X139.825 Y250.000
G01 X142.325 Y250.000
G01 X144.825 Y250.000
G01 X147.325 Y250.000
G01 X148.100 Y250.000
G01 X149.825 Y250.000
G01 X152.325 Y250.000
G01 X154.825 Y250.000
G01 X157.325 Y250.000
G01 X159.825 Y250.000
G01 X162.325 Y250.000
G01 X164.825 Y250.000
G01 X167.325 Y250.000
G01 X169.825 Y250.000
G01 X172.325 Y250.000
G01 X172.950 Y250.000
G01 X174.825 Y250.000
G01 X177.325 Y250.000
G01 X178.000 Y250.000
G01 X178.917 Y248.429
G01 X180.150 Y246.259
G01 X181.403 Y244.100
G01 X182.656 Y241.934
G01 X183.912 Y239.768
G01 X185.150 Y237.602
G01 X186.396 Y235.436
G01 X187.655 Y233.274
G01 X187.902 Y232.840
G01 X188.903 Y231.113
G01 X190.146 Y228.942
G01 X191.406 Y226.786
G01 X192.665 Y224.622
G01 X193.900 Y222.449
G01 X195.154 Y220.293
G01 X196.410 Y218.131
G01 X197.644 Y215.959
G01 X198.900 Y213.796
G01 X200.156 Y211.634
G01 X200.340 Y211.315
G01 X201.406 Y209.475
G01 X202.657 Y207.307
G01 X203.901 Y205.138
G01 X205.158 Y202.980
G01 X206.401 Y200.818
G01 X207.643 Y198.637
G01 X208.903 Y196.485
G01 X210.147 Y194.317
G01 X211.392 Y192.150
G01 X212.651 Y190.000
G01 X212.765 Y189.782
G01 X213.895 Y187.823
G01 X214.000 Y187.646
G01 X212.850 Y185.654
G01 X211.600 Y183.489
G01 X210.350 Y181.324
G01 X209.108 Y179.155
G01 X207.858 Y176.990
G01 X206.608 Y174.824
G01 X205.358 Y172.659
G01 X204.121 Y170.516
G01 X202.871 Y168.350
G01 X202.809 Y168.242
G01 X201.621 Y166.185
G01 X200.380 Y164.015
G01 X199.131 Y161.850
G01 X197.881 Y159.684
G01 X196.632 Y157.519
G01 X195.382 Y155.354
G01 X194.132 Y153.188
G01 X192.883 Y151.023
G01 X191.633 Y148.858
G01 X190.396 Y146.714
G01 X190.384 Y146.693
G01 X189.134 Y144.527
G01 X187.895 Y142.356
G01 X186.646 Y140.190
G01 X185.397 Y138.025
G01 X184.147 Y135.859
G01 X182.898 Y133.694
G01 X181.649 Y131.528
G01 X180.399 Y129.363
G01 X179.150 Y127.198
G01 X178.251 Y125.638
G01 X178.163 Y125.487
G01 X178.076 Y125.335
G01 X179.150 Y127.198
G01 X180.399 Y129.363
G01 X181.649 Y131.528
G01 X182.898 Y133.694
G01 X184.147 Y135.859
G01 X185.397 Y138.025
G01 X186.646 Y140.190
G01 X187.895 Y142.356
G01 X189.134 Y144.527
G01 X190.384 Y146.693
G01 X190.396 Y146.714
G01 X191.633 Y148.858
G01 X192.883 Y151.023
G01 X194.132 Y153.188
G01 X195.382 Y155.354
G01 X196.632 Y157.519
G01 X197.881 Y159.684
G01 X199.131 Y161.850
G01 X200.380 Y164.015
G01 X201.621 Y166.185
G01 X202.809 Y168.242
G01 X202.871 Y168.350
G01 X204.121 Y170.516
G01 X205.358 Y172.659
G01 X206.608 Y174.824
G01 X207.858 Y176.990
G01 X209.108 Y179.155
G01 X210.350 Y181.324
G01 X211.600 Y183.489
G01 X212.850 Y185.654
G01 X214.000 Y187.646
G01 X214.206 Y187.643
G01 X216.468 Y187.644
G01 X216.714 Y187.654
G01 X219.205 Y187.639
G01 X221.704 Y187.645
G01 X224.204 Y187.651
G01 X226.697 Y187.636
G01 X229.201 Y187.653
G01 X231.701 Y187.655
G01 X234.198 Y187.646
G01 X236.699 Y187.653
G01 X239.202 Y187.653
G01 X241.328 Y187.650
G01 X241.697 Y187.650
G01 X244.197 Y187.644
G01 X246.692 Y187.638
G01 X249.196 Y187.655
G01 X251.691 Y187.648
G01 X254.191 Y187.641
G01 X256.690 Y187.658
G01 X259.188 Y187.648
G01 X261.691 Y187.636
G01 X264.187 Y187.644
G01 X266.189 Y187.642
G01 X266.689 Y187.645
G01 X269.190 Y187.636
G01 X271.689 Y187.639
G01 X274.183 Y187.651
G01 X276.687 Y187.646
G01 X279.183 Y187.641
G01 X281.686 Y187.638
G01 X284.181 Y187.655
G01 X286.001 Y187.646
G01 X286.338 Y187.062
G01 X287.588 Y184.897
G01 X288.526 Y183.273
G01 X288.838 Y182.732
G01 X290.088 Y180.567
G01 X291.338 Y178.402
G01 X292.588 Y176.237
G01 X293.838 Y174.072
G01 X295.088 Y171.907
G01 X296.338 Y169.741
G01 X297.588 Y167.576
G01 X298.838 Y165.411
G01 X300.088 Y163.246
G01 X300.951 Y161.752
G01 X301.338 Y161.081
G01 X302.588 Y158.916
G01 X303.838 Y156.751
G01 X305.088 Y154.586
G01 X306.338 Y152.421
G01 X307.588 Y150.256
G01 X308.838 Y148.091
G01 X310.088 Y145.926
G01 X311.338 Y143.761
G01 X312.588 Y141.596
G01 X313.388 Y140.210
G01 X313.838 Y139.431
G01 X315.076 Y137.287
G01 X316.326 Y135.122
G01 X317.576 Y132.957
G01 X318.189 Y131.896
G01 X318.826 Y130.792
G01 X320.076 Y128.627
G01 X321.326 Y126.462
G01 X321.426 Y126.289
G01 X322.001 Y125.293
G01 X321.326 Y126.462
G01 X320.076 Y128.627
G01 X318.826 Y130.792
G01 X317.576 Y132.957
G01 X316.326 Y135.122
G01 X315.076 Y137.287
G01 X313.838 Y139.431
G01 X313.388 Y140.210
G01 X312.588 Y141.596
G01 X311.338 Y143.761
G01 X310.088 Y145.926
G01 X308.838 Y148.091
G01 X307.588 Y150.256
G01 X306.338 Y152.421
G01 X305.088 Y154.586
G01 X303.838 Y156.751
G01 X302.588 Y158.916
G01 X301.338 Y161.081
G01 X300.951 Y161.752
G01 X300.088 Y163.246
G01 X298.838 Y165.411
G01 X297.588 Y167.576
G01 X296.338 Y169.741
G01 X295.088 Y171.907
G01 X293.838 Y174.072
G01 X292.588 Y176.237
G01 X291.338 Y178.402
G01 X290.088 Y180.567
G01 X288.838 Y182.732
G01 X288.526 Y183.273
G01 X287.588 Y184.897
G01 X286.338 Y187.062
G01 X286.001 Y187.646
G01 X284.181 Y187.655
G01 X281.686 Y187.638
G01 X279.183 Y187.641
G01 X276.687 Y187.646
G01 X274.183 Y187.651
G01 X271.689 Y187.639
G01 X269.190 Y187.636
G01 X266.689 Y187.645
G01 X266.189 Y187.642
G01 X264.187 Y187.644
G01 X261.691 Y187.636
G01 X259.188 Y187.648
G01 X256.690 Y187.658
G01 X254.191 Y187.641
G01 X251.691 Y187.648
G01 X249.196 Y187.655
G01 X246.692 Y187.638
G01 X244.197 Y187.644
G01 X241.697 Y187.650
G01 X241.328 Y187.650
G01 X239.202 Y187.653
G01 X236.699 Y187.653
G01 X234.198 Y187.646
G01 X231.701 Y187.655
G01 X229.201 Y187.653
G01 X226.697 Y187.636
G01 X224.204 Y187.651
G01 X221.704 Y187.645
G01 X219.205 Y187.639
G01 X216.714 Y187.654
G01 X216.468 Y187.644
G01 X214.206 Y187.643
G01 X214.000 Y187.646
G01 X213.998 Y189.939
G01 X213.996 Y192.431
G01 X214.009 Y194.945
G01 X214.006 Y197.444
G01 X213.995 Y199.926
G01 X214.001 Y202.438
G01 X214.004 Y204.936
G01 X214.000 Y207.432
G01 X213.992 Y209.925
G01 X213.991 Y210.028
G01 X214.005 Y212.437
G01 X214.006 Y214.936
G01 X213.997 Y217.428
G01 X214.005 Y219.933
G01 X213.997 Y222.425
G01 X213.998 Y224.923
G01 X213.994 Y227.421
G01 X213.992 Y229.810
G01 X213.995 Y229.922
G01 X214.002 Y232.182
G01 X214.011 Y232.428
G01 X213.985 Y234.555
G01 X213.992 Y234.890
G01 X214.004 Y234.925
G01 X213.994 Y236.958
G01 X214.008 Y237.426
G01 X213.994 Y239.372
G01 X214.009 Y239.923
G01 X213.978 Y241.797
G01 X213.989 Y242.419
G01 X213.985 Y244.246
G01 X214.007 Y244.920
G01 X213.979 Y246.709
G01 X213.993 Y247.417
G01 X213.980 Y249.189
G01 X214.000 Y249.917
G01 X213.986 Y251.686
G01 X214.006 Y252.415
G01 X213.990 Y254.199
G01 X214.009 Y254.914
G01 X213.989 Y256.731
G01 X214.005 Y257.413
G01 X213.987 Y259.279
G01 X213.998 Y259.755
G01 X213.990 Y259.915
G01 X213.987 Y261.846
G01 X214.005 Y262.413
G01 X213.981 Y264.436
G01 X213.992 Y264.915
G01 X213.980 Y267.036
G01 X213.991 Y267.416
G01 X213.983 Y269.657
G01 X213.990 Y269.916
G01 X214.000 Y272.285
G01 X214.004 Y272.407
G01 X214.002 Y274.908
G01 X213.996 Y277.410
G01 X214.001 Y279.905
G01 X213.990 Y282.414
G01 X213.991 Y284.617
G01 X213.997 Y284.911
G01 X213.991 Y287.411
G01 X213.996 Y289.909
G01 X214.000 Y292.404
G01 X214.001 Y294.901
G01 X214.000 Y297.405
G01 X214.002 Y299.895
G01 X213.998 Y302.399
G01 X214.000 Y304.899
G01 X214.001 Y307.394
G01 X213.999 Y309.478
G01 X214.003 Y309.889
G01 X214.000 Y312.354
G01 X214.037 Y312.375
G01 X216.200 Y313.630
G01 X218.366 Y314.873
G01 X220.524 Y316.128
G01 X222.690 Y317.376
G01 X224.860 Y318.615
G01 X227.024 Y319.869
G01 X229.188 Y321.117
G01 X231.353 Y322.361
G01 X233.030 Y323.337
G01 X233.512 Y323.627
G01 X235.679 Y324.868
G01 X237.842 Y326.110
G01 X240.009 Y327.383
G01 X242.176 Y328.612
G01 X244.335 Y329.874
G01 X246.501 Y331.125
G01 X248.666 Y332.364
G01 X250.828 Y333.621
G01 X252.997 Y334.872
G01 X254.559 Y335.779
G01 X255.156 Y336.121
G01 X257.321 Y337.369
G01 X259.492 Y338.618
G01 X261.649 Y339.873
G01 X263.816 Y341.108
G01 X265.977 Y342.353
G01 X268.139 Y343.609
G01 X270.311 Y344.875
G01 X272.473 Y346.108
G01 X274.631 Y347.357
G01 X276.090 Y348.193
G01 X276.807 Y348.622
G01 X278.964 Y349.859
G01 X281.135 Y351.115
G01 X283.301 Y352.370
G01 X285.452 Y353.602
G01 X287.623 Y354.855
G01 X289.784 Y356.112
G01 X291.954 Y357.369
G01 X294.112 Y358.609
G01 X296.276 Y359.851
G01 X297.626 Y360.635
G01 X298.445 Y361.097
G01 X300.606 Y362.354
G01 X302.781 Y363.613
G01 X304.946 Y364.859
G01 X307.110 Y366.115
G01 X309.273 Y367.356
G01 X311.433 Y368.610
G01 X313.589 Y369.851
G01 X315.762 Y371.096
G01 X317.929 Y372.359
G01 X319.140 Y373.057
G01 X320.088 Y373.613
G01 X322.000 Y374.708
G01 X322.000 Y374.419
G01 X322.011 Y371.922
G01 X322.007 Y369.421
G01 X321.999 Y366.908
G01 X322.011 Y364.427
G01 X322.002 Y361.914
G01 X321.996 Y359.412
G01 X321.993 Y356.921
G01 X322.001 Y354.435
G01 X322.005 Y353.155
G01 X322.004 Y351.933
G01 X322.000 Y349.416
G01 X322.005 Y346.932
G01 X322.008 Y344.427
G01 X322.002 Y341.935
G01 X321.998 Y339.417
G01 X321.997 Y336.932
G01 X321.992 Y334.422
G01 X322.004 Y331.931
G01 X321.998 Y329.424
G01 X321.993 Y328.277
G01 X322.005 Y326.936
G01 X321.996 Y324.426
G01 X322.002 Y321.930
G01 X321.997 Y319.437
G01 X321.992 Y316.933
G01 X322.003 Y314.436
G01 X322.001 Y311.936
G01 X322.009 Y309.444
G01 X322.006 Y306.941
G01 X322.008 Y304.446
G01 X321.994 Y303.423
G01 X321.993 Y301.942
G01 X322.009 Y299.444
G01 X321.998 Y296.944
G01 X322.012 Y294.448
G01 X321.999 Y291.943
G01 X322.010 Y291.575
G01 X323.842 Y290.512
G01 X326.009 Y289.262
G01 X328.173 Y288.012
G01 X330.340 Y286.758
G01 X332.505 Y285.516
G01 X333.267 Y285.067
G01 X334.657 Y284.255
G01 X336.836 Y283.013
G01 X338.978 Y281.755
G01 X341.154 Y280.511
G01 X343.319 Y279.266
G01 X345.475 Y278.013
G01 X347.649 Y276.762
G01 X349.815 Y275.518
G01 X351.978 Y274.265
G01 X354.137 Y273.014
G01 X354.782 Y272.640
G01 X356.296 Y271.757
G01 X358.477 Y270.513
G01 X360.635 Y269.264
G01 X362.795 Y268.017
G01 X364.959 Y266.763
G01 X367.127 Y265.515
G01 X369.300 Y264.264
G01 X371.454 Y263.020
G01 X373.616 Y261.766
G01 X375.786 Y260.515
G01 X376.313 Y260.215
G01 X377.940 Y259.266
G01 X380.103 Y258.024
G01 X382.277 Y256.765
G01 X384.437 Y255.515
G01 X386.608 Y254.277
G01 X388.767 Y253.025
G01 X390.939 Y251.775
G01 X393.099 Y250.515
G01 X393.975 Y250.014
G01 X392.698 Y249.272
G01 X390.536 Y248.018
G01 X390.132 Y247.785
G01 X388.387 Y246.774
G01 X386.201 Y245.517
G01 X384.053 Y244.272
G01 X381.890 Y243.016
G01 X379.715 Y241.778
G01 X377.548 Y240.518
G01 X375.392 Y239.278
G01 X373.219 Y238.022
G01 X371.055 Y236.777
G01 X368.896 Y235.518
G01 X368.599 Y235.350
G01 X366.745 Y234.273
G01 X364.574 Y233.023
G01 X362.406 Y231.767
G01 X360.242 Y230.519
G01 X358.080 Y229.270
G01 X355.919 Y228.021
G01 X353.755 Y226.765
G01 X351.591 Y225.515
G01 X349.425 Y224.273
G01 X347.252 Y223.021
G01 X347.067 Y222.916
G01 X345.097 Y221.766
G01 X342.935 Y220.517
G01 X340.766 Y219.275
G01 X338.605 Y218.017
G01 X336.433 Y216.773
G01 X334.272 Y215.527
G01 X332.114 Y214.271
G01 X329.939 Y213.028
G01 X327.788 Y211.769
G01 X325.613 Y210.519
G01 X325.537 Y210.482
G01 X323.462 Y209.264
G01 X322.010 Y208.425
G01 X321.999 Y207.611
G01 X322.002 Y205.108
G01 X322.004 Y202.609
G01 X322.006 Y200.111
G01 X322.007 Y197.608
G01 X321.994 Y195.122
G01 X322.004 Y192.613
G01 X322.000 Y190.114
G01 X321.991 Y187.669
G01 X322.010 Y187.615
G01 X322.006 Y185.118
G01 X321.990 Y182.624
G01 X321.989 Y180.124
G01 X322.007 Y177.617
G01 X321.997 Y175.123
G01 X322.002 Y172.617
G01 X321.993 Y170.133
G01 X321.996 Y167.629
G01 X321.998 Y165.124
G01 X321.993 Y162.805
G01 X322.001 Y162.618
G01 X321.992 Y160.130
G01 X322.005 Y157.623
G01 X322.001 Y155.128
G01 X321.999 Y152.628
G01 X322.009 Y150.128
G01 X322.001 Y147.636
G01 X322.000 Y145.139
G01 X321.998 Y142.630
G01 X321.993 Y140.137
G01 X322.001 Y137.937
G01 X322.002 Y137.641
G01 X322.003 Y135.126
G01 X322.008 Y132.628
G01 X321.996 Y130.135
G01 X322.005 Y127.639
G01 X321.999 Y125.292
G01 X321.874 Y125.364
G01 X319.693 Y126.623
G01 X317.551 Y127.861
G01 X315.377 Y129.122
G01 X313.209 Y130.372
G01 X311.432 Y131.390
G01 X311.047 Y131.613
G01 X308.881 Y132.867
G01 X306.724 Y134.113
G01 X304.554 Y135.369
G01 X302.384 Y136.616
G01 X300.226 Y137.859
G01 X298.060 Y139.117
G01 X295.898 Y140.370
G01 X293.730 Y141.614
G01 X291.569 Y142.856
G01 X289.903 Y143.826
G01 X289.406 Y144.120
G01 X287.240 Y145.354
G01 X285.077 Y146.613
G01 X282.906 Y147.870
G01 X280.746 Y149.106
G01 X278.584 Y150.369
G01 X276.416 Y151.609
G01 X274.256 Y152.858
G01 X272.087 Y154.111
G01 X269.926 Y155.350
G01 X268.368 Y156.258
G01 X267.759 Y156.598
G01 X265.598 Y157.861
G01 X263.429 Y159.112
G01 X261.264 Y160.355
G01 X259.099 Y161.617
G01 X256.942 Y162.851
G01 X254.771 Y164.107
G01 X252.607 Y165.365
G01 X250.441 Y166.601
G01 X249.999 Y166.850
G01 X248.283 Y165.868
G01 X246.846 Y165.034
G01 X246.120 Y164.613
G01 X243.951 Y163.361
G01 X241.784 Y162.108
G01 X239.623 Y160.877
G01 X237.456 Y159.616
G01 X235.297 Y158.372
G01 X233.127 Y157.120
G01 X230.969 Y155.880
G01 X228.802 Y154.627
G01 X226.642 Y153.383
G01 X225.317 Y152.604
G01 X224.475 Y152.124
G01 X222.308 Y150.870
G01 X220.143 Y149.621
G01 X217.983 Y148.374
G01 X215.818 Y147.130
G01 X213.650 Y145.888
G01 X211.484 Y144.618
G01 X209.326 Y143.369
G01 X207.160 Y142.120
G01 X204.987 Y140.869
G01 X203.787 Y140.177
G01 X202.828 Y139.633
G01 X200.656 Y138.370
G01 X198.502 Y137.117
G01 X196.345 Y135.884
G01 X194.167 Y134.625
G01 X192.000 Y133.376
G01 X189.847 Y132.138
G01 X187.686 Y130.891
G01 X185.518 Y129.634
G01 X183.357 Y128.388
G01 X182.253 Y127.741
G01 X181.190 Y127.131
G01 X179.020 Y125.889
G01 X178.074 Y125.336
G01 X178.081 Y126.748
G01 X178.075 Y129.248
G01 X178.071 Y131.730
G01 X178.061 Y134.231
G01 X178.069 Y136.735
G01 X178.061 Y139.236
G01 X178.065 Y141.747
G01 X178.053 Y144.225
G01 X178.063 Y145.369
G01 X178.059 Y146.740
G01 X178.053 Y149.222
G01 X178.045 Y151.726
G01 X178.058 Y154.238
G01 X178.044 Y156.730
G01 X178.046 Y159.236
G01 X178.051 Y161.734
G01 X178.051 Y164.232
G01 X178.040 Y166.737
G01 X178.038 Y169.233
G01 X178.025 Y170.219
G01 X178.039 Y171.727
G01 X178.037 Y174.226
G01 X178.036 Y176.730
G01 X178.020 Y179.220
G01 X178.027 Y181.732
G01 X178.025 Y184.229
G01 X178.015 Y186.712
G01 X178.024 Y189.229
G01 X178.012 Y191.716
G01 X178.012 Y194.212
G01 X178.007 Y195.079
G01 X178.002 Y196.708
G01 X178.011 Y199.214
G01 X178.016 Y201.721
G01 X177.999 Y204.216
G01 X178.008 Y206.720
G01 X177.990 Y208.426
G01 X177.329 Y208.825
G01 X175.160 Y210.072
G01 X172.994 Y211.320
G01 X170.826 Y212.572
G01 X168.661 Y213.814
G01 X168.031 Y214.189
G01 X166.510 Y215.076
G01 X164.333 Y216.320
G01 X162.170 Y217.572
G01 X160.001 Y218.812
G01 X157.841 Y220.063
G01 X155.689 Y221.322
G01 X153.523 Y222.572
G01 X151.340 Y223.819
G01 X149.188 Y225.064
G01 X147.014 Y226.311
G01 X146.508 Y226.619
G01 X144.866 Y227.571
G01 X142.696 Y228.819
G01 X140.525 Y230.069
G01 X138.354 Y231.307
G01 X136.202 Y232.570
G01 X134.024 Y233.812
G01 X131.866 Y235.061
G01 X129.701 Y236.313
G01 X127.555 Y237.567
G01 X125.377 Y238.805
G01 X124.979 Y239.047
G01 X123.214 Y240.066
G01 X121.042 Y241.309
G01 X118.886 Y242.559
G01 X116.719 Y243.813
G01 X114.565 Y245.056
G01 X112.399 Y246.313
G01 X110.221 Y247.555
G01 X108.055 Y248.809
G01 X106.000 Y250.002
G01 X106.100 Y250.059
G01 X108.256 Y251.306
G01 X108.558 Y251.473
G01 X110.423 Y252.556
G01 X112.603 Y253.808
G01 X114.745 Y255.062
G01 X116.924 Y256.301
G01 X119.093 Y257.550
G01 X121.251 Y258.809
G01 X123.423 Y260.047
G01 X125.587 Y261.304
G01 X127.743 Y262.552
G01 X129.915 Y263.799
G01 X130.078 Y263.902
G01 X132.081 Y265.046
G01 X134.242 Y266.302
G01 X136.398 Y267.554
G01 X138.574 Y268.796
G01 X140.725 Y270.055
G01 X142.897 Y271.300
G01 X145.045 Y272.547
G01 X147.219 Y273.796
G01 X149.396 Y275.048
G01 X151.551 Y276.296
G01 X151.613 Y276.332
G01 X153.715 Y277.553
G01 X155.882 Y278.796
G01 X158.035 Y280.049
G01 X160.199 Y281.303
G01 X162.373 Y282.545
G01 X164.541 Y283.798
G01 X166.696 Y285.045
G01 X168.871 Y286.289
G01 X171.022 Y287.550
G01 X173.146 Y288.760
G01 X173.192 Y288.795
G01 X175.363 Y290.042
G01 X177.516 Y291.301
G01 X179.692 Y292.539
G01 X181.855 Y293.786
G01 X184.007 Y295.043
G01 X186.172 Y296.295
G01 X188.347 Y297.535
G01 X190.502 Y298.798
G01 X192.668 Y300.042
G01 X194.675 Y301.191
G01 X194.835 Y301.290
G01 X197.001 Y302.536
G01 X199.171 Y303.781
G01 X201.326 Y305.041
G01 X203.490 Y306.298
G01 X205.653 Y307.545
G01 X207.822 Y308.784
G01 X209.985 Y310.037
G01 X212.152 Y311.279
G01 X214.313 Y312.534
G01 X216.194 Y313.627
G01 X216.481 Y313.778
G01 X218.642 Y315.035
G01 X220.807 Y316.281
G01 X222.969 Y317.542
G01 X225.131 Y318.793
G01 X227.303 Y320.039
G01 X229.467 Y321.276
G01 X231.627 Y322.534
G01 X233.794 Y323.791
G01 X235.961 Y325.023
G01 X237.730 Y326.041
G01 X238.121 Y326.281
G01 X240.292 Y327.519
G01 X242.454 Y328.789
G01 X244.616 Y330.019
G01 X246.781 Y331.286
G01 X248.945 Y332.518
G01 X250.001 Y333.150
G01 X248.895 Y333.768
G01 X246.726 Y335.037
G01 X244.559 Y336.279
G01 X242.403 Y337.521
G01 X240.747 Y338.493
G01 X240.231 Y338.789
G01 X238.065 Y340.037
G01 X235.909 Y341.269
G01 X233.736 Y342.532
G01 X231.576 Y343.782
G01 X229.411 Y345.020
G01 X227.247 Y346.273
G01 X225.081 Y347.516
G01 X222.918 Y348.780
G01 X220.755 Y350.012
G01 X219.217 Y350.909
G01 X218.588 Y351.265
G01 X216.426 Y352.517
G01 X214.261 Y353.768
G01 X212.095 Y355.019
G01 X209.928 Y356.271
G01 X207.763 Y357.527
G01 X205.611 Y358.766
G01 X203.432 Y360.026
G01 X201.269 Y361.272
G01 X199.114 Y362.529
G01 X197.694 Y363.337
G01 X196.945 Y363.761
G01 X194.787 Y365.008
G01 X192.618 Y366.260
G01 X190.451 Y367.525
G01 X188.288 Y368.775
G01 X186.128 Y370.012
G01 X183.963 Y371.259
G01 X181.792 Y372.518
G01 X179.629 Y373.768
G01 X178.002 Y374.709
G01 X178.003 Y374.103
G01 X177.993 Y372.592
G01 X177.997 Y371.607
G01 X177.994 Y369.100
G01 X178.007 Y366.588
G01 X178.000 Y364.109
G01 X178.003 Y361.590
G01 X178.001 Y359.111
G01 X177.988 Y356.607
G01 X178.000 Y354.102
G01 X178.003 Y351.602
G01 X178.000 Y349.107
G01 X178.005 Y347.717
G01 X178.006 Y346.598
G01 X177.995 Y344.114
G01 X177.998 Y341.617
G01 X178.009 Y339.101
G01 X177.999 Y336.604
G01 X177.995 Y334.115
G01 X178.007 Y331.608
G01 X177.996 Y329.114
G01 X178.006 Y326.604
G01 X177.999 Y324.107
G01 X178.004 Y322.852
G01 X178.001 Y321.613
G01 X178.000 Y319.109
G01 X177.995 Y316.625
G01 X178.005 Y314.107
G01 X177.991 Y311.620
G01 X178.005 Y309.107
G01 X177.998 Y306.624
G01 X177.995 Y304.118
G01 X177.994 Y301.625
G01 X178.009 Y299.116
G01 X178.007 Y297.996
G01 X178.000 Y296.619
G01 X177.996 Y294.127
G01 X177.994 Y291.632
G01 X177.990 Y291.576
G01 X175.872 Y290.353
G01 X173.711 Y289.099
G01 X171.553 Y287.847
G01 X169.395 Y286.598
G01 X167.232 Y285.347
G01 X165.062 Y284.094
G01 X162.888 Y282.850
G01 X162.038 Y282.359
G01 X160.728 Y281.600
G01 X158.557 Y280.355
G01 X156.394 Y279.100
G01 X154.242 Y277.848
G01 X152.073 Y276.598
G01 X149.912 Y275.355
G01 X147.753 Y274.104
G01 X145.573 Y272.860
G01 X143.418 Y271.606
G01 X141.263 Y270.350
G01 X140.523 Y269.923
G01 X139.084 Y269.109
G01 X136.926 Y267.855
G01 X134.765 Y266.605
G01 X132.599 Y265.350
G01 X130.429 Y264.104
G01 X128.277 Y262.854
G01 X126.093 Y261.608
G01 X123.950 Y260.361
G01 X121.773 Y259.108
G01 X119.612 Y257.860
G01 X118.990 Y257.503
G01 X117.440 Y256.608
G01 X115.281 Y255.353
G01 X113.112 Y254.109
G01 X110.955 Y252.866
G01 X108.784 Y251.611
G01 X106.625 Y250.360
G01 X106.000 Y250.002
G01 X107.528 Y249.104
G01 X109.691 Y247.855
G01 X111.866 Y246.617
G01 X114.029 Y245.363
G01 X114.540 Y245.069
G01 X116.205 Y244.111
G01 X118.369 Y242.860
G01 X120.521 Y241.612
G01 X122.690 Y240.358
G01 X124.848 Y239.111
G01 X127.023 Y237.861
G01 X129.188 Y236.622
G01 X131.349 Y235.369
G01 X133.503 Y234.119
G01 X135.677 Y232.863
G01 X136.065 Y232.642
G01 X137.847 Y231.614
G01 X140.012 Y230.373
G01 X142.178 Y229.120
G01 X144.343 Y227.868
G01 X146.508 Y226.619
G01 X148.650 Y225.371
G01 X150.822 Y224.116
G01 X152.997 Y222.873
G01 X155.153 Y221.625
G01 X157.320 Y220.374
G01 X157.608 Y220.212
G01 X159.474 Y219.115
G01 X161.637 Y217.866
G01 X163.813 Y216.622
G01 X165.980 Y215.376
G01 X168.143 Y214.121
G01 X170.300 Y212.869
G01 X172.476 Y211.630
G01 X174.634 Y210.371
G01 X176.791 Y209.118
G01 X178.954 Y207.867
G01 X179.124 Y207.776
G01 X181.120 Y206.624
G01 X183.299 Y205.379
G01 X185.464 Y204.133
G01 X187.624 Y202.877
G01 X189.777 Y201.619
G01 X191.945 Y200.373
G01 X194.113 Y199.125
G01 X196.279 Y197.879
G01 X198.448 Y196.633
G01 X200.600 Y195.374
G01 X200.660 Y195.353
G01 X202.774 Y194.137
G01 X204.937 Y192.887
G01 X207.094 Y191.621
G01 X209.268 Y190.387
G01 X211.435 Y189.140
G01 X213.589 Y187.885
G01 X215.760 Y186.634
G01 X217.917 Y185.376
G01 X220.082 Y184.125
G01 X222.180 Y182.915
G01 X222.247 Y182.887
G01 X224.413 Y181.631
G01 X226.574 Y180.386
G01 X228.747 Y179.144
G01 X230.908 Y177.884
G01 X233.067 Y176.628
G01 X235.234 Y175.397
G01 X237.399 Y174.139
G01 X239.564 Y172.878
G01 X241.725 Y171.636
G01 X243.714 Y170.498
G01 X243.889 Y170.384
G01 X246.059 Y169.146
G01 X248.217 Y167.894
G01 X249.999 Y166.850
G01 X250.383 Y166.651
G01 X252.547 Y165.388
G01 X254.710 Y164.129
G01 X256.877 Y162.896
G01 X259.044 Y161.637
G01 X261.204 Y160.398
G01 X263.367 Y159.153
G01 X265.243 Y158.055
G01 X265.534 Y157.901
G01 X267.703 Y156.639
G01 X269.868 Y155.389
G01 X272.028 Y154.149
G01 X274.195 Y152.894
G01 X276.354 Y151.644
G01 X278.520 Y150.403
G01 X280.691 Y149.141
G01 X282.850 Y147.905
G01 X285.009 Y146.643
G01 X286.764 Y145.636
G01 X287.182 Y145.386
G01 X289.346 Y144.151
G01 X291.508 Y142.886
G01 X293.668 Y141.643
G01 X295.835 Y140.398
G01 X297.996 Y139.144
G01 X300.172 Y137.890
G01 X302.329 Y136.646
G01 X304.498 Y135.398
G01 X306.656 Y134.163
G01 X308.307 Y133.194
G01 X308.824 Y132.894
G01 X310.988 Y131.639
G01 X313.150 Y130.398
G01 X315.317 Y129.146
G01 X317.478 Y127.906
G01 X319.643 Y126.653
G01 X321.800 Y125.408
G01 X321.999 Y125.292
G01 X321.993 Y127.574
G01 X321.998 Y130.078
G01 X321.999 Y132.564
G01 X322.003 Y134.330
G01 X321.995 Y135.062
G01 X322.009 Y137.556
G01 X322.001 Y140.053
G01 X321.994 Y142.567
G01 X322.011 Y145.056
G01 X321.989 Y147.566
G01 X321.999 Y150.059
G01 X321.999 Y152.566
G01 X321.993 Y155.060
G01 X321.999 Y157.554
G01 X322.008 Y159.183
G01 X321.997 Y160.069
G01 X321.998 Y162.550
G01 X321.997 Y165.057
G01 X321.996 Y167.563
G01 X322.011 Y170.049
G01 X322.005 Y172.551
G01 X321.994 Y175.051
G01 X322.006 Y177.545
G01 X321.990 Y180.053
G01 X321.992 Y182.554
G01 X322.006 Y184.040
G01 X322.004 Y185.042
G01 X321.991 Y187.555
G01 X322.002 Y190.039
G01 X322.009 Y192.539
G01 X322.001 Y195.048
G01 X321.996 Y197.550
G01 X321.992 Y200.047
G01 X321.991 Y202.545
G01 X321.992 Y205.045
G01 X322.012 Y207.535
G01 X322.000 Y208.909
G01 X322.003 Y210.036
G01 X322.013 Y212.536
G01 X322.011 Y215.037
G01 X321.995 Y217.537
G01 X321.989 Y220.038
G01 X321.991 Y222.540
G01 X321.994 Y225.034
G01 X322.000 Y227.530
G01 X322.008 Y230.032
G01 X322.011 Y232.530
G01 X321.992 Y233.765
G01 X322.010 Y235.027
G01 X322.003 Y237.529
G01 X322.013 Y240.028
G01 X321.988 Y242.529
G01 X322.003 Y245.024
G01 X322.008 Y247.529
G01 X322.000 Y250.029
G01 X322.006 Y252.528
G01 X322.000 Y255.026
G01 X322.008 Y257.523
G01 X322.010 Y258.624
G01 X322.006 Y260.022
G01 X321.994 Y262.521
G01 X321.999 Y265.023
G01 X321.999 Y267.520
G01 X321.994 Y270.018
G01 X322.011 Y272.520
G01 X322.003 Y275.017
G01 X321.998 Y277.512
G01 X321.994 Y280.015
G01 X321.998 Y282.515
G01 X321.996 Y283.481
G01 X322.013 Y285.017
G01 X321.991 Y287.506
G01 X322.005 Y290.012
G01 X322.008 Y292.520
G01 X321.991 Y295.004
G01 X321.989 Y297.505
G01 X322.008 Y300.017
G01 X322.010 Y302.514
G01 X321.994 Y305.003
G01 X322.006 Y307.505
G01 X322.003 Y308.345
G01 X321.998 Y310.005
G01 X322.005 Y312.506
G01 X321.997 Y315.004
G01 X322.002 Y317.508
G01 X322.005 Y320.003
G01 X321.995 Y322.501
G01 X322.007 Y325.006
G01 X321.992 Y327.495
G01 X321.996 Y329.998
G01 X322.005 Y332.496
G01 X321.993 Y333.202
G01 X322.004 Y335.002
G01 X321.989 Y337.490
G01 X322.001 Y339.991
G01 X322.011 Y342.499
G01 X322.005 Y344.994
G01 X322.000 Y347.496
G01 X322.009 Y349.996
G01 X321.998 Y352.488
G01 X321.995 Y354.986
G01 X322.001 Y357.489
G01 X321.995 Y358.064
G01 X321.994 Y359.982
G01 X322.000 Y362.479
G01 X322.000 Y364.995
G01 X322.003 Y367.492
G01 X322.000 Y369.979
G01 X321.995 Y372.483
G01 X322.000 Y374.708
G01 X322.012 Y374.441
G01 X321.998 Y371.929
G01 X321.995 Y369.428
G01 X321.989 Y366.944
G01 X321.990 Y366.502
G01 X321.988 Y364.441
G01 X321.980 Y361.928
G01 X321.988 Y359.447
G01 X321.972 Y356.936
G01 X321.980 Y354.450
G01 X321.984 Y351.948
G01 X321.970 Y349.438
G01 X321.961 Y346.934
G01 X321.970 Y344.456
G01 X321.959 Y341.937
G01 X321.967 Y341.645
G01 X321.962 Y339.446
G01 X321.946 Y336.942
G01 X321.958 Y334.450
G01 X321.947 Y331.948
G01 X321.942 Y329.441
G01 X321.949 Y326.954
G01 X321.941 Y324.444
G01 X321.941 Y321.955
G01 X321.944 Y319.455
G01 X321.934 Y316.959
G01 X321.936 Y316.773
G01 X321.927 Y314.446
G01 X321.920 Y311.954
G01 X321.929 Y309.462
G01 X321.927 Y306.961
G01 X321.911 Y304.451
G01 X321.917 Y301.963
G01 X321.908 Y299.459
G01 X321.902 Y296.953
G01 X321.913 Y294.467
G01 X321.900 Y291.963
G01 X321.900 Y291.915
G01 X321.905 Y289.469
G01 X321.903 Y286.968
G01 X321.892 Y284.462
G01 X321.889 Y281.965
G01 X321.895 Y279.468
G01 X321.883 Y276.967
G01 X321.875 Y274.466
G01 X321.893 Y271.971
G01 X321.885 Y269.469
G01 X321.879 Y267.057
G01 X321.873 Y266.972
G01 X321.882 Y264.474
G01 X321.859 Y261.973
G01 X321.878 Y259.477
G01 X321.863 Y256.971
G01 X321.861 Y254.475
G01 X321.848 Y251.976
G01 X321.850 Y250.007
G01 X322.375 Y250.007
G01 X324.875 Y250.007
G01 X327.375 Y250.000
G01 X329.650 Y250.000
G01 X329.875 Y250.000
G01 X332.375 Y250.000
G01 X334.875 Y250.000
G01 X337.375 Y250.000
G01 X339.875 Y250.000
G01 X342.375 Y250.000
G01 X344.875 Y250.000
G01 X347.375 Y250.000
G01 X349.875 Y250.000
G01 X352.375 Y250.000
G01 X354.875 Y250.000
G01 X357.375 Y250.000
G01 X359.875 Y250.000
G01 X362.375 Y249.988
G01 X364.875 Y249.988
G01 X367.375 Y249.988
G01 X369.875 Y249.988
G01 X372.375 Y249.987
G01 X374.875 Y249.987
G01 X377.375 Y249.987
G01 X379.875 Y249.987
G01 X382.375 Y249.986
G01 X384.875 Y249.986
G01 X387.350 Y249.986
G01 X389.850 Y249.986
G01 X401.625 Y249.984
G01 X410.375 Y249.967
G01 X413.500 Y249.983
G01 X415.875 Y249.999
G01 X415.125 Y250.065
G01 X413.900 Y250.163
G01 X414.715 Y251.795
G01 X417.614 Y251.961
G01 X418.523 Y249.207
G01 X416.083 Y247.624
G01 X413.924 Y249.590
G01 X413.900 Y249.999
G01 X412.325 Y249.999
G01 X412.496 Y248.862
G01 X414.438 Y246.513
G01 X417.458 Y246.248
G01 X419.790 Y248.200
G01 X420.020 Y251.241
G01 X418.013 Y253.545
G01 X414.983 Y253.729
G01 X412.716 Y251.692
G01 X412.350 Y250.162
G01 X410.800 Y250.160
G01 X410.775 Y250.160
G01 X411.696 Y253.072
G01 X414.073 Y255.038
G01 X417.137 Y255.433
G01 X419.925 Y254.129
G01 X421.568 Y251.526
G01 X421.568 Y248.438
G01 X419.899 Y245.853
G01 X417.086 Y244.550
G01 X414.048 Y244.978
G01 X411.696 Y246.959
G01 X410.775 Y249.903
G01 X410.775 Y249.999
G01 X409.675 Y249.999
G01 X409.200 Y249.999
G01 X409.368 Y248.533
G01 X410.643 Y245.725
G01 X413.029 Y243.720
G01 X416.025 Y242.939
G01 X419.075 Y243.504
G01 X421.586 Y245.331
G01 X423.064 Y248.044
G01 X423.246 Y251.143
G01 X422.103 Y254.010
G01 X419.815 Y256.115
G01 X416.851 Y257.045
G01 X413.791 Y256.620
G01 X411.200 Y254.918
G01 X409.584 Y252.266
G01 X409.200 Y250.159
G01 X408.250 Y250.158
G01 X407.650 Y250.157
G01 X408.053 Y252.639
G01 X409.534 Y255.378
G01 X411.880 Y257.419
G01 X414.781 Y258.493
G01 X417.886 Y258.485
G01 X420.792 Y257.348
G01 X423.094 Y255.280
G01 X424.532 Y252.513
G01 X424.899 Y249.422
G01 X424.138 Y246.412
G01 X422.341 Y243.861
G01 X419.792 Y242.115
G01 X416.753 Y241.387
G01 X413.669 Y241.776
G01 X410.932 Y243.220
G01 X408.888 Y245.549
G01 X407.793 Y248.469
G01 X407.650 Y249.999
G01 X406.720 Y248.714
G01 X406.263 Y248.062
G01 X406.970 Y245.839
G01 X408.656 Y243.237
G01 X411.062 Y241.245
G01 X413.950 Y240.085
G01 X417.041 Y239.831
G01 X420.088 Y240.550
G01 X422.746 Y242.134
G01 X424.837 Y244.455
G01 X426.104 Y247.287
G01 X426.475 Y250.388
G01 X425.866 Y253.447
G01 X424.391 Y256.175
G01 X422.148 Y258.338
G01 X419.347 Y259.714
G01 X416.288 Y260.189
G01 X413.211 Y259.722
G01 X410.409 Y258.332
G01 X408.179 Y256.187
G01 X406.687 Y253.447
G01 X406.263 Y251.937
G01 X404.926 Y252.711
G01 X404.850 Y252.756
G01 X405.950 Y255.585
G01 X407.766 Y258.116
G01 X410.210 Y260.058
G01 X413.059 Y261.301
G01 X416.135 Y261.748
G01 X419.243 Y261.373
G01 X422.123 Y260.201
G01 X424.602 Y258.317
G01 X426.479 Y255.825
G01 X427.651 Y252.949
G01 X428.025 Y249.857
G01 X427.571 Y246.767
G01 X426.345 Y243.913
G01 X424.392 Y241.482
G01 X421.864 Y239.658
G01 X418.937 Y238.545
G01 X415.835 Y238.255
G01 X412.764 Y238.784
G01 X409.943 Y240.086
G01 X407.577 Y242.098
G01 X405.809 Y244.669
G01 X404.850 Y247.243
G01 X404.522 Y247.063
G01 X403.459 Y246.439
G01 X404.083 Y244.666
G01 X405.643 Y241.977
G01 X407.816 Y239.727
G01 X410.430 Y238.041
G01 X413.359 Y237.001
G01 X416.469 Y236.687
G01 X419.559 Y237.088
G01 X422.473 Y238.218
G01 X425.038 Y239.976
G01 X427.132 Y242.289
G01 X428.631 Y245.032
G01 X429.439 Y248.025
G01 X429.546 Y251.148
G01 X428.926 Y254.205
G01 X427.586 Y257.018
G01 X425.646 Y259.458
G01 X423.202 Y261.378
G01 X420.354 Y262.680
G01 X417.299 Y263.277
G01 X414.175 Y263.145
G01 X411.181 Y262.305
G01 X408.459 Y260.775
G01 X406.159 Y258.675
G01 X404.430 Y256.087
G01 X403.459 Y253.560
G01 X403.078 Y253.781
G01 X402.062 Y254.365
G01 X402.750 Y256.189
G01 X404.320 Y258.867
G01 X406.453 Y261.158
G01 X408.972 Y262.968
G01 X411.852 Y264.214
G01 X414.911 Y264.815
G01 X418.027 Y264.773
G01 X421.070 Y264.093
G01 X423.906 Y262.787
G01 X426.388 Y260.914
G01 X428.445 Y258.553
G01 X429.956 Y255.832
G01 X430.877 Y252.857
G01 X431.150 Y249.746
G01 X430.769 Y246.655
G01 X429.765 Y243.705
G01 X428.149 Y241.031
G01 X426.016 Y238.754
G01 X423.461 Y236.965
G01 X420.581 Y235.757
G01 X417.520 Y235.169
G01 X414.414 Y235.245
G01 X411.365 Y235.958
G01 X408.541 Y237.289
G01 X406.076 Y239.182
G01 X404.043 Y241.534
G01 X402.543 Y244.276
G01 X402.062 Y245.634
G01 X400.661 Y244.830
G01 X400.708 Y244.738
G01 X401.984 Y241.891
G01 X403.756 Y239.342
G01 X405.998 Y237.163
G01 X408.610 Y235.462
G01 X411.486 Y234.270
G01 X414.565 Y233.654
G01 X417.676 Y233.616
G01 X420.743 Y234.178
G01 X423.655 Y235.308
G01 X426.294 Y236.965
G01 X428.567 Y239.093
G01 X430.430 Y241.603
G01 X431.740 Y244.436
G01 X432.532 Y247.462
G01 X432.699 Y250.566
G01 X432.313 Y253.664
G01 X431.329 Y256.621
G01 X429.807 Y259.358
G01 X427.788 Y261.733
G01 X425.365 Y263.706
G01 X422.609 Y265.176
G01 X419.638 Y266.095
G01 X416.541 Y266.440
G01 X413.424 Y266.198
G01 X410.416 Y265.366
G01 X407.631 Y263.986
G01 X405.129 Y262.093
G01 X403.063 Y259.778
G01 X401.434 Y257.092
G01 X400.661 Y255.169
G01 X399.767 Y255.693
G01 X399.281 Y255.974
G01 X400.319 Y258.336
G01 X402.005 Y260.963
G01 X404.105 Y263.270
G01 X406.567 Y265.171
G01 X409.336 Y266.614
G01 X412.327 Y267.566
G01 X415.400 Y267.983
G01 X418.531 Y267.863
G01 X421.589 Y267.216
G01 X424.466 Y266.025
G01 X427.117 Y264.377
G01 X429.429 Y262.291
G01 X431.358 Y259.839
G01 X432.838 Y257.079
G01 X433.804 Y254.117
G01 X434.247 Y251.031
G01 X434.163 Y247.900
G01 X433.528 Y244.859
G01 X432.372 Y241.951
G01 X430.758 Y239.286
G01 X428.674 Y236.951
G01 X426.238 Y235.001
G01 X423.492 Y233.503
G01 X420.555 Y232.508
G01 X417.464 Y232.029
G01 X414.353 Y232.097
G01 X411.276 Y232.709
G01 X408.376 Y233.821
G01 X405.695 Y235.431
G01 X403.339 Y237.475
G01 X401.364 Y239.904
G01 X399.844 Y242.636
G01 X399.281 Y244.040
G01 X397.920 Y243.235
G01 X397.920 Y243.220
G01 X399.240 Y240.375
G01 X400.982 Y237.789
G01 X403.117 Y235.518
G01 X405.588 Y233.602
G01 X408.343 Y232.110
G01 X411.269 Y231.077
G01 X414.351 Y230.532
G01 X417.465 Y230.469
G01 X420.559 Y230.903
G01 X423.552 Y231.832
G01 X426.328 Y233.215
G01 X428.875 Y235.029
G01 X431.100 Y237.229
G01 X432.938 Y239.744
G01 X434.374 Y242.528
G01 X435.320 Y245.495
G01 X435.795 Y248.587
G01 X435.767 Y251.708
G01 X435.263 Y254.780
G01 X434.262 Y257.743
G01 X432.798 Y260.503
G01 X430.909 Y262.993
G01 X428.659 Y265.150
G01 X426.089 Y266.920
G01 X423.289 Y268.279
G01 X420.276 Y269.150
G01 X417.186 Y269.548
G01 X414.076 Y269.451
G01 X411.001 Y268.841
G01 X408.080 Y267.763
G01 X405.354 Y266.230
G01 X402.909 Y264.292
G01 X400.800 Y261.983
G01 X399.106 Y259.376
G01 X397.920 Y256.764
G01 X397.690 Y256.887
G01 X396.555 Y257.554
G01 X397.263 Y259.201
G01 X398.825 Y261.901
G01 X400.769 Y264.350
G01 X403.040 Y266.484
G01 X405.634 Y268.245
G01 X408.415 Y269.616
G01 X411.396 Y270.558
G01 X414.483 Y271.052
G01 X417.603 Y271.094
G01 X420.703 Y270.669
G01 X423.702 Y269.782
G01 X426.535 Y268.479
G01 X429.143 Y266.762
G01 X431.482 Y264.677
G01 X433.464 Y262.291
G01 X435.100 Y259.615
G01 X436.303 Y256.746
G01 X437.088 Y253.723
G01 X437.399 Y250.618
G01 X437.258 Y247.490
G01 X436.667 Y244.435
G01 X435.605 Y241.493
G01 X434.156 Y238.733
G01 X432.304 Y236.209
G01 X430.091 Y234.001
G01 X427.580 Y232.146
G01 X424.835 Y230.672
G01 X421.896 Y229.621
G01 X418.827 Y229.025
G01 X415.709 Y228.874
G01 X412.598 Y229.188
G01 X409.572 Y229.965
G01 X406.697 Y231.169
G01 X404.016 Y232.786
G01 X401.614 Y234.787
G01 X399.545 Y237.107
G01 X397.817 Y239.710
G01 X396.555 Y242.445
G01 X396.453 Y242.392
G01 X395.185 Y241.657
G01 X395.842 Y240.140
G01 X397.390 Y237.426
G01 X399.294 Y234.960
G01 X401.524 Y232.773
G01 X404.022 Y230.912
G01 X406.754 Y229.410
G01 X409.682 Y228.294
G01 X412.713 Y227.584
G01 X415.829 Y227.306
G01 X418.954 Y227.464
G01 X422.003 Y228.037
G01 X424.974 Y229.043
G01 X427.777 Y230.437
G01 X430.348 Y232.196
G01 X432.651 Y234.289
G01 X434.645 Y236.682
G01 X436.320 Y239.330
G01 X437.588 Y242.191
G01 X438.464 Y245.192
G01 X438.917 Y248.280
G01 X438.920 Y251.397
G01 X438.522 Y254.487
G01 X437.700 Y257.511
G01 X436.461 Y260.377
G01 X434.840 Y263.052
G01 X432.872 Y265.470
G01 X430.594 Y267.609
G01 X428.045 Y269.411
G01 X425.266 Y270.831
G01 X422.317 Y271.879
G01 X419.262 Y272.490
G01 X416.158 Y272.687
G01 X413.035 Y272.459
G01 X409.972 Y271.793
G01 X407.037 Y270.738
G01 X404.302 Y269.263
G01 X401.752 Y267.436
G01 X399.496 Y265.286
G01 X397.567 Y262.841
G01 X395.973 Y260.146
G01 X395.186 Y258.342
G01 X394.174 Y258.921
G01 X393.811 Y259.129
G01 X394.963 Y261.578
G01 X396.613 Y264.207
G01 X398.623 Y266.625
G01 X400.888 Y268.760
G01 X403.427 Y270.573
G01 X406.175 Y272.056
G01 X409.097 Y273.167
G01 X412.122 Y273.905
G01 X415.233 Y274.229
G01 X418.374 Y274.174
G01 X421.444 Y273.705
G01 X424.461 Y272.843
G01 X427.315 Y271.596
G01 X429.992 Y270.006
G01 X432.458 Y268.067
G01 X434.647 Y265.844
G01 X436.522 Y263.358
G01 X438.074 Y260.637
G01 X439.267 Y257.745
G01 X440.066 Y254.733
G01 X440.468 Y251.637
G01 X440.494 Y248.513
G01 X440.095 Y245.417
G01 X439.322 Y242.384
G01 X438.132 Y239.491
G01 X436.608 Y236.784
G01 X434.732 Y234.278
G01 X432.568 Y232.032
G01 X430.128 Y230.087
G01 X427.449 Y228.477
G01 X424.594 Y227.209
G01 X421.602 Y226.342
G01 X418.502 Y225.841
G01 X415.384 Y225.765
G01 X412.295 Y226.068
G01 X409.243 Y226.795
G01 X406.317 Y227.875
G01 X403.567 Y229.344
G01 X401.003 Y231.148
G01 X398.712 Y233.274
G01 X396.701 Y235.665
G01 X395.029 Y238.299
G01 X393.810 Y240.870
G01 X393.576 Y240.726
G01 X392.430 Y240.085
G01 X393.207 Y238.417
G01 X394.773 Y235.722
G01 X396.644 Y233.224
G01 X398.815 Y230.983
G01 X401.250 Y229.009
G01 X403.893 Y227.354
G01 X406.702 Y226.028
G01 X409.685 Y225.032
G01 X412.727 Y224.423
G01 X415.853 Y224.186
G01 X418.985 Y224.321
G01 X422.045 Y224.841
G01 X425.050 Y225.724
G01 X427.914 Y226.956
G01 X430.604 Y228.534
G01 X433.107 Y230.424
G01 X435.335 Y232.601
G01 X437.302 Y235.021
G01 X438.973 Y237.661
G01 X440.288 Y240.496
G01 X441.264 Y243.475
G01 X441.869 Y246.526
G01 X442.100 Y249.654
G01 X441.955 Y252.764
G01 X441.436 Y255.840
G01 X440.545 Y258.847
G01 X439.289 Y261.693
G01 X437.699 Y264.386
G01 X435.810 Y266.880
G01 X433.633 Y269.111
G01 X431.203 Y271.077
G01 X428.535 Y272.723
G01 X425.715 Y274.027
G01 X422.751 Y274.996
G01 X419.681 Y275.592
G01 X416.561 Y275.820
G01 X413.449 Y275.656
G01 X410.367 Y275.139
G01 X407.370 Y274.234
G01 X404.524 Y272.990
G01 X401.825 Y271.395
G01 X399.358 Y269.496
G01 X397.111 Y267.305
G01 X395.167 Y264.858
G01 X393.532 Y262.200
G01 X392.430 Y259.914
G01 X391.932 Y260.222
G01 X391.069 Y260.713
G01 X391.988 Y262.641
G01 X393.583 Y265.335
G01 X395.489 Y267.808
G01 X397.642 Y270.068
G01 X400.061 Y272.065
G01 X402.662 Y273.760
G01 X405.478 Y275.154
G01 X408.393 Y276.228
G01 X411.441 Y276.948
G01 X414.546 Y277.331
G01 X417.659 Y277.349
G01 X420.776 Y277.016
G01 X423.818 Y276.323
G01 X426.775 Y275.290
G01 X429.587 Y273.935
G01 X432.220 Y272.267
G01 X434.638 Y270.298
G01 X436.852 Y268.087
G01 X438.754 Y265.626
G01 X440.409 Y262.967
G01 X441.708 Y260.131
G01 X442.717 Y257.172
G01 X443.357 Y254.099
G01 X443.647 Y251.006
G01 X443.563 Y247.870
G01 X443.155 Y244.783
G01 X442.399 Y241.760
G01 X441.274 Y238.835
G01 X439.839 Y236.059
G01 X438.099 Y233.461
G01 X436.066 Y231.086
G01 X433.799 Y228.955
G01 X431.283 Y227.091
G01 X428.583 Y225.543
G01 X425.706 Y224.306
G01 X422.711 Y223.384
G01 X419.663 Y222.828
G01 X416.541 Y222.627
G01 X413.422 Y222.771
G01 X410.337 Y223.268
G01 X407.336 Y224.124
G01 X404.439 Y225.314
G01 X401.715 Y226.822
G01 X399.152 Y228.631
G01 X396.839 Y230.713
G01 X394.762 Y233.058
G01 X392.979 Y235.625
G01 X391.498 Y238.371
G01 X391.069 Y239.286
G01 X389.728 Y238.502
G01 X389.938 Y238.020
G01 X391.382 Y235.243
G01 X393.101 Y232.643
G01 X395.113 Y230.260
G01 X397.380 Y228.087
G01 X399.842 Y226.171
G01 X402.515 Y224.541
G01 X405.331 Y223.208
G01 X408.273 Y222.179
G01 X411.323 Y221.476
G01 X414.432 Y221.113
G01 X417.548 Y221.083
G01 X420.644 Y221.392
G01 X423.714 Y222.037
G01 X426.672 Y222.991
G01 X429.542 Y224.277
G01 X432.231 Y225.841
G01 X434.735 Y227.705
G01 X437.041 Y229.834
G01 X439.086 Y232.173
G01 X440.866 Y234.736
G01 X442.368 Y237.478
G01 X443.561 Y240.371
G01 X444.462 Y243.366
G01 X444.992 Y246.431
G01 X445.224 Y249.550
G01 X445.107 Y252.672
G01 X444.640 Y255.762
G01 X443.851 Y258.787
G01 X442.744 Y261.713
G01 X441.327 Y264.491
G01 X439.629 Y267.112
G01 X437.637 Y269.527
G01 X435.408 Y271.716
G01 X432.952 Y273.657
G01 X430.306 Y275.317
G01 X427.506 Y276.681
G01 X424.562 Y277.723
G01 X421.531 Y278.456
G01 X418.445 Y278.862
G01 X415.314 Y278.922
G01 X412.187 Y278.659
G01 X409.146 Y278.056
G01 X406.164 Y277.112
G01 X403.282 Y275.870
G01 X400.574 Y274.315
G01 X398.053 Y272.481
G01 X395.731 Y270.388
G01 X393.645 Y268.049
G01 X391.855 Y265.509
G01 X391.102 Y264.299
G01 X390.265 Y262.827
G01 X389.544 Y261.594
G01 X388.091 Y262.434
G01 X388.114 Y262.463
G01 X388.803 Y263.674
G01 X387.078 Y263.587
G01 X386.202 Y263.555
G01 X384.252 Y264.664
G01 X383.501 Y265.082
G01 X385.755 Y265.172
G01 X388.864 Y265.491
G01 X390.073 Y265.697
G01 X391.148 Y267.263
G01 X391.317 Y267.527
G01 X388.582 Y267.033
G01 X385.472 Y266.720
G01 X382.331 Y266.654
G01 X380.659 Y266.723
G01 X379.405 Y267.444
G01 X377.315 Y268.656
G01 X378.013 Y268.549
G01 X381.109 Y268.262
G01 X384.244 Y268.220
G01 X387.367 Y268.448
G01 X390.453 Y268.948
G01 X392.872 Y269.522
G01 X393.286 Y270.002
G01 X394.922 Y271.784
G01 X394.272 Y271.568
G01 X391.264 Y270.714
G01 X388.191 Y270.136
G01 X385.079 Y269.821
G01 X381.975 Y269.784
G01 X378.855 Y270.015
G01 X375.761 Y270.527
G01 X372.741 Y271.296
G01 X372.739 Y271.309
G01 X370.042 Y272.862
G01 X367.336 Y274.421
G01 X364.618 Y275.980
G01 X361.911 Y277.540
G01 X359.212 Y279.111
G01 X358.660 Y279.430
G01 X356.893 Y281.189
G01 X354.883 Y283.573
G01 X353.081 Y286.116
G01 X351.481 Y288.813
G01 X350.164 Y291.642
G01 X349.064 Y294.560
G01 X348.259 Y297.585
G01 X347.695 Y300.662
G01 X347.396 Y303.765
G01 X347.363 Y306.212
G01 X346.789 Y306.554
G01 X344.148 Y308.229
G01 X341.667 Y310.123
G01 X339.366 Y312.233
G01 X337.255 Y314.531
G01 X335.341 Y317.002
G01 X333.659 Y319.639
G01 X332.216 Y322.400
G01 X331.015 Y325.292
G01 X330.094 Y328.288
G01 X329.817 Y329.387
G01 X329.814 Y327.393
G01 X329.817 Y324.267
G01 X329.815 Y324.087
G01 X330.987 Y321.375
G01 X332.455 Y318.623
G01 X334.154 Y316.003
G01 X336.046 Y313.517
G01 X338.159 Y311.210
G01 X340.457 Y309.096
G01 X342.919 Y307.174
G01 X345.541 Y305.467
G01 X345.804 Y305.312
G01 X345.922 Y302.502
G01 X346.298 Y299.389
G01 X346.944 Y296.340
G01 X347.831 Y293.337
G01 X348.985 Y290.434
G01 X350.350 Y287.634
G01 X351.973 Y284.962
G01 X353.779 Y282.421
G01 X354.068 Y282.078
G01 X351.750 Y283.425
G01 X350.712 Y284.013
G01 X349.690 Y285.657
G01 X348.207 Y288.407
G01 X346.935 Y291.258
G01 X345.899 Y294.213
G01 X345.118 Y297.233
G01 X344.575 Y300.311
G01 X344.291 Y303.425
G01 X344.245 Y304.412
G01 X342.459 Y305.573
G01 X339.965 Y307.462
G01 X337.636 Y309.543
G01 X335.475 Y311.798
G01 X333.509 Y314.225
G01 X331.733 Y316.787
G01 X330.171 Y319.497
G01 X329.812 Y320.212
G01 X329.812 Y317.881
G01 X329.818 Y316.944
G01 X330.979 Y315.097
G01 X332.796 Y312.563
G01 X334.818 Y310.182
G01 X337.035 Y307.972
G01 X339.399 Y305.924
G01 X341.900 Y304.068
G01 X342.730 Y303.537
G01 X342.879 Y301.393
G01 X343.317 Y298.297
G01 X344.003 Y295.246
G01 X344.894 Y292.251
G01 X346.030 Y289.338
G01 X347.397 Y286.538
G01 X347.884 Y285.653
G01 X346.048 Y286.713
G01 X345.356 Y287.116
G01 X344.401 Y289.223
G01 X343.297 Y292.146
G01 X342.413 Y295.143
G01 X341.759 Y298.203
G01 X341.328 Y301.301
G01 X341.214 Y302.662
G01 X339.781 Y303.671
G01 X337.325 Y305.603
G01 X335.032 Y307.725
G01 X332.886 Y310.002
G01 X330.939 Y312.441
G01 X329.822 Y314.022
G01 X329.812 Y312.829
G01 X329.808 Y311.328
G01 X330.805 Y310.050
G01 X332.868 Y307.696
G01 X335.096 Y305.509
G01 X337.454 Y303.461
G01 X339.699 Y301.787
G01 X339.735 Y301.474
G01 X340.142 Y298.370
G01 X340.747 Y295.300
G01 X341.605 Y292.300
G01 X342.638 Y289.352
G01 X343.016 Y288.452
G01 X341.148 Y289.529
G01 X340.846 Y289.722
G01 X339.941 Y292.320
G01 X339.134 Y295.333
G01 X338.556 Y298.412
G01 X338.226 Y300.937
G01 X337.745 Y301.269
G01 X335.309 Y303.223
G01 X332.997 Y305.331
G01 X330.856 Y307.601
G01 X329.823 Y308.813
G01 X329.821 Y307.286
G01 X329.802 Y306.407
G01 X331.358 Y304.768
G01 X333.625 Y302.615
G01 X336.039 Y300.620
G01 X336.733 Y300.075
G01 X337.054 Y297.875
G01 X337.663 Y294.806
G01 X338.480 Y291.784
G01 X338.751 Y290.907
G01 X336.846 Y292.015
G01 X336.767 Y292.063
G01 X336.015 Y294.999
G01 X335.431 Y298.067
G01 X335.260 Y299.225
G01 X333.752 Y300.454
G01 X331.402 Y302.521
G01 X329.811 Y304.111
G01 X329.804 Y303.225
G01 X329.814 Y301.893
G01 X331.100 Y300.665
G01 X333.491 Y298.638
G01 X333.810 Y298.387
G01 X334.276 Y295.712
G01 X334.847 Y293.174
G01 X334.399 Y293.446
G01 X331.678 Y294.992
G01 X329.804 Y296.075
G01 X329.817 Y297.045
G01 X329.819 Y299.742
G01 X330.122 Y299.443
G01 X332.359 Y297.550
G01 X332.384 Y297.356
G01 X332.559 Y296.288
G01 X330.807 Y297.335
G01 X329.824 Y297.914
G01 X329.813 Y299.894
G01 X329.796 Y303.012
G01 X329.804 Y306.145
G01 X329.794 Y309.273
G01 X329.796 Y312.404
G01 X329.795 Y315.523
G01 X329.784 Y318.645
G01 X329.771 Y321.762
G01 X329.774 Y324.900
G01 X329.766 Y328.015
G01 X329.756 Y331.140
G01 X329.755 Y334.267
G01 X329.742 Y337.385
G01 X329.738 Y340.511
G01 X329.746 Y343.646
G01 X329.734 Y345.650
G01 X329.998 Y346.731
G01 X330.932 Y349.714
G01 X332.127 Y352.604
G01 X333.575 Y355.382
G01 X335.243 Y358.016
G01 X337.145 Y360.495
G01 X339.261 Y362.806
G01 X341.227 Y364.629
G01 X340.818 Y364.539
G01 X338.233 Y363.992
G01 X337.896 Y363.652
G01 X335.796 Y361.326
G01 X333.925 Y358.854
G01 X332.240 Y356.206
G01 X330.793 Y353.437
G01 X329.723 Y350.939
G01 X329.732 Y351.345
G01 X329.725 Y354.482
G01 X329.719 Y354.800
G01 X331.057 Y357.269
G01 X332.739 Y359.883
G01 X334.630 Y362.371
G01 X335.743 Y363.660
G01 X334.311 Y363.546
G01 X333.522 Y363.476
G01 X332.077 Y361.653
G01 X330.313 Y359.071
G01 X329.718 Y358.081
G01 X329.724 Y360.059
G01 X329.734 Y361.192
G01 X330.809 Y362.882
G01 X331.136 Y363.386
G01 X329.706 Y363.388
G01 X329.703 Y363.940
G01 X329.721 Y364.477
G01 X329.728 Y367.595
G01 X329.745 Y370.713
G01 X329.760 Y373.837
G01 X329.778 Y376.966
G01 X329.801 Y380.101
G01 X329.805 Y383.226
G01 X329.810 Y384.359
G01 X330.452 Y386.245
G01 X331.446 Y389.198
G01 X332.445 Y392.175
G01 X332.938 Y393.652
G01 X332.063 Y392.367
G01 X331.808 Y392.023
G01 X330.786 Y394.358
G01 X332.888 Y396.358
G01 X335.355 Y394.847
G01 X334.518 Y392.059
G01 X331.950 Y391.941
G01 X331.750 Y391.595
G01 X331.163 Y390.577
G01 X333.043 Y390.057
G01 X335.867 Y391.160
G01 X337.080 Y393.962
G01 X335.935 Y396.768
G01 X333.125 Y397.947
G01 X330.325 Y396.755
G01 X329.190 Y393.928
G01 X330.422 Y391.146
G01 X331.035 Y390.680
G01 X330.248 Y389.315
G01 X329.616 Y389.764
G01 X327.901 Y392.325
G01 X327.822 Y395.410
G01 X329.406 Y398.050
G01 X332.173 Y399.420
G01 X335.222 Y399.086
G01 X337.645 Y397.180
G01 X338.635 Y394.244
G01 X337.910 Y391.253
G01 X335.686 Y389.131
G01 X332.653 Y388.514
G01 X330.388 Y389.235
G01 X330.025 Y388.607
G01 X329.600 Y387.871
G01 X331.741 Y387.079
G01 X334.833 Y387.131
G01 X337.602 Y388.525
G01 X339.514 Y390.954
G01 X340.205 Y393.976
G01 X339.542 Y397.001
G01 X337.628 Y399.455
G01 X334.881 Y400.860
G01 X331.766 Y400.924
G01 X328.939 Y399.685
G01 X326.910 Y397.334
G01 X326.088 Y394.349
G01 X326.604 Y391.295
G01 X328.387 Y388.766
G01 X329.462 Y387.951
G01 X328.689 Y386.608
G01 X328.497 Y386.718
G01 X326.221 Y388.827
G01 X324.845 Y391.613
G01 X324.530 Y394.710
G01 X325.351 Y397.716
G01 X327.169 Y400.240
G01 X329.758 Y401.938
G01 X332.783 Y402.619
G01 X335.873 Y402.195
G01 X338.593 Y400.686
G01 X340.606 Y398.314
G01 X341.661 Y395.393
G01 X341.604 Y392.288
G01 X340.441 Y389.408
G01 X338.343 Y387.102
G01 X335.568 Y385.729
G01 X332.480 Y385.408
G01 X329.465 Y386.186
G01 X328.825 Y386.529
G01 X329.810 Y384.359
G01 X329.823 Y384.351
G01 X332.887 Y383.807
G01 X335.991 Y384.216
G01 X338.807 Y385.519
G01 X341.099 Y387.632
G01 X342.642 Y390.328
G01 X343.323 Y393.378
G01 X343.040 Y396.474
G01 X341.821 Y399.328
G01 X339.809 Y401.710
G01 X337.159 Y403.363
G01 X334.153 Y404.151
G01 X331.043 Y403.974
G01 X328.143 Y402.887
G01 X325.697 Y400.959
G01 X323.937 Y398.373
G01 X323.042 Y395.411
G01 X323.080 Y392.279
G01 X324.070 Y389.336
G01 X325.909 Y386.829
G01 X326.454 Y386.297
G01 X325.038 Y385.483
G01 X324.524 Y385.994
G01 X322.728 Y388.546
G01 X321.658 Y391.489
G01 X321.399 Y394.581
G01 X321.960 Y397.647
G01 X323.314 Y400.464
G01 X325.347 Y402.808
G01 X327.935 Y404.535
G01 X330.899 Y405.545
G01 X333.998 Y405.714
G01 X337.055 Y405.087
G01 X339.831 Y403.670
G01 X342.136 Y401.568
G01 X343.800 Y398.951
G01 X344.729 Y395.953
G01 X344.846 Y392.857
G01 X344.124 Y389.820
G01 X342.640 Y387.082
G01 X340.487 Y384.825
G01 X337.811 Y383.212
G01 X334.830 Y382.376
G01 X331.715 Y382.328
G01 X329.813 Y382.726
G01 X329.811 Y381.529
G01 X329.813 Y381.119
G01 X332.474 Y380.705
G01 X335.580 Y380.908
G01 X338.562 Y381.841
G01 X341.248 Y383.434
G01 X343.472 Y385.606
G01 X345.134 Y388.225
G01 X346.159 Y391.190
G01 X346.455 Y394.277
G01 X346.029 Y397.374
G01 X344.886 Y400.276
G01 X343.092 Y402.830
G01 X340.784 Y404.908
G01 X338.026 Y406.377
G01 X335.014 Y407.182
G01 X331.889 Y407.256
G01 X328.850 Y406.621
G01 X326.034 Y405.256
G01 X323.624 Y403.313
G01 X321.716 Y400.845
G01 X320.434 Y397.994
G01 X319.845 Y394.922
G01 X319.998 Y391.816
G01 X320.871 Y388.832
G01 X322.409 Y386.113
G01 X323.646 Y384.679
G01 X322.554 Y384.050
G01 X322.251 Y383.872
G01 X320.564 Y386.038
G01 X319.187 Y388.841
G01 X318.408 Y391.868
G01 X318.286 Y394.973
G01 X318.821 Y398.062
G01 X319.976 Y400.944
G01 X321.726 Y403.549
G01 X323.951 Y405.706
G01 X326.602 Y407.372
G01 X329.526 Y408.436
G01 X332.630 Y408.872
G01 X335.724 Y408.646
G01 X338.735 Y407.785
G01 X341.487 Y406.322
G01 X343.871 Y404.317
G01 X345.772 Y401.845
G01 X347.136 Y399.040
G01 X347.882 Y396.000
G01 X347.967 Y392.891
G01 X347.421 Y389.835
G01 X346.240 Y386.939
G01 X344.470 Y384.363
G01 X342.227 Y382.210
G01 X339.568 Y380.585
G01 X336.617 Y379.533
G01 X333.539 Y379.135
G01 X330.422 Y379.365
G01 X329.812 Y379.507
G01 X329.808 Y377.892
G01 X330.710 Y377.739
G01 X333.822 Y377.577
G01 X336.917 Y378.005
G01 X339.876 Y379.004
G01 X342.576 Y380.529
G01 X344.950 Y382.551
G01 X346.905 Y384.995
G01 X348.355 Y387.769
G01 X349.254 Y390.748
G01 X349.577 Y393.847
G01 X349.317 Y396.962
G01 X348.466 Y399.963
G01 X347.065 Y402.743
G01 X345.153 Y405.233
G01 X342.811 Y407.283
G01 X340.133 Y408.891
G01 X337.199 Y409.921
G01 X334.105 Y410.414
G01 X331.002 Y410.296
G01 X327.948 Y409.608
G01 X325.105 Y408.341
G01 X322.527 Y406.568
G01 X320.357 Y404.346
G01 X318.631 Y401.724
G01 X317.428 Y398.866
G01 X316.797 Y395.802
G01 X316.754 Y392.682
G01 X317.283 Y389.607
G01 X318.405 Y386.689
G01 X320.059 Y384.046
G01 X320.854 Y383.061
G01 X319.466 Y382.268
G01 X319.301 Y382.467
G01 X317.525 Y385.033
G01 X316.211 Y387.876
G01 X315.399 Y390.886
G01 X315.139 Y394.003
G01 X315.414 Y397.112
G01 X316.213 Y400.121
G01 X317.520 Y402.960
G01 X319.297 Y405.509
G01 X321.498 Y407.726
G01 X324.036 Y409.533
G01 X326.863 Y410.882
G01 X329.872 Y411.699
G01 X332.972 Y412.015
G01 X336.097 Y411.765
G01 X339.101 Y410.988
G01 X341.946 Y409.697
G01 X344.529 Y407.949
G01 X346.768 Y405.763
G01 X348.595 Y403.248
G01 X349.953 Y400.419
G01 X350.816 Y397.425
G01 X351.141 Y394.311
G01 X350.924 Y391.219
G01 X350.180 Y388.181
G01 X348.918 Y385.327
G01 X347.180 Y382.726
G01 X345.023 Y380.463
G01 X342.501 Y378.616
G01 X339.704 Y377.232
G01 X336.721 Y376.353
G01 X333.620 Y376.003
G01 X330.505 Y376.181
G01 X329.802 Y376.301
G01 X329.819 Y374.720
G01 X330.644 Y374.606
G01 X333.753 Y374.440
G01 X336.868 Y374.793
G01 X339.867 Y375.614
G01 X342.700 Y376.928
G01 X345.305 Y378.674
G01 X347.593 Y380.804
G01 X349.487 Y383.259
G01 X351.002 Y385.996
G01 X352.055 Y388.948
G01 X352.608 Y392.009
G01 X352.670 Y395.130
G01 X352.242 Y398.235
G01 X351.332 Y401.211
G01 X349.956 Y404.006
G01 X348.150 Y406.552
G01 X345.957 Y408.782
G01 X343.443 Y410.622
G01 X340.671 Y412.060
G01 X337.696 Y413.036
G01 X334.605 Y413.508
G01 X331.491 Y413.491
G01 X328.414 Y412.994
G01 X325.452 Y411.990
G01 X322.693 Y410.533
G01 X320.192 Y408.668
G01 X318.024 Y406.424
G01 X316.239 Y403.873
G01 X314.882 Y401.055
G01 X314.000 Y398.060
G01 X313.593 Y394.965
G01 X313.691 Y391.858
G01 X314.288 Y388.783
G01 X315.354 Y385.847
G01 X316.870 Y383.124
G01 X318.102 Y381.485
G01 X317.178 Y380.949
G01 X316.736 Y380.698
G01 X315.204 Y382.807
G01 X313.762 Y385.580
G01 X312.731 Y388.534
G01 X312.145 Y391.587
G01 X312.024 Y394.719
G01 X312.354 Y397.811
G01 X313.152 Y400.838
G01 X314.374 Y403.715
G01 X316.000 Y406.367
G01 X318.015 Y408.743
G01 X320.352 Y410.809
G01 X322.968 Y412.521
G01 X325.803 Y413.812
G01 X328.805 Y414.692
G01 X331.902 Y415.102
G01 X335.020 Y415.038
G01 X338.106 Y414.547
G01 X341.072 Y413.582
G01 X343.879 Y412.190
G01 X346.442 Y410.416
G01 X348.729 Y408.283
G01 X350.648 Y405.821
G01 X352.212 Y403.119
G01 X353.339 Y400.211
G01 X354.027 Y397.172
G01 X354.261 Y394.053
G01 X354.037 Y390.935
G01 X353.367 Y387.881
G01 X352.244 Y384.971
G01 X350.703 Y382.249
G01 X348.786 Y379.812
G01 X346.513 Y377.645
G01 X343.968 Y375.867
G01 X341.177 Y374.449
G01 X338.209 Y373.480
G01 X335.120 Y372.963
G01 X332.006 Y372.903
G01 X329.820 Y373.143
G01 X329.815 Y372.222
G01 X329.818 Y371.563
G01 X332.254 Y371.320
G01 X335.380 Y371.409
G01 X338.462 Y371.942
G01 X341.439 Y372.888
G01 X344.252 Y374.214
G01 X346.868 Y375.928
G01 X349.217 Y377.999
G01 X351.275 Y380.357
G01 X352.965 Y382.970
G01 X354.303 Y385.790
G01 X355.213 Y388.775
G01 X355.730 Y391.858
G01 X355.809 Y394.968
G01 X355.469 Y398.079
G01 X354.689 Y401.102
G01 X353.510 Y403.995
G01 X351.952 Y406.704
G01 X350.025 Y409.153
G01 X347.783 Y411.330
G01 X345.260 Y413.180
G01 X342.518 Y414.664
G01 X339.591 Y415.763
G01 X336.547 Y416.444
G01 X333.436 Y416.683
G01 X330.314 Y416.518
G01 X327.261 Y415.918
G01 X324.298 Y414.911
G01 X321.508 Y413.496
G01 X318.945 Y411.716
G01 X316.648 Y409.592
G01 X314.670 Y407.192
G01 X313.027 Y404.515
G01 X311.771 Y401.652
G01 X310.929 Y398.648
G01 X310.495 Y395.554
G01 X310.490 Y392.438
G01 X310.925 Y389.337
G01 X311.769 Y386.335
G01 X313.040 Y383.488
G01 X314.665 Y380.815
G01 X315.368 Y379.906
G01 X313.999 Y379.108
G01 X313.766 Y379.419
G01 X312.042 Y382.024
G01 X310.679 Y384.825
G01 X309.696 Y387.800
G01 X309.089 Y390.858
G01 X308.879 Y393.976
G01 X309.080 Y397.105
G01 X309.676 Y400.151
G01 X310.662 Y403.122
G01 X312.031 Y405.940
G01 X313.730 Y408.546
G01 X315.758 Y410.934
G01 X318.074 Y413.007
G01 X320.648 Y414.795
G01 X323.419 Y416.234
G01 X326.362 Y417.297
G01 X329.408 Y417.976
G01 X332.524 Y418.252
G01 X335.633 Y418.123
G01 X338.707 Y417.597
G01 X341.695 Y416.695
G01 X344.552 Y415.407
G01 X347.214 Y413.770
G01 X349.618 Y411.791
G01 X351.777 Y409.523
G01 X353.616 Y407.018
G01 X355.112 Y404.270
G01 X356.256 Y401.351
G01 X356.999 Y398.336
G01 X357.360 Y395.224
G01 X357.314 Y392.107
G01 X356.872 Y389.018
G01 X356.031 Y386.001
G01 X354.827 Y383.134
G01 X353.249 Y380.430
G01 X351.335 Y377.960
G01 X349.121 Y375.758
G01 X346.643 Y373.857
G01 X343.945 Y372.279
G01 X341.069 Y371.073
G01 X338.065 Y370.252
G01 X334.957 Y369.811
G01 X331.844 Y369.785
G01 X329.812 Y369.979
G01 X329.814 Y368.895
G01 X329.802 Y368.391
G01 X332.432 Y368.194
G01 X335.566 Y368.298
G01 X338.635 Y368.773
G01 X341.657 Y369.622
G01 X344.539 Y370.837
G01 X347.244 Y372.366
G01 X349.748 Y374.237
G01 X352.018 Y376.389
G01 X354.007 Y378.800
G01 X355.691 Y381.423
G01 X357.040 Y384.251
G01 X358.042 Y387.189
G01 X358.685 Y390.271
G01 X358.950 Y393.377
G01 X358.842 Y396.491
G01 X358.352 Y399.579
G01 X357.491 Y402.591
G01 X356.276 Y405.443
G01 X354.721 Y408.176
G01 X352.852 Y410.675
G01 X350.695 Y412.918
G01 X348.289 Y414.905
G01 X345.651 Y416.593
G01 X342.831 Y417.924
G01 X339.868 Y418.933
G01 X336.818 Y419.567
G01 X333.694 Y419.821
G01 X330.573 Y419.693
G01 X327.495 Y419.197
G01 X324.487 Y418.331
G01 X321.616 Y417.100
G01 X318.923 Y415.551
G01 X316.415 Y413.663
G01 X314.175 Y411.518
G01 X312.187 Y409.104
G01 X310.520 Y406.452
G01 X309.178 Y403.621
G01 X308.199 Y400.676
G01 X307.569 Y397.595
G01 X307.327 Y394.493
G01 X307.452 Y391.372
G01 X307.965 Y388.293
G01 X308.832 Y385.286
G01 X310.057 Y382.417
G01 X311.630 Y379.730
G01 X312.629 Y378.306
G01 X311.411 Y377.618
G01 X311.256 Y377.526
G01 X309.613 Y379.982
G01 X308.177 Y382.763
G01 X307.055 Y385.666
G01 X306.281 Y388.690
G01 X305.848 Y391.798
G01 X305.773 Y394.913
G01 X306.052 Y398.017
G01 X306.697 Y401.087
G01 X307.663 Y404.036
G01 X308.978 Y406.880
G01 X310.603 Y409.553
G01 X312.519 Y412.005
G01 X314.706 Y414.238
G01 X317.120 Y416.209
G01 X319.757 Y417.885
G01 X322.559 Y419.253
G01 X325.523 Y420.305
G01 X328.564 Y420.990
G01 X331.667 Y421.332
G01 X334.786 Y421.345
G01 X337.895 Y420.953
G01 X340.933 Y420.236
G01 X343.859 Y419.184
G01 X346.657 Y417.802
G01 X349.299 Y416.107
G01 X351.707 Y414.115
G01 X353.879 Y411.888
G01 X355.779 Y409.394
G01 X357.378 Y406.718
G01 X358.669 Y403.871
G01 X359.634 Y400.904
G01 X360.241 Y397.849
G01 X360.509 Y394.735
G01 X360.412 Y391.620
G01 X359.975 Y388.529
G01 X359.166 Y385.494
G01 X358.031 Y382.586
G01 X356.572 Y379.838
G01 X354.793 Y377.255
G01 X352.744 Y374.894
G01 X350.460 Y372.791
G01 X347.929 Y370.951
G01 X345.199 Y369.424
G01 X342.334 Y368.213
G01 X339.332 Y367.340
G01 X336.258 Y366.802
G01 X333.137 Y366.626
G01 X330.009 Y366.799
G01 X329.813 Y366.812
G01 X329.821 Y365.259
G01 X331.150 Y365.124
G01 X334.283 Y365.088
G01 X337.390 Y365.362
G01 X340.457 Y366.000
G01 X343.415 Y366.946
G01 X346.274 Y368.205
G01 X348.974 Y369.773
G01 X351.502 Y371.638
G01 X353.794 Y373.730
G01 X355.865 Y376.071
G01 X357.669 Y378.637
G01 X359.184 Y381.378
G01 X360.389 Y384.241
G01 X361.286 Y387.253
G01 X361.842 Y390.302
G01 X362.077 Y393.429
G01 X361.964 Y396.549
G01 X361.526 Y399.635
G01 X360.747 Y402.660
G01 X359.653 Y405.594
G01 X358.263 Y408.384
G01 X356.551 Y411.012
G01 X354.588 Y413.423
G01 X352.377 Y415.640
G01 X349.923 Y417.569
G01 X347.291 Y419.255
G01 X344.486 Y420.637
G01 X341.555 Y421.689
G01 X338.523 Y422.429
G01 X335.420 Y422.844
G01 X332.305 Y422.938
G01 X329.195 Y422.681
G01 X326.128 Y422.088
G01 X323.131 Y421.156
G01 X320.264 Y419.920
G01 X317.547 Y418.382
G01 X315.007 Y416.564
G01 X312.684 Y414.486
G01 X310.590 Y412.150
G01 X308.774 Y409.623
G01 X307.241 Y406.910
G01 X305.985 Y404.042
G01 X305.069 Y401.050
G01 X304.475 Y397.993
G01 X304.198 Y394.869
G01 X304.284 Y391.762
G01 X304.690 Y388.654
G01 X305.436 Y385.633
G01 X306.509 Y382.694
G01 X307.880 Y379.888
G01 X308.167 Y379.348
G01 X309.435 Y377.171
G01 X309.731 Y376.646
G01 X308.278 Y375.808
G01 X307.858 Y376.524
G01 X307.559 Y377.044
G01 X306.405 Y374.795
G01 X306.374 Y374.727
G01 X303.733 Y373.191
G01 X303.689 Y373.156
G01 X305.094 Y375.898
G01 X306.308 Y378.778
G01 X306.442 Y379.156
G01 X305.479 Y381.148
G01 X305.334 Y380.694
G01 X304.217 Y377.773
G01 X302.884 Y374.944
G01 X301.322 Y372.238
G01 X300.847 Y371.516
G01 X298.900 Y370.398
G01 X297.501 Y369.586
G01 X298.423 Y370.780
G01 X300.176 Y373.361
G01 X301.709 Y376.083
G01 X303.011 Y378.927
G01 X304.068 Y381.871
G01 X304.530 Y383.492
G01 X304.061 Y384.842
G01 X303.595 Y386.398
G01 X303.285 Y384.935
G01 X302.450 Y381.931
G01 X301.348 Y379.007
G01 X300.003 Y376.178
G01 X298.413 Y373.500
G01 X296.596 Y370.960
G01 X294.553 Y368.581
G01 X292.915 Y366.950
G01 X292.223 Y366.537
G01 X289.522 Y364.972
G01 X286.802 Y363.403
G01 X284.107 Y361.840
G01 X281.404 Y360.291
G01 X278.843 Y358.817
G01 X278.676 Y358.758
G01 X275.640 Y357.998
G01 X272.566 Y357.507
G01 X269.444 Y357.277
G01 X266.322 Y357.341
G01 X263.212 Y357.667
G01 X260.153 Y358.275
G01 X257.146 Y359.116
G01 X254.224 Y360.244
G01 X251.418 Y361.616
G01 X250.000 Y362.425
G01 X248.715 Y361.693
G01 X245.917 Y360.299
G01 X243.003 Y359.176
G01 X239.998 Y358.289
G01 X236.939 Y357.686
G01 X233.832 Y357.339
G01 X230.711 Y357.280
G01 X227.595 Y357.490
G01 X224.501 Y357.980
G01 X221.474 Y358.720
G01 X221.157 Y358.817
G01 X223.592 Y357.401
G01 X225.746 Y356.165
G01 X226.379 Y356.077
G01 X229.481 Y355.778
G01 X232.612 Y355.730
G01 X235.729 Y355.943
G01 X238.815 Y356.439
G01 X241.850 Y357.166
G01 X244.814 Y358.176
G01 X247.680 Y359.400
G01 X250.000 Y360.625
G01 X250.441 Y360.374
G01 X253.238 Y358.977
G01 X256.142 Y357.825
G01 X259.131 Y356.911
G01 X262.177 Y356.255
G01 X265.274 Y355.854
G01 X268.396 Y355.711
G01 X271.520 Y355.834
G01 X274.254 Y356.165
G01 X273.933 Y355.981
G01 X271.220 Y354.415
G01 X270.900 Y354.225
G01 X268.147 Y354.156
G01 X265.028 Y354.298
G01 X261.934 Y354.697
G01 X258.870 Y355.352
G01 X255.882 Y356.262
G01 X252.975 Y357.384
G01 X250.163 Y358.750
G01 X250.000 Y358.825
G01 X247.354 Y357.542
G01 X244.453 Y356.380
G01 X241.471 Y355.456
G01 X238.429 Y354.763
G01 X235.327 Y354.348
G01 X232.205 Y354.166
G01 X229.100 Y354.225
G01 X229.111 Y354.227
G01 X231.818 Y352.652
G01 X231.934 Y352.597
G01 X234.926 Y352.725
G01 X238.027 Y353.107
G01 X241.087 Y353.743
G01 X244.085 Y354.583
G01 X247.019 Y355.683
G01 X249.850 Y357.000
G01 X250.000 Y357.075
G01 X252.678 Y355.816
G01 X255.596 Y354.701
G01 X258.595 Y353.820
G01 X261.656 Y353.169
G01 X264.755 Y352.771
G01 X267.877 Y352.604
G01 X268.066 Y352.597
G01 X265.534 Y351.139
G01 X262.420 Y351.468
G01 X259.351 Y352.022
G01 X256.332 Y352.830
G01 X253.376 Y353.845
G01 X250.504 Y355.074
G01 X250.000 Y355.325
G01 X247.664 Y354.249
G01 X244.734 Y353.166
G01 X241.737 Y352.292
G01 X238.681 Y351.647
G01 X235.580 Y351.228
G01 X234.466 Y351.139
G01 X236.196 Y350.128
G01 X236.793 Y349.780
G01 X239.203 Y350.145
G01 X242.253 Y350.803
G01 X245.258 Y351.689
G01 X248.181 Y352.784
G01 X250.000 Y353.575
G01 X251.031 Y353.120
G01 X253.938 Y351.974
G01 X256.922 Y351.038
G01 X259.963 Y350.306
G01 X263.048 Y349.801
G01 X263.207 Y349.780
G01 X261.022 Y348.535
G01 X260.591 Y348.608
G01 X257.537 Y349.239
G01 X254.529 Y350.123
G01 X251.599 Y351.187
G01 X250.000 Y351.875
G01 X248.723 Y351.317
G01 X245.799 Y350.212
G01 X242.795 Y349.339
G01 X239.751 Y348.669
G01 X238.978 Y348.535
G01 X241.008 Y347.361
G01 X241.051 Y347.314
G01 X244.032 Y348.044
G01 X247.020 Y348.980
G01 X249.930 Y350.125
G01 X250.000 Y350.150
G01 X252.833 Y349.034
G01 X255.814 Y348.103
G01 X258.844 Y347.349
G01 X258.949 Y347.314
G01 X256.956 Y346.174
G01 X256.252 Y346.347
G01 X253.259 Y347.245
G01 X250.324 Y348.324
G01 X250.000 Y348.450
G01 X247.417 Y347.466
G01 X244.433 Y346.540
G01 X243.044 Y346.174
G01 X244.513 Y345.317
G01 X244.966 Y345.067
G01 X247.450 Y345.841
G01 X250.000 Y346.775
G01 X250.377 Y346.624
G01 X253.318 Y345.567
G01 X255.034 Y345.067
G01 X253.872 Y344.396
G01 X251.170 Y342.843
G01 X250.000 Y342.150
G01 X248.465 Y343.037
G01 X246.831 Y343.997
G01 X248.008 Y344.379
G01 X250.000 Y345.100
G01 X250.947 Y344.745
G01 X251.193 Y344.642
G01 X248.704 Y343.241
G01 X248.417 Y343.087
G01 X245.992 Y344.465
G01 X243.276 Y346.040
G01 X240.572 Y347.596
G01 X237.865 Y349.135
G01 X235.150 Y350.711
G01 X232.447 Y352.254
G01 X229.733 Y353.815
G01 X227.033 Y355.376
G01 X224.318 Y356.934
G01 X221.613 Y358.498
G01 X218.905 Y360.041
G01 X216.193 Y361.618
G01 X213.483 Y363.180
G01 X210.779 Y364.731
G01 X208.062 Y366.294
G01 X207.032 Y366.877
G01 X205.658 Y368.234
G01 X203.593 Y370.578
G01 X201.742 Y373.104
G01 X200.116 Y375.768
G01 X198.742 Y378.558
G01 X197.611 Y381.471
G01 X196.736 Y384.486
G01 X196.341 Y386.319
G01 X195.985 Y385.156
G01 X195.396 Y383.408
G01 X195.747 Y382.174
G01 X196.778 Y379.219
G01 X198.044 Y376.361
G01 X199.557 Y373.630
G01 X201.277 Y371.036
G01 X202.446 Y369.511
G01 X201.388 Y370.137
G01 X199.100 Y371.439
G01 X198.831 Y371.841
G01 X197.232 Y374.531
G01 X195.859 Y377.344
G01 X194.728 Y380.258
G01 X194.439 Y381.086
G01 X193.487 Y379.070
G01 X193.497 Y379.047
G01 X194.688 Y376.157
G01 X196.090 Y373.360
G01 X196.257 Y373.078
G01 X193.849 Y374.498
G01 X193.572 Y374.647
G01 X192.372 Y376.958
G01 X192.262 Y376.798
G01 X191.655 Y375.721
G01 X191.176 Y375.995
G01 X190.026 Y376.669
G01 X187.318 Y378.252
G01 X184.627 Y379.819
G01 X181.919 Y381.412
G01 X179.220 Y382.987
G01 X176.531 Y384.548
G01 X173.831 Y386.141
G01 X173.546 Y386.297
G01 X171.688 Y388.406
G01 X169.623 Y390.740
G01 X167.566 Y393.077
G01 X167.062 Y393.652
G01 X167.908 Y391.859
G01 X167.557 Y391.713
G01 X164.837 Y392.752
G01 X165.142 Y395.630
G01 X168.013 Y396.092
G01 X169.174 Y393.418
G01 X168.050 Y391.941
G01 X168.662 Y390.881
G01 X168.837 Y390.577
G01 X170.566 Y392.678
G01 X170.418 Y395.709
G01 X168.137 Y397.735
G01 X165.094 Y397.538
G01 X163.111 Y395.215
G01 X163.356 Y392.180
G01 X165.692 Y390.233
G01 X168.684 Y390.518
G01 X168.709 Y390.475
G01 X169.473 Y389.155
G01 X167.987 Y388.604
G01 X164.908 Y388.851
G01 X162.447 Y390.710
G01 X161.365 Y393.598
G01 X162.022 Y396.603
G01 X164.187 Y398.804
G01 X167.183 Y399.493
G01 X170.088 Y398.459
G01 X171.974 Y396.038
G01 X172.271 Y392.960
G01 X170.870 Y390.212
G01 X169.612 Y389.235
G01 X170.375 Y387.914
G01 X170.400 Y387.871
G01 X172.653 Y389.948
G01 X173.832 Y392.835
G01 X173.665 Y395.914
G01 X172.198 Y398.645
G01 X169.693 Y400.488
G01 X166.652 Y401.056
G01 X163.653 Y400.285
G01 X161.263 Y398.305
G01 X159.956 Y395.490
G01 X159.981 Y392.409
G01 X161.317 Y389.615
G01 X163.736 Y387.654
G01 X166.745 Y386.926
G01 X169.783 Y387.571
G01 X170.262 Y387.791
G01 X171.038 Y386.450
G01 X170.115 Y385.998
G01 X167.078 Y385.371
G01 X164.000 Y385.870
G01 X161.303 Y387.410
G01 X159.328 Y389.794
G01 X158.323 Y392.746
G01 X158.442 Y395.842
G01 X159.634 Y398.723
G01 X161.773 Y400.959
G01 X164.557 Y402.322
G01 X167.660 Y402.603
G01 X170.647 Y401.755
G01 X173.156 Y399.901
G01 X174.839 Y397.308
G01 X175.491 Y394.243
G01 X175.024 Y391.176
G01 X173.489 Y388.468
G01 X171.175 Y386.529
G01 X171.254 Y386.517
G01 X173.546 Y386.297
G01 X174.159 Y386.867
G01 X175.963 Y389.410
G01 X176.928 Y392.368
G01 X176.939 Y395.485
G01 X176.030 Y398.441
G01 X174.254 Y401.019
G01 X171.804 Y402.916
G01 X168.872 Y403.986
G01 X165.773 Y404.139
G01 X162.752 Y403.341
G01 X160.143 Y401.653
G01 X158.132 Y399.270
G01 X156.956 Y396.382
G01 X156.689 Y393.297
G01 X157.385 Y390.256
G01 X158.956 Y387.578
G01 X161.261 Y385.474
G01 X164.104 Y384.187
G01 X167.179 Y383.819
G01 X170.190 Y384.359
G01 X170.189 Y384.300
G01 X170.187 Y382.726
G01 X168.682 Y382.396
G01 X165.569 Y382.305
G01 X162.541 Y383.055
G01 X159.829 Y384.585
G01 X157.597 Y386.760
G01 X156.015 Y389.462
G01 X155.205 Y392.470
G01 X155.202 Y395.580
G01 X156.037 Y398.582
G01 X157.611 Y401.267
G01 X159.856 Y403.428
G01 X162.579 Y404.939
G01 X165.607 Y405.699
G01 X168.717 Y405.598
G01 X171.702 Y404.716
G01 X174.349 Y403.077
G01 X176.461 Y400.772
G01 X177.909 Y398.029
G01 X178.566 Y394.982
G01 X178.419 Y391.864
G01 X177.459 Y388.898
G01 X175.731 Y386.305
G01 X174.962 Y385.483
G01 X176.354 Y384.679
G01 X176.630 Y384.944
G01 X178.463 Y387.476
G01 X179.665 Y390.336
G01 X180.167 Y393.428
G01 X179.936 Y396.537
G01 X178.998 Y399.496
G01 X177.379 Y402.158
G01 X175.196 Y404.382
G01 X172.555 Y406.038
G01 X169.597 Y407.038
G01 X166.496 Y407.311
G01 X163.408 Y406.861
G01 X160.495 Y405.708
G01 X157.956 Y403.901
G01 X155.902 Y401.566
G01 X154.447 Y398.814
G01 X153.663 Y395.797
G01 X153.609 Y392.664
G01 X154.280 Y389.643
G01 X155.650 Y386.823
G01 X157.611 Y384.409
G01 X160.102 Y382.538
G01 X162.963 Y381.266
G01 X166.011 Y380.718
G01 X169.126 Y380.879
G01 X170.187 Y381.119
G01 X170.188 Y379.507
G01 X169.747 Y379.411
G01 X166.658 Y379.113
G01 X163.556 Y379.499
G01 X160.609 Y380.494
G01 X157.926 Y382.104
G01 X155.644 Y384.229
G01 X153.847 Y386.786
G01 X152.623 Y389.652
G01 X152.032 Y392.709
G01 X152.100 Y395.837
G01 X152.799 Y398.879
G01 X154.132 Y401.696
G01 X156.001 Y404.180
G01 X158.370 Y406.209
G01 X161.095 Y407.718
G01 X164.082 Y408.626
G01 X167.209 Y408.872
G01 X170.291 Y408.484
G01 X173.222 Y407.453
G01 X175.896 Y405.827
G01 X178.154 Y403.686
G01 X179.924 Y401.118
G01 X181.120 Y398.228
G01 X181.698 Y395.158
G01 X181.612 Y392.045
G01 X180.882 Y389.016
G01 X179.526 Y386.197
G01 X177.749 Y383.872
G01 X177.926 Y383.769
G01 X179.146 Y383.061
G01 X180.211 Y384.412
G01 X181.787 Y387.092
G01 X182.817 Y390.044
G01 X183.277 Y393.137
G01 X183.157 Y396.249
G01 X182.431 Y399.296
G01 X181.142 Y402.143
G01 X179.359 Y404.683
G01 X177.107 Y406.866
G01 X174.496 Y408.566
G01 X171.606 Y409.752
G01 X168.548 Y410.349
G01 X165.444 Y410.375
G01 X162.357 Y409.821
G01 X159.458 Y408.687
G01 X156.809 Y407.029
G01 X154.541 Y404.898
G01 X152.707 Y402.360
G01 X151.386 Y399.536
G01 X150.615 Y396.524
G01 X150.436 Y393.399
G01 X150.850 Y390.302
G01 X151.824 Y387.344
G01 X153.358 Y384.629
G01 X155.364 Y382.253
G01 X157.800 Y380.274
G01 X160.546 Y378.810
G01 X163.535 Y377.889
G01 X166.635 Y377.548
G01 X169.741 Y377.816
G01 X170.192 Y377.892
G01 X170.198 Y376.301
G01 X169.111 Y376.143
G01 X166.004 Y376.023
G01 X162.908 Y376.432
G01 X159.944 Y377.381
G01 X157.164 Y378.837
G01 X154.691 Y380.719
G01 X152.585 Y383.019
G01 X150.902 Y385.659
G01 X149.712 Y388.535
G01 X149.029 Y391.584
G01 X148.860 Y394.709
G01 X149.251 Y397.803
G01 X150.179 Y400.776
G01 X151.600 Y403.552
G01 X153.491 Y406.042
G01 X155.761 Y408.181
G01 X158.373 Y409.881
G01 X161.257 Y411.100
G01 X164.286 Y411.826
G01 X167.400 Y412.008
G01 X170.502 Y411.633
G01 X173.496 Y410.749
G01 X176.282 Y409.349
G01 X178.804 Y407.479
G01 X180.939 Y405.231
G01 X182.662 Y402.631
G01 X183.923 Y399.772
G01 X184.650 Y396.730
G01 X184.862 Y393.619
G01 X184.516 Y390.516
G01 X183.660 Y387.509
G01 X182.281 Y384.712
G01 X180.534 Y382.268
G01 X180.621 Y382.229
G01 X181.898 Y381.485
G01 X182.901 Y382.784
G01 X184.470 Y385.485
G01 X185.602 Y388.402
G01 X186.255 Y391.450
G01 X186.427 Y394.564
G01 X186.085 Y397.661
G01 X185.260 Y400.681
G01 X183.950 Y403.519
G01 X182.219 Y406.121
G01 X180.108 Y408.417
G01 X177.649 Y410.331
G01 X174.917 Y411.831
G01 X171.982 Y412.879
G01 X168.909 Y413.467
G01 X165.791 Y413.543
G01 X162.694 Y413.132
G01 X159.710 Y412.215
G01 X156.898 Y410.848
G01 X154.338 Y409.047
G01 X152.113 Y406.863
G01 X150.257 Y404.352
G01 X148.815 Y401.581
G01 X147.840 Y398.625
G01 X147.346 Y395.539
G01 X147.357 Y392.416
G01 X147.863 Y389.322
G01 X148.842 Y386.378
G01 X150.287 Y383.590
G01 X152.141 Y381.106
G01 X154.395 Y378.918
G01 X156.939 Y377.128
G01 X159.754 Y375.772
G01 X162.750 Y374.862
G01 X165.833 Y374.463
G01 X168.949 Y374.550
G01 X170.181 Y374.720
G01 X170.180 Y373.143
G01 X169.892 Y373.075
G01 X166.784 Y372.872
G01 X163.658 Y373.117
G01 X160.619 Y373.807
G01 X157.727 Y374.946
G01 X155.004 Y376.503
G01 X152.557 Y378.446
G01 X150.422 Y380.717
G01 X148.648 Y383.294
G01 X147.263 Y386.102
G01 X146.304 Y389.071
G01 X145.808 Y392.155
G01 X145.762 Y395.272
G01 X146.179 Y398.355
G01 X147.050 Y401.356
G01 X148.362 Y404.190
G01 X150.063 Y406.812
G01 X152.142 Y409.146
G01 X154.526 Y411.169
G01 X157.190 Y412.775
G01 X160.061 Y414.008
G01 X163.079 Y414.780
G01 X166.186 Y415.121
G01 X169.298 Y414.996
G01 X172.367 Y414.391
G01 X175.316 Y413.363
G01 X178.079 Y411.921
G01 X180.607 Y410.054
G01 X182.806 Y407.870
G01 X184.684 Y405.353
G01 X186.160 Y402.610
G01 X187.216 Y399.665
G01 X187.824 Y396.611
G01 X187.989 Y393.499
G01 X187.677 Y390.388
G01 X186.921 Y387.359
G01 X185.719 Y384.476
G01 X184.109 Y381.797
G01 X183.264 Y380.698
G01 X184.632 Y379.906
G01 X184.727 Y380.009
G01 X186.486 Y382.599
G01 X187.856 Y385.395
G01 X188.841 Y388.361
G01 X189.399 Y391.439
G01 X189.551 Y394.544
G01 X189.249 Y397.667
G01 X188.546 Y400.702
G01 X187.412 Y403.614
G01 X185.898 Y406.344
G01 X184.019 Y408.841
G01 X181.826 Y411.066
G01 X179.354 Y412.944
G01 X176.628 Y414.477
G01 X173.719 Y415.628
G01 X170.683 Y416.359
G01 X167.581 Y416.687
G01 X164.463 Y416.571
G01 X161.378 Y416.028
G01 X158.405 Y415.065
G01 X155.594 Y413.704
G01 X152.996 Y411.974
G01 X150.659 Y409.904
G01 X148.630 Y407.527
G01 X146.953 Y404.906
G01 X145.653 Y402.067
G01 X144.749 Y399.062
G01 X144.259 Y395.975
G01 X144.205 Y392.868
G01 X144.563 Y389.765
G01 X145.364 Y386.732
G01 X146.557 Y383.864
G01 X148.137 Y381.167
G01 X150.080 Y378.719
G01 X152.332 Y376.574
G01 X154.862 Y374.734
G01 X157.619 Y373.277
G01 X160.569 Y372.195
G01 X163.608 Y371.551
G01 X166.719 Y371.315
G01 X169.832 Y371.512
G01 X170.182 Y371.563
G01 X170.188 Y369.979
G01 X168.994 Y369.840
G01 X165.885 Y369.762
G01 X162.772 Y370.089
G01 X159.722 Y370.823
G01 X156.817 Y371.917
G01 X154.059 Y373.389
G01 X151.515 Y375.208
G01 X149.228 Y377.353
G01 X147.240 Y379.733
G01 X145.564 Y382.392
G01 X144.257 Y385.212
G01 X143.324 Y388.191
G01 X142.769 Y391.261
G01 X142.607 Y394.391
G01 X142.864 Y397.496
G01 X143.518 Y400.549
G01 X144.542 Y403.488
G01 X145.949 Y406.280
G01 X147.703 Y408.863
G01 X149.779 Y411.212
G01 X152.134 Y413.265
G01 X154.721 Y414.990
G01 X157.524 Y416.377
G01 X160.479 Y417.390
G01 X163.524 Y418.028
G01 X166.638 Y418.256
G01 X169.760 Y418.079
G01 X172.834 Y417.505
G01 X175.805 Y416.546
G01 X178.624 Y415.216
G01 X181.254 Y413.511
G01 X183.651 Y411.502
G01 X185.765 Y409.205
G01 X187.554 Y406.663
G01 X189.009 Y403.906
G01 X190.085 Y400.971
G01 X190.800 Y397.918
G01 X191.102 Y394.805
G01 X191.012 Y391.686
G01 X190.507 Y388.623
G01 X189.617 Y385.615
G01 X188.356 Y382.762
G01 X186.744 Y380.086
G01 X186.001 Y379.108
G01 X187.371 Y378.306
G01 X187.562 Y378.566
G01 X189.282 Y381.179
G01 X190.658 Y383.998
G01 X191.702 Y386.932
G01 X192.365 Y389.974
G01 X192.665 Y393.091
G01 X192.585 Y396.205
G01 X192.126 Y399.300
G01 X191.310 Y402.309
G01 X190.125 Y405.201
G01 X188.598 Y407.934
G01 X186.747 Y410.458
G01 X184.624 Y412.734
G01 X182.220 Y414.752
G01 X179.606 Y416.452
G01 X176.796 Y417.830
G01 X173.864 Y418.854
G01 X170.815 Y419.517
G01 X167.701 Y419.808
G01 X164.579 Y419.715
G01 X161.495 Y419.257
G01 X158.476 Y418.412
G01 X155.593 Y417.244
G01 X152.867 Y415.704
G01 X150.351 Y413.853
G01 X148.075 Y411.709
G01 X146.071 Y409.324
G01 X144.375 Y406.700
G01 X143.015 Y403.890
G01 X141.994 Y400.937
G01 X141.344 Y397.872
G01 X141.063 Y394.766
G01 X141.145 Y391.656
G01 X141.625 Y388.549
G01 X142.459 Y385.545
G01 X143.659 Y382.665
G01 X145.192 Y379.952
G01 X147.052 Y377.437
G01 X149.203 Y375.158
G01 X151.608 Y373.177
G01 X154.225 Y371.487
G01 X157.036 Y370.130
G01 X159.991 Y369.117
G01 X163.058 Y368.471
G01 X166.174 Y368.191
G01 X169.297 Y368.293
G01 X170.198 Y368.391
G01 X170.187 Y366.812
G01 X169.536 Y366.760
G01 X166.426 Y366.621
G01 X163.307 Y366.852
G01 X160.248 Y367.428
G01 X157.257 Y368.370
G01 X154.408 Y369.622
G01 X151.707 Y371.203
G01 X149.210 Y373.070
G01 X146.945 Y375.221
G01 X144.933 Y377.613
G01 X143.210 Y380.210
G01 X141.794 Y382.991
G01 X140.689 Y385.924
G01 X139.958 Y388.954
G01 X139.542 Y392.060
G01 X139.497 Y395.179
G01 X139.816 Y398.297
G01 X140.492 Y401.335
G01 X141.495 Y404.292
G01 X142.825 Y407.129
G01 X144.475 Y409.772
G01 X146.410 Y412.221
G01 X148.618 Y414.433
G01 X151.071 Y416.357
G01 X153.712 Y418.015
G01 X156.526 Y419.368
G01 X159.494 Y420.378
G01 X162.538 Y421.035
G01 X165.651 Y421.366
G01 X168.779 Y421.322
G01 X171.882 Y420.919
G01 X174.905 Y420.167
G01 X177.830 Y419.093
G01 X180.629 Y417.666
G01 X183.237 Y415.948
G01 X185.621 Y413.937
G01 X187.770 Y411.688
G01 X189.643 Y409.192
G01 X191.218 Y406.500
G01 X192.486 Y403.638
G01 X193.416 Y400.649
G01 X194.010 Y397.586
G01 X194.235 Y394.460
G01 X194.114 Y391.353
G01 X193.639 Y388.253
G01 X192.800 Y385.252
G01 X191.639 Y382.354
G01 X190.155 Y379.600
G01 X188.744 Y377.526
G01 X189.265 Y377.221
G01 X190.093 Y376.756
G01 X191.315 Y378.537
G01 X192.847 Y381.246
G01 X194.064 Y384.129
G01 X194.977 Y387.122
G01 X195.543 Y390.195
G01 X195.802 Y393.293
G01 X195.700 Y396.432
G01 X195.268 Y399.522
G01 X194.507 Y402.545
G01 X193.439 Y405.482
G01 X192.046 Y408.273
G01 X190.353 Y410.900
G01 X188.387 Y413.341
G01 X186.188 Y415.553
G01 X183.757 Y417.502
G01 X181.124 Y419.193
G01 X178.323 Y420.577
G01 X175.390 Y421.662
G01 X172.368 Y422.402
G01 X169.277 Y422.855
G01 X166.140 Y422.940
G01 X163.038 Y422.690
G01 X159.967 Y422.097
G01 X156.977 Y421.211
G01 X154.107 Y419.994
G01 X151.387 Y418.459
G01 X148.834 Y416.646
G01 X146.507 Y414.562
G01 X144.405 Y412.267
G01 X142.565 Y409.731
G01 X140.998 Y407.025
G01 X139.756 Y404.162
G01 X138.826 Y401.172
G01 X138.210 Y398.125
G01 X137.936 Y394.990
G01 X137.982 Y391.886
G01 X138.386 Y388.788
G01 X139.122 Y385.747
G01 X140.176 Y382.795
G01 X141.531 Y379.988
G01 X143.198 Y377.341
G01 X145.131 Y374.884
G01 X147.309 Y372.664
G01 X149.729 Y370.678
G01 X152.330 Y368.968
G01 X155.111 Y367.557
G01 X158.036 Y366.438
G01 X161.054 Y365.652
G01 X164.155 Y365.178
G01 X167.065 Y365.048
G01 X167.261 Y365.066
G01 X170.186 Y365.051
G01 X170.194 Y364.844
G01 X170.186 Y363.373
G01 X168.756 Y363.370
G01 X168.887 Y363.187
G01 X170.170 Y361.184
G01 X170.166 Y360.442
G01 X170.188 Y358.074
G01 X169.796 Y358.717
G01 X168.053 Y361.314
G01 X166.369 Y363.458
G01 X165.982 Y363.483
G01 X164.162 Y363.620
G01 X165.009 Y362.663
G01 X166.935 Y360.201
G01 X168.655 Y357.584
G01 X170.168 Y354.840
G01 X170.187 Y354.792
G01 X170.184 Y351.724
G01 X170.185 Y350.930
G01 X169.273 Y353.076
G01 X167.868 Y355.847
G01 X166.202 Y358.509
G01 X164.336 Y361.017
G01 X162.284 Y363.349
G01 X161.657 Y363.970
G01 X159.451 Y364.434
G01 X158.673 Y364.614
G01 X160.373 Y363.059
G01 X162.514 Y360.768
G01 X164.440 Y358.307
G01 X166.139 Y355.698
G01 X167.618 Y352.944
G01 X168.840 Y350.077
G01 X169.815 Y347.095
G01 X170.186 Y345.648
G01 X170.194 Y344.022
G01 X170.176 Y340.902
G01 X170.197 Y337.769
G01 X170.182 Y334.655
G01 X170.179 Y331.531
G01 X170.183 Y329.387
G01 X169.947 Y328.436
G01 X169.028 Y325.448
G01 X167.848 Y322.548
G01 X166.420 Y319.772
G01 X164.734 Y317.137
G01 X162.856 Y314.639
G01 X160.742 Y312.344
G01 X158.453 Y310.214
G01 X155.985 Y308.302
G01 X153.344 Y306.632
G01 X152.637 Y306.212
G01 X152.603 Y303.918
G01 X152.326 Y300.812
G01 X151.785 Y297.734
G01 X150.975 Y294.709
G01 X149.894 Y291.782
G01 X148.573 Y288.955
G01 X147.017 Y286.243
G01 X145.209 Y283.694
G01 X143.193 Y281.303
G01 X141.340 Y279.430
G01 X141.772 Y279.685
G01 X144.479 Y281.247
G01 X145.932 Y282.078
G01 X146.817 Y283.223
G01 X148.585 Y285.805
G01 X150.121 Y288.521
G01 X151.426 Y291.362
G01 X152.490 Y294.296
G01 X153.307 Y297.317
G01 X153.857 Y300.395
G01 X154.146 Y303.503
G01 X154.196 Y305.312
G01 X155.320 Y305.997
G01 X157.894 Y307.771
G01 X160.307 Y309.755
G01 X162.536 Y311.940
G01 X164.575 Y314.308
G01 X166.431 Y316.822
G01 X168.053 Y319.500
G01 X169.436 Y322.301
G01 X170.185 Y324.087
G01 X170.186 Y322.906
G01 X170.188 Y320.212
G01 X169.983 Y319.827
G01 X168.455 Y317.096
G01 X166.710 Y314.508
G01 X164.756 Y312.074
G01 X162.623 Y309.790
G01 X160.303 Y307.695
G01 X157.821 Y305.795
G01 X155.755 Y304.412
G01 X155.739 Y303.782
G01 X155.471 Y300.663
G01 X154.948 Y297.591
G01 X154.202 Y294.550
G01 X153.187 Y291.607
G01 X151.971 Y288.722
G01 X150.502 Y285.970
G01 X149.288 Y284.013
G01 X150.011 Y284.427
G01 X152.116 Y285.653
G01 X152.440 Y286.243
G01 X153.825 Y289.050
G01 X154.999 Y291.947
G01 X155.930 Y294.931
G01 X156.627 Y297.971
G01 X157.081 Y301.063
G01 X157.270 Y303.537
G01 X157.820 Y303.886
G01 X160.354 Y305.717
G01 X162.729 Y307.752
G01 X164.955 Y309.947
G01 X166.985 Y312.313
G01 X168.839 Y314.830
G01 X170.182 Y316.944
G01 X170.189 Y316.328
G01 X170.178 Y314.022
G01 X169.727 Y313.335
G01 X167.833 Y310.858
G01 X165.754 Y308.518
G01 X163.509 Y306.345
G01 X161.117 Y304.335
G01 X158.786 Y302.662
G01 X158.778 Y302.399
G01 X158.429 Y299.302
G01 X157.847 Y296.232
G01 X157.054 Y293.213
G01 X156.033 Y290.250
G01 X154.779 Y287.393
G01 X154.644 Y287.116
G01 X156.984 Y288.452
G01 X157.031 Y288.563
G01 X158.134 Y291.488
G01 X159.042 Y294.477
G01 X159.722 Y297.528
G01 X160.181 Y300.618
G01 X160.301 Y301.787
G01 X161.875 Y302.932
G01 X164.289 Y304.926
G01 X166.532 Y307.091
G01 X168.647 Y309.390
G01 X170.192 Y311.328
G01 X170.198 Y310.678
G01 X170.177 Y308.813
G01 X169.381 Y307.847
G01 X167.248 Y305.563
G01 X164.952 Y303.451
G01 X162.523 Y301.478
G01 X161.774 Y300.937
G01 X161.512 Y298.744
G01 X160.931 Y295.681
G01 X160.158 Y292.647
G01 X159.154 Y289.722
G01 X159.185 Y289.730
G01 X161.249 Y290.907
G01 X161.476 Y291.632
G01 X162.310 Y294.643
G01 X162.913 Y297.711
G01 X163.267 Y300.075
G01 X163.847 Y300.524
G01 X166.249 Y302.507
G01 X168.534 Y304.652
G01 X170.198 Y306.407
G01 X170.189 Y305.698
G01 X170.189 Y304.111
G01 X169.104 Y303.023
G01 X166.790 Y300.913
G01 X164.740 Y299.225
G01 X164.659 Y298.783
G01 X164.130 Y295.703
G01 X163.410 Y292.653
G01 X163.233 Y292.063
G01 X165.153 Y293.174
G01 X165.212 Y293.454
G01 X165.874 Y296.506
G01 X166.190 Y298.387
G01 X167.133 Y299.156
G01 X169.487 Y301.221
G01 X170.186 Y301.893
G01 X170.181 Y299.742
G01 X170.190 Y296.612
G01 X170.196 Y296.075
G01 X167.950 Y294.781
G01 X167.012 Y294.254
G01 X167.427 Y296.263
G01 X167.641 Y297.550
G01 X168.633 Y298.354
G01 X168.625 Y297.799
G01 X168.593 Y295.172
G01 X168.172 Y294.926
G01 X165.474 Y293.362
G01 X162.770 Y291.793
G01 X160.062 Y290.228
G01 X157.366 Y288.653
G01 X154.660 Y287.088
G01 X151.961 Y285.520
G01 X149.268 Y283.952
G01 X146.551 Y282.386
G01 X143.859 Y280.820
G01 X141.136 Y279.251
G01 X138.435 Y277.692
G01 X135.746 Y276.113
G01 X133.024 Y274.553
G01 X130.338 Y272.988
G01 X127.636 Y271.420
G01 X127.297 Y271.227
G01 X124.644 Y270.525
G01 X121.571 Y269.988
G01 X118.445 Y269.721
G01 X115.336 Y269.719
G01 X112.218 Y269.992
G01 X109.140 Y270.540
G01 X106.125 Y271.347
G01 X105.114 Y271.689
G01 X106.489 Y270.194
G01 X107.163 Y269.415
G01 X109.216 Y268.921
G01 X112.300 Y268.408
G01 X115.393 Y268.146
G01 X118.522 Y268.152
G01 X121.639 Y268.416
G01 X122.723 Y268.572
G01 X120.963 Y267.552
G01 X119.380 Y266.638
G01 X118.087 Y266.575
G01 X114.968 Y266.610
G01 X111.853 Y266.881
G01 X108.770 Y267.416
G01 X108.695 Y267.425
G01 X109.966 Y265.593
G01 X110.781 Y265.460
G01 X113.885 Y265.102
G01 X116.540 Y264.996
G01 X116.111 Y264.760
G01 X113.838 Y263.455
G01 X113.338 Y263.477
G01 X111.237 Y263.572
G01 X111.732 Y262.700
G01 X111.950 Y262.332
G01 X111.473 Y262.054
G01 X109.604 Y260.987
G01 X106.886 Y259.444
G01 X104.164 Y257.897
G01 X101.460 Y256.346
G01 X98.751 Y254.796
G01 X96.034 Y253.249
G01 X93.737 Y251.937
G01 X93.261 Y251.849
G01 X90.205 Y251.230
G01 X87.126 Y250.602
G01 X84.125 Y249.999
G01 X84.175 Y249.999
G01 X86.100 Y249.852
G01 X85.730 Y248.718
G01 X82.990 Y247.728
G01 X81.350 Y250.134
G01 X83.241 Y252.334
G01 X85.853 Y251.066
G01 X86.100 Y249.999
G01 X87.675 Y249.999
G01 X87.626 Y250.454
G01 X86.155 Y253.113
G01 X83.196 Y253.903
G01 X80.567 Y252.372
G01 X79.826 Y249.421
G01 X81.380 Y246.812
G01 X84.346 Y246.106
G01 X86.941 Y247.716
G01 X87.650 Y249.837
G01 X88.500 Y249.838
G01 X89.225 Y249.839
