;  Created by Sandify
;  https://sandify.org
;  Version: 0.2.6
;
;  Machine type: Rectangular
;    Min X (mm): 0
;    Max X (mm): 500
;    Min Y (mm): 0
;    Max Y (mm): 500
;  Content type: shape
;  Layer:
;    Shape: FileImport
;    Name: complexwoman.thr
;    From file:: complexwoman.thr
;    Aspect Ratio: true
;    Comments: 
;    Visible: true
;    Initial width: 10
;    Initial height: 10
;    X offset: 0
;    Y offset: 0
;    Rotate (degrees): 0
;    Reverse path: false
;    Fine tuning:
;      Connect to next layer: line
;      Draw portion of path (%): 100
;      Backtrack at end (%): 0
;      Rotate starting point (%): 0
;  Reverse export path: false
;
; File name: 'complexwoman (SW SW) (BJ)'
; File type: gcode
;

G01 X77.381 Y69.161
G01 X77.792 Y69.161
G01 X78.203 Y69.572
G01 X78.203 Y69.983
G01 X78.614 Y70.394
G01 X79.025 Y70.805
G01 X79.436 Y71.216
G01 X79.847 Y71.627
G01 X79.847 Y72.038
G01 X80.258 Y72.449
G01 X80.258 Y72.860
G01 X80.258 Y73.271
G01 X80.258 Y73.682
G01 X80.258 Y74.093
G01 X80.258 Y74.504
G01 X80.258 Y74.915
G01 X79.847 Y75.326
G01 X79.847 Y75.737
G01 X79.436 Y76.148
G01 X79.025 Y76.559
G01 X78.614 Y76.970
G01 X78.203 Y77.381
G01 X77.792 Y77.792
G01 X77.381 Y78.203
G01 X76.970 Y78.614
G01 X76.559 Y79.025
G01 X76.148 Y79.436
G01 X75.737 Y79.847
G01 X75.326 Y80.258
G01 X74.915 Y80.669
G01 X74.915 Y81.080
G01 X74.504 Y81.491
G01 X74.093 Y81.902
G01 X74.093 Y82.313
G01 X73.682 Y82.724
G01 X73.682 Y83.135
G01 X73.271 Y83.546
G01 X73.271 Y83.957
G01 X73.271 Y84.368
G01 X72.860 Y84.779
G01 X72.860 Y85.190
G01 X72.860 Y85.601
G01 X72.860 Y86.012
G01 X72.449 Y86.423
G01 X72.449 Y86.834
G01 X72.449 Y87.245
G01 X72.449 Y87.656
G01 X72.038 Y88.067
G01 X72.038 Y88.478
G01 X72.038 Y88.889
G01 X72.038 Y89.300
G01 X71.627 Y89.711
G01 X71.627 Y90.122
G01 X71.627 Y90.533
G01 X71.627 Y90.944
G01 X71.627 Y91.355
G01 X71.216 Y91.766
G01 X71.216 Y92.177
G01 X71.216 Y92.588
G01 X71.216 Y92.999
G01 X71.216 Y93.410
G01 X71.216 Y93.821
G01 X71.216 Y94.232
G01 X71.216 Y94.643
G01 X71.216 Y95.054
G01 X70.805 Y95.465
G01 X70.805 Y95.876
G01 X70.805 Y96.287
G01 X70.805 Y96.698
G01 X70.805 Y97.109
G01 X70.805 Y97.520
G01 X70.805 Y97.931
G01 X70.805 Y98.342
G01 X70.805 Y98.753
G01 X70.805 Y99.164
G01 X70.805 Y99.575
G01 X70.805 Y99.986
G01 X70.805 Y100.397
G01 X70.805 Y100.808
G01 X70.805 Y101.219
G01 X70.805 Y101.630
G01 X70.805 Y102.041
G01 X70.805 Y102.452
G01 X70.805 Y102.863
G01 X70.805 Y103.274
G01 X70.805 Y103.685
G01 X70.805 Y104.096
G01 X70.805 Y104.507
G01 X71.216 Y104.918
G01 X71.216 Y105.329
G01 X71.216 Y105.740
G01 X71.216 Y106.151
G01 X71.216 Y106.562
G01 X71.216 Y106.973
G01 X71.216 Y107.384
G01 X71.216 Y107.795
G01 X71.216 Y108.206
G01 X71.216 Y108.617
G01 X71.216 Y109.028
G01 X71.216 Y109.439
G01 X71.216 Y109.850
G01 X71.216 Y110.261
G01 X71.216 Y110.672
G01 X71.216 Y111.083
G01 X71.216 Y111.494
G01 X71.627 Y111.905
G01 X71.627 Y112.316
G01 X71.627 Y112.727
G01 X71.627 Y113.138
G01 X71.627 Y113.549
G01 X71.627 Y113.960
G01 X71.627 Y114.371
G01 X71.627 Y114.782
G01 X71.627 Y115.193
G01 X71.627 Y115.604
G01 X71.627 Y116.015
G01 X71.627 Y116.426
G01 X72.038 Y116.837
G01 X72.038 Y117.248
G01 X72.038 Y117.659
G01 X72.038 Y118.070
G01 X72.038 Y118.481
G01 X72.038 Y118.892
G01 X72.038 Y119.303
G01 X72.038 Y119.714
G01 X72.038 Y120.125
G01 X72.038 Y120.536
G01 X72.038 Y120.947
G01 X72.449 Y121.358
G01 X72.449 Y121.769
G01 X72.449 Y122.180
G01 X72.449 Y122.591
G01 X72.449 Y123.002
G01 X72.449 Y123.413
G01 X72.449 Y123.824
G01 X72.449 Y124.235
G01 X72.449 Y124.646
G01 X72.449 Y125.057
G01 X72.860 Y125.468
G01 X72.860 Y125.879
G01 X72.860 Y126.290
G01 X72.860 Y126.701
G01 X72.860 Y127.112
G01 X72.860 Y127.523
G01 X72.860 Y127.934
G01 X72.860 Y128.345
G01 X72.860 Y128.756
G01 X73.271 Y129.167
G01 X73.271 Y129.578
G01 X73.271 Y129.989
G01 X73.271 Y130.400
G01 X73.271 Y130.811
G01 X73.271 Y131.222
G01 X73.271 Y131.633
G01 X73.271 Y132.044
G01 X73.271 Y132.455
G01 X73.682 Y132.866
G01 X73.682 Y133.277
G01 X73.682 Y133.688
G01 X73.682 Y134.099
G01 X73.682 Y134.510
G01 X73.682 Y134.921
G01 X73.682 Y135.332
G01 X73.682 Y135.743
G01 X73.682 Y136.154
G01 X73.682 Y136.565
G01 X74.093 Y136.976
G01 X74.093 Y137.387
G01 X74.093 Y137.798
G01 X74.093 Y138.209
G01 X74.093 Y138.620
G01 X74.093 Y139.031
G01 X74.093 Y139.442
G01 X74.093 Y139.853
G01 X74.504 Y140.264
G01 X74.504 Y140.675
G01 X74.504 Y141.086
G01 X74.504 Y141.497
G01 X74.504 Y141.908
G01 X74.504 Y142.319
G01 X74.504 Y142.730
G01 X74.504 Y143.141
G01 X74.504 Y143.552
G01 X74.504 Y143.963
G01 X74.915 Y144.374
G01 X74.915 Y144.785
G01 X74.915 Y145.196
G01 X74.915 Y145.607
G01 X74.915 Y146.018
G01 X74.915 Y146.429
G01 X74.915 Y146.840
G01 X74.915 Y147.251
G01 X75.326 Y147.662
G01 X75.326 Y148.073
G01 X75.326 Y148.484
G01 X75.326 Y148.895
G01 X75.326 Y149.306
G01 X75.326 Y149.717
G01 X75.326 Y150.128
G01 X75.326 Y150.539
G01 X75.326 Y150.950
G01 X75.737 Y151.361
G01 X75.737 Y151.772
G01 X75.737 Y152.183
G01 X75.737 Y152.594
G01 X75.737 Y153.005
G01 X75.737 Y153.416
G01 X75.737 Y153.827
G01 X75.737 Y154.238
G01 X76.148 Y154.649
G01 X76.148 Y155.060
G01 X76.148 Y155.471
G01 X76.148 Y155.882
G01 X76.148 Y156.293
G01 X76.148 Y156.704
G01 X76.148 Y157.115
G01 X76.148 Y157.526
G01 X76.148 Y157.937
G01 X76.559 Y158.348
G01 X76.559 Y158.759
G01 X76.559 Y159.170
G01 X76.559 Y159.581
G01 X76.559 Y159.992
G01 X76.559 Y160.403
G01 X76.559 Y160.814
G01 X76.559 Y161.225
G01 X76.970 Y161.636
G01 X76.970 Y162.047
G01 X76.970 Y162.458
G01 X76.970 Y162.869
G01 X76.970 Y163.280
G01 X76.970 Y163.691
G01 X76.970 Y164.102
G01 X76.970 Y164.513
G01 X77.381 Y164.924
G01 X77.381 Y165.335
G01 X77.381 Y165.746
G01 X77.381 Y166.157
G01 X77.381 Y166.568
G01 X77.381 Y166.979
G01 X77.381 Y167.390
G01 X77.381 Y167.801
G01 X77.792 Y168.212
G01 X77.792 Y168.623
G01 X77.792 Y169.033
G01 X77.792 Y169.444
G01 X77.792 Y169.855
G01 X77.792 Y170.266
G01 X77.792 Y170.677
G01 X77.792 Y171.088
G01 X78.203 Y171.499
G01 X78.203 Y171.910
G01 X78.203 Y172.321
G01 X78.203 Y172.732
G01 X78.203 Y173.143
G01 X78.203 Y173.554
G01 X78.203 Y173.965
G01 X78.203 Y174.376
G01 X78.614 Y174.787
G01 X78.614 Y175.198
G01 X78.614 Y175.609
G01 X78.614 Y176.020
G01 X78.614 Y176.431
G01 X78.614 Y176.842
G01 X78.614 Y177.253
G01 X78.614 Y177.664
G01 X79.025 Y178.075
G01 X79.025 Y178.486
G01 X79.025 Y178.897
G01 X79.025 Y179.308
G01 X79.025 Y179.719
G01 X79.025 Y180.130
G01 X79.025 Y180.541
G01 X79.436 Y180.952
G01 X79.436 Y181.363
G01 X79.436 Y181.774
G01 X79.436 Y182.185
G01 X79.436 Y182.596
G01 X79.436 Y183.007
G01 X79.436 Y183.418
G01 X79.436 Y183.829
G01 X79.847 Y184.240
G01 X79.847 Y184.651
G01 X79.847 Y185.062
G01 X79.847 Y185.473
G01 X79.847 Y185.884
G01 X79.847 Y186.295
G01 X79.847 Y186.706
G01 X80.258 Y187.117
G01 X80.258 Y187.528
G01 X80.258 Y187.939
G01 X80.258 Y188.350
G01 X80.258 Y188.761
G01 X80.258 Y189.172
G01 X80.258 Y189.583
G01 X80.258 Y189.994
G01 X80.669 Y190.405
G01 X80.669 Y190.816
G01 X80.669 Y191.227
G01 X80.669 Y191.638
G01 X80.669 Y192.049
G01 X80.669 Y192.460
G01 X81.080 Y192.871
G01 X81.080 Y193.282
G01 X81.080 Y193.693
G01 X81.080 Y194.104
G01 X81.080 Y194.515
G01 X81.080 Y194.926
G01 X81.080 Y195.337
G01 X81.080 Y195.748
G01 X81.491 Y196.159
G01 X81.491 Y196.570
G01 X81.491 Y196.981
G01 X81.491 Y197.392
G01 X81.491 Y197.803
G01 X81.491 Y198.214
G01 X81.902 Y198.625
G01 X81.902 Y199.036
G01 X81.902 Y199.447
G01 X81.902 Y199.858
G01 X81.902 Y200.269
G01 X81.902 Y200.680
G01 X81.902 Y201.091
G01 X82.313 Y201.502
G01 X82.313 Y201.913
G01 X82.313 Y202.324
G01 X82.313 Y202.735
G01 X82.313 Y203.146
G01 X82.313 Y203.557
G01 X82.313 Y203.968
G01 X82.724 Y204.379
G01 X82.724 Y204.790
G01 X82.724 Y205.201
G01 X82.724 Y205.612
G01 X82.724 Y206.023
G01 X82.724 Y206.434
G01 X83.135 Y206.845
G01 X83.135 Y207.256
G01 X83.135 Y207.667
G01 X83.135 Y208.078
G01 X83.135 Y208.489
G01 X83.135 Y208.900
G01 X83.546 Y209.311
G01 X83.546 Y209.722
G01 X83.546 Y210.133
G01 X83.546 Y210.544
G01 X83.546 Y210.955
G01 X83.957 Y211.366
G01 X83.957 Y211.777
G01 X83.957 Y212.188
G01 X83.957 Y212.599
G01 X83.957 Y213.010
G01 X84.368 Y213.421
G01 X84.368 Y213.832
G01 X84.368 Y214.243
G01 X84.368 Y214.654
G01 X84.368 Y215.065
G01 X84.779 Y215.476
G01 X84.779 Y215.887
G01 X84.779 Y216.298
G01 X84.779 Y216.709
G01 X85.190 Y217.120
G01 X85.190 Y217.531
G01 X85.190 Y217.942
G01 X85.190 Y218.353
G01 X85.601 Y218.764
G01 X85.601 Y219.175
G01 X85.601 Y219.586
G01 X86.012 Y219.997
G01 X86.012 Y220.408
G01 X86.012 Y220.819
G01 X86.423 Y221.230
G01 X86.423 Y221.641
G01 X86.423 Y222.052
G01 X86.834 Y222.463
G01 X86.834 Y222.874
G01 X87.245 Y223.285
G01 X87.245 Y223.696
G01 X87.245 Y224.107
G01 X87.656 Y224.518
G01 X88.067 Y224.929
G01 X88.067 Y225.340
G01 X88.478 Y225.751
G01 X88.478 Y226.162
G01 X88.889 Y226.573
G01 X89.300 Y226.984
G01 X89.711 Y227.395
G01 X90.122 Y227.806
G01 X90.533 Y228.217
G01 X90.944 Y228.628
G01 X91.355 Y229.039
G01 X91.766 Y229.450
G01 X92.177 Y229.861
G01 X92.588 Y230.272
G01 X92.999 Y230.683
G01 X92.999 Y231.094
G01 X93.410 Y231.505
G01 X93.410 Y231.916
G01 X93.821 Y232.327
G01 X94.232 Y232.738
G01 X94.643 Y233.149
G01 X95.054 Y233.560
G01 X95.465 Y233.971
G01 X95.876 Y234.382
G01 X96.287 Y234.793
G01 X96.698 Y235.204
G01 X97.109 Y235.204
G01 X97.520 Y235.615
G01 X97.931 Y236.026
G01 X98.342 Y236.026
G01 X98.753 Y236.437
G01 X99.164 Y236.848
G01 X99.575 Y237.259
G01 X99.986 Y237.670
G01 X100.397 Y238.081
G01 X100.808 Y238.492
G01 X101.219 Y238.492
G01 X101.630 Y238.903
G01 X102.041 Y239.314
G01 X102.452 Y239.725
G01 X102.863 Y240.136
G01 X103.274 Y240.136
G01 X103.685 Y240.547
G01 X104.096 Y240.958
G01 X104.507 Y241.369
G01 X104.918 Y241.369
G01 X105.329 Y241.780
G01 X105.740 Y241.780
G01 X106.151 Y242.191
G01 X106.562 Y242.602
G01 X106.973 Y242.602
G01 X107.384 Y243.013
G01 X107.795 Y243.013
G01 X108.206 Y243.424
G01 X108.617 Y243.424
G01 X109.028 Y243.835
G01 X109.439 Y243.835
G01 X109.850 Y244.246
G01 X110.261 Y244.246
G01 X110.672 Y244.246
G01 X111.083 Y244.657
G01 X111.494 Y244.657
G01 X111.905 Y245.068
G01 X112.316 Y245.068
G01 X112.727 Y245.068
G01 X113.138 Y245.479
G01 X113.549 Y245.479
G01 X113.960 Y245.479
G01 X114.371 Y245.479
G01 X114.782 Y245.890
G01 X115.193 Y245.890
G01 X115.604 Y245.890
G01 X116.015 Y245.890
G01 X116.426 Y246.301
G01 X116.837 Y246.301
G01 X117.248 Y246.301
G01 X117.659 Y246.301
G01 X118.070 Y246.301
G01 X118.481 Y246.712
G01 X118.892 Y246.712
G01 X119.303 Y246.712
G01 X119.714 Y246.712
G01 X120.125 Y246.712
G01 X120.536 Y246.712
G01 X120.947 Y247.123
G01 X121.358 Y247.123
G01 X121.769 Y247.123
G01 X122.180 Y247.123
G01 X122.591 Y247.123
G01 X123.002 Y247.123
G01 X123.413 Y247.534
G01 X123.824 Y247.534
G01 X124.235 Y247.534
G01 X124.646 Y247.534
G01 X125.057 Y247.534
G01 X125.468 Y247.534
G01 X125.879 Y247.534
G01 X126.290 Y247.945
G01 X126.701 Y247.945
G01 X127.112 Y247.945
G01 X127.523 Y247.945
G01 X127.934 Y247.945
G01 X128.345 Y247.945
G01 X128.756 Y247.945
G01 X129.167 Y248.356
G01 X129.578 Y248.356
G01 X129.989 Y248.356
G01 X130.400 Y248.356
G01 X130.811 Y248.356
G01 X131.222 Y248.356
G01 X131.633 Y248.767
G01 X132.044 Y248.767
G01 X132.455 Y248.767
G01 X132.866 Y248.767
G01 X133.277 Y248.767
G01 X133.688 Y248.767
G01 X134.099 Y248.767
G01 X134.510 Y249.178
G01 X134.921 Y249.178
G01 X135.332 Y249.178
G01 X135.743 Y249.178
G01 X136.154 Y249.178
G01 X136.565 Y249.589
G01 X136.976 Y249.589
G01 X137.387 Y249.589
G01 X137.798 Y249.589
G01 X138.209 Y249.589
G01 X138.620 Y250.000
G01 X139.031 Y250.000
G01 X139.442 Y250.000
G01 X139.853 Y250.000
G01 X140.264 Y250.411
G01 X140.675 Y250.411
G01 X141.086 Y250.411
G01 X141.497 Y250.411
G01 X141.908 Y250.822
G01 X142.319 Y250.822
G01 X142.730 Y250.822
G01 X143.141 Y251.233
G01 X143.552 Y251.233
G01 X143.963 Y251.233
G01 X144.374 Y251.644
G01 X144.785 Y251.644
G01 X145.196 Y251.644
G01 X145.607 Y252.055
G01 X146.018 Y252.055
G01 X146.429 Y252.466
G01 X146.840 Y252.466
G01 X147.251 Y252.877
G01 X147.662 Y253.288
G01 X148.073 Y253.699
G01 X148.484 Y254.110
G01 X148.895 Y254.521
G01 X149.306 Y254.932
G01 X149.717 Y255.343
G01 X150.128 Y255.754
G01 X150.128 Y256.165
G01 X150.539 Y256.576
G01 X150.950 Y256.987
G01 X151.361 Y257.398
G01 X151.361 Y257.809
G01 X151.772 Y258.220
G01 X151.772 Y258.631
G01 X152.183 Y259.042
G01 X152.183 Y259.453
G01 X152.594 Y259.864
G01 X153.005 Y260.275
G01 X153.005 Y260.686
G01 X153.416 Y261.097
G01 X153.416 Y261.508
G01 X153.416 Y261.919
G01 X153.827 Y262.330
G01 X153.827 Y262.741
G01 X154.238 Y263.152
G01 X154.238 Y263.563
G01 X154.649 Y263.974
G01 X154.649 Y264.385
G01 X154.649 Y264.796
G01 X155.060 Y265.207
G01 X155.060 Y265.618
G01 X155.060 Y266.029
G01 X155.471 Y266.440
G01 X155.471 Y266.851
G01 X155.471 Y267.262
G01 X155.882 Y267.673
G01 X155.882 Y268.084
G01 X155.882 Y268.495
G01 X156.293 Y268.906
G01 X156.293 Y269.317
G01 X156.704 Y269.728
G01 X157.115 Y269.728
G01 X157.526 Y269.728
G01 X157.526 Y269.317
G01 X157.526 Y268.906
G01 X157.526 Y268.495
G01 X157.526 Y268.084
G01 X157.526 Y267.673
G01 X157.526 Y267.262
G01 X157.526 Y266.851
G01 X157.115 Y266.440
G01 X157.115 Y266.029
G01 X157.115 Y265.618
G01 X157.115 Y265.207
G01 X157.115 Y264.796
G01 X157.115 Y264.385
G01 X157.115 Y263.974
G01 X156.704 Y263.563
G01 X156.704 Y263.152
G01 X156.704 Y262.741
G01 X156.704 Y262.330
G01 X156.704 Y261.919
G01 X156.293 Y261.508
G01 X156.293 Y261.097
G01 X156.293 Y260.686
G01 X156.293 Y260.275
G01 X156.293 Y259.864
G01 X156.293 Y259.453
G01 X155.882 Y259.042
G01 X155.882 Y258.631
G01 X155.882 Y258.220
G01 X155.882 Y257.809
G01 X155.471 Y257.398
G01 X155.471 Y256.987
G01 X155.471 Y256.576
G01 X155.471 Y256.165
G01 X155.471 Y255.754
G01 X155.060 Y255.343
G01 X155.060 Y254.932
G01 X154.649 Y254.521
G01 X154.649 Y254.110
G01 X154.238 Y254.110
G01 X153.827 Y253.699
G01 X153.416 Y253.288
G01 X153.005 Y252.877
G01 X152.594 Y252.466
G01 X152.594 Y252.055
G01 X152.183 Y251.644
G01 X151.772 Y251.233
G01 X151.772 Y250.822
G01 X151.361 Y250.411
G01 X150.950 Y250.000
G01 X150.539 Y249.589
G01 X150.539 Y249.178
G01 X150.128 Y248.767
G01 X149.717 Y248.356
G01 X149.306 Y247.945
G01 X148.895 Y247.534
G01 X148.484 Y247.123
G01 X148.073 Y246.712
G01 X147.662 Y246.301
G01 X147.251 Y245.890
G01 X146.840 Y245.479
G01 X146.429 Y245.068
G01 X146.018 Y244.657
G01 X145.607 Y244.246
G01 X145.196 Y243.835
G01 X144.785 Y243.424
G01 X144.374 Y243.013
G01 X143.963 Y242.602
G01 X143.552 Y242.191
G01 X143.141 Y241.780
G01 X142.730 Y241.369
G01 X142.319 Y241.369
G01 X141.908 Y240.958
G01 X141.497 Y240.547
G01 X141.086 Y240.136
G01 X140.675 Y240.136
G01 X140.264 Y239.725
G01 X139.853 Y239.314
G01 X139.442 Y238.903
G01 X139.031 Y238.903
G01 X138.620 Y238.492
G01 X138.209 Y238.081
G01 X137.798 Y238.081
G01 X137.387 Y237.670
G01 X136.976 Y237.670
G01 X136.565 Y237.259
G01 X136.154 Y236.848
G01 X135.743 Y236.848
G01 X135.332 Y236.437
G01 X134.921 Y236.437
G01 X134.510 Y236.026
G01 X134.099 Y236.026
G01 X133.688 Y235.615
G01 X133.277 Y235.615
G01 X132.866 Y235.204
G01 X132.455 Y234.793
G01 X132.044 Y234.793
G01 X131.633 Y234.793
G01 X131.222 Y234.382
G01 X130.811 Y234.382
G01 X130.400 Y233.971
G01 X129.989 Y233.971
G01 X129.578 Y233.560
G01 X129.167 Y233.560
G01 X128.756 Y233.149
G01 X128.345 Y233.149
G01 X127.934 Y233.149
G01 X127.523 Y232.738
G01 X127.112 Y232.738
G01 X126.701 Y232.738
G01 X126.290 Y232.327
G01 X125.879 Y232.327
G01 X125.468 Y231.916
G01 X125.057 Y231.916
G01 X124.646 Y231.916
G01 X124.235 Y231.505
G01 X123.824 Y231.505
G01 X123.413 Y231.505
G01 X123.002 Y231.505
G01 X122.591 Y231.094
G01 X122.180 Y231.094
G01 X121.769 Y231.094
G01 X121.358 Y230.683
G01 X120.947 Y230.683
G01 X120.536 Y230.683
G01 X120.125 Y230.683
G01 X119.714 Y230.272
G01 X119.303 Y230.272
G01 X118.892 Y230.272
G01 X118.481 Y230.272
G01 X118.070 Y229.861
G01 X117.659 Y229.861
G01 X117.248 Y229.861
G01 X116.837 Y229.861
G01 X116.426 Y229.861
G01 X116.015 Y229.450
G01 X115.604 Y229.450
G01 X115.193 Y229.450
G01 X114.782 Y229.450
G01 X114.371 Y229.450
G01 X113.960 Y229.450
G01 X113.549 Y229.039
G01 X113.138 Y229.039
G01 X112.727 Y229.039
G01 X112.316 Y229.039
G01 X111.905 Y229.039
G01 X111.494 Y229.039
G01 X111.083 Y229.039
G01 X110.672 Y229.039
G01 X110.261 Y228.628
G01 X109.850 Y228.628
G01 X109.439 Y228.628
G01 X109.028 Y228.217
G01 X108.617 Y228.217
G01 X108.617 Y227.806
G01 X108.617 Y227.395
G01 X108.206 Y226.984
G01 X108.617 Y226.573
G01 X109.028 Y226.573
G01 X109.439 Y226.162
G01 X109.850 Y226.162
G01 X110.261 Y225.751
G01 X110.672 Y225.751
G01 X111.083 Y225.340
G01 X111.494 Y225.340
G01 X111.905 Y224.929
G01 X112.316 Y224.929
G01 X112.727 Y224.518
G01 X113.138 Y224.518
G01 X113.549 Y224.107
G01 X113.960 Y224.107
G01 X114.371 Y223.696
G01 X114.782 Y223.696
G01 X115.193 Y223.696
G01 X115.604 Y223.285
G01 X116.015 Y223.285
G01 X116.426 Y222.874
G01 X116.837 Y222.874
G01 X117.248 Y222.463
G01 X117.659 Y222.463
G01 X118.070 Y222.052
G01 X118.481 Y222.052
G01 X118.892 Y222.052
G01 X119.303 Y221.641
G01 X119.714 Y221.641
G01 X120.125 Y221.230
G01 X120.536 Y221.230
G01 X120.947 Y221.230
G01 X121.358 Y220.819
G01 X121.769 Y220.819
G01 X122.180 Y220.408
G01 X122.591 Y220.408
G01 X123.002 Y220.408
G01 X123.413 Y219.997
G01 X123.824 Y219.997
G01 X124.235 Y219.997
G01 X124.646 Y219.586
G01 X125.057 Y219.586
G01 X125.468 Y219.586
G01 X125.879 Y219.175
G01 X126.290 Y219.175
G01 X126.701 Y219.175
G01 X127.112 Y218.764
G01 X127.523 Y218.764
G01 X127.934 Y218.764
G01 X128.345 Y218.353
G01 X128.756 Y218.353
G01 X129.167 Y218.353
G01 X129.578 Y217.942
G01 X129.989 Y217.942
G01 X130.400 Y217.942
G01 X130.811 Y217.942
G01 X131.222 Y217.531
G01 X131.633 Y217.531
G01 X132.044 Y217.531
G01 X132.455 Y217.531
G01 X132.866 Y217.531
G01 X133.277 Y217.120
G01 X133.688 Y217.120
G01 X134.099 Y217.120
G01 X134.510 Y217.120
G01 X134.921 Y217.120
G01 X135.332 Y217.120
G01 X135.743 Y217.120
G01 X136.154 Y217.120
G01 X136.565 Y217.120
G01 X136.976 Y217.120
G01 X137.387 Y217.120
G01 X137.798 Y217.120
G01 X138.209 Y217.120
G01 X138.620 Y217.120
G01 X139.031 Y217.120
G01 X139.442 Y217.120
G01 X139.853 Y217.120
G01 X140.264 Y217.120
G01 X140.675 Y217.120
G01 X141.086 Y217.120
G01 X141.497 Y217.120
G01 X141.908 Y217.120
G01 X142.319 Y217.531
G01 X142.730 Y217.531
G01 X143.141 Y217.531
G01 X143.552 Y217.531
G01 X143.963 Y217.531
G01 X144.374 Y217.942
G01 X144.785 Y217.942
G01 X145.196 Y217.942
G01 X145.607 Y217.942
G01 X146.018 Y217.942
G01 X146.429 Y218.353
G01 X146.840 Y218.353
G01 X147.251 Y218.353
G01 X147.662 Y218.353
G01 X148.073 Y218.764
G01 X148.484 Y218.764
G01 X148.895 Y218.764
G01 X149.306 Y219.175
G01 X149.717 Y219.175
G01 X150.128 Y219.175
G01 X150.539 Y219.586
G01 X150.950 Y219.586
G01 X151.361 Y219.997
G01 X151.772 Y219.997
G01 X152.183 Y220.408
G01 X152.594 Y220.408
G01 X153.005 Y220.408
G01 X153.416 Y220.819
G01 X153.827 Y220.819
G01 X154.238 Y221.230
G01 X154.649 Y221.641
G01 X155.060 Y221.641
G01 X155.471 Y222.052
G01 X155.882 Y222.052
G01 X156.293 Y222.463
G01 X156.704 Y222.874
G01 X157.115 Y223.285
G01 X157.526 Y223.696
G01 X157.937 Y224.107
G01 X158.348 Y224.518
G01 X158.759 Y224.929
G01 X159.170 Y225.340
G01 X159.581 Y225.751
G01 X159.992 Y226.162
G01 X160.403 Y226.573
G01 X160.814 Y226.984
G01 X161.225 Y227.395
G01 X161.636 Y227.806
G01 X161.636 Y228.217
G01 X162.047 Y228.628
G01 X162.458 Y229.039
G01 X162.458 Y229.450
G01 X162.869 Y229.861
G01 X162.869 Y230.272
G01 X163.280 Y230.683
G01 X163.691 Y231.094
G01 X163.691 Y231.505
G01 X164.102 Y231.916
G01 X164.102 Y232.327
G01 X164.102 Y232.738
G01 X164.513 Y233.149
G01 X164.513 Y233.560
G01 X164.924 Y233.971
G01 X164.924 Y234.382
G01 X164.924 Y234.793
G01 X165.335 Y235.204
G01 X165.335 Y235.615
G01 X165.335 Y236.026
G01 X165.746 Y236.437
G01 X166.157 Y236.848
G01 X166.568 Y236.848
G01 X166.979 Y236.437
G01 X167.390 Y236.026
G01 X167.390 Y235.615
G01 X167.801 Y235.204
G01 X167.801 Y234.793
G01 X168.212 Y234.382
G01 X168.212 Y233.971
G01 X168.623 Y233.560
G01 X168.623 Y233.149
G01 X169.033 Y232.738
G01 X169.033 Y232.327
G01 X169.444 Y231.916
G01 X169.444 Y231.505
G01 X169.855 Y231.094
G01 X169.855 Y230.683
G01 X170.266 Y230.272
G01 X170.266 Y229.861
G01 X170.677 Y229.450
G01 X170.677 Y229.039
G01 X171.088 Y228.628
G01 X171.499 Y228.217
G01 X171.910 Y227.806
G01 X172.321 Y227.806
G01 X172.321 Y228.217
G01 X172.321 Y228.628
G01 X172.321 Y229.039
G01 X172.321 Y229.450
G01 X172.321 Y229.861
G01 X171.910 Y230.272
G01 X171.910 Y230.683
G01 X171.910 Y231.094
G01 X171.910 Y231.505
G01 X171.499 Y231.916
G01 X171.499 Y232.327
G01 X171.499 Y232.738
G01 X171.499 Y233.149
G01 X171.499 Y233.560
G01 X171.499 Y233.971
G01 X171.499 Y234.382
G01 X171.088 Y234.793
G01 X171.088 Y235.204
G01 X171.088 Y235.615
G01 X171.088 Y236.026
G01 X171.088 Y236.437
G01 X171.088 Y236.848
G01 X171.088 Y237.259
G01 X171.088 Y237.670
G01 X171.088 Y238.081
G01 X171.088 Y238.492
G01 X171.088 Y238.903
G01 X171.088 Y239.314
G01 X171.088 Y239.725
G01 X171.088 Y240.136
G01 X171.088 Y240.547
G01 X171.088 Y240.958
G01 X171.088 Y241.369
G01 X171.088 Y241.780
G01 X171.088 Y242.191
G01 X171.088 Y242.602
G01 X171.088 Y243.013
G01 X171.088 Y243.424
G01 X171.499 Y243.835
G01 X171.499 Y244.246
G01 X171.499 Y244.657
G01 X171.499 Y245.068
G01 X171.499 Y245.479
G01 X171.499 Y245.890
G01 X171.499 Y246.301
G01 X171.499 Y246.712
G01 X171.499 Y247.123
G01 X171.499 Y247.534
G01 X171.499 Y247.945
G01 X171.499 Y248.356
G01 X171.499 Y248.767
G01 X171.910 Y249.178
G01 X171.910 Y249.589
G01 X171.910 Y250.000
G01 X171.910 Y250.411
G01 X171.910 Y250.822
G01 X171.910 Y251.233
G01 X171.910 Y251.644
G01 X171.910 Y252.055
G01 X171.910 Y252.466
G01 X171.910 Y252.877
G01 X172.321 Y253.288
G01 X172.321 Y253.699
G01 X172.321 Y254.110
G01 X172.321 Y254.521
G01 X172.321 Y254.932
G01 X172.321 Y255.343
G01 X172.321 Y255.754
G01 X172.321 Y256.165
G01 X172.321 Y256.576
G01 X172.321 Y256.987
G01 X172.732 Y257.398
G01 X172.732 Y257.809
G01 X172.732 Y258.220
G01 X172.732 Y258.631
G01 X172.732 Y259.042
G01 X172.732 Y259.453
G01 X172.732 Y259.864
G01 X172.732 Y260.275
G01 X172.732 Y260.686
G01 X172.732 Y261.097
G01 X173.143 Y261.508
G01 X173.143 Y261.919
G01 X173.143 Y262.330
G01 X173.143 Y262.741
G01 X173.143 Y263.152
G01 X173.143 Y263.563
G01 X173.143 Y263.974
G01 X173.143 Y264.385
G01 X173.143 Y264.796
G01 X173.143 Y265.207
G01 X173.143 Y265.618
G01 X173.143 Y266.029
G01 X173.554 Y266.440
G01 X173.554 Y266.851
G01 X173.554 Y267.262
G01 X173.554 Y267.673
G01 X173.554 Y268.084
G01 X173.554 Y268.495
G01 X173.554 Y268.906
G01 X173.554 Y269.317
G01 X173.554 Y269.728
G01 X173.554 Y270.139
G01 X173.554 Y270.550
G01 X173.554 Y270.961
G01 X173.554 Y271.372
G01 X173.554 Y271.783
G01 X173.554 Y272.194
G01 X173.965 Y272.605
G01 X173.965 Y273.016
G01 X173.965 Y273.427
G01 X173.965 Y273.838
G01 X173.965 Y274.249
G01 X173.965 Y274.660
G01 X173.965 Y275.071
G01 X173.965 Y275.482
G01 X173.965 Y275.893
G01 X173.965 Y276.304
G01 X173.965 Y276.715
G01 X173.965 Y277.126
G01 X173.965 Y277.537
G01 X173.965 Y277.948
G01 X173.965 Y278.359
G01 X173.965 Y278.770
G01 X173.965 Y279.181
G01 X173.965 Y279.592
G01 X173.965 Y280.003
G01 X173.965 Y280.414
G01 X173.965 Y280.825
G01 X173.965 Y281.236
G01 X173.965 Y281.647
G01 X173.965 Y282.058
G01 X173.554 Y282.469
G01 X173.554 Y282.880
G01 X173.554 Y283.291
G01 X173.554 Y283.702
G01 X173.554 Y284.113
G01 X173.554 Y284.524
G01 X173.554 Y284.935
G01 X173.554 Y285.346
G01 X173.554 Y285.757
G01 X173.143 Y286.168
G01 X173.143 Y286.579
G01 X173.143 Y286.990
G01 X173.143 Y287.401
G01 X173.143 Y287.812
G01 X173.143 Y288.223
G01 X172.732 Y288.634
G01 X172.732 Y289.045
G01 X172.732 Y289.456
G01 X172.732 Y289.867
G01 X172.732 Y290.278
G01 X172.321 Y290.689
G01 X172.321 Y291.100
G01 X172.321 Y291.511
G01 X172.321 Y291.922
G01 X172.321 Y292.333
G01 X171.910 Y292.744
G01 X171.910 Y293.155
G01 X171.910 Y293.566
G01 X171.910 Y293.977
G01 X171.499 Y294.388
G01 X171.499 Y294.799
G01 X171.088 Y295.210
G01 X171.088 Y295.621
G01 X171.088 Y296.032
G01 X171.088 Y296.443
G01 X171.088 Y296.854
G01 X171.088 Y297.265
G01 X171.088 Y297.676
G01 X171.088 Y298.087
G01 X171.088 Y298.498
G01 X170.677 Y298.909
G01 X170.266 Y299.320
G01 X170.266 Y299.731
G01 X169.855 Y300.142
G01 X169.855 Y300.553
G01 X169.855 Y300.964
G01 X169.855 Y301.375
G01 X169.444 Y301.786
G01 X169.444 Y302.197
G01 X169.033 Y302.197
G01 X169.033 Y302.608
G01 X169.033 Y303.019
G01 X169.033 Y303.430
G01 X169.033 Y303.841
G01 X169.033 Y304.252
G01 X169.033 Y304.663
G01 X169.033 Y305.074
G01 X168.623 Y305.485
G01 X168.623 Y305.896
G01 X168.623 Y306.307
G01 X168.212 Y306.718
G01 X168.212 Y307.129
G01 X168.212 Y307.540
G01 X168.212 Y307.951
G01 X168.212 Y308.362
G01 X167.801 Y308.773
G01 X167.801 Y309.184
G01 X167.801 Y309.595
G01 X167.801 Y310.006
G01 X167.390 Y310.417
G01 X167.390 Y310.828
G01 X167.390 Y311.239
G01 X167.390 Y311.650
G01 X167.390 Y312.061
G01 X166.979 Y312.472
G01 X166.979 Y312.883
G01 X166.979 Y313.294
G01 X166.979 Y313.705
G01 X166.979 Y314.116
G01 X166.979 Y314.527
G01 X166.979 Y314.938
G01 X166.568 Y315.349
G01 X166.568 Y315.760
G01 X166.568 Y316.171
G01 X166.568 Y316.582
G01 X166.568 Y316.993
G01 X166.568 Y317.404
G01 X166.568 Y317.815
G01 X166.568 Y318.226
G01 X166.568 Y318.637
G01 X166.568 Y319.048
G01 X166.568 Y319.459
G01 X166.568 Y319.870
G01 X166.568 Y320.281
G01 X166.979 Y320.692
G01 X166.979 Y321.103
G01 X166.979 Y321.514
G01 X166.979 Y321.925
G01 X166.979 Y322.336
G01 X166.979 Y322.747
G01 X166.979 Y323.158
G01 X167.390 Y323.569
G01 X167.390 Y323.980
G01 X167.390 Y324.391
G01 X167.390 Y324.802
G01 X167.390 Y325.213
G01 X167.801 Y325.624
G01 X167.801 Y326.035
G01 X167.801 Y326.446
G01 X167.801 Y326.857
G01 X168.212 Y327.268
G01 X168.212 Y327.679
G01 X168.212 Y328.090
G01 X168.623 Y328.501
G01 X168.623 Y328.912
G01 X168.623 Y329.323
G01 X169.033 Y329.734
G01 X169.033 Y330.145
G01 X169.033 Y330.556
G01 X169.444 Y330.967
G01 X169.444 Y331.377
G01 X169.444 Y331.788
G01 X169.855 Y332.199
G01 X169.855 Y332.610
G01 X170.266 Y333.021
G01 X170.266 Y333.432
G01 X170.677 Y333.843
G01 X170.677 Y334.254
G01 X171.088 Y334.665
G01 X171.088 Y335.076
G01 X171.499 Y335.487
G01 X171.910 Y335.898
G01 X171.910 Y336.309
G01 X172.321 Y336.720
G01 X172.321 Y337.131
G01 X172.732 Y337.542
G01 X173.143 Y337.953
G01 X173.554 Y338.364
G01 X173.965 Y338.775
G01 X174.376 Y339.186
G01 X174.787 Y339.597
G01 X175.198 Y340.008
G01 X175.609 Y340.419
G01 X176.020 Y340.830
G01 X176.431 Y341.241
G01 X176.842 Y341.652
G01 X177.253 Y342.063
G01 X177.664 Y342.474
G01 X178.075 Y342.474
G01 X178.486 Y342.885
G01 X178.897 Y343.296
G01 X179.308 Y342.885
G01 X179.719 Y342.885
G01 X179.719 Y343.296
G01 X180.130 Y343.707
G01 X180.541 Y344.118
G01 X180.952 Y344.529
G01 X181.363 Y344.940
G01 X181.774 Y345.351
G01 X182.185 Y345.351
G01 X182.596 Y345.351
G01 X183.007 Y345.351
G01 X183.418 Y345.762
G01 X183.829 Y345.762
G01 X184.240 Y345.762
G01 X184.651 Y345.762
G01 X185.062 Y346.173
G01 X185.473 Y346.173
G01 X185.884 Y346.173
G01 X186.295 Y346.173
G01 X186.706 Y346.173
G01 X187.117 Y346.173
G01 X187.528 Y346.584
G01 X187.939 Y346.584
G01 X188.350 Y346.584
G01 X188.761 Y346.584
G01 X189.172 Y346.584
G01 X189.583 Y346.584
G01 X189.994 Y346.584
G01 X190.405 Y346.584
G01 X190.816 Y346.584
G01 X191.227 Y346.584
G01 X191.638 Y346.173
G01 X192.049 Y346.173
G01 X192.049 Y345.762
G01 X192.049 Y345.351
G01 X192.049 Y344.940
G01 X192.049 Y344.529
G01 X191.638 Y344.118
G01 X191.638 Y343.707
G01 X191.227 Y343.296
G01 X191.227 Y342.885
G01 X190.816 Y342.474
G01 X190.816 Y342.063
G01 X190.405 Y341.652
G01 X190.405 Y341.241
G01 X189.994 Y340.830
G01 X189.994 Y340.419
G01 X189.994 Y340.008
G01 X190.405 Y340.008
G01 X190.816 Y339.597
G01 X191.227 Y340.008
G01 X191.638 Y340.419
G01 X192.049 Y340.830
G01 X192.049 Y341.241
G01 X192.460 Y341.652
G01 X192.871 Y342.063
G01 X193.282 Y342.474
G01 X193.693 Y342.885
G01 X194.104 Y343.296
G01 X194.515 Y343.707
G01 X194.926 Y344.118
G01 X195.337 Y344.529
G01 X195.748 Y344.940
G01 X196.159 Y345.351
G01 X196.159 Y345.762
G01 X196.159 Y346.173
G01 X196.570 Y346.173
G01 X196.981 Y346.173
G01 X197.392 Y346.173
G01 X197.803 Y346.173
G01 X198.214 Y346.173
G01 X198.625 Y346.173
G01 X199.036 Y346.173
G01 X199.447 Y346.173
G01 X199.858 Y345.762
G01 X200.269 Y345.762
G01 X200.680 Y345.762
G01 X201.091 Y345.762
G01 X201.502 Y345.762
G01 X201.913 Y345.762
G01 X202.324 Y345.762
G01 X202.735 Y345.762
G01 X203.146 Y345.762
G01 X203.557 Y345.762
G01 X203.968 Y345.351
G01 X204.379 Y345.351
G01 X204.790 Y345.351
G01 X205.201 Y345.351
G01 X205.612 Y345.351
G01 X206.023 Y345.351
G01 X206.434 Y345.351
G01 X206.845 Y345.351
G01 X207.256 Y345.351
G01 X207.667 Y344.940
G01 X208.078 Y344.940
G01 X208.489 Y344.940
G01 X208.900 Y344.940
G01 X209.311 Y344.940
G01 X209.722 Y344.940
G01 X210.133 Y344.940
G01 X210.544 Y344.940
G01 X210.955 Y344.529
G01 X211.366 Y344.118
G01 X210.955 Y343.707
G01 X210.544 Y343.707
G01 X210.133 Y343.707
G01 X209.722 Y343.707
G01 X209.311 Y343.707
G01 X208.900 Y343.707
G01 X208.489 Y343.296
G01 X208.078 Y343.296
G01 X207.667 Y343.296
G01 X207.256 Y343.296
G01 X206.845 Y343.296
G01 X206.434 Y342.885
G01 X206.023 Y342.885
G01 X205.612 Y342.885
G01 X205.201 Y342.885
G01 X204.790 Y342.474
G01 X204.379 Y342.474
G01 X203.968 Y342.474
G01 X203.557 Y342.063
G01 X203.146 Y342.063
G01 X202.735 Y342.063
G01 X202.324 Y341.652
G01 X201.913 Y341.652
G01 X201.502 Y341.652
G01 X201.091 Y341.241
G01 X200.680 Y341.241
G01 X200.269 Y340.830
G01 X199.858 Y340.830
G01 X199.447 Y340.419
G01 X199.036 Y340.419
G01 X198.625 Y340.008
G01 X198.214 Y340.008
G01 X197.803 Y339.597
G01 X197.392 Y339.186
G01 X196.981 Y338.775
G01 X196.570 Y338.364
G01 X196.159 Y337.953
G01 X195.748 Y337.542
G01 X195.337 Y337.131
G01 X194.926 Y336.720
G01 X194.515 Y336.309
G01 X194.104 Y335.898
G01 X194.104 Y335.487
G01 X193.693 Y335.076
G01 X193.693 Y334.665
G01 X193.693 Y334.254
G01 X193.693 Y334.665
G01 X193.693 Y335.076
G01 X194.104 Y335.487
G01 X194.104 Y335.898
G01 X194.515 Y336.309
G01 X194.926 Y336.720
G01 X195.337 Y337.131
G01 X195.748 Y337.542
G01 X196.159 Y337.953
G01 X196.570 Y338.364
G01 X196.981 Y338.775
G01 X197.392 Y339.186
G01 X197.803 Y339.597
G01 X198.214 Y340.008
G01 X198.625 Y340.008
G01 X199.036 Y340.419
G01 X199.447 Y340.419
G01 X199.858 Y340.830
G01 X200.269 Y340.830
G01 X200.680 Y341.241
G01 X201.091 Y341.241
G01 X201.502 Y341.652
G01 X201.913 Y341.652
G01 X202.324 Y341.652
G01 X202.735 Y342.063
G01 X203.146 Y342.063
G01 X203.557 Y342.063
G01 X203.968 Y342.474
G01 X204.379 Y342.474
G01 X204.790 Y342.474
G01 X205.201 Y342.885
G01 X205.612 Y342.885
G01 X206.023 Y342.885
G01 X206.434 Y342.885
G01 X206.845 Y343.296
G01 X207.256 Y343.296
G01 X207.667 Y343.296
G01 X208.078 Y343.296
G01 X208.489 Y343.296
G01 X208.900 Y343.707
G01 X209.311 Y343.707
G01 X209.722 Y343.707
G01 X210.133 Y343.707
G01 X210.544 Y343.707
G01 X210.955 Y343.707
G01 X211.366 Y344.118
G01 X211.777 Y344.118
G01 X212.188 Y344.118
G01 X212.599 Y344.118
G01 X213.010 Y344.118
G01 X213.421 Y344.118
G01 X213.832 Y344.118
G01 X214.243 Y344.118
G01 X214.654 Y344.118
G01 X215.065 Y344.118
G01 X215.476 Y344.118
G01 X215.887 Y344.118
G01 X216.298 Y344.118
G01 X216.709 Y344.118
G01 X217.120 Y344.118
G01 X217.531 Y344.118
G01 X217.942 Y344.118
G01 X218.353 Y344.118
G01 X218.764 Y344.529
G01 X219.175 Y344.529
G01 X219.586 Y344.529
G01 X219.997 Y344.529
G01 X220.408 Y344.529
G01 X220.819 Y344.529
G01 X221.230 Y344.529
G01 X221.641 Y344.529
G01 X222.052 Y344.529
G01 X222.463 Y344.529
G01 X222.874 Y344.529
G01 X223.285 Y344.940
G01 X223.696 Y344.940
G01 X224.107 Y344.940
G01 X224.518 Y344.940
G01 X224.929 Y345.351
G01 X225.340 Y345.351
G01 X225.751 Y345.351
G01 X226.162 Y345.762
G01 X226.573 Y345.762
G01 X226.984 Y345.762
G01 X227.395 Y346.173
G01 X227.806 Y346.173
G01 X228.217 Y346.173
G01 X228.628 Y346.584
G01 X229.039 Y346.584
G01 X229.450 Y346.995
G01 X229.861 Y346.995
G01 X230.272 Y347.406
G01 X230.683 Y347.406
G01 X231.094 Y347.817
G01 X231.505 Y348.228
G01 X231.916 Y348.228
G01 X232.327 Y348.639
G01 X232.738 Y348.639
G01 X233.149 Y349.050
G01 X233.560 Y349.461
G01 X233.971 Y349.461
G01 X234.382 Y349.872
G01 X234.793 Y350.283
G01 X235.204 Y350.694
G01 X235.615 Y351.105
G01 X236.026 Y351.516
G01 X236.437 Y351.927
G01 X236.437 Y352.338
G01 X236.026 Y352.338
G01 X236.437 Y352.749
G01 X236.026 Y352.338
G01 X236.437 Y352.338
G01 X236.437 Y352.749
G01 X236.848 Y352.749
G01 X236.437 Y352.749
G01 X236.437 Y352.338
G01 X236.848 Y352.338
G01 X236.437 Y352.338
G01 X236.437 Y351.927
G01 X236.848 Y352.338
G01 X237.259 Y352.749
G01 X237.670 Y353.160
G01 X238.081 Y353.571
G01 X238.492 Y353.982
G01 X238.903 Y354.393
G01 X239.314 Y354.804
G01 X239.725 Y354.804
G01 X240.136 Y355.215
G01 X240.547 Y355.626
G01 X240.958 Y356.037
G01 X241.369 Y356.448
G01 X241.780 Y356.859
G01 X242.191 Y357.270
G01 X242.602 Y357.270
G01 X243.013 Y357.681
G01 X243.424 Y358.092
G01 X243.835 Y358.503
G01 X244.246 Y358.503
G01 X243.835 Y358.503
G01 X243.424 Y358.092
G01 X243.013 Y357.681
G01 X242.602 Y357.270
G01 X242.191 Y357.270
G01 X241.780 Y356.859
G01 X241.369 Y356.448
G01 X240.958 Y356.037
G01 X240.547 Y355.626
G01 X240.136 Y355.215
G01 X239.725 Y354.804
G01 X239.314 Y354.804
G01 X238.903 Y354.393
G01 X238.492 Y353.982
G01 X238.081 Y353.571
G01 X237.670 Y353.160
G01 X237.259 Y352.749
G01 X236.848 Y352.338
G01 X236.437 Y351.927
G01 X236.026 Y351.516
G01 X235.615 Y351.105
G01 X235.204 Y350.694
G01 X234.793 Y350.283
G01 X234.382 Y349.872
G01 X233.971 Y349.461
G01 X233.560 Y349.461
G01 X233.149 Y349.050
G01 X232.738 Y348.639
G01 X232.327 Y348.639
G01 X231.916 Y348.228
G01 X231.505 Y348.228
G01 X231.094 Y347.817
G01 X230.683 Y347.406
G01 X230.272 Y347.406
G01 X229.861 Y346.995
G01 X229.450 Y346.995
G01 X229.039 Y346.584
G01 X228.628 Y346.584
G01 X228.217 Y346.173
G01 X227.806 Y346.173
G01 X227.395 Y346.173
G01 X226.984 Y345.762
G01 X226.573 Y345.762
G01 X226.162 Y345.762
G01 X225.751 Y345.351
G01 X225.340 Y345.351
G01 X224.929 Y345.351
G01 X224.518 Y344.940
G01 X224.107 Y344.940
G01 X223.696 Y344.940
G01 X223.285 Y344.940
G01 X222.874 Y344.529
G01 X222.463 Y344.529
G01 X222.052 Y344.529
G01 X221.641 Y344.529
G01 X221.230 Y344.529
G01 X220.819 Y344.529
G01 X220.408 Y344.529
G01 X219.997 Y344.529
G01 X219.586 Y344.529
G01 X219.175 Y344.529
G01 X218.764 Y344.529
G01 X218.353 Y344.118
G01 X217.942 Y344.118
G01 X217.531 Y344.118
G01 X217.120 Y344.118
G01 X217.120 Y343.707
G01 X217.531 Y343.296
G01 X217.942 Y342.885
G01 X218.353 Y342.885
G01 X218.764 Y342.885
G01 X219.175 Y342.885
G01 X219.586 Y342.474
G01 X219.997 Y342.474
G01 X220.408 Y342.063
G01 X220.819 Y342.063
G01 X221.230 Y342.063
G01 X221.641 Y341.652
G01 X222.052 Y341.652
G01 X222.463 Y341.241
G01 X222.874 Y341.241
G01 X223.285 Y340.830
G01 X223.696 Y340.830
G01 X224.107 Y340.419
G01 X224.518 Y340.419
G01 X224.929 Y340.008
G01 X225.340 Y340.008
G01 X225.751 Y339.597
G01 X226.162 Y339.597
G01 X226.573 Y339.186
G01 X226.984 Y339.186
G01 X227.395 Y338.775
G01 X227.806 Y338.775
G01 X228.217 Y338.364
G01 X228.628 Y338.364
G01 X229.039 Y337.953
G01 X229.450 Y337.542
G01 X229.861 Y337.542
G01 X230.272 Y337.131
G01 X230.683 Y337.131
G01 X231.094 Y336.720
G01 X231.505 Y336.720
G01 X231.916 Y336.309
G01 X232.327 Y335.898
G01 X232.738 Y335.898
G01 X233.149 Y335.487
G01 X233.560 Y335.487
G01 X233.971 Y335.076
G01 X234.382 Y334.665
G01 X234.793 Y334.665
G01 X235.204 Y334.254
G01 X235.615 Y334.254
G01 X236.026 Y333.843
G01 X236.437 Y333.432
G01 X236.848 Y333.432
G01 X237.259 Y333.021
G01 X237.670 Y333.021
G01 X238.081 Y332.610
G01 X238.492 Y332.199
G01 X238.903 Y332.199
G01 X239.314 Y331.788
G01 X239.725 Y331.788
G01 X240.136 Y331.377
G01 X240.136 Y330.967
G01 X239.725 Y330.556
G01 X239.725 Y330.145
G01 X239.314 Y329.734
G01 X238.903 Y329.323
G01 X238.492 Y328.912
G01 X238.492 Y328.501
G01 X238.081 Y328.090
G01 X238.081 Y327.679
G01 X238.081 Y327.268
G01 X238.081 Y326.857
G01 X238.081 Y326.446
G01 X238.081 Y326.035
G01 X237.670 Y325.624
G01 X237.670 Y325.213
G01 X237.670 Y324.802
G01 X237.670 Y324.391
G01 X237.670 Y323.980
G01 X237.670 Y323.569
G01 X237.670 Y323.158
G01 X237.259 Y322.747
G01 X237.259 Y322.336
G01 X237.259 Y321.925
G01 X237.259 Y321.514
G01 X237.259 Y321.103
G01 X236.848 Y320.692
G01 X236.848 Y320.281
G01 X236.848 Y319.870
G01 X236.848 Y319.459
G01 X236.437 Y319.048
G01 X236.437 Y318.637
G01 X236.437 Y318.226
G01 X236.026 Y317.815
G01 X236.026 Y317.404
G01 X236.026 Y316.993
G01 X235.615 Y316.582
G01 X235.615 Y316.171
G01 X235.615 Y315.760
G01 X235.204 Y315.349
G01 X235.204 Y314.938
G01 X235.204 Y314.527
G01 X234.793 Y314.116
G01 X234.793 Y313.705
G01 X234.793 Y313.294
G01 X234.382 Y312.883
G01 X234.382 Y312.472
G01 X234.382 Y312.061
G01 X233.971 Y311.650
G01 X233.971 Y311.239
G01 X233.971 Y310.828
G01 X233.971 Y310.417
G01 X233.560 Y310.006
G01 X233.560 Y309.595
G01 X233.560 Y309.184
G01 X233.560 Y308.773
G01 X233.560 Y308.362
G01 X233.560 Y307.951
G01 X233.560 Y307.540
G01 X233.560 Y307.129
G01 X233.560 Y306.718
G01 X233.560 Y306.307
G01 X233.560 Y305.896
G01 X233.560 Y305.485
G01 X233.560 Y305.074
G01 X233.560 Y304.663
G01 X233.560 Y304.252
G01 X233.560 Y303.841
G01 X233.560 Y303.430
G01 X233.971 Y303.019
G01 X233.971 Y302.608
G01 X233.971 Y302.197
G01 X233.971 Y301.786
G01 X234.382 Y301.375
G01 X234.382 Y300.964
G01 X234.793 Y300.553
G01 X234.793 Y300.142
G01 X234.793 Y299.731
G01 X235.204 Y299.320
G01 X235.204 Y298.909
G01 X235.615 Y298.498
G01 X236.026 Y298.087
G01 X236.026 Y297.676
G01 X236.437 Y297.265
G01 X236.848 Y296.854
G01 X237.259 Y296.443
G01 X237.670 Y296.854
G01 X237.259 Y296.443
G01 X237.259 Y296.032
G01 X237.670 Y295.621
G01 X238.081 Y295.210
G01 X238.492 Y294.799
G01 X238.903 Y294.799
G01 X239.314 Y294.799
G01 X239.725 Y294.388
G01 X240.136 Y293.977
G01 X240.547 Y293.566
G01 X240.958 Y293.155
G01 X241.369 Y292.744
G01 X241.780 Y292.333
G01 X242.191 Y292.333
G01 X242.602 Y292.333
G01 X243.013 Y291.922
G01 X243.424 Y291.511
G01 X243.835 Y291.511
G01 X244.246 Y291.100
G01 X244.657 Y290.689
G01 X244.657 Y290.278
G01 X244.246 Y289.867
G01 X244.657 Y289.456
G01 X245.068 Y289.456
G01 X245.068 Y289.867
G01 X245.068 Y290.278
G01 X245.479 Y289.867
G01 X245.890 Y289.867
G01 X246.301 Y289.867
G01 X246.712 Y289.456
G01 X247.123 Y289.045
G01 X247.534 Y288.634
G01 X247.945 Y289.045
G01 X248.356 Y289.045
G01 X248.767 Y288.634
G01 X248.767 Y288.223
G01 X248.767 Y288.634
G01 X249.178 Y288.634
G01 X249.178 Y288.223
G01 X249.178 Y288.634
G01 X249.589 Y288.634
G01 X250.000 Y288.634
G01 X250.411 Y288.223
G01 X250.822 Y288.223
G01 X251.233 Y288.223
G01 X251.644 Y288.223
G01 X252.055 Y288.223
G01 X252.466 Y288.223
G01 X252.877 Y287.812
G01 X253.288 Y287.812
G01 X253.699 Y287.812
G01 X254.110 Y287.812
G01 X254.521 Y287.812
G01 X254.932 Y287.812
G01 X255.343 Y287.812
G01 X255.754 Y287.812
G01 X256.165 Y287.812
G01 X256.576 Y287.812
G01 X256.987 Y287.812
G01 X257.398 Y288.223
G01 X257.809 Y288.223
G01 X258.220 Y288.223
G01 X258.631 Y288.223
G01 X259.042 Y287.812
G01 X259.453 Y287.812
G01 X259.453 Y288.223
G01 X259.864 Y288.634
G01 X260.275 Y288.634
G01 X260.686 Y288.634
G01 X261.097 Y288.634
G01 X261.508 Y289.045
G01 X261.919 Y289.045
G01 X262.330 Y289.456
G01 X262.741 Y289.456
G01 X263.152 Y289.456
G01 X263.152 Y289.045
G01 X263.152 Y289.456
G01 X263.563 Y289.867
G01 X263.974 Y290.278
G01 X264.385 Y290.278
G01 X264.796 Y290.689
G01 X265.207 Y290.689
G01 X265.618 Y290.689
G01 X266.029 Y291.100
G01 X265.618 Y290.689
G01 X265.207 Y290.689
G01 X264.796 Y290.689
G01 X264.385 Y290.278
G01 X263.974 Y290.278
G01 X263.563 Y289.867
G01 X263.152 Y289.456
G01 X262.741 Y289.456
G01 X262.741 Y289.045
G01 X263.152 Y289.045
G01 X262.741 Y289.045
G01 X262.741 Y289.456
G01 X262.330 Y289.456
G01 X261.919 Y289.045
G01 X261.508 Y289.045
G01 X261.097 Y288.634
G01 X260.686 Y288.634
G01 X260.275 Y288.634
G01 X259.864 Y288.634
G01 X259.453 Y288.223
G01 X259.042 Y288.223
G01 X259.453 Y288.223
G01 X259.453 Y287.812
G01 X259.042 Y287.812
G01 X258.631 Y288.223
G01 X258.220 Y288.223
G01 X257.809 Y288.223
G01 X257.398 Y288.223
G01 X256.987 Y287.812
G01 X256.576 Y287.812
G01 X256.165 Y287.812
G01 X255.754 Y287.812
G01 X255.343 Y287.812
G01 X254.932 Y287.812
G01 X254.521 Y287.812
G01 X254.110 Y287.812
G01 X253.699 Y287.812
G01 X253.288 Y287.812
G01 X252.877 Y287.812
G01 X252.466 Y288.223
G01 X252.055 Y288.223
G01 X251.644 Y288.223
G01 X251.233 Y288.223
G01 X250.822 Y288.223
G01 X250.411 Y288.223
G01 X250.000 Y288.634
G01 X249.589 Y288.634
G01 X249.178 Y288.634
G01 X248.767 Y288.634
G01 X248.356 Y289.045
G01 X247.945 Y289.045
G01 X247.534 Y289.045
G01 X247.945 Y289.045
G01 X247.534 Y288.634
G01 X247.534 Y288.223
G01 X247.534 Y288.634
G01 X247.123 Y289.045
G01 X246.712 Y289.456
G01 X246.712 Y289.045
G01 X247.123 Y289.045
G01 X246.712 Y289.045
G01 X246.712 Y289.456
G01 X246.301 Y289.867
G01 X245.890 Y289.867
G01 X245.479 Y289.867
G01 X245.068 Y289.867
G01 X245.479 Y289.867
G01 X245.068 Y290.278
G01 X244.657 Y290.278
G01 X245.068 Y290.278
G01 X245.068 Y289.867
G01 X245.068 Y289.456
G01 X245.479 Y289.045
G01 X245.890 Y288.634
G01 X246.301 Y288.634
G01 X246.712 Y288.634
G01 X246.712 Y289.045
G01 X246.712 Y288.634
G01 X247.123 Y288.223
G01 X247.534 Y287.812
G01 X247.945 Y287.812
G01 X248.356 Y287.812
G01 X248.767 Y287.812
G01 X249.178 Y287.401
G01 X249.589 Y287.401
G01 X250.000 Y286.990
G01 X250.411 Y286.990
G01 X250.822 Y286.990
G01 X251.233 Y286.990
G01 X251.644 Y286.990
G01 X252.055 Y286.579
G01 X252.466 Y286.579
G01 X252.877 Y286.579
G01 X253.288 Y286.579
G01 X253.699 Y286.579
G01 X254.110 Y286.579
G01 X254.521 Y286.579
G01 X254.932 Y286.579
G01 X255.343 Y286.579
G01 X255.754 Y286.579
G01 X256.165 Y286.579
G01 X256.576 Y286.579
G01 X256.987 Y286.579
G01 X257.398 Y286.579
G01 X257.809 Y286.990
G01 X258.220 Y286.990
G01 X258.631 Y286.990
G01 X259.042 Y286.990
G01 X259.453 Y287.401
G01 X259.453 Y287.812
G01 X259.453 Y287.401
G01 X259.864 Y287.401
G01 X260.275 Y287.401
G01 X260.686 Y287.401
G01 X261.097 Y287.812
G01 X261.508 Y287.812
G01 X261.919 Y287.812
G01 X262.330 Y288.223
G01 X262.741 Y288.223
G01 X263.152 Y288.223
G01 X263.152 Y288.634
G01 X263.563 Y288.634
G01 X263.974 Y288.634
G01 X264.385 Y288.634
G01 X264.796 Y289.045
G01 X265.207 Y289.045
G01 X265.618 Y289.456
G01 X266.029 Y289.867
G01 X266.440 Y290.278
G01 X266.029 Y289.867
G01 X265.618 Y289.456
G01 X265.207 Y289.045
G01 X264.796 Y289.045
G01 X264.385 Y288.634
G01 X263.974 Y288.634
G01 X263.563 Y288.634
G01 X263.152 Y288.634
G01 X263.152 Y289.045
G01 X263.152 Y288.634
G01 X263.152 Y288.223
G01 X262.741 Y288.223
G01 X262.330 Y288.223
G01 X261.919 Y287.812
G01 X261.508 Y287.812
G01 X261.097 Y287.812
G01 X260.686 Y287.401
G01 X260.275 Y287.401
G01 X259.864 Y287.401
G01 X259.453 Y287.401
G01 X259.042 Y286.990
G01 X258.631 Y286.990
G01 X258.220 Y286.990
G01 X257.809 Y286.990
G01 X257.398 Y286.579
G01 X256.987 Y286.579
G01 X256.576 Y286.579
G01 X256.165 Y286.579
G01 X255.754 Y286.579
G01 X255.343 Y286.579
G01 X254.932 Y286.579
G01 X254.521 Y286.579
G01 X254.110 Y286.579
G01 X253.699 Y286.579
G01 X253.288 Y286.579
G01 X252.877 Y286.579
G01 X252.466 Y286.579
G01 X252.055 Y286.579
G01 X251.644 Y286.990
G01 X251.233 Y286.990
G01 X250.822 Y286.990
G01 X250.411 Y286.990
G01 X250.000 Y286.990
G01 X249.589 Y287.401
G01 X249.178 Y287.401
G01 X248.767 Y287.812
G01 X248.767 Y288.223
G01 X249.178 Y288.223
G01 X248.767 Y288.223
G01 X248.767 Y287.812
G01 X248.356 Y287.812
G01 X247.945 Y287.812
G01 X247.534 Y287.812
G01 X247.123 Y288.223
G01 X246.712 Y288.634
G01 X246.301 Y288.634
G01 X245.890 Y288.634
G01 X245.479 Y289.045
G01 X245.068 Y289.456
G01 X244.657 Y289.456
G01 X244.246 Y289.867
G01 X244.657 Y290.278
G01 X244.657 Y290.689
G01 X244.246 Y291.100
G01 X243.835 Y291.511
G01 X243.424 Y291.511
G01 X243.424 Y291.100
G01 X243.013 Y290.689
G01 X243.424 Y291.100
G01 X243.424 Y291.511
G01 X243.013 Y291.922
G01 X242.602 Y292.333
G01 X242.191 Y292.333
G01 X241.780 Y292.333
G01 X241.369 Y292.333
G01 X241.780 Y292.333
G01 X241.369 Y292.744
G01 X240.958 Y292.744
G01 X241.369 Y292.744
G01 X241.369 Y292.333
G01 X240.958 Y292.333
G01 X240.958 Y292.744
G01 X240.547 Y292.744
G01 X240.547 Y293.155
G01 X240.958 Y293.155
G01 X240.547 Y293.155
G01 X240.136 Y293.155
G01 X240.136 Y293.566
G01 X240.547 Y293.566
G01 X240.136 Y293.566
G01 X239.725 Y293.566
G01 X239.725 Y293.977
G01 X240.136 Y293.977
G01 X239.725 Y293.977
G01 X239.314 Y293.977
G01 X239.314 Y294.388
G01 X239.725 Y294.388
G01 X239.314 Y294.388
G01 X238.903 Y294.388
G01 X238.903 Y294.799
G01 X238.903 Y294.388
G01 X239.314 Y293.977
G01 X239.725 Y293.566
G01 X240.136 Y293.155
G01 X240.547 Y292.744
G01 X240.958 Y292.333
G01 X241.369 Y291.922
G01 X241.369 Y292.333
G01 X241.369 Y291.922
G01 X241.780 Y291.511
G01 X242.191 Y291.100
G01 X242.602 Y290.689
G01 X243.013 Y290.689
G01 X243.424 Y290.278
G01 X243.835 Y289.867
G01 X244.246 Y289.867
G01 X243.835 Y289.867
G01 X243.424 Y290.278
G01 X243.013 Y290.689
G01 X242.602 Y290.689
G01 X242.191 Y291.100
G01 X241.780 Y291.511
G01 X241.369 Y291.922
G01 X240.958 Y292.333
G01 X241.369 Y292.333
G01 X241.369 Y292.744
G01 X240.958 Y293.155
G01 X240.958 Y292.744
G01 X240.958 Y292.333
G01 X240.547 Y292.744
G01 X240.958 Y292.744
G01 X240.958 Y293.155
G01 X240.547 Y293.566
G01 X240.547 Y293.155
G01 X240.547 Y292.744
G01 X240.136 Y293.155
G01 X240.547 Y293.155
G01 X240.547 Y293.566
G01 X240.136 Y293.977
G01 X240.136 Y293.566
G01 X240.136 Y293.155
G01 X239.725 Y293.566
G01 X240.136 Y293.566
G01 X240.136 Y293.977
G01 X239.725 Y294.388
G01 X239.725 Y293.977
G01 X239.725 Y293.566
G01 X239.314 Y293.977
G01 X239.725 Y293.977
G01 X239.725 Y294.388
G01 X239.314 Y294.799
G01 X238.903 Y294.799
G01 X238.492 Y294.799
G01 X238.903 Y294.388
G01 X239.314 Y294.388
G01 X239.314 Y293.977
G01 X238.903 Y294.388
G01 X238.492 Y294.799
G01 X238.081 Y294.799
G01 X238.492 Y294.799
G01 X238.081 Y295.210
G01 X238.081 Y294.799
G01 X238.081 Y295.210
G01 X237.670 Y295.621
G01 X237.259 Y296.032
G01 X237.259 Y296.443
G01 X236.848 Y296.854
G01 X237.259 Y296.854
G01 X236.848 Y296.854
G01 X236.437 Y297.265
G01 X236.026 Y297.676
G01 X236.026 Y298.087
G01 X235.615 Y298.498
G01 X235.204 Y298.909
G01 X235.204 Y299.320
G01 X234.793 Y299.731
G01 X234.793 Y300.142
G01 X234.793 Y300.553
G01 X234.382 Y300.964
G01 X234.382 Y301.375
G01 X233.971 Y301.786
G01 X233.971 Y302.197
G01 X233.971 Y302.608
G01 X233.971 Y303.019
G01 X233.560 Y303.430
G01 X233.560 Y303.841
G01 X233.560 Y304.252
G01 X233.560 Y304.663
G01 X233.560 Y305.074
G01 X233.560 Y305.485
G01 X233.560 Y305.896
G01 X233.560 Y306.307
G01 X233.560 Y306.718
G01 X233.560 Y307.129
G01 X233.560 Y307.540
G01 X233.560 Y307.951
G01 X233.560 Y308.362
G01 X233.560 Y308.773
G01 X233.560 Y309.184
G01 X233.560 Y309.595
G01 X233.560 Y310.006
G01 X233.971 Y310.417
G01 X233.971 Y310.828
G01 X233.971 Y311.239
G01 X233.971 Y311.650
G01 X234.382 Y312.061
G01 X234.382 Y312.472
G01 X234.382 Y312.883
G01 X234.793 Y313.294
G01 X234.793 Y313.705
G01 X234.793 Y314.116
G01 X235.204 Y314.527
G01 X235.615 Y314.527
G01 X236.026 Y314.527
G01 X236.026 Y314.116
G01 X236.026 Y313.705
G01 X236.026 Y313.294
G01 X236.026 Y312.883
G01 X236.026 Y312.472
G01 X235.615 Y312.061
G01 X235.615 Y311.650
G01 X235.615 Y311.239
G01 X235.615 Y310.828
G01 X235.615 Y310.417
G01 X235.615 Y310.006
G01 X235.204 Y309.595
G01 X235.204 Y309.184
G01 X235.204 Y308.773
G01 X235.204 Y308.362
G01 X235.204 Y307.951
G01 X235.204 Y307.540
G01 X235.204 Y307.129
G01 X235.204 Y306.718
G01 X235.204 Y306.307
G01 X235.204 Y305.896
G01 X235.204 Y305.485
G01 X235.204 Y305.074
G01 X235.204 Y304.663
G01 X235.204 Y304.252
G01 X235.204 Y303.841
G01 X235.204 Y303.430
G01 X235.204 Y303.019
G01 X235.204 Y302.608
G01 X235.615 Y302.197
G01 X235.615 Y301.786
G01 X235.615 Y301.375
G01 X236.026 Y300.964
G01 X236.026 Y300.553
G01 X236.437 Y300.142
G01 X236.437 Y299.731
G01 X236.437 Y299.320
G01 X236.848 Y298.909
G01 X237.259 Y298.498
G01 X237.259 Y298.087
G01 X237.670 Y297.676
G01 X237.670 Y297.265
G01 X237.670 Y296.854
G01 X238.081 Y296.854
G01 X238.492 Y296.443
G01 X238.903 Y296.032
G01 X238.903 Y295.621
G01 X238.903 Y295.210
G01 X239.314 Y294.799
G01 X239.314 Y294.388
G01 X239.314 Y294.799
G01 X238.903 Y295.210
G01 X238.903 Y294.799
G01 X238.903 Y295.210
G01 X238.492 Y295.210
G01 X238.903 Y295.210
G01 X238.903 Y295.621
G01 X238.903 Y296.032
G01 X238.492 Y296.443
G01 X238.081 Y296.854
G01 X237.670 Y296.854
G01 X237.670 Y297.265
G01 X237.670 Y297.676
G01 X237.259 Y298.087
G01 X237.259 Y298.498
G01 X236.848 Y298.909
G01 X236.437 Y299.320
G01 X236.437 Y299.731
G01 X236.437 Y300.142
G01 X236.026 Y300.553
G01 X236.026 Y300.964
G01 X235.615 Y301.375
G01 X235.615 Y301.786
G01 X235.615 Y302.197
G01 X235.204 Y302.608
G01 X235.204 Y303.019
G01 X235.204 Y303.430
G01 X235.204 Y303.841
G01 X235.204 Y304.252
G01 X235.204 Y304.663
G01 X235.204 Y305.074
G01 X235.204 Y305.485
G01 X235.204 Y305.896
G01 X235.204 Y306.307
G01 X235.204 Y306.718
G01 X235.204 Y307.129
G01 X235.204 Y307.540
G01 X235.204 Y307.951
G01 X235.204 Y308.362
G01 X235.204 Y308.773
G01 X235.204 Y309.184
G01 X235.204 Y309.595
G01 X235.615 Y310.006
G01 X235.615 Y310.417
G01 X235.615 Y310.828
G01 X235.615 Y311.239
G01 X235.615 Y311.650
G01 X235.615 Y312.061
G01 X236.026 Y312.472
G01 X236.026 Y312.883
G01 X236.026 Y313.294
G01 X236.026 Y313.705
G01 X236.026 Y314.116
G01 X236.437 Y314.116
G01 X236.026 Y314.116
G01 X236.026 Y314.527
G01 X236.437 Y314.527
G01 X236.026 Y314.527
G01 X235.615 Y314.527
G01 X235.204 Y314.527
G01 X235.204 Y314.938
G01 X235.204 Y315.349
G01 X235.615 Y315.760
G01 X236.026 Y315.760
G01 X236.437 Y315.760
G01 X236.437 Y315.349
G01 X236.437 Y314.938
G01 X236.437 Y314.527
G01 X236.437 Y314.116
G01 X236.437 Y314.527
G01 X236.437 Y314.938
G01 X236.437 Y315.349
G01 X236.848 Y315.349
G01 X236.848 Y315.760
G01 X237.259 Y316.171
G01 X237.259 Y316.582
G01 X237.670 Y316.993
G01 X238.081 Y317.404
G01 X238.492 Y317.815
G01 X238.903 Y318.226
G01 X239.314 Y318.226
G01 X239.725 Y318.226
G01 X240.136 Y318.637
G01 X240.547 Y318.637
G01 X240.958 Y318.637
G01 X241.369 Y318.637
G01 X241.780 Y318.637
G01 X242.191 Y318.637
G01 X242.602 Y319.048
G01 X243.013 Y318.637
G01 X243.424 Y318.637
G01 X243.835 Y318.637
G01 X244.246 Y318.637
G01 X244.657 Y319.048
G01 X244.657 Y319.459
G01 X244.657 Y319.870
G01 X244.246 Y320.281
G01 X243.835 Y320.281
G01 X243.424 Y320.692
G01 X243.424 Y321.103
G01 X243.835 Y321.514
G01 X244.246 Y321.514
G01 X244.657 Y321.514
G01 X245.068 Y321.514
G01 X245.479 Y321.514
G01 X245.890 Y321.925
G01 X246.301 Y321.925
G01 X246.712 Y321.925
G01 X247.123 Y321.925
G01 X247.534 Y321.925
G01 X247.945 Y321.925
G01 X248.356 Y321.925
G01 X248.767 Y321.925
G01 X249.178 Y321.925
G01 X249.589 Y321.925
G01 X250.000 Y321.925
G01 X250.411 Y321.925
G01 X250.822 Y321.925
G01 X251.233 Y321.925
G01 X251.644 Y321.925
G01 X252.055 Y321.514
G01 X252.466 Y321.514
G01 X252.877 Y321.514
G01 X253.288 Y321.514
G01 X253.699 Y321.514
G01 X254.110 Y321.103
G01 X254.521 Y321.103
G01 X254.932 Y321.103
G01 X255.343 Y320.692
G01 X255.754 Y320.692
G01 X256.165 Y320.692
G01 X256.576 Y320.281
G01 X256.987 Y320.281
G01 X257.398 Y319.870
G01 X257.809 Y319.870
G01 X258.220 Y319.459
G01 X258.631 Y319.459
G01 X259.042 Y319.048
G01 X259.453 Y318.637
G01 X259.864 Y318.637
G01 X260.275 Y318.226
G01 X260.686 Y317.815
G01 X261.097 Y317.404
G01 X261.508 Y317.404
G01 X261.919 Y317.404
G01 X261.508 Y317.404
G01 X261.097 Y317.404
G01 X260.686 Y317.815
G01 X260.275 Y318.226
G01 X259.864 Y318.637
G01 X259.453 Y318.637
G01 X259.042 Y319.048
G01 X258.631 Y319.459
G01 X258.220 Y319.459
G01 X257.809 Y319.870
G01 X257.398 Y319.870
G01 X256.987 Y320.281
G01 X256.576 Y320.281
G01 X256.165 Y320.692
G01 X255.754 Y320.692
G01 X255.343 Y320.692
G01 X254.932 Y321.103
G01 X254.521 Y321.103
G01 X254.110 Y321.103
G01 X253.699 Y321.514
G01 X253.288 Y321.514
G01 X252.877 Y321.514
G01 X252.466 Y321.514
G01 X252.055 Y321.514
G01 X251.644 Y321.925
G01 X251.233 Y321.925
G01 X250.822 Y321.925
G01 X250.411 Y321.925
G01 X250.000 Y321.925
G01 X249.589 Y321.925
G01 X249.178 Y321.925
G01 X248.767 Y321.925
G01 X248.356 Y321.925
G01 X247.945 Y321.925
G01 X247.534 Y321.925
G01 X247.123 Y321.925
G01 X246.712 Y321.925
G01 X246.301 Y321.925
G01 X245.890 Y321.925
G01 X245.479 Y321.514
G01 X245.068 Y321.514
G01 X244.657 Y321.514
G01 X244.246 Y321.514
G01 X243.835 Y321.514
G01 X243.424 Y321.103
G01 X243.013 Y321.103
G01 X242.602 Y321.103
G01 X242.191 Y321.103
G01 X241.780 Y320.692
G01 X241.369 Y320.692
G01 X240.958 Y320.692
G01 X240.547 Y321.103
G01 X240.136 Y321.514
G01 X240.547 Y321.925
G01 X240.958 Y322.336
G01 X241.369 Y322.747
G01 X241.780 Y323.158
G01 X242.191 Y323.569
G01 X242.602 Y323.980
G01 X243.013 Y324.391
G01 X243.424 Y324.391
G01 X243.835 Y324.802
G01 X244.246 Y324.802
G01 X244.657 Y325.213
G01 X245.068 Y325.213
G01 X245.479 Y325.624
G01 X245.890 Y325.624
G01 X246.301 Y325.624
G01 X246.712 Y325.624
G01 X247.123 Y325.624
G01 X247.534 Y325.213
G01 X247.945 Y325.213
G01 X248.356 Y325.213
G01 X248.767 Y325.213
G01 X249.178 Y324.802
G01 X249.589 Y324.802
G01 X250.000 Y324.802
G01 X250.411 Y324.802
G01 X250.822 Y324.391
G01 X251.233 Y324.391
G01 X251.644 Y324.391
G01 X252.055 Y324.391
G01 X252.466 Y323.980
G01 X252.877 Y323.980
G01 X253.288 Y323.569
G01 X253.699 Y323.569
G01 X254.110 Y323.569
G01 X254.521 Y323.158
G01 X254.932 Y323.158
G01 X255.343 Y323.158
G01 X255.754 Y322.747
G01 X256.165 Y322.336
G01 X256.576 Y322.336
G01 X256.987 Y322.336
G01 X257.398 Y322.336
G01 X257.809 Y322.336
G01 X258.220 Y321.925
G01 X258.631 Y321.925
G01 X259.042 Y321.514
G01 X259.453 Y321.103
G01 X259.864 Y321.103
G01 X260.275 Y320.692
G01 X260.686 Y320.692
G01 X260.686 Y320.281
G01 X260.686 Y319.870
G01 X261.097 Y319.459
G01 X261.508 Y319.459
G01 X261.919 Y319.459
G01 X261.919 Y319.048
G01 X261.919 Y318.637
G01 X262.330 Y318.226
G01 X262.330 Y317.815
G01 X261.919 Y317.404
G01 X262.330 Y316.993
G01 X262.741 Y316.582
G01 X263.152 Y316.171
G01 X263.152 Y315.760
G01 X263.563 Y315.349
G01 X263.563 Y314.938
G01 X263.563 Y314.527
G01 X263.974 Y314.116
G01 X263.974 Y313.705
G01 X263.974 Y313.294
G01 X264.385 Y312.883
G01 X264.385 Y312.472
G01 X264.385 Y312.061
G01 X264.385 Y311.650
G01 X264.385 Y311.239
G01 X264.385 Y310.828
G01 X264.385 Y310.417
G01 X264.796 Y310.006
G01 X264.796 Y309.595
G01 X264.796 Y309.184
G01 X264.796 Y308.773
G01 X264.796 Y308.362
G01 X264.796 Y307.951
G01 X264.796 Y307.540
G01 X264.796 Y307.129
G01 X264.796 Y306.718
G01 X264.796 Y306.307
G01 X264.796 Y305.896
G01 X264.796 Y305.485
G01 X264.385 Y305.074
G01 X263.974 Y304.663
G01 X263.563 Y304.663
G01 X263.152 Y304.663
G01 X262.741 Y305.074
G01 X262.330 Y305.485
G01 X262.330 Y305.896
G01 X262.330 Y306.307
G01 X261.919 Y306.718
G01 X261.919 Y307.129
G01 X261.508 Y307.540
G01 X261.508 Y307.951
G01 X261.508 Y308.362
G01 X261.508 Y308.773
G01 X261.508 Y309.184
G01 X261.508 Y309.595
G01 X261.508 Y310.006
G01 X261.508 Y310.417
G01 X261.508 Y310.828
G01 X261.097 Y311.239
G01 X261.097 Y311.650
G01 X261.097 Y312.061
G01 X261.097 Y312.472
G01 X260.686 Y312.883
G01 X260.686 Y313.294
G01 X260.275 Y313.705
G01 X260.275 Y314.116
G01 X260.275 Y313.705
G01 X260.686 Y313.294
G01 X260.686 Y312.883
G01 X261.097 Y312.472
G01 X261.097 Y312.061
G01 X261.097 Y311.650
G01 X261.097 Y311.239
G01 X261.508 Y310.828
G01 X261.508 Y310.417
G01 X261.508 Y310.006
G01 X261.508 Y309.595
G01 X261.508 Y309.184
G01 X261.508 Y308.773
G01 X261.508 Y308.362
G01 X261.508 Y307.951
G01 X261.508 Y307.540
G01 X261.919 Y307.129
G01 X261.919 Y306.718
G01 X261.508 Y306.718
G01 X261.097 Y306.718
G01 X260.686 Y306.307
G01 X261.097 Y305.896
G01 X261.508 Y305.485
G01 X261.919 Y305.485
G01 X261.508 Y305.485
G01 X261.097 Y305.896
G01 X260.686 Y306.307
G01 X261.097 Y306.718
G01 X261.508 Y306.718
G01 X261.919 Y306.718
G01 X262.330 Y306.307
G01 X262.330 Y305.896
G01 X262.330 Y305.485
G01 X261.919 Y305.485
G01 X262.330 Y305.485
G01 X262.741 Y305.074
G01 X263.152 Y304.663
G01 X263.563 Y304.663
G01 X263.974 Y304.663
G01 X264.385 Y305.074
G01 X264.796 Y305.485
G01 X264.796 Y305.896
G01 X264.796 Y306.307
G01 X264.796 Y306.718
G01 X264.796 Y307.129
G01 X264.796 Y307.540
G01 X264.796 Y307.951
G01 X264.796 Y308.362
G01 X264.796 Y308.773
G01 X264.796 Y309.184
G01 X264.796 Y309.595
G01 X264.796 Y310.006
G01 X264.385 Y310.417
G01 X264.385 Y310.828
G01 X264.385 Y311.239
G01 X264.385 Y311.650
G01 X264.385 Y312.061
G01 X264.385 Y312.472
G01 X264.385 Y312.883
G01 X263.974 Y313.294
G01 X263.974 Y313.705
G01 X263.974 Y314.116
G01 X263.563 Y314.527
G01 X263.563 Y314.938
G01 X263.563 Y315.349
G01 X263.152 Y315.760
G01 X263.152 Y316.171
G01 X262.741 Y316.582
G01 X262.330 Y316.993
G01 X261.919 Y317.404
G01 X262.330 Y317.815
G01 X262.741 Y317.815
G01 X263.152 Y317.815
G01 X263.563 Y317.815
G01 X263.974 Y317.815
G01 X263.974 Y317.404
G01 X264.385 Y316.993
G01 X264.796 Y316.582
G01 X265.207 Y316.171
G01 X265.618 Y315.760
G01 X266.029 Y315.349
G01 X266.440 Y314.938
G01 X266.851 Y314.527
G01 X267.262 Y314.116
G01 X267.673 Y313.705
G01 X268.084 Y313.294
G01 X268.495 Y312.883
G01 X268.906 Y312.472
G01 X269.317 Y312.061
G01 X269.728 Y311.650
G01 X270.139 Y311.239
G01 X270.550 Y311.650
G01 X270.550 Y312.061
G01 X270.550 Y312.472
G01 X270.139 Y312.883
G01 X269.728 Y313.294
G01 X269.317 Y313.705
G01 X268.906 Y314.116
G01 X268.495 Y314.527
G01 X268.084 Y314.938
G01 X267.673 Y315.349
G01 X267.262 Y315.760
G01 X266.851 Y316.171
G01 X266.440 Y316.582
G01 X266.029 Y316.993
G01 X265.618 Y317.404
G01 X265.207 Y317.815
G01 X264.796 Y318.226
G01 X264.385 Y317.815
G01 X264.796 Y318.226
G01 X265.207 Y317.815
G01 X265.618 Y317.404
G01 X266.029 Y316.993
G01 X266.440 Y316.582
G01 X266.851 Y316.171
G01 X267.262 Y315.760
G01 X267.673 Y315.349
G01 X268.084 Y314.938
G01 X268.495 Y314.527
G01 X268.906 Y314.116
G01 X269.317 Y313.705
G01 X269.728 Y313.294
G01 X270.139 Y312.883
G01 X270.550 Y312.472
G01 X270.550 Y312.061
G01 X270.550 Y311.650
G01 X270.550 Y311.239
G01 X270.550 Y311.650
G01 X270.961 Y311.650
G01 X270.961 Y311.239
G01 X271.372 Y310.828
G01 X271.372 Y310.417
G01 X271.372 Y310.828
G01 X270.961 Y311.239
G01 X270.961 Y311.650
G01 X270.550 Y311.650
G01 X270.139 Y311.239
G01 X270.550 Y311.239
G01 X270.550 Y310.828
G01 X270.961 Y310.417
G01 X271.372 Y310.417
G01 X271.783 Y310.006
G01 X272.194 Y309.595
G01 X272.605 Y309.184
G01 X273.016 Y308.773
G01 X273.016 Y308.362
G01 X273.427 Y307.951
G01 X273.427 Y307.540
G01 X273.838 Y307.129
G01 X273.838 Y306.718
G01 X274.249 Y306.307
G01 X274.249 Y305.896
G01 X274.249 Y305.485
G01 X274.249 Y305.074
G01 X273.838 Y304.663
G01 X273.838 Y304.252
G01 X274.249 Y303.841
G01 X274.249 Y303.430
G01 X274.249 Y303.019
G01 X274.249 Y302.608
G01 X273.838 Y302.197
G01 X273.838 Y301.786
G01 X273.838 Y301.375
G01 X273.838 Y300.964
G01 X273.838 Y300.553
G01 X273.427 Y300.142
G01 X273.427 Y299.731
G01 X273.427 Y299.320
G01 X273.427 Y298.909
G01 X273.016 Y298.498
G01 X273.016 Y298.087
G01 X272.605 Y297.676
G01 X272.194 Y297.265
G01 X271.783 Y297.265
G01 X271.372 Y297.265
G01 X270.961 Y297.265
G01 X270.961 Y297.676
G01 X270.961 Y298.087
G01 X270.961 Y298.498
G01 X270.550 Y298.909
G01 X270.139 Y299.320
G01 X269.728 Y299.320
G01 X269.317 Y299.320
G01 X268.906 Y299.320
G01 X268.495 Y299.320
G01 X268.084 Y299.320
G01 X267.673 Y299.320
G01 X267.262 Y298.909
G01 X266.851 Y298.909
G01 X266.440 Y298.909
G01 X266.029 Y298.498
G01 X266.029 Y298.087
G01 X266.029 Y298.498
G01 X266.440 Y298.909
G01 X266.851 Y298.909
G01 X267.262 Y298.909
G01 X267.673 Y299.320
G01 X268.084 Y299.320
G01 X268.495 Y299.320
G01 X268.906 Y299.320
G01 X269.317 Y299.320
G01 X269.728 Y299.320
G01 X270.139 Y299.320
G01 X270.550 Y298.909
G01 X270.961 Y298.498
G01 X270.961 Y298.087
G01 X270.961 Y297.676
G01 X270.961 Y297.265
G01 X270.550 Y297.265
G01 X270.139 Y297.265
G01 X269.728 Y297.265
G01 X269.317 Y297.265
G01 X269.317 Y296.854
G01 X268.906 Y296.443
G01 X268.495 Y296.032
G01 X268.084 Y295.621
G01 X268.084 Y295.210
G01 X268.084 Y294.799
G01 X268.084 Y294.388
G01 X268.084 Y293.977
G01 X268.084 Y293.566
G01 X267.673 Y293.155
G01 X267.262 Y293.155
G01 X266.851 Y293.155
G01 X266.440 Y293.155
G01 X266.029 Y293.155
G01 X265.618 Y292.744
G01 X265.207 Y292.744
G01 X264.796 Y292.333
G01 X264.385 Y292.333
G01 X263.974 Y291.922
G01 X263.563 Y291.922
G01 X263.152 Y291.922
G01 X262.741 Y291.922
G01 X262.330 Y291.922
G01 X261.919 Y292.333
G01 X261.508 Y292.744
G01 X261.508 Y293.155
G01 X261.508 Y293.566
G01 X261.508 Y293.977
G01 X261.508 Y294.388
G01 X261.508 Y294.799
G01 X261.919 Y295.210
G01 X262.330 Y295.621
G01 X262.741 Y296.032
G01 X263.152 Y296.443
G01 X263.563 Y296.854
G01 X263.974 Y297.265
G01 X264.385 Y297.676
G01 X264.796 Y298.087
G01 X265.207 Y298.087
G01 X265.618 Y297.676
G01 X265.207 Y298.087
G01 X264.796 Y298.087
G01 X264.385 Y297.676
G01 X263.974 Y297.265
G01 X263.563 Y296.854
G01 X263.152 Y296.443
G01 X262.741 Y296.032
G01 X262.330 Y295.621
G01 X261.919 Y295.210
G01 X261.508 Y294.799
G01 X261.508 Y294.388
G01 X261.508 Y293.977
G01 X261.508 Y293.566
G01 X261.508 Y293.155
G01 X261.508 Y292.744
G01 X261.919 Y292.333
G01 X262.330 Y291.922
G01 X262.741 Y291.922
G01 X263.152 Y291.922
G01 X263.563 Y291.922
G01 X263.974 Y291.922
G01 X264.385 Y292.333
G01 X264.796 Y292.333
G01 X265.207 Y292.744
G01 X265.618 Y292.744
G01 X266.029 Y293.155
G01 X266.440 Y293.155
G01 X266.851 Y293.155
G01 X267.262 Y293.155
G01 X267.673 Y293.155
G01 X268.084 Y293.155
G01 X267.673 Y293.155
G01 X268.084 Y293.566
G01 X268.495 Y293.566
G01 X268.084 Y293.566
G01 X268.084 Y293.155
G01 X268.084 Y293.566
G01 X268.084 Y293.977
G01 X268.495 Y293.977
G01 X268.495 Y293.566
G01 X268.495 Y293.977
G01 X268.906 Y293.977
G01 X268.495 Y293.977
G01 X268.084 Y293.977
G01 X268.084 Y294.388
G01 X268.084 Y294.799
G01 X267.673 Y294.799
G01 X267.262 Y294.799
G01 X266.851 Y294.799
G01 X266.440 Y295.210
G01 X266.029 Y295.621
G01 X265.618 Y296.032
G01 X265.207 Y296.443
G01 X265.618 Y296.854
G01 X265.618 Y297.265
G01 X265.618 Y296.854
G01 X265.207 Y296.443
G01 X265.618 Y296.032
G01 X266.029 Y295.621
G01 X266.440 Y295.210
G01 X266.851 Y294.799
G01 X267.262 Y294.799
G01 X267.673 Y294.799
G01 X268.084 Y294.799
G01 X268.084 Y295.210
G01 X268.084 Y295.621
G01 X268.495 Y296.032
G01 X268.906 Y296.443
G01 X269.317 Y296.854
G01 X269.317 Y297.265
G01 X268.906 Y297.676
G01 X268.495 Y297.676
G01 X268.084 Y297.676
G01 X267.673 Y297.676
G01 X267.262 Y297.676
G01 X266.851 Y297.676
G01 X266.440 Y297.676
G01 X266.029 Y297.676
G01 X266.029 Y298.087
G01 X265.618 Y298.087
G01 X266.029 Y298.087
G01 X266.029 Y297.676
G01 X265.618 Y297.676
G01 X265.618 Y297.265
G01 X265.618 Y297.676
G01 X266.029 Y297.676
G01 X266.440 Y297.676
G01 X266.851 Y297.676
G01 X267.262 Y297.676
G01 X267.673 Y297.676
G01 X268.084 Y297.676
G01 X268.495 Y297.676
G01 X268.906 Y297.676
G01 X269.317 Y297.265
G01 X269.728 Y297.265
G01 X270.139 Y297.265
G01 X270.550 Y297.265
G01 X270.961 Y297.265
G01 X270.961 Y296.854
G01 X270.961 Y296.443
G01 X270.961 Y296.032
G01 X270.961 Y295.621
G01 X270.550 Y295.621
G01 X270.139 Y295.210
G01 X270.139 Y294.799
G01 X269.728 Y294.388
G01 X269.317 Y294.388
G01 X268.906 Y293.977
G01 X268.906 Y293.566
G01 X268.495 Y293.566
G01 X268.495 Y293.155
G01 X268.495 Y293.566
G01 X268.906 Y293.566
G01 X268.495 Y293.155
G01 X268.084 Y292.744
G01 X268.084 Y293.155
G01 X268.084 Y292.744
G01 X268.084 Y292.333
G01 X268.084 Y291.922
G01 X267.673 Y291.922
G01 X267.262 Y291.922
G01 X266.851 Y291.511
G01 X266.851 Y291.100
G01 X266.440 Y291.100
G01 X266.440 Y290.689
G01 X266.440 Y290.278
G01 X266.851 Y290.278
G01 X267.262 Y290.689
G01 X266.851 Y290.278
G01 X266.440 Y290.278
G01 X266.440 Y290.689
G01 X266.029 Y290.689
G01 X266.440 Y290.689
G01 X266.440 Y291.100
G01 X266.029 Y291.100
G01 X266.440 Y291.100
G01 X266.851 Y291.100
G01 X267.262 Y291.100
G01 X267.262 Y290.689
G01 X267.262 Y291.100
G01 X266.851 Y291.100
G01 X266.851 Y291.511
G01 X267.262 Y291.922
G01 X267.673 Y291.922
G01 X268.084 Y291.922
G01 X268.495 Y291.922
G01 X268.495 Y291.511
G01 X268.084 Y291.100
G01 X267.673 Y290.689
G01 X267.262 Y290.689
G01 X267.673 Y290.689
G01 X268.084 Y291.100
G01 X268.495 Y291.511
G01 X268.906 Y291.511
G01 X269.317 Y291.922
G01 X269.728 Y292.333
G01 X270.139 Y292.333
G01 X270.550 Y292.744
G01 X270.961 Y293.155
G01 X271.372 Y293.566
G01 X271.783 Y293.566
G01 X272.194 Y293.977
G01 X272.605 Y294.388
G01 X273.016 Y294.799
G01 X273.427 Y295.210
G01 X273.838 Y295.210
G01 X274.249 Y295.621
G01 X274.660 Y296.032
G01 X275.071 Y296.443
G01 X275.482 Y296.443
G01 X275.893 Y296.443
G01 X276.304 Y296.443
G01 X276.715 Y296.443
G01 X277.126 Y296.854
G01 X277.537 Y296.443
G01 X277.948 Y296.443
G01 X278.359 Y296.032
G01 X278.770 Y295.621
G01 X279.181 Y295.621
G01 X279.592 Y295.210
G01 X280.003 Y294.799
G01 X280.414 Y294.388
G01 X280.825 Y293.977
G01 X280.825 Y293.566
G01 X280.825 Y293.155
G01 X280.825 Y292.744
G01 X280.825 Y292.333
G01 X280.414 Y291.922
G01 X280.414 Y291.511
G01 X280.003 Y291.100
G01 X280.003 Y290.689
G01 X279.592 Y290.278
G01 X279.592 Y289.867
G01 X279.181 Y289.456
G01 X279.181 Y289.045
G01 X279.181 Y288.634
G01 X278.770 Y288.223
G01 X278.770 Y287.812
G01 X278.359 Y287.401
G01 X278.359 Y286.990
G01 X278.359 Y286.579
G01 X277.948 Y286.168
G01 X277.948 Y285.757
G01 X277.537 Y285.346
G01 X277.537 Y284.935
G01 X277.537 Y284.524
G01 X277.126 Y284.113
G01 X277.126 Y283.702
G01 X276.715 Y283.291
G01 X276.715 Y282.880
G01 X276.715 Y282.469
G01 X276.304 Y282.058
G01 X276.304 Y281.647
G01 X276.304 Y281.236
G01 X275.893 Y280.825
G01 X275.893 Y280.414
G01 X275.893 Y280.003
G01 X275.893 Y279.592
G01 X275.482 Y279.181
G01 X275.482 Y278.770
G01 X275.482 Y278.359
G01 X275.482 Y277.948
G01 X275.482 Y277.537
G01 X275.482 Y277.126
G01 X275.482 Y276.715
G01 X275.071 Y276.304
G01 X275.071 Y275.893
G01 X275.071 Y275.482
G01 X275.071 Y275.071
G01 X275.071 Y274.660
G01 X275.071 Y274.249
G01 X275.071 Y273.838
G01 X275.071 Y273.427
G01 X275.071 Y273.016
G01 X275.071 Y272.605
G01 X275.071 Y272.194
G01 X275.071 Y271.783
G01 X275.071 Y271.372
G01 X275.071 Y270.961
G01 X275.071 Y270.550
G01 X275.071 Y270.139
G01 X275.071 Y269.728
G01 X275.071 Y269.317
G01 X275.071 Y268.906
G01 X275.071 Y268.495
G01 X275.071 Y268.084
G01 X275.071 Y267.673
G01 X275.071 Y267.262
G01 X274.660 Y266.851
G01 X274.660 Y266.440
G01 X274.249 Y266.029
G01 X273.838 Y265.618
G01 X273.427 Y265.207
G01 X273.016 Y264.796
G01 X272.605 Y264.385
G01 X272.194 Y264.385
G01 X271.783 Y264.385
G01 X271.372 Y264.385
G01 X270.961 Y264.385
G01 X270.550 Y264.385
G01 X270.139 Y264.385
G01 X269.728 Y264.385
G01 X269.317 Y264.385
G01 X268.906 Y264.385
G01 X268.495 Y264.796
G01 X268.084 Y264.796
G01 X267.673 Y264.796
G01 X267.262 Y264.796
G01 X266.851 Y264.796
G01 X266.440 Y264.796
G01 X266.029 Y265.207
G01 X265.618 Y265.207
G01 X265.207 Y265.207
G01 X264.796 Y265.207
G01 X264.385 Y265.207
G01 X263.974 Y265.207
G01 X263.563 Y265.207
G01 X263.152 Y265.207
G01 X262.741 Y265.207
G01 X262.330 Y265.618
G01 X261.919 Y265.618
G01 X261.508 Y265.618
G01 X261.919 Y265.618
G01 X262.330 Y265.618
G01 X262.741 Y265.207
G01 X263.152 Y265.207
G01 X263.563 Y265.207
G01 X263.974 Y265.207
G01 X264.385 Y265.207
G01 X264.796 Y265.207
G01 X265.207 Y265.207
G01 X265.618 Y265.207
G01 X266.029 Y265.207
G01 X266.440 Y264.796
G01 X266.851 Y264.796
G01 X267.262 Y264.796
G01 X267.673 Y264.796
G01 X268.084 Y264.796
G01 X268.495 Y264.796
G01 X268.906 Y264.385
G01 X269.317 Y264.385
G01 X269.728 Y264.385
G01 X270.139 Y264.385
G01 X270.550 Y264.385
G01 X270.961 Y264.385
G01 X271.372 Y264.385
G01 X271.783 Y264.385
G01 X272.194 Y264.385
G01 X272.605 Y264.385
G01 X273.016 Y264.796
G01 X273.427 Y265.207
G01 X273.838 Y265.618
G01 X274.249 Y266.029
G01 X274.660 Y266.440
G01 X274.660 Y266.851
G01 X275.071 Y267.262
G01 X275.071 Y267.673
G01 X275.071 Y268.084
G01 X275.071 Y268.495
G01 X275.071 Y268.906
G01 X275.071 Y269.317
G01 X275.071 Y269.728
G01 X275.071 Y270.139
G01 X275.071 Y270.550
G01 X275.071 Y270.961
G01 X275.071 Y271.372
G01 X275.071 Y271.783
G01 X275.071 Y272.194
G01 X275.071 Y272.605
G01 X275.071 Y273.016
G01 X275.071 Y273.427
G01 X275.071 Y273.838
G01 X275.071 Y274.249
G01 X275.071 Y274.660
G01 X275.071 Y275.071
G01 X275.071 Y275.482
G01 X275.071 Y275.893
G01 X275.071 Y276.304
G01 X275.482 Y276.715
G01 X275.482 Y277.126
G01 X275.482 Y277.537
G01 X275.482 Y277.948
G01 X275.482 Y278.359
G01 X275.482 Y278.770
G01 X275.482 Y279.181
G01 X275.893 Y279.592
G01 X275.893 Y280.003
G01 X275.893 Y280.414
G01 X275.893 Y280.825
G01 X276.304 Y281.236
G01 X276.304 Y281.647
G01 X276.304 Y282.058
G01 X276.715 Y282.469
G01 X276.715 Y282.880
G01 X276.715 Y283.291
G01 X277.126 Y283.702
G01 X277.126 Y284.113
G01 X277.537 Y284.524
G01 X277.537 Y284.935
G01 X277.537 Y285.346
G01 X277.948 Y285.757
G01 X277.948 Y286.168
G01 X278.359 Y286.579
G01 X278.359 Y286.990
G01 X278.359 Y287.401
G01 X278.770 Y287.812
G01 X278.770 Y288.223
G01 X279.181 Y288.634
G01 X279.181 Y289.045
G01 X279.181 Y289.456
G01 X279.592 Y289.867
G01 X279.592 Y290.278
G01 X280.003 Y290.689
G01 X280.003 Y291.100
G01 X280.414 Y291.511
G01 X280.414 Y291.922
G01 X280.825 Y292.333
G01 X280.825 Y292.744
G01 X280.825 Y293.155
G01 X280.825 Y293.566
G01 X280.825 Y293.977
G01 X280.414 Y294.388
G01 X280.003 Y294.799
G01 X279.592 Y295.210
G01 X279.181 Y295.621
G01 X278.770 Y295.621
G01 X278.359 Y296.032
G01 X277.948 Y296.443
G01 X277.537 Y296.443
G01 X277.126 Y296.854
G01 X276.715 Y296.443
G01 X277.126 Y296.443
G01 X276.715 Y296.443
G01 X276.304 Y296.443
G01 X275.893 Y296.443
G01 X275.482 Y296.443
G01 X275.071 Y296.443
G01 X274.660 Y296.032
G01 X274.249 Y295.621
G01 X273.838 Y295.210
G01 X273.427 Y295.210
G01 X273.016 Y294.799
G01 X272.605 Y294.388
G01 X272.194 Y293.977
G01 X271.783 Y293.566
G01 X271.372 Y293.566
G01 X270.961 Y293.155
G01 X270.550 Y292.744
G01 X270.139 Y292.333
G01 X269.728 Y292.333
G01 X269.317 Y291.922
G01 X268.906 Y291.511
G01 X268.495 Y291.511
G01 X268.495 Y291.922
G01 X268.084 Y291.922
G01 X268.084 Y292.333
G01 X268.084 Y292.744
G01 X268.495 Y293.155
G01 X268.084 Y293.155
G01 X268.495 Y293.155
G01 X268.906 Y293.566
G01 X269.317 Y293.566
G01 X268.906 Y293.566
G01 X268.906 Y293.977
G01 X269.317 Y294.388
G01 X269.728 Y294.388
G01 X269.728 Y293.977
G01 X269.317 Y293.566
G01 X269.728 Y293.977
G01 X269.728 Y294.388
G01 X270.139 Y294.799
G01 X270.550 Y294.799
G01 X270.139 Y294.799
G01 X270.139 Y295.210
G01 X270.550 Y295.621
G01 X270.961 Y295.621
G01 X270.961 Y295.210
G01 X270.550 Y294.799
G01 X270.961 Y295.210
G01 X270.961 Y295.621
G01 X270.961 Y296.032
G01 X270.961 Y296.443
G01 X270.961 Y296.854
G01 X270.961 Y297.265
G01 X271.372 Y297.265
G01 X271.783 Y297.265
G01 X272.194 Y297.265
G01 X272.605 Y297.676
G01 X273.016 Y298.087
G01 X273.016 Y298.498
G01 X273.427 Y298.909
G01 X273.427 Y299.320
G01 X273.427 Y299.731
G01 X273.427 Y300.142
G01 X273.838 Y300.553
G01 X273.838 Y300.964
G01 X273.838 Y301.375
G01 X273.838 Y301.786
G01 X273.838 Y302.197
G01 X274.249 Y302.608
G01 X274.249 Y303.019
G01 X274.249 Y303.430
G01 X274.249 Y303.841
G01 X274.660 Y304.252
G01 X275.071 Y304.252
G01 X274.660 Y304.252
G01 X274.249 Y303.841
G01 X273.838 Y304.252
G01 X273.838 Y304.663
G01 X274.249 Y305.074
G01 X274.660 Y305.074
G01 X275.071 Y304.663
G01 X275.071 Y304.252
G01 X275.482 Y303.841
G01 X275.893 Y303.430
G01 X276.304 Y303.019
G01 X276.715 Y302.608
G01 X276.715 Y302.197
G01 X277.126 Y301.786
G01 X277.126 Y301.375
G01 X277.537 Y300.964
G01 X277.948 Y300.553
G01 X278.359 Y300.142
G01 X278.770 Y299.731
G01 X279.181 Y299.320
G01 X279.592 Y298.909
G01 X280.003 Y298.498
G01 X280.414 Y298.087
G01 X280.825 Y297.676
G01 X281.236 Y297.265
G01 X281.647 Y297.265
G01 X282.058 Y296.854
G01 X282.469 Y296.854
G01 X282.880 Y296.854
G01 X283.291 Y296.443
G01 X283.702 Y296.443
G01 X284.113 Y296.443
G01 X284.524 Y296.443
G01 X284.935 Y296.032
G01 X285.346 Y296.032
G01 X285.757 Y296.032
G01 X286.168 Y296.032
G01 X286.579 Y296.032
G01 X286.990 Y296.032
G01 X287.401 Y296.032
G01 X287.812 Y296.032
G01 X288.223 Y295.621
G01 X288.634 Y295.621
G01 X289.045 Y295.621
G01 X289.456 Y295.621
G01 X289.867 Y295.621
G01 X290.278 Y295.621
G01 X290.689 Y295.210
G01 X291.100 Y295.210
G01 X291.511 Y295.210
G01 X291.922 Y295.210
G01 X292.333 Y295.210
G01 X292.744 Y294.799
G01 X293.155 Y294.799
G01 X293.566 Y294.799
G01 X293.977 Y294.799
G01 X294.388 Y294.388
G01 X294.799 Y294.388
G01 X295.210 Y294.388
G01 X295.621 Y294.388
G01 X296.032 Y294.388
G01 X296.443 Y293.977
G01 X296.854 Y293.977
G01 X297.265 Y293.977
G01 X297.676 Y293.977
G01 X298.087 Y293.566
G01 X298.498 Y293.566
G01 X298.909 Y293.566
G01 X299.320 Y293.566
G01 X299.731 Y293.155
G01 X300.142 Y293.155
G01 X300.553 Y293.155
G01 X300.964 Y292.744
G01 X301.375 Y292.744
G01 X301.786 Y292.744
G01 X302.197 Y292.333
G01 X302.608 Y292.333
G01 X303.019 Y292.333
G01 X303.430 Y291.922
G01 X303.841 Y291.922
G01 X304.252 Y291.511
G01 X304.663 Y291.511
G01 X305.074 Y291.511
G01 X305.485 Y291.511
G01 X305.896 Y291.511
G01 X305.896 Y291.922
G01 X305.896 Y292.333
G01 X305.485 Y292.744
G01 X305.074 Y293.155
G01 X304.663 Y293.566
G01 X304.252 Y293.977
G01 X303.841 Y294.388
G01 X303.430 Y294.799
G01 X303.019 Y295.210
G01 X302.608 Y295.621
G01 X302.197 Y296.032
G01 X301.786 Y296.032
G01 X301.375 Y296.443
G01 X300.964 Y296.443
G01 X300.553 Y296.854
G01 X300.142 Y296.854
G01 X299.731 Y297.265
G01 X299.320 Y297.265
G01 X298.909 Y297.676
G01 X298.498 Y297.676
G01 X298.087 Y297.676
G01 X297.676 Y298.087
G01 X297.265 Y298.087
G01 X296.854 Y298.087
G01 X296.443 Y298.087
G01 X296.032 Y298.498
G01 X295.621 Y298.498
G01 X295.210 Y298.498
G01 X294.799 Y298.498
G01 X294.388 Y298.498
G01 X293.977 Y298.498
G01 X293.566 Y298.498
G01 X293.155 Y298.909
G01 X292.744 Y298.909
G01 X292.333 Y298.909
G01 X291.922 Y298.909
G01 X291.511 Y298.909
G01 X291.100 Y298.909
G01 X290.689 Y298.909
G01 X290.278 Y298.909
G01 X289.867 Y298.909
G01 X289.456 Y298.909
G01 X289.045 Y298.909
G01 X288.634 Y298.909
G01 X288.223 Y298.909
G01 X287.812 Y298.909
G01 X287.401 Y298.909
G01 X286.990 Y298.909
G01 X286.579 Y299.320
G01 X286.168 Y299.731
G01 X286.168 Y300.142
G01 X286.168 Y300.553
G01 X286.579 Y300.964
G01 X286.579 Y301.375
G01 X286.579 Y301.786
G01 X286.990 Y302.197
G01 X287.401 Y302.608
G01 X287.812 Y303.019
G01 X288.223 Y303.430
G01 X288.634 Y303.841
G01 X289.045 Y303.841
G01 X289.456 Y304.252
G01 X289.867 Y304.252
G01 X290.278 Y304.663
G01 X290.689 Y304.663
G01 X291.100 Y304.663
G01 X291.511 Y304.663
G01 X291.922 Y304.663
G01 X292.333 Y304.252
G01 X292.744 Y304.252
G01 X293.155 Y304.252
G01 X293.566 Y304.252
G01 X293.977 Y304.252
G01 X294.388 Y304.252
G01 X294.799 Y303.841
G01 X295.210 Y303.841
G01 X295.621 Y303.841
G01 X296.032 Y303.841
G01 X296.443 Y303.841
G01 X296.854 Y303.430
G01 X297.265 Y303.430
G01 X297.676 Y303.430
G01 X298.087 Y303.430
G01 X298.498 Y303.019
G01 X298.909 Y303.019
G01 X299.320 Y303.019
G01 X299.731 Y302.608
G01 X300.142 Y302.608
G01 X300.553 Y302.197
G01 X300.964 Y302.197
G01 X301.375 Y302.197
G01 X301.786 Y301.786
G01 X302.197 Y301.786
G01 X302.608 Y301.375
G01 X303.019 Y300.964
G01 X303.430 Y300.553
G01 X303.841 Y300.142
G01 X303.841 Y299.731
G01 X304.252 Y299.320
G01 X304.663 Y298.909
G01 X304.663 Y298.498
G01 X305.074 Y298.087
G01 X305.074 Y297.676
G01 X305.485 Y297.265
G01 X305.485 Y296.854
G01 X305.485 Y296.443
G01 X305.896 Y296.032
G01 X305.896 Y295.621
G01 X305.896 Y295.210
G01 X306.307 Y294.799
G01 X306.307 Y294.388
G01 X306.307 Y293.977
G01 X306.307 Y293.566
G01 X306.307 Y293.155
G01 X306.718 Y292.744
G01 X307.129 Y293.155
G01 X307.540 Y293.566
G01 X307.951 Y293.977
G01 X307.951 Y294.388
G01 X307.951 Y294.799
G01 X308.362 Y295.210
G01 X308.362 Y295.621
G01 X308.773 Y296.032
G01 X308.773 Y296.443
G01 X309.184 Y296.854
G01 X309.184 Y297.265
G01 X309.184 Y297.676
G01 X309.595 Y298.087
G01 X310.006 Y298.498
G01 X310.006 Y298.909
G01 X310.417 Y299.320
G01 X310.417 Y299.731
G01 X310.828 Y300.142
G01 X310.828 Y300.553
G01 X311.239 Y300.964
G01 X311.239 Y301.375
G01 X311.650 Y301.786
G01 X311.650 Y302.197
G01 X312.061 Y302.608
G01 X312.061 Y303.019
G01 X312.472 Y303.430
G01 X312.472 Y303.841
G01 X312.883 Y304.252
G01 X312.883 Y304.663
G01 X313.294 Y305.074
G01 X313.705 Y305.485
G01 X314.116 Y305.896
G01 X314.527 Y305.896
G01 X314.938 Y305.896
G01 X314.938 Y306.307
G01 X314.938 Y306.718
G01 X315.349 Y307.129
G01 X315.349 Y307.540
G01 X315.349 Y307.951
G01 X315.349 Y308.362
G01 X315.349 Y308.773
G01 X315.349 Y309.184
G01 X315.349 Y309.595
G01 X315.349 Y310.006
G01 X315.349 Y310.417
G01 X315.349 Y310.828
G01 X315.349 Y311.239
G01 X315.760 Y311.650
G01 X315.760 Y312.061
G01 X315.760 Y312.472
G01 X315.760 Y312.883
G01 X315.760 Y313.294
G01 X315.760 Y313.705
G01 X315.760 Y314.116
G01 X315.760 Y314.527
G01 X315.760 Y314.938
G01 X315.760 Y315.349
G01 X315.760 Y315.760
G01 X315.760 Y316.171
G01 X315.760 Y316.582
G01 X315.760 Y316.993
G01 X316.171 Y317.404
G01 X316.171 Y317.815
G01 X316.171 Y318.226
G01 X316.171 Y318.637
G01 X316.171 Y319.048
G01 X316.171 Y319.459
G01 X316.171 Y319.870
G01 X316.171 Y320.281
G01 X316.171 Y320.692
G01 X316.171 Y321.103
G01 X316.171 Y321.514
G01 X316.171 Y321.925
G01 X316.171 Y322.336
G01 X316.171 Y322.747
G01 X316.171 Y323.158
G01 X316.171 Y323.569
G01 X316.171 Y323.980
G01 X316.171 Y324.391
G01 X316.171 Y324.802
G01 X316.171 Y325.213
G01 X316.582 Y325.624
G01 X316.582 Y326.035
G01 X316.582 Y326.446
G01 X316.582 Y326.857
G01 X316.582 Y327.268
G01 X316.582 Y327.679
G01 X316.582 Y328.090
G01 X316.582 Y328.501
G01 X316.582 Y328.912
G01 X316.171 Y329.323
G01 X316.171 Y329.734
G01 X316.171 Y330.145
G01 X316.171 Y330.556
G01 X316.171 Y330.967
G01 X316.171 Y331.377
G01 X316.171 Y331.788
G01 X316.171 Y332.199
G01 X316.171 Y332.610
G01 X316.171 Y333.021
G01 X316.171 Y333.432
G01 X316.171 Y333.843
G01 X316.171 Y334.254
G01 X316.171 Y334.665
G01 X316.171 Y335.076
G01 X316.171 Y335.487
G01 X316.171 Y335.898
G01 X316.171 Y336.309
G01 X316.171 Y336.720
G01 X316.171 Y337.131
G01 X316.171 Y337.542
G01 X316.171 Y337.953
G01 X316.171 Y338.364
G01 X316.171 Y338.775
G01 X316.171 Y339.186
G01 X316.171 Y339.597
G01 X316.171 Y340.008
G01 X315.760 Y340.419
G01 X315.760 Y340.830
G01 X315.760 Y341.241
G01 X315.760 Y341.652
G01 X315.760 Y342.063
G01 X315.760 Y342.474
G01 X315.760 Y342.885
G01 X315.760 Y343.296
G01 X315.760 Y343.707
G01 X315.760 Y344.118
G01 X315.760 Y344.529
G01 X315.349 Y344.940
G01 X315.349 Y345.351
G01 X315.349 Y345.762
G01 X315.349 Y346.173
G01 X315.349 Y346.584
G01 X314.938 Y346.995
G01 X314.938 Y347.406
G01 X314.938 Y347.817
G01 X314.938 Y348.228
G01 X314.527 Y348.639
G01 X314.527 Y349.050
G01 X314.527 Y349.461
G01 X314.116 Y349.872
G01 X314.116 Y350.283
G01 X314.116 Y350.694
G01 X313.705 Y351.105
G01 X313.705 Y351.516
G01 X313.294 Y351.927
G01 X313.294 Y352.338
G01 X312.883 Y352.749
G01 X312.472 Y353.160
G01 X312.061 Y353.571
G01 X311.650 Y353.982
G01 X311.239 Y354.393
G01 X310.828 Y354.804
G01 X310.417 Y355.215
G01 X310.006 Y355.626
G01 X309.595 Y356.037
G01 X309.184 Y356.448
G01 X308.773 Y356.859
G01 X308.362 Y357.270
G01 X308.362 Y357.681
G01 X308.773 Y358.092
G01 X309.184 Y358.092
G01 X309.595 Y358.092
G01 X310.006 Y358.092
G01 X310.417 Y358.092
G01 X310.828 Y357.681
G01 X311.239 Y357.681
G01 X311.650 Y357.681
G01 X312.061 Y357.270
G01 X312.472 Y357.270
G01 X312.883 Y356.859
G01 X313.294 Y356.448
G01 X313.705 Y356.037
G01 X314.116 Y355.626
G01 X314.116 Y355.215
G01 X314.527 Y354.804
G01 X314.938 Y354.393
G01 X315.349 Y353.982
G01 X315.349 Y353.571
G01 X315.760 Y353.160
G01 X316.171 Y352.749
G01 X316.171 Y352.338
G01 X316.582 Y351.927
G01 X316.582 Y351.516
G01 X316.582 Y351.105
G01 X316.993 Y350.694
G01 X316.993 Y350.283
G01 X317.404 Y349.872
G01 X317.404 Y349.461
G01 X317.404 Y349.050
G01 X317.404 Y348.639
G01 X317.815 Y348.228
G01 X317.815 Y347.817
G01 X317.815 Y347.406
G01 X317.815 Y346.995
G01 X318.226 Y346.584
G01 X318.226 Y346.173
G01 X318.226 Y345.762
G01 X318.226 Y345.351
G01 X318.226 Y344.940
G01 X318.637 Y344.529
G01 X318.637 Y344.118
G01 X318.637 Y343.707
G01 X318.637 Y343.296
G01 X318.637 Y342.885
G01 X318.637 Y342.474
G01 X318.637 Y342.063
G01 X318.637 Y341.652
G01 X319.048 Y341.241
G01 X319.048 Y340.830
G01 X319.048 Y340.419
G01 X319.048 Y340.008
G01 X319.048 Y339.597
G01 X319.048 Y339.186
G01 X319.048 Y338.775
G01 X319.048 Y338.364
G01 X319.048 Y337.953
G01 X319.048 Y337.542
G01 X319.048 Y337.131
G01 X319.048 Y336.720
G01 X319.048 Y336.309
G01 X319.048 Y335.898
G01 X319.048 Y335.487
G01 X319.048 Y335.076
G01 X319.048 Y334.665
G01 X319.048 Y334.254
G01 X319.048 Y333.843
G01 X319.048 Y333.432
G01 X319.048 Y333.021
G01 X319.048 Y332.610
G01 X319.048 Y332.199
G01 X319.048 Y331.788
G01 X319.048 Y331.377
G01 X319.048 Y330.967
G01 X319.048 Y330.556
G01 X319.048 Y330.145
G01 X319.048 Y329.734
G01 X319.048 Y329.323
G01 X319.048 Y328.912
G01 X319.048 Y328.501
G01 X319.048 Y328.090
G01 X319.048 Y327.679
G01 X318.637 Y327.268
G01 X318.637 Y326.857
G01 X318.637 Y326.446
G01 X318.637 Y326.035
G01 X318.637 Y325.624
G01 X318.637 Y325.213
G01 X318.637 Y324.802
G01 X318.637 Y324.391
G01 X318.637 Y323.980
G01 X318.637 Y323.569
G01 X318.637 Y323.158
G01 X318.637 Y322.747
G01 X318.637 Y322.336
G01 X318.637 Y321.925
G01 X318.226 Y321.514
G01 X318.226 Y321.103
G01 X318.226 Y320.692
G01 X318.226 Y320.281
G01 X318.226 Y319.870
G01 X318.226 Y319.459
G01 X318.226 Y319.048
G01 X318.226 Y318.637
G01 X318.226 Y318.226
G01 X318.226 Y317.815
G01 X318.226 Y317.404
G01 X318.226 Y316.993
G01 X317.815 Y316.582
G01 X317.815 Y316.171
G01 X317.815 Y315.760
G01 X317.815 Y315.349
G01 X317.815 Y314.938
G01 X317.815 Y314.527
G01 X317.815 Y314.116
G01 X317.815 Y313.705
G01 X317.815 Y313.294
G01 X317.815 Y312.883
G01 X317.815 Y312.472
G01 X317.815 Y312.061
G01 X317.404 Y311.650
G01 X317.404 Y311.239
G01 X317.404 Y310.828
G01 X317.404 Y310.417
G01 X317.404 Y310.006
G01 X317.404 Y309.595
G01 X317.404 Y309.184
G01 X317.404 Y308.773
G01 X317.404 Y308.362
G01 X317.404 Y307.951
G01 X317.404 Y307.540
G01 X317.404 Y307.129
G01 X317.404 Y306.718
G01 X317.404 Y306.307
G01 X317.404 Y305.896
G01 X317.404 Y305.485
G01 X317.404 Y305.074
G01 X317.404 Y304.663
G01 X317.404 Y304.252
G01 X317.404 Y303.841
G01 X317.404 Y303.430
G01 X317.404 Y303.019
G01 X316.993 Y302.608
G01 X316.993 Y302.197
G01 X316.993 Y301.786
G01 X316.993 Y301.375
G01 X316.993 Y300.964
G01 X316.993 Y300.553
G01 X316.993 Y300.142
G01 X316.993 Y299.731
G01 X316.993 Y299.320
G01 X316.993 Y298.909
G01 X316.993 Y298.498
G01 X316.993 Y298.087
G01 X316.993 Y297.676
G01 X316.993 Y297.265
G01 X316.993 Y296.854
G01 X316.993 Y296.443
G01 X316.993 Y296.032
G01 X316.993 Y295.621
G01 X317.404 Y295.210
G01 X317.404 Y294.799
G01 X317.404 Y294.388
G01 X317.404 Y293.977
G01 X317.404 Y293.566
G01 X317.404 Y293.155
G01 X317.404 Y292.744
G01 X317.404 Y292.333
G01 X317.404 Y291.922
G01 X317.404 Y291.511
G01 X317.404 Y291.100
G01 X317.404 Y290.689
G01 X317.404 Y290.278
G01 X317.404 Y289.867
G01 X317.404 Y289.456
G01 X317.404 Y289.045
G01 X317.404 Y288.634
G01 X317.404 Y288.223
G01 X317.404 Y287.812
G01 X317.815 Y287.401
G01 X317.815 Y286.990
G01 X317.815 Y286.579
G01 X317.815 Y286.168
G01 X317.815 Y285.757
G01 X317.815 Y285.346
G01 X317.815 Y284.935
G01 X317.815 Y284.524
G01 X317.815 Y284.113
G01 X318.226 Y283.702
G01 X318.226 Y283.291
G01 X318.226 Y282.880
G01 X318.226 Y282.469
G01 X318.226 Y282.058
G01 X318.226 Y281.647
G01 X318.226 Y281.236
G01 X318.226 Y280.825
G01 X318.637 Y280.414
G01 X318.637 Y280.003
G01 X318.637 Y279.592
G01 X318.637 Y279.181
G01 X318.637 Y278.770
G01 X318.637 Y278.359
G01 X319.048 Y277.948
G01 X319.048 Y277.537
G01 X319.048 Y277.126
G01 X319.048 Y276.715
G01 X319.048 Y276.304
G01 X319.459 Y275.893
G01 X319.459 Y275.482
G01 X319.459 Y275.071
G01 X319.459 Y274.660
G01 X319.459 Y274.249
G01 X319.870 Y273.838
G01 X319.870 Y273.427
G01 X319.870 Y273.016
G01 X319.870 Y272.605
G01 X319.870 Y272.194
G01 X320.281 Y271.783
G01 X320.281 Y271.372
G01 X320.692 Y270.961
G01 X320.281 Y271.372
G01 X320.281 Y271.783
G01 X319.870 Y272.194
G01 X319.870 Y272.605
G01 X319.870 Y273.016
G01 X319.870 Y273.427
G01 X319.870 Y273.838
G01 X319.459 Y274.249
G01 X319.459 Y274.660
G01 X319.459 Y275.071
G01 X319.459 Y275.482
G01 X319.459 Y275.893
G01 X319.048 Y276.304
G01 X319.048 Y276.715
G01 X319.048 Y277.126
G01 X319.048 Y277.537
G01 X319.048 Y277.948
G01 X318.637 Y278.359
G01 X318.637 Y278.770
G01 X318.637 Y279.181
G01 X318.637 Y279.592
G01 X318.637 Y280.003
G01 X318.637 Y280.414
G01 X318.226 Y280.825
G01 X318.226 Y281.236
G01 X318.226 Y281.647
G01 X318.226 Y282.058
G01 X318.226 Y282.469
G01 X318.226 Y282.880
G01 X318.226 Y283.291
G01 X318.226 Y283.702
G01 X317.815 Y284.113
G01 X317.815 Y284.524
G01 X317.815 Y284.935
G01 X317.815 Y285.346
G01 X317.815 Y285.757
G01 X317.815 Y286.168
G01 X317.815 Y286.579
G01 X317.815 Y286.990
G01 X317.815 Y287.401
G01 X317.404 Y287.812
G01 X317.404 Y288.223
G01 X317.404 Y288.634
G01 X317.404 Y289.045
G01 X317.404 Y289.456
G01 X317.404 Y289.867
G01 X317.404 Y290.278
G01 X317.404 Y290.689
G01 X317.404 Y291.100
G01 X317.404 Y291.511
G01 X317.404 Y291.922
G01 X317.404 Y292.333
G01 X317.404 Y292.744
G01 X317.404 Y293.155
G01 X317.404 Y293.566
G01 X317.404 Y293.977
G01 X317.404 Y294.388
G01 X317.404 Y294.799
G01 X317.404 Y295.210
G01 X316.993 Y295.621
G01 X316.993 Y296.032
G01 X316.993 Y296.443
G01 X316.993 Y296.854
G01 X316.993 Y297.265
G01 X316.993 Y297.676
G01 X316.993 Y298.087
G01 X316.993 Y298.498
G01 X316.993 Y298.909
G01 X316.993 Y299.320
G01 X316.993 Y299.731
G01 X316.993 Y300.142
G01 X316.993 Y300.553
G01 X316.993 Y300.964
G01 X316.993 Y301.375
G01 X316.993 Y301.786
G01 X316.993 Y302.197
G01 X316.993 Y302.608
G01 X317.404 Y303.019
G01 X317.404 Y303.430
G01 X317.404 Y303.841
G01 X317.404 Y304.252
G01 X317.404 Y304.663
G01 X317.404 Y305.074
G01 X317.404 Y305.485
G01 X317.404 Y305.896
G01 X317.404 Y306.307
G01 X317.404 Y306.718
G01 X317.404 Y307.129
G01 X317.404 Y307.540
G01 X317.404 Y307.951
G01 X317.404 Y308.362
G01 X317.404 Y308.773
G01 X317.404 Y309.184
G01 X317.404 Y309.595
G01 X317.404 Y310.006
G01 X317.404 Y310.417
G01 X317.404 Y310.828
G01 X317.404 Y311.239
G01 X317.404 Y311.650
G01 X317.815 Y312.061
G01 X317.815 Y312.472
G01 X317.815 Y312.883
G01 X317.815 Y313.294
G01 X317.815 Y313.705
G01 X317.815 Y314.116
G01 X317.815 Y314.527
G01 X317.815 Y314.938
G01 X317.815 Y315.349
G01 X317.815 Y315.760
G01 X317.815 Y316.171
G01 X317.815 Y316.582
G01 X318.226 Y316.993
G01 X318.226 Y317.404
G01 X318.226 Y317.815
G01 X318.226 Y318.226
G01 X318.226 Y318.637
G01 X318.226 Y319.048
G01 X318.226 Y319.459
G01 X318.226 Y319.870
G01 X318.226 Y320.281
G01 X318.226 Y320.692
G01 X318.226 Y321.103
G01 X318.226 Y321.514
G01 X318.637 Y321.925
G01 X318.637 Y322.336
G01 X318.637 Y322.747
G01 X318.637 Y323.158
G01 X318.637 Y323.569
G01 X318.637 Y323.980
G01 X318.637 Y324.391
G01 X318.637 Y324.802
G01 X318.637 Y325.213
G01 X318.637 Y325.624
G01 X318.637 Y326.035
G01 X318.637 Y326.446
G01 X318.637 Y326.857
G01 X318.637 Y327.268
G01 X319.048 Y327.679
G01 X319.048 Y328.090
G01 X319.048 Y328.501
G01 X319.048 Y328.912
G01 X319.048 Y329.323
G01 X319.048 Y329.734
G01 X319.048 Y330.145
G01 X319.048 Y330.556
G01 X319.048 Y330.967
G01 X319.048 Y331.377
G01 X319.048 Y331.788
G01 X319.048 Y332.199
G01 X319.048 Y332.610
G01 X319.048 Y333.021
G01 X319.048 Y333.432
G01 X319.048 Y333.843
G01 X319.048 Y334.254
G01 X319.048 Y334.665
G01 X319.048 Y335.076
G01 X319.048 Y335.487
G01 X319.048 Y335.898
G01 X319.048 Y336.309
G01 X319.048 Y336.720
G01 X319.048 Y337.131
G01 X319.048 Y337.542
G01 X319.048 Y337.953
G01 X319.048 Y338.364
G01 X319.048 Y338.775
G01 X319.048 Y339.186
G01 X319.048 Y339.597
G01 X319.048 Y340.008
G01 X319.048 Y340.419
G01 X319.048 Y340.830
G01 X319.048 Y341.241
G01 X318.637 Y341.652
G01 X318.637 Y342.063
G01 X318.637 Y342.474
G01 X318.637 Y342.885
G01 X318.637 Y343.296
G01 X318.637 Y343.707
G01 X318.637 Y344.118
G01 X318.637 Y344.529
G01 X318.226 Y344.940
G01 X318.226 Y345.351
G01 X318.226 Y345.762
G01 X318.226 Y346.173
G01 X318.226 Y346.584
G01 X317.815 Y346.995
G01 X317.815 Y347.406
G01 X317.815 Y347.817
G01 X317.815 Y348.228
G01 X317.404 Y348.639
G01 X317.404 Y349.050
G01 X317.404 Y349.461
G01 X317.404 Y349.872
G01 X316.993 Y350.283
G01 X316.993 Y350.694
G01 X316.582 Y351.105
G01 X316.582 Y351.516
G01 X316.582 Y351.927
G01 X316.171 Y352.338
G01 X316.171 Y352.749
G01 X315.760 Y353.160
G01 X315.349 Y353.571
G01 X315.349 Y353.982
G01 X314.938 Y354.393
G01 X314.527 Y354.804
G01 X314.116 Y355.215
G01 X314.116 Y355.626
G01 X313.705 Y356.037
G01 X313.294 Y356.448
G01 X312.883 Y356.859
G01 X312.472 Y357.270
G01 X312.061 Y357.270
G01 X311.650 Y357.681
G01 X311.239 Y357.681
G01 X310.828 Y357.681
G01 X310.417 Y358.092
G01 X310.006 Y358.092
G01 X309.595 Y358.092
G01 X309.184 Y358.092
G01 X308.773 Y358.092
G01 X308.362 Y357.681
G01 X308.362 Y357.270
G01 X308.773 Y356.859
G01 X309.184 Y356.448
G01 X309.595 Y356.037
G01 X310.006 Y355.626
G01 X310.417 Y355.215
G01 X310.828 Y354.804
G01 X311.239 Y354.393
G01 X311.650 Y353.982
G01 X312.061 Y353.571
G01 X312.472 Y353.160
G01 X312.883 Y352.749
G01 X313.294 Y352.338
G01 X313.294 Y351.927
G01 X313.705 Y351.516
G01 X313.705 Y351.105
G01 X314.116 Y350.694
G01 X314.116 Y350.283
G01 X314.116 Y349.872
G01 X314.527 Y349.461
G01 X314.527 Y349.050
G01 X314.527 Y348.639
G01 X314.938 Y348.228
G01 X314.938 Y347.817
G01 X314.938 Y347.406
G01 X314.938 Y346.995
G01 X315.349 Y346.584
G01 X315.349 Y346.173
G01 X315.349 Y345.762
G01 X315.349 Y345.351
G01 X315.349 Y344.940
G01 X315.760 Y344.529
G01 X315.760 Y344.118
G01 X315.760 Y343.707
G01 X315.760 Y343.296
G01 X315.760 Y342.885
G01 X315.760 Y342.474
G01 X315.760 Y342.063
G01 X315.760 Y341.652
G01 X315.760 Y341.241
G01 X315.760 Y340.830
G01 X315.760 Y340.419
G01 X316.171 Y340.008
G01 X316.171 Y339.597
G01 X316.171 Y339.186
G01 X316.171 Y338.775
G01 X316.171 Y338.364
G01 X316.171 Y337.953
G01 X316.171 Y337.542
G01 X316.171 Y337.131
G01 X316.171 Y336.720
G01 X316.171 Y336.309
G01 X316.171 Y335.898
G01 X316.171 Y335.487
G01 X316.171 Y335.076
G01 X316.171 Y334.665
G01 X316.171 Y334.254
G01 X316.171 Y333.843
G01 X316.171 Y333.432
G01 X316.171 Y333.021
G01 X316.171 Y332.610
G01 X316.171 Y332.199
G01 X316.171 Y331.788
G01 X316.171 Y331.377
G01 X316.171 Y330.967
G01 X316.171 Y330.556
G01 X316.171 Y330.145
G01 X316.171 Y329.734
G01 X316.171 Y329.323
G01 X316.582 Y328.912
G01 X316.582 Y328.501
G01 X316.582 Y328.090
G01 X316.582 Y327.679
G01 X316.582 Y327.268
G01 X316.582 Y326.857
G01 X316.582 Y326.446
G01 X316.582 Y326.035
G01 X316.582 Y325.624
G01 X316.171 Y325.213
G01 X316.171 Y324.802
G01 X316.171 Y324.391
G01 X316.171 Y323.980
G01 X316.171 Y323.569
G01 X316.171 Y323.158
G01 X316.171 Y322.747
G01 X316.171 Y322.336
G01 X316.171 Y321.925
G01 X316.171 Y321.514
G01 X316.171 Y321.103
G01 X316.171 Y320.692
G01 X316.171 Y320.281
G01 X316.171 Y319.870
G01 X316.171 Y319.459
G01 X316.171 Y319.048
G01 X316.171 Y318.637
G01 X316.171 Y318.226
G01 X316.171 Y317.815
G01 X316.171 Y317.404
G01 X315.760 Y316.993
G01 X315.760 Y316.582
G01 X315.760 Y316.171
G01 X315.760 Y315.760
G01 X315.760 Y315.349
G01 X315.760 Y314.938
G01 X315.760 Y314.527
G01 X315.760 Y314.116
G01 X315.760 Y313.705
G01 X315.760 Y313.294
G01 X315.760 Y312.883
G01 X315.760 Y312.472
G01 X315.760 Y312.061
G01 X315.760 Y311.650
G01 X315.349 Y311.239
G01 X315.349 Y310.828
G01 X315.349 Y310.417
G01 X315.349 Y310.006
G01 X315.349 Y309.595
G01 X315.349 Y309.184
G01 X315.349 Y308.773
G01 X315.349 Y308.362
G01 X315.349 Y307.951
G01 X315.349 Y307.540
G01 X315.349 Y307.129
G01 X314.938 Y306.718
G01 X314.938 Y306.307
G01 X314.938 Y305.896
G01 X315.349 Y305.896
G01 X315.349 Y305.485
G01 X315.349 Y305.074
G01 X314.938 Y304.663
G01 X314.938 Y304.252
G01 X314.938 Y303.841
G01 X314.938 Y303.430
G01 X314.938 Y303.019
G01 X314.938 Y302.608
G01 X314.938 Y302.197
G01 X314.938 Y301.786
G01 X314.938 Y301.375
G01 X314.938 Y300.964
G01 X314.938 Y300.553
G01 X314.938 Y300.142
G01 X314.938 Y299.731
G01 X314.938 Y299.320
G01 X314.938 Y298.909
G01 X314.938 Y298.498
G01 X314.527 Y298.087
G01 X314.527 Y297.676
G01 X314.527 Y297.265
G01 X314.527 Y296.854
G01 X314.527 Y296.443
G01 X314.527 Y296.032
G01 X314.527 Y295.621
G01 X314.527 Y295.210
G01 X314.527 Y294.799
G01 X314.527 Y294.388
G01 X314.527 Y293.977
G01 X314.527 Y293.566
G01 X314.527 Y293.155
G01 X314.527 Y292.744
G01 X314.527 Y292.333
G01 X314.527 Y291.922
G01 X314.527 Y291.511
G01 X314.527 Y291.100
G01 X314.527 Y290.689
G01 X314.527 Y290.278
G01 X314.527 Y289.867
G01 X314.527 Y289.456
G01 X314.527 Y289.045
G01 X314.527 Y288.634
G01 X314.527 Y288.223
G01 X314.527 Y287.812
G01 X314.527 Y287.401
G01 X314.527 Y286.990
G01 X314.527 Y286.579
G01 X314.527 Y286.168
G01 X314.527 Y285.757
G01 X314.527 Y285.346
G01 X314.527 Y284.935
G01 X314.527 Y284.524
G01 X314.527 Y284.935
G01 X314.527 Y285.346
G01 X314.527 Y285.757
G01 X314.527 Y286.168
G01 X314.527 Y286.579
G01 X314.527 Y286.990
G01 X314.527 Y287.401
G01 X314.527 Y287.812
G01 X314.527 Y288.223
G01 X314.527 Y288.634
G01 X314.527 Y289.045
G01 X314.527 Y289.456
G01 X314.527 Y289.867
G01 X314.527 Y290.278
G01 X314.527 Y290.689
G01 X314.527 Y291.100
G01 X314.527 Y291.511
G01 X314.527 Y291.922
G01 X314.527 Y292.333
G01 X314.527 Y292.744
G01 X314.527 Y293.155
G01 X314.527 Y293.566
G01 X314.527 Y293.977
G01 X314.527 Y294.388
G01 X314.527 Y294.799
G01 X314.527 Y295.210
G01 X314.527 Y295.621
G01 X314.527 Y296.032
G01 X314.527 Y296.443
G01 X314.527 Y296.854
G01 X314.527 Y297.265
G01 X314.527 Y297.676
G01 X314.527 Y298.087
G01 X314.938 Y298.498
G01 X314.938 Y298.909
G01 X314.938 Y299.320
G01 X314.938 Y299.731
G01 X314.938 Y300.142
G01 X314.938 Y300.553
G01 X314.938 Y300.964
G01 X314.938 Y301.375
G01 X314.938 Y301.786
G01 X314.938 Y302.197
G01 X314.938 Y302.608
G01 X314.938 Y303.019
G01 X314.938 Y303.430
G01 X314.938 Y303.841
G01 X314.938 Y304.252
G01 X314.938 Y304.663
G01 X315.349 Y305.074
G01 X315.349 Y305.485
G01 X315.349 Y305.896
G01 X314.938 Y305.896
G01 X314.527 Y305.896
G01 X314.116 Y305.896
G01 X313.705 Y305.485
G01 X313.294 Y305.074
G01 X312.883 Y304.663
G01 X312.883 Y304.252
G01 X312.472 Y303.841
G01 X312.472 Y303.430
G01 X312.061 Y303.019
G01 X312.061 Y302.608
G01 X311.650 Y302.197
G01 X311.650 Y301.786
G01 X311.239 Y301.375
G01 X311.239 Y300.964
G01 X310.828 Y300.553
G01 X310.828 Y300.142
G01 X310.417 Y299.731
G01 X310.417 Y299.320
G01 X310.006 Y298.909
G01 X310.006 Y298.498
G01 X309.595 Y298.087
G01 X309.184 Y297.676
G01 X309.184 Y297.265
G01 X309.184 Y296.854
G01 X308.773 Y296.443
G01 X308.773 Y296.032
G01 X308.362 Y295.621
G01 X308.362 Y295.210
G01 X307.951 Y294.799
G01 X307.951 Y294.388
G01 X307.951 Y293.977
G01 X307.540 Y293.566
G01 X307.129 Y293.155
G01 X306.718 Y293.155
G01 X307.129 Y293.155
G01 X306.718 Y292.744
G01 X306.307 Y293.155
G01 X306.307 Y293.566
G01 X306.307 Y293.977
G01 X306.307 Y294.388
G01 X306.307 Y294.799
G01 X305.896 Y295.210
G01 X305.896 Y295.621
G01 X305.896 Y296.032
G01 X305.485 Y296.443
G01 X305.485 Y296.854
G01 X305.485 Y297.265
G01 X305.074 Y297.676
G01 X305.074 Y298.087
G01 X304.663 Y298.498
G01 X304.663 Y298.909
G01 X304.252 Y299.320
G01 X303.841 Y299.731
G01 X303.841 Y300.142
G01 X303.430 Y300.553
G01 X303.019 Y300.964
G01 X302.608 Y301.375
G01 X302.197 Y301.786
G01 X301.786 Y301.786
G01 X301.375 Y302.197
G01 X300.964 Y302.197
G01 X300.553 Y302.197
G01 X300.142 Y302.608
G01 X299.731 Y302.608
G01 X299.320 Y303.019
G01 X298.909 Y303.019
G01 X298.498 Y303.019
G01 X298.087 Y303.430
G01 X297.676 Y303.430
G01 X297.265 Y303.430
G01 X296.854 Y303.430
G01 X296.443 Y303.841
G01 X296.032 Y303.841
G01 X295.621 Y303.841
G01 X295.210 Y303.841
G01 X294.799 Y303.841
G01 X294.388 Y304.252
G01 X293.977 Y304.252
G01 X293.566 Y304.252
G01 X293.155 Y304.252
G01 X292.744 Y304.252
G01 X292.333 Y304.252
G01 X291.922 Y304.663
G01 X291.511 Y304.663
G01 X291.100 Y304.663
G01 X290.689 Y304.663
G01 X290.278 Y304.663
G01 X289.867 Y304.252
G01 X289.456 Y304.252
G01 X289.045 Y303.841
G01 X288.634 Y303.841
G01 X288.223 Y303.430
G01 X287.812 Y303.019
G01 X287.401 Y302.608
G01 X286.990 Y302.197
G01 X286.579 Y301.786
G01 X286.579 Y301.375
G01 X286.579 Y300.964
G01 X286.168 Y300.553
G01 X286.168 Y300.142
G01 X286.168 Y299.731
G01 X286.579 Y299.320
G01 X286.990 Y298.909
G01 X287.401 Y298.909
G01 X287.812 Y298.909
G01 X288.223 Y298.909
G01 X288.634 Y298.909
G01 X289.045 Y298.909
G01 X289.456 Y298.909
G01 X289.867 Y298.909
G01 X290.278 Y298.909
G01 X290.689 Y298.909
G01 X291.100 Y298.909
G01 X291.511 Y298.909
G01 X291.922 Y298.909
G01 X292.333 Y298.909
G01 X292.744 Y298.909
G01 X293.155 Y298.909
G01 X293.566 Y298.498
G01 X293.977 Y298.498
G01 X294.388 Y298.498
G01 X294.799 Y298.498
G01 X295.210 Y298.498
G01 X295.621 Y298.498
G01 X296.032 Y298.498
G01 X296.443 Y298.087
G01 X296.854 Y298.087
G01 X297.265 Y298.087
G01 X297.676 Y298.087
G01 X298.087 Y297.676
G01 X298.498 Y297.676
G01 X298.909 Y297.676
G01 X299.320 Y297.265
G01 X299.731 Y297.265
G01 X300.142 Y296.854
G01 X300.553 Y296.854
G01 X300.964 Y296.443
G01 X301.375 Y296.443
G01 X301.786 Y296.032
G01 X302.197 Y296.032
G01 X302.608 Y295.621
G01 X303.019 Y295.210
G01 X303.430 Y294.799
G01 X303.841 Y294.388
G01 X304.252 Y293.977
G01 X304.663 Y293.566
G01 X305.074 Y293.155
G01 X305.485 Y292.744
G01 X305.896 Y292.333
G01 X306.307 Y292.333
G01 X305.896 Y292.333
G01 X305.896 Y291.922
G01 X306.307 Y292.333
G01 X306.718 Y292.333
G01 X306.718 Y292.744
G01 X306.718 Y292.333
G01 X306.307 Y292.333
G01 X305.896 Y291.922
G01 X305.896 Y291.511
G01 X305.896 Y291.100
G01 X306.307 Y290.689
G01 X306.718 Y290.278
G01 X307.129 Y289.867
G01 X307.540 Y289.867
G01 X307.951 Y289.456
G01 X308.362 Y289.456
G01 X308.773 Y289.045
G01 X309.184 Y288.634
G01 X309.595 Y288.634
G01 X310.006 Y288.223
G01 X310.417 Y287.812
G01 X310.828 Y287.401
G01 X311.239 Y286.990
G01 X311.650 Y286.990
G01 X312.061 Y286.579
G01 X312.472 Y286.168
G01 X312.883 Y285.757
G01 X313.294 Y285.346
G01 X313.705 Y284.935
G01 X314.116 Y284.935
G01 X314.527 Y284.524
G01 X314.527 Y284.113
G01 X314.527 Y283.702
G01 X314.527 Y283.291
G01 X314.527 Y282.880
G01 X314.527 Y282.469
G01 X314.527 Y282.058
G01 X314.527 Y281.647
G01 X314.527 Y281.236
G01 X314.527 Y280.825
G01 X314.527 Y280.414
G01 X314.527 Y280.003
G01 X314.527 Y279.592
G01 X314.527 Y279.181
G01 X314.527 Y278.770
G01 X314.527 Y278.359
G01 X314.527 Y277.948
G01 X314.527 Y277.537
G01 X314.527 Y277.126
G01 X314.527 Y276.715
G01 X314.527 Y276.304
G01 X314.527 Y275.893
G01 X314.527 Y275.482
G01 X314.938 Y275.071
G01 X314.938 Y274.660
G01 X314.938 Y274.249
G01 X314.938 Y273.838
G01 X314.938 Y273.427
G01 X314.938 Y273.016
G01 X314.938 Y272.605
G01 X314.938 Y272.194
G01 X314.938 Y271.783
G01 X314.938 Y271.372
G01 X314.938 Y270.961
G01 X315.349 Y270.550
G01 X315.349 Y270.139
G01 X315.349 Y269.728
G01 X315.349 Y269.317
G01 X315.349 Y268.906
G01 X315.349 Y268.495
G01 X315.349 Y268.084
G01 X315.760 Y267.673
G01 X315.760 Y267.262
G01 X315.760 Y266.851
G01 X315.760 Y266.440
G01 X315.760 Y266.029
G01 X316.171 Y265.618
G01 X316.171 Y265.207
G01 X316.171 Y264.796
G01 X316.582 Y264.385
G01 X316.582 Y263.974
G01 X316.582 Y263.563
G01 X316.582 Y263.152
G01 X316.582 Y262.741
G01 X316.582 Y262.330
G01 X316.993 Y261.919
G01 X316.993 Y261.508
G01 X316.993 Y261.097
G01 X316.993 Y260.686
G01 X317.404 Y260.275
G01 X317.404 Y259.864
G01 X317.404 Y259.453
G01 X317.815 Y259.042
G01 X317.815 Y258.631
G01 X317.815 Y258.220
G01 X318.226 Y257.809
G01 X318.226 Y257.398
G01 X318.226 Y256.987
G01 X318.637 Y256.576
G01 X318.637 Y256.165
G01 X319.048 Y255.754
G01 X319.048 Y255.343
G01 X319.048 Y254.932
G01 X319.459 Y254.521
G01 X319.459 Y254.110
G01 X319.870 Y253.699
G01 X319.870 Y253.288
G01 X320.281 Y252.877
G01 X320.281 Y252.466
G01 X320.692 Y252.055
G01 X320.692 Y251.644
G01 X321.103 Y251.233
G01 X321.103 Y250.822
G01 X321.103 Y250.411
G01 X321.514 Y250.000
G01 X321.514 Y249.589
G01 X321.925 Y249.178
G01 X321.925 Y248.767
G01 X322.336 Y248.356
G01 X322.336 Y247.945
G01 X322.747 Y247.534
G01 X323.158 Y247.123
G01 X323.158 Y246.712
G01 X323.569 Y246.301
G01 X323.569 Y245.890
G01 X323.980 Y245.479
G01 X323.980 Y245.068
G01 X324.391 Y244.657
G01 X324.391 Y244.246
G01 X324.802 Y243.835
G01 X325.213 Y243.424
G01 X325.213 Y243.013
G01 X325.624 Y242.602
G01 X325.624 Y242.191
G01 X326.035 Y241.780
G01 X326.035 Y241.369
G01 X326.446 Y240.958
G01 X326.857 Y240.547
G01 X326.857 Y240.136
G01 X327.268 Y239.725
G01 X327.679 Y239.314
G01 X327.679 Y238.903
G01 X328.090 Y238.492
G01 X328.090 Y238.081
G01 X328.501 Y237.670
G01 X328.912 Y237.259
G01 X328.912 Y236.848
G01 X329.323 Y236.437
G01 X329.734 Y236.026
G01 X330.145 Y236.026
G01 X330.145 Y235.615
G01 X330.556 Y235.204
G01 X330.556 Y234.793
G01 X330.556 Y234.382
G01 X330.967 Y233.971
G01 X330.967 Y233.560
G01 X330.967 Y233.149
G01 X331.377 Y232.738
G01 X331.377 Y232.327
G01 X331.788 Y231.916
G01 X332.199 Y231.505
