;  Created by Sandify
;  https://sandify.org
;  Version: 0.2.6
;
;  Machine type: Rectangular
;    Min X (mm): 0
;    Max X (mm): 500
;    Min Y (mm): 0
;    Max Y (mm): 500
;  Content type: shape
;  Layer:
;    Shape: Polygon
;    Name: polygon
;    Number of sides: 4
;    Round corners: false
;    Visible: true
;    Initial width: 10
;    Initial height: 10
;    X offset: 0
;    Y offset: 0
;    Rotate (degrees): 0
;    Reverse path: false
;    Number of loops: 10
;    When transforming shape: smear
;    Scale: true
;      Scale (+/-): 100
;      Scale by: constant
;    Spin: false
;    Track: false
;    Fine tuning:
;      Connect to next layer: line
;      Draw portion of path (%): 100
;      Backtrack at end (%): 0
;      Rotate starting point (%): 0
;  Layer:
;    Shape: FileImport
;    Name: coolballs.thr
;    From file:: coolballs.thr
;    Aspect Ratio: true
;    Comments: 
;    Visible: true
;    Initial width: 10
;    Initial height: 10
;    X offset: 0
;    Y offset: 0
;    Rotate (degrees): 0
;    Reverse path: false
;    Fine tuning:
;      Connect to next layer: line
;      Draw portion of path (%): 100
;      Backtrack at end (%): 0
;      Rotate starting point (%): 0
;  Reverse export path: false
;
; File name: 'coolballs'
; File type: gcode
;

G01 X257.071 Y257.071
G01 X241.161 Y258.839
G01 X239.393 Y239.393
G01 X262.374 Y237.626
G01 X264.142 Y264.142
G01 X234.090 Y265.910
G01 X232.322 Y232.322
G01 X269.445 Y230.555
G01 X271.213 Y271.213
G01 X227.019 Y272.981
G01 X225.251 Y225.251
G01 X276.517 Y223.483
G01 X278.284 Y278.284
G01 X219.948 Y280.052
G01 X218.180 Y218.180
G01 X283.588 Y216.412
G01 X285.355 Y285.355
G01 X212.877 Y287.123
G01 X211.109 Y211.109
G01 X290.659 Y209.341
G01 X292.426 Y292.426
G01 X205.806 Y294.194
G01 X204.038 Y204.038
G01 X297.730 Y202.270
G01 X299.497 Y299.497
G01 X198.735 Y301.265
G01 X196.967 Y196.967
G01 X304.801 Y195.199
G01 X306.569 Y306.569
G01 X191.664 Y308.336
G01 X189.896 Y189.896
G01 X311.872 Y188.128
G01 X313.640 Y313.640
G01 X184.593 Y315.407
G01 X182.825 Y182.825
G01 X318.943 Y181.057
G01 X320.711 Y320.711
G01 X177.522 Y322.478
G01 X175.754 Y175.754
G01 X326.014 Y173.986
G01 X326.014 Y173.986
G01 X250.000 Y250.000
G01 X250.000 Y250.000
G01 X250.000 Y500.000
G01 X237.765 Y499.056
G01 X226.310 Y497.619
G01 X214.113 Y496.679
G01 X202.620 Y495.238
G01 X200.251 Y495.000
G01 X212.621 Y495.253
G01 X222.638 Y495.000
G01 X234.742 Y495.254
G01 X245.025 Y495.000
G01 X257.061 Y495.254
G01 X267.412 Y495.000
G01 X279.582 Y495.254
G01 X289.799 Y495.000
G01 X299.749 Y495.000
G01 X311.711 Y492.264
G01 X320.000 Y490.000
G01 X307.447 Y490.249
G01 X297.895 Y490.000
G01 X285.791 Y490.252
G01 X275.789 Y490.000
G01 X263.940 Y490.253
G01 X253.684 Y490.000
G01 X241.891 Y490.253
G01 X231.579 Y490.000
G01 X219.642 Y490.253
G01 X209.474 Y490.000
G01 X197.191 Y490.251
G01 X187.368 Y490.000
G01 X180.000 Y490.000
G01 X168.308 Y486.276
G01 X164.706 Y485.000
G01 X177.464 Y485.256
G01 X186.957 Y485.000
G01 X199.115 Y485.260
G01 X209.207 Y485.000
G01 X220.967 Y485.262
G01 X231.458 Y485.000
G01 X243.022 Y485.263
G01 X253.708 Y485.000
G01 X265.282 Y485.263
G01 X275.959 Y485.000
G01 X287.750 Y485.262
G01 X298.209 Y485.000
G01 X310.429 Y485.260
G01 X320.460 Y485.000
G01 X333.250 Y485.055
G01 X335.294 Y485.000
G01 X346.722 Y480.532
G01 X347.980 Y480.000
G01 X334.999 Y480.260
G01 X325.655 Y480.000
G01 X313.406 Y480.267
G01 X303.331 Y480.000
G01 X291.607 Y480.270
G01 X281.006 Y480.000
G01 X269.600 Y480.271
G01 X258.682 Y480.000
G01 X247.384 Y480.271
G01 X236.357 Y480.000
G01 X224.956 Y480.271
G01 X214.033 Y480.000
G01 X202.312 Y480.270
G01 X191.708 Y480.000
G01 X179.450 Y480.266
G01 X169.384 Y480.000
G01 X156.425 Y480.122
G01 X152.020 Y480.000
G01 X141.028 Y475.000
G01 X154.246 Y475.260
G01 X163.317 Y475.000
G01 X175.687 Y475.270
G01 X185.607 Y475.000
G01 X197.336 Y475.274
G01 X207.897 Y475.000
G01 X219.196 Y475.276
G01 X230.187 Y475.000
G01 X241.267 Y475.276
G01 X252.327 Y475.007
G01 X252.477 Y475.000
G01 X263.554 Y475.276
G01 X274.665 Y475.005
G01 X274.766 Y475.000
G01 X286.059 Y475.276
G01 X297.056 Y475.000
G01 X308.785 Y475.274
G01 X319.346 Y475.000
G01 X331.733 Y475.269
G01 X341.636 Y475.000
G01 X354.841 Y475.118
G01 X358.972 Y475.000
G01 X368.743 Y470.000
G01 X355.275 Y470.266
G01 X346.245 Y470.000
G01 X333.745 Y470.279
G01 X323.746 Y470.000
G01 X311.999 Y470.285
G01 X301.247 Y470.000
G01 X290.034 Y470.287
G01 X278.917 Y470.009
G01 X278.748 Y470.000
G01 X267.849 Y470.287
G01 X256.991 Y470.037
G01 X256.250 Y470.000
G01 X245.442 Y470.287
G01 X234.622 Y470.043
G01 X233.751 Y470.000
G01 X222.809 Y470.287
G01 X211.800 Y470.027
G01 X211.252 Y470.000
G01 X199.947 Y470.287
G01 X188.753 Y470.000
G01 X176.852 Y470.284
G01 X166.255 Y470.000
G01 X153.524 Y470.275
G01 X143.756 Y470.000
G01 X131.257 Y470.000
G01 X122.426 Y465.000
G01 X136.166 Y465.260
G01 X144.721 Y465.000
G01 X157.389 Y465.276
G01 X167.015 Y465.000
G01 X178.831 Y465.285
G01 X189.310 Y465.000
G01 X200.491 Y465.288
G01 X211.554 Y465.003
G01 X211.604 Y465.000
G01 X222.371 Y465.288
G01 X233.074 Y465.041
G01 X233.898 Y465.000
G01 X244.474 Y465.288
G01 X255.038 Y465.057
G01 X256.193 Y465.000
G01 X266.801 Y465.288
G01 X277.453 Y465.051
G01 X278.487 Y465.000
G01 X289.358 Y465.288
G01 X300.325 Y465.023
G01 X300.782 Y465.000
G01 X312.147 Y465.287
G01 X323.076 Y465.000
G01 X335.170 Y465.282
G01 X345.370 Y465.000
G01 X358.428 Y465.269
G01 X367.665 Y465.000
G01 X377.574 Y465.000
G01 X385.647 Y460.000
G01 X371.626 Y460.261
G01 X363.246 Y460.000
G01 X350.408 Y460.282
G01 X340.846 Y460.000
G01 X328.963 Y460.293
G01 X318.446 Y460.000
G01 X307.294 Y460.297
G01 X296.280 Y460.012
G01 X296.045 Y460.000
G01 X285.398 Y460.297
G01 X274.833 Y460.060
G01 X273.645 Y460.000
G01 X263.274 Y460.297
G01 X252.930 Y460.083
G01 X251.244 Y460.000
G01 X240.918 Y460.297
G01 X230.565 Y460.085
G01 X228.844 Y460.000
G01 X218.326 Y460.297
G01 X207.729 Y460.064
G01 X206.444 Y460.000
G01 X195.496 Y460.297
G01 X184.415 Y460.019
G01 X184.043 Y460.000
G01 X172.423 Y460.294
G01 X161.643 Y460.000
G01 X149.107 Y460.284
G01 X139.243 Y460.000
G01 X125.549 Y460.265
G01 X116.842 Y460.000
G01 X114.353 Y460.000
G01 X106.909 Y455.000
G01 X121.228 Y455.258
G01 X129.306 Y455.000
G01 X142.338 Y455.283
G01 X151.703 Y455.000
G01 X163.679 Y455.297
G01 X174.100 Y455.000
G01 X185.251 Y455.303
G01 X196.247 Y455.013
G01 X196.496 Y455.000
G01 X207.054 Y455.304
G01 X217.511 Y455.071
G01 X218.893 Y455.000
G01 X229.089 Y455.303
G01 X239.239 Y455.102
G01 X241.290 Y455.000
G01 X251.360 Y455.303
G01 X261.439 Y455.110
G01 X263.687 Y455.000
G01 X273.871 Y455.303
G01 X284.118 Y455.098
G01 X286.084 Y455.000
G01 X296.626 Y455.304
G01 X307.284 Y455.061
G01 X308.481 Y455.000
G01 X319.629 Y455.302
G01 X330.877 Y455.000
G01 X342.880 Y455.295
G01 X353.274 Y455.000
G01 X366.380 Y455.280
G01 X375.671 Y455.000
G01 X390.024 Y455.097
G01 X393.091 Y455.000
G01 X400.000 Y450.000
G01 X385.364 Y450.252
G01 X377.686 Y450.000
G01 X364.437 Y450.281
G01 X355.372 Y450.000
G01 X343.275 Y450.299
G01 X333.058 Y450.000
G01 X321.878 Y450.307
G01 X310.872 Y450.007
G01 X310.744 Y450.000
G01 X300.247 Y450.309
G01 X289.868 Y450.075
G01 X288.430 Y450.000
G01 X278.380 Y450.308
G01 X268.394 Y450.114
G01 X266.116 Y450.000
G01 X256.275 Y450.307
G01 X246.443 Y450.130
G01 X243.802 Y450.000
G01 X233.927 Y450.307
G01 X224.008 Y450.125
G01 X221.488 Y450.000
G01 X211.332 Y450.308
G01 X201.079 Y450.097
G01 X199.174 Y450.000
G01 X188.487 Y450.308
G01 X177.650 Y450.042
G01 X176.860 Y450.000
G01 X165.388 Y450.304
G01 X154.545 Y450.000
G01 X142.035 Y450.291
G01 X132.231 Y450.000
G01 X118.429 Y450.268
G01 X109.917 Y450.000
G01 X100.000 Y450.000
G01 X93.555 Y445.000
G01 X108.524 Y445.248
G01 X115.904 Y445.000
G01 X129.379 Y445.282
G01 X138.254 Y445.000
G01 X150.476 Y445.303
G01 X160.603 Y445.000
G01 X171.815 Y445.314
G01 X182.839 Y445.006
G01 X182.952 Y445.000
G01 X193.414 Y445.251
G01 X202.818 Y445.000
G01 X212.792 Y445.253
G01 X222.675 Y445.000
G01 X222.684 Y445.000
G01 X232.362 Y445.253
G01 X241.999 Y445.027
G01 X242.550 Y445.000
G01 X252.129 Y445.253
G01 X261.714 Y445.034
G01 X262.416 Y445.000
G01 X272.094 Y445.253
G01 X281.825 Y445.023
G01 X282.282 Y445.000
G01 X292.260 Y445.252
G01 X302.148 Y445.000
G01 X312.630 Y445.250
G01 X322.014 Y445.000
G01 X333.235 Y445.312
G01 X344.364 Y445.000
G01 X356.639 Y445.300
G01 X366.713 Y445.000
G01 X380.303 Y445.277
G01 X389.062 Y445.000
G01 X404.100 Y445.078
G01 X406.445 Y445.000
G01 X412.481 Y440.000
G01 X397.163 Y440.247
G01 X389.983 Y440.000
G01 X376.276 Y440.286
G01 X367.486 Y440.000
G01 X355.135 Y440.311
G01 X344.989 Y440.000
G01 X333.712 Y440.252
G01 X324.991 Y440.000
G01 X314.496 Y440.259
G01 X304.993 Y440.000
G01 X295.081 Y440.262
G01 X285.277 Y440.015
G01 X284.996 Y440.000
G01 X275.467 Y440.262
G01 X265.997 Y440.050
G01 X264.998 Y440.000
G01 X255.650 Y440.262
G01 X246.312 Y440.065
G01 X245.001 Y440.000
G01 X235.628 Y440.262
G01 X226.218 Y440.060
G01 X225.003 Y440.000
G01 X215.398 Y440.262
G01 X205.707 Y440.036
G01 X205.005 Y440.000
G01 X194.956 Y440.261
G01 X185.008 Y440.000
G01 X174.301 Y440.257
G01 X165.010 Y440.000
G01 X153.432 Y440.246
G01 X145.012 Y440.000
G01 X132.301 Y440.303
G01 X122.515 Y440.000
G01 X108.315 Y440.272
G01 X100.018 Y440.000
G01 X87.519 Y440.000
G01 X81.848 Y435.000
G01 X97.541 Y435.236
G01 X104.269 Y435.000
G01 X118.248 Y435.281
G01 X126.689 Y435.000
G01 X139.213 Y435.311
G01 X149.109 Y435.000
G01 X160.470 Y435.253
G01 X169.038 Y435.000
G01 X179.539 Y435.263
G01 X188.967 Y435.000
G01 X198.810 Y435.267
G01 X208.531 Y435.019
G01 X208.896 Y435.000
G01 X218.285 Y435.267
G01 X227.600 Y435.062
G01 X228.825 Y435.000
G01 X237.964 Y435.266
G01 X247.078 Y435.083
G01 X248.754 Y435.000
G01 X257.852 Y435.266
G01 X266.972 Y435.084
G01 X268.684 Y435.000
G01 X277.951 Y435.267
G01 X287.289 Y435.066
G01 X288.613 Y435.000
G01 X298.265 Y435.267
G01 X308.035 Y435.026
G01 X308.542 Y435.000
G01 X318.796 Y435.264
G01 X328.471 Y435.000
G01 X339.546 Y435.256
G01 X348.400 Y435.000
G01 X360.515 Y435.239
G01 X368.329 Y435.000
G01 X381.758 Y435.290
G01 X390.749 Y435.000
G01 X405.865 Y435.249
G01 X413.169 Y435.000
G01 X418.152 Y435.000
G01 X423.494 Y430.000
G01 X407.407 Y430.229
G01 X401.027 Y430.000
G01 X386.767 Y430.280
G01 X378.560 Y430.000
G01 X365.809 Y430.233
G01 X358.589 Y430.000
G01 X347.013 Y430.256
G01 X338.619 Y430.000
G01 X328.009 Y430.269
G01 X318.649 Y430.000
G01 X308.795 Y430.274
G01 X299.083 Y430.022
G01 X298.678 Y430.000
G01 X289.373 Y430.275
G01 X280.159 Y430.075
G01 X278.708 Y430.000
G01 X269.740 Y430.274
G01 X260.816 Y430.103
G01 X258.737 Y430.000
G01 X249.894 Y430.273
G01 X241.046 Y430.112
G01 X238.767 Y430.000
G01 X229.831 Y430.274
G01 X220.843 Y430.102
G01 X218.796 Y430.000
G01 X209.548 Y430.275
G01 X200.198 Y430.070
G01 X198.826 Y430.000
G01 X189.040 Y430.274
G01 X179.107 Y430.014
G01 X178.855 Y430.000
G01 X168.307 Y430.268
G01 X158.885 Y430.000
G01 X147.348 Y430.254
G01 X138.914 Y430.000
G01 X126.109 Y430.309
G01 X116.447 Y430.000
G01 X101.995 Y430.271
G01 X93.981 Y430.000
G01 X77.763 Y430.045
G01 X76.506 Y430.000
G01 X71.464 Y425.000
G01 X87.970 Y425.218
G01 X93.937 Y425.000
G01 X108.501 Y425.276
G01 X116.410 Y425.000
G01 X129.366 Y425.232
G01 X136.386 Y425.000
G01 X148.079 Y425.258
G01 X156.362 Y425.000
G01 X167.008 Y425.274
G01 X176.338 Y425.000
G01 X186.152 Y425.281
G01 X195.812 Y425.028
G01 X196.314 Y425.000
G01 X205.510 Y425.282
G01 X214.602 Y425.088
G01 X216.290 Y425.000
G01 X225.083 Y425.281
G01 X233.822 Y425.123
G01 X236.266 Y425.000
G01 X244.875 Y425.279
G01 X253.478 Y425.136
G01 X256.243 Y425.000
G01 X264.890 Y425.280
G01 X273.579 Y425.131
G01 X276.219 Y425.000
G01 X285.130 Y425.281
G01 X294.132 Y425.105
G01 X296.195 Y425.000
G01 X305.601 Y425.281
G01 X315.144 Y425.055
G01 X316.171 Y425.000
G01 X326.304 Y425.278
G01 X336.147 Y425.000
G01 X347.239 Y425.266
G01 X356.123 Y425.000
G01 X368.407 Y425.244
G01 X376.099 Y425.000
G01 X389.872 Y425.292
G01 X398.572 Y425.000
G01 X414.235 Y425.241
G01 X421.045 Y425.000
G01 X428.536 Y425.000
G01 X433.303 Y420.000
G01 X416.350 Y420.205
G01 X410.858 Y420.000
G01 X395.962 Y420.269
G01 X388.412 Y420.000
G01 X375.227 Y420.228
G01 X368.461 Y420.000
G01 X356.627 Y420.259
G01 X348.510 Y420.000
G01 X337.806 Y420.278
G01 X328.558 Y420.000
G01 X318.764 Y420.287
G01 X309.134 Y420.030
G01 X308.607 Y420.000
G01 X299.502 Y420.288
G01 X290.512 Y420.099
G01 X288.656 Y420.000
G01 X280.020 Y420.287
G01 X271.450 Y420.139
G01 X268.704 Y420.000
G01 X260.314 Y420.285
G01 X251.942 Y420.157
G01 X248.753 Y420.000
G01 X240.382 Y420.285
G01 X231.980 Y420.157
G01 X228.802 Y420.000
G01 X220.218 Y420.287
G01 X211.555 Y420.137
G01 X208.850 Y420.000
G01 X199.818 Y420.288
G01 X190.660 Y420.093
G01 X188.899 Y420.000
G01 X179.180 Y420.286
G01 X169.290 Y420.019
G01 X168.948 Y420.000
G01 X158.303 Y420.277
G01 X148.996 Y420.000
G01 X137.187 Y420.257
G01 X129.045 Y420.000
G01 X115.833 Y420.225
G01 X109.094 Y420.000
G01 X94.165 Y420.264
G01 X86.648 Y420.000
G01 X69.674 Y420.109
G01 X66.697 Y420.000
G01 X62.184 Y415.000
G01 X79.613 Y415.188
G01 X84.572 Y415.000
G01 X99.828 Y415.259
G01 X106.961 Y415.000
G01 X120.404 Y415.223
G01 X126.862 Y415.000
G01 X138.863 Y415.258
G01 X146.763 Y415.000
G01 X157.549 Y415.281
G01 X166.664 Y415.000
G01 X176.462 Y415.292
G01 X186.084 Y415.028
G01 X186.565 Y415.000
G01 X195.600 Y415.294
G01 X204.509 Y415.106
G01 X206.466 Y415.000
G01 X214.964 Y415.293
G01 X223.384 Y415.153
G01 X226.367 Y415.000
G01 X234.555 Y415.290
G01 X242.713 Y415.176
G01 X246.269 Y415.000
G01 X254.377 Y415.290
G01 X262.505 Y415.180
G01 X266.170 Y415.000
G01 X274.436 Y415.291
G01 X282.770 Y415.166
G01 X286.071 Y415.000
G01 X294.736 Y415.293
G01 X303.515 Y415.129
G01 X305.972 Y415.000
G01 X315.279 Y415.293
G01 X324.748 Y415.062
G01 X325.873 Y415.000
G01 X336.069 Y415.286
G01 X345.774 Y415.000
G01 X357.103 Y415.269
G01 X365.675 Y415.000
G01 X378.382 Y415.239
G01 X385.576 Y415.000
G01 X399.980 Y415.280
G01 X407.965 Y415.000
G01 X424.495 Y415.216
G01 X430.353 Y415.000
G01 X437.816 Y415.000
G01 X442.094 Y410.000
G01 X424.162 Y410.175
G01 X419.641 Y410.000
G01 X404.014 Y410.253
G01 X397.189 Y410.000
G01 X383.488 Y410.221
G01 X377.231 Y410.000
G01 X365.070 Y410.261
G01 X357.273 Y410.000
G01 X346.415 Y410.286
G01 X337.315 Y410.000
G01 X327.525 Y410.300
G01 X317.921 Y410.033
G01 X317.358 Y410.000
G01 X308.402 Y410.303
G01 X299.582 Y410.120
G01 X297.400 Y410.000
G01 X289.046 Y410.302
G01 X280.777 Y410.173
G01 X277.442 Y410.000
G01 X269.454 Y410.298
G01 X261.504 Y410.200
G01 X257.484 Y410.000
G01 X249.624 Y410.297
G01 X241.753 Y410.208
G01 X237.526 Y410.000
G01 X229.550 Y410.298
G01 X221.514 Y410.197
G01 X217.569 Y410.000
G01 X209.226 Y410.302
G01 X200.778 Y410.165
G01 X197.611 Y410.000
G01 X188.650 Y410.303
G01 X179.536 Y410.104
G01 X177.653 Y410.000
G01 X167.818 Y410.297
G01 X157.785 Y410.005
G01 X157.695 Y410.000
G01 X146.732 Y410.282
G01 X137.737 Y410.000
G01 X125.392 Y410.253
G01 X117.780 Y410.000
G01 X103.723 Y410.295
G01 X95.327 Y410.000
G01 X79.117 Y410.230
G01 X72.875 Y410.000
G01 X57.906 Y410.000
G01 X53.850 Y405.000
G01 X72.319 Y405.158
G01 X76.338 Y405.000
G01 X92.368 Y405.244
G01 X98.827 Y405.000
G01 X112.814 Y405.216
G01 X118.817 Y405.000
G01 X131.164 Y405.261
G01 X138.806 Y405.000
G01 X149.759 Y405.291
G01 X158.796 Y405.000
G01 X168.598 Y405.307
G01 X178.206 Y405.035
G01 X178.786 Y405.000
G01 X187.708 Y405.242
G01 X196.277 Y405.000
G01 X204.592 Y405.244
G01 X212.801 Y405.052
G01 X213.768 Y405.000
G01 X221.663 Y405.244
G01 X229.495 Y405.090
G01 X231.260 Y405.000
G01 X238.923 Y405.243
G01 X246.564 Y405.108
G01 X248.751 Y405.000
G01 X256.373 Y405.242
G01 X264.016 Y405.110
G01 X266.242 Y405.000
G01 X274.018 Y405.243
G01 X281.856 Y405.094
G01 X283.733 Y405.000
G01 X291.860 Y405.244
G01 X300.091 Y405.059
G01 X301.224 Y405.000
G01 X309.903 Y405.242
G01 X318.715 Y405.000
G01 X328.184 Y405.308
G01 X337.844 Y405.050
G01 X338.705 Y405.000
G01 X349.294 Y405.294
G01 X358.695 Y405.000
G01 X370.667 Y405.267
G01 X378.685 Y405.000
G01 X392.300 Y405.224
G01 X398.675 Y405.000
G01 X414.286 Y405.253
G01 X421.163 Y405.000
G01 X439.240 Y405.170
G01 X443.652 Y405.000
G01 X446.150 Y405.000
G01 X450.000 Y400.000
G01 X430.948 Y400.132
G01 X427.640 Y400.000
G01 X411.151 Y400.226
G01 X405.280 Y400.000
G01 X390.943 Y400.204
G01 X385.404 Y400.000
G01 X372.806 Y400.255
G01 X365.528 Y400.000
G01 X354.417 Y400.289
G01 X345.652 Y400.000
G01 X335.778 Y400.309
G01 X326.109 Y400.021
G01 X325.776 Y400.000
G01 X316.860 Y400.245
G01 X308.385 Y400.000
G01 X300.142 Y400.249
G01 X292.017 Y400.056
G01 X290.994 Y400.000
G01 X283.234 Y400.248
G01 X275.550 Y400.100
G01 X273.602 Y400.000
G01 X266.135 Y400.247
G01 X258.701 Y400.124
G01 X256.211 Y400.000
G01 X248.843 Y400.246
G01 X241.465 Y400.130
G01 X238.820 Y400.000
G01 X231.352 Y400.247
G01 X223.833 Y400.120
G01 X221.429 Y400.000
G01 X213.660 Y400.248
G01 X205.799 Y400.091
G01 X204.037 Y400.000
G01 X195.764 Y400.248
G01 X187.357 Y400.039
G01 X186.646 Y400.000
G01 X177.662 Y400.243
G01 X169.255 Y400.000
G01 X159.308 Y400.305
G01 X149.379 Y400.000
G01 X138.119 Y400.283
G01 X129.503 Y400.000
G01 X116.664 Y400.245
G01 X109.627 Y400.000
G01 X94.852 Y400.277
G01 X87.267 Y400.000
G01 X70.084 Y400.198
G01 X64.907 Y400.000
G01 X50.000 Y400.000
G01 X46.346 Y395.000
G01 X66.017 Y395.109
G01 X68.698 Y395.000
G01 X85.663 Y395.211
G01 X91.050 Y395.000
G01 X105.739 Y395.194
G01 X110.919 Y395.000
G01 X123.763 Y395.251
G01 X130.788 Y395.000
G01 X142.047 Y395.291
G01 X150.657 Y395.000
G01 X160.638 Y395.235
G01 X168.042 Y395.000
G01 X177.062 Y395.249
G01 X185.427 Y395.000
G01 X193.681 Y395.255
G01 X201.802 Y395.056
G01 X202.812 Y395.000
G01 X210.496 Y395.256
G01 X218.091 Y395.111
G01 X220.197 Y395.000
G01 X227.508 Y395.254
G01 X234.771 Y395.141
G01 X237.582 Y395.000
G01 X244.723 Y395.130
G01 X250.000 Y395.000
G01 X250.000 Y443.500
G01 X250.205 Y443.922
G01 X251.177 Y443.945
G01 X251.870 Y442.259
G01 X250.930 Y440.718
G01 X249.254 Y440.087
G01 X247.501 Y440.407
G01 X246.083 Y441.478
G01 X245.222 Y443.027
G01 X245.388 Y446.506
G01 X247.650 Y449.160
G01 X251.006 Y450.119
G01 X254.383 Y449.234
G01 X256.938 Y446.851
G01 X258.163 Y443.579
G01 X257.893 Y440.094
G01 X256.249 Y437.009
G01 X253.548 Y434.790
G01 X250.220 Y433.718
G01 X246.728 Y433.893
G01 X243.504 Y435.248
G01 X239.931 Y439.049
G01 X238.520 Y444.074
G01 X239.489 Y449.205
G01 X242.561 Y453.430
G01 X247.105 Y456.010
G01 X252.304 Y456.557
G01 X257.309 Y455.045
G01 X261.377 Y451.758
G01 X263.957 Y447.207
G01 X264.742 Y442.034
G01 X263.674 Y436.911
G01 X260.926 Y432.457
G01 X256.851 Y429.172
G01 X251.927 Y427.393
G01 X246.693 Y427.278
G01 X241.685 Y428.808
G01 X237.388 Y431.801
G01 X234.193 Y435.951
G01 X232.370 Y440.862
G01 X232.056 Y446.090
G01 X233.253 Y451.191
G01 X236.972 Y457.082
G01 X242.584 Y461.213
G01 X249.303 Y463.066
G01 X256.246 Y462.444
G01 X262.551 Y459.466
G01 X267.475 Y454.529
G01 X270.474 Y448.233
G01 X271.244 Y441.301
G01 X269.736 Y434.490
G01 X266.143 Y428.511
G01 X262.309 Y424.935
G01 X256.106 Y421.741
G01 X249.223 Y420.593
G01 X242.313 Y421.573
G01 X236.006 Y424.562
G01 X230.854 Y429.271
G01 X227.287 Y435.271
G01 X225.586 Y442.042
G01 X225.870 Y449.017
G01 X228.091 Y455.636
G01 X232.055 Y461.384
G01 X237.439 Y465.830
G01 X245.522 Y469.085
G01 X254.228 Y469.480
G01 X262.586 Y467.008
G01 X269.699 Y461.971
G01 X274.836 Y454.929
G01 X277.494 Y446.625
G01 X277.665 Y439.642
G01 X276.097 Y432.835
G01 X272.902 Y426.622
G01 X268.289 Y421.376
G01 X262.543 Y417.401
G01 X256.013 Y414.918
G01 X249.079 Y414.059
G01 X242.138 Y414.858
G01 X235.575 Y417.257
G01 X229.748 Y421.113
G01 X224.964 Y426.206
G01 X221.468 Y432.257
G01 X219.167 Y440.672
G01 X219.306 Y449.396
G01 X221.853 Y457.742
G01 X226.590 Y465.070
G01 X233.140 Y470.836
G01 X241.001 Y474.625
G01 X249.589 Y476.177
G01 X258.282 Y475.399
G01 X266.466 Y472.366
G01 X273.577 Y467.305
G01 X279.139 Y460.578
G01 X282.791 Y452.650
G01 X284.306 Y444.053
G01 X283.601 Y435.352
G01 X280.737 Y427.105
G01 X275.913 Y419.829
G01 X270.849 Y415.009
G01 X264.933 Y411.283
G01 X258.403 Y408.788
G01 X251.511 Y407.614
G01 X244.522 Y407.798
G01 X237.699 Y409.325
G01 X231.296 Y412.132
G01 X224.234 Y417.268
G01 X218.583 Y423.925
G01 X214.649 Y431.721
G01 X212.639 Y440.219
G01 X212.649 Y448.952
G01 X214.666 Y457.449
G01 X219.562 Y466.704
G01 X226.784 Y474.285
G01 X235.779 Y479.644
G01 X245.880 Y482.403
G01 X256.352 Y482.384
G01 X266.449 Y479.605
G01 X275.467 Y474.281
G01 X282.790 Y466.795
G01 X287.933 Y457.671
G01 X290.562 Y447.533
G01 X290.521 Y437.059
G01 X288.455 Y428.571
G01 X284.647 Y420.709
G01 X279.276 Y413.819
G01 X272.587 Y408.200
G01 X264.877 Y404.090
G01 X257.169 Y401.878
G01 X256.486 Y401.660
G01 X250.000 Y401.000
G01 X242.552 Y401.658
G01 X235.334 Y403.611
G01 X228.570 Y406.798
G01 X222.470 Y411.122
G01 X217.221 Y416.448
G01 X212.988 Y422.611
G01 X209.900 Y429.421
G01 X207.724 Y439.140
G01 X207.870 Y449.099
G01 X210.330 Y458.750
G01 X214.969 Y467.564
G01 X221.531 Y475.056
G01 X229.657 Y480.815
G01 X238.900 Y484.525
G01 X248.752 Y485.982
G01 X258.673 Y485.106
G01 X268.118 Y481.945
G01 X276.568 Y476.672
G01 X283.559 Y469.578
G01 X288.706 Y461.052
G01 X291.728 Y451.562
G01 X292.459 Y441.629
G01 X290.857 Y431.799
G01 X288.174 Y424.819
G01 X284.310 Y418.418
G01 X279.383 Y412.794
G01 X273.547 Y408.119
G01 X266.982 Y404.540
G01 X259.891 Y402.167
G01 X252.494 Y401.073
G01 X250.000 Y401.000
G01 X242.552 Y401.658
G01 X235.334 Y403.611
G01 X228.570 Y406.798
G01 X222.470 Y411.122
G01 X217.221 Y416.448
G01 X212.988 Y422.611
G01 X209.900 Y429.421
G01 X207.724 Y439.140
G01 X207.870 Y449.099
G01 X210.330 Y458.750
G01 X214.969 Y467.564
G01 X221.531 Y475.056
G01 X229.657 Y480.815
G01 X238.900 Y484.525
G01 X248.752 Y485.982
G01 X258.673 Y485.106
G01 X268.118 Y481.945
G01 X276.568 Y476.672
G01 X283.559 Y469.578
G01 X288.706 Y461.052
G01 X291.728 Y451.562
G01 X292.459 Y441.629
G01 X290.857 Y431.799
G01 X288.174 Y424.819
G01 X284.310 Y418.418
G01 X279.383 Y412.794
G01 X273.547 Y408.119
G01 X266.982 Y404.540
G01 X259.891 Y402.167
G01 X252.494 Y401.073
G01 X250.000 Y401.000
G01 X242.552 Y401.658
G01 X235.334 Y403.611
G01 X228.570 Y406.798
G01 X222.470 Y411.122
G01 X217.221 Y416.448
G01 X212.988 Y422.611
G01 X209.900 Y429.421
G01 X207.724 Y439.140
G01 X207.870 Y449.099
G01 X210.330 Y458.750
G01 X214.969 Y467.564
G01 X221.531 Y475.056
G01 X229.657 Y480.815
G01 X238.900 Y484.525
G01 X248.752 Y485.982
G01 X258.673 Y485.106
G01 X268.118 Y481.945
G01 X276.568 Y476.672
G01 X283.559 Y469.578
G01 X288.706 Y461.052
G01 X291.728 Y451.562
G01 X292.459 Y441.629
G01 X290.857 Y431.799
G01 X288.174 Y424.819
G01 X284.310 Y418.418
G01 X279.383 Y412.794
G01 X273.547 Y408.119
G01 X266.982 Y404.540
G01 X259.891 Y402.167
G01 X252.494 Y401.073
G01 X250.000 Y401.000
G01 X250.000 Y395.000
G01 X257.136 Y395.252
G01 X264.296 Y395.152
G01 X267.385 Y395.000
G01 X274.697 Y395.254
G01 X282.075 Y395.136
G01 X284.770 Y395.000
G01 X292.468 Y395.255
G01 X300.272 Y395.099
G01 X302.155 Y395.000
G01 X310.451 Y395.254
G01 X318.894 Y395.036
G01 X319.540 Y395.000
G01 X328.647 Y395.247
G01 X336.926 Y395.000
G01 X347.108 Y395.308
G01 X356.794 Y395.000
G01 X368.421 Y395.279
G01 X376.663 Y395.000
G01 X390.010 Y395.233
G01 X396.532 Y395.000
G01 X411.971 Y395.259
G01 X418.884 Y395.000
G01 X436.907 Y395.169
G01 X441.236 Y395.000
G01 X453.654 Y395.000
G01 X457.123 Y390.000
G01 X436.794 Y390.088
G01 X434.664 Y390.000
G01 X417.204 Y390.199
G01 X412.205 Y390.000
G01 X397.159 Y390.188
G01 X392.241 Y390.000
G01 X379.159 Y390.251
G01 X372.278 Y390.000
G01 X360.886 Y390.296
G01 X352.314 Y390.000
G01 X342.287 Y390.241
G01 X334.846 Y390.000
G01 X325.853 Y390.258
G01 X317.377 Y390.000
G01 X309.214 Y390.265
G01 X301.190 Y390.073
G01 X299.909 Y390.000
G01 X292.371 Y390.265
G01 X284.928 Y390.133
G01 X282.441 Y390.000
G01 X275.323 Y390.263
G01 X268.258 Y390.167
G01 X264.973 Y390.000
G01 X258.068 Y390.260
G01 X251.173 Y390.181
G01 X247.505 Y390.000
G01 X240.601 Y390.260
G01 X233.666 Y390.179
G01 X230.036 Y390.000
G01 X222.918 Y390.263
G01 X215.727 Y390.161
G01 X212.568 Y390.000
G01 X205.016 Y390.265
G01 X197.349 Y390.120
G01 X195.100 Y390.000
G01 X186.890 Y390.263
G01 X178.526 Y390.051
G01 X177.632 Y390.000
G01 X168.541 Y390.255
G01 X160.163 Y390.000
G01 X149.970 Y390.235
G01 X142.695 Y390.000
G01 X131.106 Y390.287
G01 X122.732 Y390.000
G01 X109.344 Y390.238
G01 X102.768 Y390.000
G01 X87.191 Y390.261
G01 X80.309 Y390.000
G01 X62.030 Y390.165
G01 X57.850 Y390.000
G01 X42.877 Y390.000
G01 X39.584 Y385.000
G01 X60.476 Y385.167
G01 X64.485 Y385.000
G01 X82.195 Y385.189
G01 X86.896 Y385.000
G01 X102.095 Y385.183
G01 X106.817 Y385.000
G01 X119.971 Y385.250
G01 X126.738 Y385.000
G01 X138.130 Y385.299
G01 X146.659 Y385.000
G01 X156.627 Y385.246
G01 X164.090 Y385.000
G01 X172.975 Y385.264
G01 X181.521 Y385.000
G01 X189.536 Y385.272
G01 X197.409 Y385.089
G01 X198.952 Y385.000
G01 X206.307 Y385.272
G01 X213.563 Y385.152
G01 X216.383 Y385.000
G01 X223.288 Y385.268
G01 X230.138 Y385.187
G01 X233.814 Y385.000
G01 X240.484 Y385.265
G01 X247.140 Y385.203
G01 X251.245 Y385.000
G01 X257.896 Y385.265
G01 X264.576 Y385.202
G01 X268.676 Y385.000
G01 X275.532 Y385.268
G01 X282.458 Y385.185
G01 X286.107 Y385.000
G01 X293.395 Y385.271
G01 X300.795 Y385.147
G01 X303.538 Y385.000
G01 X311.489 Y385.271
G01 X319.591 Y385.079
G01 X320.969 Y385.000
G01 X329.813 Y385.262
G01 X338.400 Y385.000
G01 X348.367 Y385.243
G01 X355.831 Y385.000
G01 X367.223 Y385.295
G01 X375.752 Y385.000
G01 X388.983 Y385.244
G01 X395.673 Y385.000
G01 X411.147 Y385.266
G01 X418.084 Y385.000
G01 X436.328 Y385.166
G01 X440.495 Y385.000
G01 X460.416 Y385.000
G01 X463.542 Y380.000
G01 X441.893 Y380.140
G01 X438.566 Y380.000
G01 X420.285 Y380.171
G01 X416.088 Y380.000
G01 X400.468 Y380.172
G01 X396.107 Y380.000
G01 X382.661 Y380.247
G01 X376.127 Y380.000
G01 X364.558 Y380.301
G01 X356.146 Y380.000
G01 X346.097 Y380.251
G01 X338.663 Y380.000
G01 X329.776 Y380.272
G01 X321.181 Y380.000
G01 X313.233 Y380.281
G01 X305.433 Y380.102
G01 X303.698 Y380.000
G01 X296.470 Y380.281
G01 X289.347 Y380.172
G01 X286.215 Y380.000
G01 X279.488 Y380.277
G01 X272.823 Y380.211
G01 X268.732 Y380.000
G01 X262.284 Y380.273
G01 X255.855 Y380.228
G01 X251.249 Y380.000
G01 X244.854 Y380.273
G01 X238.435 Y380.230
G01 X233.766 Y380.000
G01 X227.191 Y380.275
G01 X220.552 Y380.216
G01 X216.283 Y380.000
G01 X209.291 Y380.280
G01 X202.193 Y380.181
G01 X198.800 Y380.000
G01 X191.151 Y380.281
G01 X183.354 Y380.116
G01 X181.317 Y380.000
G01 X172.768 Y380.274
G01 X164.032 Y380.012
G01 X163.834 Y380.000
G01 X154.145 Y380.255
G01 X146.351 Y380.000
G01 X135.208 Y380.307
G01 X126.371 Y380.000
G01 X113.344 Y380.256
G01 X106.390 Y380.000
G01 X91.173 Y380.183
G01 X86.410 Y380.000
G01 X68.564 Y380.185
G01 X63.932 Y380.000
G01 X42.740 Y380.157
G01 X38.956 Y380.000
G01 X36.458 Y380.000
G01 X33.494 Y375.000
G01 X55.971 Y375.103
G01 X58.379 Y375.000
G01 X77.312 Y375.144
G01 X80.777 Y375.000
G01 X96.774 Y375.256
G01 X103.174 Y375.000
G01 X116.731 Y375.243
G01 X123.082 Y375.000
G01 X134.683 Y375.302
G01 X142.991 Y375.000
G01 X153.006 Y375.254
G01 X160.411 Y375.000
G01 X169.212 Y375.277
G01 X177.817 Y375.001
G01 X177.831 Y375.000
G01 X185.646 Y375.287
G01 X193.311 Y375.116
G01 X195.251 Y375.000
G01 X202.307 Y375.288
G01 X209.256 Y375.189
G01 X212.671 Y375.000
G01 X219.194 Y375.283
G01 X225.653 Y375.230
G01 X230.091 Y375.000
G01 X236.309 Y375.278
G01 X242.505 Y375.249
G01 X247.511 Y375.000
G01 X253.657 Y375.277
G01 X259.823 Y375.251
G01 X264.931 Y375.000
G01 X271.244 Y375.280
G01 X277.620 Y375.239
G01 X282.352 Y375.000
G01 X289.077 Y375.285
G01 X295.907 Y375.207
G01 X299.772 Y375.000
G01 X307.159 Y375.287
G01 X314.691 Y375.143
G01 X317.192 Y375.000
G01 X325.491 Y375.281
G01 X333.974 Y375.039
G01 X334.612 Y375.000
G01 X344.071 Y375.262
G01 X352.032 Y375.000
G01 X362.898 Y375.229
G01 X369.452 Y375.000
G01 X382.063 Y375.269
G01 X389.360 Y375.000
G01 X404.175 Y375.197
G01 X409.269 Y375.000
G01 X426.735 Y375.198
G01 X431.666 Y375.000
G01 X452.518 Y375.168
G01 X456.552 Y375.000
G01 X466.506 Y375.000
G01 X469.317 Y370.000
G01 X445.948 Y370.067
G01 X444.395 Y370.000
G01 X424.776 Y370.118
G01 X421.965 Y370.000
G01 X405.458 Y370.241
G01 X399.534 Y370.000
G01 X385.618 Y370.235
G01 X379.596 Y370.000
G01 X367.764 Y370.301
G01 X359.659 Y370.000
G01 X349.517 Y370.256
G01 X342.213 Y370.000
G01 X333.374 Y370.283
G01 X324.767 Y370.000
G01 X316.991 Y370.296
G01 X309.371 Y370.125
G01 X307.322 Y370.000
G01 X300.372 Y370.297
G01 X293.533 Y370.207
G01 X289.876 Y370.000
G01 X283.516 Y370.292
G01 X277.225 Y370.252
G01 X272.430 Y370.000
G01 X266.423 Y370.286
G01 X260.443 Y370.273
G01 X254.984 Y370.000
G01 X249.089 Y370.283
G01 X243.178 Y370.277
G01 X237.539 Y370.000
G01 X231.505 Y370.287
G01 X225.414 Y370.268
G01 X220.093 Y370.000
G01 X213.666 Y370.293
G01 X207.139 Y370.239
G01 X202.647 Y370.000
G01 X195.565 Y370.296
G01 X188.343 Y370.180
G01 X185.202 Y370.000
G01 X177.204 Y370.292
G01 X169.026 Y370.079
G01 X167.756 Y370.000
G01 X158.582 Y370.274
G01 X150.310 Y370.000
G01 X139.702 Y370.241
G01 X132.865 Y370.000
G01 X120.471 Y370.280
G01 X112.927 Y370.000
G01 X98.272 Y370.206
G01 X92.989 Y370.000
G01 X75.607 Y370.204
G01 X70.559 Y370.000
G01 X49.849 Y370.072
G01 X48.129 Y370.000
G01 X30.683 Y370.000
G01 X28.020 Y365.000
G01 X52.362 Y365.026
G01 X52.962 Y365.000
G01 X73.335 Y365.088
G01 X75.409 Y365.000
G01 X92.481 Y365.222
G01 X97.857 Y365.000
G01 X112.179 Y365.224
G01 X117.810 Y365.000
G01 X129.913 Y365.298
G01 X137.763 Y365.000
G01 X148.062 Y365.257
G01 X155.222 Y365.000
G01 X164.125 Y365.289
G01 X172.681 Y365.000
G01 X180.439 Y365.304
G01 X188.035 Y365.132
G01 X190.140 Y365.000
G01 X197.034 Y365.234
G01 X203.803 Y365.076
G01 X205.105 Y365.000
G01 X211.415 Y365.235
G01 X217.638 Y365.132
G01 X220.070 Y365.000
G01 X225.978 Y365.232
G01 X231.836 Y365.164
G01 X235.035 Y365.000
G01 X240.725 Y365.229
G01 X246.402 Y365.178
G01 X250.000 Y365.000
G01 X255.661 Y365.229
G01 X261.344 Y365.178
G01 X264.965 Y365.000
G01 X270.789 Y365.231
G01 X276.671 Y365.165
G01 X279.930 Y365.000
G01 X286.114 Y365.234
G01 X292.391 Y365.134
G01 X294.895 Y365.000
G01 X301.638 Y365.234
G01 X308.509 Y365.077
G01 X309.860 Y365.000
G01 X317.406 Y365.303
G01 X325.121 Y365.135
G01 X327.319 Y365.000
G01 X336.018 Y365.289
G01 X344.778 Y365.000
G01 X354.900 Y365.258
G01 X362.237 Y365.000
G01 X374.145 Y365.299
G01 X382.190 Y365.000
G01 X396.375 Y365.225
G01 X402.143 Y365.000
G01 X419.089 Y365.223
G01 X424.591 Y365.000
G01 X444.918 Y365.089
G01 X447.038 Y365.000
G01 X471.367 Y365.026
G01 X471.980 Y365.000
G01 X474.499 Y360.000
G01 X449.555 Y360.000
G01 X428.351 Y360.054
G01 X427.105 Y360.000
G01 X409.404 Y360.199
G01 X404.655 Y360.000
G01 X389.874 Y360.209
G01 X384.700 Y360.000
G01 X372.283 Y360.292
G01 X364.744 Y360.000
G01 X354.252 Y360.256
G01 X347.283 Y360.000
G01 X338.288 Y360.293
G01 X329.822 Y360.000
G01 X322.060 Y360.312
G01 X314.466 Y360.135
G01 X312.361 Y360.000
G01 X305.536 Y360.242
G01 X298.840 Y360.086
G01 X297.394 Y360.000
G01 X291.211 Y360.243
G01 X285.119 Y360.149
G01 X282.428 Y360.000
G01 X276.696 Y360.239
G01 X271.020 Y360.184
G01 X267.461 Y360.000
G01 X261.989 Y360.236
G01 X256.537 Y360.201
G01 X252.494 Y360.000
G01 X247.088 Y360.235
G01 X241.664 Y360.203
G01 X237.528 Y360.000
G01 X231.985 Y360.237
G01 X226.389 Y360.193
G01 X222.561 Y360.000
G01 X216.677 Y360.241
G01 X210.704 Y360.165
G01 X207.595 Y360.000
G01 X201.160 Y360.242
G01 X194.603 Y360.112
G01 X192.628 Y360.000
G01 X185.434 Y360.237
G01 X178.084 Y360.026
G01 X177.661 Y360.000
G01 X169.441 Y360.303
G01 X161.023 Y360.054
G01 X160.200 Y360.000
G01 X150.571 Y360.275
G01 X142.739 Y360.000
G01 X131.422 Y360.228
G01 X125.278 Y360.000
G01 X111.879 Y360.255
G01 X105.323 Y360.000
G01 X89.318 Y360.160
G01 X85.367 Y360.000
G01 X66.237 Y360.139
G01 X62.917 Y360.000
G01 X39.813 Y360.079
G01 X37.973 Y360.000
G01 X25.501 Y360.000
G01 X23.119 Y355.000
G01 X48.051 Y355.000
G01 X69.973 Y355.131
G01 X72.983 Y355.000
G01 X91.003 Y355.187
G01 X95.422 Y355.000
G01 X110.387 Y355.204
G01 X115.367 Y355.000
G01 X127.858 Y355.293
G01 X135.313 Y355.000
G01 X145.792 Y355.260
G01 X152.765 Y355.000
G01 X161.679 Y355.300
G01 X170.218 Y355.000
G01 X177.898 Y355.239
G01 X185.177 Y355.000
G01 X191.954 Y355.250
G01 X198.595 Y355.094
G01 X200.136 Y355.000
G01 X206.209 Y355.251
G01 X212.184 Y355.165
G01 X215.095 Y355.000
G01 X220.663 Y355.247
G01 X226.169 Y355.204
G01 X230.054 Y355.000
G01 X235.316 Y355.242
G01 X240.552 Y355.223
G01 X245.014 Y355.000
G01 X250.172 Y355.241
G01 X255.342 Y355.227
G01 X259.973 Y355.000
G01 X265.237 Y355.243
G01 X270.549 Y355.220
G01 X274.932 Y355.000
G01 X280.517 Y355.248
G01 X286.186 Y355.196
G01 X289.891 Y355.000
G01 X296.016 Y355.251
G01 X302.259 Y355.147
G01 X304.850 Y355.000
G01 X311.734 Y355.247
G01 X318.770 Y355.064
G01 X319.810 Y355.000
G01 X327.731 Y355.314
G01 X335.844 Y355.093
G01 X337.262 Y355.000
G01 X346.616 Y355.286
G01 X354.714 Y355.000
G01 X365.795 Y355.238
G01 X372.167 Y355.000
G01 X385.383 Y355.264
G01 X392.112 Y355.000
G01 X408.009 Y355.165
G01 X412.058 Y355.000
G01 X431.177 Y355.140
G01 X434.497 Y355.000
G01 X457.719 Y355.074
G01 X459.429 Y355.000
G01 X476.881 Y355.000
G01 X479.129 Y350.000
G01 X451.733 Y350.000
G01 X429.265 Y350.107
G01 X426.828 Y350.000
G01 X408.448 Y350.173
G01 X404.413 Y350.000
G01 X389.232 Y350.197
G01 X384.489 Y350.000
G01 X371.774 Y350.188
G01 X367.055 Y350.000
G01 X356.315 Y350.255
G01 X349.621 Y350.000
G01 X340.562 Y350.302
G01 X332.187 Y350.000
G01 X324.456 Y350.243
G01 X317.244 Y350.000
G01 X310.493 Y350.257
G01 X303.883 Y350.099
G01 X302.301 Y350.000
G01 X296.321 Y350.260
G01 X290.445 Y350.179
G01 X287.358 Y350.000
G01 X281.942 Y350.255
G01 X276.592 Y350.224
G01 X272.415 Y350.000
G01 X267.355 Y350.249
G01 X262.324 Y350.245
G01 X257.472 Y350.000
G01 X252.556 Y350.246
G01 X247.634 Y350.251
G01 X242.718 Y350.014
G01 X242.528 Y350.000
G01 X237.539 Y350.248
G01 X232.508 Y350.246
G01 X227.585 Y350.000
G01 X222.298 Y350.254
G01 X216.933 Y350.226
G01 X212.642 Y350.000
G01 X206.828 Y350.258
G01 X200.901 Y350.182
G01 X197.699 Y350.000
G01 X191.127 Y350.256
G01 X184.408 Y350.101
G01 X182.756 Y350.000
G01 X175.196 Y350.243
G01 X167.813 Y350.000
G01 X158.961 Y350.302
G01 X150.379 Y350.000
G01 X139.805 Y350.256
G01 X132.945 Y350.000
G01 X120.224 Y350.283
G01 X113.021 Y350.000
G01 X97.591 Y350.184
G01 X93.097 Y350.000
G01 X74.393 Y350.157
G01 X70.682 Y350.000
G01 X47.794 Y350.088
G01 X45.777 Y350.000
G01 X20.871 Y350.000
G01 X18.753 Y345.000
G01 X46.253 Y345.000
G01 X69.771 Y345.066
G01 X71.253 Y345.000
G01 X90.405 Y345.145
G01 X93.752 Y345.000
G01 X109.486 Y345.180
G01 X113.752 Y345.000
G01 X126.710 Y345.286
G01 X133.752 Y345.000
G01 X144.455 Y345.263
G01 X151.251 Y345.000
G01 X160.195 Y345.313
G01 X168.751 Y345.000
G01 X176.310 Y345.254
G01 X183.690 Y345.004
G01 X183.751 Y345.000
G01 X190.290 Y345.268
G01 X196.691 Y345.131
G01 X198.751 Y345.000
G01 X204.491 Y345.270
G01 X210.133 Y345.211
G01 X213.751 Y345.000
G01 X218.912 Y345.264
G01 X224.012 Y345.255
G01 X228.750 Y345.000
G01 X233.553 Y345.257
G01 X238.330 Y345.273
G01 X243.068 Y345.052
G01 X243.750 Y345.000
G01 X248.418 Y345.254
G01 X253.096 Y345.278
G01 X257.772 Y345.072
G01 X258.750 Y345.000
G01 X263.514 Y345.257
G01 X268.325 Y345.272
G01 X273.169 Y345.044
G01 X273.750 Y345.000
G01 X278.850 Y345.264
G01 X284.032 Y345.252
G01 X288.749 Y345.000
G01 X294.430 Y345.269
G01 X300.227 Y345.204
G01 X303.749 Y345.000
G01 X310.255 Y345.266
G01 X316.911 Y345.115
G01 X318.749 Y345.000
G01 X326.323 Y345.251
G01 X333.749 Y345.000
G01 X342.717 Y345.307
G01 X351.249 Y345.000
G01 X362.068 Y345.255
G01 X368.748 Y345.000
G01 X381.871 Y345.275
G01 X388.748 Y345.000
G01 X404.770 Y345.166
G01 X408.748 Y345.000
G01 X428.269 Y345.128
G01 X431.247 Y345.000
G01 X455.238 Y345.044
G01 X456.247 Y345.000
G01 X481.247 Y345.000
G01 X483.238 Y340.000
G01 X455.798 Y340.000
G01 X431.058 Y340.009
G01 X430.853 Y340.000
G01 X410.765 Y340.104
G01 X408.402 Y340.000
G01 X391.964 Y340.151
G01 X388.446 Y340.000
G01 X374.980 Y340.268
G01 X368.490 Y340.000
G01 X357.441 Y340.254
G01 X351.028 Y340.000
G01 X341.875 Y340.312
G01 X333.567 Y340.000
G01 X325.909 Y340.257
G01 X318.599 Y340.000
G01 X312.051 Y340.275
G01 X305.645 Y340.132
G01 X303.632 Y340.000
G01 X297.959 Y340.279
G01 X292.391 Y340.224
G01 X288.665 Y340.000
G01 X283.638 Y340.273
G01 X278.678 Y340.274
G01 X273.801 Y340.008
G01 X273.698 Y340.000
G01 X269.086 Y340.264
G01 X264.506 Y340.294
G01 X259.969 Y340.095
G01 X258.731 Y340.000
G01 X254.301 Y340.259
G01 X249.867 Y340.300
G01 X245.440 Y340.124
G01 X243.764 Y340.000
G01 X239.275 Y340.261
G01 X234.745 Y340.297
G01 X230.187 Y340.104
G01 X228.797 Y340.000
G01 X223.998 Y340.269
G01 X219.122 Y340.281
G01 X214.184 Y340.028
G01 X213.829 Y340.000
G01 X208.463 Y340.276
G01 X202.985 Y340.238
G01 X198.862 Y340.000
G01 X192.670 Y340.276
G01 X186.333 Y340.153
G01 X183.895 Y340.000
G01 X176.621 Y340.261
G01 X169.170 Y340.016
G01 X168.928 Y340.000
G01 X160.232 Y340.318
G01 X151.466 Y340.000
G01 X140.873 Y340.265
G01 X134.005 Y340.000
G01 X121.040 Y340.282
G01 X114.048 Y340.000
G01 X98.092 Y340.168
G01 X94.092 Y340.000
G01 X74.515 Y340.124
G01 X71.641 Y340.000
G01 X47.432 Y340.033
G01 X46.696 Y340.000
G01 X19.256 Y340.000
G01 X16.762 Y340.000
G01 X14.894 Y335.000
G01 X42.261 Y335.000
G01 X67.140 Y335.000
G01 X88.290 Y335.055
G01 X89.531 Y335.000
G01 X106.777 Y335.115
G01 X109.434 Y335.000
G01 X123.492 Y335.246
G01 X129.337 Y335.000
G01 X140.798 Y335.241
G01 X146.752 Y335.000
G01 X156.168 Y335.308
G01 X164.168 Y335.000
G01 X171.966 Y335.258
G01 X179.095 Y335.000
G01 X185.685 Y335.281
G01 X192.127 Y335.128
G01 X194.022 Y335.000
G01 X199.651 Y335.288
G01 X205.171 Y335.234
G01 X208.950 Y335.000
G01 X213.890 Y335.213
G01 X218.750 Y335.150
G01 X221.389 Y335.000
G01 X225.903 Y335.209
G01 X230.368 Y335.182
G01 X233.829 Y335.000
G01 X238.087 Y335.204
G01 X242.326 Y335.197
G01 X246.268 Y335.000
G01 X250.444 Y335.203
G01 X254.631 Y335.200
G01 X258.708 Y335.000
G01 X262.980 Y335.205
G01 X267.293 Y335.194
G01 X271.147 Y335.000
G01 X275.699 Y335.210
G01 X280.322 Y335.174
G01 X283.587 Y335.000
G01 X288.606 Y335.212
G01 X293.725 Y335.132
G01 X296.026 Y335.000
G01 X301.747 Y335.286
G01 X307.603 Y335.208
G01 X310.953 Y335.000
G01 X317.726 Y335.275
G01 X324.666 Y335.082
G01 X325.881 Y335.000
G01 X333.972 Y335.247
G01 X340.808 Y335.000
G01 X350.590 Y335.292
G01 X358.224 Y335.000
G01 X370.207 Y335.218
G01 X375.639 Y335.000
G01 X390.337 Y335.218
G01 X395.542 Y335.000
G01 X413.811 Y335.178
G01 X417.933 Y335.000
G01 X440.809 Y335.089
G01 X442.812 Y335.000
G01 X470.179 Y335.000
G01 X485.106 Y335.000
G01 X486.854 Y330.000
G01 X456.936 Y330.000
G01 X432.004 Y330.000
G01 X410.232 Y330.030
G01 X409.565 Y330.000
G01 X392.135 Y330.220
G01 X387.126 Y330.000
G01 X373.247 Y330.258
G01 X367.181 Y330.000
G01 X355.985 Y330.255
G01 X349.728 Y330.000
G01 X340.522 Y330.224
G01 X334.769 Y330.000
G01 X327.097 Y330.268
G01 X319.810 Y330.000
G01 X313.403 Y330.293
G01 X307.141 Y330.157
G01 X304.850 Y330.000
G01 X299.397 Y330.221
G01 X294.058 Y330.106
G01 X292.384 Y330.000
G01 X287.583 Y330.223
G01 X282.864 Y330.171
G01 X279.918 Y330.000
G01 X275.589 Y330.218
G01 X271.311 Y330.207
G01 X267.452 Y330.000
G01 X263.414 Y330.212
G01 X259.398 Y330.222
G01 X255.413 Y330.032
G01 X254.986 Y330.000
G01 X251.056 Y330.209
G01 X247.117 Y330.226
G01 X243.178 Y330.049
G01 X242.520 Y330.000
G01 X238.507 Y330.212
G01 X234.455 Y330.221
G01 X230.375 Y330.024
G01 X230.054 Y330.000
G01 X225.762 Y330.218
G01 X221.402 Y330.203
G01 X217.588 Y330.000
G01 X212.817 Y330.222
G01 X207.949 Y330.163
G01 X205.122 Y330.000
G01 X199.671 Y330.219
G01 X194.095 Y330.090
G01 X192.656 Y330.000
G01 X186.260 Y330.289
G01 X179.704 Y330.136
G01 X177.697 Y330.000
G01 X169.963 Y330.262
G01 X162.738 Y330.000
G01 X153.273 Y330.308
G01 X145.285 Y330.000
G01 X133.552 Y330.232
G01 X127.833 Y330.000
G01 X113.288 Y330.228
G01 X107.887 Y330.000
G01 X89.630 Y330.182
G01 X85.449 Y330.000
G01 X62.384 Y330.083
G01 X60.516 Y330.000
G01 X33.091 Y330.000
G01 X13.146 Y330.000
G01 X11.515 Y325.000
G01 X41.482 Y325.000
G01 X68.951 Y325.000
G01 X91.426 Y325.000
G01 X109.304 Y325.204
G01 X113.901 Y325.000
G01 X128.015 Y325.252
G01 X133.879 Y325.000
G01 X145.153 Y325.257
G01 X151.360 Y325.000
G01 X160.534 Y325.230
G01 X166.343 Y325.000
G01 X173.901 Y325.278
G01 X181.276 Y325.004
G01 X181.326 Y325.000
G01 X187.629 Y325.216
G01 X193.781 Y325.002
G01 X193.812 Y325.000
G01 X199.205 Y325.230
G01 X204.481 Y325.118
G01 X206.299 Y325.000
G01 X210.976 Y325.233
G01 X215.569 Y325.192
G01 X218.785 Y325.000
G01 X222.939 Y325.227
G01 X227.039 Y325.231
G01 X231.074 Y325.016
G01 X231.271 Y325.000
G01 X235.094 Y325.220
G01 X238.894 Y325.247
G01 X242.659 Y325.084
G01 X243.757 Y325.000
G01 X247.445 Y325.216
G01 X251.138 Y325.251
G01 X254.829 Y325.104
G01 X256.243 Y325.000
G01 X259.997 Y325.218
G01 X263.788 Y325.248
G01 X267.605 Y325.085
G01 X268.729 Y325.000
G01 X272.760 Y325.225
G01 X276.858 Y325.233
G01 X281.010 Y325.017
G01 X281.215 Y325.000
G01 X285.738 Y325.231
G01 X290.357 Y325.195
G01 X293.701 Y325.000
G01 X298.932 Y325.229
G01 X304.286 Y325.120
G01 X306.188 Y325.000
G01 X312.409 Y325.300
G01 X318.789 Y325.163
G01 X321.171 Y325.000
G01 X328.800 Y325.272
G01 X336.154 Y325.000
G01 X345.611 Y325.314
G01 X353.635 Y325.000
G01 X365.490 Y325.231
G01 X371.115 Y325.000
G01 X385.951 Y325.220
G01 X391.093 Y325.000
G01 X409.867 Y325.163
G01 X413.568 Y325.000
G01 X437.446 Y325.049
G01 X438.540 Y325.000
G01 X466.010 Y325.000
G01 X488.485 Y325.000
G01 X490.000 Y320.000
G01 X460.155 Y320.000
G01 X432.798 Y320.000
G01 X409.086 Y320.053
G01 X407.927 Y320.000
G01 X389.419 Y320.174
G01 X385.544 Y320.000
G01 X371.035 Y320.235
G01 X365.648 Y320.000
G01 X354.154 Y320.249
G01 X348.238 Y320.000
G01 X338.974 Y320.228
G01 X333.316 Y320.000
G01 X325.769 Y320.282
G01 X318.404 Y320.001
G01 X318.394 Y320.000
G01 X312.177 Y320.222
G01 X306.109 Y320.011
G01 X305.959 Y320.000
G01 X300.707 Y320.239
G01 X295.572 Y320.136
G01 X293.523 Y320.000
G01 X289.030 Y320.241
G01 X284.621 Y320.215
G01 X281.088 Y320.000
G01 X277.150 Y320.235
G01 X273.264 Y320.255
G01 X269.443 Y320.065
G01 X268.653 Y320.000
G01 X265.066 Y320.226
G01 X261.502 Y320.269
G01 X257.970 Y320.134
G01 X256.218 Y320.000
G01 X252.775 Y320.221
G01 X249.326 Y320.272
G01 X245.879 Y320.155
G01 X243.782 Y320.000
G01 X240.270 Y320.224
G01 X236.721 Y320.270
G01 X233.145 Y320.136
G01 X231.347 Y320.000
G01 X227.541 Y320.232
G01 X223.668 Y320.257
G01 X219.740 Y320.067
G01 X218.912 Y320.000
G01 X214.582 Y320.239
G01 X210.157 Y320.218
G01 X206.477 Y320.000
G01 X201.394 Y320.237
G01 X196.187 Y320.139
G01 X194.041 Y320.000
G01 X187.978 Y320.222
G01 X181.765 Y320.011
G01 X181.606 Y320.000
G01 X174.242 Y320.282
G01 X166.694 Y320.001
G01 X166.684 Y320.000
G01 X157.556 Y320.229
G01 X151.762 Y320.000
G01 X140.403 Y320.250
G01 X134.352 Y320.000
G01 X119.957 Y320.236
G01 X114.456 Y320.000
G01 X96.023 Y320.175
G01 X92.073 Y320.000
G01 X68.381 Y320.053
G01 X67.202 Y320.000
G01 X39.845 Y320.000
G01 X10.000 Y320.000
G01 X8.598 Y315.000
G01 X40.951 Y315.000
G01 X68.326 Y315.000
G01 X93.049 Y315.008
G01 X93.213 Y315.000
G01 X112.368 Y315.147
G01 X115.611 Y315.000
G01 X130.495 Y315.222
G01 X135.521 Y315.000
G01 X147.189 Y315.246
G01 X152.941 Y315.000
G01 X162.239 Y315.231
G01 X167.873 Y315.000
G01 X175.348 Y315.290
G01 X182.643 Y315.013
G01 X182.806 Y315.000
G01 X188.874 Y315.232
G01 X194.797 Y315.033
G01 X195.249 Y315.000
G01 X200.301 Y315.250
G01 X205.241 Y315.166
G01 X207.692 Y315.000
G01 X211.951 Y315.252
G01 X216.129 Y315.247
G01 X220.136 Y315.000
G01 X223.820 Y315.243
G01 X227.455 Y315.285
G01 X231.030 Y315.129
G01 X232.579 Y315.000
G01 X235.907 Y315.232
G01 X239.216 Y315.296
G01 X242.496 Y315.193
G01 X245.023 Y315.000
G01 X248.216 Y315.227
G01 X251.420 Y315.297
G01 X254.627 Y315.209
G01 X257.466 Y315.000
G01 X260.758 Y315.232
G01 X264.090 Y315.295
G01 X267.455 Y315.187
G01 X269.909 Y315.000
G01 X273.543 Y315.242
G01 X277.247 Y315.282
G01 X281.011 Y315.111
G01 X282.353 Y315.000
G01 X286.577 Y315.250
G01 X290.901 Y315.237
G01 X294.796 Y315.000
G01 X299.859 Y315.246
G01 X305.050 Y315.146
G01 X307.240 Y315.000
G01 X313.386 Y315.227
G01 X319.683 Y315.000
G01 X327.262 Y315.282
G01 X334.615 Y315.000
G01 X344.125 Y315.220
G01 X349.547 Y315.000
G01 X361.494 Y315.231
G01 X366.968 Y315.000
G01 X382.226 Y315.203
G01 X386.878 Y315.000
G01 X406.529 Y315.123
G01 X409.276 Y315.000
G01 X434.162 Y315.000
G01 X461.538 Y315.000
G01 X491.402 Y315.000
G01 X492.693 Y310.000
G01 X460.334 Y310.000
G01 X430.464 Y310.000
G01 X405.573 Y310.000
G01 X385.635 Y310.113
G01 X383.170 Y310.000
G01 X367.818 Y310.204
G01 X363.257 Y310.000
G01 X351.351 Y310.239
G01 X345.833 Y310.000
G01 X336.460 Y310.232
G01 X330.898 Y310.000
G01 X323.471 Y310.298
G01 X316.220 Y310.021
G01 X315.963 Y310.000
G01 X310.028 Y310.242
G01 X304.234 Y310.054
G01 X303.517 Y310.000
G01 X298.657 Y310.261
G01 X293.906 Y310.195
G01 X291.071 Y310.000
G01 X287.045 Y310.263
G01 X283.094 Y310.279
G01 X279.233 Y310.057
G01 X278.625 Y310.000
G01 X275.195 Y310.252
G01 X271.810 Y310.315
G01 X268.481 Y310.193
G01 X266.180 Y310.000
G01 X263.111 Y310.238
G01 X260.058 Y310.322
G01 X257.029 Y310.251
G01 X254.031 Y310.030
G01 X253.734 Y310.000
G01 X250.787 Y310.233
G01 X247.826 Y310.321
G01 X244.858 Y310.263
G01 X241.891 Y310.059
G01 X241.288 Y310.000
G01 X238.210 Y310.240
G01 X235.087 Y310.321
G01 X231.929 Y310.238
G01 X228.842 Y310.000
G01 X225.366 Y310.253
G01 X221.815 Y310.307
G01 X218.202 Y310.154
G01 X216.396 Y310.000
G01 X212.251 Y310.261
G01 X208.002 Y310.255
G01 X203.951 Y310.000
G01 X198.867 Y310.255
G01 X193.653 Y310.149
G01 X191.505 Y310.000
G01 X185.219 Y310.230
G01 X179.059 Y310.000
G01 X171.190 Y310.279
G01 X164.124 Y310.000
G01 X153.976 Y310.303
G01 X146.700 Y310.000
G01 X133.576 Y310.186
G01 X129.276 Y310.000
G01 X112.448 Y310.137
G01 X109.362 Y310.000
G01 X87.645 Y310.031
G01 X86.960 Y310.000
G01 X59.579 Y310.000
G01 X29.709 Y310.000
G01 X7.307 Y310.000
G01 X6.125 Y305.000
G01 X40.964 Y305.000
G01 X70.827 Y305.000
G01 X95.712 Y305.000
G01 X116.606 Y305.069
G01 X118.108 Y305.000
G01 X134.049 Y305.179
G01 X138.017 Y305.000
G01 X150.243 Y305.229
G01 X155.436 Y305.000
G01 X164.938 Y305.231
G01 X170.367 Y305.000
G01 X177.780 Y305.305
G01 X185.020 Y305.023
G01 X185.298 Y305.000
G01 X191.120 Y305.252
G01 X196.802 Y305.072
G01 X197.741 Y305.000
G01 X202.418 Y305.273
G01 X206.991 Y305.225
G01 X210.184 Y305.000
G01 X214.033 Y305.195
G01 X217.803 Y305.150
G01 X220.138 Y305.000
G01 X223.452 Y305.193
G01 X226.713 Y305.197
G01 X229.908 Y305.016
G01 X230.092 Y305.000
G01 X233.037 Y305.186
G01 X235.953 Y305.217
G01 X238.829 Y305.097
G01 X240.046 Y305.000
G01 X242.788 Y305.179
G01 X245.524 Y305.223
G01 X248.247 Y305.131
G01 X250.000 Y305.000
G01 X252.711 Y305.178
G01 X255.439 Y305.223
G01 X258.178 Y305.132
G01 X259.954 Y305.000
G01 X262.812 Y305.184
G01 X265.712 Y305.218
G01 X268.646 Y305.099
G01 X269.908 Y305.000
G01 X273.099 Y305.191
G01 X276.356 Y305.199
G01 X279.668 Y305.017
G01 X279.862 Y305.000
G01 X283.622 Y305.272
G01 X287.477 Y305.302
G01 X291.414 Y305.084
G01 X292.305 Y305.000
G01 X297.003 Y305.269
G01 X301.824 Y305.203
G01 X304.747 Y305.000
G01 X310.672 Y305.245
G01 X316.745 Y305.033
G01 X317.190 Y305.000
G01 X324.752 Y305.294
G01 X332.121 Y305.000
G01 X341.898 Y305.216
G01 X347.052 Y305.000
G01 X359.640 Y305.210
G01 X364.472 Y305.000
G01 X380.890 Y305.156
G01 X384.380 Y305.000
G01 X405.895 Y305.040
G01 X406.777 Y305.000
G01 X434.150 Y305.000
G01 X464.013 Y305.000
G01 X493.875 Y305.000
G01 X494.949 Y300.000
G01 X459.961 Y300.000
G01 X429.972 Y300.000
G01 X402.482 Y300.000
G01 X380.545 Y300.026
G01 X379.989 Y300.000
G01 X363.446 Y300.158
G01 X359.996 Y300.000
G01 X350.000 Y300.000
G01 X350.245 Y306.434
G01 X350.093 Y313.008
G01 X350.000 Y314.550
G01 X350.312 Y321.961
G01 X350.129 Y329.553
G01 X350.000 Y331.525
G01 X350.288 Y340.303
G01 X350.000 Y348.500
G01 X350.455 Y348.899
G01 X350.422 Y346.450
G01 X348.773 Y346.221
G01 X347.332 Y347.102
G01 X346.617 Y348.648
G01 X346.768 Y350.354
G01 X347.683 Y351.808
G01 X349.131 Y352.742
G01 X350.833 Y353.027
G01 X353.972 Y351.712
G01 X355.565 Y348.686
G01 X355.063 Y345.291
G01 X352.761 Y342.735
G01 X349.456 Y341.754
G01 X346.095 Y342.542
G01 X343.503 Y344.829
G01 X342.226 Y348.046
G01 X342.477 Y351.500
G01 X344.156 Y354.533
G01 X346.922 Y356.626
G01 X350.289 Y357.466
G01 X355.308 Y356.228
G01 X358.905 Y352.506
G01 X360.085 Y347.461
G01 X358.609 Y342.489
G01 X354.924 Y338.833
G01 X349.957 Y337.313
G01 X344.837 Y338.207
G01 X340.633 Y341.267
G01 X338.150 Y345.839
G01 X337.812 Y351.034
G01 X339.633 Y355.912
G01 X343.257 Y359.654
G01 X348.060 Y361.675
G01 X353.272 Y361.694
G01 X358.109 Y359.747
G01 X361.884 Y356.148
G01 X364.094 Y351.423
G01 X364.472 Y346.219
G01 X363.000 Y341.212
G01 X359.889 Y337.020
G01 X355.538 Y334.134
G01 X350.471 Y332.871
G01 X345.270 Y333.348
G01 X340.506 Y335.489
G01 X336.678 Y339.044
G01 X334.169 Y343.627
G01 X333.215 Y348.765
G01 X333.888 Y353.948
G01 X336.104 Y358.681
G01 X339.640 Y362.532
G01 X344.159 Y365.160
G01 X350.998 Y366.407
G01 X357.798 Y364.956
G01 X363.558 Y361.059
G01 X367.469 Y355.306
G01 X369.012 Y348.523
G01 X368.009 Y341.637
G01 X364.624 Y335.556
G01 X359.319 Y331.050
G01 X354.487 Y329.040
G01 X349.299 Y328.356
G01 X344.109 Y329.031
G01 X339.264 Y331.009
G01 X335.076 Y334.149
G01 X331.810 Y338.239
G01 X329.665 Y343.014
G01 X328.764 Y348.170
G01 X329.152 Y353.391
G01 X331.607 Y359.911
G01 X336.008 Y365.313
G01 X341.885 Y369.057
G01 X348.637 Y370.783
G01 X355.592 Y370.342
G01 X362.081 Y367.797
G01 X367.495 Y363.406
G01 X371.344 Y357.593
G01 X373.291 Y350.899
G01 X373.179 Y343.927
G01 X371.036 Y337.292
G01 X367.063 Y331.561
G01 X361.612 Y327.211
G01 X355.148 Y324.594
G01 X348.207 Y323.908
G01 X341.351 Y325.195
G01 X335.818 Y328.010
G01 X335.123 Y328.336
G01 X330.977 Y332.216
G01 X330.003 Y333.074
G01 X326.934 Y338.165
G01 X326.374 Y339.032
G01 X324.500 Y345.752
G01 X324.508 Y352.729
G01 X326.382 Y359.450
G01 X329.975 Y365.431
G01 X335.019 Y370.253
G01 X342.803 Y374.157
G01 X351.432 Y375.342
G01 X359.986 Y373.704
G01 X367.327 Y369.589
G01 X367.580 Y369.437
G01 X373.127 Y363.365
G01 X373.446 Y362.997
G01 X376.936 Y355.223
G01 X377.009 Y355.047
G01 X377.934 Y346.384
G01 X376.152 Y337.855
G01 X371.853 Y330.275
G01 X365.461 Y324.352
G01 X359.245 Y321.175
G01 X352.446 Y319.584
G01 X345.465 Y319.664
G01 X338.702 Y321.401
G01 X333.468 Y324.223
G01 X332.541 Y324.685
G01 X328.478 Y328.347
G01 X327.323 Y329.325
G01 X324.150 Y333.944
G01 X323.332 Y335.055
G01 X321.006 Y341.033
G01 X320.783 Y341.556
G01 X319.803 Y348.470
G01 X320.439 Y355.425
G01 X322.647 Y362.050
G01 X327.423 Y369.345
G01 X334.056 Y375.004
G01 X342.006 Y378.587
G01 X350.638 Y379.824
G01 X359.276 Y378.633
G01 X367.258 Y375.120
G01 X373.791 Y369.733
G01 X373.983 Y369.566
G01 X378.833 Y362.581
G01 X378.952 Y362.399
G01 X381.809 Y354.159
G01 X382.358 Y345.454
G01 X380.571 Y336.916
G01 X376.589 Y329.155
G01 X370.707 Y322.714
G01 X363.344 Y318.035
G01 X355.017 Y315.433
G01 X348.047 Y314.963
G01 X341.129 Y315.945
G01 X335.072 Y318.164
G01 X334.563 Y318.331
G01 X329.866 Y321.289
G01 X328.625 Y322.013
G01 X324.865 Y325.651
G01 X323.564 Y326.830
G01 X320.527 Y331.293
G01 X319.589 Y332.576
G01 X317.225 Y338.215
G01 X316.860 Y339.008
G01 X315.484 Y345.858
G01 X315.512 Y352.846
G01 X317.506 Y361.341
G01 X321.543 Y369.077
G01 X327.364 Y375.579
G01 X334.602 Y380.453
G01 X344.527 Y383.758
G01 X354.957 Y384.041
G01 X354.985 Y384.041
G01 X363.953 Y381.637
G01 X365.080 Y381.295
G01 X372.552 Y376.698
G01 X373.964 Y375.770
G01 X379.744 Y369.313
G01 X380.902 Y367.939
G01 X384.712 Y359.890
G01 X385.335 Y358.462
G01 X386.804 Y349.019
G01 X386.913 Y348.118
G01 X385.525 Y337.747
G01 X381.297 Y328.175
G01 X374.577 Y320.153
G01 X367.456 Y315.104
G01 X359.365 Y311.829
G01 X350.737 Y310.495
G01 X343.758 Y310.871
G01 X336.965 Y312.514
G01 X331.590 Y314.953
G01 X330.583 Y315.366
G01 X326.303 Y318.367
G01 X324.825 Y319.328
G01 X321.315 Y322.898
G01 X319.876 Y324.265
G01 X316.961 Y328.558
G01 X315.898 Y330.012
G01 X313.524 Y335.341
G01 X313.016 Y336.380
G01 X311.320 Y343.161
G01 X310.940 Y351.884
G01 X312.501 Y360.474
G01 X315.917 Y368.509
G01 X321.014 Y375.598
G01 X328.988 Y382.381
G01 X338.453 Y386.854
G01 X348.754 Y388.722
G01 X358.760 Y387.917
G01 X359.189 Y387.868
G01 X367.959 Y384.786
G01 X369.054 Y384.363
G01 X376.464 Y379.341
G01 X377.696 Y378.452
G01 X383.543 Y371.756
G01 X384.548 Y370.535
G01 X388.590 Y362.401
G01 X389.170 Y361.140
G01 X391.117 Y351.769
G01 X391.272 Y350.882
G01 X390.728 Y340.426
G01 X387.585 Y330.437
G01 X382.053 Y321.546
G01 X374.487 Y314.306
G01 X366.972 Y309.857
G01 X358.701 Y307.051
G01 X350.000 Y306.000
G01 X342.552 Y306.658
G01 X335.804 Y308.501
G01 X335.334 Y308.611
G01 X330.203 Y311.088
G01 X328.570 Y311.798
G01 X324.501 Y314.760
G01 X322.470 Y316.122
G01 X319.137 Y319.597
G01 X317.221 Y321.448
G01 X314.442 Y325.608
G01 X312.988 Y327.611
G01 X310.701 Y332.787
G01 X309.900 Y334.421
G01 X308.193 Y341.188
G01 X308.053 Y341.667
G01 X307.505 Y349.124
G01 X308.272 Y356.562
G01 X310.330 Y363.750
G01 X314.969 Y372.564
G01 X321.531 Y380.056
G01 X329.657 Y385.815
G01 X338.900 Y389.525
G01 X348.752 Y390.982
G01 X358.673 Y390.106
G01 X367.589 Y387.138
G01 X368.118 Y386.945
G01 X375.820 Y382.165
G01 X376.568 Y381.672
G01 X382.877 Y375.304
G01 X383.559 Y374.578
G01 X388.267 Y366.824
G01 X388.706 Y366.052
G01 X391.575 Y357.095
G01 X391.728 Y356.562
G01 X392.459 Y346.629
G01 X390.857 Y336.799
G01 X387.012 Y327.611
G01 X381.134 Y319.571
G01 X373.547 Y313.119
G01 X364.666 Y308.611
G01 X357.448 Y306.658
G01 X350.000 Y306.000
G01 X342.552 Y306.658
G01 X335.804 Y308.501
G01 X335.334 Y308.611
G01 X330.203 Y311.088
G01 X328.570 Y311.798
G01 X324.501 Y314.760
G01 X322.470 Y316.122
G01 X319.137 Y319.597
G01 X317.221 Y321.448
G01 X314.442 Y325.608
G01 X312.988 Y327.611
G01 X310.701 Y332.787
G01 X309.900 Y334.421
G01 X308.193 Y341.188
G01 X308.053 Y341.667
G01 X307.505 Y349.124
G01 X308.272 Y356.562
G01 X310.330 Y363.750
G01 X314.969 Y372.564
G01 X321.531 Y380.056
G01 X329.657 Y385.815
G01 X338.900 Y389.525
G01 X348.752 Y390.982
G01 X358.673 Y390.106
G01 X367.589 Y387.138
G01 X368.118 Y386.945
G01 X375.820 Y382.165
G01 X376.568 Y381.672
G01 X382.877 Y375.304
G01 X383.559 Y374.578
G01 X388.267 Y366.824
G01 X388.706 Y366.052
G01 X391.575 Y357.095
G01 X391.728 Y356.562
G01 X392.459 Y346.629
G01 X390.857 Y336.799
G01 X387.012 Y327.611
G01 X381.134 Y319.571
G01 X373.547 Y313.119
G01 X364.666 Y308.611
G01 X357.448 Y306.658
G01 X350.000 Y306.000
G01 X342.552 Y306.658
G01 X335.804 Y308.501
G01 X335.334 Y308.611
G01 X330.203 Y311.088
G01 X328.570 Y311.798
G01 X324.501 Y314.760
G01 X322.470 Y316.122
G01 X319.137 Y319.597
G01 X317.221 Y321.448
G01 X314.442 Y325.608
G01 X312.988 Y327.611
G01 X310.701 Y332.787
G01 X309.900 Y334.421
G01 X308.193 Y341.188
G01 X308.053 Y341.667
G01 X307.505 Y349.124
G01 X308.272 Y356.562
G01 X310.330 Y363.750
G01 X314.969 Y372.564
G01 X321.531 Y380.056
G01 X329.657 Y385.815
G01 X338.900 Y389.525
G01 X348.752 Y390.982
G01 X358.673 Y390.106
G01 X367.589 Y387.138
G01 X368.118 Y386.945
G01 X375.820 Y382.165
G01 X376.568 Y381.672
G01 X382.877 Y375.304
G01 X383.559 Y374.578
G01 X388.267 Y366.824
G01 X388.706 Y366.052
G01 X391.575 Y357.095
G01 X391.728 Y356.562
G01 X392.459 Y346.629
G01 X390.857 Y336.799
G01 X387.012 Y327.611
G01 X381.134 Y319.571
G01 X373.547 Y313.119
G01 X364.666 Y308.611
G01 X357.448 Y306.658
G01 X350.000 Y306.000
G01 X350.000 Y300.000
G01 X339.314 Y300.280
G01 X332.927 Y300.000
G01 X324.816 Y300.274
G01 X318.293 Y300.000
G01 X311.986 Y300.235
G01 X306.098 Y300.000
G01 X301.113 Y300.269
G01 X296.242 Y300.175
G01 X293.902 Y300.000
G01 X289.955 Y300.281
G01 X286.090 Y300.299
G01 X282.322 Y300.063
G01 X281.707 Y300.000
G01 X278.480 Y300.199
G01 X275.312 Y300.205
G01 X272.213 Y300.024
G01 X271.951 Y300.000
G01 X269.156 Y300.191
G01 X266.396 Y300.231
G01 X263.679 Y300.122
G01 X262.195 Y300.000
G01 X259.659 Y300.182
G01 X257.134 Y300.237
G01 X254.627 Y300.166
G01 X252.439 Y300.000
G01 X250.000 Y300.000
G01 X250.000 Y348.500
G01 X250.362 Y348.927
G01 X251.393 Y347.374
G01 X250.281 Y346.110
G01 X248.577 Y345.965
G01 X247.099 Y346.849
G01 X246.280 Y348.371
G01 X246.257 Y350.104
G01 X246.972 Y351.686
G01 X249.878 Y353.479
G01 X253.267 Y352.931
G01 X255.658 Y350.453
G01 X256.266 Y347.055
G01 X255.010 Y343.833
G01 X252.326 Y341.644
G01 X248.927 Y340.963
G01 X245.578 Y341.871
G01 X242.936 Y344.125
G01 X241.453 Y347.267
G01 X241.334 Y350.741
G01 X243.604 Y355.395
G01 X248.005 Y358.133
G01 X253.194 Y358.242
G01 X257.770 Y355.784
G01 X260.634 Y351.447
G01 X261.187 Y346.274
G01 X259.378 Y341.394
G01 X255.634 Y337.775
G01 X251.296 Y336.287
G01 X250.713 Y336.066
G01 X246.470 Y336.465
G01 X245.521 Y336.525
G01 X240.998 Y338.997
G01 X240.945 Y339.024
G01 X237.708 Y343.112
G01 X236.276 Y348.129
G01 X236.825 Y353.319
G01 X239.235 Y357.949
G01 X243.148 Y361.405
G01 X248.028 Y363.263
G01 X253.251 Y363.319
G01 X258.183 Y361.598
G01 X262.259 Y358.328
G01 X265.035 Y353.901
G01 X266.232 Y348.813
G01 X265.747 Y343.608
G01 X263.656 Y338.817
G01 X260.187 Y334.905
G01 X255.797 Y332.303
G01 X255.691 Y332.235
G01 X251.627 Y331.308
G01 X250.600 Y331.038
G01 X246.607 Y331.347
G01 X245.382 Y331.403
G01 X241.186 Y333.037
G01 X240.499 Y333.278
G01 X236.365 Y336.483
G01 X233.315 Y340.734
G01 X231.587 Y345.673
G01 X231.531 Y352.632
G01 X233.998 Y359.141
G01 X238.624 Y364.343
G01 X244.123 Y367.263
G01 X244.784 Y367.588
G01 X250.564 Y368.376
G01 X251.689 Y368.496
G01 X257.436 Y367.249
G01 X258.488 Y366.987
G01 X263.874 Y363.611
G01 X264.380 Y363.271
G01 X268.696 Y357.802
G01 X270.972 Y351.217
G01 X270.983 Y344.249
G01 X268.753 Y337.646
G01 X265.758 Y333.350
G01 X261.826 Y329.890
G01 X257.630 Y327.706
G01 X257.188 Y327.456
G01 X253.327 Y326.517
G01 X252.109 Y326.174
G01 X248.370 Y326.163
G01 X246.872 Y326.107
G01 X243.039 Y326.997
G01 X241.759 Y327.247
G01 X237.582 Y329.286
G01 X237.042 Y329.526
G01 X232.964 Y332.814
G01 X229.730 Y336.935
G01 X226.995 Y343.350
G01 X226.257 Y350.285
G01 X227.563 Y357.137
G01 X231.811 Y364.637
G01 X231.854 Y364.707
G01 X237.104 Y369.161
G01 X238.537 Y370.283
G01 X244.374 Y372.414
G01 X246.745 Y373.182
G01 X252.792 Y373.174
G01 X255.449 Y373.077
G01 X261.321 Y370.938
G01 X263.598 Y370.011
G01 X268.883 Y365.601
G01 X270.236 Y364.376
G01 X274.439 Y357.174
G01 X274.613 Y356.848
G01 X276.255 Y348.295
G01 X275.486 Y341.358
G01 X272.928 Y334.864
G01 X268.773 Y329.255
G01 X264.014 Y325.510
G01 X263.314 Y324.906
G01 X259.310 Y323.019
G01 X258.585 Y322.643
G01 X254.937 Y321.911
G01 X251.775 Y321.109
G01 X248.279 Y321.312
G01 X244.798 Y321.343
G01 X241.118 Y322.520
G01 X238.102 Y323.318
G01 X233.813 Y325.959
G01 X232.107 Y326.897
G01 X227.183 Y331.846
G01 X223.623 Y337.853
G01 X221.634 Y344.546
G01 X221.513 Y353.261
G01 X223.999 Y361.616
G01 X228.488 Y368.364
G01 X228.847 Y368.861
G01 X234.249 Y373.323
G01 X235.610 Y374.362
G01 X241.601 Y376.869
G01 X243.683 Y377.654
G01 X249.954 Y378.303
G01 X252.364 Y378.470
G01 X258.603 Y377.282
G01 X260.914 Y376.759
G01 X266.800 Y373.712
G01 X268.622 Y372.683
G01 X273.821 Y367.678
G01 X274.863 Y366.593
G01 X278.983 Y359.306
G01 X279.143 Y358.994
G01 X281.134 Y350.504
G01 X280.697 Y341.793
G01 X277.881 Y333.539
G01 X274.066 Y327.687
G01 X269.065 Y322.809
G01 X264.748 Y320.223
G01 X263.124 Y319.134
G01 X259.474 Y317.958
G01 X256.529 Y316.828
G01 X253.216 Y316.522
G01 X249.948 Y316.054
G01 X249.593 Y315.993
G01 X246.327 Y316.399
G01 X243.021 Y316.642
G01 X242.638 Y316.659
G01 X239.108 Y317.889
G01 X235.984 Y318.789
G01 X231.789 Y321.295
G01 X229.931 Y322.279
G01 X224.748 Y326.964
G01 X220.661 Y332.631
G01 X217.354 Y340.705
G01 X216.241 Y349.359
G01 X217.876 Y359.689
G01 X221.755 Y367.549
G01 X222.573 Y369.033
G01 X227.695 Y374.430
G01 X229.871 Y376.525
G01 X235.832 Y379.850
G01 X239.080 Y381.485
G01 X245.512 Y382.833
G01 X249.349 Y383.479
G01 X255.878 Y382.866
G01 X259.748 Y382.347
G01 X265.991 Y379.767
G01 X269.357 Y378.210
G01 X274.923 Y373.627
G01 X277.340 Y371.448
G01 X281.806 Y364.696
G01 X283.019 Y362.662
G01 X285.802 Y353.114
G01 X285.925 Y352.611
G01 X285.831 Y342.148
G01 X283.472 Y333.743
G01 X279.188 Y326.137
G01 X274.542 Y320.916
G01 X269.616 Y317.182
G01 X268.995 Y316.664
G01 X265.069 Y314.798
G01 X262.748 Y313.529
G01 X259.406 Y312.686
G01 X256.179 Y311.671
G01 X256.024 Y311.618
G01 X252.974 Y311.443
G01 X249.956 Y311.118
G01 X249.063 Y310.992
G01 X246.038 Y311.385
G01 X242.972 Y311.628
G01 X242.106 Y311.669
G01 X238.817 Y312.731
G01 X235.407 Y313.616
G01 X235.393 Y313.619
G01 X231.480 Y315.698
G01 X229.155 Y316.772
G01 X224.060 Y320.694
G01 X223.601 Y321.016
G01 X217.898 Y327.627
G01 X213.841 Y335.359
G01 X211.633 Y343.806
G01 X211.563 Y354.274
G01 X214.197 Y364.090
G01 X214.289 Y364.381
G01 X218.522 Y371.483
G01 X220.712 Y374.753
G01 X226.188 Y379.749
G01 X228.535 Y381.710
G01 X234.763 Y384.911
G01 X237.910 Y386.371
G01 X244.576 Y387.796
G01 X248.176 Y388.422
G01 X254.961 Y388.067
G01 X258.624 Y387.736
G01 X265.199 Y385.603
G01 X268.539 Y384.372
G01 X274.555 Y380.355
G01 X278.550 Y377.394
G01 X283.501 Y371.260
G01 X286.037 Y367.757
G01 X289.383 Y359.223
G01 X290.343 Y356.337
G01 X291.218 Y345.902
G01 X289.440 Y335.583
G01 X286.018 Y327.547
G01 X280.996 Y320.402
G01 X275.975 Y315.535
G01 X271.230 Y312.331
G01 X270.217 Y311.570
G01 X266.470 Y309.935
G01 X263.881 Y308.613
G01 X260.734 Y307.854
G01 X257.696 Y306.930
G01 X257.144 Y306.742
G01 X254.316 Y306.559
G01 X251.523 Y306.236
G01 X250.000 Y306.000
G01 X247.231 Y306.362
G01 X244.427 Y306.586
G01 X242.552 Y306.658
G01 X239.530 Y307.605
G01 X236.397 Y308.388
G01 X235.334 Y308.611
G01 X231.674 Y310.467
G01 X228.570 Y311.798
G01 X223.687 Y315.333
G01 X222.470 Y316.122
G01 X217.221 Y321.448
G01 X212.988 Y327.611
G01 X209.143 Y336.799
G01 X207.541 Y346.629
G01 X208.690 Y358.134
G01 X208.817 Y358.997
G01 X212.146 Y367.296
G01 X213.617 Y370.466
G01 X218.459 Y376.572
G01 X221.531 Y380.056
G01 X227.462 Y384.180
G01 X231.882 Y386.945
G01 X238.505 Y389.093
G01 X243.783 Y390.543
G01 X250.687 Y390.679
G01 X256.217 Y390.543
G01 X262.972 Y388.646
G01 X268.118 Y386.945
G01 X274.290 Y383.013
G01 X278.469 Y380.056
G01 X283.613 Y374.060
G01 X286.383 Y370.466
G01 X289.989 Y362.192
G01 X291.183 Y358.997
G01 X292.409 Y347.482
G01 X292.459 Y346.629
G01 X290.857 Y336.799
G01 X287.012 Y327.611
G01 X282.779 Y321.448
G01 X277.530 Y316.122
G01 X272.552 Y312.666
G01 X271.430 Y311.798
G01 X267.595 Y310.122
G01 X264.666 Y308.611
G01 X261.499 Y307.883
G01 X258.439 Y306.990
G01 X257.448 Y306.658
G01 X254.624 Y306.526
G01 X251.831 Y306.255
G01 X250.000 Y306.000
G01 X247.231 Y306.362
G01 X244.427 Y306.586
G01 X242.552 Y306.658
G01 X239.530 Y307.605
G01 X236.397 Y308.388
G01 X235.334 Y308.611
G01 X231.674 Y310.467
G01 X228.570 Y311.798
G01 X223.687 Y315.333
G01 X222.470 Y316.122
G01 X217.221 Y321.448
G01 X212.988 Y327.611
G01 X209.143 Y336.799
G01 X207.541 Y346.629
G01 X208.690 Y358.134
G01 X208.817 Y358.997
G01 X212.146 Y367.296
G01 X213.617 Y370.466
G01 X218.459 Y376.572
G01 X221.531 Y380.056
G01 X227.462 Y384.180
G01 X231.882 Y386.945
G01 X238.505 Y389.093
G01 X243.783 Y390.543
G01 X250.687 Y390.679
G01 X256.217 Y390.543
G01 X262.972 Y388.646
G01 X268.118 Y386.945
G01 X274.290 Y383.013
G01 X278.469 Y380.056
G01 X283.613 Y374.060
G01 X286.383 Y370.466
G01 X289.989 Y362.192
G01 X291.183 Y358.997
G01 X292.409 Y347.482
G01 X292.459 Y346.629
G01 X290.857 Y336.799
G01 X287.012 Y327.611
G01 X282.779 Y321.448
G01 X277.530 Y316.122
G01 X272.552 Y312.666
G01 X271.430 Y311.798
G01 X267.595 Y310.122
G01 X264.666 Y308.611
G01 X261.499 Y307.883
G01 X258.439 Y306.990
G01 X257.448 Y306.658
G01 X254.624 Y306.526
G01 X251.831 Y306.255
G01 X250.000 Y306.000
G01 X247.231 Y306.362
G01 X244.427 Y306.586
G01 X242.552 Y306.658
G01 X239.530 Y307.605
G01 X236.397 Y308.388
G01 X235.334 Y308.611
G01 X231.674 Y310.467
G01 X228.570 Y311.798
G01 X223.687 Y315.333
G01 X222.470 Y316.122
G01 X217.221 Y321.448
G01 X212.988 Y327.611
G01 X209.143 Y336.799
G01 X207.541 Y346.629
G01 X208.690 Y358.134
G01 X208.817 Y358.997
G01 X212.146 Y367.296
G01 X213.617 Y370.466
G01 X218.459 Y376.572
G01 X221.531 Y380.056
G01 X227.462 Y384.180
G01 X231.882 Y386.945
G01 X238.505 Y389.093
G01 X243.783 Y390.543
G01 X250.687 Y390.679
G01 X256.217 Y390.543
G01 X262.972 Y388.646
G01 X268.118 Y386.945
G01 X274.290 Y383.013
G01 X278.469 Y380.056
G01 X283.613 Y374.060
G01 X286.383 Y370.466
G01 X289.989 Y362.192
G01 X291.183 Y358.997
G01 X292.409 Y347.482
G01 X292.459 Y346.629
G01 X290.857 Y336.799
G01 X287.012 Y327.611
G01 X282.779 Y321.448
G01 X277.530 Y316.122
G01 X272.552 Y312.666
G01 X271.430 Y311.798
G01 X267.595 Y310.122
G01 X264.666 Y308.611
G01 X261.499 Y307.883
G01 X258.439 Y306.990
G01 X257.448 Y306.658
G01 X254.624 Y306.526
G01 X251.831 Y306.255
G01 X250.000 Y306.000
G01 X250.000 Y300.000
G01 X247.535 Y300.180
G01 X245.052 Y300.237
G01 X242.558 Y300.172
G01 X240.244 Y300.000
G01 X237.623 Y300.186
G01 X234.962 Y300.234
G01 X232.266 Y300.140
G01 X230.488 Y300.000
G01 X227.515 Y300.195
G01 X224.477 Y300.216
G01 X221.384 Y300.057
G01 X220.732 Y300.000
G01 X217.207 Y300.198
G01 X213.594 Y300.167
G01 X210.976 Y300.000
G01 X206.629 Y300.274
G01 X202.166 Y300.236
G01 X198.780 Y300.000
G01 X193.196 Y300.251
G01 X187.472 Y300.067
G01 X186.585 Y300.000
G01 X179.333 Y300.298
G01 X171.951 Y300.000
G01 X162.430 Y300.217
G01 X157.317 Y300.000
G01 X150.000 Y300.000
G01 X149.755 Y306.434
G01 X149.907 Y313.008
G01 X150.000 Y314.550
G01 X149.688 Y321.961
G01 X149.871 Y329.553
G01 X150.000 Y331.525
G01 X149.712 Y340.303
G01 X150.000 Y348.500
G01 X150.278 Y348.933
G01 X151.504 Y348.339
G01 X151.303 Y346.621
G01 X149.864 Y345.627
G01 X148.115 Y345.708
G01 X146.661 Y346.685
G01 X145.819 Y348.222
G01 X145.697 Y349.970
G01 X147.378 Y352.978
G01 X150.601 Y354.229
G01 X153.960 Y353.377
G01 X156.341 Y350.851
G01 X157.139 Y347.470
G01 X156.247 Y344.108
G01 X153.945 Y341.498
G01 X150.750 Y340.114
G01 X147.267 Y340.151
G01 X144.073 Y341.546
G01 X141.639 Y344.042
G01 X140.051 Y348.988
G01 X141.184 Y354.064
G01 X144.640 Y357.955
G01 X149.516 Y359.784
G01 X154.697 Y359.222
G01 X159.118 Y356.459
G01 X161.961 Y352.086
G01 X162.764 Y346.930
G01 X161.446 Y341.880
G01 X158.271 Y337.735
G01 X153.763 Y335.098
G01 X148.598 Y334.314
G01 X143.497 Y335.447
G01 X139.124 Y338.309
G01 X136.011 Y342.508
G01 X134.505 Y347.515
G01 X134.750 Y352.738
G01 X136.687 Y357.596
G01 X140.079 Y361.578
G01 X144.554 Y364.287
G01 X149.649 Y365.478
G01 X154.864 Y365.058
G01 X159.714 Y363.092
G01 X163.766 Y359.780
G01 X166.679 Y355.431
G01 X168.220 Y350.429
G01 X168.282 Y345.194
G01 X166.879 Y340.150
G01 X164.140 Y335.688
G01 X160.289 Y332.140
G01 X155.627 Y329.756
G01 X150.499 Y328.696
G01 X145.271 Y329.018
G01 X140.306 Y330.684
G01 X134.658 Y334.766
G01 X130.697 Y340.500
G01 X128.843 Y347.219
G01 X129.272 Y354.177
G01 X131.908 Y360.632
G01 X136.451 Y365.922
G01 X142.419 Y369.530
G01 X149.209 Y371.121
G01 X156.161 Y370.568
G01 X162.626 Y367.947
G01 X168.017 Y363.520
G01 X171.867 Y357.702
G01 X173.856 Y351.015
G01 X173.836 Y344.037
G01 X171.833 Y337.371
G01 X171.828 Y337.354
G01 X168.593 Y332.444
G01 X168.017 Y331.509
G01 X163.657 Y327.802
G01 X162.725 Y326.959
G01 X156.898 Y324.305
G01 X156.381 Y324.049
G01 X149.483 Y322.987
G01 X142.554 Y323.835
G01 X136.108 Y326.513
G01 X130.606 Y330.810
G01 X125.632 Y337.962
G01 X123.243 Y346.341
G01 X123.665 Y355.045
G01 X126.801 Y363.109
G01 X126.825 Y363.166
G01 X132.072 Y369.535
G01 X132.376 Y369.885
G01 X139.426 Y374.359
G01 X139.740 Y374.547
G01 X148.183 Y376.717
G01 X156.885 Y376.210
G01 X165.029 Y373.100
G01 X171.871 Y367.696
G01 X176.804 Y360.506
G01 X179.086 Y353.905
G01 X179.757 Y346.952
G01 X178.789 Y340.034
G01 X176.464 Y334.135
G01 X176.247 Y333.527
G01 X173.056 Y328.968
G01 X172.279 Y327.778
G01 X168.233 Y324.163
G01 X167.103 Y323.086
G01 X161.954 Y320.257
G01 X160.998 Y319.690
G01 X154.285 Y317.755
G01 X147.309 Y317.372
G01 X140.422 Y318.548
G01 X132.455 Y322.103
G01 X125.760 Y327.696
G01 X120.828 Y334.892
G01 X118.010 Y343.150
G01 X117.497 Y351.860
G01 X119.308 Y360.395
G01 X123.297 Y368.153
G01 X123.298 Y368.155
G01 X129.031 Y374.453
G01 X129.176 Y374.604
G01 X136.429 Y379.252
G01 X136.525 Y379.310
G01 X144.838 Y381.966
G01 X153.554 Y382.408
G01 X162.097 Y380.623
G01 X169.913 Y376.739
G01 X176.506 Y371.020
G01 X181.468 Y363.839
G01 X184.498 Y355.654
G01 X185.410 Y348.724
G01 X184.943 Y341.750
G01 X183.145 Y335.105
G01 X183.121 Y335.002
G01 X180.544 Y329.877
G01 X180.021 Y328.737
G01 X176.812 Y324.627
G01 X175.766 Y323.191
G01 X171.868 Y319.815
G01 X170.523 Y318.569
G01 X165.706 Y315.795
G01 X164.490 Y315.038
G01 X158.310 Y312.884
G01 X157.894 Y312.723
G01 X150.979 Y311.704
G01 X142.268 Y312.293
G01 X133.937 Y314.907
G01 X126.445 Y319.389
G01 X120.194 Y325.486
G01 X114.792 Y334.451
G01 X112.048 Y344.553
G01 X112.144 Y354.789
G01 X112.154 Y355.021
G01 X114.729 Y363.971
G01 X115.083 Y365.072
G01 X119.735 Y372.643
G01 X120.604 Y373.967
G01 X127.037 Y379.961
G01 X128.297 Y381.068
G01 X136.265 Y385.228
G01 X137.599 Y385.874
G01 X146.898 Y387.887
G01 X147.839 Y388.058
G01 X158.293 Y387.483
G01 X168.238 Y384.204
G01 X176.994 Y378.461
G01 X183.976 Y370.657
G01 X188.105 Y362.961
G01 X190.498 Y354.561
G01 X191.056 Y345.844
G01 X189.832 Y337.859
G01 X189.760 Y337.207
G01 X187.674 Y331.378
G01 X187.431 Y330.613
G01 X184.801 Y325.989
G01 X184.028 Y324.505
G01 X180.912 Y320.707
G01 X179.650 Y319.053
G01 X175.862 Y315.949
G01 X173.002 Y313.386
G01 X168.321 Y310.770
G01 X166.927 Y309.923
G01 X161.008 Y307.774
G01 X160.363 Y307.513
G01 X152.211 Y306.169
G01 X151.747 Y306.073
G01 X150.000 Y306.000
G01 X142.552 Y306.658
G01 X135.334 Y308.611
G01 X126.453 Y313.119
G01 X118.866 Y319.571
G01 X112.988 Y327.611
G01 X109.143 Y336.799
G01 X107.541 Y346.629
G01 X108.272 Y356.562
G01 X111.108 Y365.520
G01 X111.294 Y366.052
G01 X115.959 Y373.823
G01 X116.441 Y374.578
G01 X122.716 Y380.980
G01 X123.432 Y381.672
G01 X131.117 Y386.494
G01 X131.882 Y386.945
G01 X140.797 Y389.944
G01 X141.327 Y390.106
G01 X151.248 Y390.982
G01 X161.100 Y389.525
G01 X170.343 Y385.815
G01 X178.469 Y380.056
G01 X185.031 Y372.564
G01 X189.670 Y363.750
G01 X191.728 Y356.562
G01 X192.495 Y349.124
G01 X191.947 Y341.667
G01 X190.204 Y334.897
G01 X190.100 Y334.421
G01 X187.699 Y329.257
G01 X187.012 Y327.611
G01 X184.111 Y323.500
G01 X182.779 Y321.448
G01 X179.353 Y318.065
G01 X177.530 Y316.122
G01 X173.411 Y313.281
G01 X171.430 Y311.798
G01 X166.287 Y309.435
G01 X164.666 Y308.611
G01 X157.920 Y306.804
G01 X157.448 Y306.658
G01 X150.000 Y306.000
G01 X142.552 Y306.658
G01 X135.334 Y308.611
G01 X126.453 Y313.119
G01 X118.866 Y319.571
G01 X112.988 Y327.611
G01 X109.143 Y336.799
G01 X107.541 Y346.629
G01 X108.272 Y356.562
G01 X111.108 Y365.520
G01 X111.294 Y366.052
G01 X115.959 Y373.823
G01 X116.441 Y374.578
G01 X122.716 Y380.980
G01 X123.432 Y381.672
G01 X131.117 Y386.494
G01 X131.882 Y386.945
G01 X140.797 Y389.944
G01 X141.327 Y390.106
G01 X151.248 Y390.982
G01 X161.100 Y389.525
G01 X170.343 Y385.815
G01 X178.469 Y380.056
G01 X185.031 Y372.564
G01 X189.670 Y363.750
G01 X191.728 Y356.562
G01 X192.495 Y349.124
G01 X191.947 Y341.667
G01 X190.204 Y334.897
G01 X190.100 Y334.421
G01 X187.699 Y329.257
G01 X187.012 Y327.611
G01 X184.111 Y323.500
G01 X182.779 Y321.448
G01 X179.353 Y318.065
G01 X177.530 Y316.122
G01 X173.411 Y313.281
G01 X171.430 Y311.798
G01 X166.287 Y309.435
G01 X164.666 Y308.611
G01 X157.920 Y306.804
G01 X157.448 Y306.658
G01 X150.000 Y306.000
G01 X142.552 Y306.658
G01 X135.334 Y308.611
G01 X126.453 Y313.119
G01 X118.866 Y319.571
G01 X112.988 Y327.611
G01 X109.143 Y336.799
G01 X107.541 Y346.629
G01 X108.272 Y356.562
G01 X111.108 Y365.520
G01 X111.294 Y366.052
G01 X115.959 Y373.823
G01 X116.441 Y374.578
G01 X122.716 Y380.980
G01 X123.432 Y381.672
G01 X131.117 Y386.494
G01 X131.882 Y386.945
G01 X140.797 Y389.944
G01 X141.327 Y390.106
G01 X151.248 Y390.982
G01 X161.100 Y389.525
G01 X170.343 Y385.815
G01 X178.469 Y380.056
G01 X185.031 Y372.564
G01 X189.670 Y363.750
G01 X191.728 Y356.562
G01 X192.495 Y349.124
G01 X191.947 Y341.667
G01 X190.204 Y334.897
G01 X190.100 Y334.421
G01 X187.699 Y329.257
G01 X187.012 Y327.611
G01 X184.111 Y323.500
G01 X182.779 Y321.448
G01 X179.353 Y318.065
G01 X177.530 Y316.122
G01 X173.411 Y313.281
G01 X171.430 Y311.798
G01 X166.287 Y309.435
G01 X164.666 Y308.611
G01 X157.920 Y306.804
G01 X157.448 Y306.658
G01 X150.000 Y306.000
G01 X150.000 Y300.000
G01 X136.024 Y300.157
G01 X132.506 Y300.000
G01 X113.913 Y300.178
G01 X110.014 Y300.000
G01 X85.023 Y300.000
G01 X55.033 Y300.000
G01 X22.545 Y300.000
G01 X5.051 Y300.000
G01 X4.083 Y295.000
G01 X41.533 Y295.000
G01 X73.989 Y295.000
G01 X101.451 Y295.000
G01 X123.921 Y295.000
G01 X140.769 Y295.144
G01 X143.894 Y295.000
G01 X156.429 Y295.223
G01 X161.370 Y295.000
G01 X170.779 Y295.243
G01 X176.350 Y295.000
G01 X183.552 Y295.221
G01 X188.833 Y295.000
G01 X194.397 Y295.275
G01 X199.832 Y295.118
G01 X201.316 Y295.000
G01 X205.668 Y295.208
G01 X209.918 Y295.102
G01 X211.302 Y295.000
G01 X214.822 Y295.219
G01 X218.266 Y295.205
G01 X221.289 Y295.000
G01 X224.182 Y295.216
G01 X227.025 Y295.258
G01 X229.809 Y295.134
G01 X231.275 Y295.000
G01 X233.744 Y295.203
G01 X236.187 Y295.274
G01 X238.597 Y295.216
G01 X240.967 Y295.032
G01 X241.262 Y295.000
G01 X243.507 Y295.192
G01 X245.749 Y295.273
G01 X247.984 Y295.243
G01 X250.205 Y295.104
G01 X251.248 Y295.000
G01 X253.479 Y295.192
G01 X255.731 Y295.273
G01 X257.999 Y295.242
G01 X260.278 Y295.095
G01 X261.235 Y295.000
G01 X263.674 Y295.203
G01 X266.159 Y295.273
G01 X268.684 Y295.206
G01 X271.221 Y295.000
G01 X274.102 Y295.214
G01 X277.053 Y295.251
G01 X280.064 Y295.104
G01 X281.208 Y295.000
G01 X284.763 Y295.216
G01 X288.412 Y295.187
G01 X291.194 Y295.000
G01 X295.744 Y295.292
G01 X300.415 Y295.240
G01 X303.677 Y295.000
G01 X309.705 Y295.256
G01 X315.878 Y295.022
G01 X316.160 Y295.000
G01 X324.172 Y295.292
G01 X331.140 Y295.000
G01 X342.037 Y295.288
G01 X348.616 Y295.000
G01 X363.562 Y295.227
G01 X368.589 Y295.000
G01 X389.051 Y295.093
G01 X391.059 Y295.000
G01 X416.025 Y295.000
G01 X445.984 Y295.000
G01 X480.937 Y295.000
G01 X495.917 Y295.000
G01 X496.779 Y290.000
G01 X456.896 Y290.000
G01 X424.490 Y290.000
G01 X397.070 Y290.000
G01 X373.035 Y290.042
G01 X372.143 Y290.000
G01 X354.820 Y290.122
G01 X352.202 Y290.000
G01 X339.544 Y290.218
G01 X334.752 Y290.000
G01 X325.452 Y290.250
G01 X319.796 Y290.000
G01 X312.841 Y290.234
G01 X307.333 Y290.000
G01 X302.102 Y290.291
G01 X296.988 Y290.171
G01 X294.869 Y290.000
G01 X290.890 Y290.223
G01 X287.002 Y290.157
G01 X284.898 Y290.000
G01 X281.762 Y290.232
G01 X278.691 Y290.256
G01 X275.696 Y290.078
G01 X274.927 Y290.000
G01 X272.404 Y290.223
G01 X269.921 Y290.298
G01 X267.485 Y290.228
G01 X265.106 Y290.018
G01 X264.956 Y290.000
G01 X262.823 Y290.207
G01 X260.705 Y290.301
G01 X258.610 Y290.286
G01 X256.542 Y290.164
G01 X254.985 Y290.000
G01 X253.017 Y290.196
G01 X251.041 Y290.296
G01 X249.062 Y290.299
G01 X247.086 Y290.204
G01 X245.117 Y290.013
G01 X245.015 Y290.000
G01 X242.971 Y290.203
G01 X240.896 Y290.300
G01 X238.795 Y290.289
G01 X236.673 Y290.168
G01 X235.044 Y290.000
G01 X232.668 Y290.218
G01 X230.236 Y290.297
G01 X227.755 Y290.232
G01 X225.235 Y290.019
G01 X225.073 Y290.000
G01 X222.100 Y290.228
G01 X219.047 Y290.258
G01 X215.927 Y290.081
G01 X215.102 Y290.000
G01 X211.272 Y290.222
G01 X207.341 Y290.160
G01 X205.131 Y290.000
G01 X200.075 Y290.290
G01 X194.891 Y290.174
G01 X192.667 Y290.000
G01 X185.837 Y290.235
G01 X180.204 Y290.000
G01 X171.018 Y290.251
G01 X165.248 Y290.000
G01 X152.677 Y290.219
G01 X147.798 Y290.000
G01 X130.517 Y290.123
G01 X127.857 Y290.000
G01 X103.833 Y290.042
G01 X102.930 Y290.000
G01 X75.510 Y290.000
G01 X43.104 Y290.000
G01 X3.221 Y290.000
G01 X2.462 Y285.000
G01 X44.755 Y285.000
G01 X79.584 Y285.000
G01 X109.438 Y285.000
G01 X133.984 Y285.016
G01 X134.316 Y285.000
G01 X151.614 Y285.122
G01 X154.219 Y285.000
G01 X166.530 Y285.235
G01 X171.634 Y285.000
G01 X180.407 Y285.275
G01 X186.561 Y285.000
G01 X192.904 Y285.261
G01 X199.000 Y285.000
G01 X203.733 Y285.212
G01 X208.358 Y285.048
G01 X208.951 Y285.000
G01 X212.559 Y285.239
G01 X216.087 Y285.213
G01 X218.902 Y285.000
G01 X221.654 Y285.244
G01 X224.352 Y285.306
G01 X226.986 Y285.191
G01 X228.854 Y285.000
G01 X231.048 Y285.157
G01 X233.206 Y285.186
G01 X235.320 Y285.089
G01 X236.317 Y285.000
G01 X238.212 Y285.149
G01 X240.088 Y285.197
G01 X241.940 Y285.147
G01 X243.764 Y285.002
G01 X243.780 Y285.000
G01 X245.521 Y285.142
G01 X247.260 Y285.197
G01 X248.994 Y285.167
G01 X250.718 Y285.052
G01 X251.244 Y285.000
G01 X252.981 Y285.142
G01 X254.734 Y285.198
G01 X256.500 Y285.165
G01 X258.274 Y285.043
G01 X258.707 Y285.000
G01 X260.601 Y285.149
G01 X262.530 Y285.196
G01 X264.488 Y285.136
G01 X266.171 Y285.000
G01 X268.388 Y285.157
G01 X270.658 Y285.179
G01 X272.973 Y285.060
G01 X273.634 Y285.000
G01 X276.404 Y285.241
G01 X279.252 Y285.291
G01 X282.166 Y285.143
G01 X283.586 Y285.000
G01 X287.298 Y285.233
G01 X291.110 Y285.181
G01 X293.537 Y285.000
G01 X298.611 Y285.297
G01 X303.811 Y285.175
G01 X305.976 Y285.000
G01 X313.027 Y285.230
G01 X318.415 Y285.000
G01 X328.101 Y285.233
G01 X333.342 Y285.000
G01 X346.825 Y285.180
G01 X350.757 Y285.000
G01 X369.876 Y285.153
G01 X373.147 Y285.000
G01 X398.025 Y285.000
G01 X427.879 Y285.000
G01 X465.196 Y285.000
G01 X497.538 Y285.000
G01 X498.193 Y280.000
G01 X453.294 Y280.000
G01 X415.878 Y280.000
G01 X385.945 Y280.000
G01 X361.001 Y280.000
G01 X342.961 Y280.091
G01 X341.046 Y280.000
G01 X328.550 Y280.231
G01 X323.585 Y280.000
G01 X314.973 Y280.287
G01 X308.619 Y280.000
G01 X302.629 Y280.282
G01 X296.764 Y280.054
G01 X296.147 Y280.000
G01 X291.857 Y280.233
G01 X287.663 Y280.123
G01 X286.169 Y280.000
G01 X283.038 Y280.259
G01 X279.973 Y280.287
G01 X276.989 Y280.091
G01 X276.191 Y280.000
G01 X273.838 Y280.174
G01 X271.534 Y280.192
G01 X269.286 Y280.059
G01 X268.708 Y280.000
G01 X266.815 Y280.168
G01 X264.952 Y280.224
G01 X263.125 Y280.171
G01 X261.340 Y280.014
G01 X261.225 Y280.000
G01 X259.625 Y280.155
G01 X258.036 Y280.226
G01 X256.465 Y280.215
G01 X254.913 Y280.123
G01 X253.742 Y280.000
G01 X252.265 Y280.147
G01 X250.783 Y280.222
G01 X249.299 Y280.224
G01 X247.817 Y280.154
G01 X246.340 Y280.010
G01 X246.258 Y280.000
G01 X244.726 Y280.152
G01 X243.170 Y280.225
G01 X241.594 Y280.217
G01 X240.002 Y280.126
G01 X238.775 Y280.000
G01 X236.993 Y280.164
G01 X235.168 Y280.223
G01 X233.307 Y280.175
G01 X231.416 Y280.014
G01 X231.292 Y280.000
G01 X229.061 Y280.171
G01 X226.771 Y280.194
G01 X224.429 Y280.061
G01 X223.809 Y280.000
G01 X220.849 Y280.256
G01 X217.804 Y280.290
G01 X214.690 Y280.094
G01 X213.831 Y280.000
G01 X209.677 Y280.233
G01 X205.420 Y280.125
G01 X203.853 Y280.000
G01 X198.004 Y280.281
G01 X192.026 Y280.055
G01 X191.381 Y280.000
G01 X182.889 Y280.288
G01 X176.415 Y280.000
G01 X163.999 Y280.232
G01 X158.954 Y280.000
G01 X140.940 Y280.091
G01 X138.999 Y280.000
G01 X114.055 Y280.000
G01 X84.122 Y280.000
G01 X46.706 Y280.000
G01 X1.807 Y280.000
G01 X1.253 Y275.000
G01 X51.253 Y275.000
G01 X91.252 Y275.000
G01 X121.252 Y275.000
G01 X146.251 Y275.000
G01 X164.568 Y275.080
G01 X166.251 Y275.000
G01 X178.434 Y275.249
G01 X183.751 Y275.000
G01 X192.024 Y275.193
G01 X196.251 Y275.000
G01 X201.923 Y275.302
G01 X207.485 Y275.112
G01 X208.751 Y275.000
G01 X212.600 Y275.256
G01 X216.369 Y275.199
G01 X218.750 Y275.000
G01 X221.509 Y275.183
G01 X224.206 Y275.158
G01 X226.250 Y275.000
G01 X228.320 Y275.189
G01 X230.350 Y275.237
G01 X232.330 Y275.149
G01 X233.750 Y275.000
G01 X235.340 Y275.178
G01 X236.907 Y275.261
G01 X238.446 Y275.253
G01 X239.952 Y275.157
G01 X241.250 Y275.000
G01 X242.558 Y275.160
G01 X243.860 Y275.253
G01 X245.154 Y275.279
G01 X246.435 Y275.240
G01 X247.700 Y275.136
G01 X248.750 Y275.000
G01 X249.978 Y275.154
G01 X251.218 Y275.248
G01 X252.468 Y275.280
G01 X253.723 Y275.250
G01 X254.981 Y275.157
G01 X256.239 Y275.002
G01 X256.250 Y275.000
G01 X257.621 Y275.166
G01 X259.024 Y275.257
G01 X260.454 Y275.270
G01 X261.906 Y275.202
G01 X263.375 Y275.051
G01 X263.750 Y275.000
G01 X265.506 Y275.182
G01 X267.312 Y275.250
G01 X269.161 Y275.199
G01 X271.045 Y275.026
G01 X271.250 Y275.000
G01 X273.631 Y275.185
G01 X276.078 Y275.193
G01 X278.580 Y275.018
G01 X278.750 Y275.000
G01 X282.107 Y275.263
G01 X285.555 Y275.253
G01 X288.750 Y275.000
G01 X293.648 Y275.217
G01 X298.653 Y275.008
G01 X298.749 Y275.000
G01 X305.807 Y275.242
G01 X311.249 Y275.000
G01 X321.629 Y275.212
G01 X326.249 Y275.000
G01 X341.880 Y275.205
G01 X346.249 Y275.000
G01 X370.407 Y275.040
G01 X371.248 Y275.000
G01 X401.248 Y275.000
G01 X438.748 Y275.000
G01 X486.247 Y275.000
G01 X498.747 Y275.000
G01 X499.199 Y270.000
G01 X444.375 Y270.000
G01 X402.011 Y270.000
G01 X369.615 Y270.000
G01 X344.696 Y270.000
G01 X326.311 Y270.074
G01 X324.760 Y270.000
G01 X313.197 Y270.278
G01 X307.316 Y270.000
G01 X299.963 Y270.236
G01 X294.856 Y270.000
G01 X289.966 Y270.226
G01 X285.171 Y270.025
G01 X284.888 Y270.000
G01 X281.499 Y270.173
G01 X278.184 Y270.066
G01 X277.412 Y270.000
G01 X275.010 Y270.200
G01 X272.658 Y270.215
G01 X270.367 Y270.051
G01 X269.936 Y270.000
G01 X268.252 Y270.203
G01 X266.597 Y270.290
G01 X264.980 Y270.266
G01 X263.406 Y270.134
G01 X262.460 Y270.000
G01 X261.238 Y270.183
G01 X260.029 Y270.295
G01 X258.837 Y270.338
G01 X257.665 Y270.313
G01 X256.517 Y270.224
G01 X255.396 Y270.073
G01 X254.984 Y270.000
G01 X253.985 Y270.161
G01 X252.982 Y270.272
G01 X251.978 Y270.333
G01 X250.975 Y270.345
G01 X249.975 Y270.307
G01 X248.982 Y270.220
G01 X247.997 Y270.086
G01 X247.508 Y270.000
G01 X246.475 Y270.167
G01 X245.420 Y270.280
G01 X244.345 Y270.337
G01 X243.254 Y270.337
G01 X242.149 Y270.277
G01 X241.034 Y270.158
G01 X240.032 Y270.000
G01 X238.668 Y270.191
G01 X237.261 Y270.294
G01 X235.819 Y270.307
G01 X234.345 Y270.225
G01 X232.847 Y270.046
G01 X232.556 Y270.000
G01 X230.556 Y270.200
G01 X228.496 Y270.250
G01 X226.388 Y270.144
G01 X225.080 Y270.000
G01 X222.155 Y270.184
G01 X219.157 Y270.125
G01 X217.604 Y270.000
G01 X213.294 Y270.244
G01 X208.891 Y270.108
G01 X207.636 Y270.000
G01 X200.985 Y270.262
G01 X195.176 Y270.000
G01 X184.820 Y270.214
G01 X180.224 Y270.000
G01 X163.879 Y270.170
G01 X160.288 Y270.000
G01 X135.369 Y270.000
G01 X102.973 Y270.000
G01 X63.101 Y270.000
G01 X10.769 Y270.000
G01 X0.801 Y270.000
G01 X0.450 Y265.000
G01 X62.838 Y265.000
G01 X107.757 Y265.000
G01 X142.694 Y265.000
G01 X167.649 Y265.000
G01 X185.229 Y265.115
G01 X187.613 Y265.000
G01 X198.077 Y265.215
G01 X202.586 Y265.000
G01 X208.814 Y265.291
G01 X214.943 Y265.011
G01 X215.063 Y265.000
G01 X218.736 Y265.281
G01 X222.345 Y265.242
G01 X225.045 Y265.000
G01 X227.287 Y265.218
G01 X229.487 Y265.254
G01 X231.632 Y265.113
G01 X232.532 Y265.000
G01 X234.036 Y265.130
G01 X235.510 Y265.151
G01 X236.945 Y265.065
G01 X237.523 Y265.000
G01 X238.624 Y265.128
G01 X239.708 Y265.184
G01 X240.769 Y265.172
G01 X241.803 Y265.094
G01 X242.514 Y265.000
G01 X243.362 Y265.114
G01 X244.203 Y265.182
G01 X245.035 Y265.204
G01 X245.854 Y265.182
G01 X246.659 Y265.117
G01 X247.448 Y265.009
G01 X247.505 Y265.000
G01 X248.244 Y265.104
G01 X248.987 Y265.172
G01 X249.732 Y265.204
G01 X250.479 Y265.199
G01 X251.224 Y265.157
G01 X251.966 Y265.079
G01 X252.495 Y265.000
G01 X253.283 Y265.110
G01 X254.087 Y265.179
G01 X254.906 Y265.204
G01 X255.737 Y265.185
G01 X256.577 Y265.121
G01 X257.425 Y265.010
G01 X257.486 Y265.000
G01 X258.500 Y265.124
G01 X259.542 Y265.183
G01 X260.610 Y265.175
G01 X261.700 Y265.097
G01 X262.477 Y265.000
G01 X263.978 Y265.218
G01 X265.528 Y265.324
G01 X267.120 Y265.311
G01 X268.747 Y265.178
G01 X269.964 Y265.000
G01 X272.454 Y265.206
G01 X275.008 Y265.202
G01 X277.450 Y265.000
G01 X281.512 Y265.262
G01 X285.657 Y265.157
G01 X287.432 Y265.000
G01 X294.258 Y265.261
G01 X299.910 Y265.000
G01 X311.639 Y265.272
G01 X317.378 Y265.000
G01 X337.936 Y265.091
G01 X339.838 Y265.000
G01 X369.784 Y265.000
G01 X409.712 Y265.000
G01 X462.117 Y265.000
G01 X499.550 Y265.000
G01 X499.800 Y260.000
G01 X427.358 Y260.000
G01 X374.900 Y260.000
G01 X339.928 Y260.000
G01 X314.948 Y260.000
G01 X299.301 Y260.089
G01 X297.462 Y260.000
G01 X288.786 Y260.183
G01 X284.972 Y260.000
G01 X280.137 Y260.242
G01 X275.373 Y260.037
G01 X274.980 Y260.000
G01 X272.283 Y260.216
G01 X269.631 Y260.194
G01 X267.486 Y260.000
G01 X265.873 Y260.142
G01 X264.291 Y260.152
G01 X262.749 Y260.033
G01 X262.490 Y260.000
G01 X261.474 Y260.150
G01 X260.475 Y260.225
G01 X259.497 Y260.227
G01 X258.546 Y260.160
G01 X257.625 Y260.025
G01 X257.494 Y260.000
G01 X256.843 Y260.132
G01 X256.198 Y260.225
G01 X255.561 Y260.280
G01 X254.933 Y260.297
G01 X254.317 Y260.278
G01 X253.716 Y260.224
G01 X253.130 Y260.136
G01 X252.562 Y260.016
G01 X252.498 Y260.000
G01 X252.004 Y260.111
G01 X251.506 Y260.197
G01 X251.004 Y260.258
G01 X250.499 Y260.295
G01 X249.993 Y260.307
G01 X249.488 Y260.295
G01 X248.983 Y260.257
G01 X248.481 Y260.195
G01 X247.983 Y260.108
G01 X247.502 Y260.000
G01 X246.936 Y260.124
G01 X246.352 Y260.215
G01 X245.753 Y260.273
G01 X245.138 Y260.296
G01 X244.512 Y260.283
G01 X243.875 Y260.233
G01 X243.231 Y260.145
G01 X242.581 Y260.017
G01 X242.506 Y260.000
G01 X241.590 Y260.144
G01 X240.642 Y260.222
G01 X239.668 Y260.230
G01 X238.672 Y260.165
G01 X237.658 Y260.026
G01 X237.510 Y260.000
G01 X235.839 Y260.240
G01 X234.117 Y260.337
G01 X232.354 Y260.288
G01 X230.561 Y260.090
G01 X230.016 Y260.000
G01 X226.855 Y260.194
G01 X223.633 Y260.100
G01 X222.522 Y260.000
G01 X216.665 Y260.310
G01 X210.724 Y260.065
G01 X210.032 Y260.000
G01 X198.275 Y260.274
G01 X192.546 Y260.000
G01 X170.064 Y260.000
G01 X137.590 Y260.000
G01 X90.128 Y260.000
G01 X22.682 Y260.000
G01 X0.200 Y260.000
G01 X0.050 Y255.000
G01 X97.531 Y255.000
G01 X155.019 Y255.000
G01 X190.012 Y255.000
G01 X212.357 Y255.007
G01 X212.508 Y255.000
G01 X221.980 Y255.147
G01 X225.005 Y255.000
G01 X228.986 Y255.288
G01 X232.926 Y255.200
G01 X235.003 Y255.000
G01 X236.759 Y255.149
G01 X238.490 Y255.140
G01 X240.002 Y255.000
G01 X241.004 Y255.065
G01 X241.987 Y255.045
G01 X242.502 Y255.000
G01 X243.144 Y255.075
G01 X243.775 Y255.099
G01 X244.391 Y255.074
G01 X244.988 Y255.002
G01 X245.001 Y255.000
G01 X245.404 Y255.072
G01 X245.802 Y255.117
G01 X246.192 Y255.135
G01 X246.574 Y255.128
G01 X246.946 Y255.096
G01 X247.306 Y255.041
G01 X247.500 Y255.000
G01 X247.774 Y255.059
G01 X248.047 Y255.104
G01 X248.320 Y255.135
G01 X248.590 Y255.151
G01 X248.858 Y255.153
G01 X249.123 Y255.141
G01 X249.383 Y255.116
G01 X249.640 Y255.077
G01 X249.890 Y255.027
G01 X250.000 Y255.000
G01 X250.248 Y255.056
G01 X250.502 Y255.100
G01 X250.761 Y255.131
G01 X251.024 Y255.149
G01 X251.291 Y255.153
G01 X251.560 Y255.143
G01 X251.832 Y255.119
G01 X252.105 Y255.081
G01 X252.378 Y255.028
G01 X252.500 Y255.000
G01 X252.853 Y255.068
G01 X253.218 Y255.113
G01 X253.595 Y255.134
G01 X253.981 Y255.130
G01 X254.375 Y255.100
G01 X254.775 Y255.043
G01 X254.999 Y255.000
G01 X255.596 Y255.073
G01 X256.212 Y255.099
G01 X256.842 Y255.076
G01 X257.485 Y255.002
G01 X257.498 Y255.000
G01 X258.638 Y255.166
G01 X259.809 Y255.231
G01 X261.006 Y255.192
G01 X262.220 Y255.048
G01 X262.497 Y255.000
G01 X265.176 Y255.224
G01 X267.902 Y255.194
G01 X269.996 Y255.000
G01 X276.612 Y255.282
G01 X282.493 Y255.000
G01 X299.495 Y255.146
G01 X302.489 Y255.000
G01 X334.983 Y255.000
G01 X387.472 Y255.000
G01 X474.955 Y255.000
G01 X499.950 Y255.000
G01 X500.000 Y250.000
G01 X252.500 Y250.000
G01 X252.449 Y249.880
G01 X252.392 Y249.764
G01 X252.330 Y249.654
G01 X252.263 Y249.550
G01 X252.192 Y249.451
G01 X252.116 Y249.358
G01 X252.037 Y249.271
G01 X251.955 Y249.190
G01 X251.869 Y249.116
G01 X251.781 Y249.048
G01 X251.691 Y248.986
G01 X251.599 Y248.931
G01 X251.506 Y248.883
G01 X251.412 Y248.841
G01 X251.318 Y248.805
G01 X251.224 Y248.776
G01 X251.130 Y248.753
G01 X251.037 Y248.736
G01 X250.945 Y248.725
G01 X250.855 Y248.720
G01 X250.766 Y248.721
G01 X250.680 Y248.728
G01 X250.596 Y248.739
G01 X250.515 Y248.756
G01 X250.438 Y248.777
G01 X250.363 Y248.803
G01 X250.292 Y248.833
G01 X250.225 Y248.868
G01 X250.162 Y248.906
G01 X250.104 Y248.947
G01 X250.050 Y248.991
G01 X250.000 Y249.038
G01 X249.955 Y249.087
G01 X249.915 Y249.138
G01 X249.880 Y249.191
G01 X249.850 Y249.245
G01 X249.825 Y249.300
G01 X249.804 Y249.355
G01 X249.789 Y249.411
G01 X249.779 Y249.466
G01 X249.773 Y249.521
G01 X249.773 Y249.575
G01 X249.777 Y249.628
G01 X249.786 Y249.679
G01 X249.799 Y249.729
G01 X249.816 Y249.776
G01 X249.838 Y249.821
G01 X249.863 Y249.863
G01 X249.892 Y249.902
G01 X249.925 Y249.938
G01 X249.960 Y249.971
G01 X249.999 Y249.999
G01 X250.000 Y250.000
G01 X249.821 Y249.893
G01 X249.631 Y249.804
G01 X249.433 Y249.733
G01 X249.228 Y249.681
G01 X249.017 Y249.650
G01 X248.801 Y249.638
G01 X248.582 Y249.647
G01 X248.361 Y249.676
G01 X248.141 Y249.727
G01 X247.922 Y249.798
G01 X247.706 Y249.890
G01 X247.500 Y250.000
G01 X0.000 Y250.000
G01 X0.050 Y245.000
G01 X97.531 Y245.000
G01 X155.019 Y245.000
G01 X190.012 Y245.000
G01 X212.357 Y244.993
G01 X212.508 Y245.000
G01 X221.980 Y244.853
G01 X225.005 Y245.000
G01 X228.986 Y244.712
G01 X232.926 Y244.800
G01 X235.003 Y245.000
G01 X236.759 Y244.851
G01 X238.490 Y244.860
G01 X240.002 Y245.000
G01 X241.004 Y244.935
G01 X241.987 Y244.955
G01 X242.502 Y245.000
G01 X243.144 Y244.925
G01 X243.775 Y244.901
G01 X244.391 Y244.926
G01 X244.988 Y244.998
G01 X245.001 Y245.000
G01 X245.404 Y244.928
G01 X245.802 Y244.883
G01 X246.192 Y244.865
G01 X246.574 Y244.872
G01 X246.946 Y244.904
G01 X247.306 Y244.959
G01 X247.500 Y245.000
G01 X247.774 Y244.941
G01 X248.047 Y244.896
G01 X248.320 Y244.865
G01 X248.590 Y244.849
G01 X248.858 Y244.847
G01 X249.123 Y244.859
G01 X249.383 Y244.884
G01 X249.640 Y244.923
G01 X249.890 Y244.973
G01 X250.000 Y245.000
G01 X250.248 Y244.944
G01 X250.502 Y244.900
G01 X250.761 Y244.869
G01 X251.024 Y244.851
G01 X251.291 Y244.847
G01 X251.560 Y244.857
G01 X251.832 Y244.881
G01 X252.105 Y244.919
G01 X252.378 Y244.972
G01 X252.500 Y245.000
G01 X252.853 Y244.932
G01 X253.218 Y244.887
G01 X253.595 Y244.866
G01 X253.981 Y244.870
G01 X254.375 Y244.900
G01 X254.775 Y244.957
G01 X254.999 Y245.000
G01 X255.596 Y244.927
G01 X256.212 Y244.901
G01 X256.842 Y244.924
G01 X257.485 Y244.998
G01 X257.498 Y245.000
G01 X258.638 Y244.834
G01 X259.809 Y244.769
G01 X261.006 Y244.808
G01 X262.220 Y244.952
G01 X262.497 Y245.000
G01 X265.176 Y244.776
G01 X267.902 Y244.806
G01 X269.996 Y245.000
G01 X276.612 Y244.718
G01 X282.493 Y245.000
G01 X299.495 Y244.854
G01 X302.489 Y245.000
G01 X334.983 Y245.000
G01 X387.472 Y245.000
G01 X474.955 Y245.000
G01 X499.950 Y245.000
G01 X499.800 Y240.000
G01 X427.358 Y240.000
G01 X374.900 Y240.000
G01 X339.928 Y240.000
G01 X314.948 Y240.000
G01 X299.301 Y239.911
G01 X297.462 Y240.000
G01 X288.786 Y239.817
G01 X284.972 Y240.000
G01 X280.137 Y239.758
G01 X275.373 Y239.963
G01 X274.980 Y240.000
G01 X272.283 Y239.784
G01 X269.631 Y239.806
G01 X267.486 Y240.000
G01 X265.873 Y239.858
G01 X264.291 Y239.848
G01 X262.749 Y239.967
G01 X262.490 Y240.000
G01 X261.474 Y239.850
G01 X260.475 Y239.775
G01 X259.497 Y239.773
G01 X258.546 Y239.840
G01 X257.625 Y239.975
G01 X257.494 Y240.000
G01 X256.843 Y239.868
G01 X256.198 Y239.775
G01 X255.561 Y239.720
G01 X254.933 Y239.703
G01 X254.317 Y239.722
G01 X253.716 Y239.776
G01 X253.130 Y239.864
G01 X252.562 Y239.984
G01 X252.498 Y240.000
G01 X252.004 Y239.889
G01 X251.506 Y239.803
G01 X251.004 Y239.742
G01 X250.499 Y239.705
G01 X249.993 Y239.693
G01 X249.488 Y239.705
G01 X248.983 Y239.743
G01 X248.481 Y239.805
G01 X247.983 Y239.892
G01 X247.502 Y240.000
G01 X246.936 Y239.876
G01 X246.352 Y239.785
G01 X245.753 Y239.727
G01 X245.138 Y239.704
G01 X244.512 Y239.717
G01 X243.875 Y239.767
G01 X243.231 Y239.855
G01 X242.581 Y239.983
G01 X242.506 Y240.000
G01 X241.590 Y239.856
G01 X240.642 Y239.778
G01 X239.668 Y239.770
G01 X238.672 Y239.835
G01 X237.658 Y239.974
G01 X237.510 Y240.000
G01 X235.839 Y239.760
G01 X234.117 Y239.663
G01 X232.354 Y239.712
G01 X230.561 Y239.910
G01 X230.016 Y240.000
G01 X226.855 Y239.806
G01 X223.633 Y239.900
G01 X222.522 Y240.000
G01 X216.665 Y239.690
G01 X210.724 Y239.935
G01 X210.032 Y240.000
G01 X198.275 Y239.726
G01 X192.546 Y240.000
G01 X170.064 Y240.000
G01 X137.590 Y240.000
G01 X90.128 Y240.000
G01 X22.682 Y240.000
G01 X0.200 Y240.000
G01 X0.450 Y235.000
G01 X62.838 Y235.000
G01 X107.757 Y235.000
G01 X142.694 Y235.000
G01 X167.649 Y235.000
G01 X185.229 Y234.885
G01 X187.613 Y235.000
G01 X198.077 Y234.785
G01 X202.586 Y235.000
G01 X208.814 Y234.709
G01 X214.943 Y234.989
G01 X215.063 Y235.000
G01 X218.736 Y234.719
G01 X222.345 Y234.758
G01 X225.045 Y235.000
G01 X227.287 Y234.782
G01 X229.487 Y234.746
G01 X231.632 Y234.887
G01 X232.532 Y235.000
G01 X234.036 Y234.870
G01 X235.510 Y234.849
G01 X236.945 Y234.935
G01 X237.523 Y235.000
G01 X238.624 Y234.872
G01 X239.708 Y234.816
G01 X240.769 Y234.828
G01 X241.803 Y234.906
G01 X242.514 Y235.000
G01 X243.362 Y234.886
G01 X244.203 Y234.818
G01 X245.035 Y234.796
G01 X245.854 Y234.818
G01 X246.659 Y234.883
G01 X247.448 Y234.991
G01 X247.505 Y235.000
G01 X248.244 Y234.896
G01 X248.987 Y234.828
G01 X249.732 Y234.796
G01 X250.479 Y234.801
G01 X251.224 Y234.843
G01 X251.966 Y234.921
G01 X252.495 Y235.000
G01 X253.283 Y234.890
G01 X254.087 Y234.821
G01 X254.906 Y234.796
G01 X255.737 Y234.815
G01 X256.577 Y234.879
G01 X257.425 Y234.990
G01 X257.486 Y235.000
G01 X258.500 Y234.876
G01 X259.542 Y234.817
G01 X260.610 Y234.825
G01 X261.700 Y234.903
G01 X262.477 Y235.000
G01 X263.978 Y234.782
G01 X265.528 Y234.676
G01 X267.120 Y234.689
G01 X268.747 Y234.822
G01 X269.964 Y235.000
G01 X272.454 Y234.794
G01 X275.008 Y234.798
G01 X277.450 Y235.000
G01 X281.512 Y234.738
G01 X285.657 Y234.843
G01 X287.432 Y235.000
G01 X294.258 Y234.739
G01 X299.910 Y235.000
G01 X311.639 Y234.728
G01 X317.378 Y235.000
G01 X337.936 Y234.909
G01 X339.838 Y235.000
G01 X369.784 Y235.000
G01 X409.712 Y235.000
G01 X462.117 Y235.000
G01 X499.550 Y235.000
G01 X499.199 Y230.000
G01 X444.375 Y230.000
G01 X402.011 Y230.000
G01 X369.615 Y230.000
G01 X344.696 Y230.000
G01 X326.311 Y229.926
G01 X324.760 Y230.000
G01 X313.197 Y229.722
G01 X307.316 Y230.000
G01 X299.963 Y229.764
G01 X294.856 Y230.000
G01 X289.966 Y229.774
G01 X285.171 Y229.975
G01 X284.888 Y230.000
G01 X281.499 Y229.827
G01 X278.184 Y229.934
G01 X277.412 Y230.000
G01 X275.010 Y229.800
G01 X272.658 Y229.785
G01 X270.367 Y229.949
G01 X269.936 Y230.000
G01 X268.252 Y229.797
G01 X266.597 Y229.710
G01 X264.980 Y229.734
G01 X263.406 Y229.866
G01 X262.460 Y230.000
G01 X261.238 Y229.817
G01 X260.029 Y229.705
G01 X258.837 Y229.662
G01 X257.665 Y229.687
G01 X256.517 Y229.776
G01 X255.396 Y229.927
G01 X254.984 Y230.000
G01 X253.985 Y229.839
G01 X252.982 Y229.728
G01 X251.978 Y229.667
G01 X250.975 Y229.655
G01 X249.975 Y229.693
G01 X248.982 Y229.780
G01 X247.997 Y229.914
G01 X247.508 Y230.000
G01 X246.475 Y229.833
G01 X245.420 Y229.720
G01 X244.345 Y229.663
G01 X243.254 Y229.663
G01 X242.149 Y229.723
G01 X241.034 Y229.842
G01 X240.032 Y230.000
G01 X238.668 Y229.809
G01 X237.261 Y229.706
G01 X235.819 Y229.693
G01 X234.345 Y229.775
G01 X232.847 Y229.954
G01 X232.556 Y230.000
G01 X230.556 Y229.800
G01 X228.496 Y229.750
G01 X226.388 Y229.856
G01 X225.080 Y230.000
G01 X222.155 Y229.816
G01 X219.157 Y229.875
G01 X217.604 Y230.000
G01 X213.294 Y229.756
G01 X208.891 Y229.892
G01 X207.636 Y230.000
G01 X200.985 Y229.738
G01 X195.176 Y230.000
G01 X184.820 Y229.786
G01 X180.224 Y230.000
G01 X163.879 Y229.830
G01 X160.288 Y230.000
G01 X135.369 Y230.000
G01 X102.973 Y230.000
G01 X63.101 Y230.000
G01 X10.769 Y230.000
G01 X0.801 Y230.000
G01 X1.253 Y225.000
G01 X51.253 Y225.000
G01 X91.252 Y225.000
G01 X121.252 Y225.000
G01 X146.251 Y225.000
G01 X164.568 Y224.920
G01 X166.251 Y225.000
G01 X178.434 Y224.751
G01 X183.751 Y225.000
G01 X192.024 Y224.807
G01 X196.251 Y225.000
G01 X201.923 Y224.698
G01 X207.485 Y224.888
G01 X208.751 Y225.000
G01 X212.600 Y224.744
G01 X216.369 Y224.801
G01 X218.750 Y225.000
G01 X221.509 Y224.817
G01 X224.206 Y224.842
G01 X226.250 Y225.000
G01 X228.320 Y224.811
G01 X230.350 Y224.763
G01 X232.330 Y224.851
G01 X233.750 Y225.000
G01 X235.340 Y224.822
G01 X236.907 Y224.739
G01 X238.446 Y224.747
G01 X239.952 Y224.843
G01 X241.250 Y225.000
G01 X242.558 Y224.840
G01 X243.860 Y224.747
G01 X245.154 Y224.721
G01 X246.435 Y224.760
G01 X247.700 Y224.864
G01 X248.750 Y225.000
G01 X249.978 Y224.846
G01 X251.218 Y224.752
G01 X252.468 Y224.720
G01 X253.723 Y224.750
G01 X254.981 Y224.843
G01 X256.239 Y224.998
G01 X256.250 Y225.000
G01 X257.621 Y224.834
G01 X259.024 Y224.743
G01 X260.454 Y224.730
G01 X261.906 Y224.798
G01 X263.375 Y224.949
G01 X263.750 Y225.000
G01 X265.506 Y224.818
G01 X267.312 Y224.750
G01 X269.161 Y224.801
G01 X271.045 Y224.974
G01 X271.250 Y225.000
G01 X273.631 Y224.815
G01 X276.078 Y224.807
G01 X278.580 Y224.982
G01 X278.750 Y225.000
G01 X282.107 Y224.737
G01 X285.555 Y224.747
G01 X288.750 Y225.000
G01 X293.648 Y224.783
G01 X298.653 Y224.992
G01 X298.749 Y225.000
G01 X305.807 Y224.758
G01 X311.249 Y225.000
G01 X321.629 Y224.788
G01 X326.249 Y225.000
G01 X341.880 Y224.795
G01 X346.249 Y225.000
G01 X370.407 Y224.960
G01 X371.248 Y225.000
G01 X401.248 Y225.000
G01 X438.748 Y225.000
G01 X486.247 Y225.000
G01 X498.747 Y225.000
G01 X498.193 Y220.000
G01 X453.294 Y220.000
G01 X415.878 Y220.000
G01 X385.945 Y220.000
G01 X361.001 Y220.000
G01 X342.961 Y219.909
G01 X341.046 Y220.000
G01 X328.550 Y219.769
G01 X323.585 Y220.000
G01 X314.973 Y219.713
G01 X308.619 Y220.000
G01 X302.629 Y219.718
G01 X296.764 Y219.946
G01 X296.147 Y220.000
G01 X291.857 Y219.767
G01 X287.663 Y219.877
G01 X286.169 Y220.000
G01 X283.038 Y219.741
G01 X279.973 Y219.713
G01 X276.989 Y219.909
G01 X276.191 Y220.000
G01 X273.838 Y219.826
G01 X271.534 Y219.808
G01 X269.286 Y219.941
G01 X268.708 Y220.000
G01 X266.815 Y219.832
G01 X264.952 Y219.776
G01 X263.125 Y219.829
G01 X261.340 Y219.986
G01 X261.225 Y220.000
G01 X259.625 Y219.845
G01 X258.036 Y219.774
G01 X256.465 Y219.785
G01 X254.913 Y219.877
G01 X253.742 Y220.000
G01 X252.265 Y219.853
G01 X250.783 Y219.778
G01 X249.299 Y219.776
G01 X247.817 Y219.846
G01 X246.340 Y219.990
G01 X246.258 Y220.000
G01 X244.726 Y219.848
G01 X243.170 Y219.775
G01 X241.594 Y219.783
G01 X240.002 Y219.874
G01 X238.775 Y220.000
G01 X236.993 Y219.836
G01 X235.168 Y219.777
G01 X233.307 Y219.825
G01 X231.416 Y219.986
G01 X231.292 Y220.000
G01 X229.061 Y219.829
G01 X226.771 Y219.806
G01 X224.429 Y219.939
G01 X223.809 Y220.000
G01 X220.849 Y219.744
G01 X217.804 Y219.710
G01 X214.690 Y219.906
G01 X213.831 Y220.000
G01 X209.677 Y219.767
G01 X205.420 Y219.875
G01 X203.853 Y220.000
G01 X198.004 Y219.719
G01 X192.026 Y219.945
G01 X191.381 Y220.000
G01 X182.889 Y219.712
G01 X176.415 Y220.000
G01 X163.999 Y219.768
G01 X158.954 Y220.000
G01 X140.940 Y219.909
G01 X138.999 Y220.000
G01 X114.055 Y220.000
G01 X84.122 Y220.000
G01 X46.706 Y220.000
G01 X1.807 Y220.000
G01 X2.462 Y215.000
G01 X44.755 Y215.000
G01 X79.584 Y215.000
G01 X109.438 Y215.000
G01 X133.984 Y214.984
G01 X134.316 Y215.000
G01 X151.614 Y214.878
G01 X154.219 Y215.000
G01 X166.530 Y214.765
G01 X171.634 Y215.000
G01 X180.407 Y214.725
G01 X186.561 Y215.000
G01 X192.904 Y214.739
G01 X199.000 Y215.000
G01 X203.733 Y214.788
G01 X208.358 Y214.952
G01 X208.951 Y215.000
G01 X212.559 Y214.761
G01 X216.087 Y214.787
G01 X218.902 Y215.000
G01 X221.654 Y214.756
G01 X224.352 Y214.694
G01 X226.986 Y214.809
G01 X228.854 Y215.000
G01 X231.048 Y214.843
G01 X233.206 Y214.814
G01 X235.320 Y214.911
G01 X236.317 Y215.000
G01 X238.212 Y214.851
G01 X240.088 Y214.803
G01 X241.940 Y214.853
G01 X243.764 Y214.998
G01 X243.780 Y215.000
G01 X245.521 Y214.858
G01 X247.260 Y214.803
G01 X248.994 Y214.833
G01 X250.718 Y214.948
G01 X251.244 Y215.000
G01 X252.981 Y214.858
G01 X254.734 Y214.802
G01 X256.500 Y214.835
G01 X258.274 Y214.957
G01 X258.707 Y215.000
G01 X260.601 Y214.851
G01 X262.530 Y214.804
G01 X264.488 Y214.864
G01 X266.171 Y215.000
G01 X268.388 Y214.843
G01 X270.658 Y214.821
G01 X272.973 Y214.940
G01 X273.634 Y215.000
G01 X276.404 Y214.759
G01 X279.252 Y214.709
G01 X282.166 Y214.857
G01 X283.586 Y215.000
G01 X287.298 Y214.767
G01 X291.110 Y214.819
G01 X293.537 Y215.000
G01 X298.611 Y214.703
G01 X303.811 Y214.825
G01 X305.976 Y215.000
G01 X313.027 Y214.770
G01 X318.415 Y215.000
G01 X328.101 Y214.767
G01 X333.342 Y215.000
