;  Created by Sandify
;  https://sandify.org
;  Version: 0.2.6
;
;  Machine type: Rectangular
;    Min X (mm): 0
;    Max X (mm): 500
;    Min Y (mm): 0
;    Max Y (mm): 500
;  Content type: shape
;  Layer:
;    Shape: Circle
;    Name: circle
;    Number of lobes: 1
;    Direction: clockwise
;    Visible: true
;    Initial width: 6
;    Initial height: 6
;    X offset: 0
;    Y offset: 0
;    Rotate (degrees): 180
;    Reverse path: false
;    Number of loops: 40
;    When transforming shape: smear
;    Scale: true
;      Scale (+/-): 100
;      Scale by: constant
;    Spin: false
;    Track: false
;    Fine tuning:
;      Connect to next layer: line
;      Draw portion of path (%): 100
;      Backtrack at end (%): 0
;      Rotate starting point (%): 0
;  Reverse export path: false
;
; File name: 'eraser40 (C W)'
; File type: gcode
;

G01 X244.000 Y250.000
G01 X243.960 Y249.703
G01 X243.936 Y249.403
G01 X243.926 Y249.099
G01 X243.931 Y248.793
G01 X243.952 Y248.485
G01 X243.989 Y248.177
G01 X244.042 Y247.868
G01 X244.110 Y247.560
G01 X244.195 Y247.254
G01 X244.295 Y246.951
G01 X244.411 Y246.650
G01 X244.543 Y246.354
G01 X244.691 Y246.063
G01 X244.855 Y245.777
G01 X245.033 Y245.498
G01 X245.227 Y245.227
G01 X245.435 Y244.964
G01 X245.658 Y244.710
G01 X245.895 Y244.465
G01 X246.146 Y244.232
G01 X246.409 Y244.009
G01 X246.685 Y243.799
G01 X246.974 Y243.601
G01 X247.273 Y243.417
G01 X247.584 Y243.247
G01 X247.905 Y243.092
G01 X248.235 Y242.952
G01 X248.573 Y242.828
G01 X248.920 Y242.720
G01 X249.274 Y242.629
G01 X249.634 Y242.556
G01 X250.000 Y242.500
G01 X250.370 Y242.462
G01 X250.744 Y242.443
G01 X251.121 Y242.442
G01 X251.500 Y242.460
G01 X251.879 Y242.497
G01 X252.259 Y242.554
G01 X252.637 Y242.629
G01 X253.014 Y242.724
G01 X253.387 Y242.839
G01 X253.756 Y242.972
G01 X254.121 Y243.125
G01 X254.479 Y243.296
G01 X254.831 Y243.486
G01 X255.174 Y243.695
G01 X255.509 Y243.922
G01 X255.834 Y244.166
G01 X256.148 Y244.428
G01 X256.450 Y244.707
G01 X256.739 Y245.002
G01 X257.016 Y245.312
G01 X257.277 Y245.638
G01 X257.524 Y245.978
G01 X257.755 Y246.332
G01 X257.968 Y246.699
G01 X258.165 Y247.079
G01 X258.343 Y247.469
G01 X258.503 Y247.870
G01 X258.643 Y248.281
G01 X258.763 Y248.700
G01 X258.863 Y249.127
G01 X258.942 Y249.561
G01 X259.000 Y250.000
G01 X259.036 Y250.444
G01 X259.050 Y250.891
G01 X259.042 Y251.341
G01 X259.011 Y251.792
G01 X258.958 Y252.244
G01 X258.882 Y252.694
G01 X258.783 Y253.143
G01 X258.661 Y253.588
G01 X258.517 Y254.028
G01 X258.351 Y254.464
G01 X258.162 Y254.892
G01 X257.951 Y255.313
G01 X257.718 Y255.724
G01 X257.464 Y256.126
G01 X257.190 Y256.516
G01 X256.894 Y256.894
G01 X256.579 Y257.259
G01 X256.245 Y257.609
G01 X255.892 Y257.944
G01 X255.521 Y258.263
G01 X255.133 Y258.564
G01 X254.729 Y258.847
G01 X254.309 Y259.111
G01 X253.875 Y259.354
G01 X253.427 Y259.577
G01 X252.966 Y259.779
G01 X252.494 Y259.958
G01 X252.012 Y260.114
G01 X251.520 Y260.247
G01 X251.020 Y260.356
G01 X250.513 Y260.441
G01 X250.000 Y260.500
G01 X249.482 Y260.534
G01 X248.962 Y260.543
G01 X248.439 Y260.525
G01 X247.915 Y260.482
G01 X247.392 Y260.413
G01 X246.870 Y260.317
G01 X246.352 Y260.195
G01 X245.838 Y260.047
G01 X245.330 Y259.873
G01 X244.829 Y259.674
G01 X244.337 Y259.448
G01 X243.854 Y259.198
G01 X243.382 Y258.923
G01 X242.923 Y258.624
G01 X242.476 Y258.301
G01 X242.045 Y257.955
G01 X241.630 Y257.587
G01 X241.231 Y257.196
G01 X240.851 Y256.785
G01 X240.490 Y256.354
G01 X240.150 Y255.904
G01 X239.830 Y255.436
G01 X239.533 Y254.950
G01 X239.260 Y254.449
G01 X239.010 Y253.932
G01 X238.786 Y253.402
G01 X238.587 Y252.859
G01 X238.414 Y252.305
G01 X238.269 Y251.740
G01 X238.151 Y251.167
G01 X238.061 Y250.587
G01 X238.000 Y250.000
G01 X237.968 Y249.409
G01 X237.964 Y248.815
G01 X237.991 Y248.219
G01 X238.047 Y247.622
G01 X238.132 Y247.027
G01 X238.248 Y246.435
G01 X238.393 Y245.847
G01 X238.567 Y245.264
G01 X238.771 Y244.689
G01 X239.004 Y244.122
G01 X239.265 Y243.566
G01 X239.555 Y243.021
G01 X239.872 Y242.489
G01 X240.217 Y241.971
G01 X240.588 Y241.469
G01 X240.984 Y240.984
G01 X241.406 Y240.518
G01 X241.852 Y240.072
G01 X242.321 Y239.646
G01 X242.812 Y239.243
G01 X243.325 Y238.863
G01 X243.857 Y238.507
G01 X244.408 Y238.178
G01 X244.977 Y237.874
G01 X245.563 Y237.598
G01 X246.163 Y237.350
G01 X246.777 Y237.132
G01 X247.403 Y236.943
G01 X248.040 Y236.785
G01 X248.686 Y236.658
G01 X249.340 Y236.563
G01 X250.000 Y236.500
G01 X250.665 Y236.469
G01 X251.332 Y236.472
G01 X252.001 Y236.507
G01 X252.670 Y236.576
G01 X253.337 Y236.677
G01 X254.000 Y236.812
G01 X254.659 Y236.980
G01 X255.310 Y237.181
G01 X255.952 Y237.415
G01 X256.585 Y237.681
G01 X257.205 Y237.978
G01 X257.813 Y238.307
G01 X258.405 Y238.667
G01 X258.981 Y239.057
G01 X259.538 Y239.476
G01 X260.076 Y239.924
G01 X260.593 Y240.399
G01 X261.088 Y240.900
G01 X261.559 Y241.428
G01 X262.004 Y241.979
G01 X262.424 Y242.554
G01 X262.815 Y243.150
G01 X263.178 Y243.767
G01 X263.512 Y244.403
G01 X263.814 Y245.057
G01 X264.085 Y245.727
G01 X264.323 Y246.412
G01 X264.528 Y247.110
G01 X264.699 Y247.820
G01 X264.834 Y248.539
G01 X264.935 Y249.266
G01 X265.000 Y250.000
G01 X265.029 Y250.738
G01 X265.021 Y251.479
G01 X264.977 Y252.222
G01 X264.896 Y252.963
G01 X264.778 Y253.702
G01 X264.623 Y254.436
G01 X264.432 Y255.164
G01 X264.205 Y255.884
G01 X263.941 Y256.594
G01 X263.642 Y257.292
G01 X263.308 Y257.977
G01 X262.940 Y258.646
G01 X262.538 Y259.298
G01 X262.102 Y259.932
G01 X261.635 Y260.546
G01 X261.137 Y261.137
G01 X260.609 Y261.705
G01 X260.051 Y262.247
G01 X259.466 Y262.763
G01 X258.854 Y263.252
G01 X258.218 Y263.710
G01 X257.557 Y264.138
G01 X256.874 Y264.534
G01 X256.171 Y264.898
G01 X255.448 Y265.227
G01 X254.708 Y265.520
G01 X253.952 Y265.778
G01 X253.182 Y265.999
G01 X252.400 Y266.182
G01 X251.608 Y266.327
G01 X250.807 Y266.433
G01 X250.000 Y266.500
G01 X249.188 Y266.527
G01 X248.374 Y266.514
G01 X247.558 Y266.461
G01 X246.744 Y266.367
G01 X245.934 Y266.233
G01 X245.129 Y266.059
G01 X244.331 Y265.844
G01 X243.542 Y265.590
G01 X242.765 Y265.297
G01 X242.001 Y264.965
G01 X241.252 Y264.595
G01 X240.521 Y264.187
G01 X239.808 Y263.742
G01 X239.116 Y263.262
G01 X238.447 Y262.747
G01 X237.802 Y262.198
G01 X237.184 Y261.616
G01 X236.593 Y261.003
G01 X236.032 Y260.360
G01 X235.501 Y259.688
G01 X235.003 Y258.989
G01 X234.539 Y258.264
G01 X234.110 Y257.516
G01 X233.717 Y256.745
G01 X233.361 Y255.953
G01 X233.044 Y255.143
G01 X232.767 Y254.317
G01 X232.530 Y253.475
G01 X232.334 Y252.621
G01 X232.180 Y251.755
G01 X232.069 Y250.881
G01 X232.000 Y250.000
G01 X231.975 Y249.114
G01 X231.993 Y248.227
G01 X232.056 Y247.338
G01 X232.162 Y246.452
G01 X232.312 Y245.569
G01 X232.506 Y244.693
G01 X232.743 Y243.825
G01 X233.024 Y242.968
G01 X233.347 Y242.124
G01 X233.712 Y241.294
G01 X234.119 Y240.481
G01 X234.566 Y239.687
G01 X235.053 Y238.914
G01 X235.579 Y238.165
G01 X236.142 Y237.440
G01 X236.742 Y236.742
G01 X237.377 Y236.072
G01 X238.046 Y235.434
G01 X238.747 Y234.827
G01 X239.479 Y234.254
G01 X240.240 Y233.717
G01 X241.029 Y233.216
G01 X241.843 Y232.754
G01 X242.681 Y232.331
G01 X243.541 Y231.949
G01 X244.421 Y231.609
G01 X245.319 Y231.312
G01 X246.232 Y231.059
G01 X247.159 Y230.850
G01 X248.098 Y230.687
G01 X249.045 Y230.570
G01 X250.000 Y230.500
G01 X250.959 Y230.477
G01 X251.921 Y230.501
G01 X252.882 Y230.572
G01 X253.841 Y230.691
G01 X254.795 Y230.857
G01 X255.742 Y231.071
G01 X256.680 Y231.331
G01 X257.606 Y231.638
G01 X258.518 Y231.991
G01 X259.413 Y232.389
G01 X260.290 Y232.832
G01 X261.146 Y233.319
G01 X261.979 Y233.848
G01 X262.787 Y234.419
G01 X263.568 Y235.030
G01 X264.319 Y235.681
G01 X265.039 Y236.369
G01 X265.726 Y237.094
G01 X266.378 Y237.853
G01 X266.993 Y238.646
G01 X267.570 Y239.469
G01 X268.107 Y240.322
G01 X268.602 Y241.202
G01 X269.055 Y242.107
G01 X269.463 Y243.036
G01 X269.827 Y243.986
G01 X270.143 Y244.954
G01 X270.413 Y245.940
G01 X270.634 Y246.939
G01 X270.806 Y247.951
G01 X270.928 Y248.972
G01 X271.000 Y250.000
G01 X271.022 Y251.033
G01 X270.992 Y252.068
G01 X270.912 Y253.102
G01 X270.780 Y254.133
G01 X270.598 Y255.160
G01 X270.365 Y256.178
G01 X270.081 Y257.185
G01 X269.748 Y258.180
G01 X269.365 Y259.159
G01 X268.934 Y260.120
G01 X268.455 Y261.061
G01 X267.929 Y261.979
G01 X267.357 Y262.873
G01 X266.741 Y263.739
G01 X266.081 Y264.575
G01 X265.380 Y265.380
G01 X264.638 Y266.150
G01 X263.858 Y266.885
G01 X263.040 Y267.583
G01 X262.188 Y268.240
G01 X261.302 Y268.857
G01 X260.385 Y269.430
G01 X259.440 Y269.958
G01 X258.467 Y270.441
G01 X257.469 Y270.876
G01 X256.450 Y271.262
G01 X255.410 Y271.598
G01 X254.353 Y271.884
G01 X253.281 Y272.117
G01 X252.196 Y272.298
G01 X251.102 Y272.426
G01 X250.000 Y272.500
G01 X248.894 Y272.520
G01 X247.785 Y272.485
G01 X246.678 Y272.396
G01 X245.574 Y272.252
G01 X244.476 Y272.053
G01 X243.387 Y271.800
G01 X242.309 Y271.494
G01 X241.246 Y271.134
G01 X240.200 Y270.721
G01 X239.173 Y270.257
G01 X238.168 Y269.741
G01 X237.187 Y269.176
G01 X236.234 Y268.562
G01 X235.310 Y267.900
G01 X234.418 Y267.192
G01 X233.560 Y266.440
G01 X232.738 Y265.645
G01 X231.955 Y264.809
G01 X231.212 Y263.934
G01 X230.512 Y263.021
G01 X229.857 Y262.073
G01 X229.247 Y261.093
G01 X228.686 Y260.081
G01 X228.173 Y259.041
G01 X227.712 Y257.975
G01 X227.303 Y256.885
G01 X226.947 Y255.775
G01 X226.645 Y254.646
G01 X226.399 Y253.501
G01 X226.209 Y252.343
G01 X226.076 Y251.175
G01 X226.000 Y250.000
G01 X225.982 Y248.820
G01 X226.022 Y247.638
G01 X226.121 Y246.458
G01 X226.277 Y245.281
G01 X226.492 Y244.112
G01 X226.764 Y242.952
G01 X227.094 Y241.804
G01 X227.480 Y240.672
G01 X227.923 Y239.558
G01 X228.420 Y238.466
G01 X228.972 Y237.396
G01 X229.577 Y236.354
G01 X230.234 Y235.340
G01 X230.940 Y234.358
G01 X231.696 Y233.410
G01 X232.499 Y232.499
G01 X233.347 Y231.627
G01 X234.239 Y230.796
G01 X235.173 Y230.008
G01 X236.145 Y229.265
G01 X237.155 Y228.570
G01 X238.200 Y227.924
G01 X239.278 Y227.330
G01 X240.385 Y226.788
G01 X241.520 Y226.300
G01 X242.679 Y225.867
G01 X243.861 Y225.492
G01 X245.062 Y225.174
G01 X246.279 Y224.915
G01 X247.510 Y224.716
G01 X248.751 Y224.578
G01 X250.000 Y224.500
G01 X251.254 Y224.484
G01 X252.509 Y224.529
G01 X253.762 Y224.637
G01 X255.011 Y224.806
G01 X256.253 Y225.037
G01 X257.484 Y225.329
G01 X258.701 Y225.682
G01 X259.902 Y226.095
G01 X261.083 Y226.567
G01 X262.242 Y227.098
G01 X263.375 Y227.686
G01 X264.480 Y228.330
G01 X265.553 Y229.029
G01 X266.593 Y229.781
G01 X267.597 Y230.585
G01 X268.562 Y231.438
G01 X269.485 Y232.340
G01 X270.364 Y233.288
G01 X271.197 Y234.279
G01 X271.982 Y235.312
G01 X272.716 Y236.384
G01 X273.398 Y237.493
G01 X274.026 Y238.636
G01 X274.598 Y239.811
G01 X275.113 Y241.015
G01 X275.568 Y242.244
G01 X275.963 Y243.496
G01 X276.297 Y244.769
G01 X276.569 Y246.059
G01 X276.777 Y247.363
G01 X276.921 Y248.677
G01 X277.000 Y250.000
G01 X277.014 Y251.327
G01 X276.963 Y252.656
G01 X276.847 Y253.982
G01 X276.665 Y255.304
G01 X276.418 Y256.617
G01 X276.107 Y257.919
G01 X275.731 Y259.207
G01 X275.291 Y260.476
G01 X274.789 Y261.724
G01 X274.225 Y262.949
G01 X273.601 Y264.146
G01 X272.917 Y265.313
G01 X272.176 Y266.447
G01 X271.379 Y267.545
G01 X270.527 Y268.604
G01 X269.622 Y269.622
G01 X268.667 Y270.596
G01 X267.664 Y271.524
G01 X266.614 Y272.402
G01 X265.521 Y273.229
G01 X264.387 Y274.003
G01 X263.214 Y274.721
G01 X262.005 Y275.382
G01 X260.763 Y275.984
G01 X259.491 Y276.525
G01 X258.191 Y277.004
G01 X256.868 Y277.419
G01 X255.523 Y277.768
G01 X254.161 Y278.052
G01 X252.784 Y278.269
G01 X251.396 Y278.419
G01 X250.000 Y278.500
G01 X248.599 Y278.512
G01 X247.197 Y278.456
G01 X245.798 Y278.331
G01 X244.403 Y278.136
G01 X243.018 Y277.873
G01 X241.645 Y277.542
G01 X240.288 Y277.143
G01 X238.950 Y276.677
G01 X237.634 Y276.145
G01 X236.344 Y275.548
G01 X235.083 Y274.888
G01 X233.854 Y274.165
G01 X232.660 Y273.381
G01 X231.503 Y272.538
G01 X230.388 Y271.638
G01 X229.317 Y270.683
G01 X228.292 Y269.675
G01 X227.317 Y268.615
G01 X226.393 Y267.508
G01 X225.524 Y266.355
G01 X224.710 Y265.158
G01 X223.956 Y263.921
G01 X223.262 Y262.646
G01 X222.630 Y261.337
G01 X222.063 Y259.996
G01 X221.561 Y258.627
G01 X221.126 Y257.232
G01 X220.760 Y255.816
G01 X220.464 Y254.381
G01 X220.238 Y252.931
G01 X220.083 Y251.470
G01 X220.000 Y250.000
G01 X219.989 Y248.526
G01 X220.051 Y247.050
G01 X220.186 Y245.577
G01 X220.393 Y244.111
G01 X220.672 Y242.654
G01 X221.023 Y241.210
G01 X221.445 Y239.783
G01 X221.937 Y238.376
G01 X222.499 Y236.993
G01 X223.129 Y235.637
G01 X223.826 Y234.312
G01 X224.588 Y233.020
G01 X225.414 Y231.766
G01 X226.302 Y230.552
G01 X227.250 Y229.381
G01 X228.256 Y228.256
G01 X229.318 Y227.181
G01 X230.433 Y226.157
G01 X231.598 Y225.188
G01 X232.812 Y224.276
G01 X234.071 Y223.424
G01 X235.372 Y222.633
G01 X236.712 Y221.906
G01 X238.089 Y221.244
G01 X239.499 Y220.650
G01 X240.938 Y220.126
G01 X242.403 Y219.671
G01 X243.891 Y219.289
G01 X245.399 Y218.980
G01 X246.922 Y218.745
G01 X248.457 Y218.585
G01 X250.000 Y218.500
G01 X251.548 Y218.491
G01 X253.097 Y218.558
G01 X254.643 Y218.702
G01 X256.182 Y218.921
G01 X257.711 Y219.217
G01 X259.226 Y219.587
G01 X260.723 Y220.032
G01 X262.198 Y220.551
G01 X263.648 Y221.143
G01 X265.070 Y221.806
G01 X266.459 Y222.539
G01 X267.813 Y223.341
G01 X269.128 Y224.210
G01 X270.400 Y225.143
G01 X271.626 Y226.139
G01 X272.804 Y227.196
G01 X273.930 Y228.311
G01 X275.002 Y229.481
G01 X276.016 Y230.705
G01 X276.971 Y231.979
G01 X277.863 Y233.300
G01 X278.690 Y234.665
G01 X279.450 Y236.071
G01 X280.142 Y237.515
G01 X280.762 Y238.993
G01 X281.310 Y240.502
G01 X281.784 Y242.039
G01 X282.182 Y243.599
G01 X282.504 Y245.179
G01 X282.748 Y246.775
G01 X282.913 Y248.383
G01 X283.000 Y250.000
G01 X283.007 Y251.622
G01 X282.934 Y253.244
G01 X282.782 Y254.863
G01 X282.550 Y256.475
G01 X282.238 Y258.075
G01 X281.848 Y259.661
G01 X281.380 Y261.228
G01 X280.834 Y262.772
G01 X280.213 Y264.290
G01 X279.517 Y265.777
G01 X278.747 Y267.230
G01 X277.906 Y268.646
G01 X276.995 Y270.021
G01 X276.017 Y271.351
G01 X274.972 Y272.634
G01 X273.865 Y273.865
G01 X272.697 Y275.042
G01 X271.470 Y276.162
G01 X270.189 Y277.221
G01 X268.855 Y278.218
G01 X267.471 Y279.149
G01 X266.042 Y280.013
G01 X264.570 Y280.806
G01 X263.059 Y281.527
G01 X261.512 Y282.174
G01 X259.933 Y282.745
G01 X258.326 Y283.239
G01 X256.694 Y283.653
G01 X255.042 Y283.987
G01 X253.372 Y284.241
G01 X251.691 Y284.412
G01 X250.000 Y284.500
G01 X248.305 Y284.505
G01 X246.609 Y284.427
G01 X244.917 Y284.266
G01 X243.233 Y284.021
G01 X241.560 Y283.693
G01 X239.904 Y283.284
G01 X238.267 Y282.792
G01 X236.654 Y282.220
G01 X235.069 Y281.569
G01 X233.516 Y280.840
G01 X231.998 Y280.034
G01 X230.520 Y279.153
G01 X229.085 Y278.200
G01 X227.697 Y277.176
G01 X226.359 Y276.084
G01 X225.074 Y274.926
G01 X223.847 Y273.704
G01 X222.679 Y272.422
G01 X221.574 Y271.082
G01 X220.535 Y269.688
G01 X219.564 Y268.243
G01 X218.664 Y266.749
G01 X217.838 Y265.212
G01 X217.087 Y263.633
G01 X216.413 Y262.017
G01 X215.819 Y260.369
G01 X215.306 Y258.690
G01 X214.876 Y256.987
G01 X214.529 Y255.262
G01 X214.267 Y253.519
G01 X214.090 Y251.764
G01 X214.000 Y250.000
G01 X213.997 Y248.231
G01 X214.080 Y246.462
G01 X214.251 Y244.697
G01 X214.508 Y242.940
G01 X214.852 Y241.196
G01 X215.281 Y239.468
G01 X215.795 Y237.761
G01 X216.394 Y236.080
G01 X217.075 Y234.428
G01 X217.837 Y232.809
G01 X218.680 Y231.227
G01 X219.599 Y229.687
G01 X220.595 Y228.192
G01 X221.664 Y226.746
G01 X222.805 Y225.352
G01 X224.014 Y224.014
G01 X225.289 Y222.735
G01 X226.627 Y221.519
G01 X228.024 Y220.369
G01 X229.479 Y219.288
G01 X230.986 Y218.277
G01 X232.544 Y217.341
G01 X234.147 Y216.482
G01 X235.793 Y215.701
G01 X237.477 Y215.001
G01 X239.196 Y214.384
G01 X240.945 Y213.851
G01 X242.721 Y213.404
G01 X244.518 Y213.045
G01 X246.334 Y212.774
G01 X248.162 Y212.592
G01 X250.000 Y212.500
G01 X251.842 Y212.498
G01 X253.685 Y212.587
G01 X255.523 Y212.767
G01 X257.352 Y213.037
G01 X259.169 Y213.396
G01 X260.967 Y213.846
G01 X262.744 Y214.383
G01 X264.494 Y215.008
G01 X266.214 Y215.719
G01 X267.898 Y216.515
G01 X269.544 Y217.393
G01 X271.146 Y218.352
G01 X272.702 Y219.390
G01 X274.206 Y220.505
G01 X275.656 Y221.693
G01 X277.047 Y222.953
G01 X278.376 Y224.281
G01 X279.640 Y225.675
G01 X280.836 Y227.131
G01 X281.960 Y228.645
G01 X283.009 Y230.215
G01 X283.982 Y231.836
G01 X284.874 Y233.506
G01 X285.685 Y235.219
G01 X286.411 Y236.972
G01 X287.052 Y238.761
G01 X287.604 Y240.581
G01 X288.067 Y242.428
G01 X288.439 Y244.298
G01 X288.719 Y246.187
G01 X288.906 Y248.089
G01 X289.000 Y250.000
G01 X289.000 Y251.916
G01 X288.906 Y253.832
G01 X288.717 Y255.743
G01 X288.435 Y257.645
G01 X288.059 Y259.533
G01 X287.590 Y261.403
G01 X287.029 Y263.249
G01 X286.378 Y265.068
G01 X285.637 Y266.855
G01 X284.808 Y268.605
G01 X283.894 Y270.315
G01 X282.895 Y271.980
G01 X281.815 Y273.595
G01 X280.655 Y275.158
G01 X279.418 Y276.663
G01 X278.107 Y278.107
G01 X276.726 Y279.488
G01 X275.277 Y280.800
G01 X273.763 Y282.040
G01 X272.188 Y283.207
G01 X270.556 Y284.296
G01 X268.871 Y285.304
G01 X267.136 Y286.230
G01 X265.355 Y287.071
G01 X263.533 Y287.824
G01 X261.675 Y288.487
G01 X259.784 Y289.059
G01 X257.865 Y289.538
G01 X255.922 Y289.923
G01 X253.961 Y290.212
G01 X251.985 Y290.404
G01 X250.000 Y290.500
G01 X248.010 Y290.498
G01 X246.021 Y290.398
G01 X244.037 Y290.201
G01 X242.062 Y289.906
G01 X240.102 Y289.514
G01 X238.162 Y289.025
G01 X236.245 Y288.441
G01 X234.358 Y287.764
G01 X232.504 Y286.993
G01 X230.687 Y286.131
G01 X228.914 Y285.180
G01 X227.187 Y284.142
G01 X225.511 Y283.019
G01 X223.891 Y281.814
G01 X222.330 Y280.530
G01 X220.832 Y279.168
G01 X219.401 Y277.733
G01 X218.041 Y276.228
G01 X216.755 Y274.656
G01 X215.546 Y273.021
G01 X214.418 Y271.327
G01 X213.373 Y269.578
G01 X212.414 Y267.777
G01 X211.544 Y265.929
G01 X210.764 Y264.039
G01 X210.078 Y262.110
G01 X209.486 Y260.148
G01 X208.991 Y258.157
G01 X208.594 Y256.142
G01 X208.296 Y254.108
G01 X208.097 Y252.059
G01 X208.000 Y250.000
G01 X208.004 Y247.937
G01 X208.109 Y245.874
G01 X208.315 Y243.817
G01 X208.623 Y241.770
G01 X209.031 Y239.738
G01 X209.539 Y237.726
G01 X210.146 Y235.740
G01 X210.851 Y233.784
G01 X211.651 Y231.862
G01 X212.546 Y229.980
G01 X213.533 Y228.143
G01 X214.611 Y226.354
G01 X215.776 Y224.618
G01 X217.026 Y222.939
G01 X218.359 Y221.322
G01 X219.771 Y219.771
G01 X221.259 Y218.290
G01 X222.820 Y216.881
G01 X224.450 Y215.550
G01 X226.145 Y214.299
G01 X227.902 Y213.131
G01 X229.715 Y212.050
G01 X231.582 Y211.058
G01 X233.497 Y210.158
G01 X235.456 Y209.352
G01 X237.454 Y208.642
G01 X239.487 Y208.031
G01 X241.550 Y207.520
G01 X243.638 Y207.110
G01 X245.745 Y206.803
G01 X247.868 Y206.599
G01 X250.000 Y206.500
G01 X252.137 Y206.506
G01 X254.273 Y206.616
G01 X256.403 Y206.832
G01 X258.523 Y207.152
G01 X260.627 Y207.576
G01 X262.709 Y208.104
G01 X264.765 Y208.734
G01 X266.790 Y209.465
G01 X268.779 Y210.295
G01 X270.727 Y211.223
G01 X272.629 Y212.247
G01 X274.480 Y213.363
G01 X276.276 Y214.571
G01 X278.012 Y215.867
G01 X279.685 Y217.248
G01 X281.289 Y218.711
G01 X282.822 Y220.252
G01 X284.278 Y221.869
G01 X285.655 Y223.557
G01 X286.948 Y225.312
G01 X288.156 Y227.130
G01 X289.273 Y229.008
G01 X290.298 Y230.940
G01 X291.228 Y232.923
G01 X292.061 Y234.950
G01 X292.793 Y237.019
G01 X293.424 Y239.123
G01 X293.951 Y241.258
G01 X294.374 Y243.418
G01 X294.690 Y245.598
G01 X294.899 Y247.794
G01 X295.000 Y250.000
G01 X294.993 Y252.210
G01 X294.877 Y254.420
G01 X294.652 Y256.624
G01 X294.319 Y258.816
G01 X293.879 Y260.991
G01 X293.331 Y263.144
G01 X292.678 Y265.271
G01 X291.921 Y267.364
G01 X291.061 Y269.420
G01 X290.100 Y271.434
G01 X289.040 Y273.400
G01 X287.884 Y275.313
G01 X286.634 Y277.169
G01 X285.293 Y278.964
G01 X283.864 Y280.692
G01 X282.350 Y282.350
G01 X280.755 Y283.933
G01 X279.083 Y285.438
G01 X277.337 Y286.860
G01 X275.522 Y288.196
G01 X273.641 Y289.442
G01 X271.699 Y290.596
G01 X269.701 Y291.654
G01 X267.651 Y292.614
G01 X265.555 Y293.473
G01 X263.417 Y294.229
G01 X261.242 Y294.879
G01 X259.035 Y295.423
G01 X256.802 Y295.858
G01 X254.549 Y296.183
G01 X252.279 Y296.397
G01 X250.000 Y296.500
G01 X247.716 Y296.491
G01 X245.433 Y296.369
G01 X243.156 Y296.136
G01 X240.892 Y295.790
G01 X238.644 Y295.334
G01 X236.420 Y294.767
G01 X234.224 Y294.091
G01 X232.062 Y293.307
G01 X229.938 Y292.417
G01 X227.859 Y291.423
G01 X225.829 Y290.327
G01 X223.853 Y289.131
G01 X221.937 Y287.839
G01 X220.084 Y286.452
G01 X218.300 Y284.975
G01 X216.589 Y283.411
G01 X214.955 Y281.763
G01 X213.403 Y280.035
G01 X211.935 Y278.231
G01 X210.557 Y276.355
G01 X209.271 Y274.412
G01 X208.081 Y272.406
G01 X206.990 Y270.342
G01 X206.000 Y268.225
G01 X205.115 Y266.060
G01 X204.336 Y263.852
G01 X203.666 Y261.606
G01 X203.106 Y259.328
G01 X202.659 Y257.022
G01 X202.324 Y254.696
G01 X202.105 Y252.353
G01 X202.000 Y250.000
G01 X202.011 Y247.642
G01 X202.138 Y245.286
G01 X202.380 Y242.936
G01 X202.738 Y240.599
G01 X203.211 Y238.280
G01 X203.798 Y235.985
G01 X204.497 Y233.719
G01 X205.307 Y231.488
G01 X206.227 Y229.297
G01 X207.254 Y227.152
G01 X208.387 Y225.058
G01 X209.622 Y223.020
G01 X210.957 Y221.043
G01 X212.388 Y219.133
G01 X213.913 Y217.293
G01 X215.529 Y215.529
G01 X217.230 Y213.844
G01 X219.014 Y212.243
G01 X220.876 Y210.731
G01 X222.812 Y209.310
G01 X224.817 Y207.985
G01 X226.887 Y206.758
G01 X229.016 Y205.634
G01 X231.201 Y204.614
G01 X233.434 Y203.703
G01 X235.713 Y202.901
G01 X238.029 Y202.211
G01 X240.380 Y201.635
G01 X242.757 Y201.175
G01 X245.157 Y200.832
G01 X247.573 Y200.606
G01 X250.000 Y200.500
G01 X252.431 Y200.513
G01 X254.861 Y200.645
G01 X257.284 Y200.897
G01 X259.694 Y201.267
G01 X262.084 Y201.756
G01 X264.451 Y202.362
G01 X266.787 Y203.085
G01 X269.086 Y203.922
G01 X271.344 Y204.871
G01 X273.555 Y205.931
G01 X275.713 Y207.100
G01 X277.813 Y208.375
G01 X279.850 Y209.752
G01 X281.819 Y211.229
G01 X283.714 Y212.802
G01 X285.532 Y214.468
G01 X287.268 Y216.223
G01 X288.916 Y218.062
G01 X290.474 Y219.982
G01 X291.937 Y221.978
G01 X293.302 Y224.046
G01 X294.565 Y226.180
G01 X295.722 Y228.375
G01 X296.771 Y230.627
G01 X297.710 Y232.929
G01 X298.535 Y235.277
G01 X299.244 Y237.665
G01 X299.836 Y240.087
G01 X300.309 Y242.537
G01 X300.661 Y245.010
G01 X300.892 Y247.500
G01 X301.000 Y250.000
G01 X300.985 Y252.505
G01 X300.848 Y255.008
G01 X300.587 Y257.504
G01 X300.204 Y259.986
G01 X299.699 Y262.449
G01 X299.073 Y264.886
G01 X298.328 Y267.292
G01 X297.464 Y269.660
G01 X296.485 Y271.986
G01 X295.391 Y274.262
G01 X294.186 Y276.484
G01 X292.873 Y278.647
G01 X291.453 Y280.744
G01 X289.931 Y282.770
G01 X288.309 Y284.722
G01 X286.593 Y286.593
G01 X284.785 Y288.379
G01 X282.889 Y290.076
G01 X280.911 Y291.679
G01 X278.855 Y293.184
G01 X276.725 Y294.588
G01 X274.527 Y295.887
G01 X272.266 Y297.078
G01 X269.947 Y298.157
G01 X267.576 Y299.122
G01 X265.158 Y299.970
G01 X262.700 Y300.699
G01 X260.206 Y301.307
G01 X257.683 Y301.793
G01 X255.137 Y302.154
G01 X252.574 Y302.390
G01 X250.000 Y302.500
G01 X247.422 Y302.484
G01 X244.845 Y302.340
G01 X242.276 Y302.071
G01 X239.721 Y301.675
G01 X237.187 Y301.154
G01 X234.678 Y300.509
G01 X232.203 Y299.740
G01 X229.766 Y298.850
G01 X227.373 Y297.841
G01 X225.031 Y296.714
G01 X222.745 Y295.473
G01 X220.520 Y294.120
G01 X218.363 Y292.658
G01 X216.278 Y291.090
G01 X214.271 Y289.421
G01 X212.347 Y287.653
G01 X210.510 Y285.792
G01 X208.765 Y283.841
G01 X207.116 Y281.805
G01 X205.568 Y279.688
G01 X204.125 Y277.496
G01 X202.790 Y275.234
G01 X201.566 Y272.908
G01 X200.457 Y270.521
G01 X199.466 Y268.082
G01 X198.594 Y265.594
G01 X197.846 Y263.064
G01 X197.221 Y260.498
G01 X196.724 Y257.903
G01 X196.353 Y255.284
G01 X196.112 Y252.647
G01 X196.000 Y250.000
G01 X196.018 Y247.348
G01 X196.167 Y244.698
G01 X196.445 Y242.056
G01 X196.854 Y239.429
G01 X197.391 Y236.822
G01 X198.056 Y234.243
G01 X198.848 Y231.697
G01 X199.764 Y229.192
G01 X200.803 Y226.732
G01 X201.963 Y224.324
G01 X203.240 Y221.973
G01 X204.633 Y219.687
G01 X206.137 Y217.469
G01 X207.750 Y215.326
G01 X209.468 Y213.264
G01 X211.286 Y211.286
G01 X213.201 Y209.398
G01 X215.207 Y207.605
G01 X217.302 Y205.911
G01 X219.478 Y204.321
G01 X221.732 Y202.838
G01 X224.058 Y201.467
G01 X226.451 Y200.210
G01 X228.905 Y199.071
G01 X231.413 Y198.053
G01 X233.971 Y197.159
G01 X236.572 Y196.391
G01 X239.209 Y195.750
G01 X241.877 Y195.240
G01 X244.569 Y194.861
G01 X247.279 Y194.614
G01 X250.000 Y194.500
G01 X252.726 Y194.520
G01 X255.449 Y194.674
G01 X258.164 Y194.962
G01 X260.864 Y195.383
G01 X263.542 Y195.936
G01 X266.192 Y196.621
G01 X268.808 Y197.435
G01 X271.382 Y198.378
G01 X273.910 Y199.447
G01 X276.383 Y200.640
G01 X278.798 Y201.954
G01 X281.147 Y203.386
G01 X283.424 Y204.933
G01 X285.625 Y206.591
G01 X287.744 Y208.356
G01 X289.775 Y210.225
G01 X291.713 Y212.193
G01 X293.554 Y214.256
G01 X295.293 Y216.408
G01 X296.926 Y218.645
G01 X298.448 Y220.961
G01 X299.856 Y223.351
G01 X301.146 Y225.810
G01 X302.315 Y228.331
G01 X303.359 Y230.908
G01 X304.276 Y233.535
G01 X305.064 Y236.207
G01 X305.721 Y238.916
G01 X306.244 Y241.657
G01 X306.632 Y244.422
G01 X306.885 Y247.205
G01 X307.000 Y250.000
G01 X306.978 Y252.799
G01 X306.819 Y255.596
G01 X306.522 Y258.384
G01 X306.089 Y261.157
G01 X305.519 Y263.907
G01 X304.815 Y266.628
G01 X303.977 Y269.313
G01 X303.008 Y271.956
G01 X301.909 Y274.551
G01 X300.683 Y277.091
G01 X299.333 Y279.569
G01 X297.861 Y281.980
G01 X296.272 Y284.318
G01 X294.569 Y286.577
G01 X292.755 Y288.751
G01 X290.835 Y290.835
G01 X288.814 Y292.825
G01 X286.696 Y294.714
G01 X284.485 Y296.498
G01 X282.188 Y298.173
G01 X279.810 Y299.735
G01 X277.356 Y301.179
G01 X274.832 Y302.502
G01 X272.243 Y303.700
G01 X269.598 Y304.771
G01 X266.900 Y305.712
G01 X264.157 Y306.519
G01 X261.376 Y307.192
G01 X258.563 Y307.728
G01 X255.725 Y308.125
G01 X252.868 Y308.383
G01 X250.000 Y308.500
G01 X247.127 Y308.476
G01 X244.257 Y308.312
G01 X241.396 Y308.006
G01 X238.551 Y307.560
G01 X235.729 Y306.974
G01 X232.937 Y306.250
G01 X230.181 Y305.389
G01 X227.470 Y304.393
G01 X224.808 Y303.265
G01 X222.202 Y302.006
G01 X219.660 Y300.619
G01 X217.187 Y299.109
G01 X214.789 Y297.477
G01 X212.472 Y295.728
G01 X210.242 Y293.867
G01 X208.104 Y291.896
G01 X206.064 Y289.821
G01 X204.127 Y287.647
G01 X202.297 Y285.379
G01 X200.580 Y283.022
G01 X198.979 Y280.581
G01 X197.498 Y278.063
G01 X196.142 Y275.473
G01 X194.914 Y272.817
G01 X193.816 Y270.103
G01 X192.853 Y267.335
G01 X192.025 Y264.522
G01 X191.337 Y261.669
G01 X190.789 Y258.783
G01 X190.382 Y255.872
G01 X190.119 Y252.942
G01 X190.000 Y250.000
G01 X190.025 Y247.054
G01 X190.196 Y244.110
G01 X190.510 Y241.176
G01 X190.969 Y238.258
G01 X191.571 Y235.364
G01 X192.314 Y232.501
G01 X193.198 Y229.676
G01 X194.221 Y226.895
G01 X195.379 Y224.166
G01 X196.671 Y221.495
G01 X198.094 Y218.889
G01 X199.644 Y216.353
G01 X201.318 Y213.895
G01 X203.112 Y211.520
G01 X205.022 Y209.234
G01 X207.043 Y207.043
G01 X209.171 Y204.952
G01 X211.401 Y202.967
G01 X213.727 Y201.092
G01 X216.145 Y199.332
G01 X218.648 Y197.692
G01 X221.230 Y196.175
G01 X223.886 Y194.786
G01 X226.608 Y193.528
G01 X229.392 Y192.404
G01 X232.229 Y191.417
G01 X235.114 Y190.570
G01 X238.039 Y189.866
G01 X240.997 Y189.305
G01 X243.981 Y188.889
G01 X246.985 Y188.621
G01 X250.000 Y188.500
G01 X253.020 Y188.527
G01 X256.037 Y188.703
G01 X259.045 Y189.027
G01 X262.035 Y189.498
G01 X265.000 Y190.116
G01 X267.934 Y190.879
G01 X270.829 Y191.786
G01 X273.679 Y192.835
G01 X276.475 Y194.023
G01 X279.212 Y195.348
G01 X281.882 Y196.807
G01 X284.480 Y198.397
G01 X286.999 Y200.113
G01 X289.432 Y201.953
G01 X291.773 Y203.911
G01 X294.017 Y205.983
G01 X296.159 Y208.164
G01 X298.192 Y210.450
G01 X300.113 Y212.834
G01 X301.915 Y215.312
G01 X303.595 Y217.877
G01 X305.148 Y220.523
G01 X306.570 Y223.244
G01 X307.858 Y226.034
G01 X309.008 Y228.886
G01 X310.018 Y231.794
G01 X310.885 Y234.749
G01 X311.606 Y237.746
G01 X312.179 Y240.777
G01 X312.603 Y243.834
G01 X312.877 Y246.911
G01 X313.000 Y250.000
G01 X312.971 Y253.094
G01 X312.790 Y256.184
G01 X312.457 Y259.265
G01 X311.973 Y262.327
G01 X311.339 Y265.365
G01 X310.556 Y268.370
G01 X309.626 Y271.335
G01 X308.551 Y274.253
G01 X307.333 Y277.116
G01 X305.974 Y279.919
G01 X304.479 Y282.654
G01 X302.850 Y285.313
G01 X301.092 Y287.892
G01 X299.207 Y290.383
G01 X297.201 Y292.780
G01 X295.078 Y295.078
G01 X292.843 Y297.270
G01 X290.502 Y299.352
G01 X288.060 Y301.317
G01 X285.522 Y303.162
G01 X282.895 Y304.881
G01 X280.184 Y306.471
G01 X277.397 Y307.926
G01 X274.540 Y309.244
G01 X271.619 Y310.421
G01 X268.642 Y311.454
G01 X265.615 Y312.340
G01 X262.547 Y313.077
G01 X259.443 Y313.663
G01 X256.313 Y314.096
G01 X253.163 Y314.375
G01 X250.000 Y314.500
G01 X246.833 Y314.469
G01 X243.669 Y314.283
G01 X240.515 Y313.941
G01 X237.380 Y313.445
G01 X234.271 Y312.794
G01 X231.195 Y311.992
G01 X228.160 Y311.039
G01 X225.173 Y309.937
G01 X222.242 Y308.689
G01 X219.374 Y307.297
G01 X216.575 Y305.766
G01 X213.853 Y304.097
G01 X211.214 Y302.296
G01 X208.665 Y300.366
G01 X206.212 Y298.312
G01 X203.861 Y296.139
G01 X201.618 Y293.851
G01 X199.489 Y291.454
G01 X197.478 Y288.953
G01 X195.591 Y286.355
G01 X193.832 Y283.666
G01 X192.207 Y280.891
G01 X190.718 Y278.038
G01 X189.370 Y275.114
G01 X188.167 Y272.124
G01 X187.111 Y269.077
G01 X186.205 Y265.980
G01 X185.452 Y262.839
G01 X184.853 Y259.664
G01 X184.411 Y256.460
G01 X184.126 Y253.236
G01 X184.000 Y250.000
G01 X184.033 Y246.759
G01 X184.225 Y243.522
G01 X184.575 Y240.295
G01 X185.084 Y237.087
G01 X185.751 Y233.906
G01 X186.573 Y230.760
G01 X187.549 Y227.655
G01 X188.677 Y224.599
G01 X189.955 Y221.601
G01 X191.380 Y218.667
G01 X192.948 Y215.804
G01 X194.655 Y213.020
G01 X196.499 Y210.321
G01 X198.474 Y207.714
G01 X200.576 Y205.205
G01 X202.801 Y202.801
G01 X205.142 Y200.507
G01 X207.595 Y198.329
G01 X210.153 Y196.273
G01 X212.812 Y194.344
G01 X215.563 Y192.546
G01 X218.402 Y190.884
G01 X221.320 Y189.362
G01 X224.312 Y187.985
G01 X227.370 Y186.755
G01 X230.487 Y185.676
G01 X233.656 Y184.750
G01 X236.868 Y183.981
G01 X240.116 Y183.370
G01 X243.393 Y182.918
G01 X246.690 Y182.628
G01 X250.000 Y182.500
G01 X253.314 Y182.534
G01 X256.625 Y182.732
G01 X259.925 Y183.091
G01 X263.205 Y183.613
G01 X266.458 Y184.296
G01 X269.676 Y185.137
G01 X272.851 Y186.137
G01 X275.975 Y187.292
G01 X279.040 Y188.599
G01 X282.040 Y190.057
G01 X284.967 Y191.661
G01 X287.813 Y193.408
G01 X290.573 Y195.294
G01 X293.238 Y197.315
G01 X295.802 Y199.465
G01 X298.260 Y201.740
G01 X300.605 Y204.135
G01 X302.830 Y206.643
G01 X304.932 Y209.260
G01 X306.904 Y211.978
G01 X308.741 Y214.792
G01 X310.439 Y217.695
G01 X311.994 Y220.679
G01 X313.401 Y223.738
G01 X314.658 Y226.865
G01 X315.760 Y230.052
G01 X316.705 Y233.291
G01 X317.490 Y236.575
G01 X318.114 Y239.896
G01 X318.574 Y243.246
G01 X318.870 Y246.617
G01 X319.000 Y250.000
G01 X318.964 Y253.388
G01 X318.761 Y256.772
G01 X318.392 Y260.145
G01 X317.858 Y263.498
G01 X317.160 Y266.823
G01 X316.298 Y270.111
G01 X315.275 Y273.356
G01 X314.094 Y276.549
G01 X312.757 Y279.682
G01 X311.266 Y282.747
G01 X309.626 Y285.738
G01 X307.839 Y288.647
G01 X305.911 Y291.466
G01 X303.845 Y294.189
G01 X301.647 Y296.810
G01 X299.321 Y299.321
G01 X296.873 Y301.716
G01 X294.308 Y303.990
G01 X291.634 Y306.137
G01 X288.855 Y308.151
G01 X285.979 Y310.028
G01 X283.013 Y311.762
G01 X279.962 Y313.350
G01 X276.836 Y314.787
G01 X273.640 Y316.070
G01 X270.383 Y317.195
G01 X267.073 Y318.160
G01 X263.717 Y318.961
G01 X260.324 Y319.598
G01 X256.901 Y320.067
G01 X253.457 Y320.368
G01 X250.000 Y320.500
G01 X246.538 Y320.462
G01 X243.081 Y320.254
G01 X239.635 Y319.876
G01 X236.210 Y319.329
G01 X232.813 Y318.615
G01 X229.453 Y317.733
G01 X226.139 Y316.688
G01 X222.877 Y315.480
G01 X219.677 Y314.113
G01 X216.546 Y312.589
G01 X213.491 Y310.912
G01 X210.520 Y309.086
G01 X207.640 Y307.116
G01 X204.859 Y305.005
G01 X202.183 Y302.758
G01 X199.619 Y300.381
G01 X197.173 Y297.880
G01 X194.851 Y295.260
G01 X192.659 Y292.527
G01 X190.602 Y289.689
G01 X188.686 Y286.750
G01 X186.915 Y283.720
G01 X185.294 Y280.604
G01 X183.827 Y277.410
G01 X182.518 Y274.146
G01 X181.369 Y270.819
G01 X180.385 Y267.438
G01 X179.567 Y264.010
G01 X178.918 Y260.544
G01 X178.440 Y257.048
G01 X178.134 Y253.531
G01 X178.000 Y250.000
G01 X178.040 Y246.465
G01 X178.253 Y242.934
G01 X178.640 Y239.415
G01 X179.200 Y235.917
G01 X179.930 Y232.448
G01 X180.831 Y229.018
G01 X181.900 Y225.633
G01 X183.134 Y222.303
G01 X184.531 Y219.036
G01 X186.088 Y215.838
G01 X187.801 Y212.720
G01 X189.666 Y209.686
G01 X191.680 Y206.747
G01 X193.836 Y203.907
G01 X196.131 Y201.176
G01 X198.558 Y198.558
G01 X201.113 Y196.061
G01 X203.788 Y193.691
G01 X206.579 Y191.454
G01 X209.478 Y189.355
G01 X212.479 Y187.399
G01 X215.573 Y185.592
G01 X218.755 Y183.938
G01 X222.016 Y182.441
G01 X225.349 Y181.105
G01 X228.746 Y179.934
G01 X232.198 Y178.930
G01 X235.697 Y178.096
G01 X239.236 Y177.435
G01 X242.805 Y176.947
G01 X246.396 Y176.635
G01 X250.000 Y176.500
G01 X253.609 Y176.542
G01 X257.213 Y176.761
G01 X260.805 Y177.156
G01 X264.376 Y177.728
G01 X267.916 Y178.475
G01 X271.418 Y179.396
G01 X274.872 Y180.488
G01 X278.271 Y181.748
G01 X281.606 Y183.175
G01 X284.869 Y184.765
G01 X288.052 Y186.515
G01 X291.147 Y188.419
G01 X294.147 Y190.475
G01 X297.044 Y192.676
G01 X299.832 Y195.019
G01 X302.503 Y197.497
G01 X305.050 Y200.105
G01 X307.468 Y202.837
G01 X309.751 Y205.686
G01 X311.893 Y208.645
G01 X313.887 Y211.707
G01 X315.731 Y214.866
G01 X317.418 Y218.114
G01 X318.945 Y221.442
G01 X320.307 Y224.844
G01 X321.501 Y228.310
G01 X322.525 Y231.833
G01 X323.375 Y235.405
G01 X324.049 Y239.016
G01 X324.546 Y242.658
G01 X324.863 Y246.322
G01 X325.000 Y250.000
G01 X324.956 Y253.682
G01 X324.732 Y257.360
G01 X324.327 Y261.025
G01 X323.743 Y264.668
G01 X322.980 Y268.280
G01 X322.040 Y271.853
G01 X320.925 Y275.377
G01 X319.637 Y278.845
G01 X318.181 Y282.247
G01 X316.557 Y285.576
G01 X314.772 Y288.823
G01 X312.828 Y291.980
G01 X310.730 Y295.040
G01 X308.483 Y297.996
G01 X306.092 Y300.839
G01 X303.563 Y303.563
G01 X300.902 Y306.162
G01 X298.115 Y308.628
G01 X295.208 Y310.956
G01 X292.189 Y313.140
G01 X289.064 Y315.174
G01 X285.841 Y317.054
G01 X282.528 Y318.774
G01 X279.132 Y320.330
G01 X275.662 Y321.719
G01 X272.125 Y322.937
G01 X268.531 Y323.980
G01 X264.888 Y324.846
G01 X261.204 Y325.533
G01 X257.489 Y326.038
G01 X253.751 Y326.361
G01 X250.000 Y326.500
G01 X246.244 Y326.455
G01 X242.492 Y326.225
G01 X238.754 Y325.811
G01 X235.039 Y325.214
G01 X231.355 Y324.435
G01 X227.712 Y323.475
G01 X224.117 Y322.337
G01 X220.581 Y321.023
G01 X217.112 Y319.537
G01 X213.717 Y317.880
G01 X210.406 Y316.059
G01 X207.186 Y314.075
G01 X204.066 Y311.935
G01 X201.053 Y309.643
G01 X198.154 Y307.204
G01 X195.376 Y304.624
G01 X192.727 Y301.909
G01 X190.212 Y299.066
G01 X187.839 Y296.102
G01 X185.613 Y293.022
G01 X183.539 Y289.835
G01 X181.624 Y286.548
G01 X179.870 Y283.169
G01 X178.284 Y279.706
G01 X176.869 Y276.167
G01 X175.628 Y272.561
G01 X174.565 Y268.896
G01 X173.683 Y265.180
G01 X172.983 Y261.424
G01 X172.469 Y257.636
G01 X172.141 Y253.825
G01 X172.000 Y250.000
G01 X172.047 Y246.170
G01 X172.282 Y242.345
G01 X172.705 Y238.534
G01 X173.315 Y234.746
G01 X174.110 Y230.991
G01 X175.090 Y227.276
G01 X176.251 Y223.612
G01 X177.591 Y220.007
G01 X179.107 Y216.470
G01 X180.797 Y213.010
G01 X182.655 Y209.635
G01 X184.678 Y206.353
G01 X186.860 Y203.172
G01 X189.198 Y200.101
G01 X191.685 Y197.146
G01 X194.315 Y194.315
G01 X197.083 Y191.615
G01 X199.982 Y189.053
G01 X203.005 Y186.634
G01 X206.145 Y184.366
G01 X209.394 Y182.253
G01 X212.745 Y180.301
G01 X216.190 Y178.514
G01 X219.720 Y176.898
G01 X223.328 Y175.456
G01 X227.004 Y174.192
G01 X230.740 Y173.110
G01 X234.527 Y172.211
G01 X238.356 Y171.500
G01 X242.217 Y170.976
G01 X246.101 Y170.643
G01 X250.000 Y170.500
G01 X253.903 Y170.549
G01 X257.802 Y170.790
G01 X261.686 Y171.221
G01 X265.546 Y171.844
G01 X269.374 Y172.655
G01 X273.159 Y173.654
G01 X276.893 Y174.838
G01 X280.567 Y176.205
G01 X284.171 Y177.751
G01 X287.697 Y179.474
G01 X291.136 Y181.368
G01 X294.480 Y183.430
G01 X297.721 Y185.656
G01 X300.851 Y188.038
G01 X303.861 Y190.573
G01 X306.745 Y193.255
G01 X309.496 Y196.076
G01 X312.107 Y199.030
G01 X314.570 Y202.111
G01 X316.881 Y205.311
G01 X319.034 Y208.623
G01 X321.022 Y212.038
G01 X322.842 Y215.548
G01 X324.488 Y219.146
G01 X325.956 Y222.822
G01 X327.243 Y226.569
G01 X328.345 Y230.376
G01 X329.260 Y234.234
G01 X329.984 Y238.135
G01 X330.517 Y242.070
G01 X330.856 Y246.028
G01 X331.000 Y250.000
G01 X330.949 Y253.977
G01 X330.703 Y257.949
G01 X330.262 Y261.906
G01 X329.628 Y265.839
G01 X328.800 Y269.738
G01 X327.781 Y273.595
G01 X326.574 Y277.399
G01 X325.181 Y281.141
G01 X323.605 Y284.812
G01 X321.849 Y288.404
G01 X319.918 Y291.907
G01 X317.817 Y295.314
G01 X315.549 Y298.615
G01 X313.121 Y301.802
G01 X310.538 Y304.868
G01 X307.806 Y307.806
G01 X304.931 Y310.607
G01 X301.921 Y313.266
G01 X298.782 Y315.775
G01 X295.522 Y318.129
G01 X292.148 Y320.320
G01 X288.669 Y322.345
G01 X285.093 Y324.198
G01 X281.428 Y325.874
G01 X277.683 Y327.368
G01 X273.867 Y328.678
G01 X269.989 Y329.800
G01 X266.058 Y330.731
G01 X262.085 Y331.468
G01 X258.077 Y332.009
G01 X254.046 Y332.354
G01 X250.000 Y332.500
G01 X245.950 Y332.447
G01 X241.904 Y332.196
G01 X237.874 Y331.746
G01 X233.868 Y331.099
G01 X229.897 Y330.255
G01 X225.970 Y329.217
G01 X222.096 Y327.986
G01 X218.285 Y326.567
G01 X214.546 Y324.960
G01 X210.889 Y323.172
G01 X207.321 Y321.205
G01 X203.853 Y319.064
G01 X200.492 Y316.754
G01 X197.246 Y314.281
G01 X194.124 Y311.649
G01 X191.133 Y308.867
G01 X188.281 Y305.939
G01 X185.574 Y302.873
G01 X183.020 Y299.676
G01 X180.624 Y296.355
G01 X178.393 Y292.920
G01 X176.332 Y289.376
G01 X174.446 Y285.734
G01 X172.741 Y282.002
G01 X171.219 Y278.188
G01 X169.886 Y274.302
G01 X168.745 Y270.353
G01 X167.798 Y266.351
G01 X167.048 Y262.305
G01 X166.498 Y258.224
G01 X166.148 Y254.119
G01 X166.000 Y250.000
G01 X166.054 Y245.876
G01 X166.311 Y241.757
G01 X166.770 Y237.654
G01 X167.430 Y233.576
G01 X168.290 Y229.533
G01 X169.348 Y225.534
G01 X170.601 Y221.591
G01 X172.048 Y217.711
G01 X173.684 Y213.905
G01 X175.505 Y210.182
G01 X177.509 Y206.550
G01 X179.689 Y203.020
G01 X182.041 Y199.598
G01 X184.560 Y196.295
G01 X187.239 Y193.117
G01 X190.073 Y190.073
G01 X193.054 Y187.170
G01 X196.176 Y184.415
G01 X199.431 Y181.815
G01 X202.811 Y179.377
G01 X206.309 Y177.106
G01 X209.917 Y175.009
G01 X213.624 Y173.090
G01 X217.424 Y171.355
G01 X221.306 Y169.807
G01 X225.262 Y168.451
G01 X229.282 Y167.290
G01 X233.356 Y166.327
G01 X237.475 Y165.565
G01 X241.629 Y165.005
G01 X245.807 Y164.650
G01 X250.000 Y164.500
G01 X254.198 Y164.556
G01 X258.390 Y164.818
G01 X262.566 Y165.286
G01 X266.717 Y165.959
G01 X270.832 Y166.835
G01 X274.901 Y167.912
G01 X278.915 Y169.189
G01 X282.863 Y170.662
G01 X286.736 Y172.328
G01 X290.525 Y174.182
G01 X294.221 Y176.222
G01 X297.814 Y178.442
G01 X301.295 Y180.836
G01 X304.657 Y183.400
G01 X307.890 Y186.128
G01 X310.988 Y189.012
G01 X313.942 Y192.047
G01 X316.745 Y195.224
G01 X319.390 Y198.537
G01 X321.870 Y201.978
G01 X324.180 Y205.538
G01 X326.314 Y209.209
G01 X328.266 Y212.983
G01 X330.031 Y216.850
G01 X331.605 Y220.801
G01 X332.985 Y224.827
G01 X334.165 Y228.918
G01 X335.144 Y233.064
G01 X335.919 Y237.255
G01 X336.488 Y241.482
G01 X336.848 Y245.733
G01 X337.000 Y250.000
G01 X336.942 Y254.271
G01 X336.674 Y258.537
G01 X336.197 Y262.786
G01 X335.512 Y267.009
G01 X334.620 Y271.196
G01 X333.523 Y275.336
G01 X332.223 Y279.420
G01 X330.724 Y283.437
G01 X329.028 Y287.378
G01 X327.141 Y291.232
G01 X325.065 Y294.992
G01 X322.806 Y298.647
G01 X320.369 Y302.189
G01 X317.759 Y305.609
G01 X314.984 Y308.898
G01 X312.049 Y312.049
G01 X308.961 Y315.053
G01 X305.727 Y317.904
G01 X302.356 Y320.594
G01 X298.855 Y323.117
G01 X295.233 Y325.467
G01 X291.498 Y327.637
G01 X287.658 Y329.622
G01 X283.724 Y331.417
G01 X279.704 Y333.018
G01 X275.609 Y334.420
G01 X271.447 Y335.620
G01 X267.229 Y336.616
G01 X262.965 Y337.403
G01 X258.665 Y337.981
G01 X254.340 Y338.347
G01 X250.000 Y338.500
G01 X245.655 Y338.440
G01 X241.316 Y338.167
G01 X236.994 Y337.681
G01 X232.698 Y336.983
G01 X228.439 Y336.075
G01 X224.228 Y334.958
G01 X220.075 Y333.636
G01 X215.989 Y332.110
G01 X211.981 Y330.384
G01 X208.060 Y328.463
G01 X204.237 Y326.351
G01 X200.520 Y324.053
G01 X196.918 Y321.573
G01 X193.440 Y318.919
G01 X190.095 Y316.095
G01 X186.891 Y313.109
G01 X183.835 Y309.968
G01 X180.936 Y306.679
G01 X178.201 Y303.250
G01 X175.635 Y299.689
G01 X173.247 Y296.004
G01 X171.040 Y292.205
G01 X169.022 Y288.300
G01 X167.197 Y284.298
G01 X165.570 Y280.210
G01 X164.145 Y276.044
G01 X162.925 Y271.811
G01 X161.913 Y267.522
G01 X161.113 Y263.185
G01 X160.527 Y258.812
G01 X160.155 Y254.414
G01 X160.000 Y250.000
G01 X160.062 Y245.582
G01 X160.340 Y241.169
G01 X160.835 Y236.774
G01 X161.545 Y232.405
G01 X162.470 Y228.075
G01 X163.606 Y223.793
G01 X164.952 Y219.569
G01 X166.504 Y215.415
G01 X168.260 Y211.340
G01 X170.214 Y207.353
G01 X172.362 Y203.466
G01 X174.700 Y199.686
G01 X177.222 Y196.024
G01 X179.922 Y192.488
G01 X182.793 Y189.088
G01 X185.830 Y185.830
G01 X189.025 Y182.724
G01 X192.369 Y179.777
G01 X195.857 Y176.996
G01 X199.478 Y174.388
G01 X203.225 Y171.960
G01 X207.088 Y169.718
G01 X211.059 Y167.666
G01 X215.128 Y165.811
G01 X219.285 Y164.158
G01 X223.521 Y162.709
G01 X227.824 Y161.469
G01 X232.186 Y160.442
G01 X236.595 Y159.629
G01 X241.041 Y159.034
G01 X245.513 Y158.657
G01 X250.000 Y158.500
G01 X254.492 Y158.563
G01 X258.978 Y158.847
G01 X263.446 Y159.351
G01 X267.887 Y160.074
G01 X272.290 Y161.015
G01 X276.643 Y162.171
G01 X280.936 Y163.540
G01 X285.159 Y165.119
G01 X289.302 Y166.904
G01 X293.354 Y168.891
G01 X297.305 Y171.076
G01 X301.147 Y173.453
G01 X304.869 Y176.017
G01 X308.463 Y178.762
G01 X311.920 Y181.682
G01 X315.231 Y184.769
G01 X318.387 Y188.017
G01 X321.383 Y191.418
G01 X324.209 Y194.963
G01 X326.859 Y198.644
G01 X329.326 Y202.454
G01 X331.605 Y206.381
G01 X333.690 Y210.418
G01 X335.574 Y214.554
G01 X337.255 Y218.780
G01 X338.726 Y223.085
G01 X339.986 Y227.460
G01 X341.029 Y231.893
G01 X341.854 Y236.375
G01 X342.459 Y240.894
G01 X342.841 Y245.439
G01 X343.000 Y250.000
G01 X342.935 Y254.566
G01 X342.645 Y259.125
G01 X342.133 Y263.667
G01 X341.397 Y268.180
G01 X340.440 Y272.654
G01 X339.265 Y277.078
G01 X337.873 Y281.441
G01 X336.267 Y285.733
G01 X334.452 Y289.943
G01 X332.432 Y294.061
G01 X330.211 Y298.077
G01 X327.794 Y301.981
G01 X325.188 Y305.763
G01 X322.397 Y309.415
G01 X319.429 Y312.927
G01 X316.291 Y316.291
G01 X312.990 Y319.499
G01 X309.534 Y322.542
G01 X305.931 Y325.414
G01 X302.189 Y328.106
G01 X298.318 Y330.613
G01 X294.326 Y332.928
G01 X290.224 Y335.046
G01 X286.020 Y336.960
G01 X281.726 Y338.667
G01 X277.350 Y340.162
G01 X272.905 Y341.441
G01 X268.399 Y342.500
G01 X263.845 Y343.338
G01 X259.253 Y343.952
G01 X254.635 Y344.339
G01 X250.000 Y344.500
G01 X245.361 Y344.433
G01 X240.728 Y344.138
G01 X236.113 Y343.616
G01 X231.527 Y342.868
G01 X226.981 Y341.895
G01 X222.486 Y340.700
G01 X218.053 Y339.285
G01 X213.693 Y337.653
G01 X209.416 Y335.808
G01 X205.232 Y333.755
G01 X201.152 Y331.498
G01 X197.186 Y329.042
G01 X193.343 Y326.393
G01 X189.634 Y323.557
G01 X186.065 Y320.541
G01 X182.648 Y317.352
G01 X179.390 Y313.997
G01 X176.298 Y310.485
G01 X173.382 Y306.824
G01 X170.647 Y303.022
G01 X168.100 Y299.089
G01 X165.749 Y295.033
G01 X163.598 Y290.865
G01 X161.654 Y286.594
G01 X159.921 Y282.231
G01 X158.403 Y277.786
G01 X157.104 Y273.269
G01 X156.029 Y268.692
G01 X155.178 Y264.065
G01 X154.556 Y259.400
G01 X154.162 Y254.708
G01 X154.000 Y250.000
G01 X154.069 Y245.287
G01 X154.369 Y240.581
G01 X154.900 Y235.893
G01 X155.661 Y231.235
G01 X156.650 Y226.617
G01 X157.865 Y222.051
G01 X159.303 Y217.548
G01 X160.961 Y213.119
G01 X162.836 Y208.774
G01 X164.922 Y204.525
G01 X167.216 Y200.381
G01 X169.711 Y196.353
G01 X172.403 Y192.450
G01 X175.284 Y188.682
G01 X178.348 Y185.058
G01 X181.587 Y181.587
G01 X184.995 Y178.278
G01 X188.563 Y175.139
G01 X192.282 Y172.177
G01 X196.144 Y169.399
G01 X200.140 Y166.814
G01 X204.260 Y164.426
G01 X208.494 Y162.242
G01 X212.832 Y160.268
G01 X217.264 Y158.508
G01 X221.779 Y156.967
G01 X226.366 Y155.649
G01 X231.015 Y154.557
G01 X235.714 Y153.694
G01 X240.453 Y153.063
G01 X245.218 Y152.664
G01 X250.000 Y152.500
G01 X254.786 Y152.571
G01 X259.566 Y152.876
G01 X264.327 Y153.416
G01 X269.058 Y154.190
G01 X273.748 Y155.195
G01 X278.384 Y156.429
G01 X282.957 Y157.891
G01 X287.455 Y159.575
G01 X291.867 Y161.480
G01 X296.182 Y163.599
G01 X300.390 Y165.929
G01 X304.481 Y168.464
G01 X308.444 Y171.198
G01 X312.270 Y174.124
G01 X315.949 Y177.236
G01 X319.473 Y180.527
G01 X322.833 Y183.988
G01 X326.021 Y187.611
G01 X329.028 Y191.389
G01 X331.848 Y195.311
G01 X334.473 Y199.369
G01 X336.897 Y203.553
G01 X339.114 Y207.852
G01 X341.118 Y212.258
G01 X342.904 Y216.758
G01 X344.468 Y221.343
G01 X345.806 Y226.002
G01 X346.914 Y230.723
G01 X347.789 Y235.494
G01 X348.430 Y240.305
G01 X348.834 Y245.145
G01 X349.000 Y250.000
G01 X348.928 Y254.860
G01 X348.617 Y259.713
G01 X348.068 Y264.547
G01 X347.282 Y269.351
G01 X346.260 Y274.112
G01 X345.006 Y278.820
G01 X343.522 Y283.463
G01 X341.811 Y288.029
G01 X339.876 Y292.508
G01 X337.724 Y296.889
G01 X335.357 Y301.161
G01 X332.783 Y305.314
G01 X330.007 Y309.337
G01 X327.035 Y313.221
G01 X323.875 Y316.957
G01 X320.534 Y320.534
G01 X317.019 Y323.945
G01 X313.340 Y327.180
G01 X309.505 Y330.233
G01 X305.522 Y333.095
G01 X301.402 Y335.759
G01 X297.154 Y338.220
G01 X292.789 Y340.470
G01 X288.316 Y342.503
G01 X283.747 Y344.316
G01 X279.092 Y345.903
G01 X274.363 Y347.261
G01 X269.570 Y348.385
G01 X264.726 Y349.273
G01 X259.842 Y349.923
G01 X254.929 Y350.332
G01 X250.000 Y350.500
G01 X245.066 Y350.426
G01 X240.140 Y350.109
G01 X235.233 Y349.551
G01 X230.357 Y348.753
G01 X225.524 Y347.715
G01 X220.745 Y346.442
G01 X216.032 Y344.934
G01 X211.397 Y343.196
G01 X206.850 Y341.232
G01 X202.404 Y339.046
G01 X198.068 Y336.644
G01 X193.853 Y334.030
G01 X189.769 Y331.212
G01 X185.827 Y328.195
G01 X182.036 Y324.987
G01 X178.405 Y321.595
G01 X174.944 Y318.027
G01 X171.660 Y314.292
G01 X168.562 Y310.398
G01 X165.658 Y306.356
G01 X162.954 Y302.173
G01 X160.457 Y297.861
G01 X158.174 Y293.430
G01 X156.111 Y288.890
G01 X154.271 Y284.252
G01 X152.661 Y279.527
G01 X151.284 Y274.727
G01 X150.144 Y269.863
G01 X149.243 Y264.946
G01 X148.584 Y259.989
G01 X148.170 Y255.003
G01 X148.000 Y250.000
G01 X148.076 Y244.993
G01 X148.398 Y239.993
G01 X148.965 Y235.013
G01 X149.776 Y230.064
G01 X150.829 Y225.159
G01 X152.123 Y220.309
G01 X153.654 Y215.527
G01 X155.418 Y210.823
G01 X157.412 Y206.209
G01 X159.631 Y201.697
G01 X162.069 Y197.296
G01 X164.722 Y193.019
G01 X167.583 Y188.876
G01 X170.646 Y184.876
G01 X173.902 Y181.029
G01 X177.345 Y177.345
G01 X180.966 Y173.833
G01 X184.757 Y170.501
G01 X188.708 Y167.357
G01 X192.811 Y164.411
G01 X197.055 Y161.667
G01 X201.431 Y159.135
G01 X205.928 Y156.818
G01 X210.536 Y154.725
G01 X215.242 Y152.859
G01 X220.037 Y151.226
G01 X224.908 Y149.829
G01 X229.845 Y148.673
G01 X234.834 Y147.759
G01 X239.864 Y147.092
G01 X244.924 Y146.671
G01 X250.000 Y146.500
G01 X255.081 Y146.578
G01 X260.154 Y146.905
G01 X265.207 Y147.481
G01 X270.228 Y148.305
G01 X275.205 Y149.374
G01 X280.126 Y150.688
G01 X284.979 Y152.241
G01 X289.751 Y154.032
G01 X294.432 Y156.056
G01 X299.011 Y158.308
G01 X303.475 Y160.783
G01 X307.814 Y163.475
G01 X312.018 Y166.379
G01 X316.076 Y169.486
G01 X319.979 Y172.791
G01 X323.716 Y176.284
G01 X327.279 Y179.958
G01 X330.659 Y183.805
G01 X333.847 Y187.815
G01 X336.837 Y191.978
G01 X339.619 Y196.284
G01 X342.188 Y200.724
G01 X344.538 Y205.287
G01 X346.661 Y209.962
G01 X348.553 Y214.737
G01 X350.210 Y219.602
G01 X351.626 Y224.544
G01 X352.799 Y229.552
G01 X353.724 Y234.614
G01 X354.401 Y239.717
G01 X354.827 Y244.850
G01 X355.000 Y250.000
G01 X354.920 Y255.154
G01 X354.588 Y260.301
G01 X354.003 Y265.427
G01 X353.166 Y270.521
G01 X352.081 Y275.570
G01 X350.748 Y280.562
G01 X349.171 Y285.484
G01 X347.354 Y290.325
G01 X345.300 Y295.074
G01 X343.015 Y299.718
G01 X340.504 Y304.246
G01 X337.772 Y308.647
G01 X334.826 Y312.911
G01 X331.673 Y317.028
G01 X328.321 Y320.986
G01 X324.777 Y324.777
G01 X321.049 Y328.390
G01 X317.147 Y331.818
G01 X313.079 Y335.052
G01 X308.856 Y338.084
G01 X304.487 Y340.906
G01 X299.983 Y343.511
G01 X295.354 Y345.893
G01 X290.612 Y348.047
G01 X285.768 Y349.965
G01 X280.834 Y351.645
G01 X275.820 Y353.081
G01 X270.741 Y354.270
G01 X265.606 Y355.208
G01 X260.430 Y355.894
G01 X255.223 Y356.325
G01 X250.000 Y356.500
G01 X244.772 Y356.419
G01 X239.552 Y356.080
G01 X234.353 Y355.486
G01 X229.186 Y354.638
G01 X224.066 Y353.536
G01 X219.003 Y352.183
G01 X214.011 Y350.583
G01 X209.101 Y348.740
G01 X204.285 Y346.656
G01 X199.575 Y344.338
G01 X194.983 Y341.790
G01 X190.519 Y339.019
G01 X186.195 Y336.031
G01 X182.021 Y332.833
G01 X178.007 Y329.432
G01 X174.163 Y325.837
G01 X170.498 Y322.056
G01 X167.022 Y318.098
G01 X163.743 Y313.973
G01 X160.669 Y309.689
G01 X157.808 Y305.258
G01 X155.166 Y300.690
G01 X152.751 Y295.996
G01 X150.567 Y291.186
G01 X148.622 Y286.274
G01 X146.920 Y281.269
G01 X145.464 Y276.185
G01 X144.259 Y271.033
G01 X143.308 Y265.826
G01 X142.613 Y260.577
G01 X142.177 Y255.297
G01 X142.000 Y250.000
G01 X142.083 Y244.698
G01 X142.427 Y239.405
G01 X143.030 Y234.132
G01 X143.891 Y228.894
G01 X145.009 Y223.701
G01 X146.381 Y218.568
G01 X148.004 Y213.505
G01 X149.875 Y208.527
G01 X151.988 Y203.644
G01 X154.339 Y198.868
G01 X156.923 Y194.212
G01 X159.734 Y189.686
G01 X162.764 Y185.301
G01 X166.008 Y181.069
G01 X169.456 Y176.999
G01 X173.102 Y173.102
G01 X176.936 Y169.387
G01 X180.950 Y165.863
G01 X185.134 Y162.538
G01 X189.478 Y159.422
G01 X193.971 Y156.521
G01 X198.603 Y153.843
G01 X203.363 Y151.395
G01 X208.240 Y149.182
G01 X213.221 Y147.210
G01 X218.295 Y145.484
G01 X223.451 Y144.009
G01 X228.674 Y142.788
G01 X233.954 Y141.824
G01 X239.276 Y141.121
G01 X244.629 Y140.679
G01 X250.000 Y140.500
G01 X255.375 Y140.585
G01 X260.742 Y140.934
G01 X266.088 Y141.546
G01 X271.399 Y142.420
G01 X276.663 Y143.554
G01 X281.868 Y144.946
G01 X287.000 Y146.592
G01 X292.047 Y148.489
G01 X296.998 Y150.632
G01 X301.839 Y153.016
G01 X306.559 Y155.636
G01 X311.147 Y158.486
G01 X315.592 Y161.559
G01 X319.882 Y164.848
G01 X324.008 Y168.345
G01 X327.959 Y172.041
G01 X331.725 Y175.929
G01 X335.297 Y179.999
G01 X338.667 Y184.240
G01 X341.825 Y188.644
G01 X344.766 Y193.200
G01 X347.480 Y197.896
G01 X349.961 Y202.722
G01 X352.204 Y207.666
G01 X354.202 Y212.716
G01 X355.951 Y217.860
G01 X357.446 Y223.086
G01 X358.683 Y228.382
G01 X359.659 Y233.734
G01 X360.372 Y239.129
G01 X360.819 Y244.556
G01 X361.000 Y250.000
G01 X360.913 Y255.449
G01 X360.559 Y260.889
G01 X359.938 Y266.308
G01 X359.051 Y271.692
G01 X357.901 Y277.028
G01 X356.490 Y282.303
G01 X354.820 Y287.505
G01 X352.897 Y292.621
G01 X350.724 Y297.639
G01 X348.307 Y302.546
G01 X345.650 Y307.330
G01 X342.761 Y311.981
G01 X339.645 Y316.486
G01 X336.311 Y320.834
G01 X332.767 Y325.015
G01 X329.019 Y329.019
G01 X325.078 Y332.836
G01 X320.953 Y336.456
G01 X316.653 Y339.871
G01 X312.189 Y343.073
G01 X307.571 Y346.052
G01 X302.811 Y348.803
G01 X297.920 Y351.317
G01 X292.908 Y353.590
G01 X287.790 Y355.615
G01 X282.575 Y357.387
G01 X277.278 Y358.901
G01 X271.911 Y360.154
G01 X266.487 Y361.143
G01 X261.018 Y361.865
G01 X255.518 Y362.318
G01 X250.000 Y362.500
G01 X244.478 Y362.411
G01 X238.964 Y362.052
G01 X233.472 Y361.421
G01 X228.016 Y360.522
G01 X222.608 Y359.356
G01 X217.261 Y357.925
G01 X211.989 Y356.233
G01 X206.805 Y354.283
G01 X201.720 Y352.080
G01 X196.747 Y349.630
G01 X191.898 Y346.937
G01 X187.186 Y344.008
G01 X182.621 Y340.850
G01 X178.214 Y337.471
G01 X173.977 Y333.878
G01 X169.920 Y330.080
G01 X166.053 Y326.086
G01 X162.384 Y321.905
G01 X158.924 Y317.547
G01 X155.680 Y313.022
G01 X152.661 Y308.343
G01 X149.874 Y303.518
G01 X147.327 Y298.561
G01 X145.024 Y293.482
G01 X142.973 Y288.295
G01 X141.178 Y283.011
G01 X139.644 Y277.643
G01 X138.374 Y272.204
G01 X137.373 Y266.707
G01 X136.642 Y261.165
G01 X136.184 Y255.591
G01 X136.000 Y250.000
G01 X136.090 Y244.404
G01 X136.456 Y238.817
G01 X137.095 Y233.252
G01 X138.007 Y227.723
G01 X139.189 Y222.243
G01 X140.640 Y216.826
G01 X142.355 Y211.484
G01 X144.331 Y206.231
G01 X146.564 Y201.078
G01 X149.048 Y196.040
G01 X151.777 Y191.127
G01 X154.745 Y186.352
G01 X157.945 Y181.727
G01 X161.370 Y177.263
G01 X165.011 Y172.970
G01 X168.859 Y168.859
G01 X172.907 Y164.941
G01 X177.144 Y161.225
G01 X181.560 Y157.719
G01 X186.144 Y154.433
G01 X190.886 Y151.375
G01 X195.775 Y148.551
G01 X200.798 Y145.971
G01 X205.944 Y143.638
G01 X211.200 Y141.561
G01 X216.554 Y139.743
G01 X221.993 Y138.189
G01 X227.504 Y136.903
G01 X233.073 Y135.889
G01 X238.688 Y135.149
G01 X244.335 Y134.686
G01 X250.000 Y134.500
G01 X255.670 Y134.592
G01 X261.330 Y134.963
G01 X266.968 Y135.611
G01 X272.570 Y136.535
G01 X278.121 Y137.734
G01 X283.610 Y139.204
G01 X289.021 Y140.943
G01 X294.343 Y142.945
G01 X299.563 Y145.208
G01 X304.667 Y147.725
G01 X309.644 Y150.490
G01 X314.481 Y153.498
G01 X319.166 Y156.740
G01 X323.689 Y160.210
G01 X328.037 Y163.899
G01 X332.201 Y167.799
G01 X336.170 Y171.900
G01 X339.935 Y176.192
G01 X343.486 Y180.666
G01 X346.814 Y185.311
G01 X349.912 Y190.115
G01 X352.771 Y195.068
G01 X355.385 Y200.156
G01 X357.747 Y205.370
G01 X359.852 Y210.694
G01 X361.693 Y216.118
G01 X363.266 Y221.628
G01 X364.568 Y227.211
G01 X365.595 Y232.853
G01 X366.343 Y238.541
G01 X366.812 Y244.261
G01 X367.000 Y250.000
G01 X366.906 Y255.743
G01 X366.530 Y261.477
G01 X365.873 Y267.188
G01 X364.936 Y272.862
G01 X363.721 Y278.486
G01 X362.231 Y284.045
G01 X360.470 Y289.527
G01 X358.440 Y294.917
G01 X356.148 Y300.204
G01 X353.598 Y305.374
G01 X350.797 Y310.415
G01 X347.750 Y315.314
G01 X344.465 Y320.060
G01 X340.950 Y324.640
G01 X337.212 Y329.045
G01 X333.262 Y333.262
G01 X329.108 Y337.282
G01 X324.759 Y341.094
G01 X320.227 Y344.691
G01 X315.523 Y348.061
G01 X310.656 Y351.199
G01 X305.640 Y354.094
G01 X300.485 Y356.741
G01 X295.204 Y359.133
G01 X289.811 Y361.264
G01 X284.317 Y363.128
G01 X278.736 Y364.721
G01 X273.082 Y366.039
G01 X267.367 Y367.078
G01 X261.606 Y367.836
G01 X255.812 Y368.310
G01 X250.000 Y368.500
G01 X244.183 Y368.404
G01 X238.376 Y368.023
G01 X232.592 Y367.357
G01 X226.845 Y366.407
G01 X221.150 Y365.176
G01 X215.520 Y363.667
G01 X209.968 Y361.882
G01 X204.509 Y359.826
G01 X199.154 Y357.504
G01 X193.919 Y354.921
G01 X188.814 Y352.083
G01 X183.852 Y348.997
G01 X179.047 Y345.670
G01 X174.408 Y342.109
G01 X169.948 Y338.324
G01 X165.678 Y334.322
G01 X161.607 Y330.115
G01 X157.746 Y325.711
G01 X154.105 Y321.121
G01 X150.691 Y316.356
G01 X147.515 Y311.427
G01 X144.583 Y306.347
G01 X141.903 Y301.126
G01 X139.481 Y295.779
G01 X137.324 Y290.316
G01 X135.436 Y284.753
G01 X133.824 Y279.101
G01 X132.490 Y273.374
G01 X131.438 Y267.587
G01 X130.671 Y261.753
G01 X130.191 Y255.886
G01 X130.000 Y250.000
G01 X130.098 Y244.110
G01 X130.485 Y238.229
G01 X131.160 Y232.372
G01 X132.122 Y226.553
G01 X133.369 Y220.785
G01 X134.898 Y215.084
G01 X136.706 Y209.463
G01 X138.788 Y203.934
G01 X141.140 Y198.513
G01 X143.756 Y193.211
G01 X146.630 Y188.043
G01 X149.756 Y183.019
G01 X153.126 Y178.153
G01 X156.731 Y173.456
G01 X160.565 Y168.941
G01 X164.617 Y164.617
G01 X168.878 Y160.495
G01 X173.338 Y156.587
G01 X177.986 Y152.900
G01 X182.811 Y149.444
G01 X187.802 Y146.228
G01 X192.946 Y143.260
G01 X198.232 Y140.547
G01 X203.647 Y138.095
G01 X209.178 Y135.911
G01 X214.812 Y134.001
G01 X220.535 Y132.369
G01 X226.333 Y131.018
G01 X232.193 Y129.954
G01 X238.100 Y129.178
G01 X244.041 Y128.693
G01 X250.000 Y128.500
G01 X255.964 Y128.600
G01 X261.918 Y128.992
G01 X267.848 Y129.676
G01 X273.740 Y130.651
G01 X279.579 Y131.914
G01 X285.351 Y133.463
G01 X291.043 Y135.293
G01 X296.640 Y137.402
G01 X302.128 Y139.784
G01 X307.496 Y142.433
G01 X312.729 Y145.344
G01 X317.814 Y148.509
G01 X322.740 Y151.921
G01 X327.495 Y155.572
G01 X332.067 Y159.453
G01 X336.444 Y163.556
G01 X340.616 Y167.870
G01 X344.573 Y172.386
G01 X348.305 Y177.092
G01 X351.803 Y181.977
G01 X355.058 Y187.030
G01 X358.063 Y192.239
G01 X360.809 Y197.591
G01 X363.291 Y203.073
G01 X365.501 Y208.673
G01 X367.435 Y214.377
G01 X369.086 Y220.170
G01 X370.453 Y226.040
G01 X371.530 Y231.973
G01 X372.314 Y237.953
G01 X372.805 Y243.967
G01 X373.000 Y250.000
G01 X372.899 Y256.038
G01 X372.501 Y262.065
G01 X371.808 Y268.068
G01 X370.820 Y274.033
G01 X369.541 Y279.944
G01 X367.973 Y285.787
G01 X366.119 Y291.548
G01 X363.984 Y297.214
G01 X361.572 Y302.770
G01 X358.890 Y308.203
G01 X355.943 Y313.500
G01 X352.738 Y318.648
G01 X349.284 Y323.634
G01 X345.588 Y328.447
G01 X341.658 Y333.074
G01 X337.504 Y337.504
G01 X333.137 Y341.727
G01 X328.566 Y345.733
G01 X323.802 Y349.510
G01 X318.856 Y353.050
G01 X313.741 Y356.345
G01 X308.468 Y359.386
G01 X303.050 Y362.165
G01 X297.501 Y364.677
G01 X291.832 Y366.913
G01 X286.059 Y368.870
G01 X280.194 Y370.542
G01 X274.252 Y371.924
G01 X268.247 Y373.013
G01 X262.194 Y373.807
G01 X256.107 Y374.303
G01 X250.000 Y374.500
G01 X243.889 Y374.397
G01 X237.788 Y373.994
G01 X231.711 Y373.292
G01 X225.675 Y372.292
G01 X219.692 Y370.996
G01 X213.778 Y369.408
G01 X207.947 Y367.531
G01 X202.212 Y365.369
G01 X196.589 Y362.928
G01 X191.090 Y360.213
G01 X185.729 Y357.229
G01 X180.519 Y353.986
G01 X175.472 Y350.489
G01 X170.602 Y346.747
G01 X165.919 Y342.769
G01 X161.435 Y338.565
G01 X157.161 Y334.144
G01 X153.108 Y329.517
G01 X149.285 Y324.695
G01 X145.703 Y319.689
G01 X142.368 Y314.512
G01 X139.291 Y309.175
G01 X136.479 Y303.692
G01 X133.938 Y298.075
G01 X131.674 Y292.338
G01 X129.695 Y286.494
G01 X128.003 Y280.559
G01 X126.605 Y274.545
G01 X125.503 Y268.467
G01 X124.700 Y262.341
G01 X124.199 Y256.180
G01 X124.000 Y250.000
G01 X124.105 Y243.815
G01 X124.513 Y237.641
G01 X125.225 Y231.491
G01 X126.237 Y225.382
G01 X127.549 Y219.328
G01 X129.156 Y213.342
G01 X131.057 Y207.441
G01 X133.245 Y201.638
G01 X135.716 Y195.948
G01 X138.465 Y190.383
G01 X141.484 Y184.958
G01 X144.767 Y179.686
G01 X148.306 Y174.579
G01 X152.093 Y169.650
G01 X156.119 Y164.911
G01 X160.374 Y160.374
G01 X164.848 Y156.050
G01 X169.531 Y151.948
G01 X174.411 Y148.080
G01 X179.477 Y144.455
G01 X184.717 Y141.082
G01 X190.118 Y137.968
G01 X195.667 Y135.123
G01 X201.351 Y132.552
G01 X207.157 Y130.262
G01 X213.070 Y128.259
G01 X219.077 Y126.548
G01 X225.163 Y125.134
G01 X231.312 Y124.019
G01 X237.512 Y123.207
G01 X243.746 Y122.700
G01 X250.000 Y122.500
G01 X256.258 Y122.607
G01 X262.506 Y123.021
G01 X268.729 Y123.741
G01 X274.911 Y124.766
G01 X281.037 Y126.094
G01 X287.093 Y127.721
G01 X293.064 Y129.644
G01 X298.936 Y131.859
G01 X304.694 Y134.360
G01 X310.324 Y137.142
G01 X315.813 Y140.197
G01 X321.148 Y143.520
G01 X326.315 Y147.102
G01 X331.301 Y150.934
G01 X336.096 Y155.008
G01 X340.686 Y159.314
G01 X345.062 Y163.841
G01 X349.211 Y168.580
G01 X353.124 Y173.518
G01 X356.792 Y178.644
G01 X360.205 Y183.946
G01 X363.354 Y189.411
G01 X366.233 Y195.026
G01 X368.834 Y200.777
G01 X371.150 Y206.652
G01 X373.176 Y212.635
G01 X374.907 Y218.713
G01 X376.337 Y224.870
G01 X377.465 Y231.092
G01 X378.286 Y237.365
G01 X378.798 Y243.673
G01 X379.000 Y250.000
G01 X378.891 Y256.332
G01 X378.472 Y262.653
G01 X377.743 Y268.949
G01 X376.705 Y275.203
G01 X375.361 Y281.401
G01 X373.714 Y287.528
G01 X371.768 Y293.569
G01 X369.527 Y299.510
G01 X366.996 Y305.335
G01 X364.181 Y311.031
G01 X361.089 Y316.584
G01 X357.727 Y321.981
G01 X354.103 Y327.208
G01 X350.226 Y332.253
G01 X346.104 Y337.103
G01 X341.747 Y341.747
G01 X337.166 Y346.173
G01 X332.372 Y350.371
G01 X327.376 Y354.329
G01 X322.189 Y358.039
G01 X316.825 Y361.491
G01 X311.296 Y364.677
G01 X305.616 Y367.589
G01 X299.797 Y370.220
G01 X293.854 Y372.563
G01 X287.801 Y374.612
G01 X281.652 Y376.362
G01 X275.423 Y377.809
G01 X269.128 Y378.948
G01 X262.782 Y379.778
G01 X256.401 Y380.296
G01 X250.000 Y380.500
G01 X243.594 Y380.390
G01 X237.200 Y379.965
G01 X230.831 Y379.227
G01 X224.504 Y378.176
G01 X218.234 Y376.816
G01 X212.036 Y375.150
G01 X205.925 Y373.180
G01 X199.916 Y370.913
G01 X194.024 Y368.352
G01 X188.262 Y365.504
G01 X182.645 Y362.376
G01 X177.186 Y358.974
G01 X171.898 Y355.308
G01 X166.795 Y351.385
G01 X161.889 Y347.215
G01 X157.192 Y342.808
G01 X152.715 Y338.174
G01 X148.470 Y333.324
G01 X144.466 Y328.269
G01 X140.714 Y323.023
G01 X137.222 Y317.596
G01 X134.000 Y312.003
G01 X131.055 Y306.257
G01 X128.394 Y300.371
G01 X126.025 Y294.359
G01 X123.953 Y288.236
G01 X122.183 Y282.016
G01 X120.720 Y275.715
G01 X119.568 Y269.348
G01 X118.729 Y262.929
G01 X118.206 Y256.475
G01 X118.000 Y250.000
G01 X118.112 Y243.521
G01 X118.542 Y237.053
G01 X119.290 Y230.611
G01 X120.352 Y224.211
G01 X121.729 Y217.870
G01 X123.415 Y211.601
G01 X125.407 Y205.420
G01 X127.701 Y199.342
G01 X130.292 Y193.382
G01 X133.173 Y187.555
G01 X136.338 Y181.873
G01 X139.778 Y176.352
G01 X143.487 Y171.005
G01 X147.455 Y165.844
G01 X151.673 Y160.882
G01 X156.132 Y156.132
G01 X160.819 Y151.604
G01 X165.725 Y147.310
G01 X170.837 Y143.261
G01 X176.144 Y139.467
G01 X181.632 Y135.935
G01 X187.290 Y132.677
G01 X193.102 Y129.699
G01 X199.055 Y127.009
G01 X205.136 Y124.613
G01 X211.329 Y122.518
G01 X217.619 Y120.728
G01 X223.992 Y119.249
G01 X230.432 Y118.084
G01 X236.924 Y117.236
G01 X243.452 Y116.708
G01 X250.000 Y116.500
G01 X256.553 Y116.614
G01 X263.094 Y117.050
G01 X269.609 Y117.806
G01 X276.081 Y118.881
G01 X282.495 Y120.273
G01 X288.835 Y121.979
G01 X295.085 Y123.995
G01 X301.232 Y126.316
G01 X307.259 Y128.936
G01 X313.152 Y131.850
G01 X318.898 Y135.051
G01 X324.481 Y138.531
G01 X329.889 Y142.282
G01 X335.108 Y146.296
G01 X340.125 Y150.562
G01 X344.929 Y155.071
G01 X349.507 Y159.812
G01 X353.849 Y164.773
G01 X357.944 Y169.944
G01 X361.781 Y175.311
G01 X365.351 Y180.861
G01 X368.646 Y186.582
G01 X371.657 Y192.460
G01 X374.377 Y198.481
G01 X376.800 Y204.630
G01 X378.918 Y210.893
G01 X380.727 Y217.255
G01 X382.222 Y223.699
G01 X383.400 Y230.212
G01 X384.257 Y236.777
G01 X384.791 Y243.378
G01 X385.000 Y250.000
G01 X384.884 Y256.626
G01 X384.443 Y263.242
G01 X383.678 Y269.829
G01 X382.590 Y276.374
G01 X381.182 Y282.859
G01 X379.456 Y289.270
G01 X377.417 Y295.591
G01 X375.070 Y301.806
G01 X372.420 Y307.900
G01 X369.473 Y313.860
G01 X366.236 Y319.669
G01 X362.716 Y325.314
G01 X358.922 Y330.782
G01 X354.864 Y336.059
G01 X350.549 Y341.133
G01 X345.990 Y345.990
G01 X341.196 Y350.619
G01 X336.178 Y355.009
G01 X330.950 Y359.148
G01 X325.523 Y363.028
G01 X319.910 Y366.638
G01 X314.125 Y369.969
G01 X308.181 Y373.013
G01 X302.093 Y375.763
G01 X295.875 Y378.212
G01 X289.542 Y380.353
G01 X283.110 Y382.182
G01 X276.593 Y383.693
G01 X270.008 Y384.883
G01 X263.370 Y385.749
G01 X256.695 Y386.289
G01 X250.000 Y386.500
G01 X243.300 Y386.382
G01 X236.611 Y385.936
G01 X229.951 Y385.162
G01 X223.334 Y384.061
G01 X216.776 Y382.637
G01 X210.294 Y380.891
G01 X203.904 Y378.830
G01 X197.620 Y376.456
G01 X191.458 Y373.776
G01 X185.433 Y370.796
G01 X179.560 Y367.522
G01 X173.852 Y363.963
G01 X168.324 Y360.127
G01 X162.989 Y356.023
G01 X157.860 Y351.661
G01 X152.950 Y347.050
G01 X148.270 Y342.203
G01 X143.832 Y337.130
G01 X139.647 Y331.843
G01 X135.725 Y326.356
G01 X132.076 Y320.681
G01 X128.708 Y314.832
G01 X125.631 Y308.822
G01 X122.851 Y302.667
G01 X120.376 Y296.380
G01 X118.211 Y289.978
G01 X116.363 Y283.474
G01 X114.836 Y276.886
G01 X113.633 Y270.228
G01 X112.758 Y263.517
G01 X112.213 Y256.769
G01 X112.000 Y250.000
G01 X112.119 Y243.226
G01 X112.571 Y236.464
G01 X113.355 Y229.731
G01 X114.468 Y223.041
G01 X115.908 Y216.412
G01 X117.673 Y209.859
G01 X119.758 Y203.399
G01 X122.158 Y197.046
G01 X124.868 Y190.817
G01 X127.881 Y184.726
G01 X131.191 Y178.789
G01 X134.789 Y173.019
G01 X138.668 Y167.430
G01 X142.817 Y162.037
G01 X147.228 Y156.853
G01 X151.889 Y151.889
G01 X156.790 Y147.158
G01 X161.918 Y142.672
G01 X167.263 Y138.442
G01 X172.810 Y134.478
G01 X178.548 Y130.789
G01 X184.461 Y127.385
G01 X190.536 Y124.275
G01 X196.759 Y121.465
G01 X203.114 Y118.964
G01 X209.587 Y116.776
G01 X216.161 Y114.908
G01 X222.821 Y113.364
G01 X229.552 Y112.149
G01 X236.336 Y111.265
G01 X243.157 Y110.715
G01 X250.000 Y110.500
G01 X256.847 Y110.621
G01 X263.683 Y111.078
G01 X270.490 Y111.871
G01 X277.252 Y112.997
G01 X283.953 Y114.453
G01 X290.576 Y116.238
G01 X297.107 Y118.346
G01 X303.528 Y120.772
G01 X309.824 Y123.512
G01 X315.981 Y126.559
G01 X321.982 Y129.905
G01 X327.815 Y133.542
G01 X333.463 Y137.463
G01 X338.914 Y141.658
G01 X344.155 Y146.116
G01 X349.172 Y150.828
G01 X353.953 Y155.782
G01 X358.487 Y160.967
G01 X362.763 Y166.369
G01 X366.770 Y171.977
G01 X370.497 Y177.777
G01 X373.937 Y183.754
G01 X377.081 Y189.895
G01 X379.921 Y196.185
G01 X382.449 Y202.609
G01 X384.659 Y209.152
G01 X386.547 Y215.797
G01 X388.107 Y222.529
G01 X389.335 Y229.332
G01 X390.228 Y236.189
G01 X390.783 Y243.084
G01 X391.000 Y250.000
G01 X390.877 Y256.921
G01 X390.414 Y263.830
G01 X389.613 Y270.710
G01 X388.475 Y277.544
G01 X387.002 Y284.317
G01 X385.198 Y291.012
G01 X383.067 Y297.612
G01 X380.613 Y304.102
G01 X377.844 Y310.466
G01 X374.764 Y316.688
G01 X371.382 Y322.754
G01 X367.705 Y328.648
G01 X363.742 Y334.357
G01 X359.502 Y339.866
G01 X354.995 Y345.162
G01 X350.232 Y350.232
G01 X345.225 Y355.065
G01 X339.985 Y359.647
G01 X334.524 Y363.968
G01 X328.856 Y368.017
G01 X322.995 Y371.784
G01 X316.953 Y375.260
G01 X310.746 Y378.437
G01 X304.389 Y381.306
G01 X297.896 Y383.861
G01 X291.284 Y386.095
G01 X284.568 Y388.002
G01 X277.764 Y389.578
G01 X270.888 Y390.819
G01 X263.958 Y391.721
G01 X256.990 Y392.282
G01 X250.000 Y392.500
G01 X243.006 Y392.375
G01 X236.023 Y391.907
G01 X229.070 Y391.097
G01 X222.163 Y389.946
G01 X215.318 Y388.457
G01 X208.553 Y386.633
G01 X201.883 Y384.479
G01 X195.324 Y381.999
G01 X188.893 Y379.200
G01 X182.605 Y376.087
G01 X176.475 Y372.669
G01 X170.519 Y368.952
G01 X164.750 Y364.947
G01 X159.183 Y360.661
G01 X153.831 Y356.107
G01 X148.707 Y351.293
G01 X143.824 Y346.232
G01 X139.194 Y340.936
G01 X134.828 Y335.418
G01 X130.736 Y329.690
G01 X126.929 Y323.766
G01 X123.417 Y317.660
G01 X120.207 Y311.388
G01 X117.308 Y304.963
G01 X114.727 Y298.402
G01 X112.470 Y291.719
G01 X110.543 Y284.932
G01 X108.951 Y278.056
G01 X107.698 Y271.109
G01 X106.787 Y264.105
G01 X106.220 Y257.063
G01 X106.000 Y250.000
G01 X106.127 Y242.932
G01 X106.600 Y235.876
G01 X107.419 Y228.850
G01 X108.583 Y221.870
G01 X110.088 Y214.954
G01 X111.931 Y208.117
G01 X114.109 Y201.377
G01 X116.615 Y194.750
G01 X119.444 Y188.252
G01 X122.590 Y181.898
G01 X126.045 Y175.704
G01 X129.801 Y169.685
G01 X133.849 Y163.856
G01 X138.179 Y158.231
G01 X142.782 Y152.823
G01 X147.646 Y147.646
G01 X152.760 Y142.713
G01 X158.112 Y138.034
G01 X163.689 Y133.623
G01 X169.477 Y129.489
G01 X175.463 Y125.643
G01 X181.633 Y122.094
G01 X187.971 Y118.851
G01 X194.463 Y115.922
G01 X201.093 Y113.314
G01 X207.845 Y111.034
G01 X214.703 Y109.088
G01 X221.651 Y107.480
G01 X228.671 Y106.214
G01 X235.748 Y105.294
G01 X242.863 Y104.722
G01 X250.000 Y104.500
G01 X257.142 Y104.628
G01 X264.271 Y105.107
G01 X271.370 Y105.936
G01 X278.422 Y107.112
G01 X285.411 Y108.633
G01 X292.318 Y110.496
G01 X299.128 Y112.696
G01 X305.824 Y115.229
G01 X312.390 Y118.088
G01 X318.809 Y121.267
G01 X325.067 Y124.758
G01 X331.148 Y128.553
G01 X337.037 Y132.644
G01 X342.721 Y137.020
G01 X348.184 Y141.671
G01 X353.414 Y146.586
G01 X358.399 Y151.753
G01 X363.125 Y157.161
G01 X367.582 Y162.795
G01 X371.758 Y168.644
G01 X375.644 Y174.692
G01 X379.229 Y180.926
G01 X382.505 Y187.330
G01 X385.464 Y193.889
G01 X388.098 Y200.588
G01 X390.401 Y207.410
G01 X392.367 Y214.339
G01 X393.992 Y221.358
G01 X395.270 Y228.451
G01 X396.199 Y235.601
G01 X396.776 Y242.789
G01 X397.000 Y250.000
G01 X396.870 Y257.215
G01 X396.385 Y264.418
G01 X395.548 Y271.590
G01 X394.359 Y278.715
G01 X392.822 Y285.775
G01 X390.939 Y292.753
G01 X388.716 Y299.633
G01 X386.157 Y306.398
G01 X383.268 Y313.031
G01 X380.056 Y319.516
G01 X376.528 Y325.838
G01 X372.694 Y331.981
G01 X368.561 Y337.931
G01 X364.140 Y343.672
G01 X359.441 Y349.191
G01 X354.475 Y354.475
G01 X349.254 Y359.510
G01 X343.791 Y364.285
G01 X338.098 Y368.787
G01 X332.190 Y373.006
G01 X326.079 Y376.930
G01 X319.781 Y380.552
G01 X313.312 Y383.861
G01 X306.685 Y386.850
G01 X299.918 Y389.510
G01 X293.026 Y391.837
G01 X286.026 Y393.822
G01 X278.934 Y395.463
G01 X271.769 Y396.754
G01 X264.546 Y397.692
G01 X257.284 Y398.274
G01 X250.000 Y398.500
G01 X242.711 Y398.368
G01 X235.435 Y397.878
G01 X228.190 Y397.032
G01 X220.993 Y395.831
G01 X213.860 Y394.277
G01 X206.811 Y392.375
G01 X199.861 Y390.128
G01 X193.028 Y387.543
G01 X186.328 Y384.624
G01 X179.777 Y381.379
G01 X173.391 Y377.815
G01 X167.185 Y373.941
G01 X161.176 Y369.766
G01 X155.376 Y365.299
G01 X149.801 Y360.552
G01 X144.464 Y355.536
G01 X139.378 Y350.262
G01 X134.556 Y344.743
G01 X130.008 Y338.992
G01 X125.747 Y333.023
G01 X121.783 Y326.850
G01 X118.125 Y320.489
G01 X114.783 Y313.953
G01 X111.765 Y307.259
G01 X109.077 Y300.423
G01 X106.728 Y293.461
G01 X104.723 Y286.390
G01 X103.066 Y279.227
G01 X101.763 Y271.989
G01 X100.816 Y264.693
G01 X100.228 Y257.358
G01 X100.000 Y250.000
G01 X100.134 Y242.638
G01 X100.629 Y235.288
G01 X101.484 Y227.970
G01 X102.698 Y220.700
G01 X104.268 Y213.496
G01 X106.190 Y206.376
G01 X108.459 Y199.356
G01 X111.072 Y192.454
G01 X114.020 Y185.686
G01 X117.298 Y179.070
G01 X120.898 Y172.620
G01 X124.812 Y166.352
G01 X129.029 Y160.282
G01 X133.541 Y154.425
G01 X138.336 Y148.794
G01 X143.404 Y143.404
G01 X148.731 Y138.267
G01 X154.306 Y133.396
G01 X160.115 Y128.804
G01 X166.144 Y124.500
G01 X172.379 Y120.496
G01 X178.804 Y116.802
G01 X185.406 Y113.427
G01 X192.167 Y110.379
G01 X199.072 Y107.665
G01 X206.104 Y105.293
G01 X213.245 Y103.268
G01 X220.480 Y101.595
G01 X227.791 Y100.279
G01 X235.160 Y99.323
G01 X242.569 Y98.729
G01 X250.000 Y98.500
G01 X257.436 Y98.636
G01 X264.859 Y99.136
G01 X272.250 Y100.001
G01 X279.593 Y101.227
G01 X286.868 Y102.813
G01 X294.060 Y104.754
G01 X301.149 Y107.047
G01 X308.120 Y109.686
G01 X314.955 Y112.664
G01 X321.638 Y115.976
G01 X328.152 Y119.612
G01 X334.481 Y123.565
G01 X340.611 Y127.825
G01 X346.527 Y132.382
G01 X352.213 Y137.225
G01 X357.657 Y142.343
G01 X362.845 Y147.724
G01 X367.763 Y153.354
G01 X372.401 Y159.221
G01 X376.747 Y165.310
G01 X380.790 Y171.607
G01 X384.521 Y178.097
G01 X387.929 Y184.764
G01 X391.007 Y191.593
G01 X393.747 Y198.566
G01 X396.143 Y205.668
G01 X398.187 Y212.881
G01 X399.876 Y220.188
G01 X401.205 Y227.571
G01 X402.170 Y235.013
G01 X402.769 Y242.495
G01 X403.000 Y250.000
G01 X402.863 Y257.510
G01 X402.357 Y265.006
G01 X401.483 Y272.470
G01 X400.244 Y279.885
G01 X398.642 Y287.233
G01 X396.681 Y294.495
G01 X394.365 Y301.655
G01 X391.700 Y308.694
G01 X388.692 Y315.596
G01 X385.347 Y322.345
G01 X381.675 Y328.923
G01 X377.683 Y335.315
G01 X373.380 Y341.505
G01 X368.778 Y347.478
G01 X363.887 Y353.221
G01 X358.718 Y358.718
G01 X353.284 Y363.956
G01 X347.597 Y368.923
G01 X341.673 Y373.606
G01 X335.523 Y377.994
G01 X329.164 Y382.077
G01 X322.610 Y385.843
G01 X315.877 Y389.285
G01 X308.981 Y392.393
G01 X301.939 Y395.160
G01 X294.767 Y397.578
G01 X287.483 Y399.642
G01 X280.105 Y401.347
G01 X272.649 Y402.689
G01 X265.134 Y403.663
G01 X257.579 Y404.267
G01 X250.000 Y404.500
G01 X242.417 Y404.361
G01 X234.847 Y403.849
G01 X227.310 Y402.967
G01 X219.822 Y401.715
G01 X212.403 Y400.097
G01 X205.069 Y398.116
G01 X197.840 Y395.778
G01 X190.732 Y393.086
G01 X183.762 Y390.048
G01 X176.948 Y386.670
G01 X170.306 Y382.961
G01 X163.852 Y378.930
G01 X157.601 Y374.585
G01 X151.570 Y369.937
G01 X145.772 Y364.998
G01 X140.222 Y359.778
G01 X134.933 Y354.291
G01 X129.918 Y348.549
G01 X125.189 Y342.566
G01 X120.758 Y336.356
G01 X116.637 Y329.935
G01 X112.834 Y323.317
G01 X109.359 Y316.518
G01 X106.221 Y309.555
G01 X103.428 Y302.444
G01 X100.986 Y295.203
G01 X98.902 Y287.848
G01 X97.181 Y280.398
G01 X95.828 Y272.869
G01 X94.844 Y265.281
G01 X94.235 Y257.652
G01 X94.000 Y250.000
G01 X94.141 Y242.343
G01 X94.658 Y234.700
G01 X95.549 Y227.089
G01 X96.814 Y219.529
G01 X98.448 Y212.038
G01 X100.448 Y204.634
G01 X102.810 Y197.335
G01 X105.528 Y190.158
G01 X108.596 Y183.121
G01 X112.007 Y176.241
G01 X115.752 Y169.535
G01 X119.823 Y163.019
G01 X124.210 Y156.708
G01 X128.903 Y150.618
G01 X133.891 Y144.765
G01 X139.161 Y139.161
G01 X144.702 Y133.821
G01 X150.499 Y128.758
G01 X156.540 Y123.984
G01 X162.810 Y119.511
G01 X169.294 Y115.350
G01 X175.976 Y111.511
G01 X182.840 Y108.003
G01 X189.871 Y104.835
G01 X197.050 Y102.016
G01 X204.362 Y99.551
G01 X211.788 Y97.447
G01 X219.310 Y95.710
G01 X226.911 Y94.344
G01 X234.571 Y93.352
G01 X242.274 Y92.737
G01 X250.000 Y92.500
G01 X257.730 Y92.643
G01 X265.447 Y93.165
G01 X273.131 Y94.066
G01 X280.763 Y95.342
G01 X288.326 Y96.993
G01 X295.801 Y99.013
G01 X303.171 Y101.398
G01 X310.416 Y104.143
G01 X317.520 Y107.240
G01 X324.466 Y110.684
G01 X331.236 Y114.465
G01 X337.815 Y118.576
G01 X344.186 Y123.005
G01 X350.333 Y127.744
G01 X356.243 Y132.779
G01 X361.900 Y138.100
G01 X367.290 Y143.694
G01 X372.401 Y149.548
G01 X377.221 Y155.647
G01 X381.736 Y161.977
G01 X385.937 Y168.523
G01 X389.812 Y175.269
G01 X393.353 Y182.199
G01 X396.550 Y189.297
G01 X399.397 Y196.545
G01 X401.884 Y203.926
G01 X404.008 Y211.423
G01 X405.761 Y219.017
G01 X407.140 Y226.690
G01 X408.141 Y234.424
G01 X408.762 Y242.201
G01 X409.000 Y250.000
G01 X408.855 Y257.804
G01 X408.328 Y265.594
G01 X407.418 Y273.351
G01 X406.129 Y281.056
G01 X404.462 Y288.691
G01 X402.423 Y296.237
G01 X400.014 Y303.676
G01 X397.243 Y310.990
G01 X394.116 Y318.162
G01 X390.639 Y325.173
G01 X386.821 Y332.007
G01 X382.671 Y338.648
G01 X378.199 Y345.079
G01 X373.416 Y351.285
G01 X368.332 Y357.250
G01 X362.960 Y362.960
G01 X357.313 Y368.402
G01 X351.404 Y373.561
G01 X345.247 Y378.425
G01 X338.857 Y382.983
G01 X332.248 Y387.223
G01 X325.438 Y391.135
G01 X318.442 Y394.709
G01 X311.277 Y397.936
G01 X303.960 Y400.809
G01 X296.509 Y403.320
G01 X288.941 Y405.463
G01 X281.275 Y407.232
G01 X273.530 Y408.624
G01 X265.723 Y409.634
G01 X257.873 Y410.260
G01 X250.000 Y410.500
G01 X242.122 Y410.353
G01 X234.259 Y409.820
G01 X226.429 Y408.902
G01 X218.651 Y407.600
G01 X210.945 Y405.917
G01 X203.328 Y403.858
G01 X195.819 Y401.427
G01 X188.436 Y398.629
G01 X181.197 Y395.472
G01 X174.120 Y391.962
G01 X167.221 Y388.108
G01 X160.518 Y383.919
G01 X154.027 Y379.404
G01 X147.764 Y374.575
G01 X141.743 Y369.444
G01 X135.979 Y364.021
G01 X130.487 Y358.320
G01 X125.280 Y352.355
G01 X120.370 Y346.140
G01 X115.770 Y339.690
G01 X111.490 Y333.020
G01 X107.542 Y326.145
G01 X103.935 Y319.084
G01 X100.678 Y311.851
G01 X97.779 Y304.466
G01 X95.245 Y296.944
G01 X93.082 Y289.306
G01 X91.297 Y281.568
G01 X89.893 Y273.750
G01 X88.873 Y265.870
G01 X88.242 Y257.947
G01 X88.000 Y250.000
G01 X88.148 Y242.049
G01 X88.687 Y234.112
G01 X89.614 Y226.209
G01 X90.929 Y218.359
G01 X92.628 Y210.580
G01 X94.707 Y202.892
G01 X97.161 Y195.313
G01 X99.985 Y187.862
G01 X103.172 Y180.556
G01 X106.715 Y173.413
G01 X110.606 Y166.450
G01 X114.834 Y159.685
G01 X119.391 Y153.134
G01 X124.265 Y146.812
G01 X129.445 Y140.735
G01 X134.918 Y134.918
G01 X140.672 Y129.375
G01 X146.693 Y124.120
G01 X152.966 Y119.165
G01 X159.477 Y114.522
G01 X166.209 Y110.204
G01 X173.148 Y106.219
G01 X180.275 Y102.579
G01 X187.575 Y99.292
G01 X195.029 Y96.366
G01 X202.620 Y93.809
G01 X210.330 Y91.627
G01 X218.139 Y89.826
G01 X226.030 Y88.409
G01 X233.983 Y87.381
G01 X241.980 Y86.744
G01 X250.000 Y86.500
G01 X258.025 Y86.650
G01 X266.035 Y87.194
G01 X274.011 Y88.131
G01 X281.934 Y89.458
G01 X289.784 Y91.173
G01 X297.543 Y93.271
G01 X305.192 Y95.749
G01 X312.712 Y98.599
G01 X320.086 Y101.816
G01 X327.294 Y105.392
G01 X334.321 Y109.319
G01 X341.148 Y113.587
G01 X347.760 Y118.186
G01 X354.140 Y123.106
G01 X360.272 Y128.334
G01 X366.142 Y133.858
G01 X371.736 Y139.665
G01 X377.039 Y145.741
G01 X382.040 Y152.073
G01 X386.725 Y158.643
G01 X391.083 Y165.438
G01 X395.104 Y172.441
G01 X398.777 Y179.634
G01 X402.094 Y187.001
G01 X405.046 Y194.524
G01 X407.626 Y202.185
G01 X409.828 Y209.965
G01 X411.646 Y217.847
G01 X413.075 Y225.810
G01 X414.112 Y233.836
G01 X414.754 Y241.906
G01 X415.000 Y250.000
G01 X414.848 Y258.098
G01 X414.299 Y266.182
G01 X413.353 Y274.231
G01 X412.013 Y282.226
G01 X410.283 Y290.149
G01 X408.164 Y297.979
G01 X405.664 Y305.697
G01 X402.787 Y313.286
G01 X399.540 Y320.727
G01 X395.930 Y328.001
G01 X391.967 Y335.092
G01 X387.660 Y341.982
G01 X383.019 Y348.653
G01 X378.054 Y355.091
G01 X372.778 Y361.279
G01 X367.203 Y367.203
G01 X361.342 Y372.847
G01 X355.210 Y378.199
G01 X348.821 Y383.245
G01 X342.190 Y387.972
G01 X335.333 Y392.370
G01 X328.267 Y396.426
G01 X321.008 Y400.133
G01 X313.573 Y403.479
G01 X305.982 Y406.458
G01 X298.251 Y409.061
G01 X290.399 Y411.283
G01 X282.446 Y413.117
G01 X274.410 Y414.559
G01 X266.311 Y415.605
G01 X258.167 Y416.253
G01 X250.000 Y416.500
G01 X241.828 Y416.346
G01 X233.671 Y415.792
G01 X225.549 Y414.837
G01 X217.481 Y413.485
G01 X209.487 Y411.738
G01 X201.586 Y409.600
G01 X193.797 Y407.076
G01 X186.140 Y404.172
G01 X178.632 Y400.896
G01 X171.291 Y397.253
G01 X164.137 Y393.254
G01 X157.185 Y388.907
G01 X150.453 Y384.224
G01 X143.957 Y379.214
G01 X137.713 Y373.889
G01 X131.736 Y368.264
G01 X126.041 Y362.350
G01 X120.642 Y356.162
G01 X115.551 Y349.714
G01 X110.781 Y343.023
G01 X106.344 Y336.104
G01 X102.251 Y328.974
G01 X98.511 Y321.649
G01 X95.135 Y314.147
G01 X92.130 Y306.487
G01 X89.503 Y298.686
G01 X87.262 Y290.764
G01 X85.412 Y282.739
G01 X83.957 Y274.630
G01 X82.902 Y266.458
G01 X82.249 Y258.241
G01 X82.000 Y250.000
G01 X82.156 Y241.754
G01 X82.716 Y233.524
G01 X83.679 Y225.329
G01 X85.044 Y217.188
G01 X86.807 Y209.122
G01 X88.965 Y201.151
G01 X91.512 Y193.292
G01 X94.442 Y185.566
G01 X97.748 Y177.990
G01 X101.424 Y170.584
G01 X105.459 Y163.366
G01 X109.845 Y156.352
G01 X114.572 Y149.560
G01 X119.627 Y143.006
G01 X124.999 Y136.706
G01 X130.676 Y130.676
G01 X136.643 Y124.930
G01 X142.887 Y119.482
G01 X149.392 Y114.346
G01 X156.143 Y109.534
G01 X163.125 Y105.057
G01 X170.319 Y100.928
G01 X177.710 Y97.155
G01 X185.279 Y93.749
G01 X193.008 Y90.717
G01 X200.878 Y88.068
G01 X208.872 Y85.807
G01 X216.969 Y83.941
G01 X225.150 Y82.474
G01 X233.395 Y81.409
G01 X241.685 Y80.751
G01 X250.000 Y80.500
G01 X258.319 Y80.657
G01 X266.623 Y81.223
G01 X274.891 Y82.195
G01 X283.104 Y83.573
G01 X291.242 Y85.352
G01 X299.285 Y87.529
G01 X307.213 Y90.099
G01 X315.008 Y93.056
G01 X322.651 Y96.392
G01 X330.123 Y100.101
G01 X337.405 Y104.173
G01 X344.482 Y108.598
G01 X351.334 Y113.367
G01 X357.946 Y118.467
G01 X364.301 Y123.888
G01 X370.385 Y129.615
G01 X376.182 Y135.636
G01 X381.677 Y141.935
G01 X386.859 Y148.498
G01 X391.714 Y155.310
G01 X396.229 Y162.354
G01 X400.395 Y169.612
G01 X404.201 Y177.068
G01 X407.637 Y184.705
G01 X410.695 Y192.502
G01 X413.368 Y200.443
G01 X415.648 Y208.507
G01 X417.530 Y216.676
G01 X419.010 Y224.930
G01 X420.083 Y233.248
G01 X420.747 Y241.612
G01 X421.000 Y250.000
G01 X420.841 Y258.393
G01 X420.270 Y266.770
G01 X419.288 Y275.112
G01 X417.898 Y283.397
G01 X416.103 Y291.607
G01 X413.906 Y299.720
G01 X411.313 Y307.719
G01 X408.330 Y315.582
G01 X404.964 Y323.292
G01 X401.222 Y330.830
G01 X397.114 Y338.177
G01 X392.649 Y345.315
G01 X387.838 Y352.228
G01 X382.692 Y358.898
G01 X377.224 Y365.309
G01 X371.446 Y371.446
G01 X365.372 Y377.293
G01 X359.017 Y382.837
G01 X352.395 Y388.064
G01 X345.523 Y392.961
G01 X338.418 Y397.516
G01 X331.095 Y401.718
G01 X323.573 Y405.557
G01 X315.869 Y409.023
G01 X308.003 Y412.107
G01 X299.992 Y414.803
G01 X291.857 Y417.103
G01 X283.617 Y419.002
G01 X275.290 Y420.494
G01 X266.899 Y421.576
G01 X258.462 Y422.245
G01 X250.000 Y422.500
G01 X241.534 Y422.339
G01 X233.083 Y421.763
G01 X224.668 Y420.772
G01 X216.310 Y419.369
G01 X208.029 Y417.558
G01 X199.844 Y415.341
G01 X191.776 Y412.725
G01 X183.844 Y409.716
G01 X176.066 Y406.320
G01 X168.463 Y402.545
G01 X161.052 Y398.400
G01 X153.852 Y393.896
G01 X146.879 Y389.043
G01 X140.151 Y383.852
G01 X133.684 Y378.335
G01 X127.494 Y372.506
G01 X121.595 Y366.379
G01 X116.003 Y359.968
G01 X110.731 Y353.289
G01 X105.792 Y346.357
G01 X101.197 Y339.189
G01 X96.959 Y331.802
G01 X93.087 Y324.214
G01 X89.591 Y316.443
G01 X86.480 Y308.508
G01 X83.762 Y300.428
G01 X81.442 Y292.222
G01 X79.527 Y283.909
G01 X78.022 Y275.510
G01 X76.931 Y267.046
G01 X76.256 Y258.535
G01 X76.000 Y250.000
G01 X76.163 Y241.460
G01 X76.745 Y232.936
G01 X77.744 Y224.448
G01 X79.159 Y216.018
G01 X80.987 Y207.665
G01 X83.223 Y199.409
G01 X85.862 Y191.271
G01 X88.899 Y183.270
G01 X92.324 Y175.425
G01 X96.132 Y167.756
G01 X100.313 Y160.281
G01 X104.857 Y153.018
G01 X109.752 Y145.985
G01 X114.989 Y139.199
G01 X120.554 Y132.677
G01 X126.433 Y126.433
G01 X132.614 Y120.484
G01 X139.080 Y114.844
G01 X145.818 Y109.527
G01 X152.810 Y104.545
G01 X160.040 Y99.911
G01 X167.491 Y95.636
G01 X175.144 Y91.731
G01 X182.983 Y88.206
G01 X190.986 Y85.068
G01 X199.137 Y82.326
G01 X207.414 Y79.987
G01 X215.798 Y78.056
G01 X224.269 Y76.539
G01 X232.807 Y75.438
G01 X241.391 Y74.758
G01 X250.000 Y74.500
G01 X258.614 Y74.665
G01 X267.211 Y75.252
G01 X275.772 Y76.260
G01 X284.275 Y77.688
G01 X292.700 Y79.532
G01 X301.027 Y81.788
G01 X309.235 Y84.450
G01 X317.304 Y87.513
G01 X325.216 Y90.969
G01 X332.951 Y94.809
G01 X340.490 Y99.026
G01 X347.815 Y103.609
G01 X354.908 Y108.548
G01 X361.752 Y113.829
G01 X368.331 Y119.442
G01 X374.628 Y125.372
G01 X380.627 Y131.606
G01 X386.316 Y138.129
G01 X391.678 Y144.924
G01 X396.702 Y151.977
G01 X401.376 Y159.269
G01 X405.687 Y166.784
G01 X409.625 Y174.503
G01 X413.180 Y182.409
G01 X416.344 Y190.481
G01 X419.109 Y198.701
G01 X421.468 Y207.049
G01 X423.415 Y215.506
G01 X424.945 Y224.049
G01 X426.054 Y232.660
G01 X426.740 Y241.317
G01 X427.000 Y250.000
G01 X426.834 Y258.687
G01 X426.241 Y267.358
G01 X425.223 Y275.992
G01 X423.783 Y284.568
G01 X421.923 Y293.064
G01 X419.648 Y301.462
G01 X416.962 Y309.740
G01 X413.873 Y317.878
G01 X410.387 Y325.858
G01 X406.513 Y333.658
G01 X402.260 Y341.261
G01 X397.638 Y348.648
G01 X392.657 Y355.802
G01 X387.330 Y362.704
G01 X381.669 Y369.338
G01 X375.688 Y375.688
G01 X369.401 Y381.739
G01 X362.823 Y387.475
G01 X355.969 Y392.883
G01 X348.857 Y397.950
G01 X341.502 Y402.662
G01 X333.923 Y407.010
G01 X326.138 Y410.981
G01 X318.165 Y414.566
G01 X310.024 Y417.757
G01 X301.734 Y420.545
G01 X293.315 Y422.923
G01 X284.787 Y424.886
G01 X276.171 Y426.429
G01 X267.487 Y427.547
G01 X258.756 Y428.238
G01 X250.000 Y428.500
G01 X241.239 Y428.332
G01 X232.495 Y427.734
G01 X223.788 Y426.707
G01 X215.140 Y425.254
G01 X206.571 Y423.378
G01 X198.103 Y421.083
G01 X189.755 Y418.375
G01 X181.548 Y415.259
G01 X173.501 Y411.743
G01 X165.635 Y407.836
G01 X157.968 Y403.547
G01 X150.518 Y398.885
G01 X143.305 Y393.862
G01 X136.344 Y388.490
G01 X129.655 Y382.781
G01 X123.251 Y376.749
G01 X117.150 Y370.408
G01 X111.365 Y363.774
G01 X105.912 Y356.863
G01 X100.803 Y349.690
G01 X96.051 Y342.273
G01 X91.668 Y334.630
G01 X87.663 Y326.780
G01 X84.048 Y318.740
G01 X80.831 Y310.530
G01 X78.020 Y302.170
G01 X75.622 Y293.679
G01 X73.643 Y285.080
G01 X72.087 Y276.391
G01 X70.960 Y267.634
G01 X70.264 Y258.830
G01 X70.000 Y250.000
G01 X70.170 Y241.166
G01 X70.773 Y232.348
G01 X71.809 Y223.568
G01 X73.275 Y214.847
G01 X75.167 Y206.207
G01 X77.482 Y197.667
G01 X80.213 Y189.249
G01 X83.355 Y180.973
G01 X86.901 Y172.860
G01 X90.841 Y164.928
G01 X95.167 Y157.196
G01 X99.868 Y149.685
G01 X104.933 Y142.411
G01 X110.351 Y135.393
G01 X116.108 Y128.647
G01 X122.190 Y122.190
G01 X128.584 Y116.038
G01 X135.274 Y110.206
G01 X142.244 Y104.707
G01 X149.477 Y99.556
G01 X156.955 Y94.765
G01 X164.662 Y90.345
G01 X172.579 Y86.307
G01 X180.686 Y82.662
G01 X188.965 Y79.419
G01 X197.395 Y76.584
G01 X205.956 Y74.167
G01 X214.628 Y72.171
G01 X223.389 Y70.604
G01 X232.219 Y69.467
G01 X241.097 Y68.765
G01 X250.000 Y68.500
G01 X258.908 Y68.672
G01 X267.799 Y69.281
G01 X276.652 Y70.325
G01 X285.445 Y71.804
G01 X294.158 Y73.712
G01 X302.768 Y76.046
G01 X311.256 Y78.801
G01 X319.601 Y81.969
G01 X327.782 Y85.545
G01 X335.779 Y89.518
G01 X343.575 Y93.880
G01 X351.149 Y98.621
G01 X358.482 Y103.728
G01 X365.559 Y109.191
G01 X372.360 Y114.996
G01 X378.870 Y121.130
G01 X385.073 Y127.577
G01 X390.954 Y134.322
G01 X396.498 Y141.350
G01 X401.691 Y148.643
G01 X406.522 Y156.184
G01 X410.978 Y163.955
G01 X415.049 Y171.938
G01 X418.723 Y180.112
G01 X421.994 Y188.460
G01 X424.851 Y196.960
G01 X427.288 Y205.592
G01 X429.300 Y214.335
G01 X430.880 Y223.169
G01 X432.026 Y232.072
G01 X432.733 Y241.023
G01 X433.000 Y250.000
G01 X432.826 Y258.982
G01 X432.212 Y267.946
G01 X431.158 Y276.872
G01 X429.668 Y285.738
G01 X427.743 Y294.522
G01 X425.389 Y303.204
G01 X422.612 Y311.761
G01 X419.416 Y320.175
G01 X415.811 Y328.423
G01 X411.805 Y336.487
G01 X407.407 Y344.346
G01 X402.627 Y351.982
G01 X397.476 Y359.376
G01 X391.968 Y366.510
G01 X386.115 Y373.367
G01 X379.931 Y379.931
G01 X373.430 Y386.185
G01 X366.629 Y392.113
G01 X359.544 Y397.702
G01 X352.190 Y402.938
G01 X344.587 Y407.809
G01 X336.752 Y412.301
G01 X328.704 Y416.405
G01 X320.462 Y420.109
G01 X312.046 Y423.406
G01 X303.476 Y426.286
G01 X294.773 Y428.743
G01 X285.958 Y430.771
G01 X277.051 Y432.364
G01 X268.075 Y433.518
G01 X259.051 Y434.231
G01 X250.000 Y434.500
G01 X240.945 Y434.325
G01 X231.907 Y433.705
G01 X222.908 Y432.642
G01 X213.969 Y431.139
G01 X205.113 Y429.198
G01 X196.361 Y426.825
G01 X187.733 Y424.024
G01 X179.251 Y420.802
G01 X170.936 Y417.167
G01 X162.806 Y413.128
G01 X154.883 Y408.693
G01 X147.185 Y403.874
G01 X139.730 Y398.681
G01 X132.538 Y393.128
G01 X125.625 Y387.226
G01 X119.008 Y380.992
G01 X112.704 Y374.438
G01 X106.727 Y367.581
G01 X101.093 Y360.437
G01 X95.814 Y353.024
G01 X90.905 Y345.358
G01 X86.376 Y337.459
G01 X82.239 Y329.345
G01 X78.505 Y321.036
G01 X75.182 Y312.551
G01 X72.278 Y303.911
G01 X69.802 Y295.137
G01 X67.758 Y286.250
G01 X66.152 Y277.271
G01 X64.989 Y268.222
G01 X64.271 Y259.124
G01 X64.000 Y250.000
G01 X64.177 Y240.871
G01 X64.802 Y231.760
G01 X65.874 Y222.687
G01 X67.390 Y213.677
G01 X69.347 Y204.749
G01 X71.740 Y195.925
G01 X74.564 Y187.228
G01 X77.812 Y178.677
G01 X81.477 Y170.294
G01 X85.549 Y162.099
G01 X90.020 Y154.112
G01 X94.879 Y146.351
G01 X100.114 Y138.837
G01 X105.713 Y131.587
G01 X111.662 Y124.618
G01 X117.948 Y117.948
G01 X124.555 Y111.593
G01 X131.468 Y105.568
G01 X138.669 Y99.888
G01 X146.143 Y94.567
G01 X153.871 Y89.618
G01 X161.834 Y85.053
G01 X170.014 Y80.883
G01 X178.390 Y77.119
G01 X186.944 Y73.769
G01 X195.653 Y70.843
G01 X204.498 Y68.346
G01 X213.457 Y66.287
G01 X222.509 Y64.669
G01 X231.631 Y63.496
G01 X240.802 Y62.773
G01 X250.000 Y62.500
G01 X259.202 Y62.679
G01 X268.387 Y63.310
G01 X277.533 Y64.390
G01 X286.616 Y65.919
G01 X295.616 Y67.892
G01 X304.510 Y70.305
G01 X313.277 Y73.152
G01 X321.897 Y76.426
G01 X330.347 Y80.121
G01 X338.608 Y84.226
G01 X346.659 Y88.734
G01 X354.482 Y93.632
G01 X362.057 Y98.909
G01 X369.365 Y104.553
G01 X376.389 Y110.551
G01 X383.113 Y116.887
G01 X389.519 Y123.548
G01 X395.592 Y130.516
G01 X401.317 Y137.776
G01 X406.680 Y145.310
G01 X411.668 Y153.100
G01 X416.270 Y161.127
G01 X420.473 Y169.372
G01 X424.267 Y177.816
G01 X427.643 Y186.438
G01 X430.593 Y195.218
G01 X433.109 Y204.134
G01 X435.185 Y213.165
G01 X436.815 Y222.289
G01 X437.997 Y231.484
G01 X438.726 Y240.729
G01 X439.000 Y250.000
G01 X438.819 Y259.276
G01 X438.183 Y268.534
G01 X437.093 Y277.753
G01 X435.552 Y286.909
G01 X433.563 Y295.980
G01 X431.131 Y304.945
G01 X428.261 Y313.783
G01 X424.960 Y322.471
G01 X421.235 Y330.988
G01 X417.097 Y339.315
G01 X412.553 Y347.431
G01 X407.615 Y355.315
G01 X402.296 Y362.950
G01 X396.606 Y370.317
G01 X390.561 Y377.397
G01 X384.174 Y384.174
G01 X377.460 Y390.630
G01 X370.436 Y396.751
G01 X363.118 Y402.522
G01 X355.524 Y407.927
G01 X347.671 Y412.955
G01 X339.580 Y417.593
G01 X331.269 Y421.829
G01 X322.758 Y425.653
G01 X314.067 Y429.055
G01 X305.218 Y432.028
G01 X296.231 Y434.564
G01 X287.128 Y436.656
G01 X277.932 Y438.299
G01 X268.663 Y439.489
G01 X259.345 Y440.224
G01 X250.000 Y440.500
G01 X240.650 Y440.317
G01 X231.319 Y439.676
G01 X222.027 Y438.577
G01 X212.799 Y437.023
G01 X203.655 Y435.018
G01 X194.619 Y432.566
G01 X185.712 Y429.673
G01 X176.955 Y426.346
G01 X168.370 Y422.591
G01 X159.978 Y418.419
G01 X151.798 Y413.840
G01 X143.851 Y408.863
G01 X136.156 Y403.500
G01 X128.732 Y397.766
G01 X121.596 Y391.672
G01 X114.766 Y385.234
G01 X108.258 Y378.467
G01 X102.089 Y371.387
G01 X96.274 Y364.011
G01 X90.826 Y356.357
G01 X85.758 Y348.443
G01 X81.085 Y340.287
G01 X76.815 Y331.910
G01 X72.962 Y323.332
G01 X69.532 Y314.572
G01 X66.537 Y305.653
G01 X63.981 Y296.595
G01 X61.873 Y287.421
G01 X60.217 Y278.152
G01 X59.018 Y268.810
G01 X58.278 Y259.419
G01 X58.000 Y250.000
G01 X58.184 Y240.577
G01 X58.831 Y231.172
G01 X59.939 Y221.807
G01 X61.505 Y212.506
G01 X63.527 Y203.291
G01 X65.998 Y194.184
G01 X68.915 Y185.207
G01 X72.269 Y176.381
G01 X76.053 Y167.729
G01 X80.258 Y159.271
G01 X84.874 Y151.027
G01 X89.890 Y143.018
G01 X95.295 Y135.263
G01 X101.075 Y127.780
G01 X107.216 Y120.588
G01 X113.705 Y113.705
G01 X120.526 Y107.147
G01 X127.661 Y100.930
G01 X135.095 Y95.069
G01 X142.810 Y89.578
G01 X150.786 Y84.472
G01 X159.006 Y79.762
G01 X167.448 Y75.459
G01 X176.094 Y71.576
G01 X184.922 Y68.120
G01 X193.912 Y65.101
G01 X203.040 Y62.526
G01 X212.287 Y60.402
G01 X221.628 Y58.733
G01 X231.043 Y57.525
G01 X240.508 Y56.780
G01 X250.000 Y56.500
G01 X259.497 Y56.686
G01 X268.976 Y57.338
G01 X278.413 Y58.455
G01 X287.787 Y60.034
G01 X297.074 Y62.072
G01 X306.252 Y64.563
G01 X315.299 Y67.502
G01 X324.193 Y70.883
G01 X332.912 Y74.697
G01 X341.436 Y78.935
G01 X349.744 Y83.587
G01 X357.815 Y88.643
G01 X365.631 Y94.090
G01 X373.171 Y99.915
G01 X380.419 Y106.105
G01 X387.355 Y112.645
G01 X393.964 Y119.518
G01 X400.230 Y126.710
G01 X406.136 Y134.202
G01 X411.669 Y141.976
G01 X416.815 Y150.015
G01 X421.561 Y158.299
G01 X425.897 Y166.807
G01 X429.810 Y175.520
G01 X433.292 Y184.417
G01 X436.334 Y193.476
G01 X438.929 Y202.676
G01 X441.069 Y211.994
G01 X442.750 Y221.408
G01 X443.968 Y230.896
G01 X444.718 Y240.434
G01 X445.000 Y250.000
G01 X444.812 Y259.570
G01 X444.154 Y269.123
G01 X443.029 Y278.633
G01 X441.437 Y288.079
G01 X439.383 Y297.438
G01 X436.873 Y306.687
G01 X433.910 Y315.804
G01 X430.503 Y324.767
G01 X426.659 Y333.554
G01 X422.388 Y342.143
G01 X417.699 Y350.515
G01 X412.604 Y358.649
G01 X407.115 Y366.524
G01 X401.244 Y374.123
G01 X395.006 Y381.426
G01 X388.416 Y388.416
G01 X381.489 Y395.076
G01 X374.242 Y401.389
G01 X366.692 Y407.341
G01 X358.857 Y412.916
G01 X350.756 Y418.101
G01 X342.408 Y422.884
G01 X333.834 Y427.253
G01 X325.054 Y431.196
G01 X316.088 Y434.704
G01 X306.959 Y437.770
G01 X297.689 Y440.384
G01 X288.299 Y442.540
G01 X278.812 Y444.234
G01 X269.251 Y445.461
G01 X259.639 Y446.216
G01 X250.000 Y446.500
G01 X240.356 Y446.310
G01 X230.730 Y445.647
G01 X221.147 Y444.512
G01 X211.628 Y442.908
G01 X202.197 Y440.838
G01 X192.877 Y438.308
G01 X183.691 Y435.322
G01 X174.659 Y431.889
G01 X165.805 Y428.015
G01 X157.150 Y423.711
G01 X148.714 Y418.986
G01 X140.518 Y413.851
G01 X132.582 Y408.320
G01 X124.925 Y402.404
G01 X117.566 Y396.118
G01 X110.523 Y389.477
G01 X103.813 Y382.496
G01 X97.451 Y375.194
G01 X91.454 Y367.585
G01 X85.837 Y359.690
G01 X80.612 Y351.527
G01 X75.793 Y343.116
G01 X71.391 Y334.476
G01 X67.418 Y325.628
G01 X63.883 Y316.594
G01 X60.795 Y307.395
G01 X58.161 Y298.053
G01 X55.988 Y288.591
G01 X54.282 Y279.032
G01 X53.047 Y269.398
G01 X52.285 Y259.713
G01 X52.000 Y250.000
G01 X52.192 Y240.282
G01 X52.860 Y230.583
G01 X54.004 Y220.927
G01 X55.621 Y211.336
G01 X57.706 Y201.833
G01 X60.257 Y192.442
G01 X63.265 Y183.185
G01 X66.725 Y174.085
G01 X70.629 Y165.164
G01 X74.966 Y156.442
G01 X79.727 Y147.943
G01 X84.901 Y139.685
G01 X90.475 Y131.689
G01 X96.437 Y123.974
G01 X102.771 Y116.559
G01 X109.463 Y109.463
G01 X116.496 Y102.701
G01 X123.855 Y96.292
G01 X131.521 Y90.250
G01 X139.476 Y84.590
G01 X147.702 Y79.325
G01 X156.177 Y74.470
G01 X164.883 Y70.036
G01 X173.798 Y66.032
G01 X182.901 Y62.471
G01 X192.170 Y59.360
G01 X201.582 Y56.706
G01 X211.116 Y54.517
G01 X220.748 Y52.798
G01 X230.455 Y51.554
G01 X240.213 Y50.787
G01 X250.000 Y50.500
G01 X259.791 Y50.693
G01 X269.564 Y51.367
G01 X279.293 Y52.520
G01 X288.957 Y54.149
G01 X298.531 Y56.251
G01 X307.993 Y58.821
G01 X317.320 Y61.853
G01 X326.489 Y65.340
G01 X335.478 Y69.273
G01 X344.265 Y73.643
G01 X352.829 Y78.441
G01 X361.149 Y83.654
G01 X369.205 Y89.271
G01 X376.978 Y95.277
G01 X384.448 Y101.659
G01 X391.598 Y108.402
G01 X398.410 Y115.489
G01 X404.868 Y122.903
G01 X410.955 Y130.627
G01 X416.658 Y138.643
G01 X421.961 Y146.930
G01 X426.853 Y155.470
G01 X431.320 Y164.242
G01 X435.353 Y173.224
G01 X438.941 Y182.396
G01 X442.076 Y191.734
G01 X444.749 Y201.218
G01 X446.954 Y210.823
G01 X448.685 Y220.528
G01 X449.939 Y230.308
G01 X450.711 Y240.140
G01 X451.000 Y250.000
G01 X450.805 Y259.865
G01 X450.125 Y269.711
G01 X448.964 Y279.513
G01 X447.322 Y289.250
G01 X445.204 Y298.896
G01 X442.614 Y308.429
G01 X439.559 Y317.825
G01 X436.046 Y327.063
G01 X432.083 Y336.119
G01 X427.680 Y344.972
G01 X422.846 Y353.600
G01 X417.593 Y361.982
G01 X411.934 Y370.099
G01 X405.882 Y377.929
G01 X399.452 Y385.456
G01 X392.659 Y392.659
G01 X385.518 Y399.522
G01 X378.048 Y406.027
G01 X370.266 Y412.160
G01 X362.190 Y417.905
G01 X353.841 Y423.248
G01 X345.237 Y428.176
G01 X336.400 Y432.676
G01 X327.350 Y436.739
G01 X318.110 Y440.354
G01 X308.701 Y443.511
G01 X299.147 Y446.204
G01 X289.469 Y448.425
G01 X279.692 Y450.169
G01 X269.839 Y451.432
G01 X259.934 Y452.209
G01 X250.000 Y452.500
G01 X240.061 Y452.303
G01 X230.142 Y451.618
G01 X220.266 Y450.447
G01 X210.458 Y448.793
G01 X200.740 Y446.659
G01 X191.136 Y444.050
G01 X181.669 Y440.972
G01 X172.363 Y437.432
G01 X163.240 Y433.439
G01 X154.321 Y429.002
G01 X145.629 Y424.132
G01 X137.185 Y418.840
G01 X129.008 Y413.139
G01 X121.119 Y407.042
G01 X113.537 Y400.564
G01 X106.281 Y393.719
G01 X99.367 Y386.526
G01 X92.813 Y379.000
G01 X86.635 Y371.160
G01 X80.848 Y363.024
G01 X75.466 Y354.612
G01 X70.501 Y345.944
G01 X65.968 Y337.041
G01 X61.875 Y327.924
G01 X58.234 Y318.615
G01 X55.053 Y309.136
G01 X52.341 Y299.511
G01 X50.104 Y289.762
G01 X48.347 Y279.912
G01 X47.076 Y269.986
G01 X46.293 Y260.008
G01 X46.000 Y250.000
G01 X46.199 Y239.988
G01 X46.889 Y229.995
G01 X48.069 Y220.046
G01 X49.736 Y210.165
G01 X51.886 Y200.375
G01 X54.515 Y190.700
G01 X57.616 Y181.164
G01 X61.182 Y171.789
G01 X65.205 Y162.598
G01 X69.675 Y153.614
G01 X74.581 Y144.858
G01 X79.912 Y136.351
G01 X85.656 Y128.114
G01 X91.799 Y120.167
G01 X98.325 Y112.530
G01 X105.220 Y105.220
G01 X112.467 Y98.256
G01 X120.049 Y91.654
G01 X127.947 Y85.430
G01 X136.143 Y79.601
G01 X144.617 Y74.179
G01 X153.349 Y69.179
G01 X162.318 Y64.612
G01 X171.502 Y60.489
G01 X180.880 Y56.822
G01 X190.428 Y53.618
G01 X200.125 Y50.886
G01 X209.946 Y48.633
G01 X219.868 Y46.863
G01 X229.867 Y45.583
G01 X239.919 Y44.794
G01 X250.000 Y44.500
G01 X260.086 Y44.701
G01 X270.152 Y45.396
G01 X280.174 Y46.585
G01 X290.128 Y48.265
G01 X299.989 Y50.431
G01 X309.735 Y53.080
G01 X319.341 Y56.204
G01 X328.785 Y59.796
G01 X338.043 Y63.849
G01 X347.093 Y68.352
G01 X355.913 Y73.295
G01 X364.482 Y78.665
G01 X372.779 Y84.451
G01 X380.784 Y90.639
G01 X388.478 Y97.214
G01 X395.841 Y104.159
G01 X402.856 Y111.459
G01 X409.506 Y119.097
G01 X415.775 Y127.053
G01 X421.647 Y135.309
G01 X427.108 Y143.846
G01 X432.144 Y152.642
G01 X436.744 Y161.676
G01 X440.897 Y170.928
G01 X444.591 Y180.374
G01 X447.818 Y189.993
G01 X450.569 Y199.760
G01 X452.839 Y209.653
G01 X454.620 Y219.647
G01 X455.910 Y229.720
G01 X456.704 Y239.845
G01 X457.000 Y250.000
G01 X456.797 Y260.159
G01 X456.097 Y270.299
G01 X454.899 Y280.394
G01 X453.206 Y290.420
G01 X451.024 Y300.354
G01 X448.356 Y310.171
G01 X445.209 Y319.847
G01 X441.590 Y329.359
G01 X437.507 Y338.684
G01 X432.971 Y347.800
G01 X427.992 Y356.684
G01 X422.582 Y365.316
G01 X416.753 Y373.673
G01 X410.520 Y381.736
G01 X403.898 Y389.485
G01 X396.901 Y396.901
G01 X389.548 Y403.967
G01 X381.855 Y410.665
G01 X373.840 Y416.979
G01 X365.524 Y422.894
G01 X356.925 Y428.394
G01 X348.065 Y433.467
G01 X338.965 Y438.100
G01 X329.646 Y442.282
G01 X320.131 Y446.003
G01 X310.443 Y449.253
G01 X300.604 Y452.024
G01 X290.640 Y454.310
G01 X280.573 Y456.104
G01 X270.427 Y457.403
G01 X260.228 Y458.202
G01 X250.000 Y458.500
G01 X239.767 Y458.296
G01 X229.554 Y457.589
G01 X219.386 Y456.382
G01 X209.287 Y454.678
G01 X199.282 Y452.479
G01 X189.394 Y449.791
G01 X179.648 Y446.621
G01 X170.067 Y442.975
G01 X160.674 Y438.863
G01 X151.493 Y434.294
G01 X142.544 Y429.279
G01 X133.851 Y423.829
G01 X125.434 Y417.958
G01 X117.313 Y411.680
G01 X109.508 Y405.009
G01 X102.038 Y397.962
G01 X94.921 Y390.555
G01 X88.175 Y382.806
G01 X81.816 Y374.734
G01 X75.859 Y366.357
G01 X70.319 Y357.696
G01 X65.210 Y348.772
G01 X60.544 Y339.606
G01 X56.332 Y330.220
G01 X52.585 Y320.636
G01 X49.312 Y310.878
G01 X46.521 Y300.969
G01 X44.219 Y290.932
G01 X42.412 Y280.793
G01 X41.105 Y270.574
G01 X40.300 Y260.302
G01 X40.000 Y250.000
G01 X40.206 Y239.693
G01 X40.918 Y229.407
G01 X42.134 Y219.166
G01 X43.851 Y208.994
G01 X46.066 Y198.917
G01 X48.773 Y188.959
G01 X51.967 Y179.143
G01 X55.639 Y169.493
G01 X59.781 Y160.033
G01 X64.383 Y150.786
G01 X69.435 Y141.773
G01 X74.924 Y133.018
G01 X80.837 Y124.540
G01 X87.161 Y116.361
G01 X93.879 Y108.500
G01 X100.977 Y100.977
G01 X108.437 Y93.810
G01 X116.242 Y87.016
G01 X124.373 Y80.611
G01 X132.809 Y74.612
G01 X141.532 Y69.033
G01 X150.521 Y63.887
G01 X159.752 Y59.188
G01 X169.206 Y54.946
G01 X178.858 Y51.172
G01 X188.686 Y47.876
G01 X198.667 Y45.066
G01 X208.775 Y42.748
G01 X218.987 Y40.928
G01 X229.279 Y39.612
G01 X239.624 Y38.802
G01 X250.000 Y38.500
G01 X260.380 Y38.708
G01 X270.740 Y39.425
G01 X281.054 Y40.650
G01 X291.298 Y42.380
G01 X301.447 Y44.611
G01 X311.477 Y47.338
G01 X321.363 Y50.554
G01 X331.081 Y54.253
G01 X340.608 Y58.425
G01 X349.921 Y63.060
G01 X358.998 Y68.148
G01 X367.816 Y73.676
G01 X376.353 Y79.632
G01 X384.591 Y86.001
G01 X392.507 Y92.768
G01 X400.083 Y99.917
G01 X407.302 Y107.430
G01 X414.144 Y115.291
G01 X420.594 Y123.479
G01 X426.635 Y131.976
G01 X432.254 Y140.761
G01 X437.436 Y149.813
G01 X442.168 Y159.111
G01 X446.440 Y168.632
G01 X450.240 Y178.353
G01 X453.559 Y188.251
G01 X456.389 Y198.302
G01 X458.723 Y208.482
G01 X460.555 Y218.767
G01 X461.881 Y229.132
G01 X462.697 Y239.551
G01 X463.000 Y250.000
G01 X462.790 Y260.454
G01 X462.068 Y270.887
G01 X460.834 Y281.274
G01 X459.091 Y291.591
G01 X456.844 Y301.812
G01 X454.097 Y311.912
G01 X450.858 Y321.868
G01 X447.133 Y331.655
G01 X442.931 Y341.250
G01 X438.263 Y350.628
G01 X433.138 Y359.769
G01 X427.571 Y368.649
G01 X421.573 Y377.247
G01 X415.159 Y385.542
G01 X408.344 Y393.514
G01 X401.144 Y401.144
G01 X393.577 Y408.413
G01 X385.661 Y415.303
G01 X377.414 Y421.799
G01 X368.857 Y427.883
G01 X360.010 Y433.541
G01 X350.894 Y438.759
G01 X341.530 Y443.524
G01 X331.942 Y447.826
G01 X322.152 Y451.652
G01 X312.184 Y454.995
G01 X302.062 Y457.844
G01 X291.810 Y460.195
G01 X281.453 Y462.039
G01 X271.015 Y463.374
G01 X260.523 Y464.195
G01 X250.000 Y464.500
G01 X239.473 Y464.288
G01 X228.966 Y463.560
G01 X218.506 Y462.317
G01 X208.117 Y460.562
G01 X197.824 Y458.299
G01 X187.652 Y455.533
G01 X177.627 Y452.270
G01 X167.771 Y448.519
G01 X158.109 Y444.287
G01 X148.664 Y439.586
G01 X139.460 Y434.425
G01 X130.518 Y428.818
G01 X121.859 Y422.777
G01 X113.506 Y416.318
G01 X105.478 Y409.455
G01 X97.795 Y402.205
G01 X90.476 Y394.585
G01 X83.537 Y386.613
G01 X76.997 Y378.308
G01 X70.870 Y369.691
G01 X65.173 Y360.781
G01 X59.918 Y351.601
G01 X55.120 Y342.172
G01 X50.788 Y332.516
G01 X46.935 Y322.658
G01 X43.570 Y312.620
G01 X40.701 Y302.427
G01 X38.334 Y292.103
G01 X36.477 Y281.673
G01 X35.133 Y271.163
G01 X34.307 Y260.596
G01 X34.000 Y250.000
G01 X34.213 Y239.399
G01 X34.947 Y228.819
G01 X36.199 Y218.286
G01 X37.966 Y207.824
G01 X40.246 Y197.459
G01 X43.032 Y187.217
G01 X46.318 Y177.121
G01 X50.096 Y167.197
G01 X54.357 Y157.468
G01 X59.092 Y147.957
G01 X64.288 Y138.689
G01 X69.935 Y129.684
G01 X76.018 Y120.966
G01 X82.522 Y112.555
G01 X89.434 Y104.471
G01 X96.735 Y96.735
G01 X104.408 Y89.364
G01 X112.436 Y82.378
G01 X120.798 Y75.792
G01 X129.476 Y69.623
G01 X138.448 Y63.886
G01 X147.692 Y58.596
G01 X157.187 Y53.764
G01 X166.910 Y49.403
G01 X176.837 Y45.523
G01 X186.945 Y42.135
G01 X197.209 Y39.246
G01 X207.604 Y36.863
G01 X218.107 Y34.993
G01 X228.690 Y33.641
G01 X239.330 Y32.809
G01 X250.000 Y32.500
G01 X260.675 Y32.715
G01 X271.328 Y33.454
G01 X281.935 Y34.715
G01 X292.469 Y36.495
G01 X302.905 Y38.791
G01 X313.219 Y41.596
G01 X323.384 Y44.905
G01 X333.377 Y48.710
G01 X343.174 Y53.001
G01 X352.750 Y57.769
G01 X362.082 Y63.002
G01 X371.149 Y68.688
G01 X379.928 Y74.813
G01 X388.397 Y81.363
G01 X396.536 Y88.322
G01 X404.326 Y95.674
G01 X411.747 Y103.401
G01 X418.782 Y111.484
