;  Created by Sandify
;  https://sandify.org
;  Version: 0.2.6
;
;  Machine type: Rectangular
;    Min X (mm): 0
;    Max X (mm): 500
;    Min Y (mm): 0
;    Max Y (mm): 500
;  Content type: shape
;  Layer:
;    Shape: Text
;    Name: text
;    Text: Enjoy Your Day
;    Font: Monospace
;    Rotate: Top
;    Visible: true
;    Initial width: 28
;    Initial height: 30
;    X offset: 2
;    Y offset: -250
;    Rotate (degrees): 0
;    Reverse path: false
;    Fine tuning:
;      Connect to next layer: along perimeter
;      Draw portion of path (%): 100
;      Backtrack at end (%): 0
;      Rotate starting point (%): 0
;  Reverse export path: false
;
; File name: 'Enjoy Your Day (W E) (BJ)'
; File type: gcode
;

G01 X53.581 Y252.398
G01 X15.701 Y300.583
G01 X41.121 Y321.558
G01 X15.701 Y300.583
G01 X34.641 Y276.490
G01 X46.135 Y286.411
G01 X34.641 Y276.490
G01 X53.581 Y252.398
G01 X74.926 Y270.010
G01 X53.581 Y252.398
G01 X58.992 Y245.514
G01 X82.833 Y264.933
G01 X78.090 Y272.361
G01 X44.889 Y324.357
G01 X100.970 Y287.602
G01 X72.137 Y342.508
G01 X100.970 Y287.602
G01 X44.889 Y324.357
G01 X78.090 Y272.361
G01 X82.833 Y264.933
G01 X108.364 Y281.704
G01 X120.001 Y288.165
G01 X116.300 Y296.245
G01 X115.699 Y295.949
G01 X115.084 Y295.686
G01 X114.457 Y295.458
G01 X113.818 Y295.263
G01 X113.170 Y295.104
G01 X112.513 Y294.979
G01 X111.850 Y294.890
G01 X111.180 Y294.836
G01 X110.507 Y294.818
G01 X109.830 Y294.836
G01 X109.152 Y294.889
G01 X108.475 Y294.977
G01 X107.799 Y295.101
G01 X107.126 Y295.260
G01 X106.459 Y295.454
G01 X105.797 Y295.682
G01 X105.143 Y295.944
G01 X104.499 Y296.240
G01 X103.865 Y296.568
G01 X103.244 Y296.928
G01 X102.637 Y297.320
G01 X102.045 Y297.743
G01 X101.470 Y298.195
G01 X100.914 Y298.676
G01 X100.377 Y299.184
G01 X99.862 Y299.719
G01 X99.369 Y300.280
G01 X98.900 Y300.866
G01 X98.457 Y301.474
G01 X98.040 Y302.104
G01 X97.650 Y302.755
G01 X97.289 Y303.424
G01 X97.650 Y302.755
G01 X98.040 Y302.104
G01 X98.457 Y301.474
G01 X98.900 Y300.866
G01 X99.369 Y300.280
G01 X99.862 Y299.719
G01 X100.377 Y299.184
G01 X100.914 Y298.676
G01 X101.470 Y298.195
G01 X102.045 Y297.743
G01 X102.637 Y297.320
G01 X103.244 Y296.928
G01 X103.865 Y296.568
G01 X104.499 Y296.240
G01 X105.143 Y295.944
G01 X105.797 Y295.682
G01 X106.459 Y295.454
G01 X107.126 Y295.260
G01 X107.799 Y295.101
G01 X108.475 Y294.977
G01 X109.152 Y294.889
G01 X109.830 Y294.836
G01 X110.507 Y294.818
G01 X111.180 Y294.836
G01 X111.850 Y294.890
G01 X112.513 Y294.979
G01 X113.170 Y295.104
G01 X113.818 Y295.263
G01 X114.457 Y295.458
G01 X115.084 Y295.686
G01 X115.699 Y295.949
G01 X116.300 Y296.245
G01 X116.886 Y296.573
G01 X117.456 Y296.934
G01 X118.008 Y297.325
G01 X118.542 Y297.748
G01 X119.057 Y298.199
G01 X119.551 Y298.680
G01 X120.023 Y299.188
G01 X120.472 Y299.722
G01 X120.897 Y300.282
G01 X121.298 Y300.866
G01 X121.674 Y301.473
G01 X122.023 Y302.101
G01 X122.345 Y302.750
G01 X122.639 Y303.417
G01 X122.904 Y304.102
G01 X123.141 Y304.802
G01 X123.347 Y305.517
G01 X123.523 Y306.243
G01 X123.668 Y306.981
G01 X123.782 Y307.728
G01 X123.864 Y308.482
G01 X123.915 Y309.242
G01 X123.932 Y310.006
G01 X123.918 Y310.772
G01 X123.871 Y311.538
G01 X123.791 Y312.302
G01 X123.678 Y313.063
G01 X123.533 Y313.818
G01 X123.355 Y314.567
G01 X123.145 Y315.306
G01 X122.903 Y316.034
G01 X122.629 Y316.749
G01 X104.950 Y360.036
G01 X122.629 Y316.749
G01 X122.903 Y316.034
G01 X123.145 Y315.306
G01 X123.355 Y314.567
G01 X123.533 Y313.818
G01 X123.678 Y313.063
G01 X123.791 Y312.302
G01 X123.871 Y311.538
G01 X123.918 Y310.772
G01 X123.932 Y310.006
G01 X123.915 Y309.242
G01 X123.864 Y308.482
G01 X123.782 Y307.728
G01 X123.668 Y306.981
G01 X123.523 Y306.243
G01 X123.347 Y305.517
G01 X123.141 Y304.802
G01 X122.904 Y304.102
G01 X122.639 Y303.417
G01 X122.345 Y302.750
G01 X122.023 Y302.101
G01 X121.674 Y301.473
G01 X121.298 Y300.866
G01 X120.897 Y300.282
G01 X120.472 Y299.722
G01 X120.023 Y299.188
G01 X119.551 Y298.680
G01 X119.057 Y298.199
G01 X118.542 Y297.748
G01 X118.008 Y297.325
G01 X117.456 Y296.934
G01 X116.886 Y296.573
G01 X116.300 Y296.245
G01 X120.001 Y288.165
G01 X135.330 Y295.661
G01 X147.511 Y300.845
G01 X144.581 Y309.280
G01 X143.949 Y309.067
G01 X143.294 Y308.925
G01 X142.618 Y308.853
G01 X141.920 Y308.852
G01 X141.203 Y308.920
G01 X140.467 Y309.058
G01 X139.715 Y309.266
G01 X138.948 Y309.542
G01 X138.167 Y309.887
G01 X137.374 Y310.299
G01 X136.570 Y310.777
G01 X135.757 Y311.320
G01 X134.937 Y311.927
G01 X134.112 Y312.596
G01 X133.283 Y313.326
G01 X132.453 Y314.115
G01 X131.623 Y314.961
G01 X130.795 Y315.863
G01 X129.972 Y316.818
G01 X129.155 Y317.824
G01 X128.346 Y318.878
G01 X127.548 Y319.980
G01 X126.763 Y321.125
G01 X125.993 Y322.312
G01 X125.239 Y323.538
G01 X124.505 Y324.799
G01 X123.791 Y326.094
G01 X123.101 Y327.420
G01 X122.435 Y328.772
G01 X121.797 Y330.149
G01 X121.188 Y331.547
G01 X120.610 Y332.964
G01 X120.065 Y334.395
G01 X119.554 Y335.837
G01 X119.079 Y337.288
G01 X118.642 Y338.744
G01 X118.245 Y340.201
G01 X117.887 Y341.657
G01 X117.572 Y343.107
G01 X117.299 Y344.549
G01 X117.070 Y345.979
G01 X116.886 Y347.393
G01 X116.748 Y348.788
G01 X116.656 Y350.161
G01 X116.610 Y351.509
G01 X116.611 Y352.827
G01 X116.659 Y354.114
G01 X116.754 Y355.365
G01 X116.895 Y356.578
G01 X117.083 Y357.749
G01 X117.318 Y358.876
G01 X117.597 Y359.955
G01 X117.922 Y360.984
G01 X118.290 Y361.961
G01 X118.700 Y362.882
G01 X119.152 Y363.745
G01 X119.644 Y364.548
G01 X120.175 Y365.289
G01 X120.743 Y365.965
G01 X121.346 Y366.575
G01 X121.983 Y367.118
G01 X122.651 Y367.591
G01 X123.349 Y367.993
G01 X124.074 Y368.324
G01 X124.825 Y368.582
G01 X125.598 Y368.766
G01 X126.393 Y368.876
G01 X127.205 Y368.911
G01 X128.034 Y368.872
G01 X128.877 Y368.758
G01 X129.730 Y368.569
G01 X130.593 Y368.306
G01 X131.461 Y367.970
G01 X132.334 Y367.560
G01 X133.208 Y367.079
G01 X134.081 Y366.527
G01 X134.952 Y365.907
G01 X135.816 Y365.218
G01 X136.673 Y364.464
G01 X137.521 Y363.645
G01 X138.356 Y362.765
G01 X139.177 Y361.825
G01 X139.982 Y360.828
G01 X140.770 Y359.776
G01 X141.538 Y358.672
G01 X142.284 Y357.519
G01 X143.008 Y356.320
G01 X143.707 Y355.078
G01 X144.380 Y353.796
G01 X145.027 Y352.478
G01 X145.644 Y351.126
G01 X146.232 Y349.744
G01 X146.790 Y348.337
G01 X147.316 Y346.906
G01 X147.810 Y345.457
G01 X148.270 Y343.992
G01 X148.697 Y342.515
G01 X149.089 Y341.031
G01 X149.446 Y339.542
G01 X149.768 Y338.052
G01 X150.055 Y336.566
G01 X150.305 Y335.086
G01 X150.519 Y333.617
G01 X150.696 Y332.161
G01 X150.837 Y330.724
G01 X150.942 Y329.307
G01 X151.010 Y327.915
G01 X151.042 Y326.550
G01 X151.038 Y325.217
G01 X150.997 Y323.918
G01 X150.921 Y322.656
G01 X150.809 Y321.434
G01 X150.662 Y320.255
G01 X150.480 Y319.122
G01 X150.264 Y318.038
G01 X150.014 Y317.004
G01 X149.730 Y316.024
G01 X149.414 Y315.099
G01 X149.064 Y314.232
G01 X148.684 Y313.424
G01 X148.272 Y312.677
G01 X147.829 Y311.994
G01 X147.357 Y311.374
G01 X146.856 Y310.820
G01 X146.327 Y310.332
G01 X145.771 Y309.913
G01 X145.189 Y309.562
G01 X144.581 Y309.280
G01 X147.511 Y300.845
G01 X163.462 Y306.663
G01 X176.065 Y310.518
G01 X166.484 Y349.696
G01 X143.603 Y375.447
G01 X166.484 Y349.696
G01 X174.640 Y384.160
G01 X166.484 Y349.696
G01 X176.065 Y310.518
G01 X192.479 Y314.601
G01 X222.090 Y319.396
G01 X235.156 Y320.492
G01 X233.031 Y360.928
G01 X215.381 Y391.037
G01 X233.031 Y360.928
G01 X247.415 Y392.969
G01 X233.031 Y360.928
G01 X235.156 Y320.492
G01 X252.000 Y321.000
G01 X265.103 Y320.693
G01 X265.471 Y329.684
G01 X264.812 Y329.752
G01 X264.157 Y329.895
G01 X263.507 Y330.111
G01 X262.864 Y330.400
G01 X262.228 Y330.763
G01 X261.601 Y331.197
G01 X260.984 Y331.702
G01 X260.378 Y332.277
G01 X259.784 Y332.920
G01 X259.203 Y333.630
G01 X258.636 Y334.406
G01 X258.085 Y335.245
G01 X257.550 Y336.146
G01 X257.033 Y337.107
G01 X256.535 Y338.125
G01 X256.057 Y339.198
G01 X255.600 Y340.324
G01 X255.165 Y341.500
G01 X254.754 Y342.723
G01 X254.367 Y343.990
G01 X254.006 Y345.299
G01 X253.671 Y346.646
G01 X253.364 Y348.029
G01 X253.086 Y349.444
G01 X252.838 Y350.887
G01 X252.620 Y352.355
G01 X252.433 Y353.846
G01 X252.279 Y355.355
G01 X252.158 Y356.878
G01 X252.070 Y358.412
G01 X252.018 Y359.954
G01 X252.000 Y361.500
G01 X252.018 Y363.046
G01 X252.072 Y364.588
G01 X252.162 Y366.122
G01 X252.288 Y367.645
G01 X252.452 Y369.154
G01 X252.652 Y370.643
G01 X252.888 Y372.111
G01 X253.161 Y373.552
G01 X253.470 Y374.965
G01 X253.815 Y376.344
G01 X254.194 Y377.687
G01 X254.608 Y378.990
G01 X255.056 Y380.250
G01 X255.536 Y381.465
G01 X256.048 Y382.630
G01 X256.590 Y383.742
G01 X257.161 Y384.800
G01 X257.760 Y385.800
G01 X258.385 Y386.741
G01 X259.035 Y387.618
G01 X259.708 Y388.431
G01 X260.402 Y389.176
G01 X261.115 Y389.853
G01 X261.845 Y390.460
G01 X262.590 Y390.994
G01 X263.348 Y391.455
G01 X264.117 Y391.841
G01 X264.894 Y392.151
G01 X265.678 Y392.385
G01 X266.465 Y392.542
G01 X267.254 Y392.622
G01 X268.042 Y392.624
G01 X268.827 Y392.548
G01 X269.607 Y392.395
G01 X270.378 Y392.165
G01 X271.140 Y391.859
G01 X271.889 Y391.476
G01 X272.623 Y391.020
G01 X273.341 Y390.490
G01 X274.040 Y389.888
G01 X274.718 Y389.215
G01 X275.373 Y388.474
G01 X276.003 Y387.666
G01 X276.607 Y386.794
G01 X277.183 Y385.859
G01 X277.729 Y384.864
G01 X278.244 Y383.811
G01 X278.727 Y382.704
G01 X279.176 Y381.545
G01 X279.591 Y380.336
G01 X279.970 Y379.082
G01 X280.313 Y377.784
G01 X280.619 Y376.447
G01 X280.888 Y375.074
G01 X281.119 Y373.668
G01 X281.311 Y372.232
G01 X281.465 Y370.770
G01 X281.581 Y369.286
G01 X281.659 Y367.784
G01 X281.699 Y366.266
G01 X281.701 Y364.736
G01 X281.665 Y363.199
G01 X281.593 Y361.658
G01 X281.485 Y360.117
G01 X281.341 Y358.579
G01 X281.163 Y357.048
G01 X280.951 Y355.527
G01 X280.706 Y354.021
G01 X280.429 Y352.533
G01 X280.122 Y351.065
G01 X279.785 Y349.623
G01 X279.419 Y348.208
G01 X279.027 Y346.825
G01 X278.608 Y345.477
G01 X278.165 Y344.166
G01 X277.698 Y342.896
G01 X277.210 Y341.669
G01 X276.700 Y340.490
G01 X276.171 Y339.359
G01 X275.624 Y338.280
G01 X275.061 Y337.256
G01 X274.481 Y336.289
G01 X273.888 Y335.380
G01 X273.282 Y334.532
G01 X272.664 Y333.748
G01 X272.037 Y333.028
G01 X271.400 Y332.375
G01 X270.756 Y331.790
G01 X270.105 Y331.274
G01 X269.449 Y330.829
G01 X268.789 Y330.455
G01 X268.126 Y330.153
G01 X267.462 Y329.925
G01 X266.797 Y329.771
G01 X266.133 Y329.690
G01 X265.471 Y329.684
G01 X265.103 Y320.693
G01 X281.910 Y319.396
G01 X294.919 Y317.689
G01 X296.123 Y326.596
G01 X295.473 Y326.735
G01 X294.835 Y326.946
G01 X294.209 Y327.231
G01 X293.596 Y327.588
G01 X292.997 Y328.016
G01 X292.413 Y328.515
G01 X291.846 Y329.084
G01 X291.297 Y329.720
G01 X290.765 Y330.424
G01 X290.254 Y331.193
G01 X289.762 Y332.026
G01 X289.292 Y332.920
G01 X288.844 Y333.873
G01 X288.419 Y334.885
G01 X288.018 Y335.951
G01 X287.642 Y337.070
G01 X287.293 Y338.239
G01 X286.970 Y339.455
G01 X286.674 Y340.716
G01 X286.408 Y342.018
G01 X286.170 Y343.359
G01 X285.963 Y344.736
G01 X285.786 Y346.144
G01 X285.641 Y347.582
G01 X285.528 Y349.044
G01 X285.448 Y350.529
G01 X285.401 Y352.032
G01 X285.389 Y353.549
G01 X285.410 Y355.078
G01 X285.466 Y356.614
G01 X285.557 Y358.154
G01 X285.684 Y359.694
G01 X288.619 Y391.037
G01 X285.684 Y359.694
G01 X285.557 Y358.154
G01 X285.466 Y356.614
G01 X285.410 Y355.078
G01 X285.389 Y353.549
G01 X285.401 Y352.032
G01 X285.448 Y350.529
G01 X285.528 Y349.044
G01 X285.641 Y347.582
G01 X285.786 Y346.144
G01 X285.963 Y344.736
G01 X286.170 Y343.359
G01 X286.408 Y342.018
G01 X286.674 Y340.716
G01 X286.970 Y339.455
G01 X287.293 Y338.239
G01 X287.642 Y337.070
G01 X288.018 Y335.951
G01 X288.419 Y334.885
G01 X288.844 Y333.873
G01 X289.292 Y332.920
G01 X289.762 Y332.026
G01 X290.254 Y331.193
G01 X290.765 Y330.424
G01 X291.297 Y329.720
G01 X291.846 Y329.084
G01 X292.413 Y328.515
G01 X292.997 Y328.016
G01 X293.596 Y327.588
G01 X294.209 Y327.231
G01 X294.835 Y326.946
G01 X295.473 Y326.735
G01 X296.123 Y326.596
G01 X296.782 Y326.532
G01 X297.450 Y326.541
G01 X298.126 Y326.623
G01 X298.808 Y326.779
G01 X299.496 Y327.008
G01 X300.188 Y327.309
G01 X300.882 Y327.682
G01 X301.577 Y328.126
G01 X302.273 Y328.639
G01 X302.967 Y329.221
G01 X303.659 Y329.870
G01 X304.347 Y330.585
G01 X305.029 Y331.363
G01 X305.704 Y332.204
G01 X306.370 Y333.105
G01 X307.027 Y334.064
G01 X307.671 Y335.078
G01 X308.303 Y336.147
G01 X308.920 Y337.266
G01 X309.520 Y338.434
G01 X310.103 Y339.648
G01 X310.666 Y340.905
G01 X311.208 Y342.202
G01 X311.728 Y343.536
G01 X312.223 Y344.904
G01 X312.693 Y346.304
G01 X313.135 Y347.731
G01 X313.549 Y349.182
G01 X313.933 Y350.655
G01 X314.286 Y352.145
G01 X314.606 Y353.649
G01 X314.892 Y355.164
G01 X320.373 Y386.112
G01 X314.892 Y355.164
G01 X314.606 Y353.649
G01 X314.286 Y352.145
G01 X313.933 Y350.655
G01 X313.549 Y349.182
G01 X313.135 Y347.731
G01 X312.693 Y346.304
G01 X312.223 Y344.904
G01 X311.728 Y343.536
G01 X311.208 Y342.202
G01 X310.666 Y340.905
G01 X310.103 Y339.648
G01 X309.520 Y338.434
G01 X308.920 Y337.266
G01 X308.303 Y336.147
G01 X307.671 Y335.078
G01 X307.027 Y334.064
G01 X306.370 Y333.105
G01 X305.704 Y332.204
G01 X305.029 Y331.363
G01 X304.347 Y330.585
G01 X303.659 Y329.870
G01 X302.967 Y329.221
G01 X302.273 Y328.639
G01 X301.577 Y328.126
G01 X300.882 Y327.682
G01 X300.188 Y327.309
G01 X299.496 Y327.008
G01 X298.808 Y326.779
G01 X298.126 Y326.623
G01 X297.450 Y326.541
G01 X296.782 Y326.532
G01 X296.123 Y326.596
G01 X294.919 Y317.689
G01 X311.521 Y314.601
G01 X313.190 Y323.422
G01 X324.872 Y385.166
G01 X340.525 Y381.383
G01 X341.284 Y381.160
G01 X342.033 Y380.899
G01 X342.769 Y380.601
G01 X343.489 Y380.266
G01 X344.193 Y379.896
G01 X344.878 Y379.492
G01 X345.542 Y379.053
G01 X346.183 Y378.583
G01 X346.801 Y378.082
G01 X347.393 Y377.551
G01 X347.958 Y376.991
G01 X348.494 Y376.405
G01 X348.999 Y375.794
G01 X349.474 Y375.160
G01 X349.916 Y374.503
G01 X350.325 Y373.826
G01 X350.699 Y373.131
G01 X351.037 Y372.420
G01 X351.340 Y371.693
G01 X351.606 Y370.954
G01 X351.834 Y370.204
G01 X352.025 Y369.444
G01 X352.178 Y368.678
G01 X352.292 Y367.906
G01 X352.368 Y367.131
G01 X352.406 Y366.354
G01 X352.405 Y365.577
G01 X352.367 Y364.803
G01 X352.291 Y364.033
G01 X352.177 Y363.269
G01 X352.027 Y362.513
G01 X351.840 Y361.766
G01 X351.618 Y361.031
G01 X351.361 Y360.308
G01 X351.069 Y359.600
G01 X350.745 Y358.909
G01 X350.389 Y358.235
G01 X350.001 Y357.580
G01 X349.584 Y356.946
G01 X349.138 Y356.335
G01 X348.664 Y355.747
G01 X348.164 Y355.183
G01 X347.639 Y354.646
G01 X347.090 Y354.136
G01 X346.519 Y353.654
G01 X345.927 Y353.201
G01 X345.315 Y352.779
G01 X344.686 Y352.388
G01 X344.040 Y352.028
G01 X343.379 Y351.702
G01 X342.705 Y351.409
G01 X342.019 Y351.150
G01 X341.323 Y350.925
G01 X340.618 Y350.735
G01 X339.906 Y350.581
G01 X339.188 Y350.463
G01 X338.466 Y350.380
G01 X337.741 Y350.334
G01 X337.016 Y350.324
G01 X336.291 Y350.350
G01 X335.569 Y350.412
G01 X334.850 Y350.510
G01 X334.136 Y350.644
G01 X333.429 Y350.814
G01 X339.335 Y316.455
G01 X333.429 Y350.814
G01 X319.031 Y354.294
G01 X313.190 Y323.422
G01 X311.521 Y314.601
G01 X340.538 Y306.663
G01 X368.670 Y295.661
G01 X371.941 Y303.950
G01 X394.839 Y361.977
G01 X409.478 Y354.937
G01 X410.173 Y354.540
G01 X410.836 Y354.074
G01 X411.463 Y353.540
G01 X412.053 Y352.940
G01 X412.604 Y352.275
G01 X413.114 Y351.548
G01 X413.583 Y350.761
G01 X414.007 Y349.915
G01 X414.387 Y349.012
G01 X414.721 Y348.057
G01 X415.008 Y347.050
G01 X415.247 Y345.994
G01 X415.438 Y344.892
G01 X415.579 Y343.748
G01 X415.671 Y342.564
G01 X415.714 Y341.342
G01 X415.706 Y340.087
G01 X415.649 Y338.801
G01 X415.542 Y337.487
G01 X415.387 Y336.149
G01 X415.183 Y334.790
G01 X414.931 Y333.413
G01 X414.632 Y332.022
G01 X414.288 Y330.619
G01 X413.899 Y329.208
G01 X413.466 Y327.793
G01 X412.991 Y326.376
G01 X412.476 Y324.962
G01 X411.922 Y323.552
G01 X411.331 Y322.151
G01 X410.704 Y320.762
G01 X410.044 Y319.388
G01 X409.353 Y318.031
G01 X408.632 Y316.695
G01 X407.884 Y315.383
G01 X407.111 Y314.098
G01 X406.316 Y312.842
G01 X405.499 Y311.619
G01 X404.664 Y310.431
G01 X403.814 Y309.281
G01 X402.950 Y308.171
G01 X402.074 Y307.103
G01 X401.189 Y306.081
G01 X400.298 Y305.106
G01 X399.402 Y304.180
G01 X398.504 Y303.306
G01 X397.606 Y302.485
G01 X396.710 Y301.720
G01 X395.818 Y301.012
G01 X394.933 Y300.362
G01 X394.057 Y299.773
G01 X393.190 Y299.245
G01 X392.336 Y298.780
G01 X391.497 Y298.379
G01 X390.673 Y298.043
G01 X389.866 Y297.773
G01 X389.079 Y297.570
G01 X388.313 Y297.433
G01 X387.570 Y297.364
G01 X386.850 Y297.363
G01 X386.155 Y297.430
G01 X385.486 Y297.565
G01 X384.846 Y297.768
G01 X384.233 Y298.039
G01 X371.941 Y303.950
G01 X368.670 Y295.661
G01 X395.636 Y281.704
G01 X399.663 Y289.602
G01 X441.764 Y336.319
G01 X422.719 Y274.669
G01 X431.936 Y305.802
G01 X421.109 Y312.815
G01 X399.663 Y289.602
G01 X395.636 Y281.704
G01 X421.167 Y264.933
G01 X431.820 Y256.752
G01 X454.507 Y289.146
G01 X459.111 Y324.357
G01 X454.507 Y289.146
G01 X484.774 Y303.724
G01 X454.507 Y289.146
G01 X431.820 Y256.752
G01 X445.008 Y245.514

