;  Created by Sandify
;  https://sandify.org
;  Version: 0.2.6
;
;  Machine type: Rectangular
;    Min X (mm): 0
;    Max X (mm): 500
;    Min Y (mm): 0
;    Max Y (mm): 500
;  Content type: shape
;  Layer:
;    Shape: FileImport
;    Name: Fractal.thr
;    From file:: Fractal.thr
;    Aspect Ratio: true
;    Comments: 
;    Visible: true
;    Initial width: 10
;    Initial height: 10
;    X offset: 0
;    Y offset: 0
;    Rotate (degrees): 0
;    Reverse path: false
;    Fine tuning:
;      Connect to next layer: line
;      Draw portion of path (%): 100
;      Backtrack at end (%): 0
;      Rotate starting point (%): 0
;  Reverse export path: false
;
; File name: 'fractal quilt (C C)'
; File type: gcode
;

G01 X250.000 Y250.000
G01 X250.000 Y337.600
G01 X250.000 Y338.550
G01 X250.000 Y337.600
G01 X250.000 Y253.025
G01 X250.144 Y252.927
G01 X250.278 Y252.822
G01 X250.402 Y252.712
G01 X250.516 Y252.596
G01 X250.620 Y252.476
G01 X250.713 Y252.352
G01 X250.796 Y252.225
G01 X250.868 Y252.096
G01 X250.930 Y251.965
G01 X250.980 Y251.834
G01 X251.021 Y251.703
G01 X251.050 Y251.572
G01 X251.070 Y251.443
G01 X251.079 Y251.315
G01 X251.079 Y251.191
G01 X251.070 Y251.070
G01 X251.051 Y250.952
G01 X251.023 Y250.840
G01 X250.987 Y250.732
G01 X250.943 Y250.630
G01 X250.892 Y250.535
G01 X250.834 Y250.446
G01 X250.769 Y250.364
G01 X250.699 Y250.289
G01 X250.623 Y250.223
G01 X250.543 Y250.165
G01 X250.458 Y250.115
G01 X250.371 Y250.074
G01 X250.281 Y250.042
G01 X250.188 Y250.019
G01 X250.094 Y250.005
G01 X250.000 Y250.000
G01 X250.009 Y250.000
G01 X250.018 Y250.002
G01 X250.027 Y250.004
G01 X250.035 Y250.007
G01 X250.044 Y250.011
G01 X250.052 Y250.016
G01 X250.059 Y250.021
G01 X250.066 Y250.028
G01 X250.073 Y250.035
G01 X250.079 Y250.042
G01 X250.085 Y250.051
G01 X250.090 Y250.060
G01 X250.094 Y250.070
G01 X250.097 Y250.080
G01 X250.100 Y250.091
G01 X250.102 Y250.102
G01 X250.103 Y250.113
G01 X250.103 Y250.125
G01 X250.102 Y250.137
G01 X250.100 Y250.149
G01 X250.097 Y250.162
G01 X250.093 Y250.174
G01 X250.088 Y250.187
G01 X250.083 Y250.199
G01 X250.076 Y250.211
G01 X250.068 Y250.224
G01 X250.059 Y250.235
G01 X250.049 Y250.247
G01 X250.038 Y250.258
G01 X250.026 Y250.268
G01 X250.014 Y250.278
G01 X250.000 Y250.287
G01 X249.985 Y250.296
G01 X249.970 Y250.304
G01 X249.954 Y250.311
G01 X249.937 Y250.317
G01 X249.919 Y250.322
G01 X249.901 Y250.327
G01 X249.882 Y250.330
G01 X249.862 Y250.332
G01 X249.843 Y250.333
G01 X249.822 Y250.333
G01 X249.801 Y250.331
G01 X249.780 Y250.329
G01 X249.759 Y250.325
G01 X249.738 Y250.319
G01 X249.716 Y250.313
G01 X249.695 Y250.305
G01 X249.674 Y250.296
G01 X249.653 Y250.285
G01 X249.632 Y250.273
G01 X249.612 Y250.260
G01 X249.592 Y250.245
G01 X249.572 Y250.229
G01 X249.553 Y250.211
G01 X249.535 Y250.193
G01 X249.518 Y250.173
G01 X249.501 Y250.151
G01 X249.486 Y250.129
G01 X249.471 Y250.105
G01 X249.458 Y250.080
G01 X249.446 Y250.055
G01 X249.435 Y250.028
G01 X249.425 Y250.000
G01 X162.375 Y250.000
G01 X161.450 Y250.000
G01 X162.125 Y250.000
G01 X249.700 Y250.000
G01 X249.705 Y250.014
G01 X249.711 Y250.028
G01 X249.717 Y250.042
G01 X249.724 Y250.055
G01 X249.732 Y250.067
G01 X249.740 Y250.079
G01 X249.748 Y250.090
G01 X249.757 Y250.100
G01 X249.767 Y250.110
G01 X249.777 Y250.119
G01 X249.787 Y250.128
G01 X249.797 Y250.135
G01 X249.808 Y250.142
G01 X249.819 Y250.149
G01 X249.830 Y250.154
G01 X249.841 Y250.159
G01 X249.852 Y250.163
G01 X249.863 Y250.167
G01 X249.874 Y250.169
G01 X249.885 Y250.171
G01 X249.896 Y250.173
G01 X249.907 Y250.174
G01 X249.918 Y250.174
G01 X249.928 Y250.173
G01 X249.938 Y250.172
G01 X249.948 Y250.170
G01 X249.958 Y250.168
G01 X249.967 Y250.166
G01 X249.976 Y250.162
G01 X249.984 Y250.159
G01 X249.992 Y250.155
G01 X250.000 Y250.150
G01 X250.007 Y250.145
G01 X250.014 Y250.140
G01 X250.020 Y250.134
G01 X250.026 Y250.129
G01 X250.031 Y250.123
G01 X250.035 Y250.117
G01 X250.039 Y250.110
G01 X250.043 Y250.104
G01 X250.046 Y250.097
G01 X250.049 Y250.091
G01 X250.051 Y250.084
G01 X250.052 Y250.078
G01 X250.053 Y250.072
G01 X250.054 Y250.065
G01 X250.054 Y250.059
G01 X250.053 Y250.053
G01 X250.052 Y250.047
G01 X250.051 Y250.042
G01 X250.049 Y250.036
G01 X250.047 Y250.031
G01 X250.044 Y250.027
G01 X250.041 Y250.022
G01 X250.038 Y250.018
G01 X250.035 Y250.014
G01 X250.031 Y250.011
G01 X250.027 Y250.008
G01 X250.023 Y250.006
G01 X250.018 Y250.004
G01 X250.014 Y250.002
G01 X250.009 Y250.001
G01 X250.005 Y250.000
G01 X250.000 Y250.000
G01 X250.475 Y250.000
G01 X338.200 Y250.000
G01 X338.550 Y250.000
G01 X337.625 Y250.000
G01 X250.000 Y250.000
G01 X250.018 Y249.999
G01 X250.036 Y249.996
G01 X250.053 Y249.992
G01 X250.070 Y249.986
G01 X250.087 Y249.978
G01 X250.103 Y249.969
G01 X250.118 Y249.958
G01 X250.133 Y249.945
G01 X250.146 Y249.931
G01 X250.158 Y249.915
G01 X250.170 Y249.898
G01 X250.179 Y249.880
G01 X250.188 Y249.861
G01 X250.194 Y249.840
G01 X250.200 Y249.819
G01 X250.203 Y249.797
G01 X250.205 Y249.774
G01 X250.205 Y249.750
G01 X250.203 Y249.726
G01 X250.200 Y249.701
G01 X250.194 Y249.676
G01 X250.186 Y249.651
G01 X250.177 Y249.626
G01 X250.165 Y249.602
G01 X250.151 Y249.577
G01 X250.136 Y249.553
G01 X250.118 Y249.529
G01 X250.098 Y249.507
G01 X250.076 Y249.485
G01 X250.053 Y249.464
G01 X250.027 Y249.444
G01 X250.000 Y249.425
G01 X249.999 Y164.725
G01 X249.999 Y161.450
G01 X254.352 Y161.402
G01 X256.324 Y161.451
G01 X256.327 Y167.768
G01 X260.474 Y167.234
G01 X264.688 Y166.912
G01 X268.958 Y166.805
G01 X273.274 Y166.920
G01 X277.624 Y167.260
G01 X281.628 Y167.773
G01 X281.621 Y161.452
G01 X286.633 Y161.406
G01 X287.954 Y161.440
G01 X287.950 Y148.807
G01 X282.390 Y148.781
G01 X281.625 Y148.802
G01 X286.553 Y150.475
G01 X291.392 Y152.389
G01 X296.132 Y154.537
G01 X300.761 Y156.916
G01 X305.267 Y159.519
G01 X309.640 Y162.339
G01 X313.869 Y165.371
G01 X317.945 Y168.607
G01 X321.857 Y172.039
G01 X325.596 Y175.659
G01 X329.152 Y179.458
G01 X332.518 Y183.427
G01 X335.686 Y187.556
G01 X338.646 Y191.835
G01 X341.394 Y196.255
G01 X343.921 Y200.804
G01 X346.221 Y205.472
G01 X348.290 Y210.247
G01 X350.123 Y215.118
G01 X351.198 Y218.373
G01 X351.214 Y212.825
G01 X351.193 Y212.049
G01 X344.867 Y212.053
G01 X338.559 Y212.045
G01 X338.587 Y217.078
G01 X338.548 Y218.378
G01 X332.227 Y218.371
G01 X332.271 Y222.908
G01 X332.221 Y224.701
G01 X332.268 Y229.045
G01 X332.214 Y231.027
G01 X338.540 Y231.026
G01 X332.214 Y231.027
G01 X332.281 Y235.221
G01 X332.233 Y237.353
G01 X332.288 Y241.451
G01 X332.232 Y243.672
G01 X338.549 Y243.675
G01 X338.598 Y248.031
G01 X338.550 Y250.000
G01 X344.875 Y250.000
G01 X351.200 Y250.000
G01 X351.235 Y245.026
G01 X351.203 Y243.676
G01 X344.864 Y243.672
G01 X344.913 Y248.337
G01 X344.875 Y250.000
G01 X344.908 Y254.662
G01 X344.864 Y256.327
G01 X351.203 Y256.323
G01 X351.243 Y261.334
G01 X351.212 Y262.656
G01 X357.534 Y262.650
G01 X363.849 Y262.654
G01 X363.867 Y257.024
G01 X363.849 Y256.325
G01 X363.866 Y261.952
G01 X363.849 Y262.654
G01 X370.186 Y262.653
G01 X376.494 Y262.653
G01 X376.494 Y256.407
G01 X376.492 Y256.329
G01 X382.824 Y256.327
G01 X382.825 Y250.000
G01 X382.824 Y243.672
G01 X376.492 Y243.670
G01 X370.184 Y243.672
G01 X370.186 Y249.577
G01 X370.175 Y250.000
G01 X370.193 Y255.904
G01 X370.184 Y256.327
G01 X376.492 Y256.329
G01 X376.496 Y262.575
G01 X376.494 Y262.653
G01 X382.823 Y262.656
G01 X389.151 Y262.655
G01 X389.156 Y256.322
G01 X389.151 Y262.655
G01 X395.477 Y262.644
G01 X401.799 Y262.643
G01 X401.794 Y256.318
G01 X408.123 Y256.328
G01 X408.125 Y249.999
G01 X408.123 Y243.671
G01 X401.794 Y243.681
G01 X401.800 Y249.999
G01 X408.125 Y249.999
G01 X414.450 Y249.999
G01 X414.454 Y243.681
G01 X420.783 Y243.678
G01 X420.783 Y237.356
G01 X420.773 Y231.017
G01 X414.458 Y231.020
G01 X420.773 Y231.017
G01 X420.785 Y224.694
G01 X420.772 Y218.377
G01 X414.461 Y218.370
G01 X414.453 Y212.049
G01 X408.136 Y212.054
G01 X401.802 Y212.045
G01 X401.791 Y218.376
G01 X395.476 Y218.368
G01 X395.466 Y224.700
G01 X395.468 Y231.026
G01 X401.793 Y231.018
G01 X401.799 Y237.356
G01 X408.120 Y237.355
G01 X414.439 Y237.346
G01 X414.458 Y231.020
G01 X414.439 Y237.346
G01 X420.783 Y237.356
G01 X427.099 Y237.351
G01 X427.112 Y231.029
G01 X433.421 Y231.021
G01 X433.413 Y224.695
G01 X433.420 Y218.382
G01 X427.099 Y218.376
G01 X427.102 Y224.699
G01 X433.413 Y224.695
G01 X439.747 Y224.710
G01 X439.759 Y218.382
G01 X446.066 Y218.378
G01 X446.085 Y212.044
G01 X446.063 Y205.723
G01 X439.754 Y205.730
G01 X446.063 Y205.723
G01 X446.074 Y199.390
G01 X446.076 Y193.064
G01 X439.743 Y193.067
G01 X439.763 Y186.755
G01 X433.423 Y186.742
G01 X427.096 Y186.756
G01 X427.101 Y193.074
G01 X427.088 Y199.403
G01 X433.422 Y199.394
G01 X439.744 Y199.401
G01 X439.743 Y193.067
G01 X446.076 Y193.064
G01 X446.078 Y186.757
G01 X446.070 Y180.421
G01 X439.750 Y180.434
G01 X446.070 Y180.421
G01 X446.075 Y174.107
G01 X446.080 Y167.767
G01 X439.751 Y167.776
G01 X439.757 Y161.452
G01 X433.416 Y161.444
G01 X427.100 Y161.459
G01 X427.091 Y167.772
G01 X433.416 Y167.783
G01 X433.416 Y161.444
G01 X433.421 Y155.137
G01 X427.090 Y155.132
G01 X427.104 Y148.808
G01 X420.763 Y148.796
G01 X414.450 Y148.789
G01 X414.443 Y155.124
G01 X414.450 Y148.789
G01 X408.116 Y148.808
G01 X401.807 Y148.795
G01 X401.791 Y155.130
G01 X395.472 Y155.127
G01 X395.469 Y161.451
G01 X395.475 Y167.784
G01 X401.811 Y167.773
G01 X395.475 Y167.784
G01 X395.465 Y174.102
G01 X395.469 Y180.428
G01 X401.788 Y180.423
G01 X401.799 Y186.748
G01 X408.120 Y186.753
G01 X414.454 Y186.743
G01 X414.441 Y180.436
G01 X414.454 Y186.743
G01 X420.764 Y186.754
G01 X427.096 Y186.756
G01 X427.101 Y180.431
G01 X433.426 Y180.433
G01 X433.420 Y174.110
G01 X433.416 Y167.783
G01 X427.091 Y167.772
G01 X427.095 Y174.099
G01 X433.420 Y174.110
G01 X439.758 Y174.098
G01 X439.751 Y167.776
G01 X446.080 Y167.767
G01 X446.081 Y161.445
G01 X446.073 Y155.116
G01 X439.757 Y155.132
G01 X446.073 Y155.116
G01 X446.070 Y148.793
G01 X446.077 Y142.474
G01 X439.757 Y142.483
G01 X439.744 Y136.158
G01 X433.415 Y136.154
G01 X427.114 Y136.149
G01 X427.085 Y142.472
G01 X427.104 Y148.808
G01 X433.430 Y148.788
G01 X439.745 Y148.791
G01 X439.757 Y142.483
G01 X446.077 Y142.474
G01 X446.065 Y136.146
G01 X446.083 Y129.833
G01 X439.742 Y129.821
G01 X446.083 Y129.833
G01 X446.078 Y123.487
G01 X446.073 Y117.178
G01 X439.758 Y117.176
G01 X439.753 Y110.861
G01 X433.417 Y110.854
G01 X427.094 Y110.845
G01 X427.100 Y117.175
G01 X433.437 Y117.177
G01 X433.417 Y110.854
G01 X433.419 Y104.535
G01 X427.104 Y104.512
G01 X427.100 Y98.207
G01 X420.789 Y98.199
G01 X414.451 Y98.204
G01 X414.449 Y104.540
G01 X414.451 Y98.204
G01 X408.126 Y98.195
G01 X401.797 Y98.201
G01 X401.801 Y104.530
G01 X395.469 Y104.530
G01 X395.464 Y110.853
G01 X395.478 Y117.165
G01 X401.798 Y117.184
G01 X401.805 Y123.505
G01 X408.131 Y123.505
G01 X414.449 Y123.499
G01 X414.458 Y117.171
G01 X420.782 Y117.181
G01 X420.785 Y110.843
G01 X420.761 Y104.527
G01 X414.449 Y104.540
G01 X420.761 Y104.527
G01 X420.789 Y98.199
G01 X420.775 Y91.860
G01 X414.456 Y91.865
G01 X414.454 Y85.544
G01 X408.133 Y85.542
G01 X401.795 Y85.547
G01 X401.803 Y91.872
G01 X408.126 Y91.872
G01 X408.133 Y85.542
G01 X408.139 Y79.223
G01 X401.799 Y79.209
G01 X401.791 Y72.898
G01 X395.486 Y72.894
G01 X389.153 Y72.905
G01 X389.155 Y79.213
G01 X389.153 Y72.905
G01 X382.824 Y72.899
G01 X376.514 Y72.896
G01 X376.508 Y79.230
G01 X370.175 Y79.220
G01 X370.174 Y85.556
G01 X370.173 Y91.885
G01 X376.493 Y91.868
G01 X382.824 Y91.886
G01 X382.827 Y85.540
G01 X382.835 Y79.230
G01 X376.508 Y79.230
G01 X376.514 Y72.896
G01 X370.174 Y72.899
G01 X363.849 Y72.885
G01 X363.851 Y79.221
G01 X363.849 Y72.885
G01 X357.526 Y72.913
G01 X351.208 Y72.905
G01 X351.202 Y79.236
G01 X344.869 Y79.233
G01 X344.875 Y85.556
G01 X344.869 Y91.876
G01 X351.191 Y91.883
G01 X351.209 Y85.549
G01 X344.875 Y85.556
G01 X338.542 Y85.546
G01 X338.548 Y91.880
G01 X332.220 Y91.874
G01 X332.226 Y98.188
G01 X332.229 Y104.532
G01 X338.548 Y104.530
G01 X332.229 Y104.532
G01 X332.221 Y110.851
G01 X332.228 Y117.166
G01 X338.543 Y117.183
G01 X338.553 Y123.487
G01 X344.874 Y123.499
G01 X351.194 Y123.494
G01 X351.196 Y117.184
G01 X344.878 Y117.182
G01 X344.874 Y123.499
G01 X344.868 Y129.835
G01 X351.194 Y129.832
G01 X351.194 Y136.146
G01 X357.520 Y136.145
G01 X363.844 Y136.155
G01 X363.858 Y129.820
G01 X363.844 Y136.155
G01 X370.179 Y136.141
G01 X376.510 Y136.144
G01 X376.489 Y129.825
G01 X382.832 Y129.827
G01 X382.826 Y123.501
G01 X382.829 Y117.169
G01 X376.497 Y117.172
G01 X376.501 Y123.498
G01 X382.826 Y123.501
G01 X389.147 Y123.505
G01 X389.161 Y117.176
G01 X395.478 Y117.165
G01 X395.464 Y110.853
G01 X395.469 Y104.530
G01 X389.145 Y104.534
G01 X395.469 Y104.530
G01 X395.468 Y98.197
G01 X395.488 Y91.872
G01 X389.151 Y91.886
G01 X389.158 Y85.552
G01 X382.827 Y85.540
G01 X376.499 Y85.550
G01 X376.493 Y91.868
G01 X376.494 Y98.194
G01 X382.815 Y98.200
G01 X389.155 Y98.208
G01 X389.151 Y91.886
G01 X395.488 Y91.872
G01 X395.475 Y85.564
G01 X395.471 Y79.238
G01 X389.155 Y79.213
G01 X395.471 Y79.238
G01 X395.486 Y72.894
G01 X395.463 Y66.579
G01 X389.144 Y66.581
G01 X389.156 Y60.259
G01 X382.822 Y60.241
G01 X376.497 Y60.250
G01 X376.513 Y66.573
G01 X382.839 Y66.575
G01 X382.822 Y60.241
G01 X382.819 Y53.926
G01 X376.511 Y53.920
G01 X376.496 Y47.603
G01 X370.177 Y47.588
G01 X363.852 Y47.599
G01 X363.852 Y53.934
G01 X363.852 Y47.599
G01 X357.522 Y47.585
G01 X351.214 Y47.596
G01 X351.205 Y53.928
G01 X344.882 Y53.926
G01 X344.885 Y60.252
G01 X344.880 Y66.588
G01 X351.210 Y66.569
G01 X351.208 Y72.905
G01 X357.526 Y72.913
G01 X363.849 Y72.885
G01 X363.844 Y66.584
G01 X370.167 Y66.584
G01 X370.177 Y60.256
G01 X370.184 Y53.928
G01 X363.852 Y53.934
G01 X370.184 Y53.928
G01 X370.177 Y47.588
G01 X370.173 Y41.273
G01 X363.857 Y41.286
G01 X363.847 Y34.952
G01 X357.531 Y34.962
G01 X351.191 Y34.942
G01 X351.213 Y41.270
G01 X357.528 Y41.268
G01 X357.531 Y34.962
G01 X357.531 Y28.635
G01 X351.199 Y28.635
G01 X351.192 Y22.298
G01 X344.875 Y22.300
G01 X338.546 Y22.311
G01 X338.546 Y28.627
G01 X338.546 Y22.311
G01 X332.217 Y22.288
G01 X325.912 Y22.295
G01 X325.899 Y28.625
G01 X319.571 Y28.624
G01 X319.573 Y34.949
G01 X319.587 Y41.269
G01 X325.906 Y41.274
G01 X332.225 Y41.288
G01 X332.220 Y34.957
G01 X332.215 Y28.623
G01 X325.899 Y28.625
G01 X325.912 Y22.295
G01 X319.588 Y22.296
G01 X313.261 Y22.300
G01 X313.246 Y28.633
G01 X313.261 Y22.300
G01 X306.926 Y22.308
G01 X300.604 Y22.306
G01 X300.594 Y28.633
G01 X294.273 Y28.634
G01 X294.283 Y34.962
G01 X294.270 Y41.268
G01 X300.592 Y41.269
G01 X300.601 Y34.948
G01 X294.283 Y34.962
G01 X287.955 Y34.949
G01 X287.959 Y41.273
G01 X281.628 Y41.283
G01 X281.623 Y47.606
G01 X281.620 Y53.933
G01 X287.954 Y53.914
G01 X281.620 Y53.933
G01 X281.635 Y60.244
G01 X281.616 Y66.580
G01 X287.943 Y66.584
G01 X287.951 Y72.896
G01 X294.277 Y72.901
G01 X300.596 Y72.911
G01 X300.604 Y66.578
G01 X300.596 Y72.911
G01 X306.924 Y72.899
G01 X313.243 Y72.903
G01 X313.256 Y66.576
G01 X319.583 Y66.580
G01 X319.583 Y60.256
G01 X319.577 Y53.929
G01 X313.241 Y53.921
G01 X319.577 Y53.929
G01 X319.575 Y47.599
G01 X319.587 Y41.269
G01 X313.242 Y41.270
G01 X313.256 Y34.961
G01 X306.928 Y34.958
G01 X300.601 Y34.948
G01 X300.592 Y41.269
G01 X306.934 Y41.276
G01 X306.928 Y34.958
G01 X306.925 Y28.627
G01 X300.594 Y28.633
G01 X300.604 Y22.306
G01 X294.287 Y22.292
G01 X287.962 Y22.293
G01 X287.952 Y28.630
G01 X287.962 Y22.293
G01 X281.620 Y22.310
G01 X275.308 Y22.302
G01 X275.301 Y28.616
G01 X268.971 Y28.636
G01 X268.971 Y34.960
G01 X268.981 Y41.286
G01 X275.293 Y41.277
G01 X281.628 Y41.283
G01 X281.623 Y34.937
G01 X281.624 Y28.622
G01 X275.301 Y28.616
G01 X275.308 Y22.302
G01 X268.965 Y22.288
G01 X262.649 Y22.301
G01 X262.652 Y28.636
G01 X262.649 Y22.301
G01 X256.330 Y22.288
G01 X249.998 Y22.300
G01 X249.998 Y28.625
G01 X243.665 Y28.616
G01 X243.674 Y34.943
G01 X243.672 Y41.271
G01 X249.998 Y41.275
G01 X249.998 Y34.950
G01 X243.674 Y34.943
G01 X237.360 Y34.946
G01 X237.356 Y41.283
G01 X231.016 Y41.287
G01 X231.018 Y47.588
G01 X231.018 Y53.917
G01 X237.354 Y53.932
G01 X231.018 Y53.917
G01 X231.017 Y60.247
G01 X231.021 Y66.579
G01 X237.360 Y66.585
G01 X237.350 Y72.901
G01 X243.673 Y72.888
G01 X249.999 Y72.900
G01 X249.999 Y66.575
G01 X256.329 Y66.584
G01 X256.319 Y60.255
G01 X256.334 Y53.927
G01 X249.999 Y53.925
G01 X249.999 Y47.600
G01 X243.682 Y47.599
G01 X237.352 Y47.595
G01 X237.354 Y53.932
G01 X237.352 Y47.595
G01 X231.018 Y47.588
G01 X224.710 Y47.599
G01 X224.703 Y53.925
G01 X218.378 Y53.934
G01 X218.382 Y60.241
G01 X218.381 Y66.580
G01 X224.694 Y66.588
G01 X224.709 Y60.253
G01 X218.382 Y60.241
G01 X212.049 Y60.258
G01 X212.054 Y66.584
G01 X205.731 Y66.566
G01 X205.720 Y72.902
G01 X205.718 Y79.223
G01 X212.041 Y79.218
G01 X205.718 Y79.223
G01 X205.724 Y85.556
G01 X205.727 Y91.881
G01 X212.054 Y91.864
G01 X212.045 Y98.198
G01 X218.375 Y98.209
G01 X224.705 Y98.193
G01 X224.709 Y91.885
G01 X224.708 Y85.559
G01 X218.370 Y85.539
G01 X212.048 Y85.547
G01 X212.054 Y91.864
G01 X205.727 Y91.881
G01 X205.723 Y98.201
G01 X205.726 Y104.512
G01 X212.045 Y104.520
G01 X205.726 Y104.512
G01 X205.731 Y110.847
G01 X205.734 Y117.182
G01 X212.046 Y117.166
G01 X212.055 Y123.493
G01 X218.370 Y123.494
G01 X224.700 Y123.505
G01 X224.700 Y117.163
G01 X218.377 Y117.162
G01 X218.370 Y123.494
G01 X218.375 Y129.816
G01 X224.611 Y129.832
G01 X224.701 Y129.834
G01 X224.696 Y136.153
G01 X230.498 Y136.132
G01 X231.029 Y136.145
G01 X236.730 Y136.134
G01 X237.356 Y136.150
G01 X237.345 Y129.814
G01 X237.356 Y136.150
G01 X242.986 Y136.134
G01 X243.674 Y136.151
G01 X249.269 Y136.132
G01 X249.999 Y136.150
G01 X249.999 Y129.825
G01 X255.904 Y129.807
G01 X256.327 Y129.816
G01 X256.329 Y123.508
G01 X256.326 Y117.176
G01 X249.999 Y117.175
G01 X243.672 Y117.176
G01 X243.669 Y123.508
G01 X243.672 Y129.816
G01 X249.577 Y129.814
G01 X249.999 Y129.825
G01 X249.999 Y136.150
G01 X255.593 Y136.133
G01 X256.324 Y136.151
G01 X261.952 Y136.134
G01 X262.654 Y136.151
G01 X262.653 Y129.814
G01 X262.654 Y136.151
G01 X268.350 Y136.131
G01 X268.981 Y136.146
G01 X274.779 Y136.139
G01 X275.302 Y136.153
G01 X275.298 Y129.834
G01 X281.532 Y129.814
G01 X281.623 Y129.816
G01 X281.628 Y123.494
G01 X281.634 Y117.165
G01 X275.298 Y117.163
G01 X275.299 Y123.505
G01 X281.628 Y123.494
G01 X287.956 Y123.496
G01 X287.952 Y117.165
G01 X294.277 Y117.186
G01 X294.281 Y110.851
G01 X294.271 Y104.512
G01 X287.953 Y104.519
G01 X294.271 Y104.512
G01 X294.275 Y98.200
G01 X294.271 Y91.881
G01 X287.960 Y91.867
G01 X287.950 Y85.547
G01 X281.628 Y85.539
G01 X275.306 Y85.561
G01 X275.304 Y91.887
G01 X275.308 Y98.195
G01 X281.623 Y98.209
G01 X287.953 Y98.197
G01 X287.960 Y91.867
G01 X294.271 Y91.881
G01 X294.273 Y85.556
G01 X294.279 Y79.222
G01 X287.956 Y79.217
G01 X294.279 Y79.222
G01 X294.277 Y72.901
G01 X294.285 Y66.570
G01 X287.943 Y66.584
G01 X287.948 Y60.258
G01 X281.635 Y60.244
G01 X275.307 Y60.255
G01 X275.303 Y66.587
G01 X281.616 Y66.580
G01 X281.635 Y60.244
G01 X281.620 Y53.933
G01 X275.294 Y53.925
G01 X275.308 Y47.601
G01 X268.979 Y47.588
G01 X262.645 Y47.595
G01 X262.643 Y53.932
G01 X262.645 Y47.595
G01 X256.315 Y47.599
G01 X249.999 Y47.600
G01 X249.999 Y53.925
G01 X243.683 Y53.927
G01 X243.678 Y60.255
G01 X243.668 Y66.584
G01 X249.999 Y66.575
G01 X249.999 Y72.900
G01 X256.324 Y72.888
G01 X262.647 Y72.901
G01 X262.656 Y66.586
G01 X268.977 Y66.579
G01 X268.980 Y60.247
G01 X268.980 Y53.916
G01 X262.643 Y53.932
G01 X268.980 Y53.916
G01 X268.979 Y47.588
G01 X268.981 Y41.286
G01 X262.641 Y41.282
G01 X262.658 Y34.947
G01 X256.323 Y34.943
G01 X249.998 Y34.950
G01 X249.998 Y41.275
G01 X256.325 Y41.271
G01 X256.323 Y34.943
G01 X256.332 Y28.616
G01 X249.998 Y28.625
G01 X249.998 Y22.300
G01 X243.666 Y22.288
G01 X237.348 Y22.301
G01 X237.345 Y28.636
G01 X237.348 Y22.301
G01 X231.032 Y22.289
G01 X224.711 Y22.300
G01 X224.696 Y28.616
G01 X218.372 Y28.623
G01 X218.374 Y34.938
G01 X218.369 Y41.283
G01 X224.704 Y41.277
G01 X231.016 Y41.287
G01 X231.026 Y34.960
G01 X231.026 Y28.637
G01 X224.696 Y28.616
G01 X224.711 Y22.300
G01 X218.376 Y22.311
G01 X212.058 Y22.289
G01 X212.044 Y28.630
G01 X212.058 Y22.289
G01 X205.732 Y22.288
G01 X199.392 Y22.306
G01 X199.403 Y28.634
G01 X193.072 Y28.628
G01 X193.069 Y34.958
G01 X193.084 Y41.271
G01 X199.405 Y41.269
G01 X199.396 Y34.949
G01 X193.069 Y34.958
G01 X186.762 Y34.955
G01 X186.755 Y41.271
G01 X180.431 Y41.263
G01 X180.423 Y47.600
G01 X180.420 Y53.930
G01 X186.757 Y53.922
G01 X180.420 Y53.930
G01 X180.433 Y60.250
G01 X180.432 Y66.574
G01 X186.741 Y66.577
G01 X186.755 Y72.904
G01 X193.073 Y72.899
G01 X199.402 Y72.912
G01 X199.393 Y66.578
G01 X199.402 Y72.912
G01 X205.720 Y72.902
G01 X212.047 Y72.896
G01 X212.054 Y66.584
G01 X218.381 Y66.580
G01 X218.382 Y60.241
G01 X218.378 Y53.934
G01 X212.043 Y53.915
G01 X218.378 Y53.934
G01 X218.374 Y47.606
G01 X218.369 Y41.283
G01 X212.059 Y41.270
G01 X212.042 Y34.949
G01 X205.735 Y34.959
G01 X199.396 Y34.949
G01 X199.405 Y41.269
G01 X205.727 Y41.269
G01 X205.735 Y34.959
G01 X205.724 Y28.634
G01 X199.403 Y28.634
G01 X199.392 Y22.306
G01 X193.070 Y22.309
G01 X186.758 Y22.294
G01 X186.751 Y28.634
G01 X186.758 Y22.294
G01 X180.432 Y22.290
G01 X174.107 Y22.289
G01 X174.098 Y28.626
G01 X167.782 Y28.625
G01 X167.777 Y34.958
G01 X167.772 Y41.289
G01 X174.091 Y41.275
G01 X180.431 Y41.263
G01 X180.424 Y34.950
G01 X180.426 Y28.626
G01 X174.098 Y28.626
G01 X174.107 Y22.289
G01 X167.779 Y22.289
G01 X161.451 Y22.313
G01 X161.451 Y28.628
G01 X161.451 Y22.313
G01 X155.121 Y22.302
G01 X148.804 Y22.299
G01 X148.798 Y28.637
G01 X142.488 Y28.626
G01 X142.487 Y34.953
G01 X142.469 Y41.270
G01 X148.805 Y41.261
G01 X148.806 Y34.944
G01 X142.487 Y34.953
G01 X136.149 Y34.953
G01 X136.161 Y41.276
G01 X129.824 Y41.274
G01 X129.820 Y47.590
G01 X129.833 Y53.918
G01 X136.145 Y53.935
G01 X129.833 Y53.918
G01 X129.820 Y60.258
G01 X129.831 Y66.586
G01 X136.153 Y66.585
G01 X136.149 Y72.886
G01 X142.489 Y72.904
G01 X148.807 Y72.896
G01 X148.788 Y66.571
G01 X155.136 Y66.579
G01 X155.131 Y60.243
G01 X155.115 Y53.927
G01 X148.793 Y53.930
G01 X148.804 Y47.587
G01 X142.475 Y47.587
G01 X136.145 Y47.600
G01 X136.145 Y53.935
G01 X136.145 Y47.600
G01 X129.820 Y47.590
G01 X123.501 Y47.605
G01 X123.487 Y53.922
G01 X117.178 Y53.928
G01 X117.175 Y60.243
G01 X117.177 Y66.564
G01 X123.503 Y66.562
G01 X123.500 Y60.252
G01 X117.175 Y60.243
G01 X110.860 Y60.247
G01 X110.853 Y66.583
G01 X104.534 Y66.581
G01 X104.511 Y72.896
G01 X104.526 Y79.240
G01 X110.843 Y79.215
G01 X104.526 Y79.240
G01 X104.539 Y85.552
G01 X104.525 Y91.860
G01 X110.863 Y91.874
G01 X110.857 Y98.196
G01 X117.183 Y98.202
G01 X123.504 Y98.196
G01 X123.505 Y91.870
G01 X123.498 Y85.552
G01 X117.171 Y85.542
G01 X110.856 Y85.541
G01 X110.863 Y91.874
G01 X104.525 Y91.860
G01 X104.530 Y98.199
G01 X104.529 Y104.532
G01 X110.853 Y104.536
G01 X104.529 Y104.532
G01 X104.533 Y110.856
G01 X104.520 Y117.167
G01 X110.850 Y117.164
G01 X110.851 Y123.508
G01 X117.172 Y123.503
G01 X123.497 Y123.500
G01 X123.501 Y117.174
G01 X117.169 Y117.171
G01 X117.172 Y123.503
G01 X117.178 Y129.816
G01 X123.509 Y129.827
G01 X123.488 Y136.146
G01 X129.820 Y136.143
G01 X136.155 Y136.157
G01 X136.140 Y129.822
G01 X136.155 Y136.157
G01 X142.478 Y136.147
G01 X148.805 Y136.147
G01 X148.805 Y129.834
G01 X155.130 Y129.836
G01 X155.124 Y123.501
G01 X155.133 Y117.174
G01 X148.802 Y117.186
G01 X148.804 Y123.496
G01 X155.124 Y123.501
G01 X161.445 Y123.488
G01 X161.455 Y117.184
G01 X167.770 Y117.167
G01 X167.777 Y110.853
G01 X167.784 Y104.525
G01 X161.450 Y104.532
G01 X167.784 Y104.525
G01 X167.772 Y98.189
G01 X167.777 Y91.875
G01 X161.450 Y91.882
G01 X161.456 Y85.547
G01 X155.123 Y85.557
G01 X148.805 Y85.540
G01 X148.807 Y91.884
G01 X155.129 Y91.877
G01 X155.123 Y85.557
G01 X155.128 Y79.234
G01 X148.812 Y79.227
G01 X148.807 Y72.896
G01 X142.489 Y72.904
G01 X136.149 Y72.886
G01 X136.147 Y79.222
G01 X136.149 Y72.886
G01 X129.823 Y72.900
G01 X123.501 Y72.886
G01 X123.506 Y79.219
G01 X117.180 Y79.219
G01 X117.171 Y85.542
G01 X117.173 Y91.888
G01 X123.505 Y91.870
G01 X129.825 Y91.887
G01 X129.824 Y85.558
G01 X129.823 Y79.222
G01 X123.506 Y79.219
G01 X123.501 Y72.886
G01 X117.174 Y72.901
G01 X110.844 Y72.907
G01 X110.843 Y79.215
G01 X110.844 Y72.907
G01 X104.511 Y72.896
G01 X98.206 Y72.901
G01 X98.199 Y79.212
G01 X91.876 Y79.210
G01 X91.865 Y85.544
G01 X91.872 Y91.875
G01 X98.195 Y91.874
G01 X98.203 Y85.549
G01 X91.865 Y85.544
G01 X85.543 Y85.546
G01 X85.541 Y91.868
G01 X79.222 Y91.862
G01 X79.224 Y98.185
G01 X79.237 Y104.529
G01 X85.563 Y104.525
G01 X79.237 Y104.529
G01 X79.213 Y110.846
G01 X79.230 Y117.166
G01 X85.540 Y117.174
G01 X85.549 Y123.501
G01 X91.880 Y123.492
G01 X98.193 Y123.507
G01 X98.200 Y117.186
G01 X104.520 Y117.167
G01 X104.533 Y110.856
G01 X104.529 Y104.532
G01 X98.197 Y104.532
G01 X98.200 Y98.203
G01 X91.871 Y98.198
G01 X85.546 Y98.206
G01 X85.563 Y104.525
G01 X85.546 Y98.206
G01 X79.224 Y98.185
G01 X72.898 Y98.210
G01 X72.894 Y104.515
G01 X66.578 Y104.537
G01 X66.581 Y110.856
G01 X66.574 Y117.162
G01 X72.898 Y117.177
G01 X72.904 Y110.848
G01 X66.581 Y110.856
G01 X60.258 Y110.845
G01 X60.240 Y117.179
G01 X53.925 Y117.181
G01 X53.920 Y123.490
G01 X53.927 Y129.817
G01 X60.256 Y129.824
G01 X53.927 Y129.817
G01 X53.933 Y136.149
G01 X53.921 Y142.477
G01 X60.252 Y142.466
G01 X60.253 Y148.794
G01 X66.569 Y148.791
G01 X72.904 Y148.792
G01 X72.913 Y142.475
G01 X72.884 Y136.152
G01 X66.583 Y136.156
G01 X60.255 Y136.161
G01 X60.252 Y142.466
G01 X53.921 Y142.477
G01 X53.928 Y148.796
G01 X53.925 Y155.119
G01 X60.251 Y155.116
G01 X53.925 Y155.119
G01 X53.918 Y161.448
G01 X53.919 Y167.770
G01 X60.248 Y167.778
G01 X60.241 Y174.100
G01 X66.586 Y174.094
G01 X72.904 Y174.102
G01 X72.908 Y167.775
G01 X66.583 Y167.785
G01 X66.586 Y174.094
G01 X66.580 Y180.417
G01 X72.898 Y180.433
G01 X72.903 Y186.758
G01 X79.235 Y186.757
G01 X85.545 Y186.745
G01 X85.565 Y180.422
G01 X85.545 Y186.745
G01 X91.879 Y186.755
G01 X98.200 Y186.750
G01 X98.211 Y180.425
G01 X104.530 Y180.430
G01 X104.534 Y174.104
G01 X104.532 Y167.772
G01 X98.187 Y167.775
G01 X104.532 Y167.772
G01 X104.530 Y161.453
G01 X104.527 Y155.129
G01 X98.207 Y155.132
G01 X98.191 Y148.797
G01 X91.882 Y148.810
G01 X85.548 Y148.791
G01 X85.556 Y155.126
G01 X85.548 Y148.791
G01 X79.236 Y148.798
G01 X72.904 Y148.792
G01 X72.909 Y155.134
G01 X66.587 Y155.121
G01 X66.583 Y161.447
G01 X66.583 Y167.785
G01 X72.908 Y167.775
G01 X72.907 Y161.444
G01 X66.583 Y161.447
G01 X60.242 Y161.455
G01 X60.248 Y167.778
G01 X53.919 Y167.770
G01 X53.924 Y174.110
G01 X53.929 Y180.424
G01 X60.256 Y180.418
G01 X53.929 Y180.424
G01 X53.927 Y186.741
G01 X53.923 Y193.067
G01 X60.256 Y193.070
G01 X60.255 Y199.404
G01 X66.577 Y199.396
G01 X72.911 Y199.405
G01 X72.898 Y193.076
G01 X72.903 Y186.758
G01 X66.576 Y186.744
G01 X60.242 Y186.739
G01 X60.256 Y193.070
G01 X53.923 Y193.067
G01 X53.926 Y199.393
G01 X53.937 Y205.726
G01 X60.245 Y205.732
G01 X53.937 Y205.726
G01 X53.914 Y212.047
G01 X53.933 Y218.381
G01 X60.244 Y218.366
G01 X60.255 Y224.693
G01 X66.587 Y224.697
G01 X72.898 Y224.701
G01 X72.901 Y218.379
G01 X66.580 Y218.385
G01 X66.587 Y224.697
G01 X66.579 Y231.024
G01 X72.888 Y231.032
G01 X72.901 Y237.353
G01 X79.219 Y237.341
G01 X85.561 Y237.348
G01 X85.541 Y231.022
G01 X85.561 Y237.348
G01 X91.880 Y237.357
G01 X98.202 Y237.343
G01 X98.207 Y231.021
G01 X104.532 Y231.028
G01 X104.533 Y224.702
G01 X104.524 Y218.370
G01 X98.209 Y218.378
G01 X98.197 Y212.048
G01 X91.867 Y212.041
G01 X85.547 Y212.051
G01 X85.538 Y218.373
G01 X79.228 Y218.379
G01 X79.214 Y224.697
G01 X79.227 Y231.020
G01 X85.541 Y231.022
G01 X79.227 Y231.020
G01 X79.219 Y237.341
G01 X79.217 Y243.680
G01 X85.547 Y243.667
G01 X85.550 Y250.002
G01 X91.875 Y250.002
G01 X98.200 Y250.002
G01 X98.207 Y243.668
G01 X91.877 Y243.673
G01 X91.875 Y250.002
G01 X91.877 Y256.330
G01 X98.207 Y256.320
G01 X98.201 Y262.645
G01 X104.524 Y262.646
G01 X110.848 Y262.643
G01 X110.844 Y256.324
G01 X110.848 Y262.643
G01 X117.176 Y262.644
G01 X123.506 Y262.655
G01 X123.505 Y256.409
G01 X123.508 Y256.319
G01 X129.817 Y256.329
G01 X129.814 Y250.423
G01 X129.825 Y250.001
G01 X129.807 Y244.097
G01 X129.816 Y243.674
G01 X123.508 Y243.672
G01 X117.176 Y243.674
G01 X117.175 Y250.001
G01 X117.176 Y256.329
G01 X123.508 Y256.319
G01 X123.504 Y262.564
G01 X123.506 Y262.655
G01 X129.814 Y262.655
G01 X136.150 Y262.645
G01 X136.134 Y257.014
G01 X136.151 Y256.326
G01 X136.133 Y261.954
G01 X136.150 Y262.645
G01 X142.467 Y262.651
G01 X148.787 Y262.647
G01 X148.763 Y257.630
G01 X148.797 Y256.324
G01 X155.136 Y256.328
G01 X155.087 Y251.663
G01 X155.125 Y250.001
G01 X155.092 Y245.339
G01 X155.136 Y243.674
G01 X148.797 Y243.678
G01 X148.766 Y248.653
G01 X148.800 Y250.001
G01 X155.125 Y250.001
G01 X161.450 Y250.001
G01 X161.402 Y245.648
G01 X161.450 Y243.677
G01 X167.768 Y243.673
G01 X167.712 Y239.587
G01 X167.768 Y237.346
G01 X167.725 Y233.170
G01 X167.786 Y231.028
G01 X161.460 Y231.028
G01 X167.786 Y231.028
G01 X167.729 Y226.709
G01 X167.779 Y224.702
G01 X167.725 Y220.193
G01 X167.773 Y218.373
G01 X161.452 Y218.379
G01 X161.406 Y213.368
G01 X161.440 Y212.046
G01 X155.132 Y212.055
G01 X148.807 Y212.050
G01 X148.781 Y217.610
G01 X148.801 Y218.375
G01 X150.475 Y213.447
G01 X152.388 Y208.608
G01 X154.537 Y203.868
G01 X156.916 Y199.240
G01 X159.518 Y194.733
G01 X162.339 Y190.360
G01 X165.371 Y186.131
G01 X168.607 Y182.055
G01 X172.039 Y178.143
G01 X175.659 Y174.405
G01 X179.458 Y170.848
G01 X183.426 Y167.482
G01 X187.556 Y164.315
G01 X191.835 Y161.354
G01 X196.255 Y158.607
G01 X200.804 Y156.080
G01 X205.472 Y153.779
G01 X210.247 Y151.710
G01 X215.118 Y149.878
G01 X218.373 Y148.802
G01 X212.825 Y148.786
G01 X212.049 Y148.808
G01 X212.053 Y155.133
G01 X212.044 Y161.441
G01 X217.078 Y161.414
G01 X218.377 Y161.452
G01 X218.371 Y167.773
G01 X222.908 Y167.729
G01 X224.701 Y167.779
G01 X229.044 Y167.732
G01 X231.027 Y167.786
G01 X231.026 Y161.460
G01 X231.027 Y167.786
G01 X235.221 Y167.719
G01 X237.352 Y167.767
G01 X241.451 Y167.712
G01 X243.672 Y167.768
G01 X243.675 Y161.451
G01 X248.031 Y161.402
G01 X249.999 Y161.450
G01 X249.999 Y155.125
G01 X249.999 Y148.800
G01 X245.026 Y148.765
G01 X243.676 Y148.797
G01 X243.672 Y155.136
G01 X248.337 Y155.087
G01 X249.999 Y155.125
G01 X254.662 Y155.092
G01 X256.327 Y155.136
G01 X256.323 Y148.797
G01 X261.334 Y148.757
G01 X262.655 Y148.788
G01 X262.649 Y142.466
G01 X262.654 Y136.151
G01 X257.024 Y136.133
G01 X256.324 Y136.151
G01 X261.952 Y136.134
G01 X262.654 Y136.151
G01 X262.653 Y129.814
G01 X262.652 Y123.506
G01 X256.407 Y123.506
G01 X256.329 Y123.508
G01 X256.326 Y117.176
G01 X249.999 Y117.175
G01 X243.672 Y117.176
G01 X243.669 Y123.508
G01 X243.672 Y129.816
G01 X249.577 Y129.814
G01 X249.999 Y129.825
G01 X255.904 Y129.807
G01 X256.327 Y129.816
G01 X256.329 Y123.508
G01 X262.574 Y123.504
G01 X262.652 Y123.506
G01 X262.655 Y117.177
G01 X262.655 Y110.849
G01 X256.321 Y110.843
G01 X262.655 Y110.849
G01 X262.643 Y104.523
G01 X262.643 Y98.201
G01 X256.317 Y98.206
G01 X256.327 Y91.877
G01 X249.999 Y91.875
G01 X243.671 Y91.877
G01 X243.681 Y98.206
G01 X249.999 Y98.200
G01 X249.999 Y91.875
G01 X249.999 Y85.550
G01 X243.681 Y85.546
G01 X243.677 Y79.217
G01 X237.355 Y79.217
G01 X231.034 Y79.225
G01 X231.019 Y85.542
G01 X231.034 Y79.225
G01 X224.693 Y79.215
G01 X218.376 Y79.228
G01 X218.370 Y85.539
G01 X212.048 Y85.547
G01 X212.054 Y91.864
G01 X212.045 Y98.198
G01 X218.375 Y98.209
G01 X218.368 Y104.524
G01 X224.699 Y104.534
G01 X231.025 Y104.532
G01 X231.033 Y98.205
G01 X237.355 Y98.201
G01 X237.354 Y91.880
G01 X237.345 Y85.561
G01 X231.019 Y85.542
G01 X237.345 Y85.561
G01 X237.355 Y79.217
G01 X237.350 Y72.901
G01 X231.029 Y72.888
G01 X231.021 Y66.579
G01 X224.694 Y66.588
G01 X218.381 Y66.580
G01 X218.376 Y72.901
G01 X224.698 Y72.898
G01 X224.694 Y66.588
G01 X224.709 Y60.253
G01 X218.382 Y60.241
G01 X218.378 Y53.934
G01 X212.043 Y53.915
G01 X205.723 Y53.937
G01 X205.729 Y60.246
G01 X205.723 Y53.937
G01 X199.409 Y53.921
G01 X193.083 Y53.919
G01 X193.086 Y60.252
G01 X186.755 Y60.237
G01 X186.741 Y66.577
G01 X186.755 Y72.904
G01 X193.073 Y72.899
G01 X199.402 Y72.912
G01 X199.393 Y66.578
G01 X199.401 Y60.256
G01 X193.086 Y60.252
G01 X193.083 Y53.919
G01 X186.757 Y53.922
G01 X180.420 Y53.930
G01 X180.433 Y60.250
G01 X180.420 Y53.930
G01 X174.106 Y53.926
G01 X167.767 Y53.921
G01 X167.775 Y60.249
G01 X161.452 Y60.243
G01 X161.444 Y66.584
G01 X161.459 Y72.900
G01 X167.771 Y72.910
G01 X167.782 Y66.585
G01 X161.444 Y66.584
G01 X155.136 Y66.579
G01 X155.131 Y72.911
G01 X148.807 Y72.896
G01 X148.812 Y79.227
G01 X148.805 Y85.540
G01 X155.123 Y85.557
G01 X148.805 Y85.540
G01 X148.807 Y91.884
G01 X148.794 Y98.193
G01 X155.129 Y98.209
G01 X155.126 Y104.528
G01 X161.450 Y104.532
G01 X167.784 Y104.525
G01 X167.772 Y98.189
G01 X167.784 Y104.525
G01 X174.102 Y104.535
G01 X180.428 Y104.531
G01 X180.422 Y98.212
G01 X186.748 Y98.201
G01 X186.752 Y91.880
G01 X186.742 Y85.547
G01 X180.435 Y85.559
G01 X186.742 Y85.547
G01 X186.754 Y79.236
G01 X186.755 Y72.904
G01 X180.430 Y72.899
G01 X180.432 Y66.574
G01 X174.109 Y66.580
G01 X167.782 Y66.585
G01 X167.771 Y72.910
G01 X174.099 Y72.905
G01 X174.109 Y66.580
G01 X174.097 Y60.243
G01 X167.775 Y60.249
G01 X167.767 Y53.921
G01 X161.445 Y53.920
G01 X155.115 Y53.927
G01 X155.131 Y60.243
G01 X155.115 Y53.927
G01 X148.793 Y53.930
G01 X142.473 Y53.923
G01 X142.482 Y60.244
G01 X136.157 Y60.257
G01 X136.153 Y66.585
G01 X136.149 Y72.886
G01 X142.489 Y72.904
G01 X148.807 Y72.896
G01 X148.788 Y66.571
G01 X148.809 Y60.245
G01 X142.482 Y60.244
G01 X142.473 Y53.923
G01 X136.145 Y53.935
G01 X129.833 Y53.918
G01 X129.820 Y60.258
G01 X129.833 Y53.918
G01 X123.487 Y53.922
G01 X117.178 Y53.928
G01 X117.175 Y60.243
G01 X110.860 Y60.247
G01 X110.853 Y66.583
G01 X110.844 Y72.907
G01 X117.174 Y72.901
G01 X117.177 Y66.564
G01 X110.853 Y66.583
G01 X104.534 Y66.581
G01 X104.511 Y72.896
G01 X98.206 Y72.901
G01 X98.199 Y79.212
G01 X98.203 Y85.549
G01 X104.539 Y85.552
G01 X98.203 Y85.549
G01 X98.195 Y91.874
G01 X98.200 Y98.203
G01 X104.530 Y98.199
G01 X104.529 Y104.532
G01 X110.853 Y104.536
G01 X117.164 Y104.523
G01 X117.183 Y98.202
G01 X123.504 Y98.196
G01 X123.505 Y91.870
G01 X123.498 Y85.552
G01 X117.171 Y85.542
G01 X117.180 Y79.219
G01 X110.843 Y79.215
G01 X104.526 Y79.240
G01 X104.539 Y85.552
G01 X104.526 Y79.240
G01 X98.199 Y79.212
G01 X91.876 Y79.210
G01 X91.865 Y85.544
G01 X85.543 Y85.546
G01 X85.541 Y91.868
G01 X85.546 Y98.206
G01 X91.871 Y98.198
G01 X91.872 Y91.875
G01 X85.541 Y91.868
G01 X79.222 Y91.862
G01 X79.224 Y98.185
G01 X72.898 Y98.210
G01 X72.894 Y104.515
G01 X72.904 Y110.848
G01 X79.213 Y110.846
G01 X72.904 Y110.848
G01 X72.898 Y117.177
G01 X72.896 Y123.487
G01 X79.229 Y123.492
G01 X79.219 Y129.826
G01 X85.556 Y129.827
G01 X91.884 Y129.828
G01 X91.880 Y123.492
G01 X91.886 Y117.176
G01 X85.540 Y117.174
G01 X79.230 Y117.166
G01 X79.229 Y123.492
G01 X72.896 Y123.487
G01 X72.898 Y129.826
G01 X72.884 Y136.152
G01 X79.220 Y136.150
G01 X72.884 Y136.152
G01 X72.913 Y142.475
G01 X72.904 Y148.792
G01 X79.236 Y148.798
G01 X79.232 Y155.131
G01 X85.556 Y155.126
G01 X91.875 Y155.132
G01 X91.882 Y148.810
G01 X85.548 Y148.791
G01 X85.556 Y155.126
G01 X85.554 Y161.442
G01 X91.880 Y161.453
G01 X91.873 Y167.780
G01 X98.187 Y167.775
G01 X104.532 Y167.772
G01 X104.530 Y161.453
G01 X104.532 Y167.772
G01 X110.851 Y167.779
G01 X117.166 Y167.773
G01 X117.183 Y161.458
G01 X123.487 Y161.448
G01 X123.499 Y155.127
G01 X123.504 Y148.793
G01 X117.184 Y148.804
G01 X117.182 Y155.122
G01 X123.499 Y155.127
G01 X129.834 Y155.133
G01 X129.832 Y148.807
G01 X136.156 Y148.795
G01 X136.145 Y142.480
G01 X136.155 Y136.157
G01 X129.820 Y136.143
G01 X136.155 Y136.157
G01 X136.140 Y129.822
G01 X136.143 Y123.490
G01 X129.825 Y123.511
G01 X129.827 Y117.169
G01 X123.501 Y117.174
G01 X117.169 Y117.171
G01 X117.172 Y123.503
G01 X123.497 Y123.500
G01 X123.501 Y117.174
G01 X123.505 Y110.853
G01 X117.175 Y110.839
G01 X117.164 Y104.523
G01 X110.853 Y104.536
G01 X104.529 Y104.532
G01 X104.533 Y110.856
G01 X104.529 Y104.532
G01 X98.197 Y104.532
G01 X91.872 Y104.512
G01 X91.886 Y110.850
G01 X85.552 Y110.843
G01 X85.540 Y117.174
G01 X85.549 Y123.501
G01 X91.880 Y123.492
G01 X98.193 Y123.507
G01 X98.200 Y117.186
G01 X98.207 Y110.845
G01 X91.886 Y110.850
G01 X91.872 Y104.512
G01 X85.563 Y104.525
G01 X79.237 Y104.529
G01 X79.213 Y110.846
G01 X79.237 Y104.529
G01 X72.894 Y104.515
G01 X66.578 Y104.537
G01 X66.581 Y110.856
G01 X60.258 Y110.845
G01 X60.240 Y117.179
G01 X60.249 Y123.503
G01 X66.573 Y123.488
G01 X66.574 Y117.162
G01 X60.240 Y117.179
G01 X53.925 Y117.181
G01 X53.920 Y123.490
G01 X47.603 Y123.505
G01 X47.588 Y129.824
G01 X47.598 Y136.149
G01 X53.933 Y136.149
G01 X47.598 Y136.149
G01 X47.585 Y142.479
G01 X47.595 Y148.787
G01 X53.928 Y148.796
G01 X53.925 Y155.119
G01 X60.251 Y155.116
G01 X66.587 Y155.121
G01 X66.569 Y148.791
G01 X72.904 Y148.792
G01 X72.913 Y142.475
G01 X72.884 Y136.152
G01 X66.583 Y136.156
G01 X66.583 Y129.834
G01 X60.256 Y129.824
G01 X53.927 Y129.817
G01 X53.933 Y136.149
G01 X53.927 Y129.817
G01 X47.588 Y129.824
G01 X41.272 Y129.827
G01 X41.285 Y136.144
G01 X34.951 Y136.153
G01 X34.962 Y142.470
G01 X34.952 Y148.789
G01 X41.269 Y148.788
G01 X41.268 Y142.473
G01 X34.962 Y142.470
G01 X28.635 Y142.470
G01 X28.635 Y148.802
G01 X22.297 Y148.808
G01 X22.300 Y155.125
G01 X22.311 Y161.455
G01 X28.626 Y161.455
G01 X22.311 Y161.455
G01 X22.288 Y167.783
G01 X22.295 Y174.089
G01 X28.624 Y174.102
G01 X28.624 Y180.430
G01 X34.949 Y180.428
G01 X41.269 Y180.414
G01 X41.273 Y174.095
G01 X41.288 Y167.776
G01 X34.957 Y167.781
G01 X28.623 Y167.786
G01 X28.624 Y174.102
G01 X22.295 Y174.089
G01 X22.296 Y180.413
G01 X22.299 Y186.739
G01 X28.632 Y186.755
G01 X22.299 Y186.739
G01 X22.308 Y193.075
G01 X22.305 Y199.396
G01 X28.633 Y199.407
G01 X28.634 Y205.728
G01 X34.962 Y205.718
G01 X41.268 Y205.731
G01 X41.269 Y199.409
G01 X34.948 Y199.400
G01 X34.962 Y205.718
G01 X34.949 Y212.046
G01 X41.273 Y212.042
G01 X41.283 Y218.372
G01 X47.605 Y218.377
G01 X53.933 Y218.381
G01 X53.914 Y212.047
G01 X53.933 Y218.381
G01 X60.244 Y218.366
G01 X66.580 Y218.385
G01 X66.583 Y212.057
G01 X72.895 Y212.050
G01 X72.901 Y205.723
G01 X72.911 Y199.405
G01 X66.577 Y199.396
G01 X72.911 Y199.405
G01 X72.898 Y193.076
G01 X72.903 Y186.758
G01 X66.576 Y186.744
G01 X66.580 Y180.417
G01 X60.256 Y180.418
G01 X53.929 Y180.424
G01 X53.927 Y186.741
G01 X53.929 Y180.424
G01 X47.599 Y180.426
G01 X41.269 Y180.414
G01 X41.270 Y186.759
G01 X34.961 Y186.744
G01 X34.957 Y193.073
G01 X34.948 Y199.400
G01 X41.269 Y199.409
G01 X41.275 Y193.067
G01 X34.957 Y193.073
G01 X28.627 Y193.076
G01 X28.633 Y199.407
G01 X22.305 Y199.396
G01 X22.292 Y205.714
G01 X22.292 Y212.039
G01 X28.630 Y212.048
G01 X22.292 Y212.039
G01 X22.310 Y218.380
G01 X22.302 Y224.693
G01 X28.616 Y224.700
G01 X28.636 Y231.030
G01 X34.960 Y231.030
G01 X41.286 Y231.020
G01 X41.277 Y224.708
G01 X41.283 Y218.372
G01 X34.937 Y218.378
G01 X28.622 Y218.376
G01 X28.616 Y224.700
G01 X22.302 Y224.693
G01 X22.290 Y231.013
G01 X22.301 Y237.352
G01 X28.636 Y237.349
G01 X22.301 Y237.352
G01 X22.288 Y243.670
G01 X22.300 Y250.003
G01 X28.625 Y250.002
G01 X28.616 Y256.336
G01 X34.943 Y256.327
G01 X41.271 Y256.329
G01 X41.275 Y250.002
G01 X34.950 Y250.002
G01 X34.943 Y256.327
G01 X34.946 Y262.641
G01 X41.283 Y262.645
G01 X41.285 Y268.964
G01 X47.588 Y268.983
G01 X53.917 Y268.983
G01 X53.932 Y262.646
G01 X53.917 Y268.983
G01 X60.247 Y268.983
G01 X66.579 Y268.980
G01 X66.585 Y262.641
G01 X72.901 Y262.651
G01 X72.888 Y256.328
G01 X72.900 Y250.002
G01 X66.575 Y250.002
G01 X66.584 Y243.672
G01 X60.255 Y243.681
G01 X53.927 Y243.667
G01 X53.925 Y250.002
G01 X47.600 Y250.002
G01 X47.599 Y256.319
G01 X47.595 Y262.649
G01 X53.932 Y262.646
G01 X47.595 Y262.649
G01 X47.588 Y268.983
G01 X47.599 Y275.291
G01 X53.925 Y275.298
G01 X53.934 Y281.623
G01 X60.241 Y281.619
G01 X66.580 Y281.619
G01 X66.588 Y275.307
G01 X60.253 Y275.292
G01 X60.241 Y281.619
G01 X60.258 Y287.951
G01 X66.584 Y287.947
G01 X66.566 Y294.270
G01 X72.902 Y294.281
G01 X79.223 Y294.282
G01 X79.218 Y287.959
G01 X79.223 Y294.282
G01 X85.556 Y294.276
G01 X91.881 Y294.274
G01 X91.864 Y287.947
G01 X98.198 Y287.956
G01 X98.210 Y281.625
G01 X98.193 Y275.295
G01 X91.885 Y275.291
G01 X85.559 Y275.292
G01 X85.539 Y281.631
G01 X85.548 Y287.953
G01 X91.864 Y287.947
G01 X91.881 Y294.274
G01 X98.201 Y294.278
G01 X104.512 Y294.274
G01 X104.520 Y287.956
G01 X104.512 Y294.274
G01 X110.847 Y294.270
G01 X117.183 Y294.267
G01 X117.166 Y287.954
G01 X123.493 Y287.946
G01 X123.494 Y281.631
G01 X123.505 Y275.301
G01 X117.163 Y275.301
G01 X117.162 Y281.624
G01 X123.494 Y281.631
G01 X129.816 Y281.626
G01 X129.832 Y275.390
G01 X129.834 Y275.300
G01 X136.153 Y275.304
G01 X136.132 Y269.502
G01 X136.145 Y268.971
G01 X136.134 Y263.271
G01 X136.150 Y262.645
G01 X129.814 Y262.655
G01 X136.150 Y262.645
G01 X136.134 Y257.014
G01 X136.151 Y256.326
G01 X136.132 Y250.731
G01 X136.150 Y250.001
G01 X129.825 Y250.001
G01 X129.807 Y244.097
G01 X129.816 Y243.674
G01 X123.508 Y243.672
G01 X117.176 Y243.674
G01 X117.175 Y250.001
G01 X117.176 Y256.329
G01 X123.508 Y256.319
G01 X129.817 Y256.329
G01 X129.814 Y250.423
G01 X129.825 Y250.001
G01 X136.150 Y250.001
G01 X136.132 Y244.407
G01 X136.150 Y243.676
G01 X136.134 Y238.049
G01 X136.151 Y237.346
G01 X129.814 Y237.347
G01 X136.151 Y237.346
G01 X136.131 Y231.650
G01 X136.146 Y231.020
G01 X136.139 Y225.222
G01 X136.153 Y224.698
G01 X129.834 Y224.703
G01 X129.814 Y218.468
G01 X129.816 Y218.377
G01 X123.494 Y218.372
G01 X117.165 Y218.366
G01 X117.162 Y224.702
G01 X123.505 Y224.702
G01 X123.494 Y218.372
G01 X123.496 Y212.044
G01 X117.165 Y212.049
G01 X117.186 Y205.723
G01 X110.851 Y205.720
G01 X104.516 Y205.715
G01 X104.519 Y212.047
G01 X104.516 Y205.715
G01 X98.200 Y205.726
G01 X91.880 Y205.730
G01 X91.867 Y212.041
G01 X85.547 Y212.051
G01 X85.538 Y218.373
G01 X85.561 Y224.695
G01 X91.887 Y224.696
G01 X98.195 Y224.693
G01 X98.209 Y218.378
G01 X98.197 Y212.048
G01 X91.867 Y212.041
G01 X91.880 Y205.730
G01 X85.555 Y205.727
G01 X79.222 Y205.721
G01 X79.217 Y212.045
G01 X79.222 Y205.721
G01 X72.901 Y205.723
G01 X66.570 Y205.716
G01 X66.583 Y212.057
G01 X60.257 Y212.053
G01 X60.244 Y218.366
G01 X60.255 Y224.693
G01 X66.587 Y224.697
G01 X66.580 Y218.385
G01 X60.244 Y218.366
G01 X53.933 Y218.381
G01 X53.925 Y224.707
G01 X47.601 Y224.693
G01 X47.588 Y231.021
G01 X47.595 Y237.356
G01 X53.932 Y237.358
G01 X47.595 Y237.356
G01 X47.599 Y243.665
G01 X47.600 Y250.002
G01 X53.925 Y250.002
G01 X53.927 Y256.318
G01 X60.255 Y256.323
G01 X66.584 Y256.332
G01 X66.575 Y250.002
G01 X72.900 Y250.002
G01 X72.888 Y243.676
G01 X72.901 Y237.353
G01 X66.586 Y237.345
G01 X66.579 Y231.024
G01 X60.247 Y231.021
G01 X53.916 Y231.021
G01 X53.932 Y237.358
G01 X53.916 Y231.021
G01 X47.588 Y231.021
G01 X41.286 Y231.020
G01 X41.282 Y237.359
G01 X34.947 Y237.343
G01 X34.943 Y243.678
G01 X34.950 Y250.002
G01 X41.275 Y250.002
G01 X41.271 Y243.676
G01 X34.943 Y243.678
G01 X28.616 Y243.669
G01 X28.625 Y250.002
G01 X22.300 Y250.003
G01 X22.288 Y256.335
G01 X22.301 Y262.653
G01 X28.636 Y262.656
G01 X22.301 Y262.653
G01 X22.289 Y268.969
G01 X22.300 Y275.289
G01 X28.617 Y275.305
G01 X28.623 Y281.628
G01 X34.938 Y281.626
G01 X41.283 Y281.632
G01 X41.277 Y275.297
G01 X41.285 Y268.964
G01 X34.961 Y268.975
G01 X28.637 Y268.975
G01 X28.617 Y275.305
G01 X22.300 Y275.289
G01 X22.311 Y281.625
G01 X22.290 Y287.943
G01 X28.630 Y287.957
G01 X22.290 Y287.943
G01 X22.288 Y294.269
G01 X22.306 Y300.609
G01 X28.634 Y300.598
G01 X28.628 Y306.929
G01 X34.959 Y306.932
G01 X41.271 Y306.917
G01 X41.270 Y300.596
G01 X34.949 Y300.605
G01 X34.959 Y306.932
G01 X34.956 Y313.239
G01 X41.271 Y313.246
G01 X41.263 Y319.570
G01 X47.600 Y319.578
G01 X53.930 Y319.580
G01 X53.922 Y313.244
G01 X53.930 Y319.580
G01 X60.251 Y319.567
G01 X66.575 Y319.568
G01 X66.571 Y313.241
G01 X72.905 Y313.246
G01 X72.900 Y306.928
G01 X72.912 Y300.599
G01 X66.579 Y300.608
G01 X72.912 Y300.599
G01 X72.902 Y294.281
G01 X72.896 Y287.954
G01 X66.584 Y287.947
G01 X66.580 Y281.619
G01 X60.241 Y281.619
G01 X53.934 Y281.623
G01 X53.915 Y287.957
G01 X53.934 Y281.623
G01 X47.606 Y281.627
G01 X41.283 Y281.632
G01 X41.270 Y287.942
G01 X34.949 Y287.959
G01 X34.959 Y294.266
G01 X34.949 Y300.605
G01 X41.270 Y300.596
G01 X41.269 Y294.274
G01 X34.959 Y294.266
G01 X28.635 Y294.277
G01 X28.634 Y300.598
G01 X22.306 Y300.609
G01 X22.309 Y306.930
G01 X22.294 Y313.243
G01 X28.634 Y313.250
G01 X22.294 Y313.243
G01 X22.290 Y319.569
G01 X22.289 Y325.894
G01 X28.626 Y325.903
G01 X28.625 Y332.219
G01 X34.959 Y332.224
G01 X41.289 Y332.229
G01 X41.275 Y325.909
G01 X41.263 Y319.570
G01 X34.950 Y319.577
G01 X28.626 Y319.575
G01 X28.626 Y325.903
G01 X22.289 Y325.894
G01 X22.290 Y332.222
G01 X22.313 Y338.550
G01 X28.628 Y338.550
G01 X22.313 Y338.550
G01 X22.302 Y344.880
G01 X22.300 Y351.197
G01 X28.637 Y351.203
G01 X28.626 Y357.513
G01 X34.953 Y357.513
G01 X41.270 Y357.532
G01 X41.261 Y351.196
G01 X34.944 Y351.195
G01 X34.953 Y357.513
G01 X34.954 Y363.851
G01 X41.276 Y363.840
G01 X41.275 Y370.177
G01 X47.590 Y370.181
G01 X53.918 Y370.168
G01 X53.936 Y363.855
G01 X53.918 Y370.168
G01 X60.259 Y370.181
G01 X66.586 Y370.170
G01 X66.586 Y363.848
G01 X72.887 Y363.852
G01 X72.905 Y357.511
G01 X72.897 Y351.194
G01 X66.571 Y351.213
G01 X66.580 Y344.865
G01 X60.244 Y344.869
G01 X53.928 Y344.886
G01 X53.930 Y351.208
G01 X47.587 Y351.197
G01 X47.587 Y357.526
G01 X47.601 Y363.855
G01 X53.936 Y363.855
G01 X47.601 Y363.855
G01 X47.590 Y370.181
G01 X47.605 Y376.500
G01 X53.922 Y376.514
G01 X53.928 Y382.823
G01 X60.243 Y382.825
G01 X66.564 Y382.824
G01 X66.563 Y376.498
G01 X60.252 Y376.501
G01 X60.243 Y382.825
G01 X60.248 Y389.141
G01 X66.584 Y389.148
G01 X66.582 Y395.467
G01 X72.897 Y395.489
G01 X79.240 Y395.475
G01 X79.216 Y389.158
G01 X79.240 Y395.475
G01 X85.552 Y395.462
G01 X91.860 Y395.475
G01 X91.875 Y389.138
G01 X98.196 Y389.143
G01 X98.203 Y382.817
G01 X98.196 Y376.496
G01 X91.870 Y376.496
G01 X85.552 Y376.502
G01 X85.543 Y382.830
G01 X85.541 Y389.145
G01 X91.875 Y389.138
G01 X91.860 Y395.475
G01 X98.200 Y395.471
G01 X104.532 Y395.471
G01 X104.537 Y389.148
G01 X104.532 Y395.471
G01 X110.856 Y395.467
G01 X117.167 Y395.480
G01 X117.164 Y389.150
G01 X123.508 Y389.149
G01 X123.504 Y382.828
G01 X123.500 Y376.503
G01 X117.175 Y376.500
G01 X117.172 Y382.832
G01 X123.504 Y382.828
G01 X129.817 Y382.822
G01 X129.828 Y376.492
G01 X136.146 Y376.512
G01 X136.143 Y370.181
G01 X136.157 Y363.846
G01 X129.822 Y363.860
G01 X136.157 Y363.846
G01 X136.147 Y357.523
G01 X136.148 Y351.196
G01 X129.834 Y351.196
G01 X129.836 Y344.870
G01 X123.501 Y344.876
G01 X117.175 Y344.867
G01 X117.186 Y351.199
G01 X123.496 Y351.197
G01 X123.501 Y344.876
G01 X123.489 Y338.555
G01 X117.185 Y338.545
G01 X117.168 Y332.230
G01 X110.853 Y332.224
G01 X104.526 Y332.217
G01 X104.532 Y338.550
G01 X104.526 Y332.217
G01 X98.189 Y332.229
G01 X91.875 Y332.223
G01 X91.882 Y338.551
G01 X85.547 Y338.545
G01 X85.558 Y344.878
G01 X85.540 Y351.196
G01 X91.884 Y351.194
G01 X91.877 Y344.872
G01 X85.558 Y344.878
G01 X79.235 Y344.872
G01 X79.228 Y351.188
G01 X72.897 Y351.194
G01 X72.905 Y357.511
G01 X72.887 Y363.852
G01 X79.223 Y363.854
G01 X72.887 Y363.852
G01 X72.901 Y370.177
G01 X72.886 Y376.500
G01 X79.219 Y376.494
G01 X79.219 Y382.821
G01 X85.543 Y382.830
G01 X91.875 Y382.811
G01 X91.870 Y376.496
G01 X91.887 Y370.176
G01 X85.558 Y370.177
G01 X79.222 Y370.178
G01 X79.219 Y376.494
G01 X72.886 Y376.500
G01 X72.901 Y382.827
G01 X72.907 Y389.156
G01 X79.216 Y389.158
G01 X72.907 Y389.156
G01 X72.897 Y395.489
G01 X72.901 Y401.794
G01 X79.212 Y401.802
G01 X79.210 Y408.125
G01 X85.545 Y408.136
G01 X91.875 Y408.129
G01 X91.875 Y401.806
G01 X85.550 Y401.798
G01 X85.545 Y408.136
G01 X85.547 Y414.457
G01 X91.868 Y414.459
G01 X91.863 Y420.778
G01 X98.186 Y420.777
G01 X104.530 Y420.763
G01 X104.526 Y414.437
G01 X104.530 Y420.763
G01 X110.847 Y420.788
G01 X117.167 Y420.771
G01 X117.174 Y414.461
G01 X123.502 Y414.451
G01 X123.492 Y408.120
G01 X123.492 Y401.795
G01 X117.186 Y401.801
G01 X117.167 Y395.480
G01 X110.856 Y395.467
G01 X104.532 Y395.471
G01 X104.533 Y401.804
G01 X98.204 Y401.800
G01 X98.198 Y408.129
G01 X98.207 Y414.454
G01 X104.526 Y414.437
G01 X98.207 Y414.454
G01 X98.186 Y420.777
G01 X98.210 Y427.103
G01 X104.515 Y427.107
G01 X104.538 Y433.422
G01 X110.857 Y433.420
G01 X117.162 Y433.426
G01 X117.178 Y427.102
G01 X110.848 Y427.096
G01 X110.857 Y433.420
G01 X110.845 Y439.742
G01 X117.179 Y439.760
G01 X117.182 Y446.075
G01 X123.491 Y446.081
G01 X129.817 Y446.073
G01 X129.824 Y439.744
G01 X129.817 Y446.073
G01 X136.150 Y446.067
G01 X142.477 Y446.079
G01 X142.467 Y439.748
G01 X148.795 Y439.747
G01 X148.792 Y433.432
G01 X148.793 Y427.096
G01 X142.475 Y427.087
G01 X136.135 Y427.105
G01 X136.157 Y433.417
G01 X136.161 Y439.746
G01 X142.467 Y439.748
G01 X142.477 Y446.079
G01 X148.797 Y446.072
G01 X155.119 Y446.075
G01 X155.116 Y439.749
G01 X155.119 Y446.075
G01 X161.449 Y446.082
G01 X167.771 Y446.081
G01 X167.779 Y439.752
G01 X174.101 Y439.759
G01 X174.095 Y433.414
G01 X174.103 Y427.097
G01 X167.775 Y427.092
G01 X167.786 Y433.417
G01 X174.095 Y433.414
G01 X180.418 Y433.420
G01 X180.434 Y427.102
G01 X186.759 Y427.097
G01 X186.758 Y420.765
G01 X186.746 Y414.455
G01 X180.422 Y414.436
G01 X186.746 Y414.455
G01 X186.755 Y408.121
G01 X186.751 Y401.800
G01 X180.426 Y401.789
G01 X180.431 Y395.471
G01 X174.105 Y395.467
G01 X167.772 Y395.468
G01 X167.775 Y401.813
G01 X167.772 Y395.468
G01 X161.454 Y395.470
G01 X155.129 Y395.474
G01 X155.132 Y401.793
G01 X148.798 Y401.809
G01 X148.811 Y408.118
G01 X148.792 Y414.452
G01 X155.127 Y414.445
G01 X148.792 Y414.452
G01 X148.799 Y420.765
G01 X148.793 Y427.096
G01 X155.135 Y427.092
G01 X155.122 Y433.413
G01 X161.448 Y433.418
G01 X167.786 Y433.417
G01 X167.775 Y427.092
G01 X161.445 Y427.093
G01 X161.448 Y433.418
G01 X161.456 Y439.758
G01 X167.779 Y439.752
G01 X167.771 Y446.081
G01 X174.110 Y446.076
G01 X180.425 Y446.072
G01 X180.418 Y439.744
G01 X180.425 Y446.072
G01 X186.741 Y446.073
G01 X193.068 Y446.077
G01 X193.071 Y439.744
G01 X199.405 Y439.745
G01 X199.397 Y433.423
G01 X199.406 Y427.089
G01 X193.077 Y427.102
G01 X186.759 Y427.097
G01 X186.745 Y433.424
G01 X186.740 Y439.758
G01 X193.071 Y439.744
G01 X193.068 Y446.077
G01 X199.394 Y446.075
G01 X205.727 Y446.063
G01 X205.733 Y439.755
G01 X205.727 Y446.063
G01 X212.048 Y446.086
G01 X218.382 Y446.067
G01 X218.367 Y439.756
G01 X224.694 Y439.745
G01 X224.698 Y433.413
G01 X224.702 Y427.102
G01 X218.379 Y427.099
G01 X218.385 Y433.420
G01 X224.698 Y433.413
G01 X231.025 Y433.421
G01 X231.015 Y427.110
G01 X237.354 Y427.099
G01 X237.342 Y420.782
G01 X237.349 Y414.439
G01 X231.023 Y414.459
G01 X237.349 Y414.439
G01 X237.357 Y408.120
G01 X237.343 Y401.798
G01 X231.021 Y401.793
G01 X231.028 Y395.468
G01 X224.702 Y395.467
G01 X218.371 Y395.476
G01 X218.378 Y401.791
G01 X212.048 Y401.803
G01 X212.041 Y408.133
G01 X212.052 Y414.453
G01 X218.373 Y414.462
G01 X218.380 Y420.772
G01 X224.697 Y420.786
G01 X231.020 Y420.774
G01 X231.023 Y414.459
G01 X231.020 Y420.774
G01 X237.342 Y420.782
G01 X243.681 Y420.783
G01 X243.668 Y414.453
G01 X250.002 Y414.450
G01 X250.002 Y408.125
G01 X250.002 Y401.800
G01 X243.669 Y401.793
G01 X243.674 Y408.124
G01 X250.002 Y408.125
G01 X256.331 Y408.123
G01 X256.320 Y401.793
G01 X262.646 Y401.799
G01 X262.647 Y395.476
G01 X262.644 Y389.152
G01 X256.324 Y389.156
G01 X262.644 Y389.152
G01 X262.645 Y382.824
G01 X262.655 Y376.494
G01 X256.410 Y376.495
G01 X256.319 Y376.492
G01 X256.329 Y370.183
G01 X250.424 Y370.186
G01 X250.002 Y370.175
G01 X244.097 Y370.193
G01 X243.674 Y370.184
G01 X243.672 Y376.492
G01 X243.675 Y382.824
G01 X250.002 Y382.825
G01 X256.329 Y382.824
G01 X256.319 Y376.492
G01 X262.564 Y376.496
G01 X262.655 Y376.494
G01 X262.656 Y370.186
G01 X262.645 Y363.850
G01 X257.015 Y363.866
G01 X256.327 Y363.849
G01 X261.954 Y363.867
G01 X262.645 Y363.850
G01 X262.652 Y357.533
G01 X262.647 Y351.213
G01 X257.630 Y351.237
G01 X256.325 Y351.203
G01 X256.329 Y344.864
G01 X251.664 Y344.913
G01 X250.001 Y344.875
G01 X245.339 Y344.908
G01 X243.674 Y344.864
G01 X243.678 Y351.203
G01 X248.654 Y351.234
G01 X250.001 Y351.200
G01 X250.001 Y344.875
G01 X250.001 Y338.550
G01 X245.649 Y338.598
G01 X243.677 Y338.550
G01 X243.673 Y332.232
G01 X239.587 Y332.288
G01 X237.346 Y332.232
G01 X233.170 Y332.275
G01 X231.029 Y332.215
G01 X231.028 Y338.540
G01 X231.029 Y332.215
G01 X226.710 Y332.272
G01 X224.702 Y332.221
G01 X220.193 Y332.275
G01 X218.373 Y332.227
G01 X218.379 Y338.549
G01 X213.368 Y338.594
G01 X212.046 Y338.560
G01 X212.055 Y344.868
G01 X212.051 Y351.193
G01 X217.611 Y351.219
G01 X218.375 Y351.199
G01 X213.448 Y349.525
G01 X208.608 Y347.612
G01 X203.869 Y345.463
G01 X199.240 Y343.085
G01 X194.734 Y340.482
G01 X190.361 Y337.661
G01 X186.131 Y334.629
G01 X182.056 Y331.393
G01 X178.144 Y327.961
G01 X174.405 Y324.342
G01 X170.848 Y320.543
G01 X167.482 Y316.574
G01 X164.315 Y312.445
G01 X161.354 Y308.165
G01 X158.607 Y303.745
G01 X156.080 Y299.196
G01 X153.779 Y294.529
G01 X151.710 Y289.754
G01 X149.878 Y284.883
G01 X148.802 Y281.627
G01 X148.786 Y287.175
G01 X148.808 Y287.952
G01 X155.133 Y287.947
G01 X161.441 Y287.956
G01 X161.414 Y282.922
G01 X161.452 Y281.623
G01 X167.773 Y281.629
G01 X167.729 Y277.093
G01 X167.779 Y275.300
G01 X167.732 Y270.956
G01 X167.786 Y268.974
G01 X161.460 Y268.974
G01 X167.786 Y268.974
G01 X167.719 Y264.779
G01 X167.767 Y262.648
G01 X167.712 Y258.549
G01 X167.768 Y256.329
G01 X161.451 Y256.325
G01 X161.402 Y251.969
G01 X161.450 Y250.001
G01 X155.125 Y250.001
G01 X148.800 Y250.001
G01 X148.765 Y254.974
G01 X148.797 Y256.324
G01 X155.136 Y256.328
G01 X155.087 Y251.663
G01 X155.125 Y250.001
G01 X155.092 Y245.339
G01 X155.136 Y243.674
G01 X148.797 Y243.678
G01 X148.757 Y238.667
G01 X148.788 Y237.345
G01 X142.466 Y237.351
G01 X136.151 Y237.346
G01 X136.133 Y242.977
G01 X136.150 Y243.676
G01 X136.134 Y238.049
G01 X136.151 Y237.346
G01 X129.814 Y237.347
G01 X123.506 Y237.348
G01 X123.506 Y243.594
G01 X123.508 Y243.672
G01 X117.176 Y243.674
G01 X117.175 Y250.001
G01 X117.176 Y256.329
G01 X123.508 Y256.319
G01 X129.817 Y256.329
G01 X129.814 Y250.423
G01 X129.825 Y250.001
G01 X129.807 Y244.097
G01 X129.816 Y243.674
G01 X123.508 Y243.672
G01 X123.504 Y237.426
G01 X123.506 Y237.348
G01 X117.176 Y237.345
G01 X110.849 Y237.346
G01 X110.843 Y243.679
G01 X110.849 Y237.346
G01 X104.523 Y237.357
G01 X98.202 Y237.343
G01 X98.207 Y243.668
G01 X91.877 Y243.673
G01 X91.875 Y250.002
G01 X91.877 Y256.330
G01 X98.207 Y256.320
G01 X98.200 Y250.002
G01 X91.875 Y250.002
G01 X85.550 Y250.002
G01 X85.546 Y256.320
G01 X79.217 Y256.324
G01 X79.218 Y262.646
G01 X79.225 Y268.967
G01 X85.542 Y268.982
G01 X79.225 Y268.967
G01 X79.215 Y275.307
G01 X79.229 Y281.624
G01 X85.539 Y281.631
G01 X85.548 Y287.953
G01 X91.864 Y287.947
G01 X98.198 Y287.956
G01 X98.210 Y281.625
G01 X104.521 Y281.618
G01 X104.534 Y275.301
G01 X104.532 Y268.975
G01 X98.205 Y268.968
G01 X98.201 Y262.645
G01 X91.880 Y262.647
G01 X85.561 Y262.656
G01 X85.542 Y268.982
G01 X85.561 Y262.656
G01 X79.218 Y262.646
G01 X72.901 Y262.651
G01 X72.888 Y268.972
G01 X66.579 Y268.980
G01 X66.588 Y275.307
G01 X66.580 Y281.619
G01 X72.902 Y281.625
G01 X72.898 Y275.303
G01 X66.588 Y275.307
G01 X60.253 Y275.292
G01 X60.241 Y281.619
G01 X53.934 Y281.623
G01 X53.915 Y287.957
G01 X53.938 Y294.278
G01 X60.246 Y294.272
G01 X53.938 Y294.278
G01 X53.922 Y300.592
G01 X53.919 Y306.917
G01 X60.252 Y306.915
G01 X60.237 Y313.246
G01 X66.571 Y313.241
G01 X72.905 Y313.246
G01 X72.900 Y306.928
G01 X72.912 Y300.599
G01 X66.579 Y300.608
G01 X60.256 Y300.600
G01 X60.252 Y306.915
G01 X53.919 Y306.917
G01 X53.922 Y313.244
G01 X53.930 Y319.580
G01 X60.251 Y319.567
G01 X53.930 Y319.580
G01 X53.926 Y325.895
G01 X53.921 Y332.234
G01 X60.250 Y332.226
G01 X60.244 Y338.549
G01 X66.576 Y338.539
G01 X72.900 Y338.542
G01 X72.910 Y332.229
G01 X66.585 Y332.219
G01 X66.576 Y338.539
G01 X66.580 Y344.865
G01 X72.911 Y344.870
G01 X72.897 Y351.194
G01 X79.228 Y351.188
G01 X85.540 Y351.196
G01 X85.558 Y344.878
G01 X85.540 Y351.196
G01 X91.884 Y351.194
G01 X98.193 Y351.206
G01 X98.209 Y344.872
G01 X104.529 Y344.874
G01 X104.532 Y338.550
G01 X104.526 Y332.217
G01 X98.189 Y332.229
G01 X104.526 Y332.217
G01 X104.535 Y325.899
G01 X104.531 Y319.573
G01 X98.212 Y319.578
G01 X98.201 Y313.253
G01 X91.881 Y313.249
G01 X85.547 Y313.258
G01 X85.559 Y319.565
G01 X85.547 Y313.258
G01 X79.236 Y313.247
G01 X72.905 Y313.246
G01 X72.900 Y319.571
G01 X66.575 Y319.568
G01 X66.580 Y325.891
G01 X66.585 Y332.219
G01 X72.910 Y332.229
G01 X72.905 Y325.902
G01 X66.580 Y325.891
G01 X60.243 Y325.904
G01 X60.250 Y332.226
G01 X53.921 Y332.234
G01 X53.920 Y338.556
G01 X53.928 Y344.886
G01 X60.244 Y344.869
G01 X53.928 Y344.886
G01 X53.930 Y351.208
G01 X53.924 Y357.528
G01 X60.244 Y357.519
G01 X60.257 Y363.843
G01 X66.586 Y363.848
G01 X72.887 Y363.852
G01 X72.905 Y357.511
G01 X72.897 Y351.194
G01 X66.571 Y351.213
G01 X60.245 Y351.191
G01 X60.244 Y357.519
G01 X53.924 Y357.528
G01 X53.936 Y363.855
G01 X53.918 Y370.168
G01 X60.259 Y370.181
G01 X53.918 Y370.168
G01 X53.922 Y376.514
G01 X53.928 Y382.823
G01 X60.243 Y382.825
G01 X60.248 Y389.141
G01 X66.584 Y389.148
G01 X72.907 Y389.156
G01 X72.901 Y382.827
G01 X66.564 Y382.824
G01 X66.584 Y389.148
G01 X66.582 Y395.467
G01 X72.897 Y395.489
G01 X72.901 Y401.794
G01 X79.212 Y401.802
G01 X85.550 Y401.798
G01 X85.552 Y395.462
G01 X85.550 Y401.798
G01 X91.875 Y401.806
G01 X98.204 Y401.800
G01 X98.200 Y395.471
G01 X104.532 Y395.471
G01 X104.537 Y389.148
G01 X104.523 Y382.836
G01 X98.203 Y382.817
G01 X98.196 Y376.496
G01 X91.870 Y376.496
G01 X85.552 Y376.502
G01 X85.543 Y382.830
G01 X79.219 Y382.821
G01 X79.216 Y389.158
G01 X79.240 Y395.475
G01 X85.552 Y395.462
G01 X79.240 Y395.475
G01 X79.212 Y401.802
G01 X79.210 Y408.125
G01 X85.545 Y408.136
G01 X85.547 Y414.457
G01 X91.868 Y414.459
G01 X98.207 Y414.454
G01 X98.198 Y408.129
G01 X91.875 Y408.129
G01 X91.868 Y414.459
G01 X91.863 Y420.778
G01 X98.186 Y420.777
G01 X98.210 Y427.103
G01 X104.515 Y427.107
G01 X110.848 Y427.096
G01 X110.847 Y420.788
G01 X110.848 Y427.096
G01 X117.178 Y427.102
G01 X123.487 Y427.105
G01 X123.493 Y420.771
G01 X129.826 Y420.781
G01 X129.827 Y414.445
G01 X129.828 Y408.116
G01 X123.492 Y408.120
G01 X117.177 Y408.115
G01 X117.174 Y414.461
G01 X117.167 Y420.771
G01 X123.493 Y420.771
G01 X123.487 Y427.105
G01 X129.827 Y427.102
G01 X136.135 Y427.105
G01 X136.151 Y420.780
G01 X136.135 Y427.105
G01 X142.475 Y427.087
G01 X148.793 Y427.096
G01 X148.799 Y420.765
G01 X155.132 Y420.768
G01 X155.127 Y414.445
G01 X155.132 Y408.125
G01 X148.811 Y408.118
G01 X148.792 Y414.452
G01 X155.127 Y414.445
G01 X161.443 Y414.446
G01 X161.453 Y408.120
G01 X167.781 Y408.127
G01 X167.775 Y401.813
G01 X167.772 Y395.468
G01 X161.454 Y395.470
G01 X167.772 Y395.468
G01 X167.780 Y389.149
G01 X167.773 Y382.834
G01 X161.458 Y382.818
G01 X161.448 Y376.513
G01 X155.127 Y376.501
G01 X148.794 Y376.496
G01 X148.805 Y382.816
G01 X155.123 Y382.818
G01 X155.127 Y376.501
G01 X155.133 Y370.166
G01 X148.807 Y370.168
G01 X148.796 Y363.845
G01 X142.480 Y363.856
G01 X136.157 Y363.846
G01 X136.143 Y370.181
G01 X136.157 Y363.846
G01 X129.822 Y363.860
G01 X123.491 Y363.857
G01 X123.512 Y370.176
G01 X117.169 Y370.174
G01 X117.175 Y376.500
G01 X117.172 Y382.832
G01 X123.504 Y382.828
G01 X123.500 Y376.503
G01 X117.175 Y376.500
G01 X110.854 Y376.496
G01 X110.840 Y382.825
G01 X104.523 Y382.836
G01 X104.537 Y389.148
G01 X104.532 Y395.471
G01 X110.856 Y395.467
G01 X104.532 Y395.471
G01 X104.533 Y401.804
G01 X104.513 Y408.129
G01 X110.850 Y408.115
G01 X110.843 Y414.449
G01 X117.174 Y414.461
G01 X123.502 Y414.451
G01 X123.492 Y408.120
G01 X123.492 Y401.795
G01 X117.186 Y401.801
G01 X110.846 Y401.793
G01 X110.850 Y408.115
G01 X104.513 Y408.129
G01 X104.526 Y414.437
G01 X104.530 Y420.763
G01 X110.847 Y420.788
G01 X104.530 Y420.763
G01 X104.515 Y427.107
G01 X104.538 Y433.422
G01 X110.857 Y433.420
G01 X110.845 Y439.742
G01 X117.179 Y439.760
G01 X123.504 Y439.751
G01 X123.488 Y433.428
G01 X117.162 Y433.426
G01 X117.179 Y439.760
G01 X117.182 Y446.075
G01 X123.491 Y446.081
G01 X123.505 Y452.398
G01 X129.824 Y452.413
G01 X136.150 Y452.402
G01 X136.150 Y446.067
G01 X136.150 Y452.402
G01 X142.479 Y452.415
G01 X148.788 Y452.405
G01 X148.797 Y446.072
G01 X155.119 Y446.075
G01 X155.116 Y439.749
G01 X155.122 Y433.413
G01 X148.792 Y433.432
G01 X148.793 Y427.096
G01 X142.475 Y427.087
G01 X136.135 Y427.105
G01 X136.157 Y433.417
G01 X129.835 Y433.417
G01 X129.824 Y439.744
G01 X129.817 Y446.073
G01 X136.150 Y446.067
G01 X129.817 Y446.073
G01 X129.824 Y452.413
G01 X129.828 Y458.728
G01 X136.145 Y458.715
G01 X136.154 Y465.049
G01 X142.471 Y465.039
G01 X148.790 Y465.048
G01 X148.789 Y458.731
G01 X142.474 Y458.732
G01 X142.471 Y465.039
G01 X142.471 Y471.366
G01 X148.802 Y471.365
G01 X148.809 Y477.703
G01 X155.126 Y477.701
G01 X161.456 Y477.689
G01 X161.456 Y471.374
G01 X161.456 Y477.689
G01 X167.762 Y477.704
G01 X174.090 Y477.705
G01 X174.103 Y471.376
G01 X180.431 Y471.376
G01 X180.428 Y465.051
G01 X180.415 Y458.732
G01 X174.096 Y458.727
G01 X167.776 Y458.713
G01 X167.781 Y465.043
G01 X167.765 Y471.369
G01 X174.103 Y471.376
G01 X174.090 Y477.705
G01 X180.414 Y477.705
G01 X186.740 Y477.701
G01 X186.756 Y471.368
G01 X186.740 Y477.701
G01 X193.075 Y477.692
G01 X199.397 Y477.695
G01 X199.408 Y471.367
G01 X205.729 Y471.367
G01 X205.718 Y465.038
G01 X205.732 Y458.732
G01 X199.389 Y458.727
G01 X199.401 Y465.052
G01 X205.718 Y465.038
G01 X212.047 Y465.052
G01 X212.043 Y458.727
G01 X218.373 Y458.717
G01 X218.378 Y452.395
G01 X218.382 Y446.067
G01 X212.048 Y446.086
G01 X218.382 Y446.067
G01 X218.367 Y439.756
G01 X218.385 Y433.420
G01 X212.058 Y433.417
G01 X212.050 Y427.105
G01 X205.724 Y427.099
G01 X199.406 Y427.089
G01 X199.397 Y433.423
G01 X199.406 Y427.089
G01 X193.077 Y427.102
G01 X186.759 Y427.097
G01 X186.745 Y433.424
G01 X180.418 Y433.420
G01 X180.418 Y439.744
G01 X180.425 Y446.072
G01 X186.741 Y446.073
G01 X180.425 Y446.072
G01 X180.427 Y452.401
G01 X180.415 Y458.732
G01 X186.760 Y458.730
G01 X186.745 Y465.040
G01 X193.074 Y465.043
G01 X199.401 Y465.052
G01 X199.389 Y458.727
G01 X193.068 Y458.725
G01 X193.074 Y465.043
G01 X193.076 Y471.374
G01 X199.408 Y471.367
G01 X199.397 Y477.695
G01 X205.715 Y477.709
G01 X212.040 Y477.708
G01 X212.049 Y471.370
G01 X212.040 Y477.708
G01 X218.381 Y477.690
G01 X224.694 Y477.698
G01 X224.700 Y471.384
G01 X231.030 Y471.364
G01 X231.031 Y465.040
G01 X231.021 Y458.714
G01 X224.708 Y458.723
G01 X218.373 Y458.717
G01 X218.379 Y465.063
G01 X218.377 Y471.378
G01 X224.700 Y471.384
G01 X224.694 Y477.698
G01 X231.014 Y477.710
G01 X237.353 Y477.699
G01 X237.350 Y471.364
G01 X237.353 Y477.699
G01 X243.671 Y477.712
G01 X250.003 Y477.700
G01 X250.003 Y471.375
G01 X256.314 Y471.385
G01 X256.328 Y465.057
G01 X256.329 Y458.729
G01 X250.003 Y458.725
G01 X250.003 Y465.050
G01 X256.328 Y465.057
G01 X262.641 Y465.054
G01 X262.646 Y458.717
G01 X268.965 Y458.715
G01 X268.984 Y452.412
G01 X268.984 Y446.083
G01 X262.647 Y446.068
G01 X268.984 Y446.083
G01 X268.984 Y439.753
G01 X268.981 Y433.421
G01 X262.642 Y433.415
G01 X262.651 Y427.099
G01 X256.328 Y427.112
G01 X250.003 Y427.100
G01 X250.003 Y433.425
G01 X243.672 Y433.416
G01 X243.682 Y439.745
G01 X243.668 Y446.073
G01 X250.003 Y446.075
G01 X250.003 Y452.400
G01 X256.320 Y452.401
G01 X262.649 Y452.405
G01 X262.647 Y446.068
G01 X262.649 Y452.405
G01 X268.984 Y452.412
G01 X275.292 Y452.401
G01 X275.298 Y446.075
G01 X281.624 Y446.066
G01 X281.620 Y439.759
G01 X281.620 Y433.419
G01 X275.307 Y433.412
G01 X275.292 Y439.747
G01 X281.620 Y439.759
G01 X287.952 Y439.742
G01 X287.947 Y433.416
G01 X294.270 Y433.433
G01 X294.281 Y427.098
G01 X294.283 Y420.777
G01 X287.960 Y420.782
G01 X294.283 Y420.777
G01 X294.277 Y414.443
G01 X294.274 Y408.118
G01 X287.947 Y408.136
G01 X287.956 Y401.802
G01 X281.626 Y401.790
G01 X275.296 Y401.807
G01 X275.292 Y408.115
G01 X275.293 Y414.441
G01 X281.632 Y414.461
G01 X287.953 Y414.452
G01 X287.947 Y408.136
G01 X294.274 Y408.118
G01 X294.278 Y401.799
G01 X294.275 Y395.487
G01 X287.956 Y395.480
G01 X294.275 Y395.487
G01 X294.270 Y389.153
G01 X294.267 Y382.817
G01 X287.955 Y382.834
G01 X287.946 Y376.507
G01 X281.631 Y376.505
G01 X275.301 Y376.494
G01 X275.301 Y382.837
G01 X281.624 Y382.838
G01 X281.631 Y376.505
G01 X281.626 Y370.183
G01 X275.390 Y370.168
G01 X275.300 Y370.165
G01 X275.305 Y363.847
G01 X269.503 Y363.868
G01 X268.972 Y363.855
G01 X263.271 Y363.866
G01 X262.645 Y363.850
G01 X262.656 Y370.186
G01 X262.645 Y363.850
G01 X257.015 Y363.866
G01 X256.327 Y363.849
G01 X250.732 Y363.868
G01 X250.002 Y363.850
G01 X250.002 Y370.175
G01 X244.097 Y370.193
G01 X243.674 Y370.184
G01 X243.672 Y376.492
G01 X243.675 Y382.824
G01 X250.002 Y382.825
G01 X256.329 Y382.824
G01 X256.319 Y376.492
G01 X256.329 Y370.183
G01 X250.424 Y370.186
G01 X250.002 Y370.175
G01 X250.002 Y363.850
G01 X244.408 Y363.868
G01 X243.677 Y363.850
G01 X238.049 Y363.866
G01 X237.347 Y363.849
G01 X237.348 Y370.186
G01 X237.347 Y363.849
G01 X231.650 Y363.869
G01 X231.020 Y363.854
G01 X225.222 Y363.861
G01 X224.699 Y363.847
G01 X224.703 Y370.166
G01 X218.468 Y370.186
G01 X218.377 Y370.184
G01 X218.373 Y376.506
G01 X218.367 Y382.835
G01 X224.703 Y382.838
G01 X224.702 Y376.495
G01 X218.373 Y376.506
G01 X212.045 Y376.504
G01 X212.049 Y382.835
G01 X205.723 Y382.814
G01 X205.720 Y389.150
G01 X205.715 Y395.484
G01 X212.048 Y395.481
G01 X205.715 Y395.484
G01 X205.726 Y401.800
G01 X205.730 Y408.120
G01 X212.041 Y408.133
G01 X212.052 Y414.453
G01 X218.373 Y414.462
G01 X224.696 Y414.439
G01 X224.697 Y408.113
G01 X224.693 Y401.805
G01 X218.378 Y401.791
G01 X212.048 Y401.803
G01 X212.041 Y408.133
G01 X205.730 Y408.120
G01 X205.728 Y414.445
G01 X205.722 Y420.778
G01 X212.045 Y420.783
G01 X205.722 Y420.778
G01 X205.724 Y427.099
G01 X205.717 Y433.430
G01 X212.058 Y433.417
G01 X212.053 Y439.743
G01 X218.367 Y439.756
G01 X224.694 Y439.745
G01 X224.698 Y433.413
G01 X218.385 Y433.420
G01 X218.367 Y439.756
G01 X218.382 Y446.067
G01 X224.708 Y446.075
G01 X224.694 Y452.399
G01 X231.022 Y452.412
G01 X237.356 Y452.405
G01 X237.359 Y446.068
G01 X237.356 Y452.405
G01 X243.666 Y452.401
G01 X250.003 Y452.400
G01 X250.003 Y446.075
G01 X256.319 Y446.073
G01 X256.324 Y439.745
G01 X256.333 Y433.416
G01 X250.003 Y433.425
G01 X250.003 Y427.100
G01 X243.677 Y427.112
G01 X237.354 Y427.099
G01 X237.345 Y433.414
G01 X231.025 Y433.421
G01 X231.021 Y439.753
G01 X231.022 Y446.084
G01 X237.359 Y446.068
G01 X231.022 Y446.084
G01 X231.022 Y452.412
G01 X231.021 Y458.714
G01 X237.360 Y458.718
G01 X237.343 Y465.053
G01 X243.679 Y465.057
G01 X250.003 Y465.050
G01 X250.003 Y458.725
G01 X243.677 Y458.729
G01 X243.679 Y465.057
G01 X243.670 Y471.385
G01 X250.003 Y471.375
G01 X250.003 Y477.700
G01 X256.335 Y477.712
G01 X262.654 Y477.699
G01 X262.657 Y471.363
G01 X262.654 Y477.699
G01 X268.970 Y477.711
G01 X275.290 Y477.700
G01 X275.306 Y471.383
G01 X281.629 Y471.377
G01 X281.627 Y465.062
G01 X281.633 Y458.716
G01 X275.298 Y458.723
G01 X268.965 Y458.715
G01 X268.976 Y465.039
G01 X268.976 Y471.363
G01 X275.306 Y471.383
G01 X275.290 Y477.700
G01 X281.626 Y477.689
G01 X287.944 Y477.710
G01 X287.957 Y471.369
G01 X287.944 Y477.710
G01 X294.269 Y477.712
G01 X300.609 Y477.693
G01 X300.599 Y471.366
G01 X306.930 Y471.372
G01 X306.933 Y465.041
G01 X306.918 Y458.729
G01 X300.597 Y458.730
G01 X300.606 Y465.051
G01 X306.933 Y465.041
G01 X313.240 Y465.044
G01 X313.246 Y458.728
G01 X319.571 Y458.737
G01 X319.579 Y452.399
G01 X319.581 Y446.070
G01 X313.245 Y446.078
G01 X319.581 Y446.070
G01 X319.568 Y439.749
G01 X319.569 Y433.425
G01 X313.242 Y433.429
G01 X313.246 Y427.095
G01 X306.928 Y427.100
G01 X300.599 Y427.088
G01 X300.608 Y433.421
G01 X300.599 Y427.088
G01 X294.281 Y427.098
G01 X287.955 Y427.104
G01 X287.947 Y433.416
G01 X281.620 Y433.419
G01 X281.620 Y439.759
G01 X281.624 Y446.066
G01 X287.958 Y446.085
G01 X281.624 Y446.066
G01 X281.628 Y452.394
G01 X281.633 Y458.716
G01 X287.942 Y458.729
G01 X287.960 Y465.050
G01 X294.266 Y465.041
G01 X300.606 Y465.051
G01 X300.597 Y458.730
G01 X294.274 Y458.731
G01 X294.266 Y465.041
G01 X294.277 Y471.365
G01 X300.599 Y471.366
G01 X300.609 Y477.693
G01 X306.931 Y477.690
G01 X313.244 Y477.705
G01 X313.251 Y471.366
G01 X313.244 Y477.705
G01 X319.570 Y477.709
G01 X325.894 Y477.710
G01 X325.904 Y471.374
G01 X332.220 Y471.375
G01 X332.225 Y465.041
G01 X332.230 Y458.710
G01 X325.910 Y458.725
G01 X319.571 Y458.737
G01 X319.578 Y465.049
G01 X319.576 Y471.374
G01 X325.904 Y471.374
G01 X325.894 Y477.710
G01 X332.222 Y477.710
G01 X338.551 Y477.687
G01 X338.551 Y471.371
G01 X338.551 Y477.687
G01 X344.880 Y477.698
G01 X351.197 Y477.700
G01 X351.204 Y471.362
G01 X357.513 Y471.373
G01 X357.514 Y465.046
G01 X357.532 Y458.729
G01 X351.197 Y458.738
G01 X351.195 Y465.056
G01 X357.514 Y465.046
G01 X363.852 Y465.046
G01 X363.840 Y458.723
G01 X370.178 Y458.725
G01 X370.182 Y452.409
G01 X370.169 Y446.082
G01 X363.856 Y446.064
G01 X370.169 Y446.082
G01 X370.181 Y439.741
G01 X370.171 Y433.414
G01 X363.848 Y433.414
G01 X363.852 Y427.113
G01 X357.512 Y427.095
G01 X351.194 Y427.103
G01 X351.214 Y433.429
G01 X344.865 Y433.420
G01 X344.870 Y439.756
G01 X344.867 Y446.082
G01 X351.209 Y446.069
G01 X351.198 Y452.412
G01 X357.526 Y452.412
G01 X363.856 Y452.399
G01 X363.856 Y446.064
G01 X363.856 Y452.399
G01 X370.182 Y452.409
G01 X376.501 Y452.394
G01 X376.515 Y446.077
G01 X382.824 Y446.071
G01 X382.826 Y439.756
G01 X382.825 Y433.435
G01 X376.499 Y433.437
G01 X376.502 Y439.748
G01 X382.826 Y439.756
G01 X389.141 Y439.752
G01 X389.148 Y433.416
G01 X395.467 Y433.418
G01 X395.490 Y427.103
G01 X395.475 Y420.759
G01 X389.158 Y420.784
G01 X395.475 Y420.759
G01 X395.462 Y414.447
G01 X395.476 Y408.139
G01 X389.138 Y408.125
G01 X389.144 Y401.803
G01 X382.818 Y401.797
G01 X376.497 Y401.804
G01 X376.497 Y408.129
G01 X376.503 Y414.447
G01 X382.831 Y414.457
G01 X389.145 Y414.458
G01 X389.138 Y408.125
G01 X395.476 Y408.139
G01 X395.472 Y401.799
G01 X395.472 Y395.467
G01 X389.148 Y395.463
G01 X395.472 Y395.467
G01 X395.468 Y389.143
G01 X395.481 Y382.832
G01 X389.151 Y382.835
G01 X389.150 Y376.491
G01 X382.829 Y376.496
G01 X376.503 Y376.499
G01 X376.500 Y382.825
G01 X382.832 Y382.828
G01 X382.829 Y376.496
G01 X382.823 Y370.183
G01 X376.492 Y370.172
G01 X376.512 Y363.854
G01 X370.181 Y363.857
G01 X363.846 Y363.842
G01 X363.861 Y370.177
G01 X363.846 Y363.842
G01 X357.523 Y363.852
G01 X351.196 Y363.852
G01 X351.196 Y370.165
G01 X344.871 Y370.163
G01 X344.877 Y376.499
G01 X344.868 Y382.825
G01 X351.199 Y382.813
G01 X351.197 Y376.503
G01 X344.877 Y376.499
G01 X338.555 Y376.511
G01 X338.546 Y382.815
G01 X332.231 Y382.832
G01 X332.224 Y389.147
G01 X332.217 Y395.474
G01 X338.551 Y395.468
G01 X332.217 Y395.474
G01 X332.229 Y401.810
G01 X332.224 Y408.125
G01 X338.551 Y408.118
G01 X338.546 Y414.452
G01 X344.878 Y414.442
G01 X351.197 Y414.459
G01 X351.194 Y408.115
G01 X344.872 Y408.122
G01 X344.878 Y414.442
G01 X344.873 Y420.765
G01 X351.189 Y420.772
G01 X351.194 Y427.103
G01 X357.512 Y427.095
G01 X363.852 Y427.113
G01 X363.854 Y420.777
G01 X363.852 Y427.113
G01 X370.178 Y427.099
G01 X376.500 Y427.113
G01 X376.495 Y420.780
G01 X382.821 Y420.780
G01 X382.831 Y414.457
G01 X382.812 Y408.124
G01 X376.497 Y408.129
G01 X370.177 Y408.112
G01 X370.177 Y414.441
G01 X370.179 Y420.778
G01 X376.495 Y420.780
G01 X376.500 Y427.113
G01 X382.827 Y427.098
G01 X389.157 Y427.092
G01 X389.158 Y420.784
G01 X389.157 Y427.092
G01 X395.490 Y427.103
G01 X401.795 Y427.098
G01 X401.802 Y420.787
G01 X408.125 Y420.789
G01 X408.136 Y414.455
G01 X408.129 Y408.124
G01 X401.806 Y408.125
G01 X401.798 Y414.450
G01 X408.136 Y414.455
G01 X414.458 Y414.453
G01 X414.460 Y408.131
G01 X420.779 Y408.137
G01 X420.777 Y401.814
G01 X420.764 Y395.470
G01 X414.438 Y395.473
G01 X420.764 Y395.470
G01 X420.788 Y389.153
G01 X420.771 Y382.833
G01 X414.461 Y382.825
G01 X414.451 Y376.497
G01 X408.121 Y376.507
G01 X401.795 Y376.507
G01 X401.801 Y382.813
G01 X395.481 Y382.832
G01 X395.468 Y389.143
G01 X395.472 Y395.467
G01 X401.804 Y395.467
G01 X401.801 Y401.796
G01 X408.130 Y401.801
G01 X414.455 Y401.793
G01 X414.438 Y395.473
G01 X414.455 Y401.793
G01 X420.777 Y401.814
G01 X427.103 Y401.789
G01 X427.107 Y395.484
G01 X433.423 Y395.461
G01 X433.420 Y389.142
G01 X433.426 Y382.837
G01 X427.103 Y382.822
G01 X427.097 Y389.151
G01 X433.420 Y389.142
G01 X439.743 Y389.154
G01 X439.760 Y382.820
G01 X446.076 Y382.817
G01 X446.081 Y376.508
G01 X446.074 Y370.182
G01 X439.745 Y370.175
G01 X446.074 Y370.182
G01 X446.068 Y363.850
G01 X446.080 Y357.522
G01 X439.748 Y357.532
G01 X439.748 Y351.205
G01 X433.432 Y351.208
G01 X427.096 Y351.206
G01 X427.088 Y357.524
G01 X427.105 Y363.864
G01 X433.417 Y363.842
G01 X439.746 Y363.838
G01 X439.748 Y357.532
G01 X446.080 Y357.522
G01 X446.073 Y351.202
G01 X446.075 Y344.880
G01 X439.750 Y344.883
G01 X446.075 Y344.880
G01 X446.083 Y338.550
G01 X446.081 Y332.228
G01 X439.753 Y332.220
G01 X439.759 Y325.898
G01 X433.414 Y325.904
G01 X427.097 Y325.897
G01 X427.093 Y332.224
G01 X433.417 Y332.213
G01 X433.414 Y325.904
G01 X433.421 Y319.581
G01 X427.095 Y319.583
G01 X427.097 Y313.241
G01 X420.766 Y313.242
G01 X414.455 Y313.253
G01 X414.436 Y319.577
G01 X414.455 Y313.253
G01 X408.121 Y313.244
G01 X401.801 Y313.249
G01 X401.790 Y319.574
G01 X395.471 Y319.569
G01 X395.467 Y325.895
G01 X395.469 Y332.227
G01 X401.813 Y332.224
G01 X395.469 Y332.227
G01 X395.471 Y338.546
G01 X395.474 Y344.870
G01 X401.793 Y344.867
G01 X401.810 Y351.202
G01 X408.119 Y351.189
G01 X414.453 Y351.208
G01 X414.445 Y344.873
G01 X414.453 Y351.208
G01 X420.765 Y351.200
G01 X427.096 Y351.206
G01 X427.092 Y344.864
G01 X433.414 Y344.877
G01 X433.418 Y338.552
G01 X433.417 Y332.213
G01 X427.093 Y332.224
G01 X427.094 Y338.554
G01 X433.418 Y338.552
G01 X439.759 Y338.544
G01 X439.753 Y332.220
G01 X446.081 Y332.228
G01 X446.069 Y325.908
G01 X446.072 Y319.574
G01 X439.744 Y319.581
G01 X446.072 Y319.574
G01 X446.073 Y313.258
G01 X446.077 Y306.931
G01 X439.744 Y306.928
G01 X439.745 Y300.595
G01 X433.423 Y300.602
G01 X427.090 Y300.594
G01 X427.102 Y306.922
G01 X427.097 Y313.241
G01 X433.425 Y313.254
G01 X439.758 Y313.259
G01 X439.744 Y306.928
G01 X446.077 Y306.931
G01 X446.075 Y300.606
G01 X446.064 Y294.272
G01 X439.751 Y294.285
G01 X446.064 Y294.272
G01 X446.086 Y287.952
G01 X446.067 Y281.617
G01 X439.756 Y281.633
G01 X439.745 Y275.305
G01 X433.413 Y275.301
G01 X427.102 Y275.298
G01 X427.099 Y281.620
G01 X433.417 Y281.632
G01 X433.413 Y275.301
G01 X433.421 Y268.975
G01 X427.110 Y268.984
G01 X427.099 Y262.645
G01 X420.782 Y262.658
G01 X414.439 Y262.651
G01 X414.459 Y268.977
G01 X414.439 Y262.651
G01 X408.120 Y262.642
G01 X401.798 Y262.656
G01 X401.793 Y268.978
G01 X395.468 Y268.971
G01 X395.467 Y275.297
G01 X395.476 Y281.629
G01 X401.791 Y281.621
G01 X401.803 Y287.951
G01 X408.133 Y287.958
G01 X414.454 Y287.948
G01 X414.462 Y281.626
G01 X420.772 Y281.619
G01 X420.786 Y275.302
G01 X420.774 Y268.979
G01 X414.459 Y268.977
G01 X420.774 Y268.979
G01 X420.782 Y262.658
G01 X420.783 Y256.319
G01 X414.453 Y256.332
G01 X414.450 Y249.997
G01 X408.125 Y249.997
G01 X401.800 Y249.997
G01 X401.793 Y256.331
G01 X408.124 Y256.325
G01 X408.125 Y249.997
G01 X408.123 Y243.669
G01 X401.793 Y243.679
G01 X401.799 Y237.354
G01 X395.476 Y237.353
G01 X389.152 Y237.356
G01 X389.156 Y243.675
G01 X389.152 Y237.356
G01 X382.824 Y237.355
G01 X376.493 Y237.344
G01 X376.494 Y243.590
G01 X376.492 Y243.680
G01 X370.183 Y243.670
G01 X370.186 Y249.576
G01 X370.175 Y249.998
G01 X370.193 Y255.903
G01 X370.184 Y256.325
G01 X376.492 Y256.328
G01 X382.824 Y256.325
G01 X382.825 Y249.998
G01 X382.824 Y243.670
G01 X376.492 Y243.680
G01 X376.496 Y237.435
G01 X376.493 Y237.344
G01 X370.185 Y237.344
G01 X363.850 Y237.354
G01 X363.866 Y242.985
G01 X363.849 Y243.673
G01 X363.867 Y238.045
G01 X363.850 Y237.354
G01 X357.533 Y237.348
G01 X351.213 Y237.352
G01 X351.237 Y242.369
G01 X351.203 Y243.675
G01 X344.865 Y243.680
G01 X344.913 Y248.345
G01 X344.875 Y249.998
G01 X344.908 Y254.661
G01 X344.864 Y256.326
G01 X351.203 Y256.321
G01 X351.234 Y251.346
G01 X351.200 Y249.998
G01 X344.875 Y249.998
G01 X338.550 Y249.998
G01 X338.598 Y254.351
G01 X338.550 Y256.323
G01 X332.232 Y256.326
G01 X332.288 Y260.413
G01 X332.232 Y262.654
G01 X332.275 Y266.829
G01 X332.215 Y268.971
G01 X338.540 Y268.972
G01 X332.215 Y268.971
G01 X332.272 Y273.290
G01 X332.221 Y275.297
G01 X332.275 Y279.806
G01 X332.228 Y281.627
G01 X338.549 Y281.620
G01 X338.594 Y286.632
G01 X338.560 Y287.953
G01 X344.868 Y287.944
G01 X351.193 Y287.949
G01 X351.219 Y282.389
G01 X351.199 Y281.624
G01 X349.525 Y286.552
G01 X347.612 Y291.391
G01 X345.463 Y296.131
G01 X343.085 Y300.760
G01 X340.482 Y305.266
G01 X337.661 Y309.639
G01 X334.629 Y313.869
G01 X331.393 Y317.944
G01 X327.962 Y321.856
G01 X324.342 Y325.595
G01 X320.543 Y329.152
G01 X316.574 Y332.518
G01 X312.445 Y335.685
G01 X308.166 Y338.646
G01 X303.746 Y341.393
G01 X299.197 Y343.920
G01 X294.529 Y346.221
G01 X289.754 Y348.290
G01 X284.883 Y350.122
G01 X281.628 Y351.198
G01 X287.176 Y351.214
G01 X287.952 Y351.192
G01 X287.948 Y344.867
G01 X287.956 Y338.559
G01 X282.923 Y338.586
G01 X281.623 Y338.548
G01 X281.629 Y332.226
G01 X277.093 Y332.271
G01 X275.300 Y332.220
G01 X270.956 Y332.268
G01 X268.974 Y332.214
G01 X268.975 Y338.540
G01 X268.974 Y332.214
G01 X264.779 Y332.281
G01 X262.648 Y332.233
G01 X258.550 Y332.288
G01 X256.329 Y332.232
G01 X256.326 Y338.549
G01 X251.970 Y338.598
G01 X250.001 Y338.550
G01 X250.001 Y344.875
G01 X250.001 Y351.200
G01 X254.975 Y351.235
G01 X256.325 Y351.203
G01 X256.329 Y344.864
G01 X251.664 Y344.913
G01 X250.001 Y344.875
G01 X245.339 Y344.908
G01 X243.674 Y344.864
G01 X243.678 Y351.203
G01 X238.667 Y351.243
G01 X237.345 Y351.212
G01 X237.352 Y357.534
G01 X237.347 Y363.849
G01 X242.977 Y363.867
G01 X243.677 Y363.850
G01 X238.049 Y363.866
G01 X237.347 Y363.849
G01 X237.348 Y370.186
G01 X237.348 Y376.494
G01 X243.594 Y376.494
G01 X243.672 Y376.492
G01 X243.675 Y382.824
G01 X250.002 Y382.825
G01 X256.329 Y382.824
G01 X256.319 Y376.492
G01 X256.329 Y370.183
G01 X250.424 Y370.186
G01 X250.002 Y370.175
G01 X244.097 Y370.193
G01 X243.674 Y370.184
G01 X243.672 Y376.492
G01 X237.427 Y376.496
G01 X237.348 Y376.494
G01 X237.346 Y382.824
G01 X237.346 Y389.151
G01 X243.680 Y389.157
G01 X237.346 Y389.151
G01 X237.343 Y395.475
G01 X237.343 Y401.798
G01 X243.669 Y401.793
G01 X243.674 Y408.124
G01 X250.002 Y408.125
G01 X256.331 Y408.123
G01 X256.320 Y401.793
G01 X250.002 Y401.800
G01 X250.002 Y408.125
G01 X250.002 Y414.450
G01 X256.321 Y414.454
G01 X256.324 Y420.783
G01 X262.646 Y420.782
G01 X268.968 Y420.775
G01 X268.982 Y414.458
G01 X268.968 Y420.775
G01 X275.308 Y420.785
G01 X281.625 Y420.771
G01 X281.632 Y414.461
G01 X287.953 Y414.452
G01 X287.947 Y408.136
G01 X287.956 Y401.802
G01 X281.626 Y401.790
G01 X281.619 Y395.479
G01 X275.302 Y395.466
G01 X268.976 Y395.468
G01 X268.968 Y401.794
G01 X262.646 Y401.799
G01 X262.647 Y408.120
G01 X262.656 Y414.439
G01 X268.982 Y414.458
G01 X262.656 Y414.439
G01 X262.646 Y420.782
G01 X262.651 Y427.099
G01 X268.972 Y427.112
G01 X268.981 Y433.421
G01 X275.307 Y433.412
G01 X281.620 Y433.419
G01 X281.626 Y427.098
G01 X275.303 Y427.102
G01 X275.307 Y433.412
G01 X275.292 Y439.747
G01 X281.620 Y439.759
G01 X281.624 Y446.066
G01 X287.958 Y446.085
G01 X294.279 Y446.062
G01 X294.272 Y439.754
G01 X294.279 Y446.062
G01 X300.593 Y446.078
G01 X306.918 Y446.081
G01 X306.916 Y439.748
G01 X313.247 Y439.763
G01 X313.242 Y433.429
G01 X313.246 Y427.095
G01 X306.928 Y427.100
G01 X300.599 Y427.088
G01 X300.608 Y433.421
G01 X300.601 Y439.744
G01 X306.916 Y439.748
G01 X306.918 Y446.081
G01 X313.245 Y446.078
G01 X319.581 Y446.070
G01 X319.568 Y439.749
G01 X319.581 Y446.070
G01 X325.895 Y446.074
G01 X332.235 Y446.079
G01 X332.227 Y439.750
G01 X338.550 Y439.756
G01 X338.539 Y433.424
G01 X338.542 Y427.099
G01 X332.230 Y427.090
G01 X332.219 Y433.415
G01 X338.539 Y433.424
G01 X344.865 Y433.420
G01 X344.870 Y427.089
G01 X351.194 Y427.103
G01 X351.189 Y420.772
G01 X351.197 Y414.459
G01 X344.878 Y414.442
G01 X351.197 Y414.459
G01 X351.194 Y408.115
G01 X351.207 Y401.806
G01 X344.872 Y401.790
G01 X344.875 Y395.471
G01 X338.551 Y395.468
G01 X332.217 Y395.474
G01 X332.229 Y401.810
G01 X332.217 Y395.474
G01 X325.900 Y395.464
G01 X319.574 Y395.469
G01 X319.564 Y401.794
G01 X313.254 Y401.799
G01 X313.249 Y408.119
G01 X313.259 Y414.453
G01 X319.566 Y414.441
G01 X313.259 Y414.453
G01 X313.247 Y420.763
G01 X313.246 Y427.095
G01 X319.571 Y427.100
G01 X319.569 Y433.425
G01 X325.892 Y433.419
G01 X332.219 Y433.415
G01 X332.230 Y427.090
G01 X325.902 Y427.095
G01 X325.892 Y433.419
G01 X325.905 Y439.757
G01 X332.227 Y439.750
G01 X332.235 Y446.079
G01 X338.557 Y446.080
G01 X344.867 Y446.082
G01 X344.870 Y439.756
G01 X344.867 Y446.082
G01 X351.209 Y446.069
G01 X357.528 Y446.076
G01 X357.520 Y439.756
G01 X363.844 Y439.742
G01 X363.848 Y433.414
G01 X363.852 Y427.113
G01 X357.512 Y427.095
G01 X351.194 Y427.103
G01 X351.214 Y433.429
G01 X351.192 Y439.754
G01 X357.520 Y439.756
G01 X357.528 Y446.076
G01 X363.856 Y446.064
G01 X370.169 Y446.082
G01 X370.181 Y439.741
G01 X370.169 Y446.082
G01 X376.515 Y446.077
G01 X382.824 Y446.071
G01 X382.826 Y439.756
G01 X389.141 Y439.752
G01 X389.148 Y433.416
G01 X389.157 Y427.092
G01 X382.827 Y427.098
G01 X382.825 Y433.435
G01 X389.148 Y433.416
G01 X395.467 Y433.418
G01 X395.490 Y427.103
G01 X401.795 Y427.098
G01 X401.802 Y420.787
G01 X401.798 Y414.450
G01 X395.462 Y414.447
G01 X401.798 Y414.450
G01 X401.806 Y408.125
G01 X401.801 Y401.796
G01 X395.472 Y401.799
G01 X395.472 Y395.467
G01 X389.148 Y395.463
G01 X382.837 Y395.476
G01 X382.818 Y401.797
G01 X376.497 Y401.804
G01 X376.497 Y408.129
G01 X376.503 Y414.447
G01 X382.831 Y414.457
G01 X382.821 Y420.780
G01 X389.158 Y420.784
G01 X395.475 Y420.759
G01 X395.462 Y414.447
G01 X395.475 Y420.759
G01 X401.802 Y420.787
G01 X408.125 Y420.789
G01 X408.136 Y414.455
G01 X414.458 Y414.453
G01 X414.460 Y408.131
G01 X414.455 Y401.793
G01 X408.130 Y401.801
G01 X408.129 Y408.124
G01 X414.460 Y408.131
G01 X420.779 Y408.137
G01 X420.777 Y401.814
G01 X427.103 Y401.789
G01 X427.107 Y395.484
G01 X427.097 Y389.151
G01 X420.788 Y389.153
G01 X427.097 Y389.151
G01 X427.103 Y382.822
G01 X427.105 Y376.512
G01 X420.772 Y376.506
G01 X420.782 Y370.173
G01 X414.445 Y370.172
G01 X408.116 Y370.171
G01 X408.121 Y376.507
G01 X408.115 Y382.823
G01 X414.461 Y382.825
G01 X420.771 Y382.833
G01 X420.772 Y376.506
G01 X427.105 Y376.512
G01 X427.103 Y370.172
G01 X427.105 Y363.864
G01 X420.781 Y363.849
G01 X427.105 Y363.864
G01 X427.088 Y357.524
G01 X427.096 Y351.206
G01 X420.765 Y351.200
G01 X420.768 Y344.867
G01 X414.445 Y344.873
G01 X408.125 Y344.867
G01 X408.119 Y351.189
G01 X414.453 Y351.208
G01 X414.445 Y344.873
G01 X414.446 Y338.557
G01 X408.120 Y338.546
G01 X408.127 Y332.219
G01 X401.813 Y332.224
G01 X395.469 Y332.227
G01 X395.471 Y338.546
G01 X395.469 Y332.227
G01 X389.149 Y332.220
G01 X382.835 Y332.226
G01 X382.818 Y338.541
G01 X376.514 Y338.551
G01 X376.502 Y344.873
G01 X376.497 Y351.206
G01 X382.817 Y351.195
G01 X382.819 Y344.877
G01 X376.502 Y344.873
G01 X370.166 Y344.867
G01 X370.169 Y351.192
G01 X363.845 Y351.204
G01 X363.845 Y357.531
G01 X363.846 Y363.842
G01 X370.181 Y363.857
G01 X363.846 Y363.842
G01 X363.861 Y370.177
G01 X363.858 Y376.509
G01 X370.163 Y376.500
G01 X370.174 Y382.831
G01 X376.500 Y382.825
G01 X382.832 Y382.828
G01 X382.829 Y376.496
G01 X376.503 Y376.499
G01 X376.500 Y382.825
G01 X376.496 Y389.146
G01 X382.826 Y389.160
G01 X382.837 Y395.476
G01 X389.148 Y395.463
G01 X395.472 Y395.467
G01 X395.468 Y389.143
G01 X395.472 Y395.467
G01 X401.804 Y395.467
G01 X408.129 Y395.487
G01 X408.115 Y389.149
G01 X414.449 Y389.156
G01 X414.461 Y382.825
G01 X414.451 Y376.497
G01 X408.121 Y376.507
G01 X401.795 Y376.507
G01 X401.801 Y382.813
G01 X401.794 Y389.154
G01 X408.115 Y389.149
G01 X408.129 Y395.487
G01 X414.438 Y395.473
G01 X420.764 Y395.470
G01 X420.788 Y389.153
G01 X420.764 Y395.470
G01 X427.107 Y395.484
G01 X433.423 Y395.461
G01 X433.420 Y389.142
G01 X439.743 Y389.154
G01 X439.760 Y382.820
G01 X439.752 Y376.495
G01 X433.428 Y376.511
G01 X433.426 Y382.837
G01 X439.760 Y382.820
G01 X446.076 Y382.817
G01 X446.081 Y376.508
G01 X452.398 Y376.494
G01 X452.413 Y370.175
G01 X452.403 Y363.849
G01 X446.068 Y363.850
G01 X452.403 Y363.849
G01 X452.405 Y357.540
G01 X452.405 Y351.211
G01 X446.073 Y351.202
G01 X446.075 Y344.880
G01 X439.750 Y344.883
G01 X433.414 Y344.877
G01 X433.432 Y351.208
G01 X427.096 Y351.206
G01 X427.088 Y357.524
G01 X427.105 Y363.864
G01 X433.417 Y363.842
G01 X433.418 Y370.165
G01 X439.745 Y370.175
G01 X446.074 Y370.182
G01 X446.068 Y363.850
G01 X446.074 Y370.182
G01 X452.413 Y370.175
G01 X458.729 Y370.171
G01 X458.716 Y363.854
G01 X465.050 Y363.845
G01 X465.039 Y357.529
G01 X465.049 Y351.210
G01 X458.731 Y351.211
G01 X458.733 Y357.525
G01 X465.039 Y357.529
G01 X471.366 Y357.528
G01 X471.366 Y351.197
G01 X477.703 Y351.190
G01 X477.701 Y344.873
G01 X477.690 Y338.543
G01 X471.374 Y338.543
G01 X477.690 Y338.543
G01 X477.705 Y332.238
G01 X477.705 Y325.910
G01 X471.376 Y325.897
G01 X471.376 Y319.568
G01 X465.052 Y319.571
G01 X458.732 Y319.585
G01 X458.727 Y325.903
G01 X458.713 Y332.223
G01 X465.044 Y332.218
G01 X471.369 Y332.234
G01 X471.376 Y325.897
G01 X477.705 Y325.910
G01 X477.705 Y319.585
G01 X477.701 Y313.259
G01 X471.368 Y313.244
G01 X477.701 Y313.259
G01 X477.692 Y306.924
G01 X477.695 Y300.602
G01 X471.367 Y300.591
G01 X471.367 Y294.270
G01 X465.038 Y294.281
G01 X458.733 Y294.268
G01 X458.727 Y300.611
G01 X465.053 Y300.599
G01 X465.038 Y294.281
G01 X465.052 Y287.952
G01 X458.727 Y287.956
G01 X458.718 Y281.626
G01 X452.395 Y281.621
G01 X446.067 Y281.617
G01 X446.086 Y287.952
G01 X446.067 Y281.617
G01 X439.756 Y281.633
G01 X433.417 Y281.632
G01 X433.417 Y287.941
G01 X427.105 Y287.949
G01 X427.099 Y294.275
G01 X427.090 Y300.594
G01 X433.423 Y300.602
G01 X427.090 Y300.594
G01 X427.102 Y306.922
G01 X427.097 Y313.241
G01 X433.425 Y313.254
G01 X433.421 Y319.581
G01 X439.744 Y319.581
G01 X446.072 Y319.574
G01 X446.073 Y313.258
G01 X446.072 Y319.574
G01 X452.402 Y319.572
G01 X458.732 Y319.585
G01 X458.724 Y313.260
G01 X465.040 Y313.254
G01 X465.043 Y306.926
G01 X465.053 Y300.599
G01 X458.727 Y300.611
G01 X458.725 Y306.932
G01 X465.043 Y306.926
G01 X471.374 Y306.923
G01 X471.367 Y300.591
G01 X477.695 Y300.602
G01 X477.709 Y294.285
G01 X477.708 Y287.959
G01 X471.371 Y287.950
G01 X477.708 Y287.959
G01 X477.690 Y281.618
G01 X477.698 Y275.305
G01 X471.384 Y275.299
G01 X471.364 Y268.969
G01 X465.040 Y268.969
G01 X458.714 Y268.979
G01 X458.723 Y275.291
G01 X458.718 Y281.626
G01 X465.063 Y281.620
G01 X471.378 Y281.622
G01 X471.384 Y275.299
G01 X477.698 Y275.305
G01 X477.710 Y268.985
G01 X477.699 Y262.646
G01 X471.364 Y262.650
G01 X477.699 Y262.646
G01 X477.712 Y256.328
G01 X477.700 Y249.996
G01 X471.375 Y249.996
G01 X471.385 Y243.685
G01 X465.057 Y243.672
G01 X458.729 Y243.670
G01 X458.725 Y249.996
G01 X465.050 Y249.996
G01 X465.057 Y243.672
G01 X465.054 Y237.358
G01 X458.717 Y237.353
G01 X458.715 Y231.035
G01 X452.412 Y231.015
G01 X446.083 Y231.015
G01 X446.067 Y237.352
G01 X446.083 Y231.015
G01 X439.753 Y231.015
G01 X433.420 Y231.019
G01 X433.415 Y237.358
G01 X427.099 Y237.348
G01 X427.112 Y243.671
G01 X427.100 Y249.997
G01 X433.425 Y249.997
G01 X433.416 Y256.327
G01 X439.745 Y256.317
G01 X446.073 Y256.332
G01 X446.075 Y249.996
G01 X452.400 Y249.996
G01 X452.401 Y243.679
G01 X452.405 Y237.350
G01 X446.067 Y237.352
G01 X452.405 Y237.350
G01 X452.412 Y231.015
G01 X452.401 Y224.707
G01 X446.075 Y224.701
G01 X446.066 Y218.375
G01 X439.758 Y218.379
G01 X433.419 Y218.379
G01 X433.415 Y224.710
G01 X439.747 Y224.707
G01 X439.758 Y218.379
G01 X439.741 Y212.047
G01 X433.415 Y212.052
G01 X433.433 Y205.729
G01 X427.098 Y205.718
G01 X420.777 Y205.716
G01 X420.782 Y212.040
G01 X420.777 Y205.716
G01 X414.443 Y205.723
G01 X408.118 Y205.725
G01 X408.135 Y212.052
G01 X401.802 Y212.043
G01 X401.790 Y218.373
G01 X401.807 Y224.704
G01 X408.115 Y224.708
G01 X414.441 Y224.707
G01 X414.461 Y218.368
G01 X414.452 Y212.046
G01 X408.135 Y212.052
G01 X408.118 Y205.725
G01 X401.799 Y205.721
G01 X395.487 Y205.725
G01 X395.480 Y212.043
G01 X395.487 Y205.725
G01 X389.153 Y205.729
G01 X382.817 Y205.732
G01 X382.834 Y212.045
G01 X376.506 Y212.053
G01 X376.505 Y218.368
G01 X376.494 Y224.698
G01 X382.837 Y224.698
G01 X382.837 Y218.376
G01 X376.505 Y218.368
G01 X370.183 Y218.373
G01 X370.168 Y224.609
G01 X370.165 Y224.699
G01 X363.847 Y224.695
G01 X363.868 Y230.497
G01 X363.855 Y231.028
G01 X363.866 Y236.728
G01 X363.850 Y237.354
G01 X370.185 Y237.344
G01 X363.850 Y237.354
G01 X363.866 Y242.985
G01 X363.849 Y243.673
G01 X363.868 Y249.268
G01 X363.850 Y249.998
G01 X370.175 Y249.998
G01 X370.193 Y255.903
G01 X370.184 Y256.325
G01 X376.492 Y256.328
G01 X382.824 Y256.325
G01 X382.825 Y249.998
G01 X382.824 Y243.670
G01 X376.492 Y243.680
G01 X370.183 Y243.670
G01 X370.186 Y249.576
G01 X370.175 Y249.998
G01 X363.850 Y249.998
G01 X363.868 Y255.592
G01 X363.850 Y256.323
G01 X363.866 Y261.950
G01 X363.849 Y262.653
G01 X370.186 Y262.652
G01 X363.849 Y262.653
G01 X363.869 Y268.349
G01 X363.854 Y268.980
G01 X363.861 Y274.777
G01 X363.847 Y275.301
G01 X370.166 Y275.296
G01 X370.187 Y281.531
G01 X370.185 Y281.622
G01 X376.506 Y281.627
G01 X382.835 Y281.633
G01 X382.838 Y275.297
G01 X376.495 Y275.297
G01 X376.506 Y281.627
G01 X376.504 Y287.955
G01 X382.835 Y287.950
G01 X382.814 Y294.276
G01 X389.150 Y294.279
G01 X395.484 Y294.284
G01 X395.481 Y287.952
G01 X395.484 Y294.284
G01 X401.801 Y294.273
G01 X408.120 Y294.269
G01 X408.133 Y287.958
G01 X414.454 Y287.948
G01 X414.462 Y281.626
G01 X414.440 Y275.304
G01 X408.113 Y275.302
G01 X401.805 Y275.306
G01 X401.791 Y281.621
G01 X401.803 Y287.951
G01 X408.133 Y287.958
G01 X408.120 Y294.269
G01 X414.445 Y294.271
G01 X420.779 Y294.277
G01 X420.783 Y287.954
G01 X420.779 Y294.277
G01 X427.099 Y294.275
G01 X433.430 Y294.283
G01 X433.417 Y287.941
G01 X439.743 Y287.946
G01 X439.756 Y281.633
G01 X439.745 Y275.305
G01 X433.413 Y275.301
G01 X433.417 Y281.632
G01 X439.756 Y281.633
G01 X446.067 Y281.617
G01 X446.076 Y275.292
G01 X452.399 Y275.305
G01 X452.412 Y268.977
G01 X452.406 Y262.643
G01 X446.068 Y262.641
G01 X452.406 Y262.643
G01 X452.401 Y256.333
G01 X452.400 Y249.996
G01 X446.075 Y249.996
G01 X446.073 Y243.681
G01 X439.745 Y243.676
G01 X433.416 Y243.666
G01 X433.425 Y249.997
G01 X427.100 Y249.997
G01 X427.112 Y256.322
G01 X427.099 Y262.645
G01 X433.414 Y262.654
G01 X433.421 Y268.975
G01 X439.753 Y268.978
G01 X446.084 Y268.977
G01 X446.068 Y262.641
G01 X446.084 Y268.977
G01 X452.412 Y268.977
G01 X458.714 Y268.979
G01 X458.716 Y262.660
G01 X465.053 Y262.656
G01 X465.057 Y256.321
G01 X465.050 Y249.996
G01 X458.725 Y249.996
G01 X458.729 Y256.323
G01 X465.057 Y256.321
G01 X471.385 Y256.329
G01 X471.375 Y249.996
G01 X477.700 Y249.996
G01 X477.712 Y243.664
G01 X477.699 Y237.346
G01 X471.363 Y237.342
G01 X477.699 Y237.346
G01 X477.711 Y231.029
G01 X477.700 Y224.709
G01 X471.383 Y224.693
G01 X471.377 Y218.370
G01 X465.062 Y218.372
G01 X458.716 Y218.366
G01 X458.722 Y224.701
G01 X458.715 Y231.035
G01 X465.039 Y231.024
G01 X471.363 Y231.023
G01 X471.383 Y224.693
G01 X477.700 Y224.709
G01 X477.689 Y218.374
G01 X477.710 Y212.055
G01 X471.369 Y212.042
G01 X477.710 Y212.055
G01 X477.712 Y205.730
G01 X477.693 Y199.390
G01 X471.366 Y199.400
G01 X471.372 Y193.069
G01 X465.041 Y193.066
G01 X458.729 Y193.082
G01 X458.730 Y199.403
G01 X465.051 Y199.394
G01 X465.041 Y193.066
G01 X465.044 Y186.760
G01 X458.728 Y186.753
G01 X458.736 Y180.429
G01 X452.399 Y180.420
G01 X446.069 Y180.418
G01 X446.077 Y186.754
G01 X446.069 Y180.418
G01 X439.749 Y180.431
G01 X433.425 Y180.430
G01 X433.429 Y186.757
G01 X427.095 Y186.753
G01 X427.100 Y193.071
G01 X427.088 Y199.400
G01 X433.426 Y199.409
G01 X427.088 Y199.400
G01 X427.098 Y205.718
G01 X427.104 Y212.045
G01 X433.415 Y212.052
G01 X433.419 Y218.379
G01 X439.758 Y218.379
G01 X446.066 Y218.375
G01 X446.085 Y212.041
G01 X446.066 Y218.375
G01 X452.394 Y218.372
G01 X458.716 Y218.366
G01 X458.729 Y212.057
G01 X465.050 Y212.040
G01 X465.041 Y205.733
G01 X465.051 Y199.394
G01 X458.730 Y199.403
G01 X458.731 Y205.725
G01 X465.041 Y205.733
G01 X471.365 Y205.722
G01 X471.366 Y199.400
G01 X477.693 Y199.390
G01 X477.690 Y193.068
G01 X477.705 Y186.756
G01 X471.366 Y186.748
G01 X477.705 Y186.756
G01 X477.709 Y180.429
G01 X477.710 Y174.105
G01 X471.373 Y174.095
G01 X471.374 Y167.780
G01 X465.041 Y167.774
G01 X458.710 Y167.769
G01 X458.725 Y174.089
G01 X458.736 Y180.429
G01 X465.049 Y180.421
G01 X471.374 Y180.424
G01 X471.373 Y174.095
G01 X477.710 Y174.105
G01 X477.710 Y167.777
G01 X477.686 Y161.448
G01 X471.371 Y161.449
G01 X477.686 Y161.448
G01 X477.697 Y155.119
G01 X477.700 Y148.802
G01 X471.362 Y148.795
G01 X471.373 Y142.486
G01 X465.046 Y142.485
G01 X458.729 Y142.467
G01 X458.738 Y148.803
G01 X465.055 Y148.804
G01 X465.046 Y142.485
G01 X465.046 Y136.147
G01 X458.723 Y136.159
G01 X458.724 Y129.821
G01 X452.409 Y129.818
G01 X446.081 Y129.831
G01 X446.075 Y136.163
G01 X446.081 Y129.831
G01 X439.740 Y129.818
G01 X433.413 Y129.829
G01 X433.413 Y136.151
G01 X427.112 Y136.147
G01 X427.095 Y142.487
G01 X427.103 Y148.805
G01 X433.438 Y148.804
G01 X433.420 Y155.134
G01 X439.756 Y155.129
G01 X446.081 Y155.132
G01 X446.079 Y148.810
G01 X452.412 Y148.801
G01 X452.412 Y142.473
G01 X452.398 Y136.143
G01 X446.075 Y136.163
G01 X452.398 Y136.143
G01 X452.409 Y129.818
G01 X452.394 Y123.499
G01 X446.089 Y123.504
G01 X446.071 Y117.175
G01 X439.756 Y117.173
G01 X433.435 Y117.175
G01 X433.436 Y123.501
G01 X439.747 Y123.498
G01 X439.756 Y117.173
G01 X439.751 Y110.858
G01 X433.415 Y110.851
G01 X433.417 Y104.532
G01 X427.102 Y104.509
G01 X420.773 Y104.541
G01 X420.783 Y110.841
G01 X420.773 Y104.541
G01 X414.447 Y104.537
G01 X408.139 Y104.523
G01 X408.124 Y110.861
G01 X401.802 Y110.856
G01 X401.796 Y117.181
G01 X401.803 Y123.503
G01 X408.129 Y123.503
G01 X414.447 Y123.497
G01 X414.456 Y117.169
G01 X414.458 Y110.854
G01 X408.124 Y110.861
G01 X408.139 Y104.523
G01 X401.799 Y104.528
G01 X395.467 Y104.528
G01 X395.462 Y110.851
G01 X395.467 Y104.528
G01 X389.143 Y104.532
G01 X382.832 Y104.519
G01 X382.835 Y110.849
G01 X376.491 Y110.850
G01 X376.495 Y117.171
G01 X376.499 Y123.496
G01 X382.824 Y123.499
G01 X382.827 Y117.167
G01 X376.495 Y117.171
G01 X370.182 Y117.177
G01 X370.171 Y123.508
G01 X363.853 Y123.487
G01 X363.856 Y129.819
G01 X363.842 Y136.154
G01 X370.177 Y136.139
G01 X363.842 Y136.154
G01 X363.852 Y142.477
G01 X363.852 Y148.804
G01 X370.165 Y148.803
G01 X370.163 Y155.129
G01 X376.498 Y155.123
G01 X382.825 Y155.132
G01 X382.813 Y148.800
G01 X376.503 Y148.802
G01 X376.498 Y155.123
G01 X376.511 Y161.444
G01 X382.815 Y161.454
G01 X382.832 Y167.769
G01 X389.146 Y167.775
G01 X395.474 Y167.782
G01 X395.467 Y161.449
G01 X395.474 Y167.782
G01 X401.810 Y167.770
G01 X408.124 Y167.776
G01 X408.117 Y161.448
G01 X414.452 Y161.454
G01 X414.442 Y155.121
G01 X414.459 Y148.803
G01 X408.115 Y148.805
G01 X408.122 Y155.127
G01 X414.442 Y155.121
G01 X420.765 Y155.126
G01 X420.772 Y148.810
G01 X427.103 Y148.805
G01 X427.095 Y142.487
G01 X427.112 Y136.147
G01 X420.777 Y136.145
G01 X427.112 Y136.147
G01 X427.098 Y129.821
G01 X427.113 Y123.499
G01 X420.780 Y123.504
G01 X420.780 Y117.178
G01 X414.456 Y117.169
G01 X408.124 Y117.187
G01 X408.129 Y123.503
G01 X408.112 Y129.823
G01 X414.441 Y129.822
G01 X420.777 Y129.821
G01 X420.780 Y123.504
G01 X427.113 Y123.499
G01 X427.098 Y117.172
G01 X427.092 Y110.842
G01 X420.783 Y110.841
G01 X427.092 Y110.842
G01 X427.102 Y104.509
G01 X427.098 Y98.204
G01 X420.787 Y98.197
G01 X420.789 Y91.874
G01 X414.454 Y91.863
G01 X408.124 Y91.870
G01 X408.124 Y98.193
G01 X414.449 Y98.201
G01 X414.454 Y91.863
G01 X414.452 Y85.541
G01 X408.130 Y85.540
G01 X408.136 Y79.221
G01 X401.813 Y79.222
G01 X395.469 Y79.236
G01 X395.473 Y85.562
G01 X395.469 Y79.236
G01 X389.152 Y79.211
G01 X382.832 Y79.228
G01 X382.825 Y85.538
G01 X376.497 Y85.548
G01 X376.507 Y91.879
G01 X376.506 Y98.204
G01 X382.828 Y98.212
G01 X382.832 Y104.519
G01 X389.143 Y104.532
G01 X395.467 Y104.528
G01 X395.466 Y98.195
G01 X401.795 Y98.199
G01 X401.801 Y91.870
G01 X401.792 Y85.545
G01 X395.473 Y85.562
G01 X401.792 Y85.545
G01 X401.813 Y79.222
G01 X401.789 Y72.896
G01 X395.483 Y72.892
G01 X395.461 Y66.577
G01 X389.142 Y66.579
G01 X382.836 Y66.573
G01 X382.821 Y72.897
G01 X389.150 Y72.903
G01 X389.142 Y66.579
G01 X389.153 Y60.257
G01 X382.819 Y60.239
G01 X382.817 Y53.924
G01 X376.508 Y53.918
G01 X370.181 Y53.926
G01 X370.174 Y60.255
G01 X370.181 Y53.926
G01 X363.849 Y53.932
G01 X357.521 Y53.920
G01 X357.532 Y60.251
G01 X351.204 Y60.252
G01 X351.207 Y66.568
G01 X351.206 Y72.903
G01 X357.523 Y72.912
G01 X363.864 Y72.894
G01 X363.842 Y66.582
G01 X363.837 Y60.254
G01 X357.532 Y60.251
G01 X357.521 Y53.920
G01 X351.202 Y53.927
G01 X344.879 Y53.924
G01 X344.882 Y60.250
G01 X344.879 Y53.924
G01 X338.550 Y53.917
G01 X332.227 Y53.918
G01 X332.220 Y60.247
G01 X325.898 Y60.240
G01 X325.904 Y66.586
G01 X325.896 Y72.903
G01 X332.223 Y72.907
G01 X332.213 Y66.582
G01 X325.904 Y66.586
G01 X319.580 Y66.579
G01 X319.582 Y72.904
G01 X313.240 Y72.903
G01 X313.241 Y79.234
G01 X313.253 Y85.545
G01 X319.576 Y85.564
G01 X313.253 Y85.545
G01 X313.243 Y91.879
G01 X313.248 Y98.199
G01 X319.573 Y98.210
G01 X319.568 Y104.529
G01 X325.894 Y104.533
G01 X332.227 Y104.531
G01 X332.223 Y98.187
G01 X332.227 Y104.531
G01 X338.545 Y104.529
G01 X344.870 Y104.526
G01 X344.867 Y98.206
G01 X351.201 Y98.190
G01 X351.188 Y91.881
G01 X351.207 Y85.547
G01 X344.872 Y85.555
G01 X351.207 Y85.547
G01 X351.200 Y79.234
G01 X351.206 Y72.903
G01 X344.864 Y72.908
G01 X344.877 Y66.586
G01 X338.551 Y66.582
G01 X332.213 Y66.582
G01 X332.223 Y72.907
G01 X338.554 Y72.906
G01 X338.551 Y66.582
G01 X338.543 Y60.241
G01 X332.220 Y60.247
G01 X332.227 Y53.918
G01 X325.908 Y53.931
G01 X319.574 Y53.928
G01 X319.580 Y60.255
G01 X319.574 Y53.928
G01 X313.257 Y53.926
G01 X306.931 Y53.923
G01 X306.928 Y60.256
G01 X300.594 Y60.254
G01 X300.602 Y66.577
G01 X300.593 Y72.910
G01 X306.922 Y72.898
G01 X313.240 Y72.903
G01 X313.254 Y66.575
G01 X313.259 Y60.241
G01 X306.928 Y60.256
G01 X306.931 Y53.923
G01 X300.605 Y53.925
G01 X294.272 Y53.936
G01 X294.284 Y60.249
G01 X294.272 Y53.936
G01 X287.951 Y53.914
G01 X281.617 Y53.933
G01 X281.632 Y60.243
G01 X275.304 Y60.255
G01 X275.301 Y66.587
G01 X275.297 Y72.898
G01 X281.619 Y72.901
G01 X281.632 Y66.583
G01 X275.301 Y66.587
G01 X268.974 Y66.579
G01 X268.984 Y72.889
G01 X262.645 Y72.901
G01 X262.657 Y79.218
G01 X262.650 Y85.561
G01 X268.976 Y85.541
G01 X262.650 Y85.561
G01 X262.657 Y91.881
G01 X262.655 Y98.202
G01 X268.978 Y98.207
G01 X268.970 Y104.532
G01 X275.297 Y104.533
G01 X281.628 Y104.523
G01 X281.620 Y98.209
G01 X287.951 Y98.197
G01 X287.957 Y91.867
G01 X287.947 Y85.546
G01 X281.626 Y85.538
G01 X281.619 Y79.227
G01 X275.302 Y79.214
G01 X268.978 Y79.226
G01 X268.976 Y85.541
G01 X268.978 Y79.226
G01 X262.657 Y79.218
G01 X256.318 Y79.217
G01 X256.331 Y85.547
G01 X249.996 Y85.550
G01 X249.997 Y91.875
G01 X249.997 Y98.200
G01 X256.330 Y98.207
G01 X256.325 Y91.876
G01 X249.997 Y91.875
G01 X243.668 Y91.877
G01 X243.678 Y98.207
G01 X237.353 Y98.201
G01 X237.352 Y104.524
G01 X237.355 Y110.848
G01 X243.675 Y110.844
G01 X237.355 Y110.848
G01 X237.354 Y117.176
G01 X237.356 Y123.505
G01 X243.602 Y123.506
G01 X243.680 Y123.508
G01 X243.670 Y129.817
G01 X249.575 Y129.814
G01 X249.997 Y129.825
G01 X255.902 Y129.807
G01 X256.325 Y129.816
G01 X256.327 Y123.508
G01 X256.324 Y117.175
G01 X249.997 Y117.175
G01 X243.670 Y117.176
G01 X243.680 Y123.508
G01 X237.435 Y123.503
G01 X237.356 Y123.505
G01 X237.343 Y129.815
G01 X237.354 Y136.150
G01 X242.984 Y136.134
G01 X243.672 Y136.151
G01 X238.045 Y136.133
G01 X237.354 Y136.150
G01 X237.348 Y142.467
G01 X237.352 Y148.787
G01 X242.369 Y148.763
G01 X243.675 Y148.797
G01 X243.680 Y155.135
G01 X248.345 Y155.087
G01 X249.998 Y155.125
G01 X254.660 Y155.092
G01 X256.325 Y155.136
G01 X256.321 Y148.797
G01 X251.346 Y148.766
G01 X249.998 Y148.800
G01 X249.998 Y155.125
G01 X249.998 Y161.450
G01 X254.351 Y161.402
G01 X256.322 Y161.450
G01 X256.326 Y167.768
G01 X260.412 Y167.712
G01 X262.654 Y167.768
G01 X266.829 Y167.725
G01 X268.971 Y167.785
G01 X268.971 Y161.460
G01 X268.971 Y167.785
G01 X273.290 Y167.728
G01 X275.297 Y167.779
G01 X279.806 Y167.725
G01 X281.626 Y167.772
G01 X281.620 Y161.451
G01 X286.631 Y161.406
G01 X287.953 Y161.440
G01 X287.944 Y155.132
G01 X287.948 Y148.807
G01 X282.389 Y148.781
G01 X281.624 Y148.801
G01 X287.172 Y148.785
G01 X287.948 Y148.807
G01 X287.953 Y161.440
G01 X282.920 Y161.413
G01 X281.620 Y161.451
