;  Created by Sandify
;  https://sandify.org
;  Version: 0.2.6
;
;  Machine type: Rectangular
;    Min X (mm): 0
;    Max X (mm): 500
;    Min Y (mm): 0
;    Max Y (mm): 500
;  Content type: shape
;  Layer:
;    Shape: FileImport
;    Name: dither_gears.thr
;    From file:: dither_gears.thr
;    Aspect Ratio: true
;    Comments: 
;    Visible: true
;    Initial width: 10
;    Initial height: 10
;    X offset: 0
;    Y offset: 0
;    Rotate (degrees): 0
;    Reverse path: false
;    Fine tuning:
;      Connect to next layer: line
;      Draw portion of path (%): 100
;      Backtrack at end (%): 0
;      Rotate starting point (%): 0
;  Reverse export path: false
;
; File name: 'gears (C SE)'
; File type: gcode
;

G01 X250.000 Y250.000
G01 X250.000 Y250.500
G01 X250.025 Y250.507
G01 X250.051 Y250.513
G01 X250.077 Y250.518
G01 X250.000 Y250.000
G01 X250.163 Y250.524
G01 X250.192 Y250.524
G01 X250.220 Y250.521
G01 X250.247 Y250.517
G01 X250.001 Y250.002
G01 X250.339 Y250.495
G01 X250.368 Y250.485
G01 X250.397 Y250.473
G01 X250.425 Y250.459
G01 X250.005 Y250.005
G01 X250.006 Y250.006
G01 X250.007 Y250.006
G01 X250.008 Y250.006
G01 X250.511 Y250.407
G01 X250.538 Y250.387
G01 X250.564 Y250.365
G01 X250.589 Y250.341
G01 X250.012 Y250.007
G01 X250.014 Y250.007
G01 X250.015 Y250.007
G01 X250.017 Y250.007
G01 X250.660 Y250.259
G01 X250.681 Y250.229
G01 X250.700 Y250.198
G01 X250.718 Y250.166
G01 X250.022 Y250.005
G01 X250.024 Y250.004
G01 X250.026 Y250.003
G01 X250.028 Y250.002
G01 X250.765 Y250.055
G01 X250.777 Y250.018
G01 X250.786 Y249.980
G01 X250.794 Y249.943
G01 X250.034 Y249.997
G01 X250.036 Y249.995
G01 X250.038 Y249.993
G01 X250.040 Y249.991
G01 X250.806 Y249.815
G01 X250.806 Y249.772
G01 X250.803 Y249.730
G01 X250.798 Y249.687
G01 X250.045 Y249.982
G01 X250.046 Y249.979
G01 X250.047 Y249.976
G01 X250.048 Y249.972
G01 X250.769 Y249.555
G01 X250.756 Y249.512
G01 X250.739 Y249.469
G01 X250.721 Y249.427
G01 X250.050 Y249.960
G01 X250.050 Y249.956
G01 X250.050 Y249.951
G01 X250.049 Y249.947
G01 X250.648 Y249.301
G01 X250.620 Y249.262
G01 X250.590 Y249.223
G01 X250.557 Y249.186
G01 X250.046 Y249.932
G01 X250.044 Y249.927
G01 X250.042 Y249.922
G01 X250.040 Y249.917
G01 X250.441 Y249.079
G01 X250.399 Y249.048
G01 X250.356 Y249.019
G01 X250.313 Y248.993
G01 X250.030 Y249.902
G01 X250.026 Y249.897
G01 X250.022 Y249.893
G01 X250.017 Y249.888
G01 X250.160 Y248.922
G01 X250.108 Y248.904
G01 X250.055 Y248.888
G01 X250.000 Y248.875
G01 X250.000 Y249.875
G01 X249.993 Y249.871
G01 X249.987 Y249.867
G01 X249.980 Y249.864
G01 X249.826 Y248.852
G01 X249.767 Y248.850
G01 X249.708 Y248.851
G01 X249.648 Y248.855
G01 X249.955 Y249.857
G01 X249.947 Y249.855
G01 X249.938 Y249.854
G01 X249.930 Y249.853
G01 X249.464 Y248.888
G01 X249.404 Y248.905
G01 X249.344 Y248.925
G01 X249.286 Y248.948
G01 X249.900 Y249.854
G01 X249.890 Y249.855
G01 X249.880 Y249.857
G01 X249.870 Y249.860
G01 X249.105 Y249.041
G01 X249.050 Y249.077
G01 X248.996 Y249.117
G01 X248.947 Y249.157
G01 X249.838 Y249.871
G01 X249.828 Y249.876
G01 X249.818 Y249.882
G01 X249.808 Y249.889
G01 X248.795 Y249.308
G01 X248.751 Y249.362
G01 X248.709 Y249.418
G01 X248.672 Y249.474
G01 X249.778 Y249.913
G01 X249.769 Y249.922
G01 X249.760 Y249.932
G01 X249.752 Y249.943
G01 X248.567 Y249.675
G01 X248.539 Y249.743
G01 X248.515 Y249.814
G01 X248.494 Y249.886
G01 X249.728 Y249.980
G01 X249.721 Y249.994
G01 X249.716 Y250.007
G01 X249.711 Y250.021
G01 X248.452 Y250.117
G01 X248.446 Y250.195
G01 X248.444 Y250.273
G01 X248.445 Y250.352
G01 X249.699 Y250.069
G01 X249.697 Y250.086
G01 X249.695 Y250.102
G01 X249.695 Y250.120
G01 X248.477 Y250.603
G01 X248.495 Y250.683
G01 X248.518 Y250.763
G01 X248.543 Y250.837
G01 X249.699 Y250.174
G01 X249.703 Y250.192
G01 X249.707 Y250.210
G01 X249.713 Y250.229
G01 X248.654 Y251.079
G01 X248.697 Y251.153
G01 X248.745 Y251.226
G01 X248.794 Y251.293
G01 X249.736 Y250.285
G01 X249.746 Y250.302
G01 X249.757 Y250.320
G01 X249.769 Y250.337
G01 X248.980 Y251.501
G01 X249.047 Y251.562
G01 X249.118 Y251.620
G01 X249.192 Y251.675
G01 X249.814 Y250.389
G01 X249.830 Y250.405
G01 X249.848 Y250.420
G01 X249.865 Y250.433
G01 X249.440 Y251.822
G01 X249.526 Y251.862
G01 X249.615 Y251.898
G01 X249.706 Y251.930
G01 X249.930 Y250.472
G01 X249.952 Y250.482
G01 X249.976 Y250.492
G01 X249.998 Y250.499
G01 X250.000 Y252.000
G01 X250.099 Y252.013
G01 X250.199 Y252.022
G01 X250.301 Y252.025
G01 X250.079 Y250.518
G01 X250.106 Y250.522
G01 X250.133 Y250.524
G01 X250.161 Y250.524
G01 X250.623 Y252.003
G01 X250.726 Y251.985
G01 X250.829 Y251.961
G01 X250.925 Y251.935
G01 X250.249 Y250.517
G01 X250.278 Y250.512
G01 X250.308 Y250.505
G01 X250.337 Y250.496
G01 X251.240 Y251.812
G01 X251.337 Y251.762
G01 X251.433 Y251.707
G01 X251.526 Y251.647
G01 X250.428 Y250.458
G01 X250.456 Y250.443
G01 X250.484 Y250.426
G01 X250.509 Y250.408
G01 X251.797 Y251.430
G01 X251.878 Y251.350
G01 X251.956 Y251.265
G01 X252.031 Y251.176
G01 X250.590 Y250.339
G01 X250.615 Y250.314
G01 X250.638 Y250.287
G01 X250.658 Y250.261
G01 X252.234 Y250.876
G01 X252.290 Y250.771
G01 X252.342 Y250.662
G01 X252.388 Y250.551
G01 X250.719 Y250.163
G01 X250.736 Y250.129
G01 X250.751 Y250.094
G01 X250.764 Y250.058
G01 X252.499 Y250.181
G01 X252.522 Y250.058
G01 X252.540 Y249.934
G01 X252.551 Y249.815
G01 X250.794 Y249.940
G01 X250.800 Y249.900
G01 X250.804 Y249.859
G01 X250.806 Y249.818
G01 X252.546 Y249.414
G01 X252.532 Y249.285
G01 X252.511 Y249.156
G01 X252.483 Y249.027
G01 X252.483 Y249.026
G01 X250.798 Y249.684
G01 X250.791 Y249.641
G01 X250.781 Y249.598
G01 X250.770 Y249.557
G01 X252.356 Y248.636
G01 X252.302 Y248.512
G01 X252.241 Y248.391
G01 X252.174 Y248.271
G01 X252.173 Y248.270
G01 X250.719 Y249.424
G01 X250.698 Y249.382
G01 X250.675 Y249.341
G01 X250.650 Y249.303
G01 X251.927 Y247.922
G01 X251.835 Y247.815
G01 X251.737 Y247.713
G01 X251.633 Y247.615
G01 X251.633 Y247.614
G01 X250.555 Y249.184
G01 X250.520 Y249.148
G01 X250.483 Y249.114
G01 X250.443 Y249.081
G01 X251.273 Y247.339
G01 X251.148 Y247.262
G01 X251.019 Y247.191
G01 X250.893 Y247.130
G01 X250.310 Y248.992
G01 X250.263 Y248.967
G01 X250.214 Y248.944
G01 X250.164 Y248.923
G01 X250.451 Y246.967
G01 X250.304 Y246.929
G01 X250.154 Y246.898
G01 X250.002 Y246.875
G01 X250.000 Y246.875
G01 X249.997 Y248.874
G01 X249.941 Y248.864
G01 X249.884 Y248.857
G01 X249.829 Y248.852
G01 X249.522 Y246.851
G01 X249.364 Y246.859
G01 X249.206 Y246.875
G01 X249.048 Y246.898
G01 X249.046 Y246.899
G01 X249.644 Y248.856
G01 X249.584 Y248.863
G01 X249.524 Y248.874
G01 X249.468 Y248.887
G01 X248.565 Y247.022
G01 X248.410 Y247.078
G01 X248.259 Y247.142
G01 X248.109 Y247.214
G01 X248.108 Y247.215
G01 X249.281 Y248.949
G01 X249.223 Y248.976
G01 X249.166 Y249.006
G01 X249.110 Y249.039
G01 X247.660 Y247.491
G01 X247.525 Y247.595
G01 X247.394 Y247.706
G01 X247.276 Y247.817
G01 X248.944 Y249.159
G01 X248.894 Y249.205
G01 X248.845 Y249.253
G01 X248.799 Y249.304
G01 X246.917 Y248.228
G01 X246.815 Y248.372
G01 X246.720 Y248.521
G01 X246.632 Y248.676
G01 X246.631 Y248.678
G01 X248.667 Y249.482
G01 X248.631 Y249.544
G01 X248.598 Y249.608
G01 X248.569 Y249.670
G01 X246.407 Y249.184
G01 X246.351 Y249.358
G01 X246.302 Y249.535
G01 X246.263 Y249.715
G01 X246.262 Y249.717
G01 X248.493 Y249.891
G01 X248.476 Y249.964
G01 X248.462 Y250.040
G01 X248.453 Y250.112
G01 X246.197 Y250.286
G01 X246.194 Y250.475
G01 X246.200 Y250.665
G01 X246.216 Y250.856
G01 X246.216 Y250.857
G01 X248.446 Y250.357
G01 X248.452 Y250.437
G01 X248.462 Y250.517
G01 X248.476 Y250.597
G01 X246.329 Y251.452
G01 X246.385 Y251.640
G01 X246.450 Y251.825
G01 X246.520 Y251.998
G01 X248.545 Y250.842
G01 X248.576 Y250.920
G01 X248.611 Y250.997
G01 X248.650 Y251.073
G01 X246.813 Y252.552
G01 X246.925 Y252.720
G01 X247.047 Y252.883
G01 X247.169 Y253.032
G01 X248.797 Y251.297
G01 X248.852 Y251.366
G01 X248.912 Y251.432
G01 X248.975 Y251.496
G01 X247.627 Y253.489
G01 X247.790 Y253.621
G01 X247.959 Y253.745
G01 X248.135 Y253.861
G01 X248.137 Y253.862
G01 X249.197 Y251.678
G01 X249.274 Y251.730
G01 X249.355 Y251.777
G01 X249.434 Y251.819
G01 X248.717 Y254.165
G01 X248.917 Y254.246
G01 X249.122 Y254.317
G01 X249.332 Y254.377
G01 X249.333 Y254.378
G01 X249.712 Y251.932
G01 X249.806 Y251.959
G01 X249.901 Y251.982
G01 X249.999 Y252.000
G01 X250.013 Y254.501
G01 X250.235 Y254.519
G01 X250.458 Y254.525
G01 X250.671 Y254.521
G01 X250.307 Y252.025
G01 X250.409 Y252.023
G01 X250.512 Y252.016
G01 X250.615 Y252.004
G01 X251.378 Y254.436
G01 X251.602 Y254.385
G01 X251.825 Y254.323
G01 X252.033 Y254.255
G01 X250.931 Y251.933
G01 X251.033 Y251.899
G01 X251.133 Y251.860
G01 X251.232 Y251.816
G01 X252.704 Y253.955
G01 X252.909 Y253.837
G01 X253.110 Y253.708
G01 X253.304 Y253.569
G01 X253.306 Y253.568
G01 X251.532 Y251.643
G01 X251.622 Y251.577
G01 X251.710 Y251.507
G01 X251.791 Y251.436
G01 X253.863 Y253.078
G01 X254.029 Y252.899
G01 X254.187 Y252.711
G01 X254.337 Y252.515
G01 X254.338 Y252.513
G01 X252.035 Y251.170
G01 X252.105 Y251.077
G01 X252.171 Y250.979
G01 X252.232 Y250.878
G01 X254.744 Y251.846
G01 X254.853 Y251.619
G01 X254.951 Y251.386
G01 X255.033 Y251.160
G01 X252.391 Y250.543
G01 X252.432 Y250.428
G01 X252.467 Y250.311
G01 X252.497 Y250.191
G01 X255.230 Y250.381
G01 X255.268 Y250.124
G01 X255.293 Y249.865
G01 X255.305 Y249.618
G01 X252.551 Y249.808
G01 X252.556 Y249.681
G01 X252.555 Y249.553
G01 X252.547 Y249.425
G01 X252.547 Y249.424
G01 X255.262 Y248.792
G01 X255.221 Y248.528
G01 X255.167 Y248.265
G01 X255.100 Y248.005
G01 X255.099 Y248.003
G01 X252.481 Y249.019
G01 X252.446 Y248.891
G01 X252.405 Y248.764
G01 X252.360 Y248.645
G01 X254.810 Y247.219
G01 X254.690 Y246.973
G01 X254.557 Y246.731
G01 X254.411 Y246.495
G01 X254.410 Y246.493
G01 X252.169 Y248.264
G01 X252.096 Y248.147
G01 X252.015 Y248.034
G01 X251.929 Y247.923
G01 X251.928 Y247.923
G01 X253.876 Y245.798
G01 X253.682 Y245.592
G01 X253.478 Y245.396
G01 X253.275 Y245.219
G01 X251.627 Y247.609
G01 X251.517 Y247.516
G01 X251.403 Y247.428
G01 X251.283 Y247.345
G01 X251.282 Y247.345
G01 X252.539 Y244.698
G01 X252.286 Y244.555
G01 X252.026 Y244.424
G01 X251.773 Y244.312
G01 X250.886 Y247.126
G01 X250.748 Y247.068
G01 X250.608 Y247.016
G01 X250.463 Y246.970
G01 X250.462 Y246.970
G01 X250.892 Y244.023
G01 X250.601 Y243.960
G01 X250.305 Y243.910
G01 X250.006 Y243.875
G01 X250.003 Y243.875
G01 X249.992 Y246.874
G01 X249.838 Y246.859
G01 X249.682 Y246.851
G01 X249.533 Y246.851
G01 X249.071 Y243.861
G01 X248.765 Y243.887
G01 X248.460 Y243.928
G01 X248.156 Y243.985
G01 X248.153 Y243.985
G01 X249.038 Y246.900
G01 X248.880 Y246.932
G01 X248.723 Y246.972
G01 X248.567 Y247.021
G01 X248.566 Y247.021
G01 X247.215 Y244.261
G01 X246.923 Y244.380
G01 X246.637 Y244.514
G01 X246.371 Y244.653
G01 X248.100 Y247.219
G01 X247.953 Y247.300
G01 X247.810 Y247.388
G01 X247.671 Y247.483
G01 X247.670 Y247.484
G01 X245.534 Y245.208
G01 X245.284 Y245.414
G01 X245.043 Y245.632
G01 X244.826 Y245.849
G01 X247.269 Y247.823
G01 X247.149 Y247.948
G01 X247.034 Y248.079
G01 X246.925 Y248.216
G01 X246.925 Y248.217
G01 X244.173 Y246.647
G01 X243.990 Y246.924
G01 X243.820 Y247.211
G01 X243.664 Y247.507
G01 X243.662 Y247.509
G01 X246.626 Y248.686
G01 X246.546 Y248.847
G01 X246.473 Y249.012
G01 X246.412 Y249.172
G01 X243.274 Y248.470
G01 X243.178 Y248.796
G01 X243.098 Y249.129
G01 X243.035 Y249.466
G01 X243.034 Y249.469
G01 X246.260 Y249.727
G01 X246.230 Y249.910
G01 X246.209 Y250.096
G01 X246.197 Y250.283
G01 X246.197 Y250.285
G01 X242.944 Y250.550
G01 X242.950 Y250.900
G01 X242.974 Y251.250
G01 X243.012 Y251.580
G01 X246.218 Y250.868
G01 X246.244 Y251.058
G01 X246.280 Y251.248
G01 X246.325 Y251.437
G01 X246.325 Y251.439
G01 X243.250 Y252.667
G01 X243.362 Y253.007
G01 X243.491 Y253.343
G01 X243.628 Y253.655
G01 X246.524 Y252.008
G01 X246.608 Y252.188
G01 X246.702 Y252.365
G01 X246.804 Y252.538
G01 X246.805 Y252.539
G01 X244.190 Y254.647
G01 X244.403 Y254.947
G01 X244.631 Y255.237
G01 X244.874 Y255.516
G01 X244.876 Y255.518
G01 X247.185 Y253.051
G01 X247.323 Y253.202
G01 X247.470 Y253.348
G01 X247.616 Y253.479
G01 X245.710 Y256.302
G01 X246.008 Y256.531
G01 X246.319 Y256.746
G01 X246.641 Y256.946
G01 X246.644 Y256.948
G01 X248.146 Y253.868
G01 X248.330 Y253.976
G01 X248.519 Y254.074
G01 X248.714 Y254.164
G01 X248.715 Y254.165
G01 X247.721 Y257.473
G01 X248.082 Y257.605
G01 X248.452 Y257.721
G01 X248.807 Y257.813
G01 X249.345 Y254.381
G01 X249.558 Y254.431
G01 X249.775 Y254.470
G01 X249.995 Y254.499
G01 X249.996 Y254.499
G01 X250.019 Y258.001
G01 X250.413 Y258.022
G01 X250.809 Y258.023
G01 X251.184 Y258.007
G01 X250.683 Y254.521
G01 X250.909 Y254.505
G01 X251.135 Y254.478
G01 X251.360 Y254.439
G01 X251.362 Y254.439
G01 X252.427 Y257.825
G01 X252.819 Y257.726
G01 X253.207 Y257.608
G01 X253.590 Y257.470
G01 X253.593 Y257.469
G01 X252.059 Y254.245
G01 X252.276 Y254.160
G01 X252.490 Y254.064
G01 X252.689 Y253.963
G01 X254.730 Y256.925
G01 X255.083 Y256.710
G01 X255.427 Y256.477
G01 X255.760 Y256.227
G01 X255.762 Y256.225
G01 X253.316 Y253.560
G01 X253.505 Y253.410
G01 X253.686 Y253.250
G01 X253.851 Y253.090
G01 X256.710 Y255.350
G01 X256.990 Y255.034
G01 X257.256 Y254.702
G01 X257.506 Y254.357
G01 X257.508 Y254.354
G01 X254.346 Y252.502
G01 X254.485 Y252.297
G01 X254.615 Y252.084
G01 X254.735 Y251.865
G01 X254.736 Y251.863
G01 X258.182 Y253.189
G01 X258.360 Y252.794
G01 X258.519 Y252.389
G01 X258.650 Y251.999
G01 X255.037 Y251.147
G01 X255.112 Y250.903
G01 X255.175 Y250.654
G01 X255.226 Y250.402
G01 X255.226 Y250.400
G01 X258.958 Y250.656
G01 X259.012 Y250.217
G01 X259.045 Y249.774
G01 X259.057 Y249.328
G01 X259.057 Y249.324
G01 X255.305 Y249.587
G01 X255.304 Y249.324
G01 X255.290 Y249.060
G01 X255.264 Y248.811
G01 X258.952 Y247.949
G01 X258.873 Y247.503
G01 X258.772 Y247.060
G01 X258.648 Y246.620
G01 X258.647 Y246.617
G01 X255.095 Y247.988
G01 X255.014 Y247.730
G01 X254.919 Y247.475
G01 X254.818 Y247.238
G01 X258.131 Y245.305
G01 X257.919 Y244.893
G01 X257.686 Y244.491
G01 X257.433 Y244.099
G01 X257.431 Y244.096
G01 X254.402 Y246.480
G01 X254.244 Y246.251
G01 X254.073 Y246.029
G01 X253.891 Y245.815
G01 X253.890 Y245.813
G01 X256.511 Y242.948
G01 X256.179 Y242.611
G01 X255.830 Y242.289
G01 X255.485 Y242.000
G01 X253.263 Y245.209
G01 X253.038 Y245.032
G01 X252.803 Y244.865
G01 X252.559 Y244.710
G01 X252.557 Y244.709
G01 X254.240 Y241.157
G01 X253.815 Y240.927
G01 X253.377 Y240.718
G01 X252.927 Y240.531
G01 X252.924 Y240.529
G01 X251.741 Y244.299
G01 X251.465 Y244.194
G01 X251.184 Y244.103
G01 X250.914 Y244.029
G01 X251.484 Y240.092
G01 X250.999 Y239.996
G01 X250.509 Y239.924
G01 X250.014 Y239.876
G01 X250.010 Y239.876
G01 X249.987 Y243.874
G01 X249.685 Y243.854
G01 X249.381 Y243.850
G01 X249.093 Y243.860
G01 X248.473 Y239.882
G01 X247.972 Y239.934
G01 X247.471 Y240.012
G01 X246.974 Y240.114
G01 X246.970 Y240.115
G01 X248.137 Y243.989
G01 X247.835 Y244.061
G01 X247.535 Y244.149
G01 X247.239 Y244.252
G01 X247.236 Y244.253
G01 X245.442 Y240.596
G01 X244.969 Y240.799
G01 X244.504 Y241.027
G01 X244.076 Y241.263
G01 X246.356 Y244.662
G01 X246.081 Y244.825
G01 X245.814 Y245.002
G01 X245.555 Y245.192
G01 X245.553 Y245.194
G01 X242.729 Y242.192
G01 X242.329 Y242.533
G01 X241.945 Y242.894
G01 X241.577 Y243.275
G01 X241.575 Y243.278
G01 X244.799 Y245.877
G01 X244.580 Y246.121
G01 X244.372 Y246.376
G01 X244.187 Y246.627
G01 X240.564 Y244.565
G01 X240.276 Y245.017
G01 X240.010 Y245.486
G01 X239.767 Y245.968
G01 X239.765 Y245.972
G01 X243.654 Y247.526
G01 X243.513 Y247.831
G01 X243.387 Y248.144
G01 X243.281 Y248.446
G01 X239.166 Y247.530
G01 X239.021 Y248.058
G01 X238.902 Y248.594
G01 X238.810 Y249.138
G01 X238.809 Y249.142
G01 X243.031 Y249.488
G01 X242.985 Y249.830
G01 X242.956 Y250.175
G01 X242.944 Y250.522
G01 X242.944 Y250.525
G01 X238.694 Y250.877
G01 X238.714 Y251.435
G01 X238.761 Y251.994
G01 X238.831 Y252.520
G01 X243.014 Y251.599
G01 X243.073 Y251.948
G01 X243.149 Y252.295
G01 X243.242 Y252.639
G01 X243.243 Y252.642
G01 X239.240 Y254.246
G01 X239.427 Y254.784
G01 X239.641 Y255.314
G01 X239.882 Y255.835
G01 X239.884 Y255.839
G01 X243.647 Y253.694
G01 X243.810 Y254.017
G01 X243.991 Y254.334
G01 X244.175 Y254.625
G01 X240.785 Y257.365
G01 X241.129 Y257.833
G01 X241.496 Y258.286
G01 X241.887 Y258.721
G01 X241.890 Y258.724
G01 X244.889 Y255.533
G01 X245.147 Y255.800
G01 X245.419 Y256.056
G01 X245.689 Y256.285
G01 X243.227 Y259.940
G01 X243.703 Y260.294
G01 X244.197 Y260.624
G01 X244.709 Y260.930
G01 X244.713 Y260.933
G01 X246.662 Y256.958
G01 X246.995 Y257.142
G01 X247.339 Y257.310
G01 X247.692 Y257.461
G01 X247.694 Y257.462
G01 X246.416 Y261.730
G01 X246.986 Y261.929
G01 X247.568 Y262.101
G01 X248.125 Y262.236
G01 X248.827 Y257.818
G01 X249.209 Y257.897
G01 X249.596 Y257.958
G01 X249.987 Y257.999
G01 X249.990 Y257.999
G01 X250.024 Y262.501
G01 X250.639 Y262.524
G01 X251.257 Y262.517
G01 X251.841 Y262.482
G01 X251.207 Y258.005
G01 X251.604 Y257.967
G01 X252.001 Y257.909
G01 X252.396 Y257.832
G01 X252.399 Y257.831
G01 X253.771 Y262.169
G01 X254.377 Y262.007
G01 X254.976 Y261.814
G01 X255.567 Y261.591
G01 X255.572 Y261.589
G01 X253.616 Y257.460
G01 X253.993 Y257.301
G01 X254.363 Y257.124
G01 X254.705 Y256.939
G01 X257.319 Y260.721
G01 X257.861 Y260.381
G01 X258.386 Y260.013
G01 X258.895 Y259.619
G01 X258.899 Y259.615
G01 X255.783 Y256.209
G01 X256.104 Y255.940
G01 X256.412 Y255.655
G01 X256.691 Y255.370
G01 X260.339 Y258.245
G01 X260.764 Y257.751
G01 X261.165 Y257.236
G01 X261.542 Y256.700
G01 X261.545 Y256.695
G01 X257.524 Y254.331
G01 X257.756 Y253.972
G01 X257.972 Y253.600
G01 X258.169 Y253.216
G01 X258.171 Y253.213
G01 X262.554 Y254.890
G01 X262.817 Y254.281
G01 X263.051 Y253.658
G01 X263.244 Y253.058
G01 X258.659 Y251.971
G01 X258.778 Y251.549
G01 X258.876 Y251.121
G01 X258.953 Y250.686
G01 X258.954 Y250.682
G01 X263.684 Y250.999
G01 X263.758 Y250.328
G01 X263.798 Y249.651
G01 X263.806 Y249.009
G01 X259.057 Y249.321
G01 X259.046 Y248.873
G01 X259.012 Y248.425
G01 X258.957 Y247.978
G01 X258.956 Y247.973
G01 X263.616 Y246.874
G01 X263.486 Y246.198
G01 X263.323 Y245.528
G01 X263.126 Y244.865
G01 X263.124 Y244.859
G01 X258.637 Y246.585
G01 X258.490 Y246.151
G01 X258.321 Y245.724
G01 X258.141 Y245.327
G01 X262.313 Y242.881
G01 X261.984 Y242.262
G01 X261.623 Y241.659
G01 X261.233 Y241.073
G01 X261.229 Y241.068
G01 X257.411 Y244.067
G01 X257.137 Y243.688
G01 X256.843 Y243.321
G01 X256.548 Y242.987
G01 X259.847 Y239.387
G01 X259.341 Y238.885
G01 X258.810 Y238.406
G01 X258.254 Y237.953
G01 X258.249 Y237.949
G01 X255.455 Y241.977
G01 X255.073 Y241.690
G01 X254.675 Y241.420
G01 X254.264 Y241.170
G01 X254.260 Y241.168
G01 X256.360 Y236.706
G01 X255.717 Y236.371
G01 X255.056 Y236.067
G01 X254.416 Y235.809
G01 X252.916 Y240.526
G01 X252.456 Y240.361
G01 X251.987 Y240.218
G01 X251.510 Y240.097
G01 X251.505 Y240.096
G01 X252.207 Y235.167
G01 X251.481 Y235.034
G01 X250.747 Y234.937
G01 X250.047 Y234.878
G01 X250.000 Y239.875
G01 X249.501 Y239.852
G01 X249.000 Y239.854
G01 X248.499 Y239.880
G01 X248.494 Y239.880
G01 X247.707 Y234.916
G01 X246.961 Y235.004
G01 X246.218 Y235.130
G01 X245.480 Y235.292
G01 X245.473 Y235.293
G01 X246.927 Y240.125
G01 X246.433 Y240.254
G01 X245.946 Y240.408
G01 X245.491 Y240.576
G01 X243.257 Y236.020
G01 X242.558 Y236.330
G01 X241.873 Y236.674
G01 X241.205 Y237.053
G01 X241.199 Y237.057
G01 X244.035 Y241.287
G01 X243.593 Y241.561
G01 X243.163 Y241.858
G01 X242.770 Y242.159
G01 X239.262 Y238.428
G01 X238.676 Y238.938
G01 X238.113 Y239.478
G01 X237.577 Y240.046
G01 X237.572 Y240.051
G01 X241.564 Y243.290
G01 X241.215 Y243.691
G01 X240.886 Y244.110
G01 X240.576 Y244.546
G01 X240.574 Y244.550
G01 X236.073 Y242.006
G01 X235.658 Y242.679
G01 X235.276 Y243.374
G01 X234.945 Y244.048
G01 X239.757 Y245.988
G01 X239.538 Y246.483
G01 X239.342 Y246.991
G01 X239.172 Y247.509
G01 X239.170 Y247.514
G01 X234.074 Y246.397
G01 X233.873 Y247.175
G01 X233.709 Y247.964
G01 X233.590 Y248.719
G01 X238.807 Y249.161
G01 X238.742 Y249.711
G01 X238.704 Y250.264
G01 X238.694 Y250.821
G01 X238.694 Y250.826
G01 X233.447 Y251.262
G01 X233.484 Y252.078
G01 X233.562 Y252.894
G01 X233.679 Y253.707
G01 X233.681 Y253.714
G01 X238.840 Y252.577
G01 X238.944 Y253.132
G01 X239.076 Y253.682
G01 X239.225 Y254.198
G01 X234.295 Y256.176
G01 X234.575 Y256.958
G01 X234.895 Y257.727
G01 X235.253 Y258.481
G01 X235.256 Y258.488
G01 X239.894 Y255.860
G01 X240.162 Y256.370
G01 X240.456 Y256.867
G01 X240.757 Y257.324
G01 X236.590 Y260.695
G01 X237.096 Y261.371
G01 X237.637 Y262.022
G01 X238.210 Y262.648
G01 X238.216 Y262.653
G01 X241.909 Y258.743
G01 X242.323 Y259.159
G01 X242.758 Y259.555
G01 X243.214 Y259.931
G01 X243.218 Y259.934
G01 X240.215 Y264.431
G01 X240.911 Y264.933
G01 X241.632 Y265.402
G01 X242.337 Y265.813
G01 X244.737 Y260.947
G01 X245.266 Y261.227
G01 X245.809 Y261.482
G01 X246.366 Y261.711
G01 X246.371 Y261.713
G01 X244.810 Y266.940
G01 X245.636 Y267.220
G01 X246.477 Y267.459
G01 X247.284 Y267.647
G01 X248.155 Y262.243
G01 X248.754 Y262.358
G01 X249.360 Y262.443
G01 X249.971 Y262.498
G01 X249.977 Y262.498
G01 X250.023 Y268.001
G01 X250.909 Y268.025
G01 X251.797 Y268.006
G01 X252.685 Y267.942
G01 X252.693 Y267.941
G01 X251.913 Y262.476
G01 X252.531 Y262.405
G01 X253.146 Y262.304
G01 X253.724 Y262.181
G01 X255.402 Y267.471
G01 X256.269 Y267.230
G01 X257.125 Y266.945
G01 X257.968 Y266.618
G01 X257.976 Y266.615
G01 X255.603 Y261.577
G01 X256.183 Y261.323
G01 X256.752 Y261.040
G01 X257.278 Y260.746
G01 X260.465 Y265.348
G01 X261.234 Y264.854
G01 X261.980 Y264.321
G01 X262.701 Y263.751
G01 X262.707 Y263.746
G01 X258.925 Y259.594
G01 X259.414 Y259.172
G01 X259.882 Y258.726
G01 X260.330 Y258.256
G01 X260.334 Y258.251
G01 X264.783 Y261.727
G01 X265.380 Y261.016
G01 X265.942 Y260.274
G01 X266.441 Y259.546
G01 X261.564 Y256.666
G01 X261.913 Y256.109
G01 X262.235 Y255.534
G01 X262.530 Y254.942
G01 X262.532 Y254.936
G01 X267.852 Y256.967
G01 X268.218 Y256.098
G01 X268.542 Y255.210
G01 X268.808 Y254.354
G01 X263.254 Y253.025
G01 X263.426 Y252.378
G01 X263.567 Y251.721
G01 X263.676 Y251.056
G01 X263.677 Y251.050
G01 X269.406 Y251.429
G01 X269.501 Y250.476
G01 X269.550 Y249.518
G01 X269.551 Y248.555
G01 X269.551 Y248.546
G01 X263.805 Y248.930
G01 X263.776 Y248.249
G01 X263.714 Y247.568
G01 X263.625 Y246.926
G01 X269.257 Y245.591
G01 X269.065 Y244.638
G01 X268.826 Y243.693
G01 X268.540 Y242.759
G01 X268.537 Y242.751
G01 X263.113 Y244.824
G01 X262.881 Y244.170
G01 X262.616 Y243.526
G01 X262.336 Y242.928
G01 X267.368 Y239.971
G01 X266.897 Y239.104
G01 X266.382 Y238.260
G01 X265.825 Y237.439
G01 X265.820 Y237.432
G01 X261.208 Y241.038
G01 X260.786 Y240.471
G01 X260.336 Y239.924
G01 X259.857 Y239.398
G01 X259.853 Y239.394
G01 X263.811 Y235.039
G01 X263.092 Y234.341
G01 X262.338 Y233.678
G01 X261.594 Y233.084
G01 X258.220 Y237.926
G01 X257.640 Y237.501
G01 X257.037 Y237.104
G01 X256.415 Y236.736
G01 X256.409 Y236.733
G01 X258.930 Y231.364
G01 X258.025 Y230.902
G01 X257.095 Y230.484
G01 X256.196 Y230.130
G01 X254.381 Y235.796
G01 X253.689 Y235.557
G01 X252.984 Y235.351
G01 X252.268 Y235.180
G01 X252.262 Y235.179
G01 X253.099 Y229.258
G01 X252.082 Y229.081
G01 X251.056 Y228.953
G01 X250.022 Y228.876
G01 X250.012 Y228.876
G01 X249.961 Y234.873
G01 X249.217 Y234.850
G01 X248.470 Y234.864
G01 X247.764 Y234.911
G01 X246.814 Y228.959
G01 X245.775 Y229.091
G01 X244.742 Y229.274
G01 X243.716 Y229.508
G01 X243.707 Y229.510
G01 X245.435 Y235.303
G01 X244.705 Y235.504
G01 X243.983 Y235.741
G01 X243.310 Y235.998
G01 X240.631 Y230.547
G01 X239.663 Y230.985
G01 X238.715 Y231.471
G01 X237.791 Y232.004
G01 X237.783 Y232.010
G01 X241.165 Y237.077
G01 X240.515 Y237.491
G01 X239.884 Y237.938
G01 X239.275 Y238.417
G01 X239.269 Y238.422
G01 X235.057 Y233.978
G01 X234.252 Y234.695
G01 X233.481 Y235.451
G01 X232.786 Y236.203
G01 X237.545 Y240.082
G01 X237.038 Y240.679
G01 X236.559 Y241.302
G01 X236.110 Y241.950
G01 X236.106 Y241.956
G01 X230.732 Y238.925
G01 X230.165 Y239.860
G01 X229.644 Y240.824
G01 X229.194 Y241.760
G01 X234.928 Y244.086
G01 X234.614 Y244.818
G01 X234.335 Y245.567
G01 X234.093 Y246.331
G01 X234.091 Y246.338
G01 X228.016 Y245.013
G01 X227.746 Y246.088
G01 X227.529 Y247.178
G01 X227.365 Y248.280
G01 X227.364 Y248.291
G01 X233.578 Y248.812
G01 X233.494 Y249.618
G01 X233.451 Y250.429
G01 X233.446 Y251.200
G01 X227.203 Y251.724
G01 X227.262 Y252.847
G01 X227.377 Y253.969
G01 X227.547 Y255.086
G01 X227.549 Y255.096
G01 X233.688 Y253.756
G01 X233.848 Y254.565
G01 X234.049 Y255.366
G01 X234.275 Y256.116
G01 X228.418 Y258.472
G01 X228.811 Y259.542
G01 X229.258 Y260.595
G01 X229.756 Y261.626
G01 X229.761 Y261.636
G01 X235.276 Y258.527
G01 X235.674 Y259.264
G01 X236.108 Y259.982
G01 X236.579 Y260.680
G01 X236.584 Y260.687
G01 X231.655 Y264.707
G01 X232.358 Y265.625
G01 X233.108 Y266.510
G01 X233.857 Y267.312
G01 X238.246 Y262.685
G01 X238.853 Y263.282
G01 X239.490 Y263.849
G01 X240.157 Y264.386
G01 X240.163 Y264.391
G01 X236.609 Y269.724
G01 X237.565 Y270.403
G01 X238.555 Y271.036
G01 X239.521 Y271.590
G01 X242.376 Y265.834
G01 X243.144 Y266.232
G01 X243.933 Y266.592
G01 X244.740 Y266.914
G01 X244.748 Y266.917
G01 X242.906 Y273.105
G01 X244.035 Y273.478
G01 X245.184 Y273.796
G01 X246.349 Y274.057
G01 X246.360 Y274.059
G01 X247.384 Y267.667
G01 X248.249 Y267.821
G01 X249.123 Y267.932
G01 X249.956 Y267.998
G01 X250.017 Y274.501
G01 X251.222 Y274.525
G01 X252.429 Y274.490
G01 X253.636 Y274.396
G01 X253.647 Y274.394
G01 X252.739 Y267.937
G01 X253.626 Y267.827
G01 X254.508 Y267.674
G01 X255.335 Y267.488
G01 X257.322 Y273.731
G01 X258.496 Y273.395
G01 X259.655 Y273.001
G01 X260.796 Y272.549
G01 X260.806 Y272.544
G01 X258.019 Y266.597
G01 X258.847 Y266.225
G01 X259.657 Y265.812
G01 X260.448 Y265.358
G01 X260.455 Y265.354
G01 X264.235 Y270.763
G01 X265.270 Y270.084
G01 X266.273 Y269.353
G01 X267.188 Y268.616
G01 X262.744 Y263.715
G01 X263.436 Y263.107
G01 X264.099 Y262.464
G01 X264.731 Y261.787
G01 X264.736 Y261.781
G01 X269.977 Y265.868
G01 X270.777 Y264.901
G01 X271.530 Y263.894
G01 X272.197 Y262.907
G01 X266.467 Y259.506
G01 X266.957 Y258.708
G01 X267.408 Y257.886
G01 X267.818 Y257.040
G01 X267.822 Y257.032
G01 X274.078 Y259.413
G01 X274.565 Y258.238
G01 X274.993 Y257.038
G01 X275.363 Y255.816
G01 X275.367 Y255.805
G01 X268.838 Y254.249
G01 X269.072 Y253.327
G01 X269.260 Y252.394
G01 X269.396 Y251.501
G01 X276.124 Y251.939
G01 X276.244 Y250.657
G01 X276.301 Y249.367
G01 X276.295 Y248.073
G01 X276.295 Y248.061
G01 X269.550 Y248.497
G01 X269.501 Y247.533
G01 X269.405 Y246.570
G01 X269.270 Y245.664
G01 X275.875 Y244.092
G01 X275.609 Y242.814
G01 X275.280 Y241.548
G01 X274.888 Y240.297
G01 X274.884 Y240.286
G01 X268.521 Y242.703
G01 X268.185 Y241.783
G01 X267.804 Y240.878
G01 X267.378 Y239.990
G01 X267.374 Y239.982
G01 X273.254 Y236.494
G01 X272.612 Y235.338
G01 X271.912 Y234.213
G01 X271.198 Y233.180
G01 X265.790 Y237.390
G01 X265.189 Y236.597
G01 X264.549 Y235.834
G01 X263.870 Y235.100
G01 X263.864 Y235.094
G01 X268.490 Y229.994
G01 X267.523 Y229.067
G01 X266.510 Y228.186
G01 X265.511 Y227.399
G01 X261.553 Y233.053
G01 X260.733 Y232.463
G01 X259.884 Y231.914
G01 X259.007 Y231.405
G01 X258.998 Y231.401
G01 X261.939 Y225.123
G01 X260.727 Y224.514
G01 X259.483 Y223.964
G01 X258.211 Y223.474
G01 X258.200 Y223.470
G01 X256.085 Y230.090
G01 X255.113 Y229.766
G01 X254.124 Y229.490
G01 X253.176 Y229.274
G01 X254.146 Y222.362
G01 X252.791 Y222.133
G01 X251.423 Y221.972
G01 X250.046 Y221.877
G01 X250.033 Y221.877
G01 X249.959 Y228.873
G01 X248.919 Y228.850
G01 X247.878 Y228.878
G01 X246.893 Y228.951
G01 X245.779 Y222.012
G01 X244.400 Y222.196
G01 X243.028 Y222.447
G01 X241.667 Y222.766
G01 X241.654 Y222.769
G01 X243.654 Y229.524
G01 X242.639 Y229.812
G01 X241.638 Y230.150
G01 X240.652 Y230.538
G01 X240.643 Y230.542
G01 X237.495 Y224.205
G01 X236.216 Y224.797
G01 X234.965 Y225.454
G01 X233.812 Y226.131
G01 X237.736 Y232.039
G01 X236.838 Y232.621
G01 X235.968 Y233.248
G01 X235.128 Y233.919
G01 X235.120 Y233.925
G01 X230.215 Y228.760
G01 X229.154 Y229.715
G01 X228.139 Y230.723
G01 X227.224 Y231.722
G01 X232.749 Y236.245
G01 X232.052 Y237.077
G01 X231.396 Y237.945
G01 X230.782 Y238.847
G01 X230.777 Y238.855
G01 X224.528 Y235.339
G01 X223.785 Y236.579
G01 X223.104 Y237.857
G01 X222.485 Y239.169
G01 X222.479 Y239.181
G01 X229.142 Y241.876
G01 X228.719 Y242.893
G01 X228.345 Y243.932
G01 X228.039 Y244.931
G01 X220.985 Y243.399
G01 X220.637 Y244.820
G01 X220.358 Y246.260
G01 X220.150 Y247.714
G01 X220.149 Y247.728
G01 X227.357 Y248.348
G01 X227.251 Y249.460
G01 X227.199 Y250.578
G01 X227.200 Y251.638
G01 X219.961 Y252.254
G01 X220.047 Y253.732
G01 X220.207 Y255.208
G01 X220.439 Y256.677
G01 X220.441 Y256.690
G01 X227.560 Y255.153
G01 X227.788 Y256.263
G01 X228.072 Y257.362
G01 X228.410 Y258.448
G01 X228.414 Y258.458
G01 X221.640 Y261.216
G01 X222.169 Y262.619
G01 X222.767 Y263.997
G01 X223.395 Y265.274
G01 X229.788 Y261.688
G01 X230.341 Y262.695
G01 X230.944 Y263.676
G01 X231.596 Y264.627
G01 X231.603 Y264.636
G01 X225.903 Y269.295
G01 X226.833 Y270.494
G01 X227.822 Y271.649
G01 X228.811 Y272.697
G01 X233.899 Y267.355
G01 X234.736 Y268.166
G01 X235.613 Y268.936
G01 X236.529 Y269.664
G01 X236.537 Y269.670
G01 X232.434 Y275.839
G01 X233.691 Y276.722
G01 X234.992 Y277.545
G01 X236.335 Y278.304
G01 X236.347 Y278.310
G01 X239.641 Y271.655
G01 X240.695 Y272.187
G01 X241.776 Y272.668
G01 X242.821 Y273.074
G01 X240.701 Y280.223
G01 X242.180 Y280.703
G01 X243.683 Y281.111
G01 X245.208 Y281.445
G01 X245.222 Y281.447
G01 X246.420 Y274.071
G01 X247.600 Y274.272
G01 X248.792 Y274.415
G01 X249.925 Y274.496
G01 X249.964 Y278.248
G01 X250.003 Y282.000
G01 X251.576 Y282.024
G01 X253.152 Y281.970
G01 X254.726 Y281.839
G01 X254.740 Y281.838
G01 X254.225 Y278.113
G01 X253.709 Y274.388
G01 X254.913 Y274.230
G01 X256.109 Y274.013
G01 X257.296 Y273.737
G01 X257.307 Y273.734
G01 X258.467 Y277.328
G01 X259.626 Y280.922
G01 X261.154 Y280.471
G01 X262.660 Y279.945
G01 X264.061 Y279.380
G01 X262.463 Y275.949
G01 X260.865 Y272.519
G01 X261.983 Y272.008
G01 X263.077 Y271.441
G01 X264.145 Y270.819
G01 X264.154 Y270.813
G01 X266.334 Y273.926
G01 X268.513 Y277.038
G01 X269.856 Y276.148
G01 X271.155 Y275.191
G01 X272.342 Y274.226
G01 X269.790 Y271.400
G01 X267.238 Y268.574
G01 X268.168 Y267.745
G01 X269.059 Y266.869
G01 X269.907 Y265.949
G01 X269.915 Y265.940
G01 X272.932 Y268.288
G01 X275.949 Y270.637
G01 X276.982 Y269.376
G01 X277.954 Y268.063
G01 X278.862 Y266.701
G01 X278.870 Y266.689
G01 X275.573 Y264.736
G01 X272.276 Y262.784
G01 X272.926 Y261.701
G01 X273.524 Y260.585
G01 X274.039 Y259.502
G01 X277.636 Y260.867
G01 X281.233 Y262.232
G01 X281.856 Y260.705
G01 X282.405 Y259.147
G01 X282.877 Y257.560
G01 X282.881 Y257.545
G01 X279.133 Y256.643
G01 X275.384 Y255.741
G01 X275.691 Y254.498
G01 X275.937 Y253.239
G01 X276.112 Y252.037
G01 X279.975 Y252.285
G01 X283.839 Y252.533
G01 X283.987 Y250.871
G01 X284.053 Y249.201
G01 X284.037 Y247.526
G01 X284.036 Y247.511
G01 X280.165 Y247.752
G01 X276.293 Y247.994
G01 X276.219 Y246.699
G01 X276.082 Y245.407
G01 X275.880 Y244.120
G01 X275.878 Y244.108
G01 X279.664 Y243.191
G01 X283.449 Y242.274
G01 X283.092 Y240.624
G01 X282.654 Y238.991
G01 X282.165 Y237.466
G01 X278.513 Y238.844
G01 X274.862 Y240.222
G01 X274.404 Y238.990
G01 X273.885 Y237.780
G01 X273.306 Y236.594
G01 X273.301 Y236.583
G01 X276.670 Y234.581
G01 X280.038 Y232.578
G01 X279.202 Y231.090
G01 X278.292 Y229.642
G01 X277.365 Y228.313
G01 X274.261 Y230.719
G01 X271.158 Y233.124
G01 X270.347 Y232.068
G01 X269.484 Y231.051
G01 X268.570 Y230.076
G01 X268.562 Y230.067
G01 X271.208 Y227.144
G01 X273.854 Y224.221
G01 X272.603 Y223.032
G01 X271.292 Y221.903
G01 X269.924 Y220.838
G01 X269.912 Y220.828
G01 X267.649 Y224.067
G01 X265.386 Y227.306
G01 X264.284 Y226.529
G01 X263.143 Y225.805
G01 X262.030 Y225.172
G01 X263.710 Y221.579
G01 X265.389 Y217.985
G01 X263.825 Y217.208
G01 X262.222 Y216.507
G01 X260.583 Y215.885
G01 X260.568 Y215.879
G01 X259.351 Y219.663
G01 X258.133 Y223.446
G01 X256.835 Y223.023
G01 X255.514 Y222.663
G01 X254.249 Y222.382
G01 X254.800 Y218.430
G01 X255.351 Y214.478
G01 X253.608 Y214.192
G01 X251.850 Y213.992
G01 X250.081 Y213.878
G01 X250.064 Y213.878
G01 X250.013 Y217.876
G01 X249.962 Y221.874
G01 X248.579 Y221.851
G01 X247.193 Y221.896
G01 X245.809 Y222.009
G01 X245.796 Y222.011
G01 X245.144 Y218.050
G01 X244.491 Y214.089
G01 X242.722 Y214.337
G01 X240.965 Y214.673
G01 X239.318 Y215.069
G01 X240.451 Y218.928
G01 X241.584 Y222.787
G01 X240.239 Y223.178
G01 X238.912 Y223.635
G01 X237.606 Y224.157
G01 X237.594 Y224.162
G01 X235.794 Y220.547
G01 X233.994 Y216.932
G01 X232.359 Y217.699
G01 X230.760 Y218.546
G01 X229.287 Y219.420
G01 X231.518 Y222.795
G01 X233.749 Y226.170
G01 X232.564 Y226.948
G01 X231.415 Y227.786
G01 X230.308 Y228.681
G01 X230.297 Y228.690
G01 X227.497 Y225.747
G01 X224.697 Y222.805
G01 X223.345 Y224.032
G01 X222.053 Y225.326
G01 X220.823 Y226.685
G01 X220.812 Y226.698
G01 X223.963 Y229.273
G01 X227.115 Y231.848
G01 X226.204 Y232.958
G01 X225.346 Y234.114
G01 X224.586 Y235.246
G01 X221.024 Y233.246
G01 X217.461 Y231.246
G01 X216.520 Y232.834
G01 X215.656 Y234.469
G01 X214.872 Y236.148
G01 X214.866 Y236.164
G01 X218.657 Y237.707
G01 X222.449 Y239.250
G01 X221.897 Y240.596
G01 X221.412 Y241.970
G01 X221.015 Y243.292
G01 X216.998 Y242.423
G01 X212.982 Y241.555
G01 X212.545 Y243.370
G01 X212.197 Y245.207
G01 X211.939 Y247.062
G01 X211.937 Y247.079
G01 X216.038 Y247.441
G01 X220.140 Y247.803
G01 X220.008 Y249.270
G01 X219.947 Y250.744
G01 X219.960 Y252.222
G01 X219.960 Y252.235
G01 X215.843 Y252.602
G01 X211.726 Y252.969
G01 X211.850 Y254.852
G01 X212.066 Y256.730
G01 X212.356 Y258.497
G01 X216.406 Y257.632
G01 X220.455 Y256.766
G01 X220.764 Y258.224
G01 X221.145 Y259.668
G01 X221.598 Y261.095
G01 X221.602 Y261.108
G01 X217.753 Y262.679
G01 X213.904 Y264.250
G01 X214.584 Y266.032
G01 X215.352 Y267.782
G01 X216.158 Y269.402
G01 X219.795 Y267.373
G01 X223.431 Y265.343
G01 X224.165 Y266.662
G01 X224.964 Y267.945
G01 X225.826 Y269.190
G01 X225.834 Y269.201
G01 X222.600 Y271.850
G01 X219.365 Y274.499
G01 X220.552 Y276.019
G01 X221.815 Y277.481
G01 X223.150 Y278.881
G01 X223.162 Y278.894
G01 X226.049 Y275.858
G01 X228.935 Y272.822
G01 X230.041 Y273.876
G01 X231.199 Y274.876
G01 X232.340 Y275.769
G01 X230.015 Y279.272
G01 X227.689 Y282.776
G01 X229.288 Y283.890
G01 X230.943 Y284.927
G01 X232.649 Y285.883
G01 X232.665 Y285.891
G01 X234.542 Y282.119
G01 X236.418 Y278.348
G01 X237.801 Y279.037
G01 X239.220 Y279.659
G01 X240.589 Y280.183
G01 X239.391 Y284.239
G01 X238.193 Y288.294
G01 X240.069 Y288.895
G01 X241.975 Y289.404
G01 X243.908 Y289.819
G01 X243.925 Y289.823
G01 X244.614 Y285.643
G01 X245.302 Y281.463
G01 X246.845 Y281.717
G01 X248.402 Y281.896
G01 X249.969 Y281.999
G01 X249.984 Y281.999
G01 X250.045 Y286.251
G01 X250.106 Y290.504
G01 X252.097 Y290.520
G01 X254.090 Y290.438
G01 X255.965 Y290.272
G01 X255.391 Y286.050
G01 X254.817 Y281.829
G01 X256.385 Y281.616
G01 X257.944 Y281.325
G01 X259.490 Y280.958
G01 X259.500 Y280.955
G01 X260.816 Y285.024
G01 X262.132 Y289.093
G01 X264.060 Y288.517
G01 X265.960 Y287.846
G01 X267.829 Y287.081
G01 X267.840 Y287.076
G01 X266.029 Y283.194
G01 X264.218 Y279.311
G01 X265.669 Y278.634
G01 X267.088 Y277.884
G01 X268.393 Y277.114
G01 X270.860 Y280.635
G01 X273.328 Y284.157
G01 X275.019 Y283.028
G01 X276.655 Y281.815
G01 X278.232 Y280.521
G01 X278.242 Y280.512
G01 X275.354 Y277.316
G01 X272.466 Y274.120
G01 X273.668 Y273.033
G01 X274.817 Y271.886
G01 X275.911 Y270.681
G01 X275.918 Y270.673
G01 X279.339 Y273.318
G01 X282.759 Y275.963
G01 X284.052 Y274.366
G01 X285.267 Y272.704
G01 X286.337 Y271.083
G01 X282.617 Y268.864
G01 X278.897 Y266.645
G01 X279.736 Y265.236
G01 X280.506 Y263.785
G01 X281.205 Y262.295
G01 X281.209 Y262.286
G01 X285.279 Y263.816
G01 X289.349 Y265.347
G01 X290.122 Y263.421
G01 X290.802 Y261.455
G01 X291.354 Y259.572
G01 X287.123 Y258.538
G01 X282.892 Y257.504
G01 X283.284 Y255.893
G01 X283.597 Y254.260
G01 X283.829 Y252.612
G01 X283.831 Y252.601
G01 X288.194 Y252.869
G01 X292.557 Y253.138
G01 X292.732 Y251.047
G01 X292.805 Y248.948
G01 X292.773 Y246.843
G01 X292.773 Y246.830
G01 X288.402 Y247.100
G01 X284.031 Y247.370
G01 X283.925 Y245.696
G01 X283.737 Y244.025
G01 X283.484 Y242.458
G01 X287.756 Y241.426
G01 X292.029 Y240.394
G01 X291.577 Y238.324
G01 X291.023 Y236.275
G01 X290.368 Y234.252
G01 X290.363 Y234.239
G01 X286.242 Y235.790
G01 X282.122 Y237.341
G01 X281.521 Y235.753
G01 X280.842 Y234.194
G01 X280.085 Y232.667
G01 X280.080 Y232.658
G01 X283.874 Y230.392
G01 X287.668 Y228.125
G01 X286.611 Y226.264
G01 X285.461 Y224.453
G01 X284.296 Y222.798
G01 X280.794 Y225.506
G01 X277.292 Y228.213
G01 X276.239 Y226.857
G01 X275.119 Y225.552
G01 X273.934 Y224.301
G01 X273.926 Y224.293
G01 X276.902 Y220.994
G01 X279.878 Y217.695
G01 X278.304 Y216.212
G01 X276.656 Y214.805
G01 X274.939 Y213.479
G01 X274.928 Y213.471
G01 X272.373 Y217.116
G01 X269.819 Y220.760
G01 X268.395 Y219.767
G01 X266.920 Y218.843
G01 X265.488 Y218.038
G01 X267.373 Y213.988
G01 X269.258 Y209.939
G01 X267.298 Y208.974
G01 X265.289 Y208.105
G01 X263.237 Y207.335
G01 X263.224 Y207.330
G01 X261.846 Y211.587
G01 X260.468 Y215.844
G01 X258.796 Y215.308
G01 X257.096 Y214.853
G01 X255.373 Y214.482
G01 X255.362 Y214.480
G01 X255.962 Y210.029
G01 X256.563 Y205.579
G01 X254.382 Y205.236
G01 X252.184 Y205.001
G01 X250.101 Y204.879
G01 X250.034 Y209.376
G01 X249.968 Y213.874
G01 X248.192 Y213.852
G01 X246.414 Y213.919
G01 X244.638 Y214.072
G01 X244.626 Y214.073
G01 X243.888 Y209.620
G01 X243.150 Y205.166
G01 X240.943 Y205.483
G01 X238.752 Y205.909
G01 X236.580 Y206.443
G01 X236.566 Y206.446
G01 X237.844 Y210.784
G01 X239.122 Y215.122
G01 X237.401 Y215.635
G01 X235.704 Y216.233
G01 X234.130 Y216.873
G01 X232.105 Y212.812
G01 X230.079 Y208.751
G01 X228.043 Y209.712
G01 X226.054 Y210.774
G01 X224.116 Y211.934
G01 X224.104 Y211.942
G01 X226.613 Y215.732
G01 X229.122 Y219.523
G01 X227.611 Y220.531
G01 X226.149 Y221.613
G01 X224.819 Y222.700
G01 X221.673 Y219.396
G01 X218.527 Y216.093
G01 X216.847 Y217.625
G01 X215.242 Y219.241
G01 X213.716 Y220.937
G01 X213.706 Y220.948
G01 X217.237 Y223.849
G01 X220.767 Y226.750
G01 X219.607 Y228.173
G01 X218.516 Y229.654
G01 X217.497 Y231.189
G01 X217.490 Y231.199
G01 X213.484 Y228.967
G01 X209.478 Y226.735
G01 X208.318 Y228.717
G01 X207.255 Y230.757
G01 X206.344 Y232.728
G01 X210.593 Y234.473
G01 X214.842 Y236.217
G01 X214.144 Y237.938
G01 X213.530 Y239.693
G01 X213.002 Y241.480
G01 X212.999 Y241.491
G01 X208.490 Y240.530
G01 X203.981 Y239.569
G01 X203.450 Y241.827
G01 X203.030 Y244.111
G01 X202.722 Y246.417
G01 X202.720 Y246.432
G01 X207.319 Y246.839
G01 X211.919 Y247.246
G01 X211.761 Y249.117
G01 X211.695 Y250.996
G01 X211.718 Y252.771
G01 X207.103 Y253.180
G01 X202.487 Y253.589
G01 X202.645 Y255.925
G01 X202.917 Y258.255
G01 X203.305 Y260.572
G01 X203.307 Y260.587
G01 X207.847 Y259.620
G01 X212.386 Y258.653
G01 X212.789 Y260.507
G01 X213.285 Y262.342
G01 X213.870 Y264.154
G01 X213.874 Y264.165
G01 X209.566 Y265.935
G01 X205.258 Y267.706
G01 X206.111 Y269.911
G01 X207.073 Y272.076
G01 X208.077 Y274.074
G01 X212.152 Y271.804
G01 X216.228 Y269.534
G01 X217.169 Y271.205
G01 X218.193 Y272.831
G01 X219.297 Y274.407
G01 X219.304 Y274.417
G01 X215.688 Y277.391
G01 X212.073 Y280.364
G01 X213.551 Y282.240
G01 X215.121 Y284.043
G01 X216.781 Y285.770
G01 X216.792 Y285.781
G01 X220.027 Y282.387
G01 X223.261 Y278.993
G01 X224.672 Y280.323
G01 X226.148 Y281.585
G01 X227.598 Y282.708
G01 X225.002 Y286.633
G01 X222.407 Y290.558
G01 X224.390 Y291.929
G01 X226.441 Y293.203
G01 X228.556 Y294.377
G01 X228.570 Y294.384
G01 X230.675 Y290.167
G01 X232.780 Y285.951
G01 X234.538 Y286.818
G01 X236.339 Y287.598
G01 X238.073 Y288.252
G01 X236.740 Y292.789
G01 X235.406 Y297.326
G01 X237.727 Y298.060
G01 X240.084 Y298.681
G01 X242.473 Y299.186
G01 X242.488 Y299.189
G01 X243.266 Y294.517
G01 X244.043 Y289.845
G01 X245.999 Y290.159
G01 X247.970 Y290.377
G01 X249.954 Y290.498
G01 X249.966 Y290.499
G01 X250.041 Y295.251
G01 X250.116 Y300.004
G01 X252.573 Y300.016
G01 X255.032 Y299.907
G01 X257.345 Y299.694
G01 X256.712 Y294.976
G01 X256.080 Y290.259
G01 X258.062 Y289.981
G01 X260.031 Y289.606
G01 X261.983 Y289.133
G01 X261.995 Y289.130
G01 X263.471 Y293.673
G01 X264.947 Y298.216
G01 X267.322 Y297.498
G01 X269.662 Y296.664
G01 X271.962 Y295.713
G01 X271.976 Y295.707
G01 X269.962 Y291.368
G01 X267.947 Y287.029
G01 X269.776 Y286.166
G01 X271.564 Y285.213
G01 X273.207 Y284.233
G01 X275.967 Y288.161
G01 X278.726 Y292.089
G01 X280.804 Y290.692
G01 X282.815 Y289.192
G01 X284.752 Y287.593
G01 X284.764 Y287.582
G01 X281.547 Y284.009
G01 X278.331 Y280.436
G01 X279.841 Y279.059
G01 X281.285 Y277.606
G01 X282.657 Y276.083
G01 X282.666 Y276.073
G01 X286.486 Y279.019
G01 X290.307 Y281.965
G01 X291.891 Y279.995
G01 X293.379 Y277.946
G01 X294.690 Y275.948
G01 X290.545 Y273.465
G01 X286.401 Y270.982
G01 X287.450 Y269.204
G01 X288.413 Y267.372
G01 X289.285 Y265.493
G01 X289.291 Y265.481
G01 X293.830 Y267.182
G01 X298.370 Y268.883
G01 X299.314 Y266.513
G01 X300.142 Y264.094
G01 X300.851 Y261.635
G01 X300.855 Y261.619
G01 X296.137 Y260.473
G01 X291.419 Y259.326
G01 X291.898 Y257.295
G01 X292.277 Y255.240
G01 X292.541 Y253.284
G01 X297.404 Y253.577
G01 X302.268 Y253.870
G01 X302.475 Y251.303
G01 X302.555 Y248.724
G01 X302.509 Y246.141
G01 X302.509 Y246.125
G01 X297.638 Y246.417
G01 X292.768 Y246.709
G01 X292.627 Y244.605
G01 X292.382 Y242.507
G01 X292.034 Y240.421
G01 X292.032 Y240.407
G01 X296.785 Y239.237
G01 X301.540 Y238.067
G01 X300.969 Y235.531
G01 X300.274 Y233.021
G01 X299.506 Y230.687
G01 X294.914 Y232.405
G01 X290.322 Y234.124
G01 X289.561 Y232.134
G01 X288.702 Y230.181
G01 X287.746 Y228.270
G01 X287.739 Y228.258
G01 X291.960 Y225.730
G01 X296.180 Y223.202
G01 X294.877 Y220.924
G01 X293.462 Y218.710
G01 X292.028 Y216.686
G01 X288.125 Y219.692
G01 X284.222 Y222.698
G01 X282.896 Y221.004
G01 X281.486 Y219.373
G01 X279.996 Y217.812
G01 X279.986 Y217.802
G01 X283.293 Y214.127
G01 X286.599 Y210.453
G01 X284.667 Y208.642
G01 X282.645 Y206.926
G01 X280.538 Y205.309
G01 X280.524 Y205.299
G01 X277.675 Y209.348
G01 X274.826 Y213.397
G01 X273.039 Y212.160
G01 X271.189 Y211.010
G01 X269.394 Y210.010
G01 X271.484 Y205.504
G01 X273.575 Y200.998
G01 X271.174 Y199.825
G01 X268.714 Y198.770
G01 X266.202 Y197.835
G01 X266.186 Y197.830
G01 X264.645 Y202.559
G01 X263.105 Y207.289
G01 X261.011 Y206.626
G01 X258.884 Y206.065
G01 X256.729 Y205.609
G01 X256.715 Y205.607
G01 X257.376 Y200.659
G01 X258.038 Y195.712
G01 X255.372 Y195.302
G01 X252.686 Y195.022
G01 X250.141 Y194.879
G01 X250.057 Y199.877
G01 X249.973 Y204.874
G01 X247.756 Y204.855
G01 X245.536 Y204.946
G01 X243.320 Y205.146
G01 X243.306 Y205.148
G01 X242.479 Y200.201
G01 X241.653 Y195.255
G01 X238.961 Y195.649
G01 X236.287 Y196.177
G01 X233.638 Y196.836
G01 X233.621 Y196.840
G01 X235.031 Y201.660
G01 X236.442 Y206.480
G01 X234.297 Y207.128
G01 X232.183 Y207.881
G01 X230.224 Y208.687
G01 X227.970 Y204.180
G01 X225.715 Y199.674
G01 X223.236 Y200.853
G01 X220.813 Y202.155
G01 X218.454 Y203.577
G01 X218.440 Y203.586
G01 X221.217 Y207.799
G01 X223.994 Y212.012
G01 X222.116 Y213.274
G01 X220.299 Y214.629
G01 X218.548 Y216.074
G01 X218.537 Y216.083
G01 X215.030 Y212.432
G01 X211.522 Y208.781
G01 X209.487 Y210.661
G01 X207.543 Y212.641
G01 X205.800 Y214.596
G01 X209.710 Y217.822
G01 X213.621 Y221.048
G01 X212.183 Y222.824
G01 X210.832 Y224.671
G01 X209.571 Y226.585
G01 X209.563 Y226.598
G01 X205.116 Y224.128
G01 X200.670 Y221.658
G01 X199.264 Y224.074
G01 X197.977 Y226.561
G01 X196.876 Y228.963
G01 X201.584 Y230.906
G01 X206.292 Y232.850
G01 X205.431 Y234.991
G01 X204.675 Y237.175
G01 X204.026 Y239.398
G01 X204.023 Y239.412
G01 X199.023 Y238.353
G01 X194.024 Y237.294
G01 X193.385 Y240.041
G01 X192.882 Y242.821
G01 X192.515 Y245.626
G01 X192.513 Y245.644
G01 X197.609 Y246.105
G01 X202.706 Y246.565
G01 X202.518 Y248.888
G01 X202.445 Y251.222
G01 X202.480 Y253.424
G01 X197.367 Y253.884
G01 X192.253 Y254.344
G01 X192.453 Y257.183
G01 X192.791 Y260.012
G01 X193.270 Y262.826
G01 X193.273 Y262.843
G01 X198.303 Y261.782
G01 X203.333 Y260.720
G01 X203.842 Y263.018
G01 X204.463 Y265.291
G01 X205.197 Y267.535
G01 X205.202 Y267.549
G01 X200.434 Y269.516
G01 X195.665 Y271.482
G01 X196.708 Y274.157
G01 X197.882 Y276.782
G01 X199.107 Y279.203
G01 X203.624 Y276.699
G01 X208.141 Y274.194
G01 X209.314 Y276.261
G01 X210.589 Y278.270
G01 X211.963 Y280.218
G01 X211.973 Y280.230
G01 X207.975 Y283.526
G01 X203.976 Y286.823
G01 X205.775 Y289.093
G01 X207.686 Y291.275
G01 X209.704 Y293.364
G01 X209.717 Y293.377
G01 X213.304 Y289.628
G01 X216.890 Y285.878
G01 X218.641 Y287.519
G01 X220.473 Y289.074
G01 X222.271 Y290.458
G01 X219.405 Y294.804
G01 X216.540 Y299.149
G01 X218.947 Y300.805
G01 X221.437 Y302.342
G01 X224.002 Y303.757
G01 X224.019 Y303.766
G01 X226.356 Y299.107
G01 X228.693 Y294.448
G01 X230.870 Y295.512
G01 X233.100 Y296.468
G01 X235.377 Y297.316
G01 X235.392 Y297.321
G01 X233.939 Y302.345
G01 X232.487 Y307.369
G01 X235.302 Y308.242
G01 X238.161 Y308.977
G01 X240.888 Y309.541
G01 X241.757 Y304.378
G01 X242.627 Y299.214
G01 X245.043 Y299.594
G01 X247.478 Y299.856
G01 X249.927 Y299.998
G01 X249.943 Y299.998
G01 X250.032 Y305.251
G01 X250.121 Y310.503
G01 X253.094 Y310.511
G01 X256.068 Y310.371
G01 X259.036 Y310.086
G01 X259.055 Y310.084
G01 X258.349 Y304.871
G01 X257.643 Y299.658
G01 X260.086 Y299.300
G01 X262.513 Y298.822
G01 X264.779 Y298.262
G01 X266.415 Y303.279
G01 X268.051 Y308.296
G01 X270.920 Y307.421
G01 X273.746 Y306.405
G01 X276.522 Y305.250
G01 X276.540 Y305.242
G01 X274.324 Y300.446
G01 X272.107 Y295.649
G01 X274.358 Y294.578
G01 X276.558 Y293.397
G01 X278.578 Y292.184
G01 X281.630 Y296.517
G01 X284.683 Y300.851
G01 X287.188 Y299.157
G01 X289.611 Y297.340
G01 X291.945 Y295.403
G01 X291.960 Y295.390
G01 X288.417 Y291.439
G01 X284.873 Y287.487
G01 X286.727 Y285.786
G01 X288.498 Y283.993
G01 X290.181 Y282.113
G01 X290.192 Y282.100
G01 X294.413 Y285.347
G01 X298.634 Y288.593
G01 X300.540 Y286.211
G01 X302.329 Y283.735
G01 X303.904 Y281.320
G01 X299.335 Y278.572
G01 X294.767 Y275.824
G01 X296.051 Y273.632
G01 X297.228 Y271.377
G01 X298.293 Y269.063
G01 X298.300 Y269.048
G01 X303.311 Y270.919
G01 X308.322 Y272.789
G01 X309.453 Y269.928
G01 X310.443 Y267.010
G01 X311.290 Y264.044
G01 X311.295 Y264.024
G01 X306.094 Y262.751
G01 X300.892 Y261.476
G01 X301.473 Y258.979
G01 X301.931 Y256.453
G01 X302.249 Y254.050
G01 X307.612 Y254.366
G01 X312.975 Y254.683
G01 X313.216 Y251.589
G01 X313.306 Y248.483
G01 X313.243 Y245.372
G01 X313.242 Y245.352
G01 X307.872 Y245.664
G01 X302.502 Y245.976
G01 X302.321 Y243.395
G01 X302.013 Y240.822
G01 X301.578 Y238.263
G01 X301.575 Y238.246
G01 X306.813 Y236.950
G01 X312.052 Y235.653
G01 X311.358 Y232.602
G01 X310.514 Y229.584
G01 X309.583 Y226.777
G01 X304.519 Y228.661
G01 X299.456 Y230.545
G01 X298.515 Y228.109
G01 X297.454 Y225.718
G01 X296.275 Y223.379
G01 X296.267 Y223.364
G01 X300.914 Y220.573
G01 X305.560 Y217.782
G01 X303.987 Y215.046
G01 X302.278 Y212.387
G01 X300.439 Y209.812
G01 X300.427 Y209.796
G01 X296.132 Y213.113
G01 X291.837 Y216.430
G01 X290.200 Y214.364
G01 X288.461 Y212.377
G01 X286.732 Y210.583
G01 X290.368 Y206.532
G01 X294.004 Y202.481
G01 X291.677 Y200.310
G01 X289.242 Y198.254
G01 X286.706 Y196.318
G01 X286.690 Y196.306
G01 X283.545 Y200.757
G01 X280.400 Y205.209
G01 X278.208 Y203.702
G01 X275.941 Y202.302
G01 X273.741 Y201.085
G01 X276.036 Y196.122
G01 X278.331 Y191.159
G01 X275.445 Y189.757
G01 X272.489 Y188.498
G01 X269.470 Y187.383
G01 X269.451 Y187.376
G01 X267.745 Y192.578
G01 X266.040 Y197.780
G01 X263.479 Y196.976
G01 X260.877 Y196.299
G01 X258.241 Y195.749
G01 X258.224 Y195.746
G01 X258.945 Y190.302
G01 X259.665 Y184.857
G01 X256.466 Y184.372
G01 X253.242 Y184.044
G01 X250.189 Y183.881
G01 X250.087 Y189.378
G01 X249.985 Y194.875
G01 X247.276 Y194.860
G01 X244.565 Y194.978
G01 X241.860 Y195.230
G01 X241.843 Y195.232
G01 X240.927 Y189.793
G01 X240.012 Y184.354
G01 X236.785 Y184.835
G01 X233.581 Y185.474
G01 X230.409 Y186.272
G01 X230.388 Y186.277
G01 X231.929 Y191.580
G01 X233.470 Y196.882
G01 X230.855 Y197.680
G01 X228.279 Y198.606
G01 X225.892 Y199.596
G01 X223.407 Y194.645
G01 X220.923 Y189.694
G01 X217.955 Y191.114
G01 X215.058 Y192.680
G01 X212.236 Y194.389
G01 X212.218 Y194.400
G01 X215.262 Y199.036
G01 X218.306 Y203.672
G01 X216.021 Y205.217
G01 X213.811 Y206.874
G01 X211.682 Y208.641
G01 X211.669 Y208.653
G01 X207.809 Y204.646
G01 X203.950 Y200.639
G01 X201.519 Y202.895
G01 X199.197 Y205.270
G01 X197.117 Y207.614
G01 X201.406 Y211.166
G01 X205.696 Y214.718
G01 X203.950 Y216.886
G01 X202.311 Y219.140
G01 X200.782 Y221.476
G01 X200.773 Y221.490
G01 X195.886 Y218.783
G01 X190.998 Y216.076
G01 X189.323 Y218.971
G01 X187.791 Y221.948
G01 X186.404 Y225.001
G01 X186.396 Y225.020
G01 X191.569 Y227.148
G01 X196.742 Y229.276
G01 X195.710 Y231.888
G01 X194.806 Y234.551
G01 X194.074 Y237.102
G01 X188.583 Y235.946
G01 X183.093 Y234.791
G01 X182.337 Y238.076
G01 X181.743 Y241.399
G01 X181.312 Y244.752
G01 X181.309 Y244.773
G01 X186.903 Y245.290
G01 X192.496 Y245.806
G01 X192.276 Y248.631
G01 X192.194 Y251.467
G01 X192.252 Y254.308
G01 X192.253 Y254.326
G01 X186.643 Y254.855
G01 X181.033 Y255.384
G01 X181.289 Y258.773
G01 X181.712 Y262.151
G01 X182.262 Y265.314
G01 X187.783 Y264.159
G01 X193.305 Y263.005
G01 X193.930 Y265.794
G01 X194.692 Y268.553
G01 X195.591 Y271.275
G01 X195.597 Y271.292
G01 X190.369 Y273.456
G01 X185.140 Y275.620
G01 X186.391 Y278.810
G01 X187.800 Y281.939
G01 X189.267 Y284.824
G01 X194.227 Y282.087
G01 X199.186 Y279.349
G01 X200.616 Y281.853
G01 X202.170 Y284.287
G01 X203.843 Y286.646
G01 X203.854 Y286.660
G01 X199.475 Y290.280
G01 X195.095 Y293.901
G01 X197.246 Y296.603
G01 X199.530 Y299.201
G01 X201.942 Y301.686
G01 X201.957 Y301.701
G01 X205.897 Y297.598
G01 X209.837 Y293.494
G01 X211.965 Y295.478
G01 X214.191 Y297.357
G01 X216.374 Y299.029
G01 X213.239 Y303.796
G01 X210.104 Y308.564
G01 X212.977 Y310.531
G01 X215.947 Y312.356
G01 X219.007 Y314.036
G01 X219.027 Y314.046
G01 X221.598 Y308.945
G01 X224.169 Y303.844
G01 X226.809 Y305.125
G01 X229.512 Y306.277
G01 X232.273 Y307.296
G01 X232.291 Y307.302
G01 X230.706 Y312.809
G01 X229.122 Y318.316
G01 X232.476 Y319.348
G01 X235.882 Y320.216
G01 X239.130 Y320.881
G01 X240.093 Y315.226
G01 X241.056 Y309.572
G01 X243.981 Y310.024
G01 X246.929 Y310.333
G01 X249.893 Y310.497
G01 X249.912 Y310.497
G01 X250.017 Y316.250
G01 X250.122 Y322.003
G01 X253.659 Y322.004
G01 X257.197 Y321.831
G01 X260.727 Y321.484
G01 X260.750 Y321.481
G01 X259.988 Y315.772
G01 X259.225 Y310.063
G01 X262.179 Y309.622
G01 X265.111 Y309.036
G01 X267.848 Y308.352
G01 X269.647 Y313.843
G01 X271.446 Y319.333
G01 X274.854 Y318.286
G01 X278.211 Y317.071
G01 X281.509 Y315.691
G01 X281.530 Y315.681
G01 X279.114 Y310.426
G01 X276.698 Y305.171
G01 X279.414 Y303.871
G01 X282.067 Y302.437
G01 X284.650 Y300.872
G01 X284.667 Y300.861
G01 X288.029 Y305.589
G01 X291.390 Y310.318
G01 X294.357 Y308.289
G01 X297.225 Y306.115
G01 X299.830 Y303.937
G01 X295.961 Y299.606
G01 X292.091 Y295.275
G01 X294.324 Y293.216
G01 X296.457 Y291.046
G01 X298.483 Y288.772
G01 X298.495 Y288.757
G01 X303.117 Y292.302
G01 X307.739 Y295.848
G01 X309.997 Y293.015
G01 X312.115 Y290.071
G01 X313.979 Y287.201
G01 X308.988 Y284.185
G01 X303.996 Y281.170
G01 X305.538 Y278.523
G01 X306.951 Y275.800
G01 X308.229 Y273.006
G01 X308.237 Y272.988
G01 X313.719 Y275.027
G01 X319.202 Y277.065
G01 X320.537 Y273.667
G01 X321.705 Y270.204
G01 X322.703 Y266.682
G01 X322.709 Y266.660
G01 X317.024 Y265.256
G01 X311.340 Y263.852
G01 X312.032 Y260.841
G01 X312.576 Y257.795
G01 X312.952 Y254.899
G01 X318.815 Y255.238
G01 X324.678 Y255.576
G01 X324.957 Y251.908
G01 X325.056 Y248.225
G01 X324.974 Y244.537
G01 X324.973 Y244.514
G01 X319.104 Y244.844
G01 X313.234 Y245.173
G01 X313.008 Y242.066
G01 X312.630 Y238.968
G01 X312.099 Y235.889
G01 X312.095 Y235.869
G01 X317.817 Y234.446
G01 X323.540 Y233.021
G01 X322.711 Y229.407
G01 X321.704 Y225.834
G01 X320.594 Y222.511
G01 X315.058 Y224.559
G01 X309.522 Y226.607
G01 X308.383 Y223.678
G01 X307.100 Y220.805
G01 X305.675 Y217.994
G01 X305.666 Y217.977
G01 X310.737 Y214.922
G01 X315.808 Y211.866
G01 X313.939 Y208.631
G01 X311.910 Y205.487
G01 X309.727 Y202.442
G01 X309.713 Y202.423
G01 X305.015 Y206.037
G01 X300.317 Y209.651
G01 X298.343 Y207.171
G01 X296.247 Y204.789
G01 X294.164 Y202.638
G01 X298.129 Y198.209
G01 X302.094 Y193.780
G01 X299.335 Y191.217
G01 X296.450 Y188.790
G01 X293.445 Y186.505
G01 X293.426 Y186.491
G01 X289.983 Y191.344
G01 X286.541 Y196.198
G01 X283.903 Y194.394
G01 X281.177 Y192.719
G01 X278.367 Y191.178
G01 X278.349 Y191.168
G01 X280.830 Y185.740
G01 X283.311 Y180.312
G01 X279.889 Y178.671
G01 X276.386 Y177.199
G01 X273.019 Y175.970
G01 X271.147 Y181.643
G01 X269.275 Y187.317
G01 X266.198 Y186.360
G01 X263.074 Y185.553
G01 X259.910 Y184.901
G01 X259.889 Y184.897
G01 X260.668 Y178.956
G01 X261.447 Y173.015
G01 X257.665 Y172.449
G01 X253.855 Y172.069
G01 X250.027 Y171.876
G01 X250.003 Y171.875
G01 X249.899 Y177.872
G01 X249.795 Y183.870
G01 X246.545 Y183.870
G01 X243.296 Y184.029
G01 X240.240 Y184.326
G01 X239.234 Y178.395
G01 X238.228 Y172.464
G01 X234.418 Y173.039
G01 X230.636 Y173.801
G01 X226.892 Y174.749
G01 X226.868 Y174.756
G01 X228.538 Y180.542
G01 X230.207 Y186.328
G01 X227.075 Y187.291
G01 X223.991 Y188.408
G01 X221.134 Y189.600
G01 X218.418 Y184.205
G01 X215.702 Y178.810
G01 X212.204 Y180.493
G01 X208.787 Y182.347
G01 X205.462 Y184.370
G01 X205.441 Y184.383
G01 X208.750 Y189.443
G01 X212.059 Y194.503
G01 X209.326 Y196.359
G01 X206.685 Y198.350
G01 X204.141 Y200.471
G01 X204.125 Y200.485
G01 X199.913 Y196.123
G01 X195.701 Y191.761
G01 X192.838 Y194.426
G01 X190.106 Y197.233
G01 X187.658 Y200.001
G01 X192.325 Y203.881
G01 X196.993 Y207.760
G01 X194.910 Y210.359
G01 X192.955 Y213.060
G01 X191.133 Y215.858
G01 X191.121 Y215.876
G01 X185.792 Y212.933
G01 X180.463 Y209.991
G01 X178.496 Y213.406
G01 X176.696 Y216.917
G01 X175.069 Y220.518
G01 X175.059 Y220.541
G01 X180.690 Y222.869
G01 X186.321 Y225.198
G01 X185.094 Y228.324
G01 X184.020 Y231.510
G01 X183.152 Y234.561
G01 X177.170 Y233.310
G01 X171.188 Y232.059
G01 X170.305 Y235.931
G01 X169.612 Y239.846
G01 X169.112 Y243.795
G01 X169.109 Y243.820
G01 X175.199 Y244.394
G01 X181.290 Y244.967
G01 X181.034 Y248.342
G01 X180.944 Y251.731
G01 X181.020 Y255.124
G01 X181.021 Y255.146
G01 X174.914 Y255.729
G01 X168.806 Y256.313
G01 X169.115 Y260.302
G01 X169.619 Y264.276
G01 X170.274 Y267.999
G01 X176.287 Y266.753
G01 X182.300 Y265.507
G01 X183.054 Y268.835
G01 X183.971 Y272.127
G01 X185.051 Y275.373
G01 X185.058 Y275.394
G01 X179.371 Y277.757
G01 X173.683 Y280.119
G01 X175.161 Y283.869
G01 X176.824 Y287.546
G01 X178.668 Y291.141
G01 X178.680 Y291.163
G01 X184.073 Y288.177
G01 X189.467 Y285.192
G01 X191.189 Y288.170
G01 X193.057 Y291.064
G01 X194.949 Y293.707
G01 X190.189 Y297.652
G01 X185.428 Y301.598
G01 X187.962 Y304.770
G01 X190.652 Y307.819
G01 X193.492 Y310.735
G01 X193.511 Y310.752
G01 X197.805 Y306.296
G01 X202.100 Y301.841
G01 X204.642 Y304.200
G01 X207.300 Y306.434
G01 X209.905 Y308.421
G01 X206.502 Y313.611
G01 X203.099 Y318.801
G01 X206.478 Y321.106
G01 X209.971 Y323.244
G01 X213.570 Y325.211
G01 X213.593 Y325.223
G01 X216.399 Y319.680
G01 X219.206 Y314.138
G01 X222.354 Y315.658
G01 X225.577 Y317.023
G01 X228.867 Y318.230
G01 X228.888 Y318.237
G01 X227.173 Y324.226
G01 X225.457 Y330.216
G01 X229.398 Y331.422
G01 X233.398 Y332.434
G01 X237.214 Y333.208
G01 X238.272 Y327.062
G01 X239.330 Y320.917
G01 X242.813 Y321.448
G01 X246.323 Y321.808
G01 X249.851 Y321.996
G01 X249.873 Y321.997
G01 X249.995 Y328.250
G01 X250.117 Y334.503
G01 X254.268 Y334.497
G01 X258.419 Y334.287
G01 X262.560 Y333.873
G01 X262.586 Y333.869
G01 X261.769 Y327.663
G01 X260.953 Y321.456
G01 X264.464 Y320.925
G01 X267.950 Y320.221
G01 X271.204 Y319.400
G01 X273.166 Y325.364
G01 X275.128 Y331.328
G01 X279.123 Y330.093
G01 X283.058 Y328.661
G01 X286.921 Y327.036
G01 X286.946 Y327.025
G01 X284.332 Y321.311
G01 X281.718 Y315.597
G01 X284.943 Y314.045
G01 X288.093 Y312.333
G01 X291.159 Y310.467
G01 X291.178 Y310.455
G01 X294.836 Y315.586
G01 X298.494 Y320.718
G01 X301.968 Y318.335
G01 X305.324 Y315.781
G01 X308.373 Y313.223
G01 X304.179 Y308.512
G01 X299.986 Y303.800
G01 X302.633 Y301.348
G01 X305.160 Y298.767
G01 X307.561 Y296.061
G01 X307.576 Y296.043
G01 X312.600 Y299.887
G01 X317.624 Y303.731
G01 X320.262 Y300.408
G01 X322.737 Y296.955
G01 X325.043 Y293.381
G01 X325.056 Y293.358
G01 X319.633 Y290.091
G01 X314.210 Y286.824
G01 X316.024 Y283.672
G01 X317.683 Y280.431
G01 X319.102 Y277.302
G01 X325.056 Y279.507
G01 X331.010 Y281.713
G01 X332.566 Y277.732
G01 X333.927 Y273.675
G01 X335.088 Y269.552
G01 X335.095 Y269.526
G01 X328.928 Y267.991
G01 X322.761 Y266.455
G01 X323.575 Y262.882
G01 X324.213 Y259.268
G01 X324.674 Y255.623
G01 X324.676 Y255.599
G01 X331.040 Y255.938
G01 X337.405 Y256.278
G01 X337.711 Y251.984
G01 X337.806 Y247.675
G01 X337.702 Y243.610
G01 X331.333 Y243.956
G01 X324.963 Y244.302
G01 X324.688 Y240.618
G01 X324.232 Y236.948
G01 X323.596 Y233.300
G01 X323.591 Y233.277
G01 X329.797 Y231.725
G01 X336.004 Y230.173
G01 X335.027 Y225.948
G01 X333.843 Y221.772
G01 X332.539 Y217.889
G01 X326.530 Y220.100
G01 X320.521 Y222.310
G01 X319.165 Y218.843
G01 X317.639 Y215.443
G01 X315.945 Y212.118
G01 X315.934 Y212.097
G01 X321.430 Y208.776
G01 X326.925 Y205.456
G01 X324.735 Y201.678
G01 X322.358 Y198.009
G01 X319.802 Y194.456
G01 X319.785 Y194.434
G01 X314.684 Y198.343
G01 X309.582 Y202.251
G01 X307.240 Y199.321
G01 X304.753 Y196.506
G01 X302.283 Y193.965
G01 X306.576 Y189.158
G01 X310.869 Y184.351
G01 X307.642 Y181.363
G01 X304.268 Y178.534
G01 X300.755 Y175.871
G01 X300.732 Y175.855
G01 X296.991 Y181.109
G01 X293.249 Y186.364
G01 X290.125 Y184.235
G01 X286.896 Y182.261
G01 X283.570 Y180.444
G01 X283.549 Y180.433
G01 X286.231 Y174.547
G01 X288.912 Y168.660
G01 X284.915 Y166.752
G01 X280.824 Y165.040
G01 X276.891 Y163.611
G01 X274.851 Y169.755
G01 X272.811 Y175.900
G01 X269.172 Y174.775
G01 X265.477 Y173.830
G01 X261.736 Y173.066
G01 X261.712 Y173.062
G01 X262.548 Y166.623
G01 X263.384 Y160.184
G01 X258.971 Y159.531
G01 X254.526 Y159.094
G01 X250.060 Y158.876
G01 X250.032 Y158.876
G01 X249.907 Y165.373
G01 X249.782 Y171.870
G01 X245.943 Y171.877
G01 X242.105 Y172.073
G01 X238.496 Y172.430
G01 X237.398 Y166.007
G01 X236.301 Y159.584
G01 X231.860 Y160.261
G01 X227.452 Y161.157
G01 X223.089 Y162.269
G01 X223.062 Y162.277
G01 X224.858 Y168.546
G01 X226.654 Y174.816
G01 X222.959 Y175.960
G01 X219.321 Y177.286
G01 X215.747 Y178.790
G01 X215.725 Y178.800
G01 X212.758 Y172.971
G01 X209.792 Y167.142
G01 X205.724 Y169.122
G01 X201.753 Y171.301
G01 X198.109 Y173.534
G01 X201.681 Y179.019
G01 X205.253 Y184.504
G01 X202.034 Y186.700
G01 X198.922 Y189.055
G01 X195.926 Y191.562
G01 X195.908 Y191.579
G01 X191.342 Y186.862
G01 X186.777 Y182.145
G01 X183.447 Y185.255
G01 X180.271 Y188.528
G01 X177.424 Y191.756
G01 X182.468 Y195.965
G01 X187.513 Y200.173
G01 X185.063 Y203.242
G01 X182.764 Y206.431
G01 X180.621 Y209.733
G01 X180.608 Y209.754
G01 X174.837 Y206.576
G01 X169.066 Y203.399
G01 X166.782 Y207.377
G01 X164.693 Y211.468
G01 X162.806 Y215.661
G01 X162.795 Y215.688
G01 X168.883 Y218.219
G01 X174.971 Y220.751
G01 X173.532 Y224.436
G01 X172.274 Y228.192
G01 X171.258 Y231.789
G01 X164.784 Y230.444
G01 X158.311 Y229.098
G01 X157.290 Y233.603
G01 X156.491 Y238.159
G01 X155.916 Y242.753
G01 X155.913 Y242.782
G01 X162.499 Y243.415
G01 X169.086 Y244.048
G01 X168.792 Y248.023
G01 X168.693 Y252.013
G01 X168.791 Y256.007
G01 X168.792 Y256.032
G01 X162.187 Y256.672
G01 X155.582 Y257.312
G01 X155.948 Y261.949
G01 X156.542 Y266.568
G01 X157.309 Y270.895
G01 X163.814 Y269.560
G01 X170.319 Y268.225
G01 X171.213 Y272.140
G01 X172.300 Y276.011
G01 X173.577 Y279.828
G01 X173.585 Y279.853
G01 X167.438 Y282.415
G01 X161.291 Y284.977
G01 X163.016 Y289.332
G01 X164.955 Y293.602
G01 X167.103 Y297.776
G01 X167.117 Y297.802
G01 X172.955 Y294.585
G01 X178.791 Y291.368
G01 X180.823 Y294.867
G01 X183.026 Y298.266
G01 X185.256 Y301.370
G01 X180.115 Y305.641
G01 X174.975 Y309.912
G01 X177.924 Y313.593
G01 X181.053 Y317.129
G01 X184.356 Y320.510
G01 X184.377 Y320.531
G01 X189.028 Y315.724
G01 X193.679 Y310.916
G01 X196.671 Y313.684
G01 X199.799 Y316.304
G01 X203.056 Y318.771
G01 X203.078 Y318.786
G01 X199.424 Y324.411
G01 X195.771 Y330.036
G01 X199.707 Y332.693
G01 X203.773 Y335.157
G01 X207.715 Y337.296
G01 X210.759 Y331.313
G01 X213.803 Y325.330
G01 X217.504 Y327.109
G01 X221.292 Y328.706
G01 X225.158 Y330.116
G01 X225.183 Y330.124
G01 X223.338 Y336.598
G01 X221.493 Y343.071
G01 X226.067 Y344.463
G01 X230.709 Y345.631
G01 X235.409 Y346.570
G01 X235.439 Y346.575
G01 X236.574 Y339.935
G01 X237.709 Y333.295
G01 X241.801 Y333.899
G01 X245.923 Y334.302
G01 X249.825 Y334.496
G01 X249.965 Y341.249
G01 X250.104 Y348.002
G01 X254.918 Y347.989
G01 X259.731 Y347.738
G01 X264.532 Y347.251
G01 X264.562 Y347.247
G01 X263.693 Y340.543
G01 X262.824 Y333.839
G01 X266.943 Y333.209
G01 X271.030 Y332.376
G01 X274.845 Y331.407
G01 X276.971 Y337.844
G01 X279.098 Y344.280
G01 X283.726 Y342.842
G01 X288.284 Y341.176
G01 X292.759 Y339.287
G01 X292.787 Y339.275
G01 X289.976 Y333.100
G01 X287.166 Y326.926
G01 X290.945 Y325.099
G01 X294.634 Y323.087
G01 X298.224 Y320.894
G01 X298.246 Y320.879
G01 X302.202 Y326.413
G01 X306.157 Y331.948
G01 X310.177 Y329.181
G01 X314.061 Y326.218
G01 X317.587 Y323.250
G01 X313.071 Y318.156
G01 X308.555 Y313.062
G01 X311.652 Y310.185
G01 X314.608 Y307.155
G01 X317.415 Y303.980
G01 X317.432 Y303.959
G01 X322.859 Y308.101
G01 X328.285 Y312.243
G01 X331.335 Y308.391
G01 X334.195 Y304.390
G01 X336.858 Y300.248
G01 X336.874 Y300.221
G01 X331.029 Y296.685
G01 X325.184 Y293.149
G01 X327.303 Y289.454
G01 X329.239 Y285.656
G01 X330.894 Y281.989
G01 X337.320 Y284.361
G01 X343.746 Y286.733
G01 X345.541 Y282.124
G01 X347.109 Y277.427
G01 X348.446 Y272.654
G01 X348.454 Y272.624
G01 X341.805 Y270.955
G01 X335.156 Y269.286
G01 X336.101 Y265.102
G01 X336.841 Y260.872
G01 X337.373 Y256.606
G01 X337.375 Y256.579
G01 X344.240 Y256.936
G01 X351.105 Y257.294
G01 X351.453 Y252.326
G01 X351.556 Y247.343
G01 X351.429 Y242.642
G01 X344.559 Y243.002
G01 X337.690 Y243.361
G01 X337.361 Y239.054
G01 X336.821 Y234.762
G01 X336.070 Y230.498
G01 X336.065 Y230.471
G01 X342.754 Y228.789
G01 X349.444 Y227.107
G01 X348.308 Y222.224
G01 X346.933 Y217.398
G01 X345.321 Y212.641
G01 X345.309 Y212.610
G01 X338.834 Y215.002
G01 X332.358 Y217.392
G01 X330.753 Y213.347
G01 X328.950 Y209.382
G01 X327.073 Y205.725
G01 X332.993 Y202.139
G01 X338.913 Y198.552
G01 X336.375 Y194.191
G01 X333.624 Y189.954
G01 X330.664 Y185.854
G01 X330.645 Y185.828
G01 X325.139 Y190.031
G01 X319.632 Y194.233
G01 X316.890 Y190.814
G01 X313.980 Y187.530
G01 X311.090 Y184.567
G01 X315.710 Y179.380
G01 X320.330 Y174.194
G01 X316.598 Y170.749
G01 X312.697 Y167.487
G01 X308.636 Y164.417
G01 X308.610 Y164.398
G01 X304.568 Y170.053
G01 X300.526 Y175.707
G01 X296.874 Y173.227
G01 X293.101 Y170.928
G01 X289.214 Y168.814
G01 X289.189 Y168.801
G01 X292.071 Y162.455
G01 X294.952 Y156.109
G01 X290.335 Y153.913
G01 X285.610 Y151.943
G01 X281.069 Y150.300
G01 X278.859 Y156.915
G01 X276.649 Y163.529
G01 X272.400 Y162.224
G01 X268.087 Y161.128
G01 X263.720 Y160.243
G01 X263.692 Y160.238
G01 X264.584 Y153.302
G01 X265.476 Y146.366
G01 X260.383 Y145.619
G01 X255.255 Y145.122
G01 X250.102 Y144.877
G01 X250.069 Y144.877
G01 X249.922 Y151.873
G01 X249.774 Y158.870
G01 X245.297 Y158.885
G01 X240.821 Y159.121
G01 X236.614 Y159.544
G01 X235.424 Y152.629
G01 X234.233 Y145.714
G01 X229.113 Y146.502
G01 X224.031 Y147.541
G01 X219.002 Y148.830
G01 X218.970 Y148.839
G01 X220.891 Y155.593
G01 X222.812 Y162.348
G01 X218.507 Y163.688
G01 X214.269 Y165.239
G01 X210.107 Y166.999
G01 X210.081 Y167.011
G01 X206.880 Y160.740
G01 X203.678 Y154.468
G01 X198.992 Y156.757
G01 X194.419 Y159.275
G01 X190.223 Y161.853
G01 X194.056 Y167.764
G01 X197.890 Y173.676
G01 X194.143 Y176.240
G01 X190.523 Y178.988
G01 X187.038 Y181.914
G01 X187.016 Y181.933
G01 X182.096 Y176.863
G01 X177.177 Y171.793
G01 X173.345 Y175.381
G01 X169.690 Y179.156
G01 X166.222 Y183.111
G01 X166.200 Y183.137
G01 X171.634 Y187.659
G01 X177.068 Y192.182
G01 X174.232 Y195.768
G01 X171.572 Y199.494
G01 X169.234 Y203.124
G01 X163.020 Y199.712
G01 X156.806 Y196.301
G01 X154.182 Y200.886
G01 X151.783 Y205.600
G01 X149.616 Y210.430
G01 X149.603 Y210.462
G01 X156.147 Y213.198
G01 X162.692 Y215.933
G01 X161.024 Y220.224
G01 X159.567 Y224.597
G01 X158.325 Y229.041
G01 X158.318 Y229.069
G01 X151.348 Y227.652
G01 X144.378 Y226.235
G01 X143.226 Y231.427
G01 X142.329 Y236.674
G01 X141.720 Y241.659
G01 X148.803 Y242.354
G01 X155.886 Y243.048
G01 X155.551 Y247.671
G01 X155.443 Y252.311
G01 X155.564 Y256.956
G01 X155.565 Y256.986
G01 X148.463 Y257.682
G01 X141.361 Y258.379
G01 X141.788 Y263.714
G01 X142.478 Y269.027
G01 X143.366 Y274.003
G01 X150.365 Y272.581
G01 X157.362 Y271.159
G01 X158.408 Y275.708
G01 X159.678 Y280.205
G01 X161.168 Y284.640
G01 X161.179 Y284.668
G01 X154.573 Y287.431
G01 X147.967 Y290.193
G01 X149.957 Y295.199
G01 X152.192 Y300.106
G01 X154.668 Y304.903
G01 X154.685 Y304.933
G01 X160.966 Y301.487
G01 X167.248 Y298.040
G01 X169.614 Y302.101
G01 X172.180 Y306.046
G01 X174.774 Y309.648
G01 X169.255 Y314.246
G01 X163.735 Y318.844
G01 X167.129 Y323.070
G01 X170.731 Y327.130
G01 X174.532 Y331.011
G01 X174.557 Y331.035
G01 X179.565 Y325.878
G01 X184.573 Y320.721
G01 X188.053 Y323.929
G01 X191.689 Y326.966
G01 X195.475 Y329.825
G01 X195.499 Y329.842
G01 X191.580 Y335.892
G01 X187.662 Y341.941
G01 X192.188 Y344.989
G01 X196.863 Y347.814
G01 X201.395 Y350.265
G01 X204.678 Y343.843
G01 X207.960 Y337.421
G01 X212.258 Y339.479
G01 X216.657 Y341.325
G01 X221.146 Y342.955
G01 X221.174 Y342.965
G01 X219.201 Y349.922
G01 X217.227 Y356.879
G01 X222.482 Y358.472
G01 X227.815 Y359.806
G01 X233.212 Y360.878
G01 X233.246 Y360.884
G01 X234.478 Y353.753
G01 X235.711 Y346.622
G01 X240.458 Y347.316
G01 X245.240 Y347.776
G01 X249.767 Y347.994
G01 X249.926 Y355.248
G01 X250.085 Y362.502
G01 X255.611 Y362.479
G01 X261.135 Y362.185
G01 X266.643 Y361.620
G01 X266.678 Y361.615
G01 X265.759 Y354.414
G01 X264.838 Y347.212
G01 X269.612 Y346.474
G01 X274.350 Y345.502
G01 X279.039 Y344.297
G01 X279.068 Y344.289
G01 X281.382 Y351.191
G01 X283.696 Y358.092
G01 X288.999 Y356.419
G01 X294.220 Y354.486
G01 X299.052 Y352.429
G01 X296.047 Y345.794
G01 X293.042 Y339.159
G01 X297.418 Y337.036
G01 X301.689 Y334.699
G01 X305.844 Y332.151
G01 X305.870 Y332.134
G01 X310.125 Y338.071
G01 X314.378 Y344.007
G01 X318.985 Y340.829
G01 X323.434 Y337.425
G01 X327.474 Y334.017
G01 X322.636 Y328.540
G01 X317.799 Y323.063
G01 X321.381 Y319.725
G01 X324.799 Y316.212
G01 X328.044 Y312.531
G01 X328.064 Y312.507
G01 X333.895 Y316.945
G01 X339.724 Y321.383
G01 X343.215 Y316.963
G01 X346.488 Y312.373
G01 X349.535 Y307.623
G01 X349.553 Y307.592
G01 X343.288 Y303.785
G01 X337.022 Y299.978
G01 X339.468 Y295.698
G01 X341.703 Y291.299
G01 X343.612 Y287.053
G01 X350.511 Y289.589
G01 X357.411 Y292.125
G01 X359.461 Y286.842
G01 X361.251 Y281.459
G01 X362.776 Y275.989
G01 X362.785 Y275.954
G01 X355.654 Y274.150
G01 X348.524 Y272.346
G01 X349.611 Y267.504
G01 X350.460 Y262.609
G01 X351.069 Y257.673
G01 X351.072 Y257.642
G01 X358.437 Y258.016
G01 X365.802 Y258.390
G01 X366.193 Y252.701
G01 X366.305 Y246.993
G01 X366.154 Y241.610
G01 X358.784 Y241.982
G01 X351.414 Y242.354
G01 X351.028 Y237.373
G01 X350.396 Y232.412
G01 X349.521 Y227.482
G01 X349.515 Y227.451
G01 X356.688 Y225.638
G01 X363.860 Y223.825
G01 X362.554 Y218.237
G01 X360.973 Y212.714
G01 X359.121 Y207.271
G01 X359.109 Y207.236
G01 X352.159 Y209.787
G01 X345.209 Y212.339
G01 X343.349 Y207.666
G01 X341.258 Y203.086
G01 X339.083 Y198.863
G01 X345.426 Y195.009
G01 X351.769 Y191.155
G01 X348.860 Y186.168
G01 X345.706 Y181.324
G01 X342.315 Y176.636
G01 X342.293 Y176.606
G01 X336.380 Y181.101
G01 X330.468 Y185.596
G01 X327.295 Y181.651
G01 X323.928 Y177.862
G01 X320.376 Y174.239
G01 X320.353 Y174.217
G01 X325.282 Y168.635
G01 X330.210 Y163.053
G01 X325.924 Y159.130
G01 X321.447 Y155.418
G01 X317.061 Y152.122
G01 X312.716 Y158.175
G01 X308.371 Y164.227
G01 X304.151 Y161.370
G01 X299.791 Y158.721
G01 X295.301 Y156.286
G01 X295.273 Y156.272
G01 X298.352 Y149.466
G01 X301.432 Y142.661
G01 X296.150 Y140.155
G01 X290.746 Y137.909
G01 X285.232 Y135.930
G01 X285.197 Y135.918
G01 X282.837 Y143.011
G01 X280.478 Y150.103
G01 X275.567 Y148.618
G01 X270.584 Y147.375
G01 X265.832 Y146.428
G01 X266.778 Y138.994
G01 X267.724 Y131.560
G01 X261.903 Y130.713
G01 X256.042 Y130.151
G01 X250.154 Y129.878
G01 X250.117 Y129.878
G01 X249.944 Y137.374
G01 X249.772 Y144.870
G01 X244.608 Y144.895
G01 X239.446 Y145.173
G01 X234.594 Y145.668
G01 X233.952 Y141.964
G01 X233.309 Y138.261
G01 X232.667 Y134.557
G01 X232.024 Y130.854
G01 X226.176 Y131.760
G01 X220.373 Y132.954
G01 X214.630 Y134.433
G01 X214.594 Y134.443
G01 X215.616 Y138.062
G01 X216.638 Y141.682
G01 X217.660 Y145.301
G01 X218.682 Y148.921
G01 X213.721 Y150.473
G01 X208.837 Y152.268
G01 X204.042 Y154.303
G01 X204.012 Y154.316
G01 X202.293 Y150.960
G01 X200.574 Y147.604
G01 X198.856 Y144.247
G01 X197.137 Y140.891
G01 X191.788 Y143.510
G01 X186.570 Y146.390
G01 X181.782 Y149.339
G01 X183.829 Y152.509
G01 X185.876 Y155.678
G01 X187.923 Y158.847
G01 X189.970 Y162.017
G01 X185.656 Y164.978
G01 X181.488 Y168.150
G01 X177.477 Y171.526
G01 X177.453 Y171.548
G01 X174.814 Y168.837
G01 X172.177 Y166.126
G01 X169.539 Y163.414
G01 X166.901 Y160.703
G01 X162.533 Y164.803
G01 X158.366 Y169.116
G01 X154.412 Y173.634
G01 X154.388 Y173.663
G01 X157.292 Y176.090
G01 X160.197 Y178.516
G01 X163.101 Y180.943
G01 X166.006 Y183.370
G01 X162.745 Y187.505
G01 X159.687 Y191.799
G01 X156.999 Y195.984
G01 X153.670 Y194.162
G01 X150.342 Y192.340
G01 X147.013 Y190.518
G01 X143.685 Y188.696
G01 X140.696 Y193.931
G01 X137.965 Y199.311
G01 X135.499 Y204.825
G01 X135.484 Y204.860
G01 X138.984 Y206.331
G01 X142.484 Y207.802
G01 X145.985 Y209.273
G01 X149.485 Y210.743
G01 X147.571 Y215.686
G01 X145.900 Y220.722
G01 X144.477 Y225.840
G01 X144.469 Y225.872
G01 X140.737 Y225.118
G01 X137.006 Y224.366
G01 X133.275 Y223.612
G01 X129.544 Y222.858
G01 X128.236 Y228.780
G01 X127.220 Y234.765
G01 X126.531 Y240.450
G01 X130.321 Y240.829
G01 X134.111 Y241.207
G01 X137.900 Y241.587
G01 X141.690 Y241.965
G01 X141.311 Y247.287
G01 X141.194 Y252.626
G01 X141.339 Y257.970
G01 X141.340 Y258.003
G01 X137.541 Y258.380
G01 X133.741 Y258.758
G01 X129.941 Y259.136
G01 X126.141 Y259.514
G01 X126.635 Y265.596
G01 X127.428 Y271.651
G01 X128.517 Y277.667
G01 X128.525 Y277.705
G01 X132.269 Y276.939
G01 X136.012 Y276.174
G01 X139.755 Y275.408
G01 X143.498 Y274.642
G01 X144.724 Y279.870
G01 X146.207 Y285.036
G01 X147.837 Y289.839
G01 X144.305 Y291.321
G01 X140.773 Y292.804
G01 X137.241 Y294.286
G01 X133.709 Y295.768
G01 X135.983 Y301.470
G01 X138.535 Y307.059
G01 X141.362 Y312.521
G01 X141.381 Y312.556
G01 X144.745 Y310.718
G01 X148.108 Y308.881
G01 X151.471 Y307.043
G01 X154.835 Y305.206
G01 X157.561 Y309.872
G01 X160.516 Y314.403
G01 X163.504 Y318.541
G01 X160.555 Y321.003
G01 X157.606 Y323.466
G01 X154.657 Y325.929
G01 X151.708 Y328.392
G01 X155.580 Y333.202
G01 X159.687 Y337.821
G01 X164.020 Y342.238
G01 X164.049 Y342.265
G01 X166.732 Y339.512
G01 X169.416 Y336.760
G01 X172.099 Y334.007
G01 X174.782 Y331.253
G01 X178.785 Y334.936
G01 X182.968 Y338.420
G01 X187.322 Y341.699
G01 X187.350 Y341.719
G01 X185.258 Y344.956
G01 X183.167 Y348.194
G01 X181.076 Y351.432
G01 X178.985 Y354.669
G01 X184.142 Y358.134
G01 X189.467 Y361.344
G01 X194.630 Y364.130
G01 X196.391 Y360.699
G01 X198.153 Y357.269
G01 X199.915 Y353.839
G01 X201.676 Y350.408
G01 X206.616 Y352.766
G01 X211.670 Y354.881
G01 X216.828 Y356.746
G01 X216.861 Y356.757
G01 X215.810 Y360.478
G01 X214.760 Y364.199
G01 X213.710 Y367.920
G01 X212.659 Y371.640
G01 X218.642 Y373.447
G01 X224.713 Y374.959
G01 X230.856 Y376.173
G01 X230.895 Y376.180
G01 X231.561 Y372.369
G01 X232.227 Y368.558
G01 X232.893 Y364.748
G01 X233.559 Y360.937
G01 X239.010 Y361.727
G01 X244.500 Y362.248
G01 X249.697 Y362.493
G01 X249.787 Y366.370
G01 X249.877 Y370.247
G01 X249.967 Y374.124
G01 X250.057 Y378.001
G01 X256.343 Y377.969
G01 X262.627 Y377.628
G01 X268.893 Y376.979
G01 X268.933 Y376.973
G01 X268.448 Y373.124
G01 X267.963 Y369.274
G01 X267.479 Y365.424
G01 X266.994 Y361.574
G01 X272.472 Y360.721
G01 X277.907 Y359.599
G01 X283.285 Y358.210
G01 X283.320 Y358.200
G01 X284.561 Y361.887
G01 X285.802 Y365.574
G01 X287.044 Y369.260
G01 X288.284 Y372.947
G01 X294.314 Y371.038
G01 X300.249 Y368.834
G01 X305.741 Y366.490
G01 X304.142 Y362.941
G01 X302.543 Y359.393
G01 X300.944 Y355.844
G01 X299.345 Y352.296
G01 X304.361 Y349.855
G01 X309.257 Y347.168
G01 X314.019 Y344.241
G01 X314.049 Y344.222
G01 X316.326 Y347.391
G01 X318.603 Y350.559
G01 X320.880 Y353.728
G01 X323.157 Y356.896
G01 X328.390 Y353.278
G01 X333.444 Y349.404
G01 X338.307 Y345.282
G01 X338.337 Y345.255
G01 X335.748 Y342.332
G01 X333.160 Y339.410
G01 X330.572 Y336.487
G01 X327.984 Y333.564
G01 X332.075 Y329.719
G01 X335.977 Y325.674
G01 X339.471 Y321.687
G01 X342.588 Y324.054
G01 X345.705 Y326.420
G01 X348.823 Y328.786
G01 X351.940 Y331.153
G01 X355.902 Y326.127
G01 X359.615 Y320.908
G01 X363.072 Y315.507
G01 X363.093 Y315.472
G01 X359.750 Y313.433
G01 X356.407 Y311.393
G01 X353.064 Y309.354
G01 X349.722 Y307.314
G01 X352.519 Y302.406
G01 X355.075 Y297.361
G01 X357.383 Y292.192
G01 X357.397 Y292.158
G01 X361.088 Y293.497
G01 X364.778 Y294.835
G01 X368.469 Y296.172
G01 X372.160 Y297.511
G01 X374.464 Y291.500
G01 X376.472 Y285.376
G01 X378.089 Y279.517
G01 X374.283 Y278.547
G01 X370.477 Y277.577
G01 X366.671 Y276.607
G01 X362.865 Y275.637
G01 X364.104 Y270.088
G01 X365.070 Y264.480
G01 X365.761 Y258.825
G01 X365.764 Y258.789
G01 X369.697 Y258.984
G01 X373.630 Y259.179
G01 X377.563 Y259.374
G01 X381.496 Y259.568
G01 X381.934 Y253.107
G01 X382.054 Y246.627
G01 X381.876 Y240.515
G01 X377.941 Y240.706
G01 X374.006 Y240.898
G01 X370.071 Y241.089
G01 X366.136 Y241.280
G01 X365.687 Y235.577
G01 X364.958 Y229.898
G01 X363.949 Y224.255
G01 X363.942 Y224.220
G01 X367.770 Y223.247
G01 X371.598 Y222.274
G01 X375.426 Y221.302
G01 X379.253 Y220.328
G01 X377.764 Y213.987
G01 X375.964 Y207.721
G01 X373.856 Y201.545
G01 X373.842 Y201.506
G01 X370.130 Y202.861
G01 X366.418 Y204.215
G01 X362.706 Y205.571
G01 X358.994 Y206.926
G01 X356.858 Y201.580
G01 X354.460 Y196.340
G01 X351.965 Y191.511
G01 X355.348 Y189.450
G01 X358.730 Y187.389
G01 X362.114 Y185.328
G01 X365.496 Y183.266
G01 X362.190 Y177.610
G01 X358.607 Y172.118
G01 X354.754 Y166.803
G01 X354.729 Y166.770
G01 X351.569 Y169.163
G01 X348.409 Y171.555
G01 X345.250 Y173.949
G01 X342.090 Y176.342
G01 X338.455 Y171.832
G01 X334.599 Y167.502
G01 X330.531 Y163.363
G01 X330.504 Y163.337
G01 X333.130 Y160.355
G01 X335.756 Y157.373
G01 X338.383 Y154.391
G01 X341.009 Y151.409
G01 X336.144 Y146.964
G01 X331.061 Y142.759
G01 X326.084 Y139.026
G01 X323.760 Y142.251
G01 X321.436 Y145.476
G01 X319.112 Y148.702
G01 X316.788 Y151.927
G01 X311.958 Y148.665
G01 X306.969 Y145.641
G01 X301.832 Y142.863
G01 X301.799 Y142.846
G01 X303.437 Y139.213
G01 X305.076 Y135.580
G01 X306.714 Y131.948
G01 X308.353 Y128.314
G01 X302.361 Y125.479
G01 X296.232 Y122.939
G01 X289.980 Y120.701
G01 X289.939 Y120.688
G01 X288.674 Y124.469
G01 X287.408 Y128.250
G01 X286.142 Y132.031
G01 X284.876 Y135.813
G01 X279.261 Y134.122
G01 X273.564 Y132.707
G01 X268.132 Y131.630
G01 X268.632 Y127.664
G01 X269.131 Y123.698
G01 X269.631 Y119.733
G01 X270.130 Y115.767
G01 X263.532 Y114.812
G01 X256.889 Y114.182
G01 X250.217 Y113.879
G01 X250.174 Y113.878
G01 X250.075 Y117.877
G01 X249.975 Y121.875
G01 X249.877 Y125.873
G01 X249.777 Y129.871
G01 X243.877 Y129.905
G01 X237.979 Y130.230
G01 X232.099 Y130.844
G01 X232.061 Y130.849
G01 X231.359 Y126.902
G01 X230.656 Y122.955
G01 X229.954 Y119.007
G01 X229.250 Y115.060
G01 X222.628 Y116.114
G01 X216.060 Y117.493
G01 X209.933 Y119.088
G01 X211.017 Y122.950
G01 X212.099 Y126.812
G01 X213.182 Y130.675
G01 X214.265 Y134.537
G01 X208.601 Y136.315
G01 X203.026 Y138.371
G01 X197.552 Y140.701
G01 X197.518 Y140.717
G01 X195.680 Y137.140
G01 X193.843 Y133.563
G01 X192.006 Y129.986
G01 X190.168 Y126.410
G01 X184.113 Y129.381
G01 X178.207 Y132.648
G01 X172.789 Y135.993
G01 X174.964 Y139.376
G01 X177.141 Y142.760
G01 X179.317 Y146.143
G01 X181.493 Y149.527
G01 X176.572 Y152.912
G01 X171.819 Y156.539
G01 X167.244 Y160.398
G01 X167.216 Y160.423
G01 X164.400 Y157.536
G01 X161.584 Y154.648
G01 X158.769 Y151.761
G01 X155.952 Y148.874
G01 X151.011 Y153.520
G01 X146.298 Y158.407
G01 X141.828 Y163.525
G01 X141.800 Y163.558
G01 X144.891 Y166.151
G01 X147.983 Y168.744
G01 X151.075 Y171.336
G01 X154.167 Y173.929
G01 X150.450 Y178.652
G01 X146.966 Y183.556
G01 X143.905 Y188.334
G01 X140.354 Y186.396
G01 X136.803 Y184.459
G01 X133.253 Y182.521
G01 X129.702 Y180.584
G01 X126.325 Y186.511
G01 X123.240 Y192.602
G01 X120.455 Y198.843
G01 X120.438 Y198.883
G01 X124.166 Y200.458
G01 X127.894 Y202.032
G01 X131.622 Y203.606
G01 X135.350 Y205.181
G01 X133.173 Y210.822
G01 X131.273 Y216.568
G01 X129.656 Y222.407
G01 X129.646 Y222.444
G01 X125.669 Y221.646
G01 X121.691 Y220.848
G01 X117.714 Y220.050
G01 X113.736 Y219.252
G01 X112.263 Y225.953
G01 X111.119 Y232.724
G01 X110.346 Y239.155
G01 X114.384 Y239.566
G01 X118.421 Y239.977
G01 X122.459 Y240.387
G01 X126.497 Y240.799
G01 X126.072 Y246.867
G01 X125.944 Y252.954
G01 X126.116 Y259.047
G01 X126.118 Y259.086
G01 X122.070 Y259.493
G01 X118.021 Y259.901
G01 X113.973 Y260.308
G01 X109.925 Y260.716
G01 X110.489 Y267.593
G01 X111.391 Y274.440
G01 X112.630 Y281.241
G01 X112.639 Y281.284
G01 X116.628 Y280.476
G01 X120.618 Y279.667
G01 X124.607 Y278.858
G01 X128.597 Y278.050
G01 X130.001 Y284.007
G01 X131.697 Y289.893
G01 X133.560 Y295.363
G01 X129.800 Y296.948
G01 X126.039 Y298.532
G01 X122.278 Y300.116
G01 X118.518 Y301.700
G01 X121.093 Y308.143
G01 X123.984 Y314.458
G01 X127.185 Y320.630
G01 X127.206 Y320.669
G01 X130.793 Y318.718
G01 X134.379 Y316.767
G01 X137.966 Y314.817
G01 X141.552 Y312.866
G01 X144.664 Y318.179
G01 X148.035 Y323.337
G01 X151.660 Y328.329
G01 X151.684 Y328.361
G01 X148.554 Y330.998
G01 X145.425 Y333.636
G01 X142.295 Y336.272
G01 X139.165 Y338.910
G01 X143.562 Y344.328
G01 X148.225 Y349.530
G01 X152.851 Y354.220
G01 X155.715 Y351.294
G01 X158.578 Y348.367
G01 X161.442 Y345.440
G01 X164.305 Y342.513
G01 X168.868 Y346.702
G01 X173.635 Y350.665
G01 X178.597 Y354.393
G01 X178.629 Y354.416
G01 X176.406 Y357.867
G01 X174.184 Y361.318
G01 X171.961 Y364.768
G01 X169.738 Y368.219
G01 X175.567 Y372.128
G01 X181.586 Y375.749
G01 X187.781 Y379.074
G01 X187.820 Y379.093
G01 X189.692 Y375.438
G01 X191.562 Y371.783
G01 X193.434 Y368.127
G01 X195.305 Y364.472
G01 X200.940 Y367.133
G01 X206.704 Y369.516
G01 X212.242 Y371.502
G01 X211.129 Y375.466
G01 X210.016 Y379.429
G01 X208.902 Y383.392
G01 X207.789 Y387.355
G01 X214.547 Y389.389
G01 X221.403 Y391.091
G01 X228.340 Y392.455
G01 X228.385 Y392.463
G01 X229.102 Y388.407
G01 X229.818 Y384.351
G01 X230.535 Y380.296
G01 X231.251 Y376.240
G01 X237.455 Y377.132
G01 X243.702 Y377.719
G01 X249.615 Y377.992
G01 X249.716 Y382.119
G01 X249.816 Y386.246
G01 X249.918 Y390.373
G01 X250.019 Y394.500
G01 X257.116 Y394.458
G01 X264.209 Y394.067
G01 X271.280 Y393.328
G01 X271.325 Y393.322
G01 X270.817 Y389.223
G01 X270.309 Y385.124
G01 X269.801 Y381.025
G01 X269.293 Y376.927
G01 X275.522 Y375.950
G01 X281.702 Y374.667
G01 X287.818 Y373.081
G01 X287.857 Y373.070
G01 X289.183 Y376.992
G01 X290.509 Y380.915
G01 X291.835 Y384.837
G01 X293.161 Y388.759
G01 X299.963 Y386.600
G01 X306.658 Y384.106
G01 X312.852 Y381.456
G01 X311.158 Y377.677
G01 X309.463 Y373.897
G01 X307.768 Y370.117
G01 X306.073 Y366.338
G01 X311.774 Y363.557
G01 X317.337 Y360.496
G01 X322.748 Y357.163
G01 X322.782 Y357.141
G01 X325.210 Y360.510
G01 X327.636 Y363.879
G01 X330.064 Y367.248
G01 X332.492 Y370.617
G01 X338.391 Y366.530
G01 X344.089 Y362.155
G01 X349.569 Y357.501
G01 X349.603 Y357.472
G01 X346.855 Y354.356
G01 X344.107 Y351.241
G01 X341.358 Y348.126
G01 X338.611 Y345.010
G01 X343.256 Y340.636
G01 X347.686 Y336.034
G01 X351.652 Y331.499
G01 X354.972 Y334.012
G01 X358.292 Y336.527
G01 X361.612 Y339.040
G01 X364.932 Y341.554
G01 X369.394 Y335.883
G01 X373.577 Y329.994
G01 X377.469 Y323.901
G01 X377.493 Y323.861
G01 X373.941 Y321.685
G01 X370.388 Y319.509
G01 X366.836 Y317.332
G01 X363.284 Y315.156
G01 X366.457 Y309.576
G01 X369.355 Y303.842
G01 X371.971 Y297.967
G01 X371.987 Y297.929
G01 X375.915 Y299.348
G01 X379.842 Y300.766
G01 X383.770 Y302.186
G01 X387.698 Y303.604
G01 X390.290 Y296.826
G01 X392.548 Y289.922
G01 X394.365 Y283.315
G01 X390.319 Y282.275
G01 X386.272 Y281.236
G01 X382.226 Y280.196
G01 X378.179 Y279.157
G01 X379.580 Y272.854
G01 X380.671 Y266.484
G01 X381.449 Y260.062
G01 X381.453 Y260.021
G01 X385.636 Y260.223
G01 X389.820 Y260.425
G01 X394.003 Y260.627
G01 X398.186 Y260.829
G01 X398.673 Y253.548
G01 X398.803 Y246.245
G01 X398.574 Y238.938
G01 X398.572 Y238.893
G01 X394.387 Y239.101
G01 X390.202 Y239.310
G01 X386.017 Y239.518
G01 X381.833 Y239.727
G01 X381.296 Y233.255
G01 X380.441 Y226.810
G01 X379.346 Y220.777
G01 X383.416 Y219.738
G01 X387.485 Y218.698
G01 X391.554 Y217.658
G01 X395.623 Y216.618
G01 X393.940 Y209.476
G01 X391.906 Y202.419
G01 X389.527 Y195.464
G01 X389.510 Y195.420
G01 X385.561 Y196.853
G01 X381.611 Y198.287
G01 X377.661 Y199.720
G01 X373.711 Y201.153
G01 X371.282 Y195.089
G01 X368.555 Y189.146
G01 X365.718 Y183.670
G01 X369.312 Y181.474
G01 X372.906 Y179.278
G01 X376.500 Y177.081
G01 X380.094 Y174.885
G01 X376.366 Y168.519
G01 X372.325 Y162.337
G01 X367.983 Y156.357
G01 X367.954 Y156.319
G01 X364.590 Y158.857
G01 X361.227 Y161.395
G01 X357.863 Y163.932
G01 X354.499 Y166.470
G01 X350.370 Y161.358
G01 X345.992 Y156.451
G01 X341.373 Y151.760
G01 X341.343 Y151.730
G01 X344.131 Y148.557
G01 X346.918 Y145.384
G01 X349.705 Y142.210
G01 X352.493 Y139.037
G01 X347.012 Y134.037
G01 X341.287 Y129.308
G01 X335.681 Y125.111
G01 X333.204 Y128.534
G01 X330.728 Y131.958
G01 X328.251 Y135.382
G01 X325.774 Y138.805
G01 X320.294 Y135.112
G01 X314.633 Y131.688
G01 X308.806 Y128.544
G01 X308.768 Y128.525
G01 X310.505 Y124.661
G01 X312.242 Y120.798
G01 X313.978 Y116.934
G01 X315.715 Y113.071
G01 X308.969 Y109.886
G01 X302.070 Y107.033
G01 X295.033 Y104.520
G01 X294.988 Y104.506
G01 X293.635 Y108.522
G01 X292.282 Y112.537
G01 X290.929 Y116.553
G01 X289.576 Y120.569
G01 X283.209 Y118.658
G01 X276.750 Y117.061
G01 X270.592 Y115.846
G01 X271.118 Y111.631
G01 X271.644 Y107.416
G01 X272.169 Y103.201
G01 X272.695 Y98.986
G01 X265.271 Y97.918
G01 X257.797 Y97.216
G01 X250.291 Y96.881
G01 X250.244 Y96.880
G01 X250.130 Y101.128
G01 X250.017 Y105.375
G01 X249.903 Y109.623
G01 X249.790 Y113.871
G01 X243.104 Y113.917
G01 X236.422 Y114.290
G01 X229.760 Y114.993
G01 X229.718 Y114.998
G01 X228.966 Y110.805
G01 X228.214 Y106.613
G01 X227.463 Y102.420
G01 X226.711 Y98.227
G01 X219.265 Y99.418
G01 X211.879 Y100.975
G01 X204.990 Y102.774
G01 X206.133 Y106.879
G01 X207.276 Y110.984
G01 X208.418 Y115.090
G01 X209.561 Y119.195
G01 X203.148 Y121.215
G01 X196.835 Y123.550
G01 X190.638 Y126.194
G01 X190.599 Y126.212
G01 X188.643 Y122.415
G01 X186.686 Y118.618
G01 X184.729 Y114.821
G01 X182.772 Y111.024
G01 X175.968 Y114.369
G01 X169.331 Y118.048
G01 X162.876 Y122.052
G01 X162.836 Y122.078
G01 X165.153 Y125.669
G01 X167.469 Y129.260
G01 X169.784 Y132.851
G01 X172.101 Y136.442
G01 X166.544 Y140.298
G01 X161.178 Y144.426
G01 X156.308 Y148.556
G01 X153.314 Y145.494
G01 X150.319 Y142.431
G01 X147.324 Y139.369
G01 X144.330 Y136.306
G01 X138.780 Y141.532
G01 X133.488 Y147.028
G01 X128.468 Y152.783
G01 X128.438 Y152.820
G01 X131.716 Y155.580
G01 X134.994 Y158.340
G01 X138.272 Y161.100
G01 X141.550 Y163.859
G01 X137.348 Y169.209
G01 X133.410 Y174.763
G01 X129.746 Y180.509
G01 X129.724 Y180.547
G01 X125.945 Y178.505
G01 X122.165 Y176.464
G01 X118.386 Y174.423
G01 X114.606 Y172.382
G01 X110.838 Y179.056
G01 X107.398 Y185.913
G01 X104.466 Y192.529
G01 X108.421 Y194.209
G01 X112.376 Y195.888
G01 X116.332 Y197.567
G01 X120.287 Y199.247
G01 X117.829 Y205.631
G01 X115.686 Y212.134
G01 X113.862 Y218.741
G01 X113.852 Y218.784
G01 X109.628 Y217.941
G01 X105.403 Y217.098
G01 X101.179 Y216.257
G01 X96.955 Y215.414
G01 X95.306 Y222.942
G01 X94.027 Y230.548
G01 X93.164 Y237.772
G01 X97.450 Y238.216
G01 X101.736 Y238.661
G01 X106.022 Y239.105
G01 X110.308 Y239.549
G01 X109.833 Y246.413
G01 X109.695 Y253.298
G01 X109.895 Y260.188
G01 X109.897 Y260.232
G01 X105.600 Y260.669
G01 X101.304 Y261.108
G01 X97.007 Y261.546
G01 X92.710 Y261.984
G01 X93.349 Y269.705
G01 X94.368 Y277.392
G01 X95.764 Y285.026
G01 X95.774 Y285.073
G01 X100.011 Y284.223
G01 X104.247 Y283.373
G01 X108.484 Y282.524
G01 X112.720 Y281.674
G01 X114.313 Y288.407
G01 X116.237 Y295.061
G01 X118.348 Y301.243
G01 X114.359 Y302.929
G01 X110.370 Y304.615
G01 X106.381 Y306.302
G01 X102.391 Y307.988
G01 X105.288 Y315.218
G01 X108.538 Y322.304
G01 X112.136 Y329.227
G01 X112.159 Y329.270
G01 X115.969 Y327.207
G01 X119.779 Y325.144
G01 X123.590 Y323.082
G01 X127.400 Y321.019
G01 X130.922 Y327.021
G01 X134.738 Y332.848
G01 X138.839 Y338.485
G01 X138.866 Y338.521
G01 X135.548 Y341.323
G01 X132.230 Y344.125
G01 X128.912 Y346.929
G01 X125.594 Y349.731
G01 X130.533 Y355.808
G01 X135.769 Y361.640
G01 X140.965 Y366.899
G01 X144.009 Y363.800
G01 X147.053 Y360.700
G01 X150.097 Y357.600
G01 X153.141 Y354.500
G01 X158.300 Y359.228
G01 X163.691 Y363.701
G01 X169.299 Y367.908
G01 X169.336 Y367.934
G01 X166.982 Y371.598
G01 X164.628 Y375.262
G01 X162.274 Y378.926
G01 X159.920 Y382.590
G01 X166.461 Y386.970
G01 X173.216 Y391.027
G01 X180.168 Y394.750
G01 X180.212 Y394.773
G01 X182.205 Y390.899
G01 X184.197 Y387.024
G01 X186.190 Y383.150
G01 X188.183 Y379.276
G01 X194.549 Y382.276
G01 X201.062 Y384.962
G01 X207.318 Y387.199
G01 X206.142 Y391.405
G01 X204.966 Y395.611
G01 X203.791 Y399.816
G01 X202.615 Y404.022
G01 X210.195 Y406.297
G01 X217.884 Y408.200
G01 X225.664 Y409.724
G01 X225.712 Y409.732
G01 X226.480 Y405.432
G01 X227.249 Y401.131
G01 X228.018 Y396.831
G01 X228.786 Y392.530
G01 X235.792 Y393.532
G01 X242.845 Y394.189
G01 X249.929 Y394.499
G01 X249.974 Y394.499
G01 X250.101 Y398.876
G01 X250.226 Y403.254
G01 X250.353 Y407.631
G01 X250.479 Y412.008
G01 X258.435 Y411.930
G01 X266.385 Y411.461
G01 X273.854 Y410.661
G01 X273.323 Y406.313
G01 X272.793 Y401.965
G01 X272.262 Y397.617
G01 X271.731 Y393.269
G01 X278.761 Y392.160
G01 X285.735 Y390.707
G01 X292.635 Y388.911
G01 X292.679 Y388.899
G01 X294.090 Y393.057
G01 X295.501 Y397.214
G01 X296.912 Y401.372
G01 X298.323 Y405.530
G01 X305.945 Y403.104
G01 X313.445 Y400.305
G01 X320.386 Y397.329
G01 X318.596 Y393.319
G01 X316.806 Y389.307
G01 X315.016 Y385.296
G01 X313.227 Y381.285
G01 X319.656 Y378.142
G01 X325.930 Y374.684
G01 X332.031 Y370.918
G01 X332.069 Y370.893
G01 X334.647 Y374.462
G01 X337.226 Y378.031
G01 X339.804 Y381.599
G01 X342.382 Y385.168
G01 X348.989 Y380.585
G01 X355.368 Y375.679
G01 X361.504 Y370.462
G01 X361.541 Y370.428
G01 X358.634 Y367.120
G01 X355.726 Y363.812
G01 X352.819 Y360.503
G01 X349.912 Y357.195
G01 X355.147 Y352.256
G01 X360.139 Y347.062
G01 X364.607 Y341.944
G01 X368.130 Y344.605
G01 X371.653 Y347.265
G01 X375.176 Y349.925
G01 X378.699 Y352.586
G01 X383.693 Y346.231
G01 X388.372 Y339.632
G01 X392.727 Y332.805
G01 X392.753 Y332.762
G01 X388.992 Y330.447
G01 X385.230 Y328.134
G01 X381.469 Y325.819
G01 X377.708 Y323.505
G01 X381.280 Y317.211
G01 X384.542 Y310.744
G01 X387.486 Y304.118
G01 X387.504 Y304.075
G01 X391.669 Y305.573
G01 X395.834 Y307.072
G01 X399.999 Y308.571
G01 X404.164 Y310.070
G01 X407.061 Y302.478
G01 X409.584 Y294.746
G01 X411.613 Y287.348
G01 X407.326 Y286.239
G01 X403.040 Y285.128
G01 X398.753 Y284.019
G01 X394.466 Y282.909
G01 X396.039 Y275.804
G01 X397.263 Y268.624
G01 X398.134 Y261.386
G01 X398.138 Y261.340
G01 X402.572 Y261.548
G01 X407.005 Y261.757
G01 X411.439 Y261.965
G01 X415.872 Y262.174
G01 X416.412 Y254.024
G01 X416.552 Y245.850
G01 X416.290 Y237.672
G01 X416.287 Y237.620
G01 X411.852 Y237.832
G01 X407.417 Y238.046
G01 X402.982 Y238.258
G01 X398.547 Y238.471
G01 X397.937 Y231.179
G01 X396.968 Y223.919
G01 X395.729 Y217.123
G01 X400.039 Y216.016
G01 X404.349 Y214.908
G01 X408.660 Y213.802
G01 X412.970 Y212.695
G01 X411.081 Y204.704
G01 X408.800 Y196.810
G01 X406.132 Y189.030
G01 X406.114 Y188.982
G01 X401.926 Y190.492
G01 X397.739 Y192.003
G01 X393.551 Y193.513
G01 X389.363 Y195.023
G01 X386.621 Y188.196
G01 X383.544 Y181.505
G01 X380.139 Y174.967
G01 X380.117 Y174.926
G01 X383.914 Y172.582
G01 X387.712 Y170.239
G01 X391.509 Y167.896
G01 X395.307 Y165.553
G01 X391.109 Y158.447
G01 X386.563 Y151.549
G01 X381.970 Y145.256
G01 X378.401 Y147.937
G01 X374.833 Y150.619
G01 X371.264 Y153.300
G01 X367.695 Y155.981
G01 X363.042 Y150.230
G01 X358.107 Y144.709
G01 X352.903 Y139.431
G01 X352.869 Y139.399
G01 X355.818 Y136.033
G01 X358.767 Y132.669
G01 X361.715 Y129.303
G01 X364.665 Y125.939
G01 X358.531 Y120.352
G01 X352.126 Y115.068
G01 X345.463 Y110.101
G01 X345.420 Y110.070
G01 X342.800 Y113.699
G01 X340.181 Y117.329
G01 X337.563 Y120.959
G01 X334.943 Y124.588
G01 X328.758 Y120.455
G01 X322.372 Y116.627
G01 X316.183 Y113.307
G01 X318.017 Y109.213
G01 X319.851 Y105.119
G01 X321.685 Y101.025
G01 X323.520 Y96.931
G01 X315.977 Y93.376
G01 X308.261 Y90.192
G01 X300.392 Y87.388
G01 X300.342 Y87.371
G01 X298.900 Y91.621
G01 X297.459 Y95.871
G01 X296.019 Y100.121
G01 X294.578 Y104.371
G01 X287.412 Y102.227
G01 X280.143 Y100.436
G01 X273.215 Y99.075
G01 X273.765 Y94.611
G01 X274.317 Y90.146
G01 X274.868 Y85.682
G01 X275.418 Y81.218
G01 X267.121 Y80.030
G01 X258.767 Y79.251
G01 X250.379 Y78.882
G01 X250.326 Y78.881
G01 X250.197 Y83.379
G01 X250.068 Y87.876
G01 X249.940 Y92.374
G01 X249.811 Y96.872
G01 X242.291 Y96.929
G01 X234.775 Y97.355
G01 X227.284 Y98.151
G01 X227.236 Y98.157
G01 X226.434 Y93.719
G01 X225.633 Y89.281
G01 X224.831 Y84.843
G01 X224.030 Y80.404
G01 X215.711 Y81.741
G01 X207.460 Y83.486
G01 X199.766 Y85.500
G01 X200.967 Y89.849
G01 X202.169 Y94.197
G01 X203.371 Y98.546
G01 X204.572 Y102.894
G01 X197.362 Y105.172
G01 X190.266 Y107.802
G01 X183.301 Y110.781
G01 X183.257 Y110.801
G01 X181.180 Y106.784
G01 X179.105 Y102.767
G01 X177.028 Y98.750
G01 X174.953 Y94.732
G01 X167.355 Y98.474
G01 X159.944 Y102.588
G01 X152.737 Y107.065
G01 X152.692 Y107.094
G01 X155.136 Y110.901
G01 X157.581 Y114.707
G01 X160.026 Y118.512
G01 X162.470 Y122.319
G01 X156.227 Y126.658
G01 X150.199 Y131.302
G01 X144.730 Y135.949
G01 X141.556 Y132.710
G01 X138.382 Y129.473
G01 X135.208 Y126.235
G01 X132.035 Y122.997
G01 X125.842 Y128.837
G01 X119.937 Y134.978
G01 X114.336 Y141.408
G01 X114.301 Y141.450
G01 X117.765 Y144.378
G01 X121.229 Y147.305
G01 X124.693 Y150.232
G01 X128.157 Y153.160
G01 X123.440 Y159.175
G01 X119.020 Y165.419
G01 X114.908 Y171.879
G01 X114.883 Y171.921
G01 X110.881 Y169.765
G01 X106.878 Y167.611
G01 X102.876 Y165.455
G01 X98.873 Y163.300
G01 X94.671 Y170.754
G01 X90.836 Y178.411
G01 X87.568 Y185.797
G01 X91.750 Y187.582
G01 X95.932 Y189.368
G01 X100.115 Y191.152
G01 X104.297 Y192.938
G01 X101.541 Y200.112
G01 X99.139 Y207.419
G01 X97.097 Y214.842
G01 X97.085 Y214.889
G01 X92.614 Y214.003
G01 X88.143 Y213.118
G01 X83.672 Y212.232
G01 X79.201 Y211.347
G01 X77.366 Y219.749
G01 X75.945 Y228.238
G01 X74.941 Y236.793
G01 X74.936 Y236.848
G01 X79.471 Y237.313
G01 X84.007 Y237.778
G01 X88.542 Y238.242
G01 X93.078 Y238.707
G01 X92.574 Y246.417
G01 X92.449 Y254.150
G01 X92.679 Y261.440
G01 X88.133 Y261.908
G01 X83.588 Y262.378
G01 X79.042 Y262.846
G01 X74.497 Y263.315
G01 X75.216 Y271.929
G01 X76.358 Y280.504
G01 X77.921 Y289.020
G01 X77.933 Y289.074
G01 X82.416 Y288.184
G01 X86.900 Y287.293
G01 X91.383 Y286.402
G01 X95.866 Y285.512
G01 X97.661 Y293.070
G01 X99.826 Y300.537
G01 X102.201 Y307.475
G01 X97.984 Y309.264
G01 X93.766 Y311.053
G01 X89.548 Y312.842
G01 X85.330 Y314.632
G01 X88.566 Y322.694
G01 X92.196 Y330.595
G01 X96.214 Y338.314
G01 X96.240 Y338.361
G01 X100.274 Y336.187
G01 X104.309 Y334.013
G01 X108.343 Y331.838
G01 X112.377 Y329.664
G01 X116.335 Y336.397
G01 X120.622 Y342.933
G01 X125.229 Y349.256
G01 X125.259 Y349.296
G01 X121.753 Y352.264
G01 X118.248 Y355.233
G01 X114.742 Y358.201
G01 X111.237 Y361.170
G01 X116.749 Y367.942
G01 X122.591 Y374.442
G01 X128.387 Y380.302
G01 X131.613 Y377.030
G01 X134.838 Y373.757
G01 X138.064 Y370.485
G01 X141.290 Y367.213
G01 X147.082 Y372.513
G01 X153.133 Y377.527
G01 X159.428 Y382.241
G01 X159.469 Y382.270
G01 X156.984 Y386.148
G01 X154.501 Y390.026
G01 X152.016 Y393.904
G01 X149.532 Y397.782
G01 X156.827 Y402.660
G01 X164.359 Y407.177
G01 X172.111 Y411.323
G01 X172.161 Y411.348
G01 X174.275 Y407.256
G01 X176.390 Y403.163
G01 X178.504 Y399.070
G01 X180.619 Y394.977
G01 X187.763 Y398.336
G01 X195.068 Y401.343
G01 X202.086 Y403.848
G01 X200.848 Y408.296
G01 X199.610 Y412.744
G01 X198.372 Y417.192
G01 X197.134 Y421.641
G01 X205.583 Y424.172
G01 X214.153 Y426.286
G01 X222.824 Y427.979
G01 X222.880 Y427.989
G01 X223.701 Y423.444
G01 X224.522 Y418.898
G01 X225.342 Y414.353
G01 X226.164 Y409.808
G01 X234.020 Y410.925
G01 X241.929 Y411.656
G01 X249.870 Y411.998
G01 X249.921 Y411.998
G01 X250.060 Y416.626
G01 X250.200 Y421.253
G01 X250.338 Y425.880
G01 X250.478 Y430.507
G01 X259.342 Y430.415
G01 X268.198 Y429.887
G01 X276.517 Y428.991
G01 X275.966 Y424.394
G01 X275.413 Y419.796
G01 X274.861 Y415.199
G01 X274.309 Y410.601
G01 X282.188 Y409.353
G01 X290.003 Y407.718
G01 X297.735 Y405.700
G01 X297.784 Y405.686
G01 X299.281 Y410.079
G01 X300.779 Y414.472
G01 X302.275 Y418.866
G01 X303.773 Y423.259
G01 X312.260 Y420.551
G01 X320.612 Y417.428
G01 X328.806 Y413.896
G01 X328.858 Y413.872
G01 X326.962 Y409.634
G01 X325.065 Y405.397
G01 X323.168 Y401.160
G01 X321.271 Y396.922
G01 X328.462 Y393.372
G01 X335.477 Y389.470
G01 X341.909 Y385.478
G01 X344.638 Y389.247
G01 X347.368 Y393.015
G01 X350.097 Y396.784
G01 X352.826 Y400.553
G01 X360.180 Y395.445
G01 X367.280 Y389.978
G01 X374.108 Y384.164
G01 X374.151 Y384.126
G01 X371.085 Y380.624
G01 X368.019 Y377.122
G01 X364.953 Y373.620
G01 X361.887 Y370.118
G01 X367.748 Y364.582
G01 X373.335 Y358.760
G01 X378.634 Y352.665
G01 X378.666 Y352.627
G01 X382.401 Y355.421
G01 X386.136 Y358.217
G01 X389.871 Y361.012
G01 X393.606 Y363.807
G01 X399.139 Y356.710
G01 X404.321 Y349.345
G01 X408.872 Y342.173
G01 X404.902 Y339.720
G01 X400.933 Y337.267
G01 X396.963 Y334.814
G01 X392.993 Y332.361
G01 X396.989 Y325.311
G01 X400.637 Y318.066
G01 X403.927 Y310.645
G01 X403.947 Y310.597
G01 X408.350 Y312.175
G01 X412.752 Y313.753
G01 X417.155 Y315.331
G01 X421.558 Y316.908
G01 X424.777 Y308.457
G01 X427.579 Y299.852
G01 X429.832 Y291.619
G01 X425.305 Y290.437
G01 X420.779 Y289.256
G01 X416.252 Y288.074
G01 X411.726 Y286.893
G01 X413.481 Y278.938
G01 X414.846 Y270.899
G01 X415.815 Y262.797
G01 X415.819 Y262.745
G01 X420.503 Y262.960
G01 X425.187 Y263.174
G01 X429.871 Y263.389
G01 X434.555 Y263.603
G01 X435.151 Y254.534
G01 X435.301 Y245.440
G01 X435.004 Y236.342
G01 X435.000 Y236.285
G01 X430.315 Y236.500
G01 X425.630 Y236.716
G01 X420.945 Y236.932
G01 X416.260 Y237.148
G01 X415.570 Y228.988
G01 X414.480 Y220.864
G01 X413.088 Y213.260
G01 X417.640 Y212.086
G01 X422.192 Y210.911
G01 X426.743 Y209.736
G01 X431.295 Y208.561
G01 X429.188 Y199.674
G01 X426.646 Y190.895
G01 X423.674 Y182.243
G01 X423.653 Y182.189
G01 X419.227 Y183.776
G01 X414.801 Y185.363
G01 X410.375 Y186.949
G01 X405.948 Y188.537
G01 X402.875 Y180.900
G01 X399.428 Y173.417
G01 X395.614 Y166.105
G01 X395.589 Y166.059
G01 X399.596 Y163.580
G01 X403.604 Y161.100
G01 X407.611 Y158.620
G01 X411.619 Y156.140
G01 X406.946 Y148.241
G01 X401.886 Y140.574
G01 X396.775 Y133.579
G01 X393.001 Y136.404
G01 X389.227 Y139.228
G01 X385.453 Y142.052
G01 X381.679 Y144.877
G01 X376.470 Y138.448
G01 X370.947 Y132.277
G01 X365.123 Y126.379
G01 X365.084 Y126.342
G01 X368.194 Y122.785
G01 X371.304 Y119.228
G01 X374.413 Y115.670
G01 X377.522 Y112.113
G01 X370.700 Y105.906
G01 X363.576 Y100.036
G01 X356.166 Y94.519
G01 X356.118 Y94.485
G01 X353.345 Y98.312
G01 X350.573 Y102.139
G01 X347.800 Y105.966
G01 X345.027 Y109.793
G01 X338.108 Y105.177
G01 X330.965 Y100.901
G01 X324.043 Y97.195
G01 X325.974 Y92.870
G01 X327.906 Y88.545
G01 X329.837 Y84.220
G01 X331.768 Y79.895
G01 X323.382 Y75.948
G01 X314.805 Y72.414
G01 X306.058 Y69.303
G01 X306.002 Y69.285
G01 X304.472 Y73.769
G01 X302.943 Y78.253
G01 X301.412 Y82.737
G01 X299.883 Y87.221
G01 X291.871 Y84.830
G01 X283.745 Y82.833
G01 X275.523 Y81.236
G01 X275.472 Y81.227
G01 X276.033 Y76.512
G01 X276.594 Y71.796
G01 X277.155 Y67.081
G01 X277.716 Y62.366
G01 X268.490 Y61.080
G01 X259.205 Y60.248
G01 X250.422 Y59.882
G01 X250.277 Y64.630
G01 X250.132 Y69.377
G01 X249.986 Y74.125
G01 X249.842 Y78.872
G01 X241.438 Y78.942
G01 X233.040 Y79.424
G01 X224.670 Y80.319
G01 X224.617 Y80.326
G01 X223.765 Y75.642
G01 X222.913 Y70.958
G01 X222.061 Y66.275
G01 X221.209 Y61.591
G01 X211.969 Y63.081
G01 X202.805 Y65.025
G01 X194.260 Y67.267
G01 X195.520 Y71.859
G01 X196.779 Y76.451
G01 X198.038 Y81.043
G01 X199.298 Y85.635
G01 X191.245 Y88.185
G01 X183.319 Y91.129
G01 X175.542 Y94.461
G01 X175.493 Y94.484
G01 X173.296 Y90.247
G01 X171.100 Y86.010
G01 X168.904 Y81.773
G01 X166.707 Y77.536
G01 X158.272 Y81.697
G01 X150.044 Y86.270
G01 X142.045 Y91.245
G01 X141.994 Y91.278
G01 X144.567 Y95.299
G01 X147.139 Y99.321
G01 X149.711 Y103.343
G01 X152.283 Y107.364
G01 X145.314 Y112.215
G01 X138.586 Y117.406
G01 X132.481 Y122.599
G01 X129.128 Y119.186
G01 X125.775 Y115.774
G01 X122.421 Y112.361
G01 X119.068 Y108.949
G01 X112.195 Y115.436
G01 X105.644 Y122.258
G01 X99.430 Y129.399
G01 X99.391 Y129.446
G01 X103.041 Y132.542
G01 X106.690 Y135.637
G01 X110.338 Y138.734
G01 X113.988 Y141.829
G01 X108.726 Y148.549
G01 X103.795 Y155.524
G01 X99.209 Y162.738
G01 X99.182 Y162.784
G01 X94.956 Y160.515
G01 X90.730 Y158.248
G01 X86.504 Y155.979
G01 X82.278 Y153.711
G01 X77.619 Y161.987
G01 X73.367 Y170.488
G01 X69.745 Y178.687
G01 X74.154 Y180.579
G01 X78.562 Y182.470
G01 X82.971 Y184.363
G01 X87.379 Y186.254
G01 X84.309 Y194.264
G01 X81.633 Y202.421
G01 X79.359 Y210.707
G01 X79.346 Y210.760
G01 X74.628 Y209.832
G01 X69.910 Y208.903
G01 X65.193 Y207.975
G01 X60.475 Y207.047
G01 X58.444 Y216.371
G01 X56.872 Y225.792
G01 X55.763 Y235.286
G01 X55.757 Y235.346
G01 X60.541 Y235.845
G01 X65.324 Y236.345
G01 X70.107 Y236.843
G01 X74.891 Y237.342
G01 X74.334 Y245.946
G01 X74.201 Y254.574
G01 X74.463 Y262.710
G01 X69.668 Y263.211
G01 X64.875 Y263.711
G01 X60.080 Y264.212
G01 X55.287 Y264.712
G01 X56.090 Y274.268
G01 X57.362 Y283.780
G01 X59.101 Y293.226
G01 X59.114 Y293.286
G01 X63.844 Y292.355
G01 X68.575 Y291.424
G01 X73.305 Y290.494
G01 X78.036 Y289.564
G01 X80.043 Y297.994
G01 X82.463 Y306.322
G01 X85.292 Y314.528
G01 X85.311 Y314.579
G01 X80.871 Y316.486
G01 X76.431 Y318.393
G01 X71.991 Y320.299
G01 X67.551 Y322.206
G01 X71.173 Y331.135
G01 X75.231 Y339.883
G01 X79.448 Y347.941
G01 X83.707 Y345.656
G01 X87.966 Y343.370
G01 X92.225 Y341.086
G01 X96.484 Y338.801
G01 X100.902 Y346.307
G01 X105.688 Y353.592
G01 X110.829 Y360.640
G01 X110.862 Y360.683
G01 X107.170 Y363.818
G01 X103.478 Y366.954
G01 X99.785 Y370.089
G01 X96.093 Y373.225
G01 X102.208 Y380.731
G01 X108.690 Y387.934
G01 X115.522 Y394.815
G01 X115.567 Y394.858
G01 X118.964 Y391.403
G01 X122.361 Y387.948
G01 X125.758 Y384.493
G01 X129.155 Y381.038
G01 X135.635 Y386.923
G01 X142.403 Y392.488
G01 X149.029 Y397.426
G01 X146.415 Y401.518
G01 X143.800 Y405.610
G01 X141.186 Y409.702
G01 X138.572 Y413.794
G01 X146.662 Y419.197
G01 X155.014 Y424.200
G01 X163.608 Y428.791
G01 X163.664 Y428.819
G01 X165.901 Y424.509
G01 X168.138 Y420.197
G01 X170.376 Y415.887
G01 X172.613 Y411.575
G01 X180.577 Y415.314
G01 X188.722 Y418.661
G01 X196.546 Y421.448
G01 X195.247 Y426.139
G01 X193.948 Y430.830
G01 X192.649 Y435.521
G01 X191.350 Y440.212
G01 X200.715 Y443.012
G01 X210.214 Y445.351
G01 X219.824 Y447.222
G01 X219.885 Y447.232
G01 X220.759 Y442.442
G01 X221.634 Y437.653
G01 X222.509 Y432.863
G01 X223.383 Y428.073
G01 X232.138 Y429.312
