;  Created by Sandify
;  https://sandify.org
;  Version: 0.2.6
;
;  Machine type: Rectangular
;    Min X (mm): 0
;    Max X (mm): 500
;    Min Y (mm): 0
;    Max Y (mm): 500
;  Content type: shape
;  Layer:
;    Shape: Fractal Spirograph
;    Name: fractal line writer leaves
;    Velocity: 10
;    Resolution: 20
;    Number of circles: 3
;    Relative size (parent to child circle): 3
;    Alternate rotation direction: true
;    Visible: true
;    Initial width: 25
;    Initial height: 25
;    X offset: 0
;    Y offset: 0
;    Rotate (degrees): 0
;    Reverse path: false
;    Fine tuning:
;      Connect to next layer: line
;      Draw portion of path (%): 100
;      Backtrack at end (%): 0
;      Rotate starting point (%): 0
;  Reverse export path: false
;
; File name: 'fractal spirograph 1 (BJ)'
; File type: gcode
;

G01 X248.725 Y490.668
G01 X247.463 Y490.451
G01 X246.225 Y490.090
G01 X245.023 Y489.589
G01 X243.870 Y488.951
G01 X242.776 Y488.181
G01 X241.752 Y487.285
G01 X240.808 Y486.269
G01 X239.955 Y485.140
G01 X239.202 Y483.908
G01 X238.555 Y482.581
G01 X238.024 Y481.168
G01 X237.615 Y479.681
G01 X237.333 Y478.129
G01 X237.182 Y476.526
G01 X237.168 Y474.881
G01 X237.291 Y473.208
G01 X237.554 Y471.518
G01 X237.958 Y469.823
G01 X238.501 Y468.137
G01 X239.183 Y466.471
G01 X239.999 Y464.837
G01 X240.948 Y463.247
G01 X242.023 Y461.712
G01 X243.219 Y460.244
G01 X244.530 Y458.852
G01 X245.948 Y457.546
G01 X247.465 Y456.336
G01 X249.071 Y455.230
G01 X250.757 Y454.235
G01 X252.512 Y453.357
G01 X254.326 Y452.603
G01 X256.187 Y451.978
G01 X258.083 Y451.484
G01 X260.002 Y451.125
G01 X261.932 Y450.902
G01 X263.862 Y450.816
G01 X265.777 Y450.867
G01 X267.667 Y451.052
G01 X269.518 Y451.369
G01 X271.320 Y451.814
G01 X273.061 Y452.383
G01 X274.730 Y453.070
G01 X276.317 Y453.868
G01 X277.811 Y454.770
G01 X279.205 Y455.768
G01 X280.488 Y456.852
G01 X281.655 Y458.014
G01 X282.697 Y459.241
G01 X283.611 Y460.525
G01 X284.390 Y461.852
G01 X285.031 Y463.212
G01 X285.531 Y464.593
G01 X285.889 Y465.982
G01 X286.104 Y467.367
G01 X286.177 Y468.736
G01 X286.109 Y470.077
G01 X285.903 Y471.377
G01 X285.563 Y472.625
G01 X285.093 Y473.810
G01 X284.498 Y474.921
G01 X283.786 Y475.947
G01 X282.964 Y476.878
G01 X282.040 Y477.707
G01 X281.023 Y478.423
G01 X279.923 Y479.021
G01 X278.750 Y479.492
G01 X277.516 Y479.833
G01 X276.230 Y480.037
G01 X274.906 Y480.101
G01 X273.555 Y480.024
G01 X272.190 Y479.802
G01 X270.821 Y479.435
G01 X269.463 Y478.925
G01 X268.127 Y478.273
G01 X266.824 Y477.480
G01 X265.567 Y476.552
G01 X264.367 Y475.493
G01 X263.235 Y474.308
G01 X262.181 Y473.005
G01 X261.215 Y471.590
G01 X260.345 Y470.072
G01 X259.581 Y468.460
G01 X258.930 Y466.764
G01 X258.398 Y464.994
G01 X257.991 Y463.162
G01 X257.713 Y461.278
G01 X257.568 Y459.354
G01 X257.560 Y457.403
G01 X257.689 Y455.437
G01 X257.955 Y453.467
G01 X258.360 Y451.506
G01 X258.900 Y449.567
G01 X259.573 Y447.661
G01 X260.375 Y445.801
G01 X261.302 Y443.997
G01 X262.348 Y442.260
G01 X263.506 Y440.602
G01 X264.769 Y439.031
G01 X266.129 Y437.557
G01 X267.575 Y436.188
G01 X269.100 Y434.932
G01 X270.691 Y433.795
G01 X272.339 Y432.782
G01 X274.032 Y431.900
G01 X275.758 Y431.151
G01 X277.505 Y430.538
G01 X279.261 Y430.063
G01 X281.013 Y429.726
G01 X282.750 Y429.528
G01 X284.459 Y429.465
G01 X286.128 Y429.536
G01 X287.745 Y429.737
G01 X289.299 Y430.063
G01 X290.779 Y430.509
G01 X292.175 Y431.067
G01 X293.476 Y431.732
G01 X294.674 Y432.494
G01 X295.761 Y433.344
G01 X296.729 Y434.272
G01 X297.571 Y435.269
G01 X298.281 Y436.323
G01 X298.855 Y437.423
G01 X299.290 Y438.558
G01 X299.582 Y439.715
G01 X299.730 Y440.882
G01 X299.733 Y442.047
G01 X299.592 Y443.198
G01 X299.308 Y444.322
G01 X298.885 Y445.408
G01 X298.325 Y446.444
G01 X297.634 Y447.418
G01 X296.817 Y448.320
G01 X295.880 Y449.139
G01 X294.832 Y449.866
G01 X293.680 Y450.492
G01 X292.433 Y451.008
G01 X291.102 Y451.406
G01 X289.696 Y451.681
G01 X288.227 Y451.827
G01 X286.706 Y451.839
G01 X285.144 Y451.713
G01 X283.554 Y451.447
G01 X281.948 Y451.039
G01 X280.337 Y450.488
G01 X278.735 Y449.796
G01 X277.153 Y448.963
G01 X275.604 Y447.993
G01 X274.099 Y446.890
G01 X272.649 Y445.657
G01 X271.266 Y444.301
G01 X269.959 Y442.829
G01 X268.739 Y441.247
G01 X267.615 Y439.565
G01 X266.594 Y437.791
G01 X265.685 Y435.935
G01 X264.893 Y434.007
G01 X264.226 Y432.019
G01 X263.686 Y429.982
G01 X263.279 Y427.908
G01 X263.006 Y425.808
G01 X262.870 Y423.695
G01 X262.870 Y421.581
G01 X263.006 Y419.479
G01 X263.277 Y417.400
G01 X263.680 Y415.358
G01 X264.212 Y413.363
G01 X264.867 Y411.427
G01 X265.639 Y409.560
G01 X266.523 Y407.774
G01 X267.511 Y406.079
G01 X268.594 Y404.482
G01 X269.764 Y402.993
G01 X271.010 Y401.619
G01 X272.323 Y400.367
G01 X273.690 Y399.242
G01 X275.102 Y398.249
G01 X276.546 Y397.392
G01 X278.011 Y396.674
G01 X279.483 Y396.096
G01 X280.951 Y395.659
G01 X282.403 Y395.362
G01 X283.826 Y395.204
G01 X285.209 Y395.182
G01 X286.539 Y395.293
G01 X287.805 Y395.531
G01 X288.996 Y395.891
G01 X290.103 Y396.367
G01 X291.114 Y396.951
G01 X292.022 Y397.635
G01 X292.818 Y398.410
G01 X293.494 Y399.266
G01 X294.044 Y400.193
G01 X294.462 Y401.180
G01 X294.743 Y402.215
G01 X294.884 Y403.287
G01 X294.882 Y404.384
G01 X294.735 Y405.494
G01 X294.444 Y406.605
G01 X294.007 Y407.703
G01 X293.428 Y408.778
G01 X292.709 Y409.817
G01 X291.853 Y410.809
G01 X290.865 Y411.741
G01 X289.751 Y412.604
G01 X288.517 Y413.387
G01 X287.172 Y414.080
G01 X285.722 Y414.674
G01 X284.178 Y415.162
G01 X282.549 Y415.534
G01 X280.846 Y415.786
G01 X279.079 Y415.911
G01 X277.259 Y415.905
G01 X275.399 Y415.763
G01 X273.511 Y415.484
G01 X271.606 Y415.065
G01 X269.698 Y414.507
G01 X267.797 Y413.810
G01 X265.917 Y412.975
G01 X264.070 Y412.005
G01 X262.267 Y410.904
G01 X260.519 Y409.677
G01 X258.838 Y408.329
G01 X257.234 Y406.867
G01 X255.717 Y405.299
G01 X254.295 Y403.632
G01 X252.978 Y401.876
G01 X251.772 Y400.041
G01 X250.684 Y398.137
G01 X249.721 Y396.176
G01 X248.886 Y394.167
G01 X248.183 Y392.124
G01 X247.615 Y390.058
G01 X247.184 Y387.982
G01 X246.890 Y385.908
G01 X246.733 Y383.847
G01 X246.711 Y381.813
G01 X246.821 Y379.817
G01 X247.060 Y377.872
G01 X247.423 Y375.988
G01 X247.905 Y374.176
G01 X248.498 Y372.447
G01 X249.196 Y370.811
G01 X249.990 Y369.277
G01 X250.870 Y367.852
G01 X251.828 Y366.546
G01 X252.854 Y365.363
G01 X253.935 Y364.311
G01 X255.061 Y363.393
G01 X256.219 Y362.613
G01 X257.399 Y361.975
G01 X258.588 Y361.480
G01 X259.774 Y361.127
G01 X260.943 Y360.918
G01 X262.085 Y360.849
G01 X263.187 Y360.920
G01 X264.238 Y361.125
G01 X265.226 Y361.460
G01 X266.140 Y361.921
G01 X266.970 Y362.499
G01 X267.706 Y363.187
G01 X268.339 Y363.978
G01 X268.861 Y364.862
G01 X269.265 Y365.830
G01 X269.543 Y366.871
G01 X269.691 Y367.974
G01 X269.703 Y369.128
G01 X269.576 Y370.321
G01 X269.307 Y371.542
G01 X268.895 Y372.778
G01 X268.338 Y374.017
G01 X267.639 Y375.246
G01 X266.798 Y376.454
G01 X265.817 Y377.628
G01 X264.702 Y378.757
G01 X263.456 Y379.829
G01 X262.085 Y380.834
G01 X260.596 Y381.761
G01 X258.996 Y382.601
G01 X257.294 Y383.344
G01 X255.498 Y383.982
G01 X253.619 Y384.508
G01 X251.667 Y384.915
G01 X249.653 Y385.198
G01 X247.587 Y385.351
G01 X245.483 Y385.371
G01 X243.352 Y385.256
G01 X241.206 Y385.004
G01 X239.058 Y384.614
G01 X236.920 Y384.087
G01 X234.803 Y383.424
G01 X232.721 Y382.629
G01 X230.685 Y381.705
G01 X228.705 Y380.656
G01 X226.795 Y379.489
G01 X224.962 Y378.209
G01 X223.218 Y376.826
G01 X221.572 Y375.346
G01 X220.031 Y373.779
G01 X218.604 Y372.134
G01 X217.296 Y370.423
G01 X216.115 Y368.656
G01 X215.063 Y366.844
G01 X214.146 Y364.999
G01 X213.366 Y363.134
G01 X212.724 Y361.259
G01 X212.222 Y359.389
G01 X211.857 Y357.534
G01 X211.630 Y355.707
G01 X211.537 Y353.921
G01 X211.575 Y352.186
G01 X211.739 Y350.515
G01 X212.023 Y348.918
G01 X212.421 Y347.406
G01 X212.926 Y345.988
G01 X213.528 Y344.673
G01 X214.219 Y343.471
G01 X214.990 Y342.387
G01 X215.830 Y341.429
G01 X216.728 Y340.603
G01 X217.673 Y339.914
G01 X218.652 Y339.364
G01 X219.655 Y338.957
G01 X220.669 Y338.694
G01 X221.682 Y338.576
G01 X222.681 Y338.602
G01 X223.654 Y338.771
G01 X224.590 Y339.081
G01 X225.476 Y339.526
G01 X226.302 Y340.103
G01 X227.056 Y340.806
G01 X227.729 Y341.629
G01 X228.310 Y342.564
G01 X228.790 Y343.602
G01 X229.161 Y344.735
G01 X229.416 Y345.952
G01 X229.548 Y347.245
G01 X229.552 Y348.600
G01 X229.422 Y350.008
G01 X229.156 Y351.457
G01 X228.750 Y352.934
G01 X228.203 Y354.427
G01 X227.514 Y355.925
G01 X226.684 Y357.414
G01 X225.715 Y358.883
G01 X224.610 Y360.319
G01 X223.371 Y361.711
G01 X222.005 Y363.048
G01 X220.515 Y364.318
G01 X218.910 Y365.512
G01 X217.197 Y366.619
G01 X215.384 Y367.631
G01 X213.480 Y368.539
G01 X211.495 Y369.335
G01 X209.439 Y370.013
G01 X207.323 Y370.568
G01 X205.160 Y370.995
G01 X202.959 Y371.289
G01 X200.734 Y371.449
G01 X198.497 Y371.472
G01 X196.260 Y371.359
G01 X194.035 Y371.109
G01 X191.835 Y370.725
G01 X189.672 Y370.209
G01 X187.556 Y369.564
G01 X185.501 Y368.796
G01 X183.516 Y367.909
G01 X181.613 Y366.912
G01 X179.800 Y365.810
G01 X178.088 Y364.613
G01 X176.484 Y363.330
G01 X174.995 Y361.969
G01 X173.630 Y360.543
G01 X172.392 Y359.061
G01 X171.288 Y357.534
G01 X170.320 Y355.976
G01 X169.492 Y354.397
G01 X168.804 Y352.809
G01 X168.259 Y351.226
G01 X167.854 Y349.659
G01 X167.589 Y348.121
G01 X167.461 Y346.623
G01 X167.467 Y345.177
G01 X167.601 Y343.795
G01 X167.858 Y342.488
G01 X168.231 Y341.265
G01 X168.713 Y340.137
G01 X169.296 Y339.112
G01 X169.971 Y338.200
G01 X170.727 Y337.407
G01 X171.556 Y336.740
G01 X172.445 Y336.204
G01 X173.383 Y335.805
G01 X174.359 Y335.547
G01 X175.361 Y335.430
G01 X176.376 Y335.458
G01 X177.393 Y335.631
G01 X178.399 Y335.949
G01 X179.381 Y336.409
G01 X180.329 Y337.009
G01 X181.230 Y337.745
G01 X182.073 Y338.613
G01 X182.847 Y339.606
G01 X183.542 Y340.719
G01 X184.148 Y341.944
G01 X184.656 Y343.272
G01 X185.058 Y344.695
G01 X185.346 Y346.202
G01 X185.513 Y347.783
G01 X185.555 Y349.428
G01 X185.466 Y351.124
G01 X185.243 Y352.861
G01 X184.883 Y354.626
G01 X184.384 Y356.407
G01 X183.747 Y358.191
G01 X182.971 Y359.967
G01 X182.058 Y361.722
G01 X181.012 Y363.444
G01 X179.834 Y365.122
G01 X178.532 Y366.743
G01 X177.109 Y368.298
G01 X175.573 Y369.775
G01 X173.932 Y371.166
G01 X172.193 Y372.460
G01 X170.365 Y373.649
G01 X168.460 Y374.727
G01 X166.486 Y375.685
G01 X164.455 Y376.520
G01 X162.378 Y377.226
G01 X160.267 Y377.798
G01 X158.134 Y378.236
G01 X155.991 Y378.536
G01 X153.851 Y378.698
G01 X151.726 Y378.724
G01 X149.627 Y378.614
G01 X147.568 Y378.371
G01 X145.560 Y377.999
G01 X143.614 Y377.502
G01 X141.741 Y376.887
G01 X139.952 Y376.159
G01 X138.256 Y375.326
G01 X136.662 Y374.397
G01 X135.180 Y373.380
G01 X133.815 Y372.285
G01 X132.576 Y371.123
G01 X131.467 Y369.905
G01 X130.493 Y368.641
G01 X129.659 Y367.343
G01 X128.966 Y366.024
G01 X128.417 Y364.696
G01 X128.012 Y363.371
G01 X127.750 Y362.061
G01 X127.630 Y360.778
G01 X127.650 Y359.534
G01 X127.805 Y358.341
G01 X128.091 Y357.211
G01 X128.502 Y356.153
G01 X129.032 Y355.180
G01 X129.673 Y354.299
G01 X130.417 Y353.521
G01 X131.254 Y352.853
G01 X132.176 Y352.304
G01 X133.172 Y351.879
G01 X134.231 Y351.584
G01 X135.341 Y351.424
G01 X136.491 Y351.403
G01 X137.669 Y351.523
G01 X138.863 Y351.786
G01 X140.061 Y352.192
G01 X141.249 Y352.741
G01 X142.417 Y353.431
G01 X143.551 Y354.259
G01 X144.641 Y355.222
G01 X145.675 Y356.315
G01 X146.642 Y357.532
G01 X147.532 Y358.867
G01 X148.335 Y360.312
G01 X149.042 Y361.859
G01 X149.645 Y363.498
G01 X150.136 Y365.221
G01 X150.508 Y367.015
G01 X150.757 Y368.871
G01 X150.877 Y370.778
G01 X150.864 Y372.723
G01 X150.717 Y374.694
G01 X150.432 Y376.679
G01 X150.011 Y378.666
G01 X149.453 Y380.642
G01 X148.761 Y382.596
G01 X147.936 Y384.515
G01 X146.982 Y386.388
G01 X145.905 Y388.202
G01 X144.709 Y389.948
G01 X143.402 Y391.614
G01 X141.991 Y393.192
G01 X140.485 Y394.671
G01 X138.891 Y396.043
G01 X137.221 Y397.302
G01 X135.484 Y398.440
G01 X133.692 Y399.452
G01 X131.856 Y400.332
G01 X129.987 Y401.078
G01 X128.098 Y401.686
G01 X126.200 Y402.155
G01 X124.307 Y402.485
G01 X122.430 Y402.675
G01 X120.582 Y402.727
G01 X118.774 Y402.644
G01 X117.018 Y402.430
G01 X115.326 Y402.090
G01 X113.709 Y401.628
G01 X112.177 Y401.051
G01 X110.739 Y400.368
G01 X109.406 Y399.586
G01 X108.184 Y398.714
G01 X107.082 Y397.762
G01 X106.107 Y396.740
G01 X105.263 Y395.660
G01 X104.556 Y394.531
G01 X103.989 Y393.368
G01 X103.566 Y392.180
G01 X103.287 Y390.980
G01 X103.153 Y389.782
G01 X103.164 Y388.596
G01 X103.317 Y387.434
G01 X103.612 Y386.310
G01 X104.043 Y385.235
G01 X104.605 Y384.219
G01 X105.295 Y383.274
G01 X106.104 Y382.410
G01 X107.025 Y381.637
G01 X108.050 Y380.964
G01 X109.170 Y380.399
G01 X110.375 Y379.950
G01 X111.655 Y379.623
G01 X112.998 Y379.424
G01 X114.394 Y379.357
G01 X115.831 Y379.426
G01 X117.297 Y379.634
G01 X118.779 Y379.983
G01 X120.266 Y380.472
G01 X121.744 Y381.101
G01 X123.203 Y381.869
G01 X124.629 Y382.773
G01 X126.011 Y383.809
G01 X127.338 Y384.973
G01 X128.599 Y386.258
G01 X129.783 Y387.659
G01 X130.881 Y389.167
G01 X131.884 Y390.774
G01 X132.783 Y392.471
G01 X133.570 Y394.248
G01 X134.240 Y396.096
G01 X134.787 Y398.002
G01 X135.205 Y399.956
G01 X135.491 Y401.946
G01 X135.643 Y403.960
G01 X135.659 Y405.985
G01 X135.538 Y408.009
G01 X135.280 Y410.021
G01 X134.889 Y412.007
G01 X134.365 Y413.955
G01 X133.713 Y415.855
G01 X132.938 Y417.694
G01 X132.044 Y419.461
G01 X131.040 Y421.147
G01 X129.931 Y422.741
G01 X128.727 Y424.234
G01 X127.437 Y425.618
G01 X126.070 Y426.886
G01 X124.637 Y428.030
G01 X123.148 Y429.045
G01 X121.616 Y429.927
G01 X120.050 Y430.671
G01 X118.465 Y431.275
G01 X116.871 Y431.737
G01 X115.282 Y432.057
G01 X113.708 Y432.235
G01 X112.164 Y432.273
G01 X110.660 Y432.173
G01 X109.208 Y431.939
G01 X107.819 Y431.576
G01 X106.505 Y431.089
G01 X105.276 Y430.484
G01 X104.142 Y429.771
G01 X103.111 Y428.956
G01 X102.192 Y428.048
G01 X101.393 Y427.058
G01 X100.719 Y425.996
G01 X100.177 Y424.872
G01 X99.772 Y423.698
G01 X99.506 Y422.485
G01 X99.383 Y421.247
G01 X99.405 Y419.994
G01 X99.571 Y418.739
G01 X99.881 Y417.494
G01 X100.334 Y416.271
G01 X100.927 Y415.083
G01 X101.656 Y413.941
G01 X102.517 Y412.856
G01 X103.503 Y411.840
G01 X104.608 Y410.902
G01 X105.826 Y410.052
G01 X107.146 Y409.300
G01 X108.561 Y408.653
G01 X110.060 Y408.119
G01 X111.633 Y407.706
G01 X113.270 Y407.417
G01 X114.958 Y407.258
G01 X116.686 Y407.233
G01 X118.442 Y407.344
G01 X120.214 Y407.593
G01 X121.990 Y407.981
G01 X123.757 Y408.506
G01 X125.502 Y409.167
G01 X127.215 Y409.962
G01 X128.883 Y410.886
G01 X130.494 Y411.936
G01 X132.039 Y413.104
G01 X133.506 Y414.386
G01 X134.885 Y415.772
G01 X136.169 Y417.255
G01 X137.347 Y418.826
G01 X138.414 Y420.475
G01 X139.361 Y422.192
G01 X140.184 Y423.965
G01 X140.878 Y425.783
G01 X141.439 Y427.635
G01 X141.864 Y429.508
G01 X142.152 Y431.390
G01 X142.302 Y433.270
G01 X142.314 Y435.134
G01 X142.191 Y436.970
G01 X141.934 Y438.766
G01 X141.548 Y440.511
G01 X141.038 Y442.194
G01 X140.408 Y443.803
G01 X139.665 Y445.327
G01 X138.818 Y446.758
G01 X137.873 Y448.085
G01 X136.841 Y449.302
G01 X135.731 Y450.399
G01 X134.553 Y451.371
G01 X133.318 Y452.212
G01 X132.037 Y452.917
G01 X130.723 Y453.483
G01 X129.387 Y453.906
G01 X128.041 Y454.185
G01 X126.697 Y454.320
G01 X125.369 Y454.311
G01 X124.067 Y454.159
G01 X122.805 Y453.868
G01 X121.593 Y453.441
G01 X120.443 Y452.882
G01 X119.366 Y452.198
G01 X118.372 Y451.394
G01 X117.471 Y450.479
G01 X116.672 Y449.461
G01 X115.983 Y448.348
G01 X115.412 Y447.150
G01 X114.965 Y445.879
G01 X114.647 Y444.543
G01 X114.465 Y443.156
G01 X114.421 Y441.729
G01 X114.517 Y440.273
G01 X114.756 Y438.802
G01 X115.138 Y437.326
G01 X115.662 Y435.859
G01 X116.327 Y434.412
G01 X117.130 Y432.998
G01 X118.067 Y431.628
G01 X119.134 Y430.313
G01 X120.325 Y429.066
G01 X121.633 Y427.895
G01 X123.050 Y426.810
G01 X124.569 Y425.822
G01 X126.180 Y424.937
G01 X127.874 Y424.163
G01 X129.640 Y423.508
G01 X131.466 Y422.976
G01 X133.343 Y422.573
G01 X135.257 Y422.302
G01 X137.198 Y422.165
G01 X139.152 Y422.165
G01 X141.107 Y422.301
G01 X143.052 Y422.574
G01 X144.973 Y422.981
G01 X146.859 Y423.521
G01 X148.699 Y424.188
G01 X150.479 Y424.979
G01 X152.191 Y425.888
G01 X153.823 Y426.909
G01 X155.365 Y428.033
G01 X156.809 Y429.252
G01 X158.146 Y430.558
G01 X159.368 Y431.940
G01 X160.469 Y433.389
G01 X161.444 Y434.893
G01 X162.286 Y436.441
G01 X162.994 Y438.021
G01 X163.564 Y439.622
G01 X163.994 Y441.230
G01 X164.283 Y442.834
G01 X164.433 Y444.421
G01 X164.445 Y445.980
G01 X164.322 Y447.498
G01 X164.066 Y448.964
G01 X163.684 Y450.365
G01 X163.179 Y451.692
G01 X162.560 Y452.934
G01 X161.834 Y454.080
G01 X161.008 Y455.123
G01 X160.091 Y456.053
G01 X159.095 Y456.864
G01 X158.028 Y457.548
G01 X156.902 Y458.101
G01 X155.728 Y458.516
G01 X154.517 Y458.791
G01 X153.283 Y458.923
G01 X152.036 Y458.910
G01 X150.789 Y458.752
G01 X149.554 Y458.449
G01 X148.344 Y458.003
G01 X147.171 Y457.417
G01 X146.045 Y456.694
G01 X144.979 Y455.838
G01 X143.984 Y454.857
G01 X143.069 Y453.755
G01 X142.244 Y452.541
G01 X141.519 Y451.224
G01 X140.901 Y449.811
G01 X140.399 Y448.313
G01 X140.018 Y446.741
G01 X139.765 Y445.104
G01 X139.643 Y443.416
G01 X139.657 Y441.686
G01 X139.810 Y439.927
G01 X140.102 Y438.152
G01 X140.535 Y436.373
G01 X141.107 Y434.602
G01 X141.818 Y432.851
G01 X142.664 Y431.132
G01 X143.642 Y429.457
G01 X144.747 Y427.837
G01 X145.973 Y426.284
G01 X147.313 Y424.807
G01 X148.761 Y423.417
G01 X150.307 Y422.122
G01 X151.943 Y420.931
G01 X153.659 Y419.851
G01 X155.445 Y418.889
G01 X157.289 Y418.050
G01 X159.180 Y417.340
G01 X161.106 Y416.761
G01 X163.056 Y416.318
G01 X165.016 Y416.010
G01 X166.976 Y415.840
G01 X168.922 Y415.806
G01 X170.842 Y415.906
G01 X172.725 Y416.139
G01 X174.557 Y416.499
G01 X176.329 Y416.984
G01 X178.029 Y417.586
G01 X179.647 Y418.300
G01 X181.172 Y419.118
G01 X182.597 Y420.032
G01 X183.912 Y421.032
G01 X185.109 Y422.109
G01 X186.183 Y423.252
G01 X187.128 Y424.451
G01 X187.939 Y425.695
G01 X188.611 Y426.971
G01 X189.143 Y428.267
G01 X189.533 Y429.572
G01 X189.780 Y430.873
G01 X189.885 Y432.158
G01 X189.849 Y433.415
G01 X189.675 Y434.631
G01 X189.367 Y435.795
G01 X188.929 Y436.896
G01 X188.366 Y437.923
G01 X187.687 Y438.865
G01 X186.897 Y439.713
G01 X186.005 Y440.457
G01 X185.021 Y441.090
G01 X183.954 Y441.604
G01 X182.813 Y441.992
G01 X181.612 Y442.248
G01 X180.359 Y442.369
G01 X179.068 Y442.350
G01 X177.750 Y442.188
G01 X176.417 Y441.883
G01 X175.082 Y441.433
G01 X173.757 Y440.839
G01 X172.454 Y440.103
G01 X171.185 Y439.227
G01 X169.961 Y438.216
G01 X168.795 Y437.073
G01 X167.696 Y435.805
G01 X166.676 Y434.418
G01 X165.743 Y432.920
G01 X164.908 Y431.319
G01 X164.178 Y429.624
G01 X163.560 Y427.844
G01 X163.062 Y425.992
G01 X162.689 Y424.076
G01 X162.445 Y422.109
G01 X162.335 Y420.102
G01 X162.361 Y418.068
G01 X162.524 Y416.018
G01 X162.825 Y413.965
G01 X163.264 Y411.922
G01 X163.838 Y409.899
G01 X164.546 Y407.911
G01 X165.383 Y405.967
G01 X166.345 Y404.081
G01 X167.426 Y402.261
G01 X168.619 Y400.520
G01 X169.917 Y398.866
G01 X171.311 Y397.309
G01 X172.793 Y395.858
G01 X174.353 Y394.519
G01 X175.980 Y393.299
G01 X177.663 Y392.204
G01 X179.391 Y391.239
G01 X181.153 Y390.408
G01 X182.935 Y389.712
G01 X184.727 Y389.155
G01 X186.515 Y388.736
G01 X188.287 Y388.454
G01 X190.032 Y388.309
G01 X191.737 Y388.298
G01 X193.390 Y388.416
G01 X194.980 Y388.660
G01 X196.497 Y389.023
G01 X197.929 Y389.500
G01 X199.266 Y390.082
G01 X200.501 Y390.762
G01 X201.624 Y391.530
G01 X202.628 Y392.376
G01 X203.507 Y393.291
G01 X204.254 Y394.263
G01 X204.865 Y395.281
G01 X205.336 Y396.333
G01 X205.665 Y397.408
G01 X205.850 Y398.494
G01 X205.890 Y399.577
G01 X205.786 Y400.646
G01 X205.540 Y401.688
G01 X205.154 Y402.692
G01 X204.631 Y403.646
G01 X203.977 Y404.539
G01 X203.198 Y405.359
G01 X202.299 Y406.097
G01 X201.288 Y406.742
G01 X200.173 Y407.286
G01 X198.965 Y407.720
G01 X197.671 Y408.037
G01 X196.304 Y408.231
G01 X194.872 Y408.295
G01 X193.389 Y408.225
G01 X191.866 Y408.018
G01 X190.314 Y407.670
G01 X188.745 Y407.181
G01 X187.173 Y406.549
G01 X185.609 Y405.776
G01 X184.066 Y404.862
G01 X182.555 Y403.811
G01 X181.089 Y402.626
G01 X179.678 Y401.312
G01 X178.333 Y399.875
G01 X177.065 Y398.321
G01 X175.884 Y396.659
G01 X174.799 Y394.895
G01 X173.817 Y393.040
G01 X172.947 Y391.103
G01 X172.195 Y389.095
G01 X171.566 Y387.026
G01 X171.066 Y384.908
G01 X170.698 Y382.753
G01 X170.465 Y380.572
G01 X170.368 Y378.379
G01 X170.407 Y376.184
G01 X170.584 Y374.001
G01 X170.894 Y371.842
G01 X171.337 Y369.719
G01 X171.908 Y367.643
G01 X172.603 Y365.627
G01 X173.416 Y363.680
G01 X174.340 Y361.814
G01 X175.368 Y360.037
G01 X176.491 Y358.360
G01 X177.701 Y356.791
G01 X178.988 Y355.337
G01 X180.341 Y354.004
G01 X181.749 Y352.799
G01 X183.201 Y351.726
G01 X184.686 Y350.789
G01 X186.191 Y349.991
G01 X187.704 Y349.333
G01 X189.214 Y348.815
G01 X190.706 Y348.439
G01 X192.170 Y348.200
G01 X193.594 Y348.098
G01 X194.965 Y348.129
G01 X196.272 Y348.287
G01 X197.505 Y348.568
G01 X198.653 Y348.964
G01 X199.706 Y349.468
G01 X200.655 Y350.073
G01 X201.492 Y350.768
G01 X202.210 Y351.544
G01 X202.801 Y352.391
G01 X203.261 Y353.298
G01 X203.584 Y354.254
G01 X203.767 Y355.247
G01 X203.807 Y356.264
G01 X203.702 Y357.295
G01 X203.453 Y358.326
G01 X203.059 Y359.345
G01 X202.522 Y360.340
G01 X201.845 Y361.300
G01 X201.031 Y362.212
G01 X200.086 Y363.066
G01 X199.014 Y363.850
G01 X197.823 Y364.553
G01 X196.520 Y365.167
G01 X195.113 Y365.682
G01 X193.612 Y366.091
G01 X192.026 Y366.384
G01 X190.365 Y366.557
G01 X188.641 Y366.603
G01 X186.865 Y366.518
G01 X185.048 Y366.297
G01 X183.203 Y365.939
G01 X181.342 Y365.442
G01 X179.476 Y364.805
G01 X177.619 Y364.029
G01 X175.783 Y363.115
G01 X173.979 Y362.067
G01 X172.220 Y360.887
G01 X170.516 Y359.582
G01 X168.879 Y358.155
G01 X167.318 Y356.615
G01 X165.845 Y354.968
G01 X164.467 Y353.223
G01 X163.194 Y351.389
G01 X162.032 Y349.475
G01 X160.989 Y347.493
G01 X160.069 Y345.453
G01 X159.278 Y343.367
G01 X158.620 Y341.245
G01 X158.097 Y339.102
G01 X157.710 Y336.947
G01 X157.461 Y334.794
G01 X157.348 Y332.656
G01 X157.371 Y330.544
G01 X157.526 Y328.470
G01 X157.810 Y326.447
G01 X158.218 Y324.485
G01 X158.744 Y322.595
G01 X159.382 Y320.789
G01 X160.125 Y319.075
G01 X160.964 Y317.463
G01 X161.890 Y315.961
G01 X162.894 Y314.576
G01 X163.964 Y313.316
G01 X165.091 Y312.186
G01 X166.262 Y311.191
G01 X167.467 Y310.334
G01 X168.692 Y309.618
G01 X169.927 Y309.045
G01 X171.158 Y308.616
G01 X172.374 Y308.329
G01 X173.561 Y308.183
G01 X174.710 Y308.176
G01 X175.806 Y308.304
G01 X176.840 Y308.563
G01 X177.800 Y308.946
G01 X178.677 Y309.447
G01 X179.459 Y310.058
G01 X180.139 Y310.772
G01 X180.707 Y311.579
G01 X181.157 Y312.470
G01 X181.482 Y313.434
G01 X181.677 Y314.461
G01 X181.736 Y315.538
G01 X181.655 Y316.655
G01 X181.433 Y317.798
G01 X181.068 Y318.958
G01 X180.559 Y320.120
G01 X179.906 Y321.272
G01 X179.112 Y322.404
G01 X178.179 Y323.501
G01 X177.111 Y324.554
G01 X175.912 Y325.550
G01 X174.589 Y326.478
G01 X173.147 Y327.329
G01 X171.594 Y328.092
G01 X169.940 Y328.759
G01 X168.192 Y329.321
G01 X166.361 Y329.771
G01 X164.456 Y330.102
G01 X162.490 Y330.308
G01 X160.473 Y330.385
G01 X158.417 Y330.330
G01 X156.334 Y330.139
G01 X154.236 Y329.810
G01 X152.136 Y329.345
G01 X150.046 Y328.742
G01 X147.978 Y328.003
G01 X145.944 Y327.132
G01 X143.956 Y326.132
G01 X142.025 Y325.008
G01 X140.163 Y323.765
G01 X138.379 Y322.410
G01 X136.684 Y320.951
G01 X135.086 Y319.396
G01 X133.594 Y317.753
G01 X132.216 Y316.033
G01 X130.958 Y314.247
G01 X129.825 Y312.404
G01 X128.823 Y310.517
G01 X127.955 Y308.597
G01 X127.224 Y306.656
G01 X126.631 Y304.707
G01 X126.178 Y302.761
G01 X125.863 Y300.831
G01 X125.686 Y298.930
G01 X125.642 Y297.068
G01 X125.730 Y295.259
G01 X125.943 Y293.513
G01 X126.277 Y291.841
G01 X126.725 Y290.254
G01 X127.279 Y288.761
G01 X127.932 Y287.372
G01 X128.673 Y286.094
G01 X129.494 Y284.936
G01 X130.384 Y283.904
G01 X131.332 Y283.003
G01 X132.327 Y282.239
G01 X133.357 Y281.615
G01 X134.411 Y281.133
G01 X135.475 Y280.796
G01 X136.538 Y280.604
G01 X137.588 Y280.556
G01 X138.612 Y280.651
G01 X139.599 Y280.886
G01 X140.536 Y281.257
G01 X141.413 Y281.760
G01 X142.218 Y282.389
G01 X142.941 Y283.138
G01 X143.573 Y283.999
G01 X144.104 Y284.963
G01 X144.527 Y286.022
G01 X144.833 Y287.166
G01 X145.017 Y288.384
G01 X145.072 Y289.666
G01 X144.993 Y291.000
G01 X144.778 Y292.375
G01 X144.424 Y293.779
G01 X143.929 Y295.198
G01 X143.292 Y296.622
G01 X142.514 Y298.038
G01 X141.597 Y299.433
G01 X140.543 Y300.796
G01 X139.356 Y302.115
G01 X138.042 Y303.379
G01 X136.605 Y304.576
G01 X135.052 Y305.696
G01 X133.391 Y306.730
G01 X131.630 Y307.669
G01 X129.778 Y308.504
G01 X127.845 Y309.227
G01 X125.842 Y309.832
G01 X123.779 Y310.314
G01 X121.668 Y310.668
G01 X119.520 Y310.889
G01 X117.348 Y310.976
G01 X115.164 Y310.927
G01 X112.980 Y310.741
G01 X110.808 Y310.419
G01 X108.661 Y309.962
G01 X106.550 Y309.373
G01 X104.488 Y308.656
G01 X102.486 Y307.815
G01 X100.555 Y306.856
G01 X98.704 Y305.786
G01 X96.945 Y304.612
G01 X95.286 Y303.343
G01 X93.735 Y301.987
G01 X92.301 Y300.555
G01 X90.989 Y299.056
G01 X89.805 Y297.502
G01 X88.754 Y295.904
G01 X87.840 Y294.273
G01 X87.066 Y292.622
G01 X86.432 Y290.963
G01 X85.941 Y289.308
G01 X85.590 Y287.669
G01 X85.380 Y286.059
G01 X85.306 Y284.489
G01 X85.365 Y282.972
G01 X85.554 Y281.518
G01 X85.865 Y280.139
G01 X86.293 Y278.845
G01 X86.829 Y277.645
G01 X87.467 Y276.549
G01 X88.196 Y275.565
G01 X89.008 Y274.701
G01 X89.890 Y273.963
G01 X90.834 Y273.356
G01 X91.827 Y272.886
G01 X92.858 Y272.556
G01 X93.915 Y272.368
G01 X94.986 Y272.326
G01 X96.057 Y272.428
G01 X97.119 Y272.674
G01 X98.157 Y273.063
G01 X99.160 Y273.592
G01 X100.116 Y274.257
G01 X101.015 Y275.054
G01 X101.844 Y275.977
G01 X102.595 Y277.020
G01 X103.256 Y278.174
G01 X103.820 Y279.431
G01 X104.277 Y280.783
G01 X104.621 Y282.220
G01 X104.844 Y283.731
G01 X104.942 Y285.305
G01 X104.909 Y286.932
G01 X104.742 Y288.598
G01 X104.438 Y290.293
G01 X103.996 Y292.003
G01 X103.414 Y293.718
G01 X102.695 Y295.424
G01 X101.838 Y297.109
G01 X100.848 Y298.761
G01 X99.727 Y300.368
G01 X98.481 Y301.920
G01 X97.115 Y303.405
G01 X95.636 Y304.812
G01 X94.051 Y306.133
G01 X92.369 Y307.357
G01 X90.599 Y308.477
G01 X88.750 Y309.485
G01 X86.833 Y310.374
G01 X84.859 Y311.139
G01 X82.839 Y311.775
G01 X80.785 Y312.279
G01 X78.709 Y312.647
G01 X76.624 Y312.878
G01 X74.541 Y312.971
G01 X72.473 Y312.927
G01 X70.432 Y312.748
G01 X68.431 Y312.436
G01 X66.480 Y311.995
G01 X64.592 Y311.429
G01 X62.776 Y310.745
G01 X61.045 Y309.948
G01 X59.407 Y309.046
G01 X57.871 Y308.048
G01 X56.446 Y306.963
G01 X55.140 Y305.799
G01 X53.958 Y304.569
G01 X52.908 Y303.282
G01 X51.992 Y301.949
G01 X51.216 Y300.583
G01 X50.582 Y299.196
G01 X50.091 Y297.799
G01 X49.744 Y296.406
G01 X49.541 Y295.027
G01 X49.480 Y293.676
G01 X49.558 Y292.364
G01 X49.771 Y291.103
G01 X50.116 Y289.905
G01 X50.586 Y288.779
G01 X51.175 Y287.738
G01 X51.874 Y286.789
G01 X52.677 Y285.943
G01 X53.574 Y285.208
G01 X54.555 Y284.590
G01 X55.610 Y284.098
G01 X56.728 Y283.735
G01 X57.897 Y283.508
G01 X59.107 Y283.419
G01 X60.344 Y283.472
G01 X61.598 Y283.667
G01 X62.854 Y284.006
G01 X64.102 Y284.487
G01 X65.330 Y285.110
G01 X66.524 Y285.871
G01 X67.673 Y286.767
G01 X68.767 Y287.793
G01 X69.794 Y288.943
G01 X70.744 Y290.211
G01 X71.607 Y291.589
G01 X72.374 Y293.068
G01 X73.036 Y294.641
G01 X73.587 Y296.296
G01 X74.020 Y298.024
G01 X74.329 Y299.814
G01 X74.509 Y301.653
G01 X74.557 Y303.532
G01 X74.470 Y305.436
G01 X74.246 Y307.355
G01 X73.886 Y309.275
G01 X73.388 Y311.185
G01 X72.756 Y313.073
G01 X71.992 Y314.926
G01 X71.099 Y316.732
G01 X70.083 Y318.480
G01 X68.948 Y320.160
G01 X67.702 Y321.760
G01 X66.352 Y323.271
G01 X64.906 Y324.684
G01 X63.374 Y325.991
G01 X61.765 Y327.184
G01 X60.090 Y328.256
G01 X58.359 Y329.202
G01 X56.584 Y330.017
G01 X54.776 Y330.697
G01 X52.948 Y331.240
G01 X51.112 Y331.643
G01 X49.281 Y331.907
G01 X47.465 Y332.032
G01 X45.678 Y332.019
G01 X43.932 Y331.871
G01 X42.239 Y331.591
G01 X40.609 Y331.185
G01 X39.053 Y330.658
G01 X37.583 Y330.017
G01 X36.208 Y329.268
G01 X34.936 Y328.421
G01 X33.777 Y327.484
G01 X32.737 Y326.467
G01 X31.824 Y325.381
G01 X31.042 Y324.235
G01 X30.398 Y323.042
G01 X29.893 Y321.814
G01 X29.532 Y320.561
G01 X29.316 Y319.297
G01 X29.244 Y318.034
G01 X29.318 Y316.784
G01 X29.534 Y315.558
G01 X29.891 Y314.369
G01 X30.385 Y313.230
G01 X31.011 Y312.150
G01 X31.763 Y311.141
G01 X32.635 Y310.213
G01 X33.619 Y309.376
G01 X34.707 Y308.639
G01 X35.890 Y308.010
G01 X37.158 Y307.497
G01 X38.502 Y307.106
G01 X39.909 Y306.842
G01 X41.368 Y306.712
G01 X42.868 Y306.717
G01 X44.398 Y306.862
G01 X45.943 Y307.147
G01 X47.493 Y307.572
G01 X49.036 Y308.138
G01 X50.558 Y308.843
G01 X52.048 Y309.683
G01 X53.494 Y310.656
G01 X54.885 Y311.757
G01 X56.209 Y312.979
G01 X57.458 Y314.316
G01 X58.620 Y315.761
G01 X59.686 Y317.305
G01 X60.649 Y318.939
G01 X61.501 Y320.654
G01 X62.235 Y322.438
G01 X62.846 Y324.282
G01 X63.328 Y326.173
G01 X63.679 Y328.100
G01 X63.896 Y330.051
G01 X63.976 Y332.014
G01 X63.919 Y333.976
G01 X63.727 Y335.925
G01 X63.400 Y337.848
G01 X62.941 Y339.735
G01 X62.353 Y341.572
G01 X61.643 Y343.348
G01 X60.814 Y345.054
G01 X59.875 Y346.677
G01 X58.831 Y348.209
G01 X57.693 Y349.640
G01 X56.468 Y350.963
G01 X55.166 Y352.168
G01 X53.798 Y353.251
G01 X52.374 Y354.204
G01 X50.907 Y355.024
G01 X49.407 Y355.706
G01 X47.887 Y356.249
G01 X46.359 Y356.649
G01 X44.835 Y356.908
G01 X43.327 Y357.024
G01 X41.848 Y357.001
G01 X40.410 Y356.839
G01 X39.024 Y356.544
G01 X37.701 Y356.119
G01 X36.453 Y355.571
G01 X35.290 Y354.906
G01 X34.222 Y354.131
G01 X33.257 Y353.255
G01 X32.404 Y352.287
G01 X31.671 Y351.236
G01 X31.063 Y350.113
G01 X30.588 Y348.928
G01 X30.248 Y347.693
G01 X30.049 Y346.420
G01 X29.993 Y345.121
G01 X30.081 Y343.807
G01 X30.313 Y342.492
G01 X30.690 Y341.187
G01 X31.210 Y339.904
G01 X31.869 Y338.655
G01 X32.665 Y337.453
G01 X33.592 Y336.308
G01 X34.646 Y335.231
G01 X35.818 Y334.233
G01 X37.102 Y333.324
G01 X38.489 Y332.512
G01 X39.971 Y331.805
G01 X41.537 Y331.212
G01 X43.178 Y330.738
G01 X44.882 Y330.389
G01 X46.637 Y330.171
G01 X48.433 Y330.086
G01 X50.256 Y330.138
G01 X52.096 Y330.328
G01 X53.938 Y330.655
G01 X55.773 Y331.121
G01 X57.586 Y331.723
G01 X59.366 Y332.459
G01 X61.102 Y333.324
G01 X62.781 Y334.314
G01 X64.393 Y335.424
G01 X65.928 Y336.646
G01 X67.376 Y337.974
G01 X68.727 Y339.398
G01 X69.973 Y340.910
G01 X71.108 Y342.501
G01 X72.123 Y344.158
G01 X73.015 Y345.873
G01 X73.777 Y347.632
G01 X74.405 Y349.426
G01 X74.899 Y351.240
G01 X75.255 Y353.064
G01 X75.473 Y354.885
G01 X75.554 Y356.691
G01 X75.499 Y358.469
G01 X75.311 Y360.207
G01 X74.994 Y361.894
G01 X74.552 Y363.519
G01 X73.991 Y365.069
G01 X73.317 Y366.536
G01 X72.538 Y367.909
G01 X71.662 Y369.178
G01 X70.699 Y370.337
G01 X69.658 Y371.377
G01 X68.549 Y372.291
G01 X67.383 Y373.075
G01 X66.171 Y373.722
G01 X64.926 Y374.230
G01 X63.659 Y374.596
G01 X62.383 Y374.818
G01 X61.108 Y374.896
G01 X59.849 Y374.829
G01 X58.617 Y374.620
G01 X57.424 Y374.272
G01 X56.282 Y373.788
G01 X55.201 Y373.172
G01 X54.194 Y372.431
G01 X53.269 Y371.571
G01 X52.438 Y370.599
G01 X51.709 Y369.523
G01 X51.089 Y368.354
G01 X50.588 Y367.100
G01 X50.211 Y365.772
G01 X49.964 Y364.380
G01 X49.851 Y362.937
G01 X49.877 Y361.453
G01 X50.043 Y359.941
G01 X50.352 Y358.413
G01 X50.804 Y356.881
G01 X51.399 Y355.358
G01 X52.134 Y353.855
G01 X53.007 Y352.385
G01 X54.015 Y350.959
G01 X55.152 Y349.589
G01 X56.413 Y348.285
G01 X57.792 Y347.058
G01 X59.280 Y345.918
G01 X60.870 Y344.874
G01 X62.551 Y343.934
G01 X64.316 Y343.105
G01 X66.152 Y342.394
G01 X68.050 Y341.807
G01 X69.997 Y341.348
G01 X71.982 Y341.022
G01 X73.994 Y340.830
G01 X76.019 Y340.774
G01 X78.045 Y340.856
G01 X80.061 Y341.073
G01 X82.054 Y341.426
G01 X84.011 Y341.910
G01 X85.921 Y342.523
G01 X87.774 Y343.260
G01 X89.556 Y344.114
G01 X91.260 Y345.079
G01 X92.873 Y346.149
G01 X94.389 Y347.314
G01 X95.797 Y348.565
G01 X97.091 Y349.893
G01 X98.264 Y351.288
G01 X99.310 Y352.737
G01 X100.224 Y354.231
G01 X101.004 Y355.757
G01 X101.645 Y357.303
G01 X102.147 Y358.858
G01 X102.508 Y360.408
G01 X102.730 Y361.942
G01 X102.814 Y363.446
G01 X102.763 Y364.911
G01 X102.579 Y366.322
G01 X102.269 Y367.670
G01 X101.837 Y368.944
G01 X101.290 Y370.132
G01 X100.636 Y371.225
G01 X99.882 Y372.214
G01 X99.038 Y373.092
G01 X98.114 Y373.849
G01 X97.120 Y374.480
G01 X96.066 Y374.979
G01 X94.965 Y375.342
G01 X93.827 Y375.564
G01 X92.665 Y375.643
G01 X91.491 Y375.577
G01 X90.317 Y375.366
G01 X89.155 Y375.010
G01 X88.018 Y374.512
G01 X86.917 Y373.873
G01 X85.864 Y373.097
G01 X84.871 Y372.189
G01 X83.949 Y371.155
G01 X83.107 Y370.001
G01 X82.355 Y368.735
G01 X81.703 Y367.365
G01 X81.159 Y365.900
G01 X80.730 Y364.351
G01 X80.422 Y362.726
G01 X80.242 Y361.038
G01 X80.194 Y359.297
G01 X80.282 Y357.515
G01 X80.508 Y355.705
G01 X80.873 Y353.878
G01 X81.380 Y352.047
G01 X82.026 Y350.224
G01 X82.810 Y348.422
G01 X83.730 Y346.652
G01 X84.781 Y344.925
G01 X85.960 Y343.254
G01 X87.260 Y341.650
G01 X88.674 Y340.122
G01 X90.196 Y338.680
G01 X91.816 Y337.334
G01 X93.526 Y336.092
G01 X95.316 Y334.961
G01 X97.176 Y333.948
G01 X99.094 Y333.059
G01 X101.059 Y332.298
G01 X103.060 Y331.669
G01 X105.084 Y331.174
G01 X107.119 Y330.816
G01 X109.153 Y330.595
G01 X111.173 Y330.511
G01 X113.168 Y330.561
G01 X115.125 Y330.743
G01 X117.032 Y331.054
G01 X118.878 Y331.488
G01 X120.653 Y332.040
G01 X122.345 Y332.704
G01 X123.946 Y333.472
G01 X125.445 Y334.336
G01 X126.834 Y335.286
G01 X128.107 Y336.313
G01 X129.256 Y337.407
G01 X130.275 Y338.556
G01 X131.161 Y339.750
G01 X131.909 Y340.977
G01 X132.516 Y342.224
G01 X132.981 Y343.479
G01 X133.303 Y344.731
G01 X133.483 Y345.967
G01 X133.522 Y347.174
G01 X133.423 Y348.341
G01 X133.190 Y349.456
G01 X132.828 Y350.508
G01 X132.341 Y351.486
G01 X131.737 Y352.379
G01 X131.022 Y353.178
G01 X130.206 Y353.874
G01 X129.297 Y354.458
G01 X128.306 Y354.923
G01 X127.241 Y355.263
G01 X126.115 Y355.471
G01 X124.938 Y355.543
G01 X123.723 Y355.476
G01 X122.481 Y355.266
G01 X121.224 Y354.912
G01 X119.965 Y354.414
G01 X118.716 Y353.772
G01 X117.489 Y352.988
G01 X116.295 Y352.065
G01 X115.148 Y351.005
G01 X114.058 Y349.815
G01 X113.035 Y348.499
G01 X112.091 Y347.064
G01 X111.235 Y345.519
G01 X110.476 Y343.870
G01 X109.822 Y342.127
G01 X109.281 Y340.301
G01 X108.859 Y338.400
G01 X108.562 Y336.437
G01 X108.395 Y334.423
G01 X108.361 Y332.369
G01 X108.464 Y330.288
G01 X108.704 Y328.191
G01 X109.081 Y326.092
G01 X109.597 Y324.001
G01 X110.248 Y321.932
G01 X111.033 Y319.897
G01 X111.946 Y317.907
G01 X112.985 Y315.973
G01 X114.143 Y314.107
G01 X115.413 Y312.319
G01 X116.788 Y310.619
G01 X118.260 Y309.016
G01 X119.819 Y307.518
G01 X121.455 Y306.133
G01 X123.159 Y304.867
G01 X124.920 Y303.726
G01 X126.725 Y302.715
G01 X128.564 Y301.838
G01 X130.424 Y301.097
G01 X132.293 Y300.493
G01 X134.158 Y300.028
G01 X136.008 Y299.701
G01 X137.830 Y299.511
G01 X139.613 Y299.454
G01 X141.343 Y299.527
G01 X143.011 Y299.725
G01 X144.605 Y300.043
G01 X146.115 Y300.475
G01 X147.530 Y301.012
G01 X148.843 Y301.646
G01 X150.043 Y302.369
G01 X151.125 Y303.170
G01 X152.082 Y304.040
G01 X152.907 Y304.968
G01 X153.596 Y305.941
G01 X154.145 Y306.949
G01 X154.552 Y307.979
G01 X154.815 Y309.020
G01 X154.933 Y310.058
G01 X154.908 Y311.083
G01 X154.739 Y312.081
G01 X154.431 Y313.040
G01 X153.987 Y313.950
G01 X153.412 Y314.799
G01 X152.710 Y315.575
G01 X151.889 Y316.268
G01 X150.957 Y316.870
G01 X149.921 Y317.370
G01 X148.791 Y317.760
G01 X147.576 Y318.034
G01 X146.287 Y318.184
G01 X144.934 Y318.204
G01 X143.530 Y318.091
G01 X142.085 Y317.840
G01 X140.611 Y317.449
G01 X139.122 Y316.916
G01 X137.629 Y316.241
G01 X136.144 Y315.424
G01 X134.679 Y314.468
G01 X133.247 Y313.373
G01 X131.860 Y312.146
G01 X130.527 Y310.789
G01 X129.262 Y309.309
G01 X128.073 Y307.713
G01 X126.971 Y306.007
G01 X125.965 Y304.201
G01 X125.062 Y302.303
G01 X124.271 Y300.324
G01 X123.598 Y298.273
G01 X123.049 Y296.162
G01 X122.628 Y294.002
G01 X122.340 Y291.804
G01 X122.186 Y289.581
G01 X122.168 Y287.346
G01 X122.287 Y285.109
G01 X122.543 Y282.884
G01 X122.933 Y280.683
G01 X123.456 Y278.518
G01 X124.107 Y276.401
G01 X124.881 Y274.343
G01 X125.773 Y272.354
G01 X126.777 Y270.446
G01 X127.885 Y268.629
G01 X129.088 Y266.910
G01 X130.378 Y265.300
G01 X131.744 Y263.804
G01 X133.177 Y262.430
G01 X134.665 Y261.184
G01 X136.198 Y260.070
G01 X137.762 Y259.092
G01 X139.348 Y258.253
G01 X140.941 Y257.554
G01 X142.530 Y256.996
G01 X144.103 Y256.578
G01 X145.647 Y256.300
G01 X147.151 Y256.157
G01 X148.602 Y256.147
G01 X149.990 Y256.265
G01 X151.303 Y256.505
G01 X152.531 Y256.861
G01 X153.664 Y257.325
G01 X154.694 Y257.889
G01 X155.612 Y258.544
G01 X156.410 Y259.281
G01 X157.082 Y260.088
G01 X157.622 Y260.955
G01 X158.026 Y261.871
G01 X158.289 Y262.824
G01 X158.410 Y263.802
G01 X158.386 Y264.793
G01 X158.217 Y265.784
G01 X157.904 Y266.764
G01 X157.448 Y267.720
G01 X156.852 Y268.641
G01 X156.119 Y269.514
G01 X155.254 Y270.328
G01 X154.264 Y271.073
G01 X153.154 Y271.737
G01 X151.932 Y272.312
G01 X150.606 Y272.789
G01 X149.186 Y273.158
G01 X147.681 Y273.413
G01 X146.102 Y273.547
G01 X144.459 Y273.554
G01 X142.764 Y273.431
G01 X141.028 Y273.172
G01 X139.264 Y272.775
G01 X137.484 Y272.240
G01 X135.700 Y271.565
G01 X133.924 Y270.750
G01 X132.169 Y269.799
G01 X130.447 Y268.712
G01 X128.769 Y267.495
G01 X127.147 Y266.151
G01 X125.591 Y264.687
G01 X124.112 Y263.109
G01 X122.721 Y261.424
G01 X121.425 Y259.641
G01 X120.233 Y257.770
G01 X119.153 Y255.819
G01 X118.191 Y253.799
G01 X117.353 Y251.722
G01 X116.644 Y249.598
G01 X116.068 Y247.440
G01 X115.626 Y245.259
G01 X115.322 Y243.067
G01 X115.154 Y240.878
G01 X115.124 Y238.702
G01 X115.228 Y236.554
G01 X115.465 Y234.443
G01 X115.831 Y232.383
G01 X116.321 Y230.384
G01 X116.930 Y228.458
G01 X117.651 Y226.615
G01 X118.476 Y224.865
G01 X119.397 Y223.217
G01 X120.405 Y221.679
G01 X121.491 Y220.258
G01 X122.644 Y218.962
G01 X123.853 Y217.796
G01 X125.106 Y216.765
G01 X126.393 Y215.872
G01 X127.701 Y215.120
G01 X129.018 Y214.511
G01 X130.332 Y214.046
G01 X131.630 Y213.724
G01 X132.901 Y213.543
G01 X134.131 Y213.500
G01 X135.311 Y213.593
G01 X136.427 Y213.816
G01 X137.470 Y214.164
G01 X138.429 Y214.630
G01 X139.294 Y215.206
G01 X140.057 Y215.885
G01 X140.708 Y216.657
G01 X141.241 Y217.513
G01 X141.649 Y218.442
G01 X141.926 Y219.434
G01 X142.068 Y220.477
G01 X142.071 Y221.559
G01 X141.932 Y222.668
G01 X141.649 Y223.793
G01 X141.223 Y224.920
G01 X140.654 Y226.039
G01 X139.943 Y227.136
G01 X139.093 Y228.199
G01 X138.108 Y229.218
G01 X136.992 Y230.180
G01 X135.752 Y231.074
G01 X134.394 Y231.891
G01 X132.925 Y232.621
G01 X131.353 Y233.254
G01 X129.689 Y233.782
G01 X127.941 Y234.199
G01 X126.120 Y234.496
G01 X124.237 Y234.669
G01 X122.303 Y234.713
G01 X120.331 Y234.624
G01 X118.331 Y234.400
G01 X116.317 Y234.038
G01 X114.300 Y233.539
G01 X112.294 Y232.903
G01 X110.309 Y232.132
G01 X108.359 Y231.228
G01 X106.455 Y230.196
G01 X104.608 Y229.039
G01 X102.830 Y227.763
G01 X101.130 Y226.376
G01 X99.518 Y224.884
G01 X98.004 Y223.296
G01 X96.597 Y221.621
G01 X95.302 Y219.869
G01 X94.128 Y218.051
G01 X93.079 Y216.176
G01 X92.161 Y214.257
G01 X91.377 Y212.305
G01 X90.730 Y210.332
G01 X90.222 Y208.351
G01 X89.852 Y206.373
G01 X89.622 Y204.412
G01 X89.528 Y202.479
G01 X89.569 Y200.586
G01 X89.741 Y198.745
G01 X90.039 Y196.967
G01 X90.457 Y195.264
G01 X90.989 Y193.646
G01 X91.627 Y192.122
G01 X92.364 Y190.702
G01 X93.190 Y189.393
G01 X94.095 Y188.204
G01 X95.070 Y187.141
G01 X96.102 Y186.210
G01 X97.182 Y185.415
G01 X98.296 Y184.760
G01 X99.434 Y184.248
G01 X100.583 Y183.880
G01 X101.731 Y183.657
G01 X102.865 Y183.579
G01 X103.974 Y183.644
G01 X105.045 Y183.848
G01 X106.067 Y184.190
G01 X107.029 Y184.663
G01 X107.918 Y185.262
G01 X108.727 Y185.981
G01 X109.443 Y186.812
G01 X110.060 Y187.746
G01 X110.567 Y188.775
G01 X110.958 Y189.890
G01 X111.226 Y191.078
G01 X111.366 Y192.331
G01 X111.373 Y193.636
G01 X111.243 Y194.981
G01 X110.974 Y196.356
G01 X110.563 Y197.746
G01 X110.011 Y199.141
G01 X109.319 Y200.528
G01 X108.487 Y201.894
G01 X107.518 Y203.228
G01 X106.417 Y204.519
G01 X105.187 Y205.753
G01 X103.835 Y206.922
G01 X102.368 Y208.014
G01 X100.792 Y209.019
G01 X99.116 Y209.929
G01 X97.350 Y210.736
G01 X95.502 Y211.431
G01 X93.584 Y212.008
G01 X91.607 Y212.462
G01 X89.581 Y212.787
G01 X87.519 Y212.981
G01 X85.432 Y213.040
G01 X83.333 Y212.963
G01 X81.235 Y212.749
G01 X79.148 Y212.399
G01 X77.087 Y211.915
G01 X75.062 Y211.298
G01 X73.085 Y210.554
G01 X71.169 Y209.685
G01 X69.323 Y208.699
G01 X67.559 Y207.602
G01 X65.885 Y206.401
G01 X64.312 Y205.105
G01 X62.847 Y203.722
G01 X61.498 Y202.263
G01 X60.272 Y200.737
G01 X59.174 Y199.156
G01 X58.209 Y197.531
G01 X57.381 Y195.874
G01 X56.692 Y194.196
G01 X56.145 Y192.511
G01 X55.739 Y190.829
G01 X55.474 Y189.164
G01 X55.350 Y187.528
G01 X55.362 Y185.932
G01 X55.507 Y184.388
G01 X55.782 Y182.909
G01 X56.179 Y181.504
G01 X56.693 Y180.184
G01 X57.316 Y178.958
G01 X58.040 Y177.837
G01 X58.855 Y176.827
G01 X59.752 Y175.937
G01 X60.721 Y175.173
G01 X61.751 Y174.541
G01 X62.831 Y174.046
G01 X63.948 Y173.690
G01 X65.091 Y173.478
G01 X66.248 Y173.410
G01 X67.406 Y173.487
G01 X68.554 Y173.708
G01 X69.678 Y174.072
G01 X70.767 Y174.577
G01 X71.810 Y175.217
G01 X72.795 Y175.990
G01 X73.711 Y176.888
G01 X74.548 Y177.906
G01 X75.296 Y179.035
G01 X75.946 Y180.269
G01 X76.490 Y181.596
G01 X76.921 Y183.009
G01 X77.231 Y184.496
G01 X77.415 Y186.046
G01 X77.469 Y187.648
G01 X77.388 Y189.291
G01 X77.171 Y190.962
G01 X76.815 Y192.649
G01 X76.321 Y194.339
G01 X75.688 Y196.021
G01 X74.918 Y197.683
G01 X74.015 Y199.312
G01 X72.981 Y200.896
G01 X71.821 Y202.424
G01 X70.542 Y203.886
G01 X69.150 Y205.270
G01 X67.652 Y206.567
G01 X66.057 Y207.769
G01 X64.373 Y208.866
G01 X62.611 Y209.851
G01 X60.781 Y210.717
G01 X58.894 Y211.460
G01 X56.961 Y212.073
G01 X54.995 Y212.554
G01 X53.006 Y212.899
G01 X51.007 Y213.108
G01 X49.012 Y213.179
G01 X47.031 Y213.113
G01 X45.077 Y212.912
G01 X43.163 Y212.578
G01 X41.299 Y212.114
G01 X39.498 Y211.527
G01 X37.770 Y210.820
G01 X36.125 Y210.002
G01 X34.575 Y209.079
G01 X33.126 Y208.059
G01 X31.789 Y206.952
G01 X30.569 Y205.767
G01 X29.475 Y204.515
G01 X28.512 Y203.206
G01 X27.684 Y201.853
G01 X26.995 Y200.466
G01 X26.448 Y199.057
G01 X26.045 Y197.640
G01 X25.786 Y196.225
G01 X25.670 Y194.826
G01 X25.696 Y193.454
G01 X25.861 Y192.121
G01 X26.162 Y190.840
G01 X26.595 Y189.621
G01 X27.152 Y188.475
G01 X27.828 Y187.413
G01 X28.616 Y186.444
G01 X29.506 Y185.578
G01 X30.490 Y184.822
G01 X31.559 Y184.185
G01 X32.702 Y183.672
G01 X33.907 Y183.289
G01 X35.164 Y183.042
G01 X36.462 Y182.934
G01 X37.787 Y182.966
G01 X39.128 Y183.142
G01 X40.472 Y183.461
G01 X41.808 Y183.923
G01 X43.123 Y184.526
G01 X44.405 Y185.268
G01 X45.642 Y186.145
G01 X46.824 Y187.151
G01 X47.939 Y188.283
G01 X48.976 Y189.531
G01 X49.927 Y190.890
G01 X50.782 Y192.351
G01 X51.532 Y193.905
G01 X52.171 Y195.542
G01 X52.692 Y197.251
G01 X53.089 Y199.022
G01 X53.357 Y200.843
G01 X53.493 Y202.703
G01 X53.494 Y204.589
G01 X53.358 Y206.489
G01 X53.085 Y208.392
G01 X52.676 Y210.284
G01 X52.132 Y212.153
G01 X51.456 Y213.988
G01 X50.651 Y215.776
G01 X49.723 Y217.507
G01 X48.676 Y219.168
G01 X47.518 Y220.751
G01 X46.257 Y222.245
G01 X44.899 Y223.641
G01 X43.455 Y224.930
G01 X41.934 Y226.105
G01 X40.347 Y227.160
G01 X38.704 Y228.089
G01 X37.017 Y228.887
G01 X35.298 Y229.550
G01 X33.559 Y230.075
G01 X31.811 Y230.462
G01 X30.068 Y230.709
G01 X28.341 Y230.817
G01 X26.642 Y230.787
G01 X24.984 Y230.623
G01 X23.379 Y230.327
G01 X21.837 Y229.904
G01 X20.370 Y229.361
G01 X18.989 Y228.703
G01 X17.702 Y227.938
G01 X16.518 Y227.075
G01 X15.448 Y226.122
G01 X14.496 Y225.089
G01 X13.671 Y223.987
G01 X12.979 Y222.826
G01 X12.422 Y221.617
G01 X12.007 Y220.373
G01 X11.734 Y219.105
G01 X11.606 Y217.826
G01 X11.623 Y216.547
G01 X11.785 Y215.281
G01 X12.090 Y214.040
G01 X12.536 Y212.836
G01 X13.118 Y211.681
G01 X13.833 Y210.586
G01 X14.673 Y209.562
G01 X15.634 Y208.620
G01 X16.707 Y207.768
G01 X17.884 Y207.016
G01 X19.155 Y206.373
G01 X20.512 Y205.845
G01 X21.944 Y205.439
G01 X23.440 Y205.162
G01 X24.988 Y205.017
G01 X26.577 Y205.008
G01 X28.195 Y205.138
G01 X29.830 Y205.409
G01 X31.469 Y205.821
G01 X33.100 Y206.373
G01 X34.711 Y207.063
G01 X36.289 Y207.890
G01 X37.824 Y208.849
G01 X39.304 Y209.936
G01 X40.717 Y211.145
G01 X42.055 Y212.468
G01 X43.305 Y213.900
G01 X44.461 Y215.431
G01 X45.513 Y217.052
G01 X46.454 Y218.753
G01 X47.277 Y220.525
G01 X47.976 Y222.355
G01 X48.548 Y224.234
G01 X48.988 Y226.148
G01 X49.293 Y228.086
G01 X49.462 Y230.036
G01 X49.495 Y231.985
G01 X49.391 Y233.921
G01 X49.153 Y235.833
G01 X48.783 Y237.706
G01 X48.285 Y239.531
G01 X47.663 Y241.296
G01 X46.924 Y242.989
G01 X46.073 Y244.600
G01 X45.119 Y246.120
G01 X44.070 Y247.540
G01 X42.934 Y248.850
G01 X41.721 Y250.044
G01 X40.442 Y251.114
G01 X39.108 Y252.056
G01 X37.729 Y252.865
G01 X36.319 Y253.536
G01 X34.888 Y254.067
G01 X33.449 Y254.456
G01 X32.014 Y254.703
G01 X30.596 Y254.808
G01 X29.206 Y254.774
G01 X27.857 Y254.601
G01 X26.560 Y254.295
G01 X25.326 Y253.860
G01 X24.168 Y253.301
G01 X23.094 Y252.625
G01 X22.115 Y251.840
G01 X21.239 Y250.953
G01 X20.476 Y249.974
G01 X19.831 Y248.913
G01 X19.313 Y247.779
G01 X18.927 Y246.585
G01 X18.677 Y245.340
G01 X18.567 Y244.057
G01 X18.600 Y242.747
G01 X18.777 Y241.424
G01 X19.099 Y240.098
G01 X19.566 Y238.783
G01 X20.175 Y237.491
G01 X20.923 Y236.233
G01 X21.809 Y235.021
G01 X22.825 Y233.867
G01 X23.968 Y232.781
G01 X25.230 Y231.773
G01 X26.603 Y230.855
G01 X28.080 Y230.033
G01 X29.651 Y229.318
G01 X31.307 Y228.715
G01 X33.037 Y228.233
G01 X34.830 Y227.875
G01 X36.675 Y227.648
G01 X38.560 Y227.555
G01 X40.473 Y227.598
G01 X42.402 Y227.779
G01 X44.334 Y228.099
G01 X46.258 Y228.556
G01 X48.161 Y229.150
G01 X50.030 Y229.877
G01 X51.855 Y230.734
G01 X53.624 Y231.716
G01 X55.326 Y232.818
G01 X56.950 Y234.033
G01 X58.488 Y235.352
G01 X59.928 Y236.769
G01 X61.265 Y238.274
G01 X62.489 Y239.856
G01 X63.594 Y241.506
G01 X64.574 Y243.213
G01 X65.426 Y244.966
G01 X66.145 Y246.752
G01 X66.727 Y248.559
G01 X67.173 Y250.376
G01 X67.481 Y252.190
G01 X67.652 Y253.989
G01 X67.686 Y255.760
G01 X67.588 Y257.491
G01 X67.360 Y259.172
G01 X67.008 Y260.790
G01 X66.536 Y262.334
G01 X65.952 Y263.794
G01 X65.263 Y265.160
G01 X64.477 Y266.424
G01 X63.603 Y267.576
G01 X62.652 Y268.610
G01 X61.632 Y269.518
G01 X60.556 Y270.296
G01 X59.434 Y270.937
G01 X58.279 Y271.439
G01 X57.102 Y271.799
G01 X55.915 Y272.016
G01 X54.730 Y272.088
G01 X53.561 Y272.016
G01 X52.419 Y271.802
G01 X51.315 Y271.448
G01 X50.262 Y270.958
G01 X49.272 Y270.337
G01 X48.354 Y269.591
G01 X47.519 Y268.725
G01 X46.778 Y267.749
G01 X46.138 Y266.668
G01 X45.609 Y265.494
G01 X45.197 Y264.235
G01 X44.910 Y262.902
G01 X44.752 Y261.506
G01 X44.730 Y260.058
G01 X44.845 Y258.570
G01 X45.101 Y257.054
G01 X45.500 Y255.522
G01 X46.042 Y253.985
G01 X46.726 Y252.458
G01 X47.551 Y250.951
G01 X48.514 Y249.477
G01 X49.612 Y248.047
G01 X50.839 Y246.673
G01 X52.190 Y245.366
G01 X53.658 Y244.136
G01 X55.236 Y242.992
G01 X56.915 Y241.944
G01 X58.687 Y241.000
G01 X60.541 Y240.168
G01 X62.467 Y239.454
G01 X64.455 Y238.864
G01 X66.492 Y238.402
G01 X68.567 Y238.073
G01 X70.669 Y237.878
G01 X72.783 Y237.819
G01 X74.900 Y237.898
G01 X77.005 Y238.113
G01 X79.088 Y238.463
G01 X81.135 Y238.945
G01 X83.135 Y239.555
G01 X85.077 Y240.289
G01 X86.950 Y241.141
G01 X88.743 Y242.105
G01 X90.447 Y243.172
G01 X92.052 Y244.335
G01 X93.550 Y245.584
G01 X94.934 Y246.910
G01 X96.196 Y248.303
G01 X97.332 Y249.751
G01 X98.337 Y251.243
G01 X99.206 Y252.767
G01 X99.937 Y254.312
G01 X100.529 Y255.865
G01 X100.980 Y257.414
G01 X101.292 Y258.946
G01 X101.466 Y260.450
G01 X101.504 Y261.913
G01 X101.411 Y263.323
G01 X101.190 Y264.670
G01 X100.848 Y265.943
G01 X100.391 Y267.130
G01 X99.827 Y268.223
G01 X99.163 Y269.211
G01 X98.409 Y270.088
G01 X97.575 Y270.845
G01 X96.670 Y271.475
G01 X95.707 Y271.974
G01 X94.695 Y272.336
G01 X93.647 Y272.558
G01 X92.575 Y272.637
G01 X91.491 Y272.571
G01 X90.406 Y272.360
G01 X89.335 Y272.005
G01 X88.287 Y271.506
G01 X87.276 Y270.868
G01 X86.314 Y270.092
G01 X85.411 Y269.185
G01 X84.578 Y268.151
G01 X83.826 Y266.998
G01 X83.164 Y265.733
G01 X82.602 Y264.364
G01 X82.148 Y262.900
G01 X81.808 Y261.351
G01 X81.591 Y259.727
G01 X81.500 Y258.040
G01 X81.542 Y256.300
G01 X81.720 Y254.520
G01 X82.036 Y252.711
G01 X82.491 Y250.885
G01 X83.088 Y249.056
G01 X83.824 Y247.234
G01 X84.698 Y245.433
G01 X85.707 Y243.665
G01 X86.849 Y241.940
G01 X88.117 Y240.271
G01 X89.507 Y238.668
G01 X91.011 Y237.142
G01 X92.623 Y235.703
G01 X94.333 Y234.359
G01 X96.133 Y233.119
G01 X98.013 Y231.991
G01 X99.962 Y230.980
G01 X101.970 Y230.093
G01 X104.025 Y229.335
G01 X106.115 Y228.708
G01 X108.229 Y228.217
G01 X110.354 Y227.862
G01 X112.478 Y227.643
G01 X114.588 Y227.562
G01 X116.673 Y227.615
G01 X118.719 Y227.800
G01 X120.717 Y228.114
G01 X122.653 Y228.551
G01 X124.517 Y229.107
G01 X126.299 Y229.775
G01 X127.990 Y230.546
G01 X129.578 Y231.413
G01 X131.058 Y232.367
G01 X132.420 Y233.398
G01 X133.659 Y234.495
G01 X134.768 Y235.649
G01 X135.744 Y236.847
G01 X136.581 Y238.077
G01 X137.278 Y239.328
G01 X137.833 Y240.588
G01 X138.245 Y241.844
G01 X138.515 Y243.084
G01 X138.644 Y244.296
G01 X138.635 Y245.467
G01 X138.492 Y246.587
G01 X138.219 Y247.644
G01 X137.822 Y248.626
G01 X137.307 Y249.524
G01 X136.682 Y250.328
G01 X135.956 Y251.029
G01 X135.137 Y251.618
G01 X134.235 Y252.088
G01 X133.260 Y252.433
G01 X132.224 Y252.647
G01 X131.137 Y252.724
G01 X130.011 Y252.662
G01 X128.859 Y252.458
G01 X127.692 Y252.110
G01 X126.523 Y251.617
G01 X125.363 Y250.981
G01 X124.226 Y250.203
G01 X123.122 Y249.285
G01 X122.064 Y248.232
G01 X121.064 Y247.048
G01 X120.131 Y245.738
G01 X119.276 Y244.310
G01 X118.510 Y242.770
G01 X117.840 Y241.128
G01 X117.276 Y239.392
G01 X116.825 Y237.572
G01 X116.493 Y235.678
G01 X116.285 Y233.722
G01 X116.208 Y231.714
G01 X116.264 Y229.667
G01 X116.456 Y227.593
G01 X116.785 Y225.503
G01 X117.253 Y223.410
G01 X117.858 Y221.327
G01 X118.599 Y219.266
G01 X119.473 Y217.237
G01 X120.476 Y215.255
G01 X121.604 Y213.329
G01 X122.852 Y211.470
G01 X124.211 Y209.690
G01 X125.676 Y207.998
G01 X127.237 Y206.403
G01 X128.886 Y204.912
G01 X130.612 Y203.535
G01 X132.406 Y202.277
G01 X134.255 Y201.145
G01 X136.150 Y200.142
G01 X138.079 Y199.273
G01 X140.028 Y198.540
G01 X141.986 Y197.945
G01 X143.941 Y197.488
G01 X145.881 Y197.170
G01 X147.792 Y196.988
G01 X149.664 Y196.940
G01 X151.484 Y197.022
G01 X153.242 Y197.229
G01 X154.925 Y197.556
G01 X156.524 Y197.996
G01 X158.029 Y198.543
G01 X159.431 Y199.186
G01 X160.721 Y199.918
G01 X161.892 Y200.729
G01 X162.938 Y201.608
G01 X163.853 Y202.545
G01 X164.631 Y203.528
G01 X165.270 Y204.546
G01 X165.766 Y205.586
G01 X166.118 Y206.636
G01 X166.326 Y207.685
G01 X166.390 Y208.719
G01 X166.311 Y209.727
G01 X166.092 Y210.697
G01 X165.737 Y211.617
G01 X165.251 Y212.476
G01 X164.639 Y213.262
G01 X163.907 Y213.966
G01 X163.064 Y214.578
G01 X162.117 Y215.089
G01 X161.076 Y215.490
G01 X159.951 Y215.774
G01 X158.751 Y215.935
G01 X157.488 Y215.966
G01 X156.172 Y215.864
G01 X154.816 Y215.624
G01 X153.432 Y215.244
G01 X152.032 Y214.723
G01 X150.628 Y214.059
G01 X149.232 Y213.254
G01 X147.857 Y212.308
G01 X146.514 Y211.226
G01 X145.215 Y210.010
G01 X143.972 Y208.664
G01 X142.796 Y207.196
G01 X141.696 Y205.612
G01 X140.683 Y203.918
G01 X139.766 Y202.124
G01 X138.953 Y200.239
G01 X138.251 Y198.271
G01 X137.667 Y196.233
G01 X137.207 Y194.134
G01 X136.875 Y191.986
G01 X136.675 Y189.801
G01 X136.610 Y187.591
G01 X136.682 Y185.368
G01 X136.890 Y183.144
G01 X137.235 Y180.932
G01 X137.714 Y178.744
G01 X138.325 Y176.592
G01 X139.065 Y174.487
G01 X139.928 Y172.442
G01 X140.910 Y170.467
G01 X142.002 Y168.572
G01 X143.199 Y166.768
G01 X144.491 Y165.063
G01 X145.870 Y163.466
G01 X147.325 Y161.984
G01 X148.847 Y160.623
G01 X150.424 Y159.391
G01 X152.045 Y158.291
G01 X153.698 Y157.327
G01 X155.372 Y156.501
G01 X157.054 Y155.816
G01 X158.732 Y155.272
G01 X160.394 Y154.869
G01 X162.027 Y154.605
G01 X163.619 Y154.476
G01 X165.159 Y154.481
G01 X166.636 Y154.613
G01 X168.038 Y154.868
G01 X169.354 Y155.239
G01 X170.577 Y155.718
G01 X171.695 Y156.296
G01 X172.701 Y156.966
G01 X173.588 Y157.718
G01 X174.349 Y158.540
G01 X174.978 Y159.422
G01 X175.470 Y160.353
G01 X175.822 Y161.321
G01 X176.031 Y162.315
G01 X176.096 Y163.321
G01 X176.016 Y164.328
G01 X175.791 Y165.323
G01 X175.423 Y166.295
G01 X174.915 Y167.231
G01 X174.271 Y168.120
G01 X173.495 Y168.950
G01 X172.593 Y169.711
G01 X171.571 Y170.391
G01 X170.438 Y170.983
G01 X169.201 Y171.475
G01 X167.869 Y171.861
G01 X166.452 Y172.132
G01 X164.961 Y172.283
G01 X163.407 Y172.307
G01 X161.800 Y172.199
G01 X160.153 Y171.957
G01 X158.477 Y171.577
G01 X156.785 Y171.059
G01 X155.090 Y170.400
G01 X153.402 Y169.603
G01 X151.736 Y168.668
G01 X150.101 Y167.599
G01 X148.512 Y166.399
G01 X146.978 Y165.072
G01 X145.510 Y163.625
G01 X144.120 Y162.065
G01 X142.816 Y160.398
G01 X141.608 Y158.632
G01 X140.505 Y156.779
G01 X139.513 Y154.845
G01 X138.639 Y152.844
G01 X137.889 Y150.784
G01 X137.269 Y148.679
G01 X136.780 Y146.538
G01 X136.427 Y144.375
G01 X136.210 Y142.202
G01 X136.131 Y140.031
G01 X136.188 Y137.874
G01 X136.380 Y135.743
G01 X136.705 Y133.651
G01 X137.159 Y131.610
G01 X137.737 Y129.630
G01 X138.434 Y127.722
G01 X139.242 Y125.898
G01 X140.155 Y124.167
G01 X141.165 Y122.537
G01 X142.261 Y121.018
G01 X143.434 Y119.617
G01 X144.675 Y118.340
G01 X145.972 Y117.193
G01 X147.313 Y116.181
G01 X148.688 Y115.308
G01 X150.084 Y114.576
G01 X151.488 Y113.987
G01 X152.890 Y113.541
G01 X154.276 Y113.238
G01 X155.634 Y113.077
G01 X156.952 Y113.054
G01 X158.219 Y113.167
G01 X159.423 Y113.410
G01 X160.554 Y113.778
G01 X161.600 Y114.264
G01 X162.553 Y114.861
G01 X163.403 Y115.560
G01 X164.142 Y116.353
G01 X164.763 Y117.229
G01 X165.258 Y118.179
G01 X165.623 Y119.191
G01 X165.852 Y120.254
G01 X165.942 Y121.357
G01 X165.890 Y122.488
G01 X165.696 Y123.633
G01 X165.357 Y124.782
G01 X164.875 Y125.921
G01 X164.251 Y127.040
G01 X163.489 Y128.124
G01 X162.591 Y129.164
G01 X161.563 Y130.147
G01 X160.410 Y131.064
G01 X159.138 Y131.902
G01 X157.757 Y132.653
G01 X156.273 Y133.308
G01 X154.695 Y133.858
G01 X153.035 Y134.296
G01 X151.301 Y134.616
G01 X149.505 Y134.811
G01 X147.658 Y134.877
G01 X145.773 Y134.810
G01 X143.861 Y134.608
G01 X141.933 Y134.269
G01 X140.004 Y133.792
G01 X138.084 Y133.179
G01 X136.187 Y132.430
G01 X134.324 Y131.549
G01 X132.507 Y130.539
G01 X130.747 Y129.405
G01 X129.055 Y128.152
G01 X127.442 Y126.788
G01 X125.918 Y125.319
G01 X124.491 Y123.754
G01 X123.170 Y122.102
G01 X121.962 Y120.374
G01 X120.874 Y118.578
G01 X119.912 Y116.727
G01 X119.081 Y114.831
G01 X118.384 Y112.903
G01 X117.824 Y110.953
G01 X117.402 Y108.996
G01 X117.119 Y107.042
G01 X116.975 Y105.105
G01 X116.969 Y103.195
G01 X117.096 Y101.326
G01 X117.354 Y99.510
G01 X117.739 Y97.756
G01 X118.244 Y96.077
G01 X118.862 Y94.483
G01 X119.587 Y92.984
G01 X120.411 Y91.588
G01 X121.323 Y90.304
G01 X122.315 Y89.139
G01 X123.375 Y88.101
G01 X124.494 Y87.194
G01 X125.660 Y86.424
G01 X126.861 Y85.794
G01 X128.086 Y85.307
G01 X129.321 Y84.964
G01 X130.555 Y84.767
G01 X131.776 Y84.714
G01 X132.971 Y84.804
G01 X134.128 Y85.034
G01 X135.236 Y85.400
G01 X136.284 Y85.899
G01 X137.260 Y86.524
G01 X138.154 Y87.268
G01 X138.957 Y88.125
G01 X139.659 Y89.085
G01 X140.253 Y90.140
G01 X140.730 Y91.280
G01 X141.084 Y92.495
G01 X141.310 Y93.774
G01 X141.403 Y95.105
G01 X141.359 Y96.477
G01 X141.175 Y97.877
G01 X140.851 Y99.294
G01 X140.385 Y100.716
G01 X139.778 Y102.129
G01 X139.032 Y103.522
G01 X138.149 Y104.883
G01 X137.134 Y106.200
G01 X135.990 Y107.461
G01 X134.724 Y108.657
G01 X133.342 Y109.775
G01 X131.852 Y110.808
G01 X130.262 Y111.745
G01 X128.581 Y112.579
G01 X126.820 Y113.301
G01 X124.987 Y113.906
G01 X123.095 Y114.387
G01 X121.155 Y114.740
G01 X119.178 Y114.961
G01 X117.177 Y115.048
G01 X115.164 Y114.999
G01 X113.151 Y114.813
G01 X111.150 Y114.491
G01 X109.174 Y114.034
G01 X107.234 Y113.446
G01 X105.343 Y112.729
G01 X103.512 Y111.889
G01 X101.751 Y110.932
G01 X100.072 Y109.863
G01 X98.484 Y108.690
G01 X96.996 Y107.422
G01 X95.616 Y106.068
G01 X94.352 Y104.637
G01 X93.211 Y103.140
G01 X92.198 Y101.588
G01 X91.319 Y99.992
G01 X90.576 Y98.364
G01 X89.972 Y96.715
G01 X89.510 Y95.058
G01 X89.189 Y93.406
G01 X89.010 Y91.770
G01 X88.970 Y90.163
G01 X89.067 Y88.597
G01 X89.298 Y87.083
G01 X89.657 Y85.633
G01 X90.139 Y84.257
G01 X90.738 Y82.967
G01 X91.446 Y81.771
G01 X92.254 Y80.679
G01 X93.154 Y79.700
G01 X94.136 Y78.840
G01 X95.190 Y78.106
G01 X96.305 Y77.504
G01 X97.469 Y77.039
G01 X98.671 Y76.714
G01 X99.899 Y76.531
G01 X101.140 Y76.494
G01 X102.383 Y76.601
G01 X103.615 Y76.853
G01 X104.823 Y77.248
G01 X105.997 Y77.783
G01 X107.125 Y78.454
G01 X108.194 Y79.258
G01 X109.195 Y80.187
G01 X110.116 Y81.236
G01 X110.948 Y82.396
G01 X111.683 Y83.661
G01 X112.311 Y85.020
G01 X112.825 Y86.464
G01 X113.220 Y87.982
G01 X113.488 Y89.563
G01 X113.626 Y91.197
G01 X113.630 Y92.871
G01 X113.497 Y94.574
G01 X113.225 Y96.293
G01 X112.815 Y98.015
G01 X112.266 Y99.729
G01 X111.580 Y101.422
G01 X110.761 Y103.083
G01 X109.811 Y104.700
G01 X108.735 Y106.260
G01 X107.540 Y107.754
G01 X106.232 Y109.170
G01 X104.818 Y110.500
G01 X103.306 Y111.734
G01 X101.706 Y112.864
G01 X100.028 Y113.881
G01 X98.282 Y114.780
G01 X96.479 Y115.556
G01 X94.629 Y116.202
G01 X92.746 Y116.716
G01 X90.841 Y117.094
G01 X88.926 Y117.336
G01 X87.014 Y117.440
G01 X85.117 Y117.407
G01 X83.247 Y117.239
G01 X81.416 Y116.938
G01 X79.635 Y116.509
G01 X77.918 Y115.954
G01 X76.273 Y115.282
G01 X74.712 Y114.497
G01 X73.244 Y113.607
G01 X71.879 Y112.621
G01 X70.625 Y111.548
G01 X69.489 Y110.397
G01 X68.478 Y109.179
G01 X67.598 Y107.905
G01 X66.853 Y106.585
G01 X66.248 Y105.232
G01 X65.784 Y103.858
G01 X65.463 Y102.475
G01 X65.287 Y101.095
G01 X65.254 Y99.730
G01 X65.363 Y98.392
G01 X65.612 Y97.094
G01 X65.996 Y95.848
G01 X66.511 Y94.663
G01 X67.151 Y93.552
G01 X67.910 Y92.525
G01 X68.780 Y91.592
G01 X69.754 Y90.760
G01 X70.821 Y90.040
G01 X71.972 Y89.438
G01 X73.197 Y88.960
G01 X74.485 Y88.613
G01 X75.825 Y88.401
G01 X77.205 Y88.328
G01 X78.613 Y88.397
G01 X80.036 Y88.608
G01 X81.463 Y88.963
G01 X82.881 Y89.461
G01 X84.279 Y90.100
G01 X85.643 Y90.878
G01 X86.963 Y91.790
G01 X88.227 Y92.833
G01 X89.424 Y94.000
G01 X90.544 Y95.285
G01 X91.577 Y96.681
G01 X92.514 Y98.178
G01 X93.346 Y99.768
G01 X94.068 Y101.441
G01 X94.670 Y103.187
G01 X95.149 Y104.995
G01 X95.499 Y106.853
G01 X95.717 Y108.749
G01 X95.800 Y110.672
G01 X95.746 Y112.610
G01 X95.556 Y114.549
G01 X95.228 Y116.478
G01 X94.766 Y118.385
G01 X94.172 Y120.257
G01 X93.449 Y122.082
G01 X92.602 Y123.850
G01 X91.637 Y125.549
G01 X90.561 Y127.170
G01 X89.381 Y128.701
G01 X88.105 Y130.134
G01 X86.742 Y131.461
G01 X85.303 Y132.675
G01 X83.797 Y133.768
G01 X82.236 Y134.734
G01 X80.631 Y135.570
G01 X78.993 Y136.271
G01 X77.335 Y136.835
G01 X75.669 Y137.260
G01 X74.007 Y137.545
G01 X72.361 Y137.691
G01 X70.744 Y137.700
G01 X69.167 Y137.574
G01 X67.643 Y137.317
G01 X66.182 Y136.933
G01 X64.797 Y136.428
G01 X63.496 Y135.809
G01 X62.290 Y135.084
G01 X61.188 Y134.259
G01 X60.198 Y133.345
G01 X59.328 Y132.351
G01 X58.584 Y131.288
G01 X57.972 Y130.166
G01 X57.496 Y128.997
G01 X57.161 Y127.792
G01 X56.969 Y126.564
G01 X56.922 Y125.324
G01 X57.020 Y124.085
G01 X57.263 Y122.858
G01 X57.649 Y121.657
G01 X58.175 Y120.493
G01 X58.838 Y119.378
G01 X59.632 Y118.323
G01 X60.554 Y117.339
G01 X61.595 Y116.436
G01 X62.748 Y115.625
G01 X64.005 Y114.913
G01 X65.357 Y114.310
G01 X66.795 Y113.822
G01 X68.307 Y113.457
G01 X69.883 Y113.220
G01 X71.511 Y113.116
G01 X73.181 Y113.148
G01 X74.879 Y113.319
G01 X76.593 Y113.630
G01 X78.312 Y114.083
G01 X80.023 Y114.676
G01 X81.714 Y115.408
G01 X83.373 Y116.275
G01 X84.988 Y117.276
G01 X86.547 Y118.403
G01 X88.041 Y119.653
G01 X89.458 Y121.018
G01 X90.788 Y122.491
G01 X92.024 Y124.063
G01 X93.155 Y125.726
G01 X94.176 Y127.469
G01 X95.078 Y129.282
G01 X95.858 Y131.155
G01 X96.509 Y133.075
G01 X97.028 Y135.031
G01 X97.413 Y137.011
G01 X97.661 Y139.003
G01 X97.773 Y140.994
G01 X97.749 Y142.973
G01 X97.591 Y144.926
G01 X97.300 Y146.842
G01 X96.881 Y148.710
G01 X96.339 Y150.517
G01 X95.679 Y152.252
G01 X94.907 Y153.906
G01 X94.032 Y155.469
G01 X93.062 Y156.931
G01 X92.005 Y158.284
G01 X90.871 Y159.521
G01 X89.671 Y160.634
G01 X88.416 Y161.619
G01 X87.116 Y162.470
G01 X85.785 Y163.185
G01 X84.433 Y163.759
G01 X83.072 Y164.191
G01 X81.716 Y164.482
G01 X80.377 Y164.631
G01 X79.065 Y164.639
G01 X77.795 Y164.511
G01 X76.576 Y164.248
G01 X75.422 Y163.856
G01 X74.341 Y163.341
G01 X73.346 Y162.709
G01 X72.445 Y161.968
G01 X71.648 Y161.125
G01 X70.963 Y160.190
G01 X70.397 Y159.173
G01 X69.958 Y158.084
G01 X69.649 Y156.933
G01 X69.478 Y155.732
G01 X69.446 Y154.494
G01 X69.557 Y153.229
G01 X69.812 Y151.950
G01 X70.212 Y150.669
G01 X70.757 Y149.399
G01 X71.444 Y148.151
G01 X72.271 Y146.938
G01 X73.234 Y145.770
G01 X74.328 Y144.661
G01 X75.549 Y143.620
G01 X76.888 Y142.658
G01 X78.339 Y141.784
G01 X79.894 Y141.008
G01 X81.543 Y140.338
G01 X83.276 Y139.781
G01 X85.084 Y139.343
G01 X86.954 Y139.032
G01 X88.877 Y138.850
G01 X90.839 Y138.802
G01 X92.830 Y138.891
G01 X94.836 Y139.118
G01 X96.846 Y139.483
G01 X98.847 Y139.986
G01 X100.827 Y140.626
G01 X102.774 Y141.399
G01 X104.676 Y142.302
G01 X106.522 Y143.331
G01 X108.301 Y144.479
G01 X110.002 Y145.739
G01 X111.616 Y147.106
G01 X113.134 Y148.569
G01 X114.547 Y150.120
G01 X115.848 Y151.749
G01 X117.030 Y153.446
G01 X118.088 Y155.199
G01 X119.016 Y156.998
G01 X119.811 Y158.831
G01 X120.471 Y160.686
G01 X120.993 Y162.549
G01 X121.378 Y164.410
G01 X121.625 Y166.256
G01 X121.736 Y168.074
G01 X121.715 Y169.853
G01 X121.563 Y171.581
G01 X121.287 Y173.246
G01 X120.892 Y174.837
G01 X120.384 Y176.345
G01 X119.771 Y177.759
G01 X119.062 Y179.070
G01 X118.264 Y180.270
G01 X117.389 Y181.351
G01 X116.445 Y182.308
G01 X115.445 Y183.133
G01 X114.400 Y183.822
G01 X113.320 Y184.373
G01 X112.219 Y184.781
G01 X111.108 Y185.045
G01 X110.000 Y185.165
G01 X108.906 Y185.142
G01 X107.839 Y184.976
G01 X106.812 Y184.670
G01 X105.835 Y184.229
G01 X104.920 Y183.657
G01 X104.077 Y182.959
G01 X103.318 Y182.142
G01 X102.652 Y181.214
G01 X102.088 Y180.183
G01 X101.634 Y179.057
G01 X101.298 Y177.847
G01 X101.086 Y176.564
G01 X101.004 Y175.216
G01 X101.056 Y173.818
G01 X101.247 Y172.379
G01 X101.579 Y170.912
G01 X102.053 Y169.429
G01 X102.670 Y167.942
G01 X103.429 Y166.464
G01 X104.329 Y165.007
G01 X105.367 Y163.582
G01 X106.539 Y162.202
G01 X107.841 Y160.878
G01 X109.267 Y159.620
G01 X110.810 Y158.440
G01 X112.463 Y157.346
G01 X114.217 Y156.348
G01 X116.063 Y155.454
G01 X117.992 Y154.672
G01 X119.993 Y154.008
G01 X122.055 Y153.468
G01 X124.167 Y153.057
G01 X126.316 Y152.778
G01 X128.492 Y152.633
G01 X130.681 Y152.625
G01 X132.872 Y152.755
G01 X135.052 Y153.020
G01 X137.208 Y153.421
G01 X139.330 Y153.953
G01 X141.404 Y154.615
G01 X143.420 Y155.399
G01 X145.367 Y156.302
G01 X147.234 Y157.317
G01 X149.012 Y158.435
G01 X150.691 Y159.649
G01 X152.263 Y160.950
G01 X153.720 Y162.327
G01 X155.057 Y163.771
G01 X156.267 Y165.270
G01 X157.345 Y166.814
G01 X158.288 Y168.390
G01 X159.092 Y169.986
G01 X159.758 Y171.591
G01 X160.283 Y173.191
G01 X160.668 Y174.775
G01 X160.915 Y176.331
G01 X161.027 Y177.846
G01 X161.007 Y179.309
G01 X160.860 Y180.708
G01 X160.591 Y182.032
G01 X160.207 Y183.271
G01 X159.716 Y184.416
G01 X159.125 Y185.457
G01 X158.444 Y186.386
G01 X157.683 Y187.196
G01 X156.851 Y187.879
G01 X155.961 Y188.430
G01 X155.022 Y188.845
G01 X154.047 Y189.119
G01 X153.047 Y189.251
G01 X152.036 Y189.238
G01 X151.024 Y189.080
G01 X150.025 Y188.777
G01 X149.050 Y188.332
G01 X148.112 Y187.746
G01 X147.222 Y187.024
G01 X146.391 Y186.170
G01 X145.631 Y185.189
G01 X144.951 Y184.089
G01 X144.362 Y182.877
G01 X143.872 Y181.562
G01 X143.490 Y180.151
G01 X143.223 Y178.656
G01 X143.077 Y177.086
G01 X143.059 Y175.452
G01 X143.173 Y173.766
G01 X143.423 Y172.040
G01 X143.810 Y170.285
G01 X144.338 Y168.513
G01 X145.006 Y166.738
G01 X145.814 Y164.970
G01 X146.760 Y163.224
G01 X147.841 Y161.509
G01 X149.054 Y159.839
G01 X150.394 Y158.224
G01 X151.855 Y156.676
G01 X153.431 Y155.204
G01 X155.114 Y153.819
G01 X156.896 Y152.530
G01 X158.767 Y151.345
G01 X160.719 Y150.271
G01 X162.739 Y149.315
G01 X164.818 Y148.483
G01 X166.945 Y147.779
G01 X169.106 Y147.208
G01 X171.291 Y146.771
G01 X173.487 Y146.471
G01 X175.682 Y146.308
G01 X177.863 Y146.282
G01 X180.018 Y146.390
G01 X182.136 Y146.631
G01 X184.204 Y147.000
G01 X186.211 Y147.493
G01 X188.146 Y148.104
G01 X189.999 Y148.827
G01 X191.760 Y149.654
G01 X193.419 Y150.577
G01 X194.969 Y151.586
G01 X196.402 Y152.673
G01 X197.711 Y153.826
G01 X198.891 Y155.036
G01 X199.937 Y156.289
G01 X200.844 Y157.576
G01 X201.611 Y158.883
G01 X202.236 Y160.199
G01 X202.719 Y161.511
G01 X203.058 Y162.808
G01 X203.258 Y164.076
G01 X203.319 Y165.304
G01 X203.245 Y166.480
G01 X203.042 Y167.593
G01 X202.715 Y168.632
G01 X202.270 Y169.587
G01 X201.715 Y170.448
G01 X201.059 Y171.205
G01 X200.309 Y171.851
G01 X199.477 Y172.379
G01 X198.572 Y172.780
G01 X197.605 Y173.051
G01 X196.587 Y173.185
G01 X195.531 Y173.180
G01 X194.448 Y173.033
G01 X193.350 Y172.743
G01 X192.250 Y172.308
G01 X191.160 Y171.729
G01 X190.091 Y171.008
G01 X189.057 Y170.148
G01 X188.068 Y169.152
G01 X187.137 Y168.025
G01 X186.273 Y166.773
G01 X185.487 Y165.403
G01 X184.789 Y163.921
G01 X184.189 Y162.337
G01 X183.693 Y160.658
G01 X183.310 Y158.896
G01 X183.047 Y157.061
G01 X182.908 Y155.163
G01 X182.900 Y153.213
G01 X183.024 Y151.225
G01 X183.284 Y149.208
G01 X183.682 Y147.177
G01 X184.218 Y145.143
G01 X184.891 Y143.118
G01 X185.700 Y141.115
G01 X186.643 Y139.145
G01 X187.714 Y137.221
G01 X188.910 Y135.354
G01 X190.226 Y133.554
G01 X191.653 Y131.833
G01 X193.186 Y130.200
G01 X194.815 Y128.663
G01 X196.531 Y127.232
G01 X198.325 Y125.914
G01 X200.187 Y124.715
G01 X202.104 Y123.642
G01 X204.067 Y122.698
G01 X206.062 Y121.888
G01 X208.079 Y121.215
G01 X210.105 Y120.679
G01 X212.128 Y120.282
G01 X214.134 Y120.023
G01 X216.113 Y119.901
G01 X218.052 Y119.912
G01 X219.940 Y120.054
G01 X221.764 Y120.321
G01 X223.515 Y120.708
G01 X225.181 Y121.208
G01 X226.753 Y121.814
G01 X228.221 Y122.518
G01 X229.579 Y123.310
G01 X230.817 Y124.181
G01 X231.929 Y125.120
G01 X232.910 Y126.117
G01 X233.756 Y127.161
G01 X234.461 Y128.238
G01 X235.024 Y129.339
G01 X235.442 Y130.450
G01 X235.717 Y131.559
G01 X235.847 Y132.654
G01 X235.834 Y133.723
G01 X235.682 Y134.753
G01 X235.393 Y135.734
G01 X234.973 Y136.653
G01 X234.427 Y137.501
G01 X233.761 Y138.266
G01 X232.984 Y138.939
G01 X232.104 Y139.510
G01 X231.129 Y139.973
G01 X230.069 Y140.318
G01 X228.935 Y140.540
G01 X227.737 Y140.633
G01 X226.488 Y140.592
G01 X225.197 Y140.414
G01 X223.879 Y140.095
G01 X222.544 Y139.635
G01 X221.205 Y139.033
G01 X219.875 Y138.289
G01 X218.565 Y137.405
G01 X217.288 Y136.384
G01 X216.055 Y135.230
G01 X214.877 Y133.947
G01 X213.766 Y132.541
G01 X212.731 Y131.018
G01 X211.783 Y129.387
G01 X210.931 Y127.655
G01 X210.183 Y125.831
G01 X209.546 Y123.926
G01 X209.027 Y121.950
G01 X208.631 Y119.913
G01 X208.364 Y117.828
G01 X208.229 Y115.705
G01 X208.229 Y113.557
G01 X208.365 Y111.397
G01 X208.638 Y109.235
G01 X209.047 Y107.086
G01 X209.590 Y104.961
G01 X210.266 Y102.871
G01 X211.070 Y100.830
G01 X211.998 Y98.847
G01 X213.043 Y96.935
G01 X214.200 Y95.103
G01 X215.461 Y93.362
G01 X216.817 Y91.720
G01 X218.259 Y90.186
G01 X219.779 Y88.767
G01 X221.364 Y87.470
G01 X223.005 Y86.301
G01 X224.690 Y85.264
G01 X226.407 Y84.364
G01 X228.145 Y83.602
G01 X229.890 Y82.980
G01 X231.632 Y82.500
G01 X233.357 Y82.160
G01 X235.053 Y81.960
G01 X236.709 Y81.895
G01 X238.313 Y81.963
G01 X239.852 Y82.160
G01 X241.317 Y82.478
G01 X242.697 Y82.913
G01 X243.982 Y83.456
G01 X245.164 Y84.099
G01 X246.233 Y84.833
G01 X247.183 Y85.648
G01 X248.006 Y86.535
G01 X248.698 Y87.481
G01 X249.253 Y88.477
G01 X249.668 Y89.509
G01 X249.940 Y90.567
G01 X250.067 Y91.638
G01 X250.049 Y92.709
G01 X249.887 Y93.770
G01 X249.582 Y94.806
G01 X249.136 Y95.807
G01 X248.554 Y96.760
G01 X247.841 Y97.655
G01 X247.001 Y98.481
G01 X246.041 Y99.227
G01 X244.970 Y99.883
G01 X243.795 Y100.440
G01 X242.525 Y100.891
G01 X241.170 Y101.228
G01 X239.741 Y101.443
G01 X238.248 Y101.533
G01 X236.703 Y101.491
G01 X235.117 Y101.314
G01 X233.503 Y101.000
G01 X231.873 Y100.546
G01 X230.239 Y99.954
G01 X228.613 Y99.222
G01 X227.008 Y98.353
G01 X225.435 Y97.349
G01 X223.907 Y96.215
G01 X222.434 Y94.954
G01 X221.027 Y93.573
G01 X219.698 Y92.078
G01 X218.455 Y90.477
G01 X217.309 Y88.778
G01 X216.266 Y86.990
G01 X215.335 Y85.123
G01 X214.522 Y83.188
G01 X213.833 Y81.195
G01 X213.273 Y79.155
G01 X212.845 Y77.081
G01 X212.552 Y74.985
G01 X212.396 Y72.878
G01 X212.377 Y70.773
G01 X212.495 Y68.683
G01 X212.748 Y66.619
G01 X213.133 Y64.593
G01 X213.647 Y62.619
G01 X214.286 Y60.705
G01 X215.042 Y58.865
G01 X215.911 Y57.108
G01 X216.884 Y55.443
G01 X217.953 Y53.881
G01 X219.109 Y52.429
G01 X220.342 Y51.094
G01 X221.643 Y49.885
G01 X222.999 Y48.805
G01 X224.400 Y47.860
G01 X225.835 Y47.054
G01 X227.290 Y46.389
G01 X228.754 Y45.868
G01 X230.215 Y45.489
G01 X231.660 Y45.254
G01 X233.077 Y45.161
G01 X234.455 Y45.206
G01 X235.781 Y45.386
G01 X237.045 Y45.697
G01 X238.234 Y46.132
G01 X239.340 Y46.686
G01 X240.351 Y47.351
G01 X241.260 Y48.118
G01 X242.058 Y48.979
G01 X242.737 Y49.923
G01 X243.292 Y50.941
G01 X243.715 Y52.021
G01 X244.003 Y53.153
G01 X244.151 Y54.324
G01 X244.158 Y55.522
G01 X244.022 Y56.736
G01 X243.741 Y57.953
G01 X243.318 Y59.161
G01 X242.752 Y60.348
G01 X242.048 Y61.501
G01 X241.208 Y62.610
G01 X240.238 Y63.662
G01 X239.143 Y64.646
G01 X237.930 Y65.554
G01 X236.606 Y66.374
G01 X235.179 Y67.097
G01 X233.660 Y67.716
G01 X232.057 Y68.223
G01 X230.381 Y68.612
G01 X228.642 Y68.876
G01 X226.853 Y69.011
G01 X225.025 Y69.013
G01 X223.170 Y68.880
G01 X221.301 Y68.610
G01 X219.428 Y68.203
G01 X217.566 Y67.659
G01 X215.726 Y66.980
G01 X213.920 Y66.168
G01 X212.160 Y65.228
G01 X210.457 Y64.163
G01 X208.822 Y62.980
G01 X207.266 Y61.685
G01 X205.798 Y60.286
G01 X204.428 Y58.791
G01 X203.163 Y57.209
G01 X202.012 Y55.550
G01 X200.981 Y53.824
G01 X200.076 Y52.043
G01 X199.301 Y50.217
G01 X198.660 Y48.359
G01 X198.156 Y46.480
G01 X197.791 Y44.592
G01 X197.564 Y42.709
G01 X197.476 Y40.841
G01 X197.526 Y39.002
G01 X197.709 Y37.204
G01 X198.023 Y35.457
G01 X198.464 Y33.775
G01 X199.024 Y32.166
G01 X199.699 Y30.643
G01 X200.479 Y29.214
G01 X201.358 Y27.888
G01 X202.326 Y26.675
G01 X203.373 Y25.581
G01 X204.490 Y24.614
G01 X205.664 Y23.778
G01 X206.885 Y23.078
G01 X208.141 Y22.519
G01 X209.421 Y22.103
G01 X210.711 Y21.832
G01 X212.000 Y21.705
G01 X213.276 Y21.723
G01 X214.526 Y21.884
G01 X215.738 Y22.185
G01 X216.901 Y22.623
G01 X218.004 Y23.193
G01 X219.034 Y23.889
G01 X219.983 Y24.705
G01 X220.841 Y25.633
G01 X221.598 Y26.665
G01 X222.245 Y27.791
G01 X222.777 Y29.003
G01 X223.186 Y30.290
G01 X223.466 Y31.640
G01 X223.613 Y33.043
G01 X223.623 Y34.486
G01 X223.494 Y35.959
G01 X223.223 Y37.448
G01 X222.811 Y38.941
G01 X222.258 Y40.426
G01 X221.566 Y41.891
G01 X220.737 Y43.324
G01 X219.775 Y44.713
G01 X218.685 Y46.047
G01 X217.472 Y47.314
G01 X216.144 Y48.505
G01 X214.707 Y49.610
G01 X213.171 Y50.620
G01 X211.543 Y51.526
G01 X209.835 Y52.321
G01 X208.056 Y52.998
G01 X206.217 Y53.551
G01 X204.330 Y53.977
G01 X202.406 Y54.271
G01 X200.458 Y54.430
G01 X198.497 Y54.454
G01 X196.537 Y54.340
G01 X194.589 Y54.091
G01 X192.665 Y53.707
G01 X190.778 Y53.192
G01 X188.940 Y52.548
G01 X187.161 Y51.781
G01 X185.453 Y50.896
G01 X183.826 Y49.901
G01 X182.290 Y48.801
G01 X180.854 Y47.606
G01 X179.527 Y46.325
G01 X178.315 Y44.968
G01 X177.226 Y43.544
G01 X176.265 Y42.065
G01 X175.437 Y40.543
G01 X174.746 Y38.988
G01 X174.195 Y37.413
G01 X173.784 Y35.830
G01 X173.515 Y34.251
G01 X173.387 Y32.689
G01 X173.399 Y31.155
G01 X173.547 Y29.663
G01 X173.829 Y28.222
G01 X174.240 Y26.846
G01 X174.773 Y25.544
G01 X175.423 Y24.328
G01 X176.182 Y23.206
G01 X177.042 Y22.188
G01 X177.993 Y21.283
G01 X179.026 Y20.497
G01 X180.131 Y19.837
G01 X181.296 Y19.309
G01 X182.511 Y18.918
G01 X183.764 Y18.667
G01 X185.042 Y18.559
G01 X186.334 Y18.596
G01 X187.627 Y18.778
G01 X188.909 Y19.104
G01 X190.169 Y19.573
G01 X191.393 Y20.183
G01 X192.571 Y20.929
G01 X193.690 Y21.807
G01 X194.741 Y22.811
G01 X195.712 Y23.934
G01 X196.594 Y25.170
G01 X197.379 Y26.509
G01 X198.057 Y27.943
G01 X198.621 Y29.461
G01 X199.065 Y31.054
G01 X199.383 Y32.711
G01 X199.571 Y34.420
G01 X199.624 Y36.169
G01 X199.540 Y37.946
G01 X199.318 Y39.740
G01 X198.957 Y41.538
G01 X198.457 Y43.327
G01 X197.821 Y45.096
G01 X197.050 Y46.832
G01 X196.150 Y48.523
G01 X195.123 Y50.159
G01 X193.977 Y51.728
G01 X192.717 Y53.220
G01 X191.352 Y54.626
G01 X189.889 Y55.935
G01 X188.338 Y57.140
G01 X186.709 Y58.233
G01 X185.011 Y59.208
G01 X183.256 Y60.059
G01 X181.455 Y60.781
G01 X179.620 Y61.371
G01 X177.764 Y61.825
G01 X175.897 Y62.143
G01 X174.033 Y62.323
G01 X172.184 Y62.366
G01 X170.361 Y62.274
G01 X168.578 Y62.049
G01 X166.846 Y61.695
G01 X165.176 Y61.217
G01 X163.579 Y60.621
G01 X162.066 Y59.912
G01 X160.646 Y59.099
G01 X159.328 Y58.189
G01 X158.121 Y57.192
G01 X157.033 Y56.118
G01 X156.069 Y54.976
G01 X155.236 Y53.778
G01 X154.539 Y52.535
G01 X153.980 Y51.259
G01 X153.564 Y49.961
G01 X153.290 Y48.655
G01 X153.161 Y47.351
G01 X153.175 Y46.063
G01 X153.331 Y44.802
G01 X153.626 Y43.581
G01 X154.057 Y42.411
G01 X154.618 Y41.304
G01 X155.305 Y40.270
G01 X156.110 Y39.319
G01 X157.027 Y38.463
G01 X158.047 Y37.709
G01 X159.160 Y37.065
G01 X160.358 Y36.540
G01 X161.629 Y36.140
G01 X162.963 Y35.870
G01 X164.349 Y35.735
G01 X165.775 Y35.740
G01 X167.228 Y35.885
G01 X168.697 Y36.174
G01 X170.170 Y36.606
G01 X171.634 Y37.181
G01 X173.077 Y37.898
G01 X174.487 Y38.753
G01 X175.852 Y39.743
G01 X177.161 Y40.864
G01 X178.404 Y42.109
G01 X179.569 Y43.471
G01 X180.647 Y44.944
G01 X181.629 Y46.519
G01 X182.507 Y48.187
G01 X183.273 Y49.938
G01 X183.921 Y51.762
G01 X184.444 Y53.648
G01 X184.839 Y55.583
G01 X185.102 Y57.558
G01 X185.229 Y59.559
G01 X185.220 Y61.575
G01 X185.074 Y63.592
G01 X184.791 Y65.599
G01 X184.373 Y67.584
G01 X183.823 Y69.534
G01 X183.145 Y71.438
G01 X182.342 Y73.284
G01 X181.421 Y75.062
G01 X180.389 Y76.760
G01 X179.253 Y78.370
G01 X178.021 Y79.882
G01 X176.702 Y81.288
G01 X175.307 Y82.579
G01 X173.845 Y83.751
G01 X172.327 Y84.796
G01 X170.765 Y85.710
G01 X169.171 Y86.490
G01 X167.556 Y87.133
G01 X165.933 Y87.636
G01 X164.314 Y88.000
G01 X162.712 Y88.226
G01 X161.138 Y88.313
G01 X159.604 Y88.266
G01 X158.123 Y88.088
G01 X156.706 Y87.783
G01 X155.363 Y87.357
G01 X154.105 Y86.817
G01 X152.941 Y86.171
G01 X151.882 Y85.425
G01 X150.935 Y84.591
G01 X150.107 Y83.676
G01 X149.405 Y82.692
G01 X148.836 Y81.649
G01 X148.403 Y80.559
G01 X148.110 Y79.434
G01 X147.960 Y78.285
G01 X147.955 Y77.124
G01 X148.095 Y75.965
G01 X148.380 Y74.818
G01 X148.807 Y73.696
G01 X149.375 Y72.612
G01 X150.080 Y71.576
G01 X150.916 Y70.601
G01 X151.879 Y69.697
G01 X152.962 Y68.874
G01 X154.157 Y68.142
G01 X155.455 Y67.510
G01 X156.849 Y66.987
G01 X158.327 Y66.579
G01 X159.881 Y66.294
G01 X161.498 Y66.137
G01 X163.167 Y66.112
G01 X164.878 Y66.224
G01 X166.617 Y66.475
G01 X168.372 Y66.867
G01 X170.132 Y67.399
G01 X171.884 Y68.072
G01 X173.615 Y68.884
G01 X175.314 Y69.832
G01 X176.970 Y70.913
G01 X178.570 Y72.121
G01 X180.103 Y73.451
G01 X181.561 Y74.897
G01 X182.932 Y76.450
G01 X184.207 Y78.103
G01 X185.379 Y79.846
G01 X186.439 Y81.669
G01 X187.382 Y83.563
G01 X188.201 Y85.516
G01 X188.892 Y87.517
G01 X189.451 Y89.553
G01 X189.875 Y91.614
G01 X190.163 Y93.687
G01 X190.315 Y95.759
G01 X190.330 Y97.818
G01 X190.211 Y99.852
G01 X189.959 Y101.849
G01 X189.580 Y103.797
G01 X189.077 Y105.685
G01 X188.456 Y107.502
G01 X187.723 Y109.237
G01 X186.887 Y110.880
G01 X185.955 Y112.424
G01 X184.937 Y113.858
G01 X183.842 Y115.176
G01 X182.681 Y116.370
G01 X181.464 Y117.436
G01 X180.203 Y118.369
G01 X178.910 Y119.164
G01 X177.597 Y119.820
G01 X176.275 Y120.334
G01 X174.957 Y120.705
G01 X173.655 Y120.936
G01 X172.382 Y121.026
G01 X171.150 Y120.978
G01 X169.969 Y120.797
G01 X168.852 Y120.487
G01 X167.810 Y120.054
G01 X166.852 Y119.503
G01 X165.989 Y118.843
G01 X165.230 Y118.082
G01 X164.582 Y117.229
G01 X164.054 Y116.294
G01 X163.651 Y115.286
G01 X163.381 Y114.217
G01 X163.246 Y113.099
G01 X163.252 Y111.942
G01 X163.400 Y110.759
G01 X163.692 Y109.562
G01 X164.129 Y108.363
G01 X164.710 Y107.174
G01 X165.434 Y106.008
G01 X166.298 Y104.877
G01 X167.297 Y103.792
G01 X168.429 Y102.765
G01 X169.685 Y101.806
G01 X171.061 Y100.926
G01 X172.549 Y100.134
G01 X174.140 Y99.440
G01 X175.825 Y98.852
G01 X177.595 Y98.378
G01 X179.438 Y98.023
G01 X181.345 Y97.793
G01 X183.303 Y97.694
G01 X185.302 Y97.729
G01 X187.328 Y97.900
G01 X189.370 Y98.209
G01 X191.415 Y98.657
G01 X193.452 Y99.243
G01 X195.467 Y99.965
G01 X197.450 Y100.821
G01 X199.387 Y101.807
G01 X201.269 Y102.918
G01 X203.083 Y104.148
G01 X204.819 Y105.492
G01 X206.469 Y106.941
G01 X208.022 Y108.487
G01 X209.470 Y110.121
G01 X210.805 Y111.833
G01 X212.022 Y113.612
G01 X213.115 Y115.449
G01 X214.077 Y117.331
G01 X214.907 Y119.247
G01 X215.602 Y121.184
G01 X216.158 Y123.131
G01 X216.577 Y125.075
G01 X216.859 Y127.004
G01 X217.004 Y128.905
G01 X217.016 Y130.767
G01 X216.899 Y132.578
G01 X216.657 Y134.326
G01 X216.296 Y136.001
G01 X215.822 Y137.592
G01 X215.243 Y139.089
G01 X214.567 Y140.483
G01 X213.803 Y141.767
G01 X212.961 Y142.932
G01 X212.051 Y143.971
G01 X211.085 Y144.880
G01 X210.072 Y145.653
G01 X209.026 Y146.287
G01 X207.958 Y146.778
G01 X206.880 Y147.126
G01 X205.805 Y147.330
G01 X204.744 Y147.390
G01 X203.710 Y147.308
G01 X202.716 Y147.086
G01 X201.771 Y146.729
G01 X200.889 Y146.240
G01 X200.079 Y145.626
G01 X199.353 Y144.893
G01 X198.719 Y144.049
G01 X198.188 Y143.101
G01 X197.766 Y142.059
G01 X197.462 Y140.934
G01 X197.282 Y139.734
G01 X197.232 Y138.470
G01 X197.317 Y137.156
G01 X197.539 Y135.801
G01 X197.903 Y134.418
G01 X198.409 Y133.019
G01 X199.057 Y131.616
G01 X199.848 Y130.222
G01 X200.780 Y128.849
G01 X201.850 Y127.509
G01 X203.053 Y126.213
G01 X204.387 Y124.973
G01 X205.844 Y123.799
G01 X207.418 Y122.703
G01 X209.102 Y121.694
G01 X210.887 Y120.780
G01 X212.764 Y119.971
G01 X214.724 Y119.273
G01 X216.756 Y118.694
G01 X218.849 Y118.238
G01 X220.991 Y117.911
G01 X223.171 Y117.717
G01 X225.377 Y117.657
G01 X227.597 Y117.734
G01 X229.818 Y117.947
G01 X232.028 Y118.298
G01 X234.215 Y118.783
G01 X236.367 Y119.400
G01 X238.471 Y120.146
G01 X240.518 Y121.015
G01 X242.494 Y122.003
G01 X244.391 Y123.102
G01 X246.199 Y124.306
G01 X247.908 Y125.604
G01 X249.509 Y126.990
G01 X250.996 Y128.452
G01 X252.362 Y129.981
G01 X253.602 Y131.565
G01 X254.709 Y133.194
G01 X255.681 Y134.855
G01 X256.515 Y136.536
G01 X257.210 Y138.225
G01 X257.764 Y139.911
G01 X258.178 Y141.580
G01 X258.454 Y143.221
G01 X258.595 Y144.821
G01 X258.604 Y146.369
G01 X258.485 Y147.853
G01 X258.245 Y149.263
G01 X257.890 Y150.587
G01 X257.427 Y151.817
G01 X256.865 Y152.944
G01 X256.212 Y153.958
G01 X255.479 Y154.853
G01 X254.676 Y155.621
G01 X253.813 Y156.258
G01 X252.902 Y156.758
G01 X251.955 Y157.118
G01 X250.984 Y157.335
G01 X250.000 Y157.407
G01 X249.016 Y157.335
G01 X248.045 Y157.118
G01 X247.098 Y156.758
G01 X246.187 Y156.258
G01 X245.324 Y155.621
G01 X244.521 Y154.853
G01 X243.788 Y153.958
G01 X243.135 Y152.944
G01 X242.573 Y151.817
G01 X242.110 Y150.587
G01 X241.755 Y149.263
G01 X241.515 Y147.853
G01 X241.396 Y146.369
G01 X241.405 Y144.821
G01 X241.546 Y143.221
G01 X241.822 Y141.580
G01 X242.236 Y139.911
G01 X242.790 Y138.225
G01 X243.485 Y136.536
G01 X244.319 Y134.855
G01 X245.291 Y133.194
G01 X246.398 Y131.565
G01 X247.638 Y129.981
G01 X249.004 Y128.452
G01 X250.491 Y126.990
G01 X252.092 Y125.604
G01 X253.801 Y124.306
G01 X255.609 Y123.102
G01 X257.506 Y122.003
G01 X259.482 Y121.015
G01 X261.529 Y120.146
G01 X263.633 Y119.400
G01 X265.785 Y118.783
G01 X267.972 Y118.298
G01 X270.182 Y117.947
G01 X272.403 Y117.734
G01 X274.623 Y117.657
G01 X276.829 Y117.717
G01 X279.009 Y117.911
G01 X281.151 Y118.238
G01 X283.244 Y118.694
G01 X285.276 Y119.273
G01 X287.236 Y119.971
G01 X289.113 Y120.780
G01 X290.898 Y121.694
G01 X292.582 Y122.703
G01 X294.156 Y123.799
G01 X295.613 Y124.973
G01 X296.947 Y126.213
G01 X298.150 Y127.509
G01 X299.220 Y128.849
G01 X300.152 Y130.222
G01 X300.943 Y131.616
G01 X301.591 Y133.019
G01 X302.097 Y134.418
G01 X302.461 Y135.801
G01 X302.683 Y137.156
G01 X302.768 Y138.470
G01 X302.718 Y139.734
G01 X302.538 Y140.934
G01 X302.234 Y142.059
G01 X301.812 Y143.101
G01 X301.281 Y144.049
G01 X300.647 Y144.893
G01 X299.921 Y145.626
G01 X299.111 Y146.240
G01 X298.229 Y146.729
G01 X297.284 Y147.086
G01 X296.290 Y147.308
G01 X295.256 Y147.390
G01 X294.195 Y147.330
G01 X293.120 Y147.126
G01 X292.042 Y146.778
G01 X290.974 Y146.287
G01 X289.928 Y145.653
G01 X288.915 Y144.880
G01 X287.949 Y143.971
G01 X287.039 Y142.932
G01 X286.197 Y141.767
G01 X285.433 Y140.483
G01 X284.757 Y139.089
G01 X284.178 Y137.592
G01 X283.704 Y136.001
G01 X283.343 Y134.326
G01 X283.101 Y132.578
G01 X282.984 Y130.767
G01 X282.996 Y128.905
G01 X283.141 Y127.004
G01 X283.423 Y125.075
G01 X283.842 Y123.131
G01 X284.398 Y121.184
G01 X285.093 Y119.247
G01 X285.923 Y117.331
G01 X286.885 Y115.449
G01 X287.978 Y113.612
G01 X289.195 Y111.833
G01 X290.530 Y110.121
G01 X291.978 Y108.487
G01 X293.531 Y106.941
G01 X295.181 Y105.492
G01 X296.917 Y104.148
G01 X298.731 Y102.918
G01 X300.613 Y101.807
G01 X302.550 Y100.821
G01 X304.533 Y99.965
G01 X306.548 Y99.243
G01 X308.585 Y98.657
G01 X310.630 Y98.209
G01 X312.672 Y97.900
G01 X314.698 Y97.729
G01 X316.697 Y97.694
G01 X318.655 Y97.793
G01 X320.562 Y98.023
G01 X322.405 Y98.378
G01 X324.175 Y98.852
G01 X325.860 Y99.440
G01 X327.451 Y100.134
G01 X328.939 Y100.926
G01 X330.315 Y101.806
G01 X331.571 Y102.765
G01 X332.703 Y103.792
G01 X333.702 Y104.877
G01 X334.566 Y106.008
G01 X335.290 Y107.174
G01 X335.871 Y108.363
G01 X336.308 Y109.562
G01 X336.600 Y110.759
G01 X336.748 Y111.942
G01 X336.754 Y113.099
G01 X336.619 Y114.217
G01 X336.349 Y115.286
G01 X335.946 Y116.294
G01 X335.418 Y117.229
G01 X334.770 Y118.082
G01 X334.011 Y118.843
G01 X333.148 Y119.503
G01 X332.190 Y120.054
G01 X331.148 Y120.487
G01 X330.031 Y120.797
G01 X328.850 Y120.978
G01 X327.618 Y121.026
G01 X326.345 Y120.936
G01 X325.043 Y120.705
G01 X323.725 Y120.334
G01 X322.403 Y119.820
G01 X321.090 Y119.164
G01 X319.797 Y118.369
G01 X318.536 Y117.436
G01 X317.319 Y116.370
G01 X316.158 Y115.176
G01 X315.063 Y113.858
G01 X314.045 Y112.424
G01 X313.113 Y110.880
G01 X312.277 Y109.237
G01 X311.544 Y107.502
G01 X310.923 Y105.685
G01 X310.420 Y103.797
G01 X310.041 Y101.849
G01 X309.789 Y99.852
G01 X309.670 Y97.818
G01 X309.685 Y95.759
G01 X309.837 Y93.687
G01 X310.125 Y91.614
G01 X310.549 Y89.553
G01 X311.108 Y87.517
G01 X311.799 Y85.516
G01 X312.618 Y83.563
G01 X313.561 Y81.669
G01 X314.621 Y79.846
G01 X315.793 Y78.103
G01 X317.068 Y76.450
G01 X318.439 Y74.897
G01 X319.897 Y73.451
G01 X321.430 Y72.121
G01 X323.030 Y70.913
G01 X324.686 Y69.832
G01 X326.385 Y68.884
G01 X328.116 Y68.072
G01 X329.868 Y67.399
G01 X331.628 Y66.867
G01 X333.383 Y66.475
G01 X335.122 Y66.224
G01 X336.833 Y66.112
G01 X338.502 Y66.137
G01 X340.119 Y66.294
G01 X341.673 Y66.579
G01 X343.151 Y66.987
G01 X344.545 Y67.510
G01 X345.843 Y68.142
G01 X347.038 Y68.874
G01 X348.121 Y69.697
G01 X349.084 Y70.601
G01 X349.920 Y71.576
G01 X350.625 Y72.612
G01 X351.193 Y73.696
G01 X351.620 Y74.818
G01 X351.905 Y75.965
G01 X352.045 Y77.124
G01 X352.040 Y78.285
G01 X351.890 Y79.434
G01 X351.597 Y80.559
G01 X351.164 Y81.649
G01 X350.595 Y82.692
G01 X349.893 Y83.676
G01 X349.065 Y84.591
G01 X348.118 Y85.425
G01 X347.059 Y86.171
G01 X345.895 Y86.817
G01 X344.637 Y87.357
G01 X343.294 Y87.783
G01 X341.877 Y88.088
G01 X340.396 Y88.266
G01 X338.862 Y88.313
G01 X337.288 Y88.226
G01 X335.686 Y88.000
G01 X334.067 Y87.636
G01 X332.444 Y87.133
G01 X330.829 Y86.490
G01 X329.235 Y85.710
G01 X327.673 Y84.796
G01 X326.155 Y83.751
G01 X324.693 Y82.579
G01 X323.298 Y81.288
G01 X321.979 Y79.882
G01 X320.747 Y78.370
G01 X319.611 Y76.760
G01 X318.579 Y75.062
G01 X317.658 Y73.284
G01 X316.855 Y71.438
G01 X316.177 Y69.534
G01 X315.627 Y67.584
G01 X315.209 Y65.599
G01 X314.926 Y63.592
G01 X314.780 Y61.575
G01 X314.771 Y59.559
G01 X314.898 Y57.558
G01 X315.161 Y55.583
G01 X315.556 Y53.648
G01 X316.079 Y51.762
G01 X316.727 Y49.938
G01 X317.493 Y48.187
G01 X318.371 Y46.519
G01 X319.353 Y44.944
G01 X320.431 Y43.471
G01 X321.596 Y42.109
G01 X322.839 Y40.864
G01 X324.148 Y39.743
G01 X325.513 Y38.753
G01 X326.923 Y37.898
G01 X328.366 Y37.181
G01 X329.830 Y36.606
G01 X331.303 Y36.174
G01 X332.772 Y35.885
G01 X334.225 Y35.740
G01 X335.651 Y35.735
G01 X337.037 Y35.870
G01 X338.371 Y36.140
G01 X339.642 Y36.540
G01 X340.840 Y37.065
G01 X341.953 Y37.709
G01 X342.973 Y38.463
G01 X343.890 Y39.319
G01 X344.695 Y40.270
G01 X345.382 Y41.304
G01 X345.943 Y42.411
G01 X346.374 Y43.581
G01 X346.669 Y44.802
G01 X346.825 Y46.063
G01 X346.839 Y47.351
G01 X346.710 Y48.655
G01 X346.436 Y49.961
G01 X346.020 Y51.259
G01 X345.461 Y52.535
G01 X344.764 Y53.778
G01 X343.931 Y54.976
G01 X342.967 Y56.118
G01 X341.879 Y57.192
G01 X340.672 Y58.189
G01 X339.354 Y59.099
G01 X337.934 Y59.912
G01 X336.421 Y60.621
G01 X334.824 Y61.217
G01 X333.154 Y61.695
G01 X331.422 Y62.049
G01 X329.639 Y62.274
G01 X327.816 Y62.366
G01 X325.967 Y62.323
G01 X324.103 Y62.143
G01 X322.236 Y61.825
G01 X320.380 Y61.371
G01 X318.545 Y60.781
G01 X316.744 Y60.059
G01 X314.989 Y59.208
G01 X313.291 Y58.233
G01 X311.662 Y57.140
G01 X310.111 Y55.935
G01 X308.648 Y54.626
G01 X307.283 Y53.220
G01 X306.023 Y51.728
G01 X304.877 Y50.159
G01 X303.850 Y48.523
G01 X302.950 Y46.832
G01 X302.179 Y45.096
G01 X301.543 Y43.327
G01 X301.043 Y41.538
G01 X300.682 Y39.740
G01 X300.460 Y37.946
G01 X300.376 Y36.169
G01 X300.429 Y34.420
G01 X300.617 Y32.711
G01 X300.935 Y31.054
G01 X301.379 Y29.461
G01 X301.943 Y27.943
G01 X302.621 Y26.509
G01 X303.406 Y25.170
G01 X304.288 Y23.934
G01 X305.259 Y22.811
G01 X306.310 Y21.807
G01 X307.429 Y20.929
G01 X308.607 Y20.183
G01 X309.831 Y19.573
G01 X311.091 Y19.104
G01 X312.373 Y18.778
G01 X313.666 Y18.596
G01 X314.958 Y18.559
G01 X316.236 Y18.667
G01 X317.489 Y18.918
G01 X318.704 Y19.309
G01 X319.869 Y19.837
G01 X320.974 Y20.497
G01 X322.007 Y21.283
G01 X322.958 Y22.188
G01 X323.818 Y23.206
G01 X324.577 Y24.328
G01 X325.227 Y25.544
G01 X325.760 Y26.846
G01 X326.171 Y28.222
G01 X326.453 Y29.663
G01 X326.601 Y31.155
G01 X326.613 Y32.689
G01 X326.485 Y34.251
G01 X326.216 Y35.830
G01 X325.805 Y37.413
G01 X325.254 Y38.988
G01 X324.563 Y40.543
G01 X323.735 Y42.065
G01 X322.774 Y43.544
G01 X321.685 Y44.968
G01 X320.473 Y46.325
G01 X319.146 Y47.606
G01 X317.710 Y48.801
G01 X316.174 Y49.901
G01 X314.547 Y50.896
G01 X312.839 Y51.781
G01 X311.060 Y52.548
G01 X309.222 Y53.192
G01 X307.335 Y53.707
G01 X305.411 Y54.091
G01 X303.463 Y54.340
G01 X301.503 Y54.454
G01 X299.542 Y54.430
G01 X297.594 Y54.271
G01 X295.670 Y53.977
G01 X293.783 Y53.551
G01 X291.944 Y52.998
G01 X290.165 Y52.321
G01 X288.457 Y51.526
G01 X286.829 Y50.620
G01 X285.293 Y49.610
G01 X283.856 Y48.505
G01 X282.528 Y47.314
G01 X281.315 Y46.047
G01 X280.225 Y44.713
G01 X279.263 Y43.324
G01 X278.434 Y41.891
G01 X277.742 Y40.426
G01 X277.189 Y38.941
G01 X276.777 Y37.448
G01 X276.506 Y35.959
G01 X276.377 Y34.486
G01 X276.387 Y33.043
G01 X276.534 Y31.640
G01 X276.814 Y30.290
G01 X277.223 Y29.003
G01 X277.755 Y27.791
G01 X278.402 Y26.665
G01 X279.159 Y25.633
G01 X280.017 Y24.705
G01 X280.966 Y23.889
G01 X281.996 Y23.193
G01 X283.099 Y22.623
G01 X284.262 Y22.185
G01 X285.474 Y21.884
G01 X286.724 Y21.723
G01 X288.000 Y21.705
G01 X289.289 Y21.832
G01 X290.579 Y22.103
G01 X291.859 Y22.519
G01 X293.115 Y23.078
G01 X294.336 Y23.778
G01 X295.510 Y24.614
G01 X296.627 Y25.581
G01 X297.674 Y26.675
G01 X298.642 Y27.888
G01 X299.521 Y29.214
G01 X300.301 Y30.643
G01 X300.976 Y32.166
G01 X301.536 Y33.775
G01 X301.977 Y35.457
G01 X302.291 Y37.204
G01 X302.474 Y39.002
G01 X302.524 Y40.841
G01 X302.436 Y42.709
G01 X302.209 Y44.592
G01 X301.844 Y46.480
G01 X301.340 Y48.359
G01 X300.699 Y50.217
G01 X299.924 Y52.043
G01 X299.019 Y53.824
G01 X297.988 Y55.550
G01 X296.837 Y57.209
G01 X295.572 Y58.791
G01 X294.202 Y60.286
G01 X292.734 Y61.685
G01 X291.178 Y62.980
G01 X289.543 Y64.163
G01 X287.840 Y65.228
G01 X286.080 Y66.168
G01 X284.274 Y66.980
G01 X282.434 Y67.659
G01 X280.572 Y68.203
G01 X278.699 Y68.610
G01 X276.830 Y68.880
G01 X274.975 Y69.013
G01 X273.147 Y69.011
G01 X271.358 Y68.876
G01 X269.619 Y68.612
G01 X267.943 Y68.223
G01 X266.340 Y67.716
G01 X264.821 Y67.097
G01 X263.394 Y66.374
G01 X262.070 Y65.554
G01 X260.857 Y64.646
G01 X259.762 Y63.662
G01 X258.792 Y62.610
G01 X257.952 Y61.501
G01 X257.248 Y60.348
G01 X256.682 Y59.161
G01 X256.259 Y57.953
G01 X255.978 Y56.736
G01 X255.842 Y55.522
G01 X255.849 Y54.324
G01 X255.997 Y53.153
G01 X256.285 Y52.021
G01 X256.708 Y50.941
G01 X257.263 Y49.923
G01 X257.942 Y48.979
G01 X258.740 Y48.118
G01 X259.649 Y47.351
G01 X260.660 Y46.686
G01 X261.766 Y46.132
G01 X262.955 Y45.697
G01 X264.219 Y45.386
G01 X265.545 Y45.206
G01 X266.923 Y45.161
G01 X268.340 Y45.254
G01 X269.785 Y45.489
G01 X271.246 Y45.868
G01 X272.710 Y46.389
G01 X274.165 Y47.054
G01 X275.600 Y47.860
G01 X277.001 Y48.805
G01 X278.357 Y49.885
G01 X279.658 Y51.094
G01 X280.891 Y52.429
G01 X282.047 Y53.881
G01 X283.116 Y55.443
G01 X284.089 Y57.108
G01 X284.958 Y58.865
G01 X285.714 Y60.705
G01 X286.353 Y62.619
G01 X286.867 Y64.593
G01 X287.252 Y66.619
G01 X287.505 Y68.683
G01 X287.623 Y70.773
G01 X287.604 Y72.878
G01 X287.448 Y74.985
G01 X287.155 Y77.081
G01 X286.727 Y79.155
G01 X286.167 Y81.195
G01 X285.478 Y83.188
G01 X284.665 Y85.123
G01 X283.734 Y86.990
G01 X282.691 Y88.778
G01 X281.545 Y90.477
G01 X280.302 Y92.078
G01 X278.973 Y93.573
G01 X277.566 Y94.954
G01 X276.093 Y96.215
G01 X274.565 Y97.349
G01 X272.992 Y98.353
G01 X271.387 Y99.222
G01 X269.761 Y99.954
G01 X268.127 Y100.546
G01 X266.497 Y101.000
G01 X264.883 Y101.314
G01 X263.297 Y101.491
G01 X261.752 Y101.533
G01 X260.259 Y101.443
G01 X258.830 Y101.228
G01 X257.475 Y100.891
G01 X256.205 Y100.440
G01 X255.030 Y99.883
G01 X253.959 Y99.227
G01 X252.999 Y98.481
G01 X252.159 Y97.655
G01 X251.446 Y96.760
G01 X250.864 Y95.807
G01 X250.418 Y94.806
G01 X250.113 Y93.770
G01 X249.951 Y92.709
G01 X249.933 Y91.638
G01 X250.060 Y90.567
G01 X250.332 Y89.509
G01 X250.747 Y88.477
G01 X251.302 Y87.481
G01 X251.994 Y86.535
G01 X252.817 Y85.648
G01 X253.767 Y84.833
G01 X254.836 Y84.099
G01 X256.018 Y83.456
G01 X257.303 Y82.913
G01 X258.683 Y82.478
G01 X260.148 Y82.160
G01 X261.687 Y81.963
G01 X263.291 Y81.895
G01 X264.947 Y81.960
G01 X266.643 Y82.160
G01 X268.368 Y82.500
G01 X270.110 Y82.980
G01 X271.855 Y83.602
G01 X273.593 Y84.364
G01 X275.310 Y85.264
G01 X276.995 Y86.301
G01 X278.636 Y87.470
G01 X280.221 Y88.767
G01 X281.741 Y90.186
G01 X283.183 Y91.720
G01 X284.539 Y93.362
G01 X285.800 Y95.103
G01 X286.957 Y96.935
G01 X288.002 Y98.847
G01 X288.930 Y100.830
G01 X289.734 Y102.871
G01 X290.410 Y104.961
G01 X290.953 Y107.086
G01 X291.362 Y109.235
G01 X291.635 Y111.397
G01 X291.771 Y113.557
G01 X291.771 Y115.705
G01 X291.636 Y117.828
G01 X291.369 Y119.913
G01 X290.973 Y121.950
G01 X290.454 Y123.926
G01 X289.817 Y125.831
G01 X289.069 Y127.655
G01 X288.217 Y129.387
G01 X287.269 Y131.018
G01 X286.234 Y132.541
G01 X285.123 Y133.947
G01 X283.945 Y135.230
G01 X282.712 Y136.384
G01 X281.435 Y137.405
G01 X280.125 Y138.289
G01 X278.795 Y139.033
G01 X277.456 Y139.635
G01 X276.121 Y140.095
G01 X274.803 Y140.414
G01 X273.512 Y140.592
G01 X272.263 Y140.633
G01 X271.065 Y140.540
G01 X269.931 Y140.318
G01 X268.871 Y139.973
G01 X267.896 Y139.510
G01 X267.016 Y138.939
G01 X266.239 Y138.266
G01 X265.573 Y137.501
G01 X265.027 Y136.653
G01 X264.607 Y135.734
G01 X264.318 Y134.753
G01 X264.166 Y133.723
G01 X264.153 Y132.654
G01 X264.283 Y131.559
G01 X264.558 Y130.450
G01 X264.976 Y129.339
G01 X265.539 Y128.238
G01 X266.244 Y127.161
G01 X267.090 Y126.117
G01 X268.071 Y125.120
G01 X269.183 Y124.181
G01 X270.421 Y123.310
G01 X271.779 Y122.518
G01 X273.247 Y121.814
G01 X274.819 Y121.208
G01 X276.485 Y120.708
G01 X278.236 Y120.321
G01 X280.060 Y120.054
G01 X281.948 Y119.912
G01 X283.887 Y119.901
G01 X285.866 Y120.023
G01 X287.872 Y120.282
G01 X289.895 Y120.679
G01 X291.921 Y121.215
G01 X293.938 Y121.888
G01 X295.933 Y122.698
G01 X297.896 Y123.642
G01 X299.813 Y124.715
G01 X301.675 Y125.914
G01 X303.469 Y127.232
G01 X305.185 Y128.663
G01 X306.814 Y130.200
G01 X308.347 Y131.833
G01 X309.774 Y133.554
G01 X311.090 Y135.354
G01 X312.286 Y137.221
G01 X313.357 Y139.145
G01 X314.300 Y141.115
G01 X315.109 Y143.118
G01 X315.782 Y145.143
G01 X316.318 Y147.177
G01 X316.716 Y149.208
G01 X316.976 Y151.225
G01 X317.100 Y153.213
G01 X317.092 Y155.163
G01 X316.953 Y157.061
G01 X316.690 Y158.896
G01 X316.307 Y160.658
G01 X315.811 Y162.337
G01 X315.211 Y163.921
G01 X314.513 Y165.403
G01 X313.727 Y166.773
G01 X312.863 Y168.025
G01 X311.932 Y169.152
G01 X310.943 Y170.148
G01 X309.909 Y171.008
G01 X308.840 Y171.729
G01 X307.750 Y172.308
G01 X306.650 Y172.743
G01 X305.552 Y173.033
G01 X304.469 Y173.180
G01 X303.413 Y173.185
G01 X302.395 Y173.051
G01 X301.428 Y172.780
G01 X300.523 Y172.379
G01 X299.691 Y171.851
G01 X298.941 Y171.205
G01 X298.285 Y170.448
G01 X297.730 Y169.587
G01 X297.285 Y168.632
G01 X296.958 Y167.593
G01 X296.755 Y166.480
G01 X296.681 Y165.304
G01 X296.742 Y164.076
G01 X296.942 Y162.808
G01 X297.281 Y161.511
G01 X297.764 Y160.199
G01 X298.389 Y158.883
G01 X299.156 Y157.576
G01 X300.063 Y156.289
G01 X301.109 Y155.036
G01 X302.289 Y153.826
G01 X303.598 Y152.673
G01 X305.031 Y151.586
G01 X306.581 Y150.577
G01 X308.240 Y149.654
G01 X310.001 Y148.827
G01 X311.854 Y148.104
G01 X313.789 Y147.493
G01 X315.796 Y147.000
G01 X317.864 Y146.631
G01 X319.982 Y146.390
G01 X322.137 Y146.282
G01 X324.318 Y146.308
G01 X326.513 Y146.471
G01 X328.709 Y146.771
G01 X330.894 Y147.208
G01 X333.055 Y147.779
G01 X335.182 Y148.483
G01 X337.261 Y149.315
G01 X339.281 Y150.271
G01 X341.233 Y151.345
G01 X343.104 Y152.530
G01 X344.886 Y153.819
G01 X346.569 Y155.204
G01 X348.145 Y156.676
G01 X349.606 Y158.224
G01 X350.946 Y159.839
G01 X352.159 Y161.509
G01 X353.240 Y163.224
G01 X354.186 Y164.970
G01 X354.994 Y166.738
G01 X355.662 Y168.513
G01 X356.190 Y170.285
G01 X356.577 Y172.040
G01 X356.827 Y173.766
G01 X356.941 Y175.452
G01 X356.923 Y177.086
G01 X356.777 Y178.656
G01 X356.510 Y180.151
G01 X356.128 Y181.562
G01 X355.638 Y182.877
G01 X355.049 Y184.089
G01 X354.369 Y185.189
G01 X353.609 Y186.170
G01 X352.778 Y187.024
G01 X351.888 Y187.746
G01 X350.950 Y188.332
G01 X349.975 Y188.777
G01 X348.976 Y189.080
G01 X347.964 Y189.238
G01 X346.953 Y189.251
G01 X345.953 Y189.119
G01 X344.978 Y188.845
G01 X344.039 Y188.430
G01 X343.149 Y187.879
G01 X342.317 Y187.196
G01 X341.556 Y186.386
G01 X340.875 Y185.457
G01 X340.284 Y184.416
G01 X339.793 Y183.271
G01 X339.409 Y182.032
G01 X339.140 Y180.708
G01 X338.993 Y179.309
G01 X338.973 Y177.846
G01 X339.085 Y176.331
G01 X339.332 Y174.775
G01 X339.717 Y173.191
G01 X340.242 Y171.591
G01 X340.908 Y169.986
G01 X341.712 Y168.390
G01 X342.655 Y166.814
G01 X343.733 Y165.270
G01 X344.943 Y163.771
G01 X346.280 Y162.327
G01 X347.737 Y160.950
G01 X349.309 Y159.649
G01 X350.988 Y158.435
G01 X352.766 Y157.317
G01 X354.633 Y156.302
G01 X356.580 Y155.399
G01 X358.596 Y154.615
G01 X360.670 Y153.953
G01 X362.792 Y153.421
G01 X364.948 Y153.020
G01 X367.128 Y152.755
G01 X369.319 Y152.625
G01 X371.508 Y152.633
G01 X373.684 Y152.778
G01 X375.833 Y153.057
G01 X377.945 Y153.468
G01 X380.007 Y154.008
G01 X382.008 Y154.672
G01 X383.937 Y155.454
G01 X385.783 Y156.348
G01 X387.537 Y157.346
G01 X389.190 Y158.440
G01 X390.733 Y159.620
G01 X392.159 Y160.878
G01 X393.461 Y162.202
G01 X394.633 Y163.582
G01 X395.671 Y165.007
G01 X396.571 Y166.464
G01 X397.330 Y167.942
G01 X397.947 Y169.429
G01 X398.421 Y170.912
G01 X398.753 Y172.379
G01 X398.944 Y173.818
G01 X398.996 Y175.216
G01 X398.914 Y176.564
G01 X398.702 Y177.847
G01 X398.366 Y179.057
G01 X397.912 Y180.183
G01 X397.348 Y181.214
G01 X396.682 Y182.142
G01 X395.923 Y182.959
G01 X395.080 Y183.657
G01 X394.165 Y184.229
G01 X393.188 Y184.670
G01 X392.161 Y184.976
G01 X391.094 Y185.142
G01 X390.000 Y185.165
G01 X388.892 Y185.045
G01 X387.781 Y184.781
G01 X386.680 Y184.373
G01 X385.600 Y183.822
G01 X384.555 Y183.133
G01 X383.555 Y182.308
G01 X382.611 Y181.351
G01 X381.736 Y180.270
G01 X380.938 Y179.070
G01 X380.229 Y177.759
G01 X379.616 Y176.345
G01 X379.108 Y174.837
G01 X378.713 Y173.246
G01 X378.437 Y171.581
G01 X378.285 Y169.853
G01 X378.264 Y168.074
G01 X378.375 Y166.256
G01 X378.622 Y164.410
G01 X379.007 Y162.549
G01 X379.529 Y160.686
G01 X380.189 Y158.831
G01 X380.984 Y156.998
G01 X381.912 Y155.199
G01 X382.970 Y153.446
G01 X384.152 Y151.749
G01 X385.453 Y150.120
G01 X386.866 Y148.569
G01 X388.384 Y147.106
G01 X389.998 Y145.739
G01 X391.699 Y144.479
G01 X393.478 Y143.331
G01 X395.324 Y142.302
G01 X397.226 Y141.399
G01 X399.173 Y140.626
G01 X401.153 Y139.986
G01 X403.154 Y139.483
G01 X405.164 Y139.118
G01 X407.170 Y138.891
G01 X409.161 Y138.802
G01 X411.123 Y138.850
G01 X413.046 Y139.032
G01 X414.916 Y139.343
G01 X416.724 Y139.781
G01 X418.457 Y140.338
G01 X420.106 Y141.008
G01 X421.661 Y141.784
G01 X423.112 Y142.658
G01 X424.451 Y143.620
G01 X425.672 Y144.661
G01 X426.766 Y145.770
G01 X427.729 Y146.938
G01 X428.556 Y148.151
G01 X429.243 Y149.399
G01 X429.788 Y150.669
G01 X430.188 Y151.950
G01 X430.443 Y153.229
G01 X430.554 Y154.494
G01 X430.522 Y155.732
G01 X430.351 Y156.933
G01 X430.042 Y158.084
G01 X429.603 Y159.173
G01 X429.037 Y160.190
G01 X428.352 Y161.125
G01 X427.555 Y161.968
G01 X426.654 Y162.709
G01 X425.659 Y163.341
G01 X424.578 Y163.856
G01 X423.424 Y164.248
G01 X422.205 Y164.511
G01 X420.935 Y164.639
G01 X419.623 Y164.631
G01 X418.284 Y164.482
G01 X416.928 Y164.191
G01 X415.567 Y163.759
G01 X414.215 Y163.185
G01 X412.884 Y162.470
G01 X411.584 Y161.619
G01 X410.329 Y160.634
G01 X409.129 Y159.521
G01 X407.995 Y158.284
G01 X406.938 Y156.931
G01 X405.968 Y155.469
G01 X405.093 Y153.906
G01 X404.321 Y152.252
G01 X403.661 Y150.517
G01 X403.119 Y148.710
G01 X402.700 Y146.842
G01 X402.409 Y144.926
G01 X402.251 Y142.973
G01 X402.227 Y140.994
G01 X402.339 Y139.003
G01 X402.587 Y137.011
G01 X402.972 Y135.031
G01 X403.491 Y133.075
G01 X404.142 Y131.155
G01 X404.922 Y129.282
G01 X405.824 Y127.469
G01 X406.845 Y125.726
G01 X407.976 Y124.063
G01 X409.212 Y122.491
G01 X410.542 Y121.018
G01 X411.959 Y119.653
G01 X413.453 Y118.403
G01 X415.012 Y117.276
G01 X416.627 Y116.275
G01 X418.286 Y115.408
G01 X419.977 Y114.676
G01 X421.688 Y114.083
G01 X423.407 Y113.630
G01 X425.121 Y113.319
G01 X426.819 Y113.148
G01 X428.489 Y113.116
G01 X430.117 Y113.220
G01 X431.693 Y113.457
G01 X433.205 Y113.822
G01 X434.643 Y114.310
G01 X435.995 Y114.913
G01 X437.252 Y115.625
G01 X438.405 Y116.436
G01 X439.446 Y117.339
G01 X440.368 Y118.323
G01 X441.162 Y119.378
G01 X441.825 Y120.493
G01 X442.351 Y121.657
G01 X442.737 Y122.858
G01 X442.980 Y124.085
G01 X443.078 Y125.324
G01 X443.031 Y126.564
G01 X442.839 Y127.792
G01 X442.504 Y128.997
G01 X442.028 Y130.166
G01 X441.416 Y131.288
G01 X440.672 Y132.351
G01 X439.802 Y133.345
G01 X438.812 Y134.259
G01 X437.710 Y135.084
G01 X436.504 Y135.809
G01 X435.203 Y136.428
G01 X433.818 Y136.933
G01 X432.357 Y137.317
G01 X430.833 Y137.574
G01 X429.256 Y137.700
G01 X427.639 Y137.691
G01 X425.993 Y137.545
G01 X424.331 Y137.260
G01 X422.665 Y136.835
G01 X421.007 Y136.271
G01 X419.369 Y135.570
G01 X417.764 Y134.734
G01 X416.203 Y133.768
G01 X414.697 Y132.675
G01 X413.258 Y131.461
G01 X411.895 Y130.134
G01 X410.619 Y128.701
G01 X409.439 Y127.170
G01 X408.363 Y125.549
G01 X407.398 Y123.850
G01 X406.551 Y122.082
G01 X405.828 Y120.257
G01 X405.234 Y118.385
G01 X404.772 Y116.478
G01 X404.444 Y114.549
G01 X404.254 Y112.610
G01 X404.200 Y110.672
G01 X404.283 Y108.749
G01 X404.501 Y106.853
G01 X404.851 Y104.995
G01 X405.330 Y103.187
G01 X405.932 Y101.441
G01 X406.654 Y99.768
G01 X407.486 Y98.178
G01 X408.423 Y96.681
G01 X409.456 Y95.285
G01 X410.576 Y94.000
G01 X411.773 Y92.833
G01 X413.037 Y91.790
G01 X414.357 Y90.878
G01 X415.721 Y90.100
G01 X417.119 Y89.461
G01 X418.537 Y88.963
G01 X419.964 Y88.608
G01 X421.387 Y88.397
G01 X422.795 Y88.328
G01 X424.175 Y88.401
G01 X425.515 Y88.613
G01 X426.803 Y88.960
G01 X428.028 Y89.438
G01 X429.179 Y90.040
G01 X430.246 Y90.760
G01 X431.220 Y91.592
G01 X432.090 Y92.525
G01 X432.849 Y93.552
G01 X433.489 Y94.663
G01 X434.004 Y95.848
G01 X434.388 Y97.094
G01 X434.637 Y98.392
G01 X434.746 Y99.730
G01 X434.713 Y101.095
G01 X434.537 Y102.475
G01 X434.216 Y103.858
G01 X433.752 Y105.232
G01 X433.147 Y106.585
G01 X432.402 Y107.905
