;  Created by Sandify
;  https://sandify.org
;  Version: 0.2.6
;
;  Machine type: Rectangular
;    Min X (mm): 0
;    Max X (mm): 500
;    Min Y (mm): 0
;    Max Y (mm): 500
;  Content type: shape
;  Layer:
;    Shape: FileImport
;    Name: HackpenHill 6-9-2018.thr
;    From file:: HackpenHill 6-9-2018.thr
;    Aspect Ratio: true
;    Comments: 
;    Visible: true
;    Initial width: 10
;    Initial height: 10
;    X offset: 0
;    Y offset: 0
;    Rotate (degrees): 0
;    Reverse path: false
;    Fine tuning:
;      Connect to next layer: line
;      Draw portion of path (%): 100
;      Backtrack at end (%): 0
;      Rotate starting point (%): 0
;  Reverse export path: false
;
; File name: 'Hackpenhill (C W)'
; File type: gcode
;

G01 X250.000 Y250.000
G01 X250.000 Y250.200
G01 X250.000 Y251.850
G01 X250.000 Y252.000
G01 X250.000 Y253.000
G01 X250.000 Y254.125
G01 X250.000 Y256.475
G01 X250.000 Y258.700
G01 X250.000 Y260.425
G01 X250.000 Y261.800
G01 X250.000 Y263.700
G01 X250.000 Y265.700
G01 X250.000 Y267.925
G01 X250.000 Y269.900
G01 X250.000 Y272.275
G01 X250.000 Y275.875
G01 X250.000 Y280.125
G01 X249.857 Y285.875
G01 X249.856 Y292.400
G01 X249.856 Y298.000
G01 X249.857 Y300.900
G01 X249.854 Y303.900
G01 X249.858 Y306.725
G01 X250.000 Y310.375
G01 X249.988 Y310.350
G01 X249.994 Y310.300
G01 X250.012 Y310.275
G01 X250.036 Y310.225
G01 X250.078 Y310.200
G01 X250.126 Y310.200
G01 X250.181 Y310.175
G01 X250.241 Y310.200
G01 X250.301 Y310.224
G01 X250.356 Y310.274
G01 X250.404 Y310.324
G01 X250.447 Y310.398
G01 X250.478 Y310.498
G01 X250.497 Y310.573
G01 X250.498 Y310.673
G01 X250.480 Y310.773
G01 X250.438 Y310.873
G01 X250.366 Y310.974
G01 X250.275 Y311.049
G01 X250.165 Y311.125
G01 X250.037 Y311.175
G01 X249.896 Y311.200
G01 X249.743 Y311.199
G01 X249.590 Y311.199
G01 X249.444 Y311.147
G01 X249.298 Y311.071
G01 X249.158 Y310.994
G01 X249.038 Y310.867
G01 X248.938 Y310.691
G01 X248.868 Y310.514
G01 X248.836 Y310.314
G01 X248.834 Y310.114
G01 X248.861 Y309.914
G01 X248.925 Y309.690
G01 X249.018 Y309.492
G01 X249.146 Y309.319
G01 X249.308 Y309.146
G01 X249.504 Y309.023
G01 X249.729 Y308.924
G01 X249.976 Y308.850
G01 X250.241 Y308.850
G01 X250.507 Y308.898
G01 X250.773 Y308.970
G01 X251.022 Y309.091
G01 X251.262 Y309.262
G01 X251.469 Y309.457
G01 X251.648 Y309.677
G01 X251.787 Y309.948
G01 X251.874 Y310.246
G01 X251.909 Y310.570
G01 X251.882 Y310.896
G01 X251.794 Y311.199
G01 X251.662 Y311.528
G01 X251.477 Y311.807
G01 X251.241 Y312.063
G01 X250.966 Y312.293
G01 X250.656 Y312.472
G01 X250.300 Y312.574
G01 X249.931 Y312.625
G01 X249.543 Y312.623
G01 X249.162 Y312.544
G01 X248.789 Y312.413
G01 X248.445 Y312.206
G01 X248.129 Y311.947
G01 X247.854 Y311.638
G01 X247.633 Y311.279
G01 X247.485 Y310.873
G01 X247.404 Y310.469
G01 X247.400 Y310.019
G01 X247.467 Y309.571
G01 X247.603 Y309.151
G01 X247.808 Y308.734
G01 X248.079 Y308.368
G01 X248.415 Y308.028
G01 X248.810 Y307.763
G01 X249.257 Y307.570
G01 X249.736 Y307.449
G01 X250.235 Y307.425
G01 X250.736 Y307.470
G01 X251.233 Y307.612
G01 X251.706 Y307.800
G01 X252.144 Y308.085
G01 X252.526 Y308.445
G01 X252.846 Y308.881
G01 X253.084 Y309.370
G01 X253.237 Y309.888
G01 X253.303 Y310.435
G01 X253.286 Y311.012
G01 X253.180 Y311.568
G01 X252.983 Y312.103
G01 X252.693 Y312.592
G01 X252.315 Y313.058
G01 X251.852 Y313.423
G01 X251.325 Y313.711
G01 X250.754 Y313.921
G01 X250.147 Y314.025
G01 X249.532 Y314.048
G01 X248.912 Y313.966
G01 X248.316 Y313.778
G01 X247.745 Y313.485
G01 X247.235 Y313.089
G01 X246.804 Y312.618
G01 X246.453 Y312.049
G01 X246.192 Y311.432
G01 X246.031 Y310.796
G01 X245.972 Y310.115
G01 X246.023 Y309.442
G01 X246.186 Y308.776
G01 X246.472 Y308.143
G01 X246.871 Y307.565
G01 X247.373 Y307.065
G01 X247.960 Y306.638
G01 X248.603 Y306.333
G01 X249.299 Y306.096
G01 X250.022 Y306.000
G01 X250.756 Y305.995
G01 X251.488 Y306.155
G01 X252.191 Y306.432
G01 X252.838 Y306.829
G01 X253.415 Y307.323
G01 X253.910 Y307.918
G01 X254.308 Y308.592
G01 X254.595 Y309.322
G01 X254.747 Y310.113
G01 X254.767 Y310.914
G01 X254.636 Y311.701
G01 X254.380 Y312.472
G01 X253.993 Y313.199
G01 X253.503 Y313.854
G01 X252.902 Y314.435
G01 X252.207 Y314.887
G01 X251.435 Y315.234
G01 X250.609 Y315.447
G01 X249.751 Y315.500
G01 X248.888 Y315.416
G01 X248.050 Y315.196
G01 X247.249 Y314.842
G01 X246.509 Y314.355
G01 X245.870 Y313.741
G01 X245.340 Y313.028
G01 X244.937 Y312.219
G01 X244.668 Y311.344
G01 X244.532 Y310.453
G01 X244.550 Y309.526
G01 X244.728 Y308.613
G01 X245.063 Y307.739
G01 X245.549 Y306.951
G01 X246.171 Y306.220
G01 X246.905 Y305.614
G01 X247.727 Y305.128
G01 X248.625 Y304.758
G01 X249.574 Y304.573
G01 X250.551 Y304.547
G01 X251.526 Y304.679
G01 X252.471 Y304.995
G01 X253.355 Y305.474
G01 X254.162 Y306.071
G01 X254.868 Y306.792
G01 X255.438 Y307.619
G01 X255.858 Y308.558
G01 X256.109 Y309.563
G01 X256.189 Y310.585
G01 X256.096 Y311.624
G01 X255.844 Y312.653
G01 X255.421 Y313.619
G01 X254.848 Y314.518
G01 X254.119 Y315.295
G01 X253.259 Y315.919
G01 X252.292 Y316.410
G01 X251.255 Y316.738
G01 X250.167 Y316.925
G01 X249.070 Y316.894
G01 X247.985 Y316.695
G01 X246.941 Y316.304
G01 X245.978 Y315.752
G01 X245.121 Y315.017
G01 X244.385 Y314.155
G01 X243.796 Y313.171
G01 X243.374 Y312.097
G01 X243.122 Y310.988
G01 X243.077 Y309.826
G01 X243.239 Y308.687
G01 X243.601 Y307.570
G01 X244.135 Y306.521
G01 X244.840 Y305.561
G01 X245.684 Y304.730
G01 X246.661 Y304.047
G01 X247.756 Y303.528
G01 X248.925 Y303.214
G01 X250.138 Y303.125
G01 X251.357 Y303.208
G01 X252.555 Y303.514
G01 X253.694 Y303.999
G01 X254.739 Y304.645
G01 X255.657 Y305.487
G01 X256.422 Y306.486
G01 X256.998 Y307.601
G01 X257.396 Y308.812
G01 X257.591 Y310.072
G01 X257.591 Y311.357
G01 X257.373 Y312.617
G01 X256.939 Y313.824
G01 X256.289 Y314.971
G01 X255.453 Y315.950
G01 X254.457 Y316.827
G01 X253.331 Y317.518
G01 X252.109 Y318.017
G01 X250.813 Y318.320
G01 X249.480 Y318.373
G01 X248.144 Y318.225
G01 X246.859 Y317.802
G01 X245.639 Y317.209
G01 X244.536 Y316.401
G01 X243.560 Y315.434
G01 X242.760 Y314.319
G01 X242.162 Y313.090
G01 X241.797 Y311.732
G01 X241.661 Y310.352
G01 X241.759 Y308.952
G01 X242.079 Y307.583
G01 X242.621 Y306.268
G01 X243.362 Y305.051
G01 X244.309 Y304.001
G01 X245.438 Y303.104
G01 X246.709 Y302.422
G01 X248.082 Y301.965
G01 X249.519 Y301.723
G01 X250.978 Y301.716
G01 X252.422 Y301.944
G01 X253.814 Y302.437
G01 X255.108 Y303.155
G01 X256.253 Y304.090
G01 X257.239 Y305.202
G01 X258.040 Y306.481
G01 X258.626 Y307.860
G01 X258.978 Y309.324
G01 X259.085 Y310.851
G01 X258.910 Y312.367
G01 X258.473 Y313.815
G01 X257.797 Y315.211
G01 X256.904 Y316.467
G01 X255.819 Y317.575
G01 X254.569 Y318.498
G01 X253.171 Y319.177
G01 X251.664 Y319.630
G01 X250.098 Y319.800
G01 X248.515 Y319.709
G01 X246.959 Y319.383
G01 X245.480 Y318.802
G01 X244.115 Y317.946
G01 X242.909 Y316.900
G01 X241.900 Y315.627
G01 X241.108 Y314.212
G01 X240.544 Y312.691
G01 X240.250 Y311.077
G01 X240.227 Y309.427
G01 X240.489 Y307.798
G01 X241.028 Y306.239
G01 X241.820 Y304.793
G01 X242.835 Y303.472
G01 X244.063 Y302.314
G01 X245.470 Y301.401
G01 X247.023 Y300.738
G01 X248.670 Y300.357
G01 X250.367 Y300.249
G01 X252.063 Y300.408
G01 X253.718 Y300.839
G01 X255.277 Y301.556
G01 X256.699 Y302.550
G01 X257.930 Y303.743
G01 X258.957 Y305.152
G01 X259.753 Y306.717
G01 X260.274 Y308.378
G01 X260.511 Y310.113
G01 X260.431 Y311.877
G01 X260.063 Y313.609
G01 X259.412 Y315.275
G01 X258.501 Y316.786
G01 X257.348 Y318.155
G01 X255.969 Y319.318
G01 X254.408 Y320.212
G01 X252.707 Y320.823
G01 X250.925 Y321.169
G01 X249.103 Y321.219
G01 X247.295 Y320.973
G01 X245.551 Y320.410
G01 X243.926 Y319.560
G01 X242.462 Y318.436
G01 X241.190 Y317.074
G01 X240.155 Y315.540
G01 X239.386 Y313.823
G01 X238.920 Y312.018
G01 X238.777 Y310.137
G01 X238.946 Y308.261
G01 X239.420 Y306.442
G01 X240.182 Y304.701
G01 X241.228 Y303.105
G01 X242.543 Y301.715
G01 X244.081 Y300.580
G01 X245.791 Y299.697
G01 X247.632 Y299.093
G01 X249.546 Y298.823
G01 X251.486 Y298.852
G01 X253.398 Y299.233
G01 X255.221 Y299.928
G01 X256.913 Y300.933
G01 X258.429 Y302.199
G01 X259.718 Y303.677
G01 X260.746 Y305.367
G01 X261.466 Y307.238
G01 X261.848 Y309.176
G01 X261.911 Y311.176
G01 X261.654 Y313.184
G01 X261.077 Y315.115
G01 X260.173 Y316.906
G01 X258.961 Y318.542
G01 X257.489 Y319.925
G01 X255.799 Y321.089
G01 X253.946 Y321.942
G01 X251.965 Y322.498
G01 X249.920 Y322.700
G01 X247.859 Y322.543
G01 X245.854 Y322.031
G01 X243.948 Y321.193
G01 X242.198 Y320.067
G01 X240.645 Y318.666
G01 X239.354 Y317.035
G01 X238.370 Y315.170
G01 X237.714 Y313.166
G01 X237.387 Y311.061
G01 X237.406 Y308.945
G01 X237.770 Y306.849
G01 X238.491 Y304.830
G01 X239.553 Y302.980
G01 X240.919 Y301.328
G01 X242.546 Y299.896
G01 X244.383 Y298.753
G01 X246.383 Y297.939
G01 X248.505 Y297.451
G01 X250.682 Y297.370
G01 X252.852 Y297.640
G01 X254.955 Y298.271
G01 X256.935 Y299.214
G01 X258.736 Y300.500
G01 X260.295 Y302.067
G01 X261.561 Y303.899
G01 X262.505 Y305.893
G01 X263.118 Y308.062
G01 X263.373 Y310.284
G01 X263.252 Y312.511
G01 X262.747 Y314.706
G01 X261.869 Y316.778
G01 X260.651 Y318.704
G01 X259.137 Y320.384
G01 X257.366 Y321.823
G01 X255.377 Y322.927
G01 X253.216 Y323.705
G01 X250.948 Y324.069
G01 X248.645 Y324.063
G01 X246.364 Y323.685
G01 X244.174 Y322.943
G01 X242.133 Y321.820
G01 X240.311 Y320.386
G01 X238.762 Y318.636
G01 X237.515 Y316.641
G01 X236.603 Y314.498
G01 X236.051 Y312.205
G01 X235.890 Y309.859
G01 X236.141 Y307.503
G01 X236.802 Y305.220
G01 X237.831 Y303.073
G01 X239.195 Y301.095
G01 X240.860 Y299.386
G01 X242.792 Y297.987
G01 X244.953 Y296.904
G01 X247.268 Y296.244
G01 X249.544 Y295.967
G01 X249.669 Y295.949
G01 X251.930 Y296.050
G01 X252.092 Y296.052
G01 X254.411 Y296.549
G01 X254.474 Y296.561
G01 X256.740 Y297.449
G01 X258.818 Y298.734
G01 X260.655 Y300.360
G01 X262.205 Y302.269
G01 X263.432 Y304.391
G01 X264.297 Y306.700
G01 X264.754 Y309.137
G01 X264.787 Y311.626
G01 X264.390 Y314.079
G01 X263.594 Y316.449
G01 X262.430 Y318.659
G01 X260.918 Y320.661
G01 X259.081 Y322.383
G01 X256.960 Y323.747
G01 X254.639 Y324.731
G01 X252.178 Y325.344
G01 X249.645 Y325.549
G01 X247.106 Y325.319
G01 X244.636 Y324.683
G01 X242.318 Y323.600
G01 X240.198 Y322.162
G01 X238.348 Y320.367
G01 X236.799 Y318.311
G01 X235.603 Y316.024
G01 X234.828 Y313.539
G01 X234.493 Y310.959
G01 X234.584 Y308.374
G01 X235.109 Y305.797
G01 X236.035 Y303.353
G01 X237.358 Y301.084
G01 X239.053 Y299.094
G01 X241.082 Y297.393
G01 X243.366 Y296.075
G01 X245.745 Y295.176
G01 X245.845 Y295.134
G01 X248.090 Y294.681
G01 X248.447 Y294.598
G01 X250.636 Y294.538
G01 X251.104 Y294.511
G01 X253.318 Y294.822
G01 X253.746 Y294.869
G01 X256.077 Y295.631
G01 X256.290 Y295.694
G01 X258.671 Y296.931
G01 X260.828 Y298.557
G01 X262.691 Y300.479
G01 X264.216 Y302.717
G01 X265.332 Y305.185
G01 X265.997 Y307.802
G01 X266.227 Y310.512
G01 X266.023 Y313.252
G01 X265.369 Y315.907
G01 X264.279 Y318.400
G01 X262.771 Y320.706
G01 X260.882 Y322.690
G01 X258.681 Y324.370
G01 X256.234 Y325.669
G01 X253.608 Y326.540
G01 X250.870 Y326.970
G01 X248.084 Y326.926
G01 X245.343 Y326.383
G01 X242.724 Y325.400
G01 X240.286 Y324.015
G01 X238.114 Y322.229
G01 X236.261 Y320.117
G01 X234.794 Y317.714
G01 X233.776 Y315.057
G01 X233.188 Y312.296
G01 X233.057 Y309.458
G01 X233.400 Y306.617
G01 X234.213 Y303.885
G01 X235.487 Y301.338
G01 X237.193 Y299.030
G01 X239.260 Y297.014
G01 X241.620 Y295.357
G01 X244.058 Y294.208
G01 X244.222 Y294.123
G01 X246.463 Y293.514
G01 X247.004 Y293.347
G01 X249.141 Y293.146
G01 X249.892 Y293.050
G01 X252.015 Y293.223
G01 X252.790 Y293.260
G01 X254.993 Y293.808
G01 X255.624 Y293.942
G01 X258.011 Y294.948
G01 X258.317 Y295.064
G01 X260.792 Y296.617
G01 X262.968 Y298.574
G01 X264.774 Y300.899
G01 X266.165 Y303.486
G01 X267.127 Y306.303
G01 X267.617 Y309.210
G01 X267.630 Y312.174
G01 X267.126 Y315.085
G01 X266.118 Y317.888
G01 X264.650 Y320.494
G01 X262.781 Y322.837
G01 X260.553 Y324.835
G01 X258.016 Y326.431
G01 X255.238 Y327.598
G01 X252.301 Y328.241
G01 X249.279 Y328.397
G01 X246.266 Y328.061
G01 X243.349 Y327.239
G01 X240.596 Y325.945
G01 X238.113 Y324.179
G01 X235.955 Y322.018
G01 X234.190 Y319.525
G01 X232.854 Y316.758
G01 X231.971 Y313.827
G01 X231.587 Y310.772
G01 X231.746 Y307.680
G01 X232.438 Y304.674
G01 X233.624 Y301.798
G01 X235.255 Y299.161
G01 X237.302 Y296.808
G01 X239.706 Y294.833
G01 X242.254 Y293.401
G01 X242.430 Y293.293
G01 X244.698 Y292.533
G01 X245.382 Y292.274
G01 X247.494 Y291.923
G01 X248.472 Y291.722
G01 X250.521 Y291.730
G01 X251.619 Y291.694
G01 X253.704 Y292.033
G01 X254.733 Y292.160
G01 X256.968 Y292.934
G01 X257.725 Y293.164
G01 X260.246 Y294.524
G01 X260.512 Y294.654
G01 X263.008 Y296.619
G01 X265.150 Y298.959
G01 X266.888 Y301.633
G01 X268.159 Y304.557
G01 X268.910 Y307.679
G01 X269.122 Y310.867
G01 X268.806 Y314.072
G01 X267.968 Y317.163
G01 X266.636 Y320.103
G01 X264.802 Y322.760
G01 X262.541 Y325.085
G01 X259.932 Y326.987
G01 X257.033 Y328.460
G01 X253.927 Y329.428
G01 X250.695 Y329.847
G01 X247.424 Y329.733
G01 X244.218 Y329.064
G01 X241.162 Y327.875
G01 X238.337 Y326.188
G01 X235.839 Y324.033
G01 X233.741 Y321.500
G01 X232.076 Y318.649
G01 X230.896 Y315.548
G01 X230.251 Y312.295
G01 X230.186 Y308.960
G01 X230.677 Y305.667
G01 X231.699 Y302.502
G01 X233.234 Y299.513
G01 X235.246 Y296.831
G01 X237.695 Y294.531
G01 X240.420 Y292.738
G01 X240.501 Y292.681
G01 X242.853 Y291.658
G01 X243.580 Y291.304
G01 X245.697 Y290.787
G01 X246.846 Y290.452
G01 X248.842 Y290.322
G01 X250.217 Y290.174
G01 X252.202 Y290.380
G01 X253.595 Y290.466
G01 X255.686 Y291.036
G01 X256.878 Y291.306
G01 X259.214 Y292.381
G01 X259.988 Y292.697
G01 X262.747 Y294.515
G01 X262.829 Y294.565
G01 X265.332 Y296.908
G01 X267.388 Y299.643
G01 X268.965 Y302.691
G01 X270.019 Y305.951
G01 X270.528 Y309.350
G01 X270.463 Y312.800
G01 X269.792 Y316.179
G01 X268.575 Y319.433
G01 X266.827 Y322.421
G01 X264.625 Y325.114
G01 X261.987 Y327.377
G01 X258.992 Y329.166
G01 X255.736 Y330.421
G01 X252.313 Y331.142
G01 X248.813 Y331.291
G01 X245.330 Y330.840
G01 X241.969 Y329.797
G01 X238.820 Y328.205
G01 X235.976 Y326.119
G01 X233.503 Y323.599
G01 X231.489 Y320.666
G01 X230.005 Y317.449
G01 X229.083 Y314.019
G01 X228.726 Y310.467
G01 X228.961 Y306.911
G01 X229.791 Y303.431
G01 X231.211 Y300.146
G01 X233.167 Y297.135
G01 X235.592 Y294.474
G01 X238.423 Y292.242
G01 X240.915 Y290.934
G01 X241.593 Y290.537
G01 X243.756 Y289.853
G01 X245.019 Y289.386
G01 X246.993 Y289.119
G01 X248.598 Y288.825
G01 X250.505 Y288.873
G01 X252.228 Y288.836
G01 X254.189 Y289.230
G01 X255.809 Y289.475
G01 X257.964 Y290.282
G01 X259.236 Y290.690
G01 X261.769 Y292.148
G01 X262.403 Y292.476
G01 X265.238 Y294.778
G01 X267.666 Y297.523
G01 X269.615 Y300.633
G01 X271.008 Y304.035
G01 X271.792 Y307.616
G01 X271.976 Y311.305
G01 X271.552 Y314.969
G01 X270.542 Y318.538
G01 X268.928 Y321.874
G01 X266.759 Y324.872
G01 X264.119 Y327.499
G01 X261.087 Y329.657
G01 X257.729 Y331.283
G01 X254.144 Y332.321
G01 X250.422 Y332.724
G01 X246.673 Y332.508
G01 X243.006 Y331.701
G01 X239.530 Y330.270
G01 X236.327 Y328.290
G01 X233.521 Y325.753
G01 X231.155 Y322.800
G01 X229.303 Y319.509
G01 X228.019 Y315.932
G01 X227.365 Y312.183
G01 X227.354 Y308.387
G01 X227.978 Y304.628
G01 X229.209 Y301.000
G01 X231.019 Y297.632
G01 X233.392 Y294.609
G01 X236.236 Y292.055
G01 X238.952 Y290.356
G01 X239.482 Y289.990
G01 X241.749 Y289.071
G01 X243.027 Y288.473
G01 X245.018 Y288.041
G01 X246.773 Y287.562
G01 X248.627 Y287.483
G01 X250.466 Y287.314
G01 X250.630 Y287.295
G01 X252.481 Y287.545
G01 X254.358 Y287.703
G01 X254.482 Y287.710
G01 X256.473 Y288.311
G01 X258.216 Y288.738
G01 X260.522 Y289.860
G01 X261.742 Y290.377
G01 X264.609 Y292.361
G01 X264.951 Y292.576
G01 X267.742 Y295.299
G01 X270.033 Y298.474
G01 X271.772 Y301.974
G01 X272.917 Y305.721
G01 X273.430 Y309.611
G01 X273.267 Y313.523
G01 X272.429 Y317.364
G01 X270.983 Y321.041
G01 X268.941 Y324.428
G01 X266.376 Y327.437
G01 X263.321 Y329.948
G01 X259.868 Y331.908
G01 X256.142 Y333.299
G01 X252.236 Y334.045
G01 X248.250 Y334.132
G01 X244.301 Y333.556
G01 X240.501 Y332.304
G01 X236.955 Y330.424
G01 X233.757 Y328.002
G01 X231.004 Y325.084
G01 X228.790 Y321.704
G01 X227.171 Y318.021
G01 X226.189 Y314.095
G01 X225.845 Y310.076
G01 X226.188 Y306.024
G01 X227.214 Y302.111
G01 X228.900 Y298.401
G01 X231.172 Y295.022
G01 X233.962 Y292.072
G01 X237.050 Y289.728
G01 X237.218 Y289.588
G01 X239.653 Y288.399
G01 X240.850 Y287.731
G01 X242.901 Y287.148
G01 X244.759 Y286.501
G01 X246.595 Y286.303
G01 X248.399 Y286.013
G01 X248.825 Y285.931
G01 X250.591 Y286.031
G01 X252.363 Y286.045
G01 X252.936 Y286.031
G01 X254.778 Y286.440
G01 X256.668 Y286.754
G01 X256.973 Y286.795
G01 X259.073 Y287.664
G01 X260.828 Y288.273
G01 X263.417 Y289.847
G01 X264.379 Y290.366
G01 X267.549 Y293.034
G01 X270.248 Y296.181
G01 X272.377 Y299.721
G01 X273.872 Y303.599
G01 X274.690 Y307.688
G01 X274.833 Y311.851
G01 X274.293 Y315.996
G01 X273.057 Y319.974
G01 X271.153 Y323.700
G01 X268.649 Y327.076
G01 X265.624 Y329.988
G01 X262.153 Y332.358
G01 X258.332 Y334.139
G01 X254.256 Y335.219
G01 X250.070 Y335.599
G01 X250.051 Y335.600
G01 X245.861 Y335.301
G01 X245.826 Y335.298
G01 X241.714 Y334.294
G01 X241.713 Y334.294
G01 X237.807 Y332.630
G01 X234.249 Y330.295
G01 X231.131 Y327.408
G01 X228.522 Y324.022
G01 X226.494 Y320.273
G01 X225.116 Y316.230
G01 X224.465 Y311.997
G01 X224.534 Y307.706
G01 X225.307 Y303.474
G01 X226.758 Y299.434
G01 X228.870 Y295.674
G01 X231.608 Y292.327
G01 X234.865 Y289.500
G01 X237.580 Y287.883
G01 X238.553 Y287.230
G01 X240.734 Y286.408
G01 X242.568 Y285.582
G01 X244.428 Y285.244
G01 X246.235 Y284.811
G01 X246.803 Y284.653
G01 X248.513 Y284.641
G01 X250.213 Y284.544
G01 X251.144 Y284.456
G01 X252.864 Y284.730
G01 X254.614 Y284.917
G01 X255.465 Y284.976
G01 X257.371 Y285.612
G01 X259.351 Y286.143
G01 X259.649 Y286.212
G01 X261.962 Y287.409
G01 X263.582 Y288.128
G01 X266.641 Y290.337
G01 X267.138 Y290.661
G01 X270.209 Y293.786
G01 X272.720 Y297.385
G01 X274.601 Y301.334
G01 X275.827 Y305.566
G01 X276.321 Y309.952
G01 X276.047 Y314.353
G01 X275.037 Y318.652
G01 X273.343 Y322.747
G01 X270.998 Y326.495
G01 X268.048 Y329.810
G01 X264.566 Y332.575
G01 X260.686 Y334.694
G01 X260.661 Y334.707
G01 X256.569 Y336.145
G01 X256.450 Y336.184
G01 X252.227 Y336.926
G01 X252.061 Y336.951
G01 X247.792 Y336.971
G01 X247.590 Y336.967
G01 X243.363 Y336.266
G01 X243.182 Y336.231
G01 X239.089 Y334.786
G01 X238.948 Y334.732
G01 X235.067 Y332.633
G01 X235.012 Y332.601
G01 X231.469 Y329.827
G01 X228.456 Y326.473
G01 X226.052 Y322.655
G01 X224.313 Y318.492
G01 X223.269 Y314.099
G01 X222.970 Y309.580
G01 X223.435 Y305.078
G01 X224.677 Y300.703
G01 X226.631 Y296.593
G01 X229.229 Y292.857
G01 X232.409 Y289.593
G01 X235.558 Y287.344
G01 X236.095 Y286.918
G01 X238.479 Y285.829
G01 X240.205 Y284.902
G01 X242.143 Y284.407
G01 X244.008 Y283.809
G01 X244.596 Y283.593
G01 X246.290 Y283.462
G01 X247.959 Y283.246
G01 X249.147 Y283.039
G01 X250.773 Y283.175
G01 X252.409 Y283.230
G01 X253.732 Y283.216
G01 X255.467 Y283.665
G01 X257.254 Y284.022
G01 X258.229 Y284.173
G01 X260.295 Y285.088
G01 X262.469 Y285.880
G01 X262.493 Y285.888
G01 X265.203 Y287.617
G01 X266.425 Y288.302
G01 X269.917 Y291.326
G01 X272.864 Y294.888
G01 X275.168 Y298.904
G01 X276.747 Y303.261
G01 X277.587 Y307.832
G01 X277.677 Y312.496
G01 X276.995 Y317.098
G01 X275.527 Y321.505
G01 X273.330 Y325.634
G01 X270.475 Y329.325
G01 X267.048 Y332.533
G01 X263.255 Y335.047
G01 X263.143 Y335.116
G01 X259.081 Y336.905
G01 X258.844 Y337.002
G01 X254.602 Y338.050
G01 X254.277 Y338.121
G01 X249.948 Y338.456
G01 X249.584 Y338.474
G01 X245.257 Y338.094
G01 X244.887 Y338.052
G01 X240.652 Y336.958
G01 X240.319 Y336.862
G01 X236.270 Y335.029
G01 X236.019 Y334.907
G01 X232.250 Y332.354
G01 X232.107 Y332.251
G01 X228.706 Y329.000
G01 X228.678 Y328.972
G01 X225.840 Y325.163
G01 X223.654 Y320.941
G01 X222.214 Y316.422
G01 X221.585 Y311.696
G01 X221.742 Y306.922
G01 X222.668 Y302.231
G01 X224.363 Y297.753
G01 X226.792 Y293.637
G01 X229.889 Y289.976
G01 X233.555 Y286.874
G01 X236.277 Y285.337
G01 X237.694 Y284.416
G01 X239.840 Y283.519
G01 X240.044 Y283.424
G01 X241.956 Y282.813
G01 X242.143 Y282.745
G01 X243.905 Y282.317
G01 X244.096 Y282.264
G01 X245.759 Y281.961
G01 X245.807 Y281.951
G01 X247.407 Y281.777
G01 X247.556 Y281.756
G01 X249.121 Y281.708
G01 X249.962 Y281.650
G01 X249.994 Y280.400
G01 X250.000 Y278.275
G01 X250.000 Y275.375
G01 X250.000 Y273.275
G01 X250.000 Y271.575
G01 X250.000 Y268.925
G01 X250.000 Y266.825
G01 X250.000 Y263.700
G01 X250.000 Y261.800
G01 X250.000 Y259.550
G01 X250.000 Y257.950
G01 X250.000 Y256.475
G01 X250.000 Y254.125
G01 X250.000 Y252.500
G01 X250.000 Y251.850
G01 X250.091 Y251.845
G01 X250.181 Y251.836
G01 X250.270 Y251.823
G01 X250.359 Y251.805
G01 X250.447 Y251.783
G01 X250.533 Y251.756
G01 X250.618 Y251.726
G01 X250.701 Y251.691
G01 X250.782 Y251.653
G01 X250.861 Y251.610
G01 X250.883 Y251.597
G01 X250.969 Y251.564
G01 X251.053 Y251.527
G01 X251.135 Y251.486
G01 X251.217 Y251.440
G01 X251.296 Y251.389
G01 X251.373 Y251.334
G01 X251.448 Y251.275
G01 X251.521 Y251.212
G01 X251.591 Y251.145
G01 X251.658 Y251.073
G01 X251.721 Y250.998
G01 X251.781 Y250.919
G01 X251.838 Y250.837
G01 X251.891 Y250.751
G01 X251.940 Y250.663
G01 X251.941 Y250.660
G01 X252.052 Y250.587
G01 X252.161 Y250.505
G01 X252.266 Y250.414
G01 X252.367 Y250.313
G01 X252.464 Y250.204
G01 X252.555 Y250.085
G01 X252.641 Y249.958
G01 X252.649 Y249.945
G01 X254.149 Y249.911
G01 X256.049 Y249.910
G01 X258.175 Y249.911
G01 X259.800 Y249.979
G01 X261.225 Y249.980
G01 X263.650 Y249.979
G01 X265.500 Y249.980
G01 X266.800 Y249.980
G01 X267.775 Y249.980
G01 X268.700 Y249.979
G01 X270.750 Y249.979
G01 X271.075 Y250.000
G01 X275.400 Y250.000
G01 X277.925 Y250.000
G01 X279.975 Y250.000
G01 X283.800 Y250.000
G01 X286.800 Y250.000
G01 X290.775 Y250.000
G01 X295.200 Y250.000
G01 X299.350 Y250.000
G01 X302.725 Y250.000
G01 X305.375 Y250.000
G01 X308.175 Y250.000
G01 X310.375 Y250.000
G01 X310.350 Y249.988
G01 X310.325 Y249.964
G01 X310.300 Y249.927
G01 X310.275 Y249.885
G01 X310.275 Y249.843
G01 X310.275 Y249.789
G01 X310.299 Y249.740
G01 X310.349 Y249.698
G01 X310.399 Y249.662
G01 X310.474 Y249.637
G01 X310.549 Y249.630
G01 X310.649 Y249.630
G01 X310.724 Y249.648
G01 X310.799 Y249.684
G01 X310.899 Y249.732
G01 X310.975 Y249.805
G01 X311.025 Y249.890
G01 X311.075 Y250.000
G01 X311.100 Y250.122
G01 X311.099 Y250.256
G01 X311.074 Y250.391
G01 X311.023 Y250.525
G01 X310.946 Y250.658
G01 X310.845 Y250.779
G01 X310.744 Y250.881
G01 X310.592 Y250.969
G01 X310.441 Y251.033
G01 X310.266 Y251.067
G01 X310.090 Y251.070
G01 X309.891 Y251.030
G01 X309.717 Y250.955
G01 X309.544 Y250.845
G01 X309.371 Y250.706
G01 X309.222 Y250.545
G01 X309.099 Y250.360
G01 X309.025 Y250.153
G01 X308.975 Y249.929
G01 X308.949 Y249.693
G01 X308.997 Y249.445
G01 X309.070 Y249.208
G01 X309.216 Y248.981
G01 X309.387 Y248.776
G01 X309.608 Y248.593
G01 X309.830 Y248.444
G01 X310.102 Y248.329
G01 X310.375 Y248.260
G01 X310.674 Y248.234
G01 X310.975 Y248.255
G01 X311.252 Y248.339
G01 X311.556 Y248.479
G01 X311.811 Y248.677
G01 X312.041 Y248.920
G01 X312.220 Y249.203
G01 X312.373 Y249.513
G01 X312.475 Y249.850
G01 X312.525 Y250.200
G01 X312.497 Y250.562
G01 X312.418 Y250.917
G01 X312.262 Y251.264
G01 X312.030 Y251.582
G01 X311.772 Y251.860
G01 X311.439 Y252.102
G01 X311.082 Y252.291
G01 X310.702 Y252.423
G01 X310.299 Y252.485
G01 X309.874 Y252.480
G01 X309.477 Y252.398
G01 X309.058 Y252.233
G01 X308.691 Y252.002
G01 X308.350 Y251.710
G01 X308.059 Y251.364
G01 X307.817 Y250.971
G01 X307.647 Y250.542
G01 X307.550 Y250.086
G01 X307.524 Y249.609
G01 X307.618 Y249.130
G01 X307.760 Y248.665
G01 X307.998 Y248.224
G01 X308.309 Y247.824
G01 X308.696 Y247.474
G01 X309.108 Y247.184
G01 X309.573 Y246.965
G01 X310.091 Y246.830
G01 X310.615 Y246.790
G01 X311.169 Y246.853
G01 X311.702 Y247.005
G01 X312.189 Y247.243
G01 X312.652 Y247.555
G01 X313.066 Y247.943
G01 X313.430 Y248.395
G01 X313.691 Y248.904
G01 X313.873 Y249.463
G01 X313.950 Y250.051
G01 X313.897 Y250.652
G01 X313.763 Y251.243
G01 X313.549 Y251.818
G01 X313.231 Y252.347
G01 X312.836 Y252.829
G01 X312.366 Y253.239
G01 X311.797 Y253.563
G01 X311.208 Y253.781
G01 X310.550 Y253.892
G01 X309.899 Y253.887
G01 X309.255 Y253.779
G01 X308.616 Y253.574
G01 X308.008 Y253.263
G01 X307.454 Y252.863
G01 X306.976 Y252.366
G01 X306.597 Y251.789
G01 X306.338 Y251.144
G01 X306.173 Y250.449
G01 X306.124 Y249.736
G01 X306.216 Y249.016
G01 X306.400 Y248.313
G01 X306.676 Y247.641
G01 X307.097 Y247.022
G01 X307.593 Y246.482
G01 X308.215 Y246.035
G01 X308.893 Y245.699
G01 X309.629 Y245.477
G01 X310.399 Y245.382
G01 X311.178 Y245.403
G01 X311.940 Y245.551
G01 X312.687 Y245.838
G01 X313.364 Y246.251
G01 X313.969 Y246.779
G01 X314.473 Y247.413
G01 X314.898 Y248.124
G01 X315.191 Y248.891
G01 X315.349 Y249.706
G01 X315.373 Y250.542
G01 X315.260 Y251.377
G01 X314.988 Y252.184
G01 X314.583 Y252.940
G01 X314.048 Y253.622
G01 X313.410 Y254.223
G01 X312.698 Y254.711
G01 X311.892 Y255.074
G01 X311.021 Y255.291
G01 X310.137 Y255.354
G01 X309.242 Y255.262
G01 X308.359 Y255.025
G01 X307.512 Y254.651
G01 X306.748 Y254.150
G01 X306.065 Y253.520
G01 X305.506 Y252.766
G01 X305.091 Y251.929
G01 X304.816 Y251.019
G01 X304.700 Y250.076
G01 X304.718 Y249.113
G01 X304.894 Y248.166
G01 X305.232 Y247.258
G01 X305.735 Y246.417
G01 X306.384 Y245.672
G01 X307.135 Y245.039
G01 X308.018 Y244.536
G01 X308.938 Y244.176
G01 X309.947 Y243.967
G01 X310.948 Y243.928
G01 X311.967 Y244.070
G01 X312.950 Y244.389
G01 X313.870 Y244.879
G01 X314.694 Y245.509
G01 X315.419 Y246.267
G01 X316.013 Y247.140
G01 X316.448 Y248.099
G01 X316.719 Y249.132
G01 X316.825 Y250.207
G01 X316.713 Y251.281
G01 X316.434 Y252.339
G01 X315.990 Y253.342
G01 X315.411 Y254.264
G01 X314.651 Y255.079
G01 X313.766 Y255.754
G01 X312.764 Y256.259
G01 X311.698 Y256.596
G01 X310.574 Y256.757
G01 X309.420 Y256.731
G01 X308.311 Y256.529
G01 X307.222 Y256.134
G01 X306.226 Y255.562
G01 X305.341 Y254.810
G01 X304.585 Y253.909
G01 X303.973 Y252.890
G01 X303.545 Y251.789
G01 X303.296 Y250.629
G01 X303.247 Y249.435
G01 X303.396 Y248.242
G01 X303.746 Y247.089
G01 X304.304 Y246.012
G01 X305.051 Y245.032
G01 X305.922 Y244.174
G01 X306.952 Y243.467
G01 X308.072 Y242.933
G01 X309.265 Y242.601
G01 X310.511 Y242.495
G01 X311.758 Y242.597
G01 X313.002 Y242.908
G01 X314.163 Y243.413
G01 X315.259 Y244.097
G01 X316.208 Y244.952
G01 X317.004 Y245.975
G01 X317.614 Y247.124
G01 X318.005 Y248.367
G01 X318.199 Y249.666
G01 X318.193 Y250.982
G01 X317.961 Y252.291
G01 X317.532 Y253.542
G01 X316.884 Y254.709
G01 X316.026 Y255.745
G01 X314.988 Y256.625
G01 X313.831 Y257.328
G01 X312.561 Y257.835
G01 X311.236 Y258.143
G01 X309.863 Y258.222
G01 X308.471 Y258.067
G01 X307.163 Y257.665
G01 X305.909 Y257.036
G01 X304.775 Y256.205
G01 X303.774 Y255.200
G01 X302.970 Y254.049
G01 X302.352 Y252.772
G01 X301.931 Y251.402
G01 X301.800 Y249.979
G01 X301.904 Y248.541
G01 X302.246 Y247.134
G01 X302.808 Y245.793
G01 X303.574 Y244.554
G01 X304.533 Y243.452
G01 X305.676 Y242.528
G01 X306.991 Y241.823
G01 X308.388 Y241.354
G01 X309.870 Y241.117
G01 X311.361 Y241.121
G01 X312.859 Y241.359
G01 X314.285 Y241.844
G01 X315.605 Y242.568
G01 X316.811 Y243.519
G01 X317.816 Y244.672
G01 X318.607 Y245.982
G01 X319.201 Y247.403
G01 X319.567 Y248.914
G01 X319.673 Y250.460
G01 X319.521 Y252.016
G01 X319.085 Y253.526
G01 X318.397 Y254.940
G01 X317.488 Y256.233
G01 X316.367 Y257.370
G01 X315.072 Y258.309
G01 X313.639 Y259.020
G01 X312.107 Y259.469
G01 X310.485 Y259.649
G01 X308.878 Y259.568
G01 X307.288 Y259.221
G01 X305.763 Y258.616
G01 X304.374 Y257.762
G01 X303.133 Y256.671
G01 X302.098 Y255.380
G01 X301.275 Y253.930
G01 X300.720 Y252.365
G01 X300.395 Y250.726
G01 X300.366 Y249.043
G01 X300.657 Y247.378
G01 X301.202 Y245.782
G01 X302.012 Y244.282
G01 X303.056 Y242.928
G01 X304.304 Y241.765
G01 X305.725 Y240.830
G01 X307.311 Y240.156
G01 X309.017 Y239.754
G01 X310.747 Y239.635
G01 X312.472 Y239.796
G01 X314.161 Y240.237
G01 X315.758 Y240.974
G01 X317.223 Y241.976
G01 X318.489 Y243.211
G01 X319.544 Y244.641
G01 X320.349 Y246.232
G01 X320.895 Y247.936
G01 X321.124 Y249.715
G01 X321.034 Y251.513
G01 X320.674 Y253.281
G01 X319.998 Y254.978
G01 X319.066 Y256.539
G01 X317.888 Y257.938
G01 X316.503 Y259.114
G01 X314.905 Y260.028
G01 X313.156 Y260.665
G01 X311.342 Y261.023
G01 X309.478 Y261.075
G01 X307.643 Y260.823
G01 X305.868 Y260.247
G01 X304.196 Y259.370
G01 X302.687 Y258.222
G01 X301.396 Y256.845
G01 X300.350 Y255.270
G01 X299.549 Y253.539
G01 X299.071 Y251.689
G01 X298.924 Y249.775
G01 X299.103 Y247.858
G01 X299.588 Y245.989
G01 X300.369 Y244.212
G01 X301.419 Y242.591
G01 X302.767 Y241.175
G01 X304.338 Y240.005
G01 X306.077 Y239.110
G01 X307.945 Y238.501
G01 X309.900 Y238.206
G01 X311.892 Y238.238
G01 X313.819 Y238.624
G01 X315.690 Y239.338
G01 X317.414 Y240.355
G01 X318.970 Y241.634
G01 X320.292 Y243.153
G01 X321.341 Y244.876
G01 X322.053 Y246.770
G01 X322.464 Y248.760
G01 X322.521 Y250.805
G01 X322.269 Y252.834
G01 X321.665 Y254.794
G01 X320.765 Y256.636
G01 X319.531 Y258.299
G01 X318.033 Y259.726
G01 X316.311 Y260.892
G01 X314.408 Y261.773
G01 X312.417 Y262.341
G01 X310.309 Y262.546
G01 X308.222 Y262.385
G01 X306.184 Y261.875
G01 X304.239 Y261.034
G01 X302.451 Y259.886
G01 X300.876 Y258.461
G01 X299.564 Y256.777
G01 X298.555 Y254.886
G01 X297.865 Y252.846
G01 X297.545 Y250.713
G01 X297.553 Y248.554
G01 X297.916 Y246.419
G01 X298.650 Y244.370
G01 X299.735 Y242.483
G01 X301.127 Y240.791
G01 X302.785 Y239.344
G01 X304.637 Y238.183
G01 X306.678 Y237.337
G01 X308.849 Y236.852
G01 X311.055 Y236.756
G01 X313.261 Y237.038
G01 X315.422 Y237.662
G01 X317.424 Y238.634
G01 X319.271 Y239.927
G01 X320.845 Y241.522
G01 X322.122 Y243.382
G01 X323.107 Y245.425
G01 X323.711 Y247.611
G01 X323.975 Y249.874
G01 X323.869 Y252.150
G01 X323.344 Y254.384
G01 X322.459 Y256.495
G01 X321.226 Y258.444
G01 X319.687 Y260.169
G01 X317.888 Y261.618
G01 X315.876 Y262.758
G01 X313.678 Y263.532
G01 X311.368 Y263.910
G01 X309.034 Y263.909
G01 X306.710 Y263.524
G01 X304.474 Y262.766
G01 X302.397 Y261.645
G01 X300.560 Y260.180
G01 X298.959 Y258.404
G01 X297.699 Y256.391
G01 X296.763 Y254.192
G01 X296.212 Y251.868
G01 X296.059 Y249.600
G01 X296.047 Y249.475
G01 X296.299 Y247.196
G01 X296.308 Y247.083
G01 X296.959 Y244.766
G01 X298.005 Y242.582
G01 X299.386 Y240.589
G01 X301.070 Y238.842
G01 X303.049 Y237.400
G01 X305.234 Y236.331
G01 X307.586 Y235.639
G01 X310.037 Y235.346
G01 X312.478 Y235.450
G01 X314.897 Y235.950
G01 X317.202 Y236.859
G01 X319.321 Y238.157
G01 X321.198 Y239.799
G01 X322.757 Y241.736
G01 X324.024 Y243.901
G01 X324.906 Y246.251
G01 X325.364 Y248.718
G01 X325.390 Y251.244
G01 X325.007 Y253.738
G01 X324.196 Y256.142
G01 X323.020 Y258.390
G01 X321.469 Y260.421
G01 X319.620 Y262.166
G01 X317.476 Y263.558
G01 X315.115 Y264.568
G01 X312.611 Y265.182
G01 X310.033 Y265.393
G01 X307.479 Y265.180
G01 X304.964 Y264.521
G01 X302.612 Y263.434
G01 X300.453 Y261.957
G01 X298.575 Y260.155
G01 X296.989 Y258.061
G01 X295.792 Y255.740
G01 X295.048 Y253.413
G01 X294.984 Y253.231
G01 X294.707 Y251.011
G01 X294.646 Y250.616
G01 X294.726 Y248.421
G01 X294.729 Y247.977
G01 X295.202 Y245.725
G01 X295.264 Y245.376
G01 X296.177 Y242.979
G01 X296.207 Y242.893
G01 X297.529 Y240.598
G01 X299.263 Y238.554
G01 X301.315 Y236.842
G01 X303.622 Y235.494
G01 X306.157 Y234.524
G01 X308.782 Y233.984
G01 X311.474 Y233.890
G01 X314.172 Y234.255
G01 X316.731 Y235.098
G01 X319.165 Y236.346
G01 X321.345 Y237.981
G01 X323.237 Y239.940
G01 X324.794 Y242.200
G01 X325.916 Y244.707
G01 X326.605 Y247.371
G01 X326.850 Y250.115
G01 X326.621 Y252.874
G01 X325.971 Y255.571
G01 X324.886 Y258.119
G01 X323.336 Y260.439
G01 X321.419 Y262.473
G01 X319.215 Y264.167
G01 X316.727 Y265.483
G01 X314.064 Y266.379
G01 X311.285 Y266.816
G01 X308.470 Y266.762
G01 X305.685 Y266.223
G01 X303.029 Y265.237
G01 X300.567 Y263.832
G01 X298.349 Y262.037
G01 X296.459 Y259.888
G01 X294.989 Y257.440
G01 X294.074 Y255.082
G01 X293.942 Y254.773
G01 X293.502 Y252.574
G01 X293.356 Y251.957
G01 X293.270 Y249.827
G01 X293.215 Y249.079
G01 X293.492 Y246.933
G01 X293.561 Y246.214
G01 X294.233 Y243.956
G01 X294.368 Y243.439
G01 X295.621 Y240.947
G01 X295.667 Y240.847
G01 X297.401 Y238.505
G01 X299.484 Y236.470
G01 X301.868 Y234.798
G01 X304.492 Y233.537
G01 X307.332 Y232.735
G01 X310.243 Y232.441
G01 X313.186 Y232.649
G01 X316.056 Y233.337
G01 X318.794 Y234.471
G01 X321.297 Y236.044
G01 X323.507 Y238.032
G01 X325.337 Y240.372
G01 X326.757 Y243.003
G01 X327.713 Y245.830
G01 X328.241 Y248.787
G01 X328.255 Y251.784
G01 X327.730 Y254.747
G01 X326.726 Y257.589
G01 X325.234 Y260.218
G01 X323.352 Y262.591
G01 X321.088 Y264.617
G01 X318.524 Y266.254
G01 X315.704 Y267.422
G01 X312.744 Y268.090
G01 X309.674 Y268.243
G01 X306.635 Y267.911
G01 X303.673 Y267.080
G01 X300.886 Y265.774
G01 X298.365 Y263.997
G01 X296.189 Y261.809
G01 X294.391 Y259.276
G01 X293.203 Y256.835
G01 X293.014 Y256.483
G01 X292.382 Y254.274
G01 X292.129 Y253.505
G01 X291.898 Y251.421
G01 X291.748 Y250.413
G01 X291.866 Y248.358
G01 X291.888 Y247.294
G01 X292.402 Y245.163
G01 X292.587 Y244.241
G01 X293.581 Y241.912
G01 X293.801 Y241.335
G01 X295.424 Y238.672
G01 X295.431 Y238.660
G01 X297.508 Y236.277
G01 X299.934 Y234.279
G01 X302.691 Y232.726
G01 X305.682 Y231.659
G01 X308.811 Y231.096
G01 X311.994 Y231.053
G01 X315.134 Y231.538
G01 X318.180 Y232.561
G01 X320.989 Y234.088
G01 X323.515 Y236.059
G01 X325.719 Y238.416
G01 X327.467 Y241.114
G01 X328.753 Y244.082
G01 X329.502 Y247.232
G01 X329.724 Y250.462
G01 X329.439 Y253.696
G01 X328.602 Y256.847
G01 X327.230 Y259.806
G01 X325.371 Y262.496
G01 X323.083 Y264.845
G01 X320.450 Y266.800
G01 X317.540 Y268.300
G01 X314.381 Y269.261
G01 X311.107 Y269.688
G01 X307.803 Y269.567
G01 X304.566 Y268.910
G01 X301.460 Y267.718
G01 X298.608 Y266.005
G01 X296.093 Y263.835
G01 X293.953 Y261.270
G01 X292.446 Y258.689
G01 X292.251 Y258.384
G01 X291.426 Y256.126
G01 X291.065 Y255.256
G01 X290.700 Y253.190
G01 X290.428 Y251.958
G01 X290.416 Y249.972
G01 X290.351 Y248.595
G01 X290.672 Y246.580
G01 X290.826 Y245.259
G01 X291.547 Y243.095
G01 X291.849 Y242.038
G01 X293.130 Y239.578
G01 X293.385 Y239.033
G01 X295.439 Y236.331
G01 X297.927 Y234.006
G01 X300.742 Y232.119
G01 X303.851 Y230.714
G01 X307.151 Y229.848
G01 X310.568 Y229.558
G01 X313.979 Y229.858
G01 X317.313 Y230.702
G01 X320.460 Y232.091
G01 X323.346 Y233.983
G01 X325.857 Y236.353
G01 X327.943 Y239.111
G01 X329.542 Y242.188
G01 X330.624 Y245.488
G01 X331.143 Y248.929
G01 X331.064 Y252.408
G01 X330.388 Y255.838
G01 X329.176 Y259.121
G01 X327.426 Y262.161
G01 X325.194 Y264.867
G01 X322.523 Y267.157
G01 X319.484 Y268.961
G01 X316.220 Y270.259
G01 X312.755 Y270.998
G01 X309.213 Y271.146
G01 X305.684 Y270.680
G01 X302.288 Y269.627
G01 X299.093 Y268.032
G01 X296.228 Y265.943
G01 X293.723 Y263.381
G01 X291.810 Y260.583
G01 X291.692 Y260.424
G01 X290.644 Y258.066
G01 X290.191 Y257.164
G01 X289.668 Y255.078
G01 X289.251 Y253.696
G01 X289.089 Y251.753
G01 X288.875 Y250.116
G01 X289.034 Y248.200
G01 X289.095 Y246.515
G01 X289.640 Y244.495
G01 X289.967 Y243.003
G01 X290.973 Y240.735
G01 X291.383 Y239.680
G01 X293.159 Y236.957
G01 X293.358 Y236.621
G01 X295.786 Y233.927
G01 X298.641 Y231.686
G01 X301.861 Y229.956
G01 X305.323 Y228.790
G01 X308.946 Y228.195
G01 X312.593 Y228.217
G01 X316.228 Y228.844
G01 X319.686 Y230.089
G01 X322.888 Y231.908
G01 X325.775 Y234.221
G01 X328.223 Y236.975
G01 X330.193 Y240.118
G01 X331.596 Y243.557
G01 X332.402 Y247.189
G01 X332.595 Y250.908
G01 X332.196 Y254.616
G01 X331.161 Y258.209
G01 X329.513 Y261.570
G01 X327.331 Y264.616
G01 X324.677 Y267.280
G01 X321.626 Y269.469
G01 X318.233 Y271.114
G01 X314.584 Y272.143
G01 X310.825 Y272.562
G01 X307.046 Y272.369
G01 X303.359 Y271.560
G01 X299.821 Y270.107
G01 X296.613 Y268.090
G01 X293.769 Y265.552
G01 X291.354 Y262.579
G01 X289.965 Y260.044
G01 X289.480 Y259.252
G01 X288.761 Y257.098
G01 X288.186 Y255.638
G01 X287.901 Y253.707
G01 X287.529 Y251.855
G01 X287.575 Y250.012
G01 X287.530 Y248.168
G01 X287.522 Y248.009
G01 X287.866 Y246.121
G01 X288.112 Y244.205
G01 X288.874 Y242.120
G01 X289.356 Y240.548
G01 X290.734 Y238.075
G01 X291.192 Y237.149
G01 X293.595 Y234.111
G01 X296.455 Y231.510
G01 X299.726 Y229.397
G01 X303.309 Y227.856
G01 X307.095 Y226.943
G01 X310.977 Y226.706
G01 X314.877 Y227.101
G01 X318.651 Y228.130
G01 X322.220 Y229.771
G01 X325.457 Y231.997
G01 X328.254 Y234.755
G01 X330.578 Y237.945
G01 X332.359 Y241.470
G01 X333.540 Y245.241
G01 X334.046 Y249.176
G01 X333.866 Y253.138
G01 X333.028 Y257.024
G01 X331.597 Y260.734
G01 X329.550 Y264.155
G01 X326.930 Y267.179
G01 X323.837 Y269.721
G01 X320.374 Y271.723
G01 X316.621 Y273.140
G01 X312.671 Y273.905
G01 X308.657 Y273.995
G01 X304.659 Y273.380
G01 X300.818 Y272.123
G01 X297.238 Y270.262
G01 X294.002 Y267.825
G01 X291.229 Y264.858
G01 X289.425 Y262.058
G01 X289.000 Y261.464
G01 X288.054 Y259.184
G01 X287.357 Y257.740
G01 X286.906 Y255.775
G01 X286.354 Y253.872
G01 X286.328 Y253.792
G01 X286.229 Y251.991
G01 X286.041 Y250.210
G01 X285.974 Y249.723
G01 X286.192 Y247.942
G01 X286.321 Y246.140
G01 X286.340 Y245.647
G01 X286.909 Y243.729
G01 X287.375 Y241.745
G01 X287.387 Y241.687
G01 X288.448 Y239.446
G01 X289.058 Y237.948
G01 X290.980 Y235.116
G01 X291.346 Y234.517
G01 X294.163 Y231.515
G01 X297.453 Y229.042
G01 X301.128 Y227.155
G01 X305.056 Y225.900
G01 X309.152 Y225.304
G01 X313.309 Y225.386
G01 X317.393 Y226.191
G01 X321.262 Y227.682
G01 X324.867 Y229.778
G01 X328.077 Y232.450
G01 X330.804 Y235.613
G01 X332.952 Y239.214
G01 X334.446 Y243.128
G01 X335.305 Y247.243
G01 X335.463 Y251.435
G01 X335.463 Y251.444
G01 X334.916 Y255.611
G01 X334.914 Y255.621
G01 X333.671 Y259.647
G01 X331.733 Y263.408
G01 X329.234 Y266.822
G01 X326.177 Y269.768
G01 X322.693 Y272.176
G01 X318.829 Y273.945
G01 X314.700 Y275.035
G01 X310.462 Y275.449
G01 X306.201 Y275.158
G01 X302.044 Y274.152
G01 X298.121 Y272.449
G01 X294.522 Y270.102
G01 X291.368 Y267.198
G01 X288.836 Y263.953
G01 X288.712 Y263.807
G01 X287.421 Y261.310
G01 X286.656 Y260.018
G01 X286.054 Y257.976
G01 X285.342 Y256.017
G01 X285.306 Y255.926
G01 X285.092 Y254.132
G01 X284.787 Y252.373
G01 X284.635 Y251.657
G01 X284.724 Y249.955
G01 X284.729 Y248.249
G01 X284.697 Y247.326
G01 X285.078 Y245.557
G01 X285.368 Y243.744
G01 X285.451 Y243.057
G01 X286.247 Y241.034
G01 X286.912 Y238.969
G01 X288.418 Y236.432
G01 X289.063 Y235.194
G01 X291.821 Y231.823
G01 X295.077 Y228.949
G01 X298.794 Y226.634
G01 X302.850 Y224.977
G01 X307.109 Y224.057
G01 X311.495 Y223.848
G01 X315.861 Y224.364
G01 X320.094 Y225.583
G01 X324.059 Y227.504
G01 X327.636 Y230.085
G01 X330.727 Y233.232
G01 X333.293 Y236.848
G01 X335.194 Y240.805
G01 X335.209 Y240.839
G01 X336.405 Y244.981
G01 X336.436 Y245.102
G01 X336.909 Y249.347
G01 X336.924 Y249.522
G01 X336.651 Y253.779
G01 X336.634 Y253.962
G01 X335.689 Y258.146
G01 X335.648 Y258.308
G01 X334.005 Y262.334
G01 X333.958 Y262.440
G01 X331.608 Y266.219
G01 X331.602 Y266.227
G01 X328.605 Y269.552
G01 X325.096 Y272.344
G01 X321.167 Y274.527
G01 X316.939 Y276.040
G01 X312.494 Y276.806
G01 X308.003 Y276.812
G01 X303.546 Y276.057
G01 X299.257 Y274.582
G01 X295.296 Y272.441
G01 X291.711 Y269.631
G01 X288.697 Y266.261
G01 X286.969 Y263.441
G01 X286.258 Y262.415
G01 X285.408 Y260.213
G01 X284.483 Y258.223
G01 X284.118 Y256.385
G01 X283.658 Y254.603
G01 X283.411 Y253.788
G01 X283.376 Y252.133
G01 X283.260 Y250.490
G01 X283.116 Y249.235
G01 X283.369 Y247.587
G01 X283.538 Y245.912
G01 X283.608 Y244.690
G01 X284.203 Y242.860
G01 X284.697 Y240.960
G01 X284.845 Y240.281
G01 X285.982 Y238.032
G01 X286.796 Y236.125
G01 X288.926 Y233.096
G01 X289.400 Y232.344
G01 X292.605 Y229.055
G01 X296.346 Y226.364
G01 X300.472 Y224.330
G01 X304.892 Y222.995
G01 X309.482 Y222.396
G01 X314.112 Y222.591
G01 X318.639 Y223.574
G01 X322.935 Y225.311
G01 X326.912 Y227.717
G01 X330.453 Y230.746
G01 X333.401 Y234.322
G01 X333.419 Y234.346
G01 X335.636 Y238.245
G01 X335.719 Y238.400
G01 X337.239 Y242.530
G01 X337.328 Y242.796
G01 X338.157 Y247.071
G01 X338.212 Y247.397
G01 X338.303 Y251.730
G01 X338.301 Y252.075
G01 X337.678 Y256.375
G01 X337.617 Y256.724
G01 X336.231 Y260.895
G01 X336.127 Y261.181
G01 X334.027 Y265.133
G01 X333.910 Y265.338
G01 X331.139 Y268.988
G01 X331.057 Y269.090
G01 X327.605 Y272.315
G01 X323.676 Y274.915
G01 X319.325 Y276.801
G01 X314.724 Y277.946
G01 X309.999 Y278.327
G01 X305.269 Y277.929
G01 X300.665 Y276.712
G01 X296.337 Y274.733
G01 X292.378 Y272.057
G01 X288.909 Y268.771
G01 X286.393 Y265.404
G01 X286.019 Y264.953
G01 X284.844 Y262.499
G01 X283.825 Y260.693
G01 X283.316 Y258.760
G01 X282.701 Y256.902
G01 X282.402 Y256.121
G01 X282.249 Y254.466
G01 X282.013 Y252.841
G01 X281.721 Y251.358
G01 X281.650 Y250.136
G01 X281.650 Y250.000
G01 X279.550 Y250.000
G01 X277.050 Y250.000
G01 X275.050 Y250.000
G01 X272.975 Y250.000
G01 X270.750 Y249.979
G01 X268.700 Y249.979
G01 X264.575 Y249.980
G01 X261.225 Y249.980
G01 X258.175 Y249.911
G01 X254.149 Y249.911
G01 X254.133 Y249.708
G01 X254.106 Y249.506
G01 X254.070 Y249.306
G01 X254.025 Y249.109
G01 X253.969 Y248.914
G01 X253.905 Y248.723
G01 X253.831 Y248.536
G01 X253.748 Y248.352
G01 X253.657 Y248.173
G01 X253.556 Y248.000
G01 X253.448 Y247.831
G01 X253.332 Y247.669
G01 X253.208 Y247.512
G01 X253.077 Y247.362
G01 X253.027 Y247.309
G01 X252.870 Y247.184
G01 X252.709 Y247.068
G01 X252.543 Y246.961
G01 X252.373 Y246.863
G01 X252.200 Y246.775
G01 X252.024 Y246.696
G01 X251.845 Y246.626
G01 X251.664 Y246.566
G01 X251.482 Y246.515
G01 X251.300 Y246.474
G01 X251.116 Y246.442
G01 X251.093 Y246.439
G01 X250.916 Y246.394
G01 X250.737 Y246.357
G01 X250.556 Y246.329
G01 X250.375 Y246.311
G01 X250.193 Y246.301
G01 X250.012 Y246.300
G01 X249.830 Y246.308
G01 X249.650 Y246.325
G01 X249.470 Y246.351
G01 X249.293 Y246.385
G01 X249.117 Y246.428
G01 X248.945 Y246.480
G01 X248.774 Y246.539
G01 X248.607 Y246.606
G01 X248.444 Y246.682
G01 X248.284 Y246.765
G01 X248.129 Y246.856
G01 X247.979 Y246.954
G01 X247.834 Y247.060
G01 X247.695 Y247.172
G01 X247.561 Y247.291
G01 X247.433 Y247.417
G01 X247.312 Y247.548
G01 X247.197 Y247.685
G01 X247.090 Y247.827
G01 X246.989 Y247.974
G01 X246.896 Y248.126
G01 X246.889 Y248.140
G01 X246.809 Y248.299
G01 X246.738 Y248.462
G01 X246.675 Y248.627
G01 X246.620 Y248.795
G01 X246.574 Y248.965
G01 X246.536 Y249.137
G01 X246.507 Y249.309
G01 X246.486 Y249.483
G01 X246.475 Y249.657
G01 X246.471 Y249.831
G01 X246.475 Y249.980
G01 X244.300 Y249.980
G01 X242.200 Y249.981
G01 X240.025 Y249.980
G01 X238.200 Y249.980
G01 X237.075 Y249.981
G01 X234.000 Y249.981
G01 X230.975 Y249.981
G01 X228.925 Y250.000
G01 X227.025 Y250.000
G01 X224.000 Y250.000
G01 X222.225 Y250.000
G01 X220.575 Y250.000
G01 X217.825 Y250.000
G01 X213.475 Y250.000
G01 X209.175 Y250.000
G01 X204.700 Y250.000
G01 X200.550 Y250.001
G01 X197.675 Y250.001
G01 X193.250 Y250.001
G01 X189.625 Y250.001
G01 X189.650 Y249.995
G01 X189.700 Y249.995
G01 X189.725 Y250.013
G01 X189.775 Y250.043
G01 X189.800 Y250.085
G01 X189.800 Y250.133
G01 X189.800 Y250.187
G01 X189.801 Y250.247
G01 X189.776 Y250.302
G01 X189.726 Y250.356
G01 X189.651 Y250.405
G01 X189.577 Y250.448
G01 X189.502 Y250.479
G01 X189.402 Y250.492
G01 X189.302 Y250.486
G01 X189.227 Y250.463
G01 X189.126 Y250.421
G01 X189.026 Y250.348
G01 X188.951 Y250.257
G01 X188.875 Y250.141
G01 X188.825 Y250.007
G01 X188.800 Y249.866
G01 X188.801 Y249.719
G01 X188.827 Y249.566
G01 X188.878 Y249.414
G01 X188.954 Y249.274
G01 X189.056 Y249.141
G01 X189.183 Y249.021
G01 X189.334 Y248.927
G01 X189.511 Y248.863
G01 X189.711 Y248.837
G01 X189.936 Y248.841
G01 X190.135 Y248.881
G01 X190.334 Y248.944
G01 X190.533 Y249.049
G01 X190.706 Y249.182
G01 X190.879 Y249.350
G01 X191.002 Y249.546
G01 X191.100 Y249.777
G01 X191.150 Y250.030
G01 X191.151 Y250.289
G01 X191.103 Y250.554
G01 X191.006 Y250.815
G01 X190.885 Y251.065
G01 X190.714 Y251.299
G01 X190.494 Y251.501
G01 X190.273 Y251.673
G01 X190.002 Y251.801
G01 X189.704 Y251.876
G01 X189.380 Y251.899
G01 X189.053 Y251.860
G01 X188.725 Y251.766
G01 X188.421 Y251.621
G01 X188.141 Y251.424
G01 X187.886 Y251.187
G01 X187.682 Y250.904
G01 X187.503 Y250.582
G01 X187.400 Y250.226
G01 X187.375 Y249.850
G01 X187.402 Y249.469
G01 X187.482 Y249.088
G01 X187.638 Y248.722
G01 X187.846 Y248.384
G01 X188.105 Y248.075
G01 X188.439 Y247.814
G01 X188.797 Y247.606
G01 X189.203 Y247.470
G01 X189.631 Y247.403
G01 X190.081 Y247.417
G01 X190.503 Y247.494
G01 X190.947 Y247.649
G01 X191.339 Y247.864
G01 X191.704 Y248.152
G01 X192.020 Y248.493
G01 X192.285 Y248.904
G01 X192.454 Y249.356
G01 X192.550 Y249.834
G01 X192.551 Y250.334
G01 X192.506 Y250.834
G01 X192.365 Y251.326
G01 X192.128 Y251.789
G01 X191.842 Y252.218
G01 X191.457 Y252.590
G01 X191.021 Y252.893
G01 X190.531 Y253.114
G01 X189.988 Y253.250
G01 X189.440 Y253.298
G01 X188.887 Y253.261
G01 X188.330 Y253.136
G01 X187.794 Y252.920
G01 X187.305 Y252.617
G01 X186.864 Y252.224
G01 X186.524 Y251.747
G01 X186.237 Y251.212
G01 X186.053 Y250.634
G01 X185.975 Y250.026
G01 X185.978 Y249.405
G01 X186.086 Y248.793
G01 X186.276 Y248.197
G01 X186.594 Y247.647
G01 X186.990 Y247.144
G01 X187.511 Y246.730
G01 X188.080 Y246.399
G01 X188.695 Y246.164
G01 X189.355 Y246.023
G01 X190.009 Y245.981
G01 X190.706 Y246.058
G01 X191.345 Y246.242
G01 X191.977 Y246.550
G01 X192.530 Y246.969
G01 X193.030 Y247.487
G01 X193.407 Y248.087
G01 X193.714 Y248.745
G01 X193.928 Y249.445
G01 X194.000 Y250.169
G01 X193.957 Y250.909
G01 X193.799 Y251.631
G01 X193.498 Y252.324
G01 X193.077 Y252.958
G01 X192.558 Y253.520
G01 X191.937 Y253.996
G01 X191.262 Y254.367
G01 X190.505 Y254.627
G01 X189.737 Y254.753
G01 X188.934 Y254.743
G01 X188.145 Y254.593
G01 X187.373 Y254.304
G01 X186.670 Y253.900
G01 X186.039 Y253.381
G01 X185.484 Y252.764
G01 X185.032 Y252.054
G01 X184.712 Y251.267
G01 X184.551 Y250.433
G01 X184.526 Y249.582
G01 X184.613 Y248.719
G01 X184.859 Y247.883
G01 X185.240 Y247.098
G01 X185.752 Y246.380
G01 X186.391 Y245.758
G01 X187.129 Y245.251
G01 X187.961 Y244.877
G01 X188.835 Y244.635
G01 X189.747 Y244.539
G01 X190.671 Y244.587
G01 X191.557 Y244.791
G01 X192.429 Y245.153
G01 X193.215 Y245.671
G01 X193.896 Y246.309
G01 X194.502 Y247.068
G01 X194.965 Y247.908
G01 X195.288 Y248.819
G01 X195.450 Y249.771
G01 X195.430 Y250.748
G01 X195.252 Y251.720
G01 X194.914 Y252.652
G01 X194.411 Y253.519
G01 X193.790 Y254.309
G01 X193.043 Y254.986
G01 X192.189 Y255.527
G01 X191.247 Y255.919
G01 X190.239 Y256.136
G01 X189.188 Y256.176
G01 X188.170 Y256.048
G01 X187.163 Y255.760
G01 X186.195 Y255.309
G01 X185.321 Y254.705
G01 X184.569 Y253.951
G01 X183.971 Y253.067
G01 X183.508 Y252.089
G01 X183.208 Y251.036
G01 X183.075 Y249.947
G01 X183.135 Y248.851
G01 X183.362 Y247.774
G01 X183.780 Y246.740
G01 X184.385 Y245.796
G01 X185.145 Y244.964
G01 X186.057 Y244.262
G01 X187.039 Y243.709
G01 X188.110 Y243.315
G01 X189.240 Y243.105
G01 X190.398 Y243.098
G01 X191.557 Y243.303
G01 X192.646 Y243.695
G01 X193.691 Y244.271
G01 X194.625 Y245.003
G01 X195.430 Y245.884
G01 X196.065 Y246.880
G01 X196.538 Y247.989
G01 X196.807 Y249.165
G01 X196.876 Y250.383
G01 X196.724 Y251.599
G01 X196.397 Y252.785
G01 X195.891 Y253.903
G01 X195.196 Y254.930
G01 X194.329 Y255.823
G01 X193.302 Y256.550
G01 X192.158 Y257.093
G01 X190.942 Y257.446
G01 X189.677 Y257.599
G01 X188.386 Y257.555
G01 X187.147 Y257.293
G01 X185.937 Y256.817
G01 X184.838 Y256.131
G01 X183.859 Y255.263
G01 X183.034 Y254.239
G01 X182.370 Y253.087
G01 X181.925 Y251.846
G01 X181.652 Y250.541
G01 X181.630 Y249.208
G01 X181.858 Y247.881
G01 X182.310 Y246.607
G01 X182.957 Y245.415
G01 X183.792 Y244.333
G01 X184.783 Y243.398
G01 X185.922 Y242.632
G01 X187.198 Y242.077
G01 X188.551 Y241.754
G01 X189.925 Y241.670
G01 X191.318 Y241.815
G01 X192.681 Y242.180
G01 X193.991 Y242.764
G01 X195.153 Y243.549
G01 X196.202 Y244.532
G01 X197.050 Y245.686
G01 X197.687 Y246.979
G01 X198.101 Y248.370
G01 X198.275 Y249.809
G01 X198.241 Y251.269
G01 X197.970 Y252.703
G01 X197.433 Y254.083
G01 X196.667 Y255.346
G01 X195.709 Y256.464
G01 X194.543 Y257.409
G01 X193.235 Y258.168
G01 X191.848 Y258.706
G01 X190.377 Y259.012
G01 X188.843 Y259.062
G01 X187.345 Y258.837
G01 X185.891 Y258.350
G01 X184.543 Y257.628
G01 X183.310 Y256.692
G01 X182.229 Y255.577
G01 X181.359 Y254.290
G01 X180.709 Y252.871
G01 X180.313 Y251.353
G01 X180.200 Y249.777
G01 X180.348 Y248.203
G01 X180.731 Y246.659
G01 X181.368 Y245.196
G01 X182.253 Y243.860
G01 X183.349 Y242.693
G01 X184.647 Y241.722
G01 X186.083 Y240.980
G01 X187.648 Y240.475
G01 X189.256 Y240.229
G01 X190.897 Y240.262
G01 X192.516 Y240.582
G01 X194.067 Y241.175
G01 X195.482 Y242.012
G01 X196.774 Y243.074
G01 X197.882 Y244.339
G01 X198.749 Y245.778
G01 X199.344 Y247.349
G01 X199.685 Y249.009
G01 X199.730 Y250.709
G01 X199.507 Y252.401
G01 X199.034 Y254.035
G01 X198.249 Y255.575
G01 X197.232 Y256.958
G01 X195.986 Y258.147
G01 X194.547 Y259.132
G01 X192.948 Y259.870
G01 X191.278 Y260.335
G01 X189.532 Y260.511
G01 X187.759 Y260.377
G01 X186.044 Y259.948
G01 X184.423 Y259.242
G01 X182.909 Y258.281
G01 X181.590 Y257.079
G01 X180.480 Y255.665
G01 X179.643 Y254.072
G01 X179.089 Y252.356
G01 X178.802 Y250.556
G01 X178.811 Y248.741
G01 X179.116 Y246.937
G01 X179.738 Y245.216
G01 X180.668 Y243.618
G01 X181.845 Y242.197
G01 X183.232 Y240.973
G01 X184.814 Y239.989
G01 X186.525 Y239.275
G01 X188.346 Y238.871
G01 X190.242 Y238.793
G01 X192.107 Y239.023
G01 X193.914 Y239.557
G01 X195.619 Y240.380
G01 X197.182 Y241.482
G01 X198.520 Y242.840
G01 X199.609 Y244.415
G01 X200.449 Y246.158
G01 X200.965 Y248.014
G01 X201.200 Y249.937
G01 X201.086 Y251.875
G01 X200.644 Y253.774
G01 X199.884 Y255.576
G01 X198.834 Y257.232
G01 X197.517 Y258.702
G01 X195.982 Y259.942
G01 X194.258 Y260.912
G01 X192.373 Y261.562
G01 X190.424 Y261.885
G01 X188.410 Y261.878
G01 X186.442 Y261.553
G01 X184.527 Y260.903
G01 X182.756 Y259.944
G01 X181.170 Y258.678
G01 X179.815 Y257.163
G01 X178.732 Y255.435
G01 X177.937 Y253.549
G01 X177.442 Y251.554
G01 X177.302 Y249.506
G01 X177.545 Y247.449
G01 X178.118 Y245.459
G01 X179.014 Y243.588
G01 X180.197 Y241.867
G01 X181.650 Y240.369
G01 X183.330 Y239.132
G01 X185.238 Y238.216
G01 X187.258 Y237.628
G01 X189.351 Y237.371
G01 X191.478 Y237.460
G01 X193.559 Y237.894
G01 X195.538 Y238.683
G01 X197.377 Y239.815
G01 X198.973 Y241.231
G01 X200.354 Y242.908
G01 X201.430 Y244.779
G01 X202.182 Y246.806
G01 X202.587 Y248.943
G01 X202.588 Y251.124
G01 X202.263 Y253.280
G01 X201.546 Y255.367
G01 X200.538 Y257.314
G01 X199.203 Y259.066
G01 X197.580 Y260.572
G01 X195.713 Y261.776
G01 X193.678 Y262.649
G01 X191.493 Y263.188
G01 X189.278 Y263.363
G01 X187.039 Y263.177
G01 X184.857 Y262.597
G01 X182.802 Y261.647
G01 X180.949 Y260.366
G01 X179.295 Y258.792
G01 X177.936 Y256.969
G01 X176.892 Y254.950
G01 X176.202 Y252.762
G01 X175.902 Y250.482
G01 X175.997 Y248.180
G01 X176.463 Y245.915
G01 X177.268 Y243.752
G01 X178.449 Y241.750
G01 X179.963 Y239.981
G01 X181.739 Y238.487
G01 X183.779 Y237.313
G01 X185.963 Y236.472
G01 X188.269 Y235.995
G01 X190.622 Y235.916
G01 X192.984 Y236.253
G01 X195.225 Y236.985
G01 X197.331 Y238.084
G01 X199.247 Y239.512
G01 X200.902 Y241.233
G01 X202.255 Y243.214
G01 X203.249 Y245.414
G01 X203.830 Y247.746
G01 X204.033 Y250.014
G01 X204.050 Y250.161
G01 X203.879 Y252.428
G01 X203.872 Y252.577
G01 X203.290 Y254.918
G01 X203.285 Y254.938
G01 X202.312 Y257.174
G01 X200.957 Y259.209
G01 X199.276 Y260.987
G01 X197.307 Y262.477
G01 X195.143 Y263.629
G01 X192.812 Y264.408
G01 X190.357 Y264.792
G01 X187.874 Y264.737
G01 X185.430 Y264.257
G01 X183.100 Y263.381
G01 X180.909 Y262.145
G01 X178.981 Y260.560
G01 X177.315 Y258.669
G01 X176.035 Y256.504
G01 X175.115 Y254.146
G01 X174.593 Y251.668
G01 X174.480 Y249.132
G01 X174.777 Y246.606
G01 X175.504 Y244.156
G01 X176.674 Y241.873
G01 X178.195 Y239.809
G01 X180.020 Y238.010
G01 X182.148 Y236.536
G01 X184.477 Y235.424
G01 X186.973 Y234.731
G01 X189.561 Y234.478
G01 X192.148 Y234.666
G01 X194.703 Y235.273
G01 X197.101 Y236.279
G01 X199.326 Y237.680
G01 X201.281 Y239.443
G01 X202.881 Y241.524
G01 X204.135 Y243.855
G01 X204.935 Y246.201
G01 X204.997 Y246.365
G01 X205.361 Y248.593
G01 X205.437 Y248.980
G01 X205.440 Y251.168
G01 X205.455 Y251.640
G01 X205.061 Y253.870
G01 X205.002 Y254.270
G01 X204.124 Y256.638
G01 X204.074 Y256.787
G01 X202.772 Y259.118
G01 X201.070 Y261.220
G01 X199.088 Y263.017
G01 X196.807 Y264.465
G01 X194.290 Y265.497
G01 X191.650 Y266.080
G01 X188.940 Y266.211
G01 X186.230 Y265.911
G01 X183.586 Y265.173
G01 X181.108 Y264.002
G01 X178.875 Y262.415
G01 X176.945 Y260.460
G01 X175.349 Y258.200
G01 X174.140 Y255.716
G01 X173.336 Y253.061
G01 X173.001 Y250.309
G01 X173.165 Y247.526
G01 X173.777 Y244.810
G01 X174.852 Y242.218
G01 X176.323 Y239.836
G01 X178.168 Y237.715
G01 X180.356 Y235.934
G01 X182.826 Y234.563
G01 X185.496 Y233.626
G01 X188.287 Y233.140
G01 X191.127 Y233.103
G01 X193.943 Y233.535
G01 X196.648 Y234.439
G01 X199.144 Y235.805
G01 X201.410 Y237.588
G01 X203.345 Y239.715
G01 X204.906 Y242.134
G01 X205.942 Y244.526
G01 X206.060 Y244.774
G01 X206.580 Y246.986
G01 X206.742 Y247.584
G01 X206.859 Y249.711
G01 X206.928 Y250.479
G01 X206.689 Y252.610
G01 X206.631 Y253.368
G01 X205.997 Y255.601
G01 X205.855 Y256.176
G01 X204.741 Y258.615
G01 X204.652 Y258.830
G01 X203.003 Y261.253
G01 X200.964 Y263.366
G01 X198.594 Y265.089
G01 X195.957 Y266.393
G01 X193.134 Y267.249
G01 X190.199 Y267.644
G01 X187.234 Y267.554
G01 X184.329 Y266.958
G01 X181.563 Y265.859
G01 X179.026 Y264.299
G01 X176.758 Y262.347
G01 X174.820 Y260.059
G01 X173.288 Y257.473
G01 X172.239 Y254.657
G01 X171.693 Y251.693
G01 X171.636 Y248.669
G01 X172.070 Y245.671
G01 X172.988 Y242.779
G01 X174.373 Y240.075
G01 X176.227 Y237.648
G01 X178.465 Y235.574
G01 X181.006 Y233.890
G01 X183.813 Y232.642
G01 X186.800 Y231.868
G01 X189.855 Y231.587
G01 X192.942 Y231.849
G01 X195.918 Y232.641
G01 X198.738 Y233.919
G01 X201.323 Y235.644
G01 X203.612 Y237.764
G01 X205.508 Y240.238
G01 X206.774 Y242.718
G01 X206.938 Y243.011
G01 X207.625 Y245.243
G01 X207.890 Y245.996
G01 X208.146 Y248.086
G01 X208.310 Y249.104
G01 X208.234 Y251.153
G01 X208.236 Y252.250
G01 X207.818 Y254.356
G01 X207.661 Y255.346
G01 X206.791 Y257.626
G01 X206.562 Y258.305
G01 X205.053 Y260.904
G01 X204.983 Y261.036
G01 X202.938 Y263.462
G01 X200.504 Y265.529
G01 X197.778 Y267.179
G01 X194.820 Y268.348
G01 X191.689 Y268.988
G01 X188.496 Y269.094
G01 X185.314 Y268.665
G01 X182.231 Y267.732
G01 X179.354 Y266.289
G01 X176.748 Y264.378
G01 X174.504 Y262.037
G01 X172.690 Y259.362
G01 X171.311 Y256.412
G01 X170.443 Y253.280
G01 X170.125 Y250.033
G01 X170.365 Y246.774
G01 X171.160 Y243.593
G01 X172.445 Y240.579
G01 X174.224 Y237.811
G01 X176.437 Y235.387
G01 X179.049 Y233.366
G01 X181.965 Y231.807
G01 X185.100 Y230.733
G01 X188.378 Y230.200
G01 X191.707 Y230.242
G01 X194.988 Y230.850
G01 X198.117 Y231.974
G01 X201.046 Y233.609
G01 X203.653 Y235.709
G01 X205.866 Y238.236
G01 X207.468 Y240.872
G01 X207.623 Y241.105
G01 X208.533 Y243.402
G01 X208.903 Y244.230
G01 X209.326 Y246.313
G01 X209.626 Y247.522
G01 X209.700 Y249.508
G01 X209.810 Y250.901
G01 X209.546 Y252.897
G01 X209.423 Y254.264
G01 X208.751 Y256.394
G01 X208.450 Y257.518
G01 X207.249 Y259.924
G01 X206.956 Y260.580
G01 X204.991 Y263.358
G01 X202.579 Y265.773
G01 X199.766 Y267.742
G01 X196.680 Y269.211
G01 X193.381 Y270.156
G01 X189.946 Y270.557
G01 X186.512 Y270.366
G01 X183.136 Y269.590
G01 X179.940 Y268.256
G01 X177.023 Y266.412
G01 X174.407 Y264.116
G01 X172.232 Y261.405
G01 X170.538 Y258.351
G01 X169.383 Y255.054
G01 X168.791 Y251.609
G01 X168.772 Y248.100
G01 X169.328 Y244.636
G01 X170.473 Y241.314
G01 X172.186 Y238.225
G01 X174.362 Y235.446
G01 X176.988 Y233.067
G01 X179.967 Y231.153
G01 X183.245 Y229.782
G01 X186.700 Y228.975
G01 X190.246 Y228.736
G01 X193.813 Y229.095
G01 X197.251 Y230.037
G01 X200.493 Y231.575
G01 X203.444 Y233.631
G01 X206.006 Y236.141
G01 X208.130 Y239.036
G01 X208.135 Y239.043
G01 X209.296 Y241.456
G01 X209.735 Y242.269
G01 X210.330 Y244.385
G01 X210.781 Y245.736
G01 X210.983 Y247.687
G01 X211.231 Y249.330
G01 X211.100 Y251.237
G01 X211.062 Y252.958
G01 X210.610 Y254.946
G01 X210.331 Y256.512
G01 X209.419 Y258.726
G01 X209.002 Y259.894
G01 X207.346 Y262.538
G01 X207.078 Y263.010
G01 X204.687 Y265.760
G01 X201.863 Y268.092
G01 X198.686 Y269.933
G01 X195.241 Y271.215
G01 X191.640 Y271.874
G01 X187.939 Y271.940
G01 X184.294 Y271.389
G01 X180.777 Y270.252
G01 X177.505 Y268.527
G01 X174.558 Y266.262
G01 X172.041 Y263.536
G01 X169.976 Y260.422
G01 X168.477 Y257.021
G01 X167.545 Y253.400
G01 X167.276 Y249.662
G01 X167.601 Y245.927
G01 X168.564 Y242.290
G01 X170.097 Y238.863
G01 X172.198 Y235.731
G01 X174.797 Y233.002
G01 X177.850 Y230.746
G01 X181.207 Y229.007
G01 X184.814 Y227.840
G01 X188.582 Y227.310
G01 X192.386 Y227.435
G01 X196.123 Y228.187
G01 X199.701 Y229.542
G01 X202.999 Y231.462
G01 X205.938 Y233.932
G01 X208.399 Y236.867
G01 X209.918 Y239.479
G01 X210.373 Y240.181
G01 X211.166 Y242.378
G01 X211.754 Y243.773
G01 X212.116 Y245.728
G01 X212.555 Y247.552
G01 X212.563 Y249.393
G01 X212.662 Y251.228
G01 X212.677 Y251.412
G01 X212.363 Y253.279
G01 X212.143 Y255.180
G01 X212.137 Y255.247
G01 X211.435 Y257.289
G01 X210.962 Y258.948
G01 X209.713 Y261.341
G01 X209.221 Y262.410
G01 X206.969 Y265.440
G01 X206.894 Y265.550
G01 X204.091 Y268.241
G01 X200.849 Y270.423
G01 X197.296 Y272.035
G01 X193.500 Y273.060
G01 X189.613 Y273.436
G01 X185.689 Y273.149
G01 X181.871 Y272.185
G01 X178.251 Y270.609
G01 X174.936 Y268.458
G01 X172.031 Y265.782
G01 X169.613 Y262.644
G01 X167.757 Y259.143
G01 X166.522 Y255.359
G01 X165.887 Y251.431
G01 X165.939 Y247.445
G01 X166.652 Y243.520
G01 X168.036 Y239.768
G01 X170.017 Y236.288
G01 X172.558 Y233.171
G01 X175.584 Y230.515
G01 X179.009 Y228.414
G01 X182.750 Y226.921
G01 X186.696 Y226.072
G01 X190.749 Y225.873
G01 X194.778 Y226.346
G01 X198.660 Y227.510
G01 X202.293 Y229.311
G01 X205.599 Y231.698
G01 X208.467 Y234.590
G01 X210.499 Y237.512
G01 X210.818 Y237.927
G01 X211.872 Y240.272
G01 X212.575 Y241.628
G01 X213.066 Y243.622
G01 X213.661 Y245.548
G01 X213.669 Y245.572
G01 X213.802 Y247.382
G01 X214.025 Y249.168
G01 X214.102 Y249.652
G01 X213.944 Y251.421
G01 X213.874 Y253.205
G01 X213.870 Y253.757
G01 X213.379 Y255.636
G01 X212.988 Y257.572
G01 X212.955 Y257.765
G01 X211.971 Y259.942
G01 X211.344 Y261.570
G01 X209.570 Y264.297
G01 X209.132 Y265.048
G01 X206.365 Y268.126
G01 X203.146 Y270.705
G01 X199.504 Y272.727
G01 X195.592 Y274.083
G01 X191.477 Y274.772
G01 X187.314 Y274.763
G01 X183.184 Y274.088
G01 X179.234 Y272.724
G01 X175.574 Y270.695
G01 X172.301 Y268.079
G01 X169.501 Y264.949
G01 X167.232 Y261.403
G01 X165.610 Y257.523
G01 X164.643 Y253.417
G01 X164.405 Y249.223
G01 X164.404 Y249.196
G01 X164.869 Y245.016
G01 X164.872 Y244.990
G01 X165.991 Y240.902
G01 X165.991 Y240.901
G01 X167.811 Y237.066
G01 X170.247 Y233.585
G01 X173.247 Y230.566
G01 X176.709 Y228.074
G01 X180.522 Y226.172
G01 X184.615 Y224.933
G01 X188.882 Y224.434
G01 X193.150 Y224.640
G01 X197.349 Y225.554
G01 X201.353 Y227.140
G01 X205.027 Y229.380
G01 X208.278 Y232.228
G01 X211.004 Y235.584
G01 X212.424 Y238.170
G01 X213.159 Y239.347
G01 X213.860 Y241.447
G01 X214.659 Y243.412
G01 X214.928 Y245.229
G01 X215.290 Y247.004
G01 X215.453 Y247.675
G01 X215.410 Y249.374
G01 X215.450 Y251.071
G01 X215.509 Y252.020
G01 X215.159 Y253.763
G01 X214.898 Y255.545
G01 X214.814 Y256.323
G01 X214.088 Y258.291
G01 X213.473 Y260.345
G01 X213.442 Y260.461
G01 X212.106 Y262.886
G01 X211.422 Y264.319
G01 X208.889 Y267.600
G01 X208.750 Y267.797
G01 X205.531 Y270.757
G01 X201.847 Y273.142
G01 X197.812 Y274.902
G01 X193.565 Y275.972
G01 X189.173 Y276.315
G01 X184.777 Y275.893
G01 X180.500 Y274.750
G01 X176.487 Y272.910
G01 X172.809 Y270.436
G01 X169.581 Y267.377
G01 X166.964 Y263.802
G01 X164.962 Y259.877
G01 X164.942 Y259.835
G01 X163.642 Y255.710
G01 X163.605 Y255.581
G01 X163.004 Y251.342
G01 X162.983 Y251.158
G01 X163.102 Y246.890
G01 X163.113 Y246.689
G01 X163.978 Y242.482
G01 X164.018 Y242.311
G01 X165.604 Y238.255
G01 X165.656 Y238.132
G01 X167.895 Y234.305
G01 X167.919 Y234.266
G01 X170.814 Y230.824
G01 X174.254 Y227.916
G01 X178.140 Y225.644
G01 X182.382 Y224.054
G01 X186.812 Y223.166
G01 X191.333 Y223.017
G01 X195.824 Y223.637
G01 X200.134 Y225.015
G01 X204.177 Y227.103
G01 X207.825 Y229.830
G01 X210.995 Y233.122
G01 X212.946 Y236.082
G01 X213.555 Y236.907
G01 X214.483 Y239.176
G01 X215.409 Y241.072
G01 X215.820 Y242.947
G01 X216.330 Y244.759
G01 X216.575 Y245.508
G01 X216.647 Y247.175
G01 X216.802 Y248.824
G01 X216.975 Y250.073
G01 X216.785 Y251.705
G01 X216.675 Y253.357
G01 X216.648 Y254.649
G01 X216.121 Y256.431
G01 X215.692 Y258.275
G01 X215.534 Y259.110
G01 X214.486 Y261.278
G01 X213.664 Y263.318
G01 X211.698 Y266.212
G01 X211.121 Y267.167
G01 X207.982 Y270.552
G01 X204.335 Y273.375
G01 X200.224 Y275.549
G01 X195.821 Y276.979
G01 X191.234 Y277.660
G01 X186.590 Y277.584
G01 X181.998 Y276.753
G01 X177.617 Y275.142
G01 X173.580 Y272.806
G01 X169.993 Y269.818
G01 X166.914 Y266.300
G01 X166.907 Y266.292
G01 X164.534 Y262.439
G01 X164.455 Y262.301
G01 X162.805 Y258.196
G01 X162.710 Y257.940
G01 X161.823 Y253.672
G01 X161.763 Y253.338
G01 X161.567 Y249.003
G01 X161.561 Y248.630
G01 X162.080 Y244.315
G01 X162.133 Y243.955
G01 X163.364 Y239.749
G01 X163.469 Y239.427
G01 X165.441 Y235.426
G01 X165.563 Y235.194
G01 X168.280 Y231.496
G01 X168.372 Y231.378
G01 X171.765 Y228.071
G01 X175.656 Y225.348
G01 X179.937 Y223.309
G01 X184.523 Y222.032
G01 X189.279 Y221.563
G01 X194.021 Y221.868
G01 X198.689 Y222.960
G01 X203.093 Y224.794
G01 X207.133 Y227.367
G01 X210.705 Y230.595
G01 X213.488 Y234.148
G01 X213.673 Y234.362
G01 X214.995 Y236.928
G01 X215.990 Y238.583
G01 X216.521 Y239.882
G01 X217.158 Y241.810
G01 X217.172 Y241.848
G01 X217.600 Y243.624
G01 X217.735 Y244.102
G01 X218.003 Y245.761
G01 X218.113 Y246.311
G01 X218.246 Y247.898
G01 X218.313 Y248.456
G01 X218.350 Y250.000
G01 X219.650 Y250.000
G01 X222.225 Y250.000
G01 X225.500 Y250.000
G01 X227.975 Y250.000
G01 X230.975 Y249.981
G01 X234.000 Y249.981
G01 X237.075 Y249.981
G01 X240.025 Y249.980
G01 X243.250 Y249.980
G01 X245.400 Y249.980
G01 X245.478 Y249.758
G01 X245.567 Y249.544
G01 X245.666 Y249.338
G01 X245.774 Y249.141
G01 X245.891 Y248.952
G01 X246.017 Y248.773
G01 X246.149 Y248.604
G01 X246.289 Y248.444
G01 X246.434 Y248.295
G01 X246.586 Y248.156
G01 X246.742 Y248.028
G01 X246.902 Y247.911
G01 X247.066 Y247.805
G01 X247.233 Y247.709
G01 X247.402 Y247.625
G01 X247.572 Y247.551
G01 X247.743 Y247.489
G01 X247.915 Y247.437
G01 X248.086 Y247.395
G01 X248.255 Y247.365
G01 X248.424 Y247.344
G01 X248.589 Y247.334
G01 X248.752 Y247.333
G01 X248.912 Y247.341
G01 X249.068 Y247.359
G01 X249.219 Y247.385
G01 X249.366 Y247.420
G01 X249.507 Y247.463
G01 X249.642 Y247.513
G01 X249.771 Y247.570
G01 X249.894 Y247.634
G01 X250.010 Y247.703
G01 X250.119 Y247.778
G01 X250.220 Y247.858
G01 X250.314 Y247.943
G01 X250.400 Y248.031
G01 X250.479 Y248.123
G01 X250.549 Y248.218
G01 X250.611 Y248.314
G01 X250.665 Y248.413
G01 X250.711 Y248.512
G01 X250.749 Y248.612
G01 X250.779 Y248.712
G01 X250.801 Y248.812
G01 X250.816 Y248.910
G01 X250.822 Y249.007
G01 X250.821 Y249.102
G01 X250.813 Y249.194
G01 X250.798 Y249.283
G01 X250.777 Y249.368
G01 X250.749 Y249.450
G01 X250.715 Y249.527
G01 X250.675 Y249.599
G01 X250.631 Y249.666
G01 X250.581 Y249.728
G01 X250.527 Y249.784
G01 X250.469 Y249.834
G01 X250.408 Y249.878
G01 X250.343 Y249.916
G01 X250.276 Y249.946
G01 X250.207 Y249.970
G01 X250.137 Y249.987
G01 X250.066 Y249.997
G01 X250.000 Y250.000
G01 X250.001 Y250.000
G01 X250.003 Y250.000
G01 X250.004 Y249.999
G01 X250.005 Y249.999
G01 X250.006 Y249.998
G01 X250.007 Y249.998
G01 X250.008 Y249.997
G01 X250.009 Y249.996
G01 X250.010 Y249.995
G01 X250.011 Y249.994
G01 X250.012 Y249.993
G01 X250.013 Y249.991
G01 X250.013 Y249.990
G01 X250.014 Y249.989
G01 X250.014 Y249.987
G01 X250.015 Y249.985
G01 X250.015 Y249.984
G01 X250.015 Y249.982
G01 X250.015 Y249.980
G01 X250.014 Y249.979
G01 X250.014 Y249.977
G01 X250.013 Y249.975
G01 X250.013 Y249.973
G01 X250.012 Y249.972
G01 X250.011 Y249.970
G01 X250.010 Y249.968
G01 X250.008 Y249.966
G01 X250.007 Y249.965
G01 X250.005 Y249.963
G01 X250.004 Y249.962
G01 X250.002 Y249.960
G01 X250.000 Y249.959
G01 X249.998 Y249.958
G01 X249.996 Y249.957
G01 X249.993 Y249.956
G01 X249.991 Y249.955
G01 X249.988 Y249.954
G01 X249.986 Y249.953
G01 X249.983 Y249.953
G01 X249.984 Y249.947
G01 X249.986 Y249.942
G01 X249.988 Y249.937
G01 X249.990 Y249.931
G01 X249.993 Y249.926
G01 X249.994 Y249.925
G01 X249.997 Y249.915
G01 X250.001 Y249.904
G01 X250.007 Y249.894
G01 X250.013 Y249.884
G01 X250.019 Y249.876
G01 X250.027 Y249.867
G01 X250.036 Y249.859
G01 X250.046 Y249.851
G01 X250.057 Y249.843
G01 X250.066 Y249.838
G01 X250.076 Y249.837
G01 X250.086 Y249.837
G01 X250.097 Y249.837
G01 X250.108 Y249.838
G01 X250.118 Y249.839
G01 X250.133 Y249.838
G01 X250.147 Y249.838
G01 X250.161 Y249.839
G01 X250.175 Y249.841
G01 X250.190 Y249.844
G01 X250.197 Y249.846
G01 X250.208 Y249.853
G01 X250.218 Y249.861
G01 X250.229 Y249.869
G01 X250.239 Y249.879
G01 X250.249 Y249.889
G01 X250.254 Y249.895
G01 X250.268 Y249.904
G01 X250.281 Y249.914
G01 X250.294 Y249.926
G01 X250.307 Y249.939
G01 X250.318 Y249.952
G01 X250.322 Y249.957
G01 X250.334 Y249.972
G01 X250.345 Y249.988
G01 X250.355 Y250.005
G01 X250.364 Y250.023
G01 X250.373 Y250.042
G01 X250.380 Y250.062
G01 X250.387 Y250.083
G01 X250.393 Y250.104
G01 X250.397 Y250.127
G01 X250.400 Y250.144
G01 X250.402 Y250.168
G01 X250.403 Y250.192
G01 X250.402 Y250.216
G01 X250.400 Y250.241
G01 X250.397 Y250.261
G01 X250.388 Y250.283
G01 X250.377 Y250.305
G01 X250.366 Y250.326
G01 X250.353 Y250.347
G01 X250.339 Y250.368
G01 X250.338 Y250.368
G01 X250.326 Y250.392
G01 X250.312 Y250.415
G01 X250.296 Y250.438
G01 X250.279 Y250.460
G01 X250.261 Y250.482
G01 X250.257 Y250.487
G01 X250.234 Y250.503
G01 X250.211 Y250.518
G01 X250.187 Y250.532
G01 X250.162 Y250.545
G01 X250.136 Y250.557
G01 X250.127 Y250.561
G01 X250.101 Y250.576
G01 X250.074 Y250.589
G01 X250.046 Y250.602
G01 X250.016 Y250.613
G01 X249.986 Y250.622
G01 X249.977 Y250.625
G01 X249.945 Y250.632
G01 X249.913 Y250.639
G01 X249.880 Y250.643
G01 X249.846 Y250.646
G01 X249.812 Y250.647
G01 X249.808 Y250.647
G01 X249.773 Y250.646
G01 X249.737 Y250.644
G01 X249.702 Y250.639
G01 X249.666 Y250.633
G01 X249.632 Y250.625
G01 X249.599 Y250.610
G01 X249.567 Y250.594
G01 X249.535 Y250.576
G01 X249.504 Y250.556
G01 X249.477 Y250.537
G01 X249.444 Y250.518
G01 X249.412 Y250.496
G01 X249.380 Y250.473
G01 X249.350 Y250.448
G01 X249.320 Y250.420
G01 X249.318 Y250.419
G01 X249.294 Y250.387
G01 X249.272 Y250.354
G01 X249.251 Y250.320
G01 X249.232 Y250.284
G01 X249.214 Y250.248
G01 X249.211 Y250.241
G01 X249.191 Y250.204
G01 X249.173 Y250.166
G01 X249.156 Y250.127
G01 X249.141 Y250.086
G01 X249.129 Y250.045
G01 X249.126 Y250.033
G01 X249.120 Y249.990
G01 X249.117 Y249.947
G01 X249.116 Y249.903
G01 X249.117 Y249.859
G01 X249.121 Y249.815
G01 X249.122 Y249.802
G01 X249.123 Y249.757
G01 X249.127 Y249.711
G01 X249.133 Y249.665
G01 X249.142 Y249.619
G01 X249.153 Y249.573
G01 X249.155 Y249.566
G01 X249.168 Y249.519
G01 X249.183 Y249.473
G01 X249.188 Y249.461
G01 X249.208 Y249.416
G01 X249.230 Y249.372
G01 X249.249 Y249.340
G01 X249.275 Y249.297
G01 X249.303 Y249.255
G01 X249.334 Y249.214
G01 X249.367 Y249.174
G01 X249.401 Y249.138
G01 X249.439 Y249.101
G01 X249.479 Y249.066
G01 X249.521 Y249.033
G01 X249.565 Y249.001
G01 X249.611 Y248.972
G01 X249.614 Y248.970
G01 X249.663 Y248.948
G01 X249.714 Y248.928
G01 X249.766 Y248.910
G01 X249.819 Y248.895
G01 X249.873 Y248.883
G01 X249.881 Y248.881
G01 X249.936 Y248.872
G01 X249.991 Y248.865
G01 X250.047 Y248.862
G01 X250.103 Y248.861
G01 X250.159 Y248.862
G01 X250.173 Y248.863
G01 X250.230 Y248.864
G01 X250.288 Y248.867
G01 X250.346 Y248.873
G01 X250.404 Y248.883
G01 X250.462 Y248.895
G01 X250.477 Y248.899
G01 X250.535 Y248.915
G01 X250.592 Y248.934
G01 X250.649 Y248.956
G01 X250.705 Y248.982
G01 X250.760 Y249.010
G01 X250.770 Y249.015
G01 X250.824 Y249.047
G01 X250.876 Y249.081
G01 X250.927 Y249.118
G01 X250.977 Y249.158
G01 X251.025 Y249.201
G01 X251.027 Y249.203
G01 X251.073 Y249.249
G01 X251.117 Y249.297
G01 X251.159 Y249.348
G01 X251.199 Y249.401
G01 X251.235 Y249.455
G01 X251.270 Y249.513
G01 X251.301 Y249.572
G01 X251.330 Y249.634
G01 X251.356 Y249.698
G01 X251.379 Y249.763
G01 X251.381 Y249.768
G01 X251.397 Y249.835
G01 X251.409 Y249.903
G01 X251.418 Y249.973
G01 X251.424 Y250.042
G01 X251.421 Y250.112
G01 X251.420 Y250.122
G01 X251.422 Y250.193
G01 X251.420 Y250.264
G01 X251.415 Y250.336
G01 X251.406 Y250.408
G01 X251.393 Y250.479
G01 X251.390 Y250.492
G01 X251.369 Y250.562
G01 X251.344 Y250.630
G01 X251.316 Y250.698
G01 X251.284 Y250.764
G01 X251.249 Y250.829
G01 X251.243 Y250.840
G01 X251.208 Y250.906
G01 X251.170 Y250.970
G01 X251.128 Y251.033
G01 X251.083 Y251.094
G01 X251.034 Y251.153
G01 X251.029 Y251.159
G01 X250.977 Y251.216
G01 X250.922 Y251.270
G01 X250.864 Y251.322
G01 X250.803 Y251.372
G01 X250.739 Y251.418
G01 X250.736 Y251.421
G01 X250.669 Y251.464
G01 X250.600 Y251.504
G01 X250.529 Y251.541
G01 X250.455 Y251.575
G01 X250.380 Y251.605
G01 X250.371 Y251.608
G01 X250.292 Y251.629
G01 X250.212 Y251.646
G01 X250.132 Y251.659
G01 X250.050 Y251.669
G01 X249.968 Y251.674
G01 X249.956 Y251.674
G01 X249.873 Y251.680
G01 X249.789 Y251.681
G01 X249.706 Y251.678
G01 X249.621 Y251.671
G01 X249.537 Y251.660
G01 X249.522 Y251.657
G01 X249.441 Y251.632
G01 X249.362 Y251.603
G01 X249.286 Y251.570
G01 X249.204 Y251.544
G01 X249.124 Y251.513
G01 X249.109 Y251.506
G01 X249.031 Y251.469
G01 X248.954 Y251.428
G01 X248.879 Y251.382
G01 X248.806 Y251.333
G01 X248.736 Y251.280
G01 X248.729 Y251.275
G01 X248.661 Y251.218
G01 X248.595 Y251.157
G01 X248.532 Y251.092
G01 X248.472 Y251.025
G01 X248.416 Y250.954
G01 X248.411 Y250.948
G01 X248.358 Y250.873
G01 X248.308 Y250.796
G01 X248.262 Y250.716
G01 X248.220 Y250.633
G01 X248.182 Y250.548
G01 X248.177 Y250.537
G01 X248.149 Y250.448
G01 X248.124 Y250.357
G01 X248.104 Y250.265
G01 X248.088 Y250.173
G01 X248.077 Y250.079
G01 X248.076 Y250.063
G01 X248.066 Y249.969
G01 X248.060 Y249.873
G01 X248.059 Y249.777
G01 X248.063 Y249.681
G01 X248.071 Y249.584
G01 X248.073 Y249.567
G01 X248.087 Y249.470
G01 X248.106 Y249.374
G01 X248.130 Y249.278
G01 X248.159 Y249.183
G01 X248.193 Y249.090
G01 X248.198 Y249.077
G01 X248.232 Y249.013
G01 X248.272 Y248.922
G01 X248.318 Y248.832
G01 X248.368 Y248.744
G01 X248.423 Y248.658
G01 X248.444 Y248.628
G01 X248.509 Y248.550
G01 X248.579 Y248.475
G01 X248.652 Y248.403
G01 X248.729 Y248.335
G01 X248.810 Y248.270
G01 X248.818 Y248.264
G01 X248.899 Y248.200
G01 X248.984 Y248.140
G01 X249.073 Y248.083
G01 X249.164 Y248.031
G01 X249.258 Y247.983
G01 X249.271 Y247.977
G01 X249.369 Y247.939
G01 X249.470 Y247.906
G01 X249.572 Y247.878
G01 X249.676 Y247.855
G01 X249.782 Y247.837
G01 X249.799 Y247.834
G01 X249.905 Y247.817
G01 X250.013 Y247.806
G01 X250.121 Y247.799
G01 X250.230 Y247.798
G01 X250.339 Y247.803
G01 X250.358 Y247.804
G01 X250.466 Y247.819
G01 X250.574 Y247.839
G01 X250.681 Y247.865
G01 X250.787 Y247.896
G01 X250.862 Y247.921
G01 X250.913 Y247.916
G01 X251.018 Y247.955
G01 X251.122 Y247.998
G01 X251.224 Y248.048
G01 X251.324 Y248.102
G01 X251.422 Y248.161
G01 X251.429 Y248.166
G01 X251.524 Y248.231
G01 X251.615 Y248.301
G01 X251.704 Y248.375
G01 X251.789 Y248.454
G01 X251.870 Y248.538
G01 X251.879 Y248.548
G01 X251.952 Y248.639
G01 X252.021 Y248.734
G01 X252.085 Y248.832
G01 X252.144 Y248.934
G01 X252.198 Y249.038
G01 X252.205 Y249.053
G01 X252.254 Y249.161
G01 X252.297 Y249.271
G01 X252.334 Y249.383
G01 X252.367 Y249.497
G01 X252.393 Y249.613
G01 X252.397 Y249.634
G01 X252.422 Y249.751
G01 X252.441 Y249.869
G01 X252.454 Y249.989
G01 X252.461 Y250.110
G01 X252.463 Y250.232
G01 X252.462 Y250.251
G01 X252.452 Y250.335
G01 X252.444 Y250.457
G01 X252.430 Y250.579
G01 X252.409 Y250.701
G01 X252.383 Y250.822
G01 X252.370 Y250.871
G01 X252.334 Y250.990
G01 X252.291 Y251.108
G01 X252.243 Y251.223
G01 X252.188 Y251.337
G01 X252.128 Y251.448
G01 X252.123 Y251.457
G01 X252.053 Y251.563
G01 X251.977 Y251.665
G01 X251.897 Y251.763
G01 X251.811 Y251.858
G01 X251.721 Y251.948
G01 X251.710 Y251.958
G01 X251.618 Y252.048
G01 X251.521 Y252.132
G01 X251.420 Y252.213
G01 X251.315 Y252.288
G01 X251.205 Y252.358
G01 X251.188 Y252.369
G01 X251.073 Y252.429
G01 X250.954 Y252.483
G01 X250.833 Y252.532
G01 X250.709 Y252.575
G01 X250.605 Y252.606
G01 X250.560 Y252.616
G01 X250.433 Y252.650
G01 X250.303 Y252.677
G01 X250.172 Y252.699
G01 X250.040 Y252.714
G01 X249.906 Y252.722
G01 X249.887 Y252.723
G01 X249.753 Y252.724
G01 X249.618 Y252.718
G01 X249.483 Y252.706
G01 X249.349 Y252.686
G01 X249.215 Y252.661
G01 X249.203 Y252.658
G01 X249.070 Y252.625
G01 X248.939 Y252.585
G01 X248.809 Y252.539
G01 X248.681 Y252.486
G01 X248.556 Y252.427
G01 X248.544 Y252.421
G01 X248.424 Y252.350
G01 X248.308 Y252.274
G01 X248.195 Y252.192
G01 X248.086 Y252.104
G01 X247.982 Y252.011
G01 X247.969 Y252.000
G01 X247.874 Y251.898
G01 X247.783 Y251.791
G01 X247.778 Y251.785
G01 X247.687 Y251.679
G01 X247.601 Y251.568
G01 X247.520 Y251.452
G01 X247.511 Y251.439
G01 X247.435 Y251.320
G01 X247.365 Y251.197
G01 X247.300 Y251.069
G01 X247.242 Y250.939
G01 X247.190 Y250.805
G01 X247.181 Y250.782
G01 X247.137 Y250.644
G01 X247.099 Y250.505
G01 X247.068 Y250.363
G01 X247.044 Y250.219
G01 X247.027 Y250.074
G01 X247.026 Y250.056
G01 X247.012 Y249.909
G01 X247.005 Y249.762
G01 X247.006 Y249.613
G01 X247.014 Y249.464
G01 X247.029 Y249.315
G01 X247.031 Y249.303
G01 X247.069 Y249.158
G01 X247.113 Y249.015
G01 X247.165 Y248.875
G01 X247.166 Y248.873
G01 X247.214 Y248.730
G01 X247.269 Y248.589
G01 X247.275 Y248.576
G01 X247.344 Y248.441
G01 X247.419 Y248.310
G01 X247.501 Y248.183
G01 X247.590 Y248.059
G01 X247.684 Y247.940
G01 X247.697 Y247.925
G01 X247.798 Y247.811
G01 X247.905 Y247.702
G01 X248.017 Y247.598
G01 X248.135 Y247.500
G01 X248.257 Y247.407
G01 X248.278 Y247.392
G01 X248.403 Y247.303
G01 X248.533 Y247.219
G01 X248.667 Y247.142
G01 X248.805 Y247.071
G01 X248.947 Y247.006
G01 X248.971 Y246.996
G01 X249.117 Y246.941
G01 X249.266 Y246.893
G01 X249.385 Y246.860
G01 X249.537 Y246.812
G01 X249.692 Y246.772
G01 X249.743 Y246.760
G01 X249.902 Y246.742
G01 X250.062 Y246.731
G01 X250.223 Y246.728
G01 X250.384 Y246.733
G01 X250.546 Y246.746
G01 X250.559 Y246.748
G01 X250.719 Y246.774
G01 X250.878 Y246.809
G01 X251.035 Y246.851
G01 X251.190 Y246.901
G01 X251.343 Y246.959
G01 X251.362 Y246.967
G01 X251.513 Y247.028
G01 X251.662 Y247.098
G01 X251.808 Y247.175
G01 X251.950 Y247.259
G01 X252.088 Y247.350
G01 X252.108 Y247.364
G01 X252.224 Y247.482
G01 X252.287 Y247.553
G01 X252.415 Y247.658
G01 X252.537 Y247.770
G01 X252.655 Y247.889
G01 X252.720 Y247.960
G01 X252.825 Y248.090
G01 X252.923 Y248.226
G01 X253.015 Y248.367
G01 X253.101 Y248.512
G01 X253.179 Y248.663
G01 X253.188 Y248.681
G01 X253.258 Y248.836
G01 X253.321 Y248.994
G01 X253.375 Y249.156
G01 X253.422 Y249.320
G01 X253.461 Y249.488
G01 X253.465 Y249.507
G01 X253.491 Y249.677
G01 X253.508 Y249.848
G01 X253.516 Y250.021
G01 X253.516 Y250.194
G01 X253.513 Y250.296
G01 X253.528 Y250.391
G01 X253.510 Y250.564
G01 X253.483 Y250.737
G01 X253.447 Y250.908
G01 X253.403 Y251.078
G01 X253.350 Y251.245
G01 X253.342 Y251.270
G01 X253.285 Y251.436
G01 X253.219 Y251.600
G01 X253.145 Y251.760
G01 X253.063 Y251.918
G01 X252.973 Y252.071
G01 X252.960 Y252.093
G01 X252.861 Y252.242
G01 X252.755 Y252.386
G01 X252.642 Y252.525
G01 X252.522 Y252.658
G01 X252.395 Y252.786
G01 X252.380 Y252.800
G01 X252.231 Y252.902
G01 X252.121 Y252.970
G01 X251.985 Y253.089
G01 X251.842 Y253.202
G01 X251.693 Y253.308
G01 X251.631 Y253.349
G01 X251.466 Y253.429
G01 X251.298 Y253.502
G01 X251.126 Y253.566
G01 X250.951 Y253.622
G01 X250.773 Y253.669
G01 X250.749 Y253.674
G01 X250.569 Y253.712
G01 X250.386 Y253.740
G01 X250.203 Y253.759
G01 X250.018 Y253.769
G01 X249.833 Y253.771
G01 X249.805 Y253.770
G01 X249.620 Y253.763
G01 X249.434 Y253.748
G01 X249.250 Y253.723
G01 X249.192 Y253.713
G01 X249.007 Y253.682
G01 X248.856 Y253.650
G01 X248.675 Y253.599
G01 X248.496 Y253.538
G01 X248.320 Y253.469
G01 X248.147 Y253.391
G01 X247.978 Y253.304
G01 X247.960 Y253.294
G01 X247.795 Y253.198
G01 X247.635 Y253.094
G01 X247.480 Y252.982
G01 X247.330 Y252.862
G01 X247.186 Y252.734
G01 X247.168 Y252.718
G01 X247.038 Y252.576
G01 X246.915 Y252.427
G01 X246.800 Y252.273
G01 X246.692 Y252.113
G01 X246.660 Y252.062
G01 X246.558 Y251.937
G01 X246.458 Y251.770
G01 X246.367 Y251.598
G01 X246.283 Y251.421
G01 X246.209 Y251.240
G01 X246.143 Y251.055
G01 X246.134 Y251.027
G01 X246.079 Y250.838
G01 X246.033 Y250.647
G01 X245.996 Y250.452
G01 X245.969 Y250.256
G01 X245.952 Y250.058
G01 X245.950 Y250.033
G01 X245.948 Y249.834
G01 X245.956 Y249.635
G01 X245.973 Y249.437
G01 X246.001 Y249.239
G01 X246.027 Y249.092
G01 X246.020 Y249.015
G01 X246.069 Y248.819
G01 X246.127 Y248.626
G01 X246.194 Y248.436
G01 X246.271 Y248.249
G01 X246.357 Y248.066
G01 X246.369 Y248.043
G01 X246.461 Y247.862
G01 X246.562 Y247.686
G01 X246.672 Y247.514
G01 X246.790 Y247.348
G01 X246.917 Y247.187
G01 X246.936 Y247.164
G01 X247.075 Y247.013
G01 X247.222 Y246.869
G01 X247.376 Y246.733
G01 X247.536 Y246.603
G01 X247.657 Y246.514
G01 X247.729 Y246.467
G01 X247.898 Y246.347
G01 X248.073 Y246.235
G01 X248.254 Y246.132
G01 X248.440 Y246.037
G01 X248.632 Y245.952
G01 X248.654 Y245.942
G01 X248.854 Y245.876
G01 X249.056 Y245.820
G01 X249.262 Y245.774
G01 X249.469 Y245.738
G01 X249.679 Y245.713
G01 X249.703 Y245.710
G01 X249.914 Y245.695
G01 X250.126 Y245.690
G01 X250.337 Y245.696
G01 X250.549 Y245.711
G01 X250.601 Y245.717
G01 X250.786 Y245.747
G01 X250.996 Y245.781
G01 X251.204 Y245.826
G01 X251.411 Y245.881
G01 X251.615 Y245.946
G01 X251.816 Y246.021
G01 X251.845 Y246.033
G01 X252.042 Y246.120
G01 X252.235 Y246.217
G01 X252.424 Y246.323
G01 X252.607 Y246.438
G01 X252.785 Y246.563
G01 X252.809 Y246.581
G01 X252.973 Y246.723
G01 X253.130 Y246.872
G01 X253.280 Y247.030
G01 X253.331 Y247.087
G01 X253.492 Y247.236
G01 X253.610 Y247.355
G01 X253.744 Y247.530
G01 X253.869 Y247.712
G01 X253.985 Y247.900
G01 X254.092 Y248.094
G01 X254.190 Y248.293
G01 X254.201 Y248.318
G01 X254.283 Y248.525
G01 X254.355 Y248.735
G01 X254.416 Y248.949
G01 X254.467 Y249.166
G01 X254.508 Y249.386
G01 X254.512 Y249.416
G01 X254.524 Y249.639
G01 X254.524 Y249.862
G01 X254.523 Y249.882
G01 X254.540 Y250.105
G01 X254.546 Y250.328
G01 X254.540 Y250.553
G01 X254.540 Y250.566
G01 X254.521 Y250.791
G01 X254.491 Y251.015
G01 X254.450 Y251.238
G01 X254.398 Y251.459
G01 X254.334 Y251.679
G01 X254.325 Y251.707
G01 X254.245 Y251.921
G01 X254.155 Y252.132
G01 X254.054 Y252.338
G01 X253.942 Y252.539
G01 X253.821 Y252.735
G01 X253.807 Y252.757
G01 X253.722 Y252.828
G01 X253.587 Y253.014
G01 X253.443 Y253.194
G01 X253.290 Y253.367
G01 X253.128 Y253.532
G01 X253.017 Y253.636
G01 X252.838 Y253.784
G01 X252.651 Y253.923
G01 X252.458 Y254.052
G01 X252.259 Y254.172
G01 X252.053 Y254.282
G01 X252.024 Y254.297
G01 X251.811 Y254.391
G01 X251.593 Y254.475
G01 X251.371 Y254.548
G01 X251.220 Y254.591
G01 X251.001 Y254.678
G01 X250.894 Y254.716
G01 X250.663 Y254.764
G01 X250.430 Y254.800
G01 X250.194 Y254.825
G01 X249.957 Y254.839
G01 X249.719 Y254.841
G01 X249.690 Y254.840
G01 X249.452 Y254.829
G01 X249.214 Y254.806
G01 X248.978 Y254.771
G01 X248.742 Y254.724
G01 X248.509 Y254.666
G01 X248.482 Y254.659
G01 X248.261 Y254.562
G01 X248.172 Y254.519
G01 X247.947 Y254.437
G01 X247.726 Y254.342
G01 X247.509 Y254.237
G01 X247.356 Y254.155
G01 X247.153 Y254.024
G01 X246.956 Y253.884
G01 X246.766 Y253.733
G01 X246.583 Y253.574
G01 X246.408 Y253.405
G01 X246.383 Y253.379
G01 X246.217 Y253.202
G01 X246.059 Y253.016
G01 X245.911 Y252.823
G01 X245.772 Y252.622
G01 X245.769 Y252.617
G01 X245.626 Y252.417
G01 X245.610 Y252.393
G01 X245.485 Y252.181
G01 X245.370 Y251.963
G01 X245.265 Y251.738
G01 X245.171 Y251.508
G01 X245.089 Y251.273
G01 X245.080 Y251.246
G01 X245.020 Y251.004
G01 X244.972 Y250.760
G01 X244.936 Y250.513
G01 X244.912 Y250.264
G01 X244.901 Y250.014
G01 X244.900 Y249.983
G01 X244.927 Y249.734
G01 X244.935 Y249.679
G01 X244.944 Y249.430
G01 X244.966 Y249.180
G01 X245.000 Y248.931
G01 X245.041 Y248.706
G01 X245.101 Y248.462
G01 X245.173 Y248.220
G01 X245.258 Y247.981
G01 X245.354 Y247.747
G01 X245.461 Y247.517
G01 X245.478 Y247.483
G01 X245.607 Y247.264
G01 X245.747 Y247.052
G01 X245.897 Y246.847
G01 X245.946 Y246.783
G01 X246.088 Y246.570
G01 X246.212 Y246.401
G01 X246.387 Y246.212
G01 X246.570 Y246.032
G01 X246.763 Y245.861
G01 X246.965 Y245.699
G01 X247.174 Y245.547
G01 X247.198 Y245.531
G01 X247.416 Y245.390
G01 X247.641 Y245.260
G01 X247.872 Y245.141
G01 X248.110 Y245.034
G01 X248.353 Y244.937
G01 X248.383 Y244.926
G01 X248.392 Y244.924
G01 X248.642 Y244.846
G01 X248.895 Y244.781
G01 X249.152 Y244.728
G01 X249.411 Y244.688
G01 X249.672 Y244.661
G01 X249.699 Y244.658
G01 X249.962 Y244.645
G01 X250.225 Y244.645
G01 X250.488 Y244.658
G01 X250.750 Y244.683
G01 X251.011 Y244.722
G01 X251.049 Y244.728
G01 X251.307 Y244.786
G01 X251.474 Y244.831
G01 X251.733 Y244.889
G01 X251.989 Y244.960
G01 X252.243 Y245.044
G01 X252.361 Y245.088
G01 X252.603 Y245.201
G01 X252.841 Y245.326
G01 X253.072 Y245.463
G01 X253.297 Y245.611
G01 X253.515 Y245.771
G01 X253.539 Y245.790
G01 X253.736 Y245.975
G01 X253.923 Y246.169
G01 X254.100 Y246.371
G01 X254.115 Y246.389
G01 X254.306 Y246.580
G01 X254.489 Y246.781
G01 X254.496 Y246.789
G01 X254.652 Y247.011
G01 X254.798 Y247.241
G01 X254.932 Y247.477
G01 X255.054 Y247.720
G01 X255.164 Y247.969
G01 X255.179 Y248.006
G01 X255.276 Y248.261
G01 X255.361 Y248.520
G01 X255.433 Y248.784
G01 X255.492 Y249.051
G01 X255.507 Y249.134
G01 X255.563 Y249.357
G01 X255.598 Y249.630
G01 X255.619 Y249.905
G01 X255.626 Y250.181
G01 X255.620 Y250.457
G01 X255.601 Y250.734
G01 X255.598 Y250.766
G01 X255.563 Y251.042
G01 X255.515 Y251.316
G01 X255.453 Y251.588
G01 X255.378 Y251.857
G01 X255.289 Y252.122
G01 X255.278 Y252.153
G01 X255.257 Y252.204
G01 X255.147 Y252.461
G01 X255.024 Y252.713
G01 X254.890 Y252.959
G01 X254.743 Y253.198
G01 X254.595 Y253.415
G01 X254.426 Y253.639
G01 X254.246 Y253.855
G01 X254.055 Y254.062
G01 X253.854 Y254.260
G01 X253.643 Y254.448
G01 X253.611 Y254.475
G01 X253.387 Y254.647
G01 X253.378 Y254.653
G01 X253.156 Y254.829
G01 X252.924 Y254.993
G01 X252.684 Y255.147
G01 X252.436 Y255.289
G01 X252.411 Y255.302
G01 X252.152 Y255.423
G01 X251.886 Y255.532
G01 X251.615 Y255.627
G01 X251.340 Y255.709
G01 X251.060 Y255.778
G01 X251.028 Y255.784
G01 X250.741 Y255.813
G01 X250.535 Y255.826
G01 X250.249 Y255.859
G01 X249.961 Y255.879
G01 X249.672 Y255.885
G01 X249.555 Y255.883
G01 X249.266 Y255.859
G01 X248.978 Y255.821
G01 X248.693 Y255.768
G01 X248.410 Y255.702
G01 X248.131 Y255.622
G01 X248.093 Y255.610
G01 X247.824 Y255.499
G01 X247.562 Y255.375
G01 X247.500 Y255.344
G01 X247.229 Y255.238
G01 X246.962 Y255.118
G01 X246.723 Y254.996
G01 X246.476 Y254.837
G01 X246.237 Y254.666
G01 X246.006 Y254.483
G01 X245.784 Y254.289
G01 X245.572 Y254.083
G01 X245.546 Y254.057
G01 X245.359 Y253.827
G01 X245.185 Y253.589
G01 X245.089 Y253.447
G01 X244.901 Y253.218
G01 X244.723 Y252.978
G01 X244.633 Y252.846
G01 X244.495 Y252.582
G01 X244.371 Y252.310
G01 X244.260 Y252.033
G01 X244.162 Y251.750
G01 X244.079 Y251.463
G01 X244.069 Y251.427
G01 X244.015 Y251.133
G01 X243.976 Y250.836
G01 X243.955 Y250.600
G01 X243.901 Y250.304
G01 X243.861 Y250.005
G01 X243.851 Y249.900
G01 X243.858 Y249.598
G01 X243.881 Y249.297
G01 X243.918 Y248.996
G01 X243.970 Y248.698
G01 X244.036 Y248.402
G01 X244.047 Y248.360
G01 X244.135 Y248.069
G01 X244.236 Y247.784
G01 X244.333 Y247.547
G01 X244.431 Y247.258
G01 X244.543 Y246.972
G01 X244.577 Y246.894
G01 X244.727 Y246.626
G01 X244.891 Y246.366
G01 X245.068 Y246.113
G01 X245.257 Y245.870
G01 X245.459 Y245.635
G01 X245.483 Y245.608
G01 X245.716 Y245.405
G01 X245.959 Y245.214
G01 X246.150 Y245.077
G01 X246.378 Y244.868
G01 X246.617 Y244.670
G01 X246.706 Y244.600
G01 X246.973 Y244.441
G01 X247.247 Y244.295
G01 X247.529 Y244.162
G01 X247.816 Y244.043
G01 X248.110 Y243.939
G01 X248.154 Y243.924
G01 X248.456 Y243.851
G01 X248.762 Y243.792
G01 X248.932 Y243.766
G01 X249.235 Y243.692
G01 X249.544 Y243.633
G01 X249.727 Y243.606
G01 X250.041 Y243.585
G01 X250.356 Y243.581
G01 X250.672 Y243.591
G01 X250.988 Y243.617
G01 X251.303 Y243.659
G01 X251.338 Y243.665
G01 X251.642 Y243.760
G01 X251.939 Y243.870
G01 X252.000 Y243.894
G01 X252.306 Y243.976
G01 X252.609 Y244.072
G01 X252.883 Y244.174
G01 X253.168 Y244.319
G01 X253.445 Y244.477
G01 X253.715 Y244.649
G01 X253.976 Y244.833
G01 X254.228 Y245.031
G01 X254.261 Y245.058
G01 X254.488 Y245.284
G01 X254.650 Y245.459
G01 X254.879 Y245.683
G01 X255.096 Y245.918
G01 X255.302 Y246.164
G01 X255.382 Y246.267
G01 X255.571 Y246.528
G01 X255.748 Y246.798
G01 X255.911 Y247.078
G01 X256.061 Y247.365
G01 X256.196 Y247.661
G01 X256.213 Y247.700
G01 X256.297 Y248.014
G01 X256.309 Y248.061
G01 X256.415 Y248.368
G01 X256.505 Y248.681
G01 X256.581 Y248.999
G01 X256.639 Y249.310
G01 X256.670 Y249.636
G01 X256.685 Y249.964
G01 X256.683 Y250.292
G01 X256.666 Y250.620
G01 X256.632 Y250.947
G01 X256.627 Y250.987
G01 X256.603 Y251.136
G01 X256.544 Y251.460
G01 X256.470 Y251.781
G01 X256.380 Y252.098
G01 X256.274 Y252.410
G01 X256.194 Y252.620
G01 X256.062 Y252.923
G01 X255.916 Y253.219
G01 X255.756 Y253.509
G01 X255.581 Y253.790
G01 X255.433 Y254.006
G01 X255.382 Y254.116
G01 X255.181 Y254.381
G01 X254.967 Y254.637
G01 X254.740 Y254.882
G01 X254.501 Y255.116
G01 X254.251 Y255.338
G01 X254.220 Y255.364
G01 X253.951 Y255.565
G01 X253.673 Y255.752
G01 X253.387 Y255.925
G01 X253.134 Y256.063
G01 X252.849 Y256.246
G01 X252.773 Y256.291
G01 X252.465 Y256.428
G01 X252.149 Y256.551
G01 X251.828 Y256.658
G01 X251.501 Y256.749
G01 X251.170 Y256.824
G01 X251.127 Y256.833
G01 X250.789 Y256.862
G01 X250.450 Y256.875
G01 X250.166 Y256.873
G01 X249.827 Y256.905
G01 X249.486 Y256.921
G01 X249.384 Y256.923
G01 X249.043 Y256.894
G01 X248.705 Y256.848
G01 X248.368 Y256.786
G01 X248.034 Y256.707
G01 X247.704 Y256.611
G01 X247.662 Y256.598
G01 X247.346 Y256.462
G01 X247.132 Y256.358
G01 X246.813 Y256.229
G01 X246.501 Y256.084
G01 X246.194 Y255.924
G01 X246.065 Y255.850
G01 X245.780 Y255.654
G01 X245.505 Y255.444
G01 X245.240 Y255.220
G01 X244.986 Y254.984
G01 X244.744 Y254.735
G01 X244.713 Y254.702
G01 X244.607 Y254.579
G01 X244.380 Y254.315
G01 X244.166 Y254.040
G01 X243.966 Y253.755
G01 X243.780 Y253.460
G01 X243.663 Y253.256
G01 X243.505 Y252.944
G01 X243.363 Y252.623
G01 X243.237 Y252.297
G01 X243.127 Y251.964
G01 X243.098 Y251.869
G01 X243.003 Y251.587
G01 X242.924 Y251.243
G01 X242.861 Y250.896
G01 X242.816 Y250.545
G01 X242.789 Y250.192
G01 X242.778 Y249.838
G01 X242.778 Y249.793
G01 X242.814 Y249.441
G01 X242.868 Y249.091
G01 X242.928 Y248.790
G01 X242.963 Y248.437
G01 X243.016 Y248.085
G01 X243.033 Y247.994
G01 X243.131 Y247.651
G01 X243.245 Y247.313
G01 X243.376 Y246.981
G01 X243.524 Y246.655
G01 X243.687 Y246.337
G01 X243.711 Y246.293
G01 X243.916 Y245.999
G01 X243.994 Y245.895
G01 X244.186 Y245.593
G01 X244.394 Y245.301
G01 X244.617 Y245.018
G01 X244.797 Y244.809
G01 X245.055 Y244.556
G01 X245.324 Y244.316
G01 X245.606 Y244.089
G01 X245.898 Y243.876
G01 X246.173 Y243.695
G01 X246.228 Y243.634
G01 X246.542 Y243.452
G01 X246.866 Y243.286
G01 X247.197 Y243.136
G01 X247.536 Y243.002
G01 X247.881 Y242.885
G01 X247.927 Y242.870
G01 X248.281 Y242.785
G01 X248.638 Y242.717
G01 X248.998 Y242.666
G01 X249.089 Y242.656
G01 X249.448 Y242.581
G01 X249.770 Y242.529
G01 X250.137 Y242.516
G01 X250.505 Y242.522
G01 X250.872 Y242.547
G01 X251.238 Y242.589
G01 X251.602 Y242.649
G01 X251.648 Y242.658
G01 X251.997 Y242.780
G01 X252.165 Y242.846
G01 X252.521 Y242.941
G01 X252.872 Y243.054
G01 X253.218 Y243.185
G01 X253.435 Y243.277
G01 X253.764 Y243.449
G01 X254.083 Y243.637
G01 X254.394 Y243.841
G01 X254.694 Y244.060
G01 X254.926 Y244.246
G01 X255.036 Y244.308
G01 X255.312 Y244.558
G01 X255.577 Y244.822
G01 X255.828 Y245.099
G01 X256.065 Y245.388
G01 X256.288 Y245.688
G01 X256.318 Y245.731
G01 X256.513 Y246.051
G01 X256.691 Y246.379
G01 X256.836 Y246.679
G01 X257.032 Y247.000
G01 X257.212 Y247.333
G01 X257.252 Y247.413
G01 X257.375 Y247.770
G01 X257.480 Y248.133
G01 X257.568 Y248.502
G01 X257.637 Y248.874
G01 X257.688 Y249.250
G01 X257.693 Y249.297
G01 X257.692 Y249.642
G01 X257.712 Y250.020
G01 X257.713 Y250.399
G01 X257.696 Y250.778
G01 X257.661 Y251.157
G01 X257.650 Y251.242
G01 X257.580 Y251.615
G01 X257.491 Y251.985
G01 X257.385 Y252.351
G01 X257.261 Y252.710
G01 X257.159 Y253.081
G01 X257.144 Y253.131
G01 X256.990 Y253.482
G01 X256.820 Y253.826
G01 X256.632 Y254.161
G01 X256.428 Y254.487
G01 X256.208 Y254.803
G01 X256.179 Y254.841
G01 X255.924 Y255.130
G01 X255.692 Y255.370
G01 X255.437 Y255.659
G01 X255.168 Y255.937
G01 X254.885 Y256.201
G01 X254.810 Y256.267
G01 X254.497 Y256.495
G01 X254.172 Y256.708
G01 X253.838 Y256.905
G01 X253.495 Y257.085
G01 X253.208 Y257.219
G01 X253.105 Y257.291
G01 X252.747 Y257.444
G01 X252.381 Y257.579
G01 X252.009 Y257.696
G01 X251.631 Y257.795
G01 X251.248 Y257.875
G01 X251.195 Y257.885
G01 X250.805 Y257.915
G01 X250.414 Y257.925
G01 X250.199 Y257.923
G01 X249.809 Y257.962
G01 X249.416 Y257.981
G01 X249.190 Y257.984
G01 X248.798 Y257.944
G01 X248.407 Y257.885
G01 X248.020 Y257.807
G01 X247.637 Y257.710
G01 X247.258 Y257.594
G01 X247.211 Y257.578
G01 X247.134 Y257.523
G01 X246.764 Y257.382
G01 X246.401 Y257.224
G01 X246.046 Y257.047
G01 X245.700 Y256.853
G01 X245.394 Y256.663
G01 X245.083 Y256.416
G01 X244.785 Y256.154
G01 X244.506 Y255.884
G01 X244.191 Y255.640
G01 X243.886 Y255.379
G01 X243.840 Y255.336
G01 X243.578 Y255.034
G01 X243.331 Y254.718
G01 X243.099 Y254.391
G01 X242.883 Y254.052
G01 X242.684 Y253.702
G01 X242.661 Y253.658
G01 X242.592 Y253.458
G01 X242.421 Y253.094
G01 X242.268 Y252.722
G01 X242.134 Y252.343
G01 X242.018 Y251.956
G01 X241.957 Y251.721
G01 X241.890 Y251.323
G01 X241.843 Y250.923
G01 X241.815 Y250.521
G01 X241.813 Y250.458
G01 X241.775 Y250.056
G01 X241.757 Y249.659
G01 X241.774 Y249.254
G01 X241.811 Y248.850
G01 X241.868 Y248.448
G01 X241.944 Y248.049
G01 X242.040 Y247.653
G01 X242.055 Y247.599
G01 X242.125 Y247.377
G01 X242.248 Y246.988
G01 X242.390 Y246.605
G01 X242.551 Y246.228
G01 X242.731 Y245.859
G01 X242.838 Y245.659
G01 X243.073 Y245.322
G01 X243.324 Y244.997
G01 X243.590 Y244.686
G01 X243.613 Y244.660
G01 X243.856 Y244.328
G01 X244.116 Y244.007
G01 X244.127 Y243.995
G01 X244.425 Y243.710
G01 X244.737 Y243.440
G01 X245.063 Y243.186
G01 X245.400 Y242.948
G01 X245.750 Y242.727
G01 X245.799 Y242.697
G01 X245.941 Y242.617
G01 X246.303 Y242.418
G01 X246.676 Y242.236
G01 X247.057 Y242.072
G01 X247.447 Y241.927
G01 X247.740 Y241.832
G01 X248.145 Y241.740
G01 X248.554 Y241.667
G01 X248.880 Y241.625
G01 X249.289 Y241.548
G01 X249.704 Y241.491
G01 X249.842 Y241.476
G01 X250.260 Y241.469
G01 X250.679 Y241.483
G01 X251.098 Y241.516
G01 X251.514 Y241.571
G01 X251.928 Y241.646
G01 X251.980 Y241.657
G01 X252.389 Y241.760
G01 X252.792 Y241.882
G01 X253.189 Y242.024
G01 X253.579 Y242.186
G01 X253.960 Y242.367
G01 X254.011 Y242.393
G01 X254.368 Y242.617
G01 X254.713 Y242.859
G01 X254.809 Y242.930
G01 X255.171 Y243.147
G01 X255.523 Y243.382
G01 X255.815 Y243.597
G01 X256.127 Y243.886
G01 X256.423 Y244.190
G01 X256.705 Y244.509
G01 X256.971 Y244.841
G01 X257.101 Y245.016
G01 X257.267 Y245.217
G01 X257.497 Y245.577
G01 X257.710 Y245.948
G01 X257.904 Y246.329
G01 X258.079 Y246.719
G01 X258.235 Y247.118
G01 X258.253 Y247.170
G01 X258.351 Y247.587
G01 X258.397 Y247.823
G01 X258.521 Y248.232
G01 X258.626 Y248.648
G01 X258.709 Y249.070
G01 X258.748 Y249.315
G01 X258.765 Y249.745
G01 X258.760 Y250.175
G01 X258.734 Y250.604
G01 X258.703 Y250.905
G01 X258.700 Y251.339
G01 X258.692 Y251.526
G01 X258.616 Y251.953
G01 X258.519 Y252.376
G01 X258.402 Y252.794
G01 X258.264 Y253.207
G01 X258.105 Y253.612
G01 X258.084 Y253.662
G01 X257.943 Y253.904
G01 X257.751 Y254.294
G01 X257.541 Y254.675
G01 X257.311 Y255.046
G01 X257.064 Y255.405
G01 X256.938 Y255.575
G01 X256.642 Y255.896
G01 X256.331 Y256.202
G01 X256.110 Y256.403
G01 X255.808 Y256.718
G01 X255.490 Y257.019
G01 X255.341 Y257.150
G01 X254.987 Y257.408
G01 X254.620 Y257.649
G01 X254.242 Y257.871
G01 X253.853 Y258.074
G01 X253.586 Y258.200
G01 X253.419 Y258.325
G01 X253.010 Y258.492
G01 X252.592 Y258.639
G01 X252.168 Y258.765
G01 X251.737 Y258.871
G01 X251.301 Y258.955
G01 X251.247 Y258.964
G01 X250.802 Y258.980
G01 X250.592 Y258.981
G01 X250.151 Y259.019
G01 X249.707 Y259.036
G01 X249.262 Y259.032
G01 X248.972 Y259.017
G01 X248.533 Y258.941
G01 X248.099 Y258.844
G01 X247.672 Y258.725
G01 X247.509 Y258.674
G01 X247.073 Y258.582
G01 X246.746 Y258.498
G01 X246.329 Y258.337
G01 X245.920 Y258.156
G01 X245.520 Y257.954
G01 X245.130 Y257.733
G01 X244.750 Y257.493
G01 X244.701 Y257.460
G01 X244.667 Y257.435
G01 X244.302 Y257.172
G01 X243.951 Y256.892
G01 X243.613 Y256.594
G01 X243.290 Y256.279
G01 X242.982 Y255.949
G01 X242.973 Y255.939
G01 X242.711 Y255.571
G01 X242.492 Y255.230
G01 X242.218 Y254.871
G01 X241.961 Y254.499
G01 X241.722 Y254.113
G01 X241.671 Y254.023
G01 X241.496 Y253.604
G01 X241.342 Y253.178
G01 X241.209 Y252.745
G01 X241.132 Y252.448
G01 X240.972 Y252.021
G01 X240.906 Y251.822
G01 X240.818 Y251.375
G01 X240.751 Y250.923
G01 X240.708 Y250.469
G01 X240.686 Y250.012
G01 X240.687 Y249.555
G01 X240.689 Y249.496
G01 X240.696 Y249.377
G01 X240.727 Y248.920
G01 X240.781 Y248.465
G01 X240.858 Y248.012
G01 X240.956 Y247.563
G01 X241.059 Y247.179
G01 X241.233 Y246.753
G01 X241.415 Y246.360
G01 X241.583 Y245.933
G01 X241.772 Y245.513
G01 X241.982 Y245.103
G01 X242.022 Y245.028
G01 X242.282 Y244.647
G01 X242.559 Y244.279
G01 X242.854 Y243.925
G01 X243.039 Y243.720
G01 X243.321 Y243.352
G01 X243.482 Y243.158
G01 X243.819 Y242.839
G01 X244.172 Y242.537
G01 X244.539 Y242.252
G01 X244.921 Y241.985
G01 X245.315 Y241.737
G01 X245.367 Y241.706
G01 X245.391 Y241.693
G01 X245.800 Y241.468
G01 X246.219 Y241.263
G01 X246.649 Y241.079
G01 X247.088 Y240.916
G01 X247.535 Y240.774
G01 X247.564 Y240.766
G01 X248.027 Y240.688
G01 X248.314 Y240.651
G01 X248.772 Y240.558
G01 X249.235 Y240.488
G01 X249.702 Y240.441
G01 X249.942 Y240.425
G01 X250.411 Y240.450
G01 X250.878 Y240.497
G01 X251.341 Y240.567
G01 X251.413 Y240.580
G01 X251.881 Y240.624
G01 X252.339 Y240.689
G01 X252.796 Y240.805
G01 X253.248 Y240.943
G01 X253.692 Y241.103
G01 X254.129 Y241.286
G01 X254.403 Y241.413
G01 X254.621 Y241.500
G01 X255.037 Y241.728
G01 X255.443 Y241.977
G01 X255.836 Y242.246
G01 X256.215 Y242.535
G01 X256.581 Y242.841
G01 X256.625 Y242.881
G01 X256.914 Y243.233
G01 X257.251 Y243.568
G01 X257.572 Y243.920
G01 X257.876 Y244.289
G01 X258.162 Y244.672
G01 X258.211 Y244.742
G01 X258.431 Y245.167
G01 X258.630 Y245.601
G01 X258.699 Y245.765
G01 X258.929 Y246.183
G01 X259.140 Y246.613
G01 X259.287 Y246.950
G01 X259.426 Y247.410
G01 X259.541 Y247.875
G01 X259.634 Y248.346
G01 X259.689 Y248.703
G01 X259.795 Y249.175
G01 X259.829 Y249.355
G01 X259.854 Y249.838
G01 X259.855 Y250.321
G01 X259.832 Y250.805
G01 X259.785 Y251.287
G01 X259.715 Y251.767
G01 X259.708 Y251.807
G01 X259.705 Y251.825
G01 X259.608 Y252.301
G01 X259.488 Y252.771
G01 X259.346 Y253.234
G01 X259.180 Y253.691
G01 X258.993 Y254.139
G01 X258.966 Y254.197
G01 X258.714 Y254.614
G01 X258.645 Y254.722
G01 X258.424 Y255.154
G01 X258.183 Y255.575
G01 X257.920 Y255.986
G01 X257.674 Y256.334
G01 X257.339 Y256.689
G01 X256.988 Y257.028
G01 X256.791 Y257.203
G01 X256.455 Y257.557
G01 X256.100 Y257.896
G01 X255.884 Y258.086
G01 X255.476 Y258.359
G01 X255.056 Y258.612
G01 X254.625 Y258.844
G01 X254.279 Y259.011
G01 X253.853 Y259.261
G01 X253.705 Y259.342
G01 X253.244 Y259.517
G01 X252.774 Y259.670
G01 X252.298 Y259.799
G01 X251.815 Y259.905
G01 X251.332 Y259.987
G01 X251.263 Y259.996
G01 X250.772 Y260.055
G01 X250.277 Y260.091
G01 X249.782 Y260.102
G01 X249.286 Y260.089
G01 X248.790 Y260.051
G01 X248.721 Y260.044
G01 X248.239 Y259.921
G01 X248.227 Y259.918
G01 X247.737 Y259.843
G01 X247.250 Y259.743
G01 X246.767 Y259.620
G01 X246.290 Y259.472
G01 X246.243 Y259.456
G01 X245.793 Y259.239
G01 X245.355 Y259.001
G01 X245.281 Y258.958
G01 X244.830 Y258.745
G01 X244.389 Y258.509
G01 X243.978 Y258.264
G01 X243.594 Y257.941
G01 X243.228 Y257.600
G01 X242.879 Y257.242
G01 X242.780 Y257.134
G01 X242.399 Y256.808
G01 X242.089 Y256.517
G01 X241.778 Y256.121
G01 X241.488 Y255.710
G01 X241.218 Y255.286
G01 X240.969 Y254.848
G01 X240.882 Y254.682
G01 X240.667 Y254.358
G01 X240.456 Y253.898
G01 X240.267 Y253.429
G01 X240.101 Y252.950
G01 X239.959 Y252.463
G01 X239.840 Y251.969
G01 X239.827 Y251.908
G01 X239.826 Y251.762
G01 X239.737 Y251.262
G01 X239.672 Y250.758
G01 X239.632 Y250.251
G01 X239.616 Y249.742
G01 X239.623 Y249.312
G01 X239.726 Y248.810
G01 X239.762 Y248.661
G01 X239.815 Y248.156
G01 X239.892 Y247.652
G01 X239.994 Y247.152
G01 X240.098 Y246.738
G01 X240.301 Y246.268
G01 X240.526 Y245.810
G01 X240.596 Y245.677
G01 X240.789 Y245.204
G01 X241.005 Y244.740
G01 X241.205 Y244.357
G01 X241.498 Y243.937
G01 X241.812 Y243.532
G01 X242.145 Y243.143
G01 X242.233 Y243.046
G01 X242.546 Y242.636
G01 X242.835 Y242.291
G01 X243.225 Y241.953
G01 X243.632 Y241.635
G01 X244.053 Y241.338
G01 X244.489 Y241.061
G01 X244.571 Y241.012
G01 X244.967 Y240.728
G01 X245.426 Y240.487
G01 X245.897 Y240.270
G01 X246.377 Y240.076
G01 X246.867 Y239.905
G01 X247.365 Y239.759
G01 X247.410 Y239.747
G01 X247.433 Y239.741
G01 X247.938 Y239.618
G01 X248.448 Y239.520
G01 X248.964 Y239.447
G01 X249.482 Y239.399
G01 X250.003 Y239.376
G01 X250.074 Y239.375
G01 X250.502 Y239.412
G01 X251.023 Y239.426
G01 X251.544 Y239.466
G01 X252.063 Y239.532
G01 X252.580 Y239.623
G01 X252.735 Y239.655
G01 X253.225 Y239.845
G01 X253.549 Y239.985
G01 X254.047 Y240.145
G01 X254.538 Y240.329
G01 X255.020 Y240.537
G01 X255.236 Y240.640
G01 X255.673 Y240.934
G01 X256.094 Y241.248
G01 X256.297 Y241.411
G01 X256.735 Y241.701
G01 X257.159 Y242.013
G01 X257.423 Y242.224
G01 X257.784 Y242.608
G01 X258.126 Y243.009
G01 X258.447 Y243.425
G01 X258.538 Y243.550
G01 X258.889 Y243.947
G01 X259.171 Y244.296
G01 X259.439 Y244.752
G01 X259.686 Y245.222
G01 X259.908 Y245.703
G01 X260.107 Y246.194
G01 X260.117 Y246.220
G01 X260.335 Y246.707
G01 X260.349 Y246.741
G01 X260.502 Y247.252
G01 X260.629 Y247.769
G01 X260.731 Y248.293
G01 X260.807 Y248.821
G01 X260.848 Y249.241
G01 X260.884 Y249.419
G01 X260.905 Y249.953
G01 X260.899 Y250.489
G01 X260.867 Y251.023
G01 X260.808 Y251.556
G01 X260.723 Y252.085
G01 X260.710 Y252.157
G01 X260.645 Y252.345
G01 X260.532 Y252.869
G01 X260.394 Y253.387
G01 X260.230 Y253.898
G01 X260.040 Y254.402
G01 X259.878 Y254.782
G01 X259.590 Y255.238
G01 X259.574 Y255.262
G01 X259.325 Y255.738
G01 X259.053 Y256.203
G01 X258.757 Y256.655
G01 X258.439 Y257.092
G01 X258.416 Y257.122
G01 X258.024 Y257.497
G01 X257.733 Y257.752
G01 X257.363 Y258.144
G01 X256.973 Y258.519
G01 X256.564 Y258.874
G01 X256.392 Y259.014
G01 X255.925 Y259.290
G01 X255.446 Y259.542
G01 X255.270 Y259.627
G01 X254.807 Y259.906
G01 X254.329 Y260.164
G01 X253.951 Y260.346
G01 X253.433 Y260.512
G01 X252.909 Y260.651
G01 X252.389 Y260.763
G01 X251.868 Y260.924
G01 X251.337 Y261.061
G01 X251.253 Y261.079
G01 X250.707 Y261.113
G01 X250.161 Y261.121
G01 X249.616 Y261.101
G01 X249.310 Y261.079
G01 X248.760 Y261.095
G01 X248.450 Y261.092
G01 X247.909 Y260.997
G01 X247.373 Y260.875
G01 X246.844 Y260.727
G01 X246.324 Y260.554
G01 X246.257 Y260.530
G01 X245.728 Y260.380
G01 X245.224 Y260.158
G01 X244.731 Y259.911
G01 X244.251 Y259.641
G01 X243.785 Y259.347
G01 X243.478 Y259.136
G01 X243.258 Y259.006
G01 X242.818 Y258.672
G01 X242.394 Y258.316
G01 X241.988 Y257.940
G01 X241.601 Y257.543
G01 X241.234 Y257.128
G01 X241.186 Y257.071
G01 X241.168 Y257.049
G01 X240.821 Y256.616
G01 X240.495 Y256.166
G01 X240.191 Y255.700
G01 X239.910 Y255.218
G01 X239.653 Y254.723
G01 X239.635 Y254.687
G01 X239.560 Y254.389
G01 X239.342 Y253.877
G01 X239.149 Y253.354
G01 X238.981 Y252.822
G01 X238.840 Y252.281
G01 X238.770 Y251.963
G01 X238.736 Y251.403
G01 X238.736 Y251.393
G01 X238.663 Y250.840
G01 X238.617 Y250.283
G01 X238.599 Y249.724
G01 X238.608 Y249.163
