;  Created by Sandify
;  https://sandify.org
;  Version: 0.2.6
;
;  Machine type: Rectangular
;    Min X (mm): 0
;    Max X (mm): 500
;    Min Y (mm): 0
;    Max Y (mm): 500
;  Content type: shape
;  Layer:
;    Shape: FileImport
;    Name: sunshine.gcode
;    From file:: sunshine.gcode
;    Aspect Ratio: true
;    Comments: ;  Created by Sandify,;  https://sandify.org,;  Version: 0.2.6,;,;  Machine type: Rectangular,;    Min X (mm): 0,;    Max X (mm): 500,;    Min Y (mm): 0,;    Max Y (mm): 500,;  Content type: shape,;  Layer:,;    Shape: FileImport,;    Name: sunshine.thr,;    From file:: sunshine.thr,;    Aspect Ratio: true,;    Comments: ,;    Visible: true,;    Initial width: 12,;    Initial height: 12,;    X offset: 0,;    Y offset: 0,;    Rotate (degrees): 0,;    Reverse path: false,;    Fine tuning:,;      Connect to next layer: line,;      Draw portion of path (%): 100,;      Backtrack at end (%): 0,;      Rotate starting point (%): 0,;  Reverse export path: false,;,; File name: 'sunshine',; File type: gcode,;
;    Visible: true
;    Initial width: 75
;    Initial height: 75
;    X offset: 0
;    Y offset: 0
;    Rotate (degrees): 0
;    Reverse path: false
;    Fine tuning:
;      Connect to next layer: line
;      Draw portion of path (%): 100
;      Backtrack at end (%): 0
;      Rotate starting point (%): 0
;  Layer:
;    Shape: Mask
;    Name: mask
;    Mask shape: circle
;    Try to minimize perimeter moves: false
;    Invert: false
;    Draw border: false
;    Visible: true
;    Initial width: 500
;    Initial height: 500
;    X offset: 0
;    Y offset: 0
;    Rotate (degrees): 0
;  Reverse export path: false
;
; File name: 'Heart Sunshine (C C) (BJ)'
; File type: gcode
;

G01 X250.000 Y367.188
G01 X250.000 Y484.375
G01 X250.000 Y500.000
G01 X250.000 Y484.375
G01 X250.000 Y367.188
G01 X250.000 Y250.000
G01 X252.047 Y367.172
G01 X254.094 Y484.336
G01 X254.366 Y499.962
G01 X254.094 Y484.336
G01 X252.047 Y367.172
G01 X250.000 Y250.000
G01 X254.086 Y367.117
G01 X258.180 Y484.234
G01 X258.724 Y499.848
G01 X258.180 Y484.234
G01 X254.086 Y367.117
G01 X250.000 Y250.000
G01 X255.391 Y359.734
G01 X256.133 Y367.023
G01 X262.266 Y484.055
G01 X263.083 Y499.657
G01 X262.266 Y484.055
G01 X256.133 Y367.023
G01 X250.023 Y257.320
G01 X250.000 Y250.000
G01 X254.047 Y332.297
G01 X258.172 Y366.898
G01 X266.352 Y483.805
G01 X267.441 Y499.391
G01 X266.352 Y483.805
G01 X258.172 Y366.898
G01 X250.719 Y284.781
G01 X250.000 Y250.000
G01 X253.234 Y315.836
G01 X260.211 Y366.742
G01 X270.430 Y483.484
G01 X271.791 Y499.048
G01 X270.430 Y483.484
G01 X260.211 Y366.742
G01 X251.953 Y301.234
G01 X250.000 Y250.000
G01 X252.695 Y304.867
G01 X260.766 Y359.336
G01 X262.250 Y366.547
G01 X274.500 Y483.094
G01 X276.133 Y498.630
G01 X274.500 Y483.094
G01 X262.250 Y366.547
G01 X253.461 Y312.156
G01 X250.047 Y257.320
G01 X250.000 Y250.000
G01 X252.312 Y297.031
G01 X259.227 Y343.719
G01 X264.281 Y366.312
G01 X278.563 Y482.625
G01 X280.467 Y498.137
G01 X278.563 Y482.625
G01 X264.281 Y366.312
G01 X255.117 Y319.914
G01 X250.555 Y273.016
G01 X250.000 Y250.000
G01 X252.023 Y291.148
G01 X258.078 Y332.000
G01 X266.312 Y366.047
G01 X282.617 Y482.094
G01 X284.792 Y497.567
G01 X282.617 Y482.094
G01 X266.312 Y366.047
G01 X256.867 Y325.680
G01 X251.445 Y284.758
G01 X250.000 Y250.000
G01 X251.797 Y286.578
G01 X257.180 Y322.891
G01 X266.117 Y358.672
G01 X268.336 Y365.742
G01 X286.664 Y481.492
G01 X289.108 Y496.922
G01 X286.664 Y481.492
G01 X268.336 Y365.742
G01 X258.687 Y330.094
G01 X252.586 Y293.867
G01 X250.070 Y257.320
G01 X250.000 Y250.000
G01 X250.813 Y266.461
G01 X253.234 Y282.797
G01 X257.258 Y298.906
G01 X262.859 Y314.648
G01 X270.023 Y329.930
G01 X278.703 Y344.617
G01 X288.859 Y358.609
G01 X290.078 Y360.117
G01 X330.164 Y470.242
G01 X335.507 Y484.922
G01 X330.164 Y470.242
G01 X290.078 Y360.117
G01 X279.758 Y346.211
G01 X270.914 Y331.594
G01 X263.578 Y316.375
G01 X257.797 Y300.672
G01 X253.602 Y284.602
G01 X251.000 Y268.281
G01 X250.008 Y251.828
G01 X250.000 Y250.000
G01 X250.773 Y265.680
G01 X253.078 Y281.242
G01 X256.906 Y296.578
G01 X262.250 Y311.570
G01 X269.070 Y326.125
G01 X277.336 Y340.117
G01 X287.016 Y353.438
G01 X292.000 Y359.406
G01 X333.992 Y468.805
G01 X339.593 Y483.395
G01 X333.992 Y468.805
G01 X292.000 Y359.406
G01 X281.680 Y346.422
G01 X272.750 Y332.727
G01 X265.250 Y318.422
G01 X259.211 Y303.625
G01 X254.680 Y288.430
G01 X251.656 Y272.961
G01 X250.164 Y257.320
G01 X250.000 Y250.000
G01 X250.734 Y264.961
G01 X252.938 Y279.820
G01 X256.594 Y294.461
G01 X261.688 Y308.773
G01 X268.203 Y322.664
G01 X276.094 Y336.016
G01 X285.328 Y348.742
G01 X293.898 Y358.656
G01 X337.797 Y467.312
G01 X343.649 Y481.797
G01 X337.797 Y467.312
G01 X293.898 Y358.656
G01 X283.594 Y346.531
G01 X274.594 Y333.687
G01 X266.945 Y320.227
G01 X260.680 Y306.258
G01 X255.836 Y291.875
G01 X252.438 Y277.187
G01 X250.500 Y262.305
G01 X250.000 Y250.000
G01 X250.703 Y264.312
G01 X252.813 Y278.523
G01 X256.305 Y292.523
G01 X261.180 Y306.219
G01 X267.406 Y319.500
G01 X274.961 Y332.281
G01 X283.797 Y344.445
G01 X293.867 Y355.914
G01 X295.789 Y357.875
G01 X341.578 Y465.742
G01 X347.683 Y480.126
G01 X341.578 Y465.742
G01 X295.789 Y357.875
G01 X285.492 Y346.539
G01 X276.437 Y334.484
G01 X268.656 Y321.813
G01 X262.195 Y308.609
G01 X257.078 Y294.984
G01 X253.328 Y281.031
G01 X250.977 Y266.852
G01 X250.023 Y252.547
G01 X250.000 Y250.000
G01 X250.672 Y263.719
G01 X252.695 Y277.336
G01 X256.047 Y290.750
G01 X260.719 Y303.875
G01 X266.687 Y316.609
G01 X273.922 Y328.852
G01 X282.383 Y340.508
G01 X292.039 Y351.500
G01 X297.664 Y357.055
G01 X345.328 Y464.109
G01 X351.684 Y478.386
G01 X345.328 Y464.109
G01 X297.664 Y357.055
G01 X287.391 Y346.461
G01 X278.281 Y335.148
G01 X270.391 Y323.203
G01 X263.742 Y310.719
G01 X258.375 Y297.797
G01 X254.312 Y284.523
G01 X251.586 Y271.000
G01 X250.195 Y257.320
G01 X250.000 Y250.000
G01 X250.648 Y263.164
G01 X252.586 Y276.242
G01 X255.805 Y289.125
G01 X260.289 Y301.719
G01 X266.016 Y313.945
G01 X272.961 Y325.695
G01 X281.094 Y336.891
G01 X290.359 Y347.437
G01 X299.523 Y356.211
G01 X349.055 Y462.414
G01 X355.658 Y476.575
G01 X349.055 Y462.414
G01 X299.523 Y356.211
G01 X289.273 Y346.305
G01 X280.133 Y335.680
G01 X272.133 Y324.414
G01 X265.320 Y312.609
G01 X259.727 Y300.336
G01 X255.383 Y287.703
G01 X252.305 Y274.797
G01 X250.508 Y261.711
G01 X250.000 Y250.000
G01 X250.625 Y262.664
G01 X252.484 Y275.234
G01 X255.578 Y287.617
G01 X259.891 Y299.734
G01 X265.398 Y311.484
G01 X272.078 Y322.781
G01 X279.891 Y333.547
G01 X288.812 Y343.695
G01 X298.781 Y353.133
G01 X301.375 Y355.328
G01 X352.742 Y460.656
G01 X359.592 Y474.699
G01 X352.742 Y460.656
G01 X301.375 Y355.328
G01 X291.148 Y346.070
G01 X281.977 Y336.086
G01 X273.883 Y325.469
G01 X266.930 Y314.289
G01 X261.133 Y302.641
G01 X256.523 Y290.609
G01 X253.125 Y278.281
G01 X250.961 Y265.742
G01 X250.039 Y253.102
G01 X250.000 Y250.000
G01 X250.602 Y262.195
G01 X252.391 Y274.297
G01 X255.375 Y286.227
G01 X259.523 Y297.891
G01 X264.828 Y309.203
G01 X271.258 Y320.086
G01 X278.789 Y330.453
G01 X287.375 Y340.219
G01 X296.969 Y349.312
G01 X303.203 Y354.414
G01 X356.406 Y458.828
G01 X363.500 Y472.750
G01 X356.406 Y458.828
G01 X303.203 Y354.414
G01 X293.016 Y345.766
G01 X283.813 Y336.391
G01 X275.648 Y326.375
G01 X268.555 Y315.789
G01 X262.570 Y304.727
G01 X257.727 Y293.258
G01 X254.039 Y281.477
G01 X251.531 Y269.469
G01 X250.219 Y257.320
G01 X250.000 Y250.000
G01 X250.578 Y261.758
G01 X252.305 Y273.430
G01 X255.180 Y284.930
G01 X259.187 Y296.180
G01 X264.297 Y307.094
G01 X270.500 Y317.586
G01 X277.758 Y327.578
G01 X286.039 Y337.000
G01 X295.297 Y345.766
G01 X305.016 Y353.469
G01 X360.031 Y456.938
G01 X367.368 Y470.737
G01 X360.031 Y456.938
G01 X305.016 Y353.469
G01 X294.867 Y345.391
G01 X285.648 Y336.594
G01 X277.414 Y327.148
G01 X270.203 Y317.125
G01 X264.047 Y306.617
G01 X258.984 Y295.688
G01 X255.031 Y284.422
G01 X252.203 Y272.914
G01 X250.531 Y261.234
G01 X250.000 Y250.000
G01 X250.555 Y261.352
G01 X252.227 Y272.617
G01 X255.000 Y283.727
G01 X258.867 Y294.586
G01 X263.805 Y305.125
G01 X269.797 Y315.258
G01 X276.805 Y324.906
G01 X284.797 Y334.000
G01 X293.734 Y342.469
G01 X303.578 Y350.234
G01 X306.812 Y352.492
G01 X363.625 Y454.992
G01 X371.199 Y468.657
G01 X363.625 Y454.992
G01 X306.812 Y352.492
G01 X296.703 Y344.961
G01 X287.477 Y336.703
G01 X279.187 Y327.797
G01 X271.867 Y318.313
G01 X265.562 Y308.320
G01 X260.289 Y297.906
G01 X256.086 Y287.133
G01 X252.977 Y276.094
G01 X250.961 Y264.867
G01 X250.055 Y253.539
G01 X250.000 Y250.000
G01 X250.406 Y258.227
G01 X251.617 Y266.398
G01 X253.625 Y274.453
G01 X256.430 Y282.328
G01 X260.008 Y289.961
G01 X264.352 Y297.312
G01 X269.430 Y304.305
G01 X275.227 Y310.898
G01 X281.703 Y317.039
G01 X288.844 Y322.672
G01 X296.594 Y327.742
G01 X304.930 Y332.211
G01 X313.813 Y336.039
G01 X323.180 Y339.172
G01 X325.328 Y339.773
G01 X400.656 Y429.539
G01 X410.699 Y441.509
G01 X400.656 Y429.539
G01 X325.328 Y339.773
G01 X315.852 Y336.797
G01 X306.859 Y333.117
G01 X298.398 Y328.789
G01 X290.516 Y323.844
G01 X283.234 Y318.336
G01 X276.609 Y312.305
G01 X270.656 Y305.805
G01 X265.414 Y298.898
G01 X260.906 Y291.625
G01 X257.156 Y284.047
G01 X254.180 Y276.219
G01 X251.992 Y268.203
G01 X250.602 Y260.055
G01 X250.023 Y251.828
G01 X250.000 Y250.000
G01 X250.391 Y258.031
G01 X251.578 Y266.000
G01 X253.539 Y273.852
G01 X256.273 Y281.539
G01 X259.766 Y288.992
G01 X264.000 Y296.156
G01 X268.961 Y302.984
G01 X274.609 Y309.414
G01 X280.930 Y315.406
G01 X287.891 Y320.898
G01 X295.461 Y325.844
G01 X303.594 Y330.211
G01 X312.250 Y333.938
G01 X321.398 Y337.000
G01 X326.883 Y338.445
G01 X403.766 Y426.883
G01 X414.017 Y438.676
G01 X403.766 Y426.883
G01 X326.883 Y338.445
G01 X317.477 Y335.789
G01 X308.531 Y332.445
G01 X300.094 Y328.438
G01 X292.195 Y323.828
G01 X284.883 Y318.641
G01 X278.188 Y312.930
G01 X272.141 Y306.750
G01 X266.781 Y300.148
G01 X262.125 Y293.172
G01 X258.203 Y285.875
G01 X255.023 Y278.320
G01 X252.617 Y270.555
G01 X250.984 Y262.648
G01 X250.133 Y254.641
G01 X250.000 Y250.000
G01 X250.383 Y257.836
G01 X251.539 Y265.617
G01 X253.453 Y273.289
G01 X256.125 Y280.789
G01 X259.531 Y288.063
G01 X263.664 Y295.055
G01 X268.508 Y301.719
G01 X274.023 Y308.000
G01 X280.195 Y313.844
G01 X286.992 Y319.211
G01 X294.375 Y324.039
G01 X302.320 Y328.297
G01 X310.773 Y331.937
G01 X319.695 Y334.922
G01 X328.414 Y337.086
G01 X406.828 Y424.172
G01 X417.284 Y435.785
G01 X406.828 Y424.172
G01 X328.414 Y337.086
G01 X319.086 Y334.750
G01 X310.195 Y331.719
G01 X301.773 Y328.031
G01 X293.867 Y323.734
G01 X286.523 Y318.867
G01 X279.766 Y313.469
G01 X273.633 Y307.594
G01 X268.164 Y301.289
G01 X263.367 Y294.602
G01 X259.281 Y287.586
G01 X255.922 Y280.289
G01 X253.305 Y272.781
G01 X251.437 Y265.102
G01 X250.336 Y257.320
G01 X250.000 Y250.000
G01 X250.375 Y257.656
G01 X251.500 Y265.258
G01 X253.375 Y272.742
G01 X255.984 Y280.070
G01 X259.313 Y287.180
G01 X263.352 Y294.008
G01 X268.078 Y300.516
G01 X273.469 Y306.648
G01 X279.492 Y312.359
G01 X286.133 Y317.602
G01 X293.344 Y322.320
G01 X301.102 Y326.477
G01 X309.359 Y330.031
G01 X318.078 Y332.953
G01 X327.211 Y335.187
G01 X329.922 Y335.703
G01 X409.844 Y421.414
G01 X420.498 Y432.839
G01 X409.844 Y421.414
G01 X329.922 Y335.703
G01 X320.672 Y333.672
G01 X311.828 Y330.945
G01 X303.437 Y327.570
G01 X295.531 Y323.578
G01 X288.156 Y319.016
G01 X281.352 Y313.922
G01 X275.141 Y308.344
G01 X269.562 Y302.328
G01 X264.648 Y295.922
G01 X260.406 Y289.180
G01 X256.867 Y282.148
G01 X254.055 Y274.883
G01 X251.969 Y267.430
G01 X250.625 Y259.859
G01 X250.031 Y252.211
G01 X250.000 Y250.000
G01 X250.367 Y257.484
G01 X251.469 Y264.906
G01 X253.297 Y272.227
G01 X255.844 Y279.391
G01 X259.102 Y286.328
G01 X263.047 Y293.008
G01 X267.664 Y299.367
G01 X272.930 Y305.367
G01 X278.820 Y310.945
G01 X285.313 Y316.063
G01 X292.359 Y320.672
G01 X299.937 Y324.742
G01 X308.008 Y328.219
G01 X316.531 Y331.062
G01 X325.453 Y333.250
G01 X331.406 Y334.297
G01 X412.812 Y418.594
G01 X423.666 Y429.833
G01 X412.812 Y418.594
G01 X331.406 Y334.297
G01 X322.234 Y332.555
G01 X313.453 Y330.125
G01 X305.086 Y327.047
G01 X297.188 Y323.359
G01 X289.789 Y319.094
G01 X282.938 Y314.297
G01 X276.656 Y309.008
G01 X270.984 Y303.281
G01 X265.945 Y297.148
G01 X261.562 Y290.672
G01 X257.859 Y283.891
G01 X254.859 Y276.867
G01 X252.563 Y269.641
G01 X250.992 Y262.281
G01 X250.156 Y254.828
G01 X250.000 Y250.000
G01 X250.359 Y257.313
G01 X251.437 Y264.578
G01 X253.227 Y271.734
G01 X255.719 Y278.734
G01 X258.898 Y285.523
G01 X262.758 Y292.055
G01 X267.273 Y298.273
G01 X272.422 Y304.133
G01 X278.180 Y309.586
G01 X284.523 Y314.594
G01 X291.422 Y319.102
G01 X298.828 Y323.078
G01 X306.719 Y326.477
G01 X315.047 Y329.266
G01 X323.781 Y331.406
G01 X332.867 Y332.867
G01 X415.727 Y415.727
G01 X426.777 Y426.777
G01 X415.727 Y415.727
G01 X332.867 Y332.867
G01 X323.781 Y331.406
G01 X315.047 Y329.266
G01 X306.719 Y326.477
G01 X298.828 Y323.078
G01 X291.422 Y319.102
G01 X284.523 Y314.594
G01 X278.180 Y309.586
G01 X272.422 Y304.133
G01 X267.273 Y298.273
G01 X262.758 Y292.055
G01 X258.898 Y285.523
G01 X255.719 Y278.734
G01 X253.227 Y271.734
G01 X251.437 Y264.578
G01 X250.359 Y257.313
G01 X250.000 Y250.000
G01 X250.352 Y257.156
G01 X251.406 Y264.258
G01 X253.156 Y271.266
G01 X255.594 Y278.109
G01 X258.703 Y284.750
G01 X262.477 Y291.141
G01 X266.898 Y297.227
G01 X271.937 Y302.953
G01 X277.570 Y308.297
G01 X283.773 Y313.188
G01 X290.516 Y317.602
G01 X297.766 Y321.492
G01 X305.484 Y324.813
G01 X313.633 Y327.539
G01 X322.172 Y329.633
G01 X331.062 Y331.062
G01 X334.297 Y331.406
G01 X418.594 Y412.812
G01 X429.833 Y423.666
G01 X418.594 Y412.812
G01 X334.297 Y331.406
G01 X325.297 Y330.219
G01 X316.633 Y328.359
G01 X308.336 Y325.852
G01 X300.461 Y322.742
G01 X293.039 Y319.047
G01 X286.109 Y314.812
G01 X279.711 Y310.086
G01 X273.875 Y304.898
G01 X268.617 Y299.305
G01 X263.977 Y293.336
G01 X259.969 Y287.055
G01 X256.625 Y280.500
G01 X253.945 Y273.719
G01 X251.945 Y266.766
G01 X250.648 Y259.688
G01 X250.047 Y252.547
G01 X250.000 Y250.000
G01 X250.344 Y257.008
G01 X251.375 Y263.961
G01 X253.086 Y270.812
G01 X255.469 Y277.508
G01 X258.523 Y284.016
G01 X262.211 Y290.266
G01 X266.539 Y296.219
G01 X271.469 Y301.828
G01 X276.984 Y307.055
G01 X283.055 Y311.844
G01 X289.656 Y316.164
G01 X296.750 Y319.969
G01 X304.305 Y323.227
G01 X312.281 Y325.891
G01 X320.641 Y327.938
G01 X329.336 Y329.336
G01 X335.703 Y329.922
G01 X421.414 Y409.844
G01 X432.839 Y420.498
G01 X421.414 Y409.844
G01 X335.703 Y329.922
G01 X326.789 Y329.000
G01 X318.188 Y327.414
G01 X309.938 Y325.180
G01 X302.078 Y322.344
G01 X294.656 Y318.922
G01 X287.695 Y314.969
G01 X281.250 Y310.508
G01 X275.336 Y305.586
G01 X269.984 Y300.250
G01 X265.227 Y294.531
G01 X261.078 Y288.484
G01 X257.570 Y282.156
G01 X254.711 Y275.594
G01 X252.523 Y268.844
G01 X251.008 Y261.953
G01 X250.172 Y254.984
G01 X250.000 Y250.000
G01 X250.336 Y256.859
G01 X251.344 Y263.664
G01 X253.023 Y270.375
G01 X255.359 Y276.938
G01 X258.344 Y283.305
G01 X261.961 Y289.422
G01 X266.195 Y295.258
G01 X271.023 Y300.750
G01 X276.422 Y305.867
G01 X282.367 Y310.555
G01 X288.828 Y314.781
G01 X295.781 Y318.508
G01 X303.172 Y321.695
G01 X310.984 Y324.313
G01 X319.172 Y326.312
G01 X327.688 Y327.688
G01 X336.492 Y328.391
G01 X337.086 Y328.414
G01 X424.172 Y406.828
G01 X435.785 Y417.284
G01 X424.172 Y406.828
G01 X337.086 Y328.414
G01 X328.266 Y327.750
G01 X319.727 Y326.430
G01 X311.516 Y324.461
G01 X303.680 Y321.891
G01 X296.258 Y318.742
G01 X289.281 Y315.047
G01 X282.781 Y310.852
G01 X276.805 Y306.188
G01 X271.367 Y301.102
G01 X266.500 Y295.633
G01 X262.219 Y289.820
G01 X258.563 Y283.719
G01 X255.539 Y277.367
G01 X253.156 Y270.820
G01 X251.437 Y264.117
G01 X250.383 Y257.313
G01 X250.000 Y250.461
G01 X250.000 Y250.000
G01 X250.328 Y256.719
G01 X251.320 Y263.391
G01 X252.961 Y269.961
G01 X255.250 Y276.391
G01 X258.172 Y282.625
G01 X261.719 Y288.617
G01 X265.859 Y294.328
G01 X270.594 Y299.711
G01 X275.883 Y304.727
G01 X281.711 Y309.320
G01 X288.039 Y313.461
G01 X294.844 Y317.109
G01 X302.086 Y320.234
G01 X309.742 Y322.797
G01 X317.758 Y324.758
G01 X326.102 Y326.102
G01 X334.727 Y326.789
G01 X338.445 Y326.883
G01 X426.883 Y403.766
G01 X438.676 Y414.017
G01 X426.883 Y403.766
G01 X338.445 Y326.883
G01 X329.711 Y326.469
G01 X321.242 Y325.398
G01 X313.086 Y323.695
G01 X305.273 Y321.383
G01 X297.852 Y318.500
G01 X290.859 Y315.062
G01 X284.320 Y311.125
G01 X278.281 Y306.719
G01 X272.758 Y301.875
G01 X267.789 Y296.648
G01 X263.391 Y291.070
G01 X259.594 Y285.187
G01 X256.406 Y279.047
G01 X253.852 Y272.695
G01 X251.930 Y266.180
G01 X250.664 Y259.547
G01 X250.063 Y252.836
G01 X250.000 Y250.000
G01 X250.273 Y255.484
G01 X251.078 Y260.930
G01 X252.422 Y266.305
G01 X254.289 Y271.547
G01 X256.672 Y276.641
G01 X259.570 Y281.539
G01 X262.953 Y286.203
G01 X266.820 Y290.602
G01 X271.141 Y294.695
G01 X275.898 Y298.445
G01 X281.062 Y301.828
G01 X286.625 Y304.813
G01 X292.539 Y307.359
G01 X298.789 Y309.445
G01 X305.336 Y311.055
G01 X312.148 Y312.148
G01 X319.195 Y312.711
G01 X326.430 Y312.727
G01 X333.828 Y312.172
G01 X341.352 Y311.039
G01 X348.945 Y309.305
G01 X351.484 Y308.594
G01 X452.977 Y367.188
G01 X466.507 Y374.999
G01 X452.977 Y367.188
G01 X351.484 Y308.594
G01 X343.875 Y310.523
G01 X336.328 Y311.859
G01 X328.883 Y312.609
G01 X321.586 Y312.781
G01 X314.469 Y312.398
G01 X307.578 Y311.477
G01 X300.937 Y310.039
G01 X294.586 Y308.109
G01 X288.555 Y305.711
G01 X282.875 Y302.867
G01 X277.570 Y299.617
G01 X272.680 Y295.984
G01 X268.211 Y292.000
G01 X264.188 Y287.703
G01 X260.641 Y283.125
G01 X257.586 Y278.297
G01 X255.023 Y273.266
G01 X252.984 Y268.063
G01 X251.469 Y262.734
G01 X250.477 Y257.305
G01 X250.031 Y251.828
G01 X250.000 Y250.000
G01 X250.266 Y255.398
G01 X251.062 Y260.758
G01 X252.375 Y266.031
G01 X254.219 Y271.195
G01 X256.563 Y276.203
G01 X259.414 Y281.023
G01 X262.742 Y285.609
G01 X266.539 Y289.937
G01 X270.789 Y293.961
G01 X275.469 Y297.648
G01 X280.555 Y300.977
G01 X286.023 Y303.914
G01 X291.844 Y306.414
G01 X297.984 Y308.477
G01 X304.430 Y310.055
G01 X311.133 Y311.133
G01 X318.055 Y311.688
G01 X325.180 Y311.695
G01 X332.453 Y311.156
G01 X339.852 Y310.039
G01 X347.320 Y308.336
G01 X352.492 Y306.812
G01 X454.992 Y363.625
G01 X468.657 Y371.199
G01 X454.992 Y363.625
G01 X352.492 Y306.812
G01 X344.992 Y308.930
G01 X337.539 Y310.445
G01 X330.180 Y311.383
G01 X322.945 Y311.750
G01 X315.883 Y311.570
G01 X309.016 Y310.852
G01 X302.391 Y309.609
G01 X296.039 Y307.883
G01 X289.992 Y305.687
G01 X284.281 Y303.039
G01 X278.930 Y299.984
G01 X273.969 Y296.539
G01 X269.422 Y292.742
G01 X265.313 Y288.617
G01 X261.656 Y284.211
G01 X258.469 Y279.547
G01 X255.781 Y274.664
G01 X253.586 Y269.609
G01 X251.914 Y264.398
G01 X250.758 Y259.094
G01 X250.125 Y253.719
G01 X250.000 Y250.000
G01 X250.258 Y255.313
G01 X251.039 Y260.578
G01 X252.344 Y265.773
G01 X254.148 Y270.852
G01 X256.461 Y275.781
G01 X259.258 Y280.523
G01 X262.539 Y285.039
G01 X266.273 Y289.289
G01 X270.453 Y293.250
G01 X275.062 Y296.883
G01 X280.063 Y300.156
G01 X285.438 Y303.039
G01 X291.164 Y305.508
G01 X297.211 Y307.531
G01 X303.547 Y309.086
G01 X310.141 Y310.141
G01 X316.961 Y310.687
G01 X323.969 Y310.703
G01 X331.125 Y310.164
G01 X338.398 Y309.070
G01 X345.750 Y307.391
G01 X353.141 Y305.133
G01 X353.469 Y305.016
G01 X456.937 Y360.031
G01 X470.737 Y367.368
G01 X456.937 Y360.031
G01 X353.469 Y305.016
G01 X346.078 Y307.305
G01 X338.727 Y309.008
G01 X331.445 Y310.133
G01 X324.281 Y310.687
G01 X317.266 Y310.703
G01 X310.445 Y310.180
G01 X303.836 Y309.141
G01 X297.492 Y307.609
G01 X291.430 Y305.609
G01 X285.688 Y303.156
G01 X280.297 Y300.289
G01 X275.273 Y297.039
G01 X270.648 Y293.422
G01 X266.453 Y289.477
G01 X262.695 Y285.234
G01 X259.391 Y280.727
G01 X256.570 Y276.000
G01 X254.242 Y271.078
G01 X252.406 Y266.000
G01 X251.086 Y260.812
G01 X250.281 Y255.547
G01 X250.000 Y250.234
G01 X250.000 Y250.000
G01 X250.258 Y255.227
G01 X251.023 Y260.414
G01 X252.305 Y265.523
G01 X254.086 Y270.523
G01 X256.359 Y275.375
G01 X259.109 Y280.039
G01 X262.336 Y284.477
G01 X266.016 Y288.664
G01 X270.133 Y292.563
G01 X274.664 Y296.141
G01 X279.586 Y299.359
G01 X284.875 Y302.195
G01 X290.516 Y304.625
G01 X296.461 Y306.617
G01 X302.703 Y308.148
G01 X309.188 Y309.188
G01 X315.898 Y309.727
G01 X322.797 Y309.742
G01 X329.836 Y309.211
G01 X337.000 Y308.133
G01 X344.234 Y306.484
G01 X351.508 Y304.258
G01 X354.414 Y303.203
G01 X458.828 Y356.406
G01 X472.750 Y363.500
G01 X458.828 Y356.406
G01 X354.414 Y303.203
G01 X347.141 Y305.664
G01 X339.883 Y307.539
G01 X332.688 Y308.844
G01 X325.594 Y309.594
G01 X318.633 Y309.797
G01 X311.852 Y309.469
G01 X305.266 Y308.625
G01 X298.930 Y307.281
G01 X292.859 Y305.477
G01 X287.094 Y303.219
G01 X281.656 Y300.547
G01 X276.586 Y297.469
G01 X271.898 Y294.031
G01 X267.609 Y290.266
G01 X263.758 Y286.188
G01 X260.344 Y281.844
G01 X257.398 Y277.266
G01 X254.930 Y272.484
G01 X252.953 Y267.539
G01 X251.477 Y262.469
G01 X250.500 Y257.305
G01 X250.039 Y252.094
G01 X250.000 Y250.000
G01 X250.250 Y255.141
G01 X251.008 Y260.250
G01 X252.266 Y265.281
G01 X254.016 Y270.203
G01 X256.258 Y274.977
G01 X258.969 Y279.570
G01 X262.141 Y283.945
G01 X265.766 Y288.063
G01 X269.820 Y291.898
G01 X274.273 Y295.414
G01 X279.125 Y298.586
G01 X284.336 Y301.383
G01 X289.883 Y303.773
G01 X295.742 Y305.734
G01 X301.875 Y307.234
G01 X308.266 Y308.266
G01 X314.867 Y308.797
G01 X321.656 Y308.805
G01 X328.594 Y308.289
G01 X335.641 Y307.219
G01 X342.758 Y305.602
G01 X349.922 Y303.406
G01 X355.328 Y301.375
G01 X460.656 Y352.742
G01 X474.699 Y359.592
G01 X460.656 Y352.742
G01 X355.328 Y301.375
G01 X348.164 Y303.992
G01 X341.016 Y306.047
G01 X333.906 Y307.531
G01 X326.883 Y308.461
G01 X319.984 Y308.852
G01 X313.234 Y308.711
G01 X306.680 Y308.055
G01 X300.352 Y306.914
G01 X294.281 Y305.297
G01 X288.492 Y303.227
G01 X283.031 Y300.734
G01 X277.906 Y297.844
G01 X273.148 Y294.586
G01 X268.789 Y290.992
G01 X264.844 Y287.078
G01 X261.328 Y282.898
G01 X258.266 Y278.469
G01 X255.664 Y273.828
G01 X253.547 Y269.016
G01 X251.914 Y264.063
G01 X250.781 Y259.008
G01 X250.141 Y253.891
G01 X250.000 Y250.000
G01 X250.250 Y255.062
G01 X250.992 Y260.094
G01 X252.234 Y265.047
G01 X253.953 Y269.891
G01 X256.164 Y274.594
G01 X258.828 Y279.117
G01 X261.961 Y283.422
G01 X265.523 Y287.477
G01 X269.508 Y291.258
G01 X273.906 Y294.719
G01 X278.672 Y297.844
G01 X283.805 Y300.594
G01 X289.266 Y302.945
G01 X295.031 Y304.875
G01 X301.078 Y306.359
G01 X307.367 Y307.367
G01 X313.867 Y307.891
G01 X320.555 Y307.898
G01 X327.383 Y307.391
G01 X334.320 Y306.344
G01 X341.336 Y304.742
G01 X348.383 Y302.586
G01 X355.430 Y299.859
G01 X356.211 Y299.523
G01 X462.414 Y349.055
G01 X476.575 Y355.658
G01 X462.414 Y349.055
G01 X356.211 Y299.523
G01 X349.164 Y302.313
G01 X342.117 Y304.531
G01 X335.094 Y306.188
G01 X328.148 Y307.305
G01 X321.305 Y307.875
G01 X314.602 Y307.914
G01 X308.078 Y307.453
G01 X301.766 Y306.492
G01 X295.695 Y305.063
G01 X289.891 Y303.180
G01 X284.398 Y300.875
G01 X279.227 Y298.164
G01 X274.414 Y295.086
G01 X269.977 Y291.656
G01 X265.945 Y287.914
G01 X262.336 Y283.883
G01 X259.156 Y279.602
G01 X256.438 Y275.102
G01 X254.180 Y270.422
G01 X252.398 Y265.594
G01 X251.109 Y260.648
G01 X250.305 Y255.625
G01 X250.000 Y250.563
G01 X250.000 Y250.000
G01 X250.242 Y254.984
G01 X250.977 Y259.937
G01 X252.195 Y264.820
G01 X253.898 Y269.594
G01 X256.070 Y274.219
G01 X258.695 Y278.672
G01 X261.773 Y282.914
G01 X265.289 Y286.906
G01 X269.219 Y290.633
G01 X273.539 Y294.039
G01 X278.242 Y297.117
G01 X283.289 Y299.828
G01 X288.672 Y302.141
G01 X294.352 Y304.047
G01 X300.305 Y305.500
G01 X306.500 Y306.500
G01 X312.906 Y307.008
G01 X319.484 Y307.023
G01 X326.211 Y306.523
G01 X333.047 Y305.484
G01 X339.953 Y303.914
G01 X346.891 Y301.789
G01 X353.828 Y299.109
G01 X357.055 Y297.664
G01 X464.109 Y345.328
G01 X478.386 Y351.684
G01 X464.109 Y345.328
G01 X357.055 Y297.664
G01 X350.133 Y300.609
G01 X343.187 Y302.992
G01 X336.258 Y304.820
G01 X329.391 Y306.109
G01 X322.609 Y306.852
G01 X315.953 Y307.078
G01 X309.461 Y306.797
G01 X303.164 Y306.023
G01 X297.102 Y304.781
G01 X291.289 Y303.086
G01 X285.766 Y300.961
G01 X280.555 Y298.430
G01 X275.688 Y295.523
G01 X271.187 Y292.258
G01 X267.070 Y288.680
G01 X263.359 Y284.812
G01 X260.078 Y280.680
G01 X257.234 Y276.320
G01 X254.852 Y271.773
G01 X252.930 Y267.062
G01 X251.484 Y262.227
G01 X250.523 Y257.305
G01 X250.055 Y252.328
G01 X250.000 Y250.000
G01 X250.242 Y254.914
G01 X250.961 Y259.789
G01 X252.164 Y264.602
G01 X253.836 Y269.297
G01 X255.977 Y273.859
G01 X258.570 Y278.242
G01 X261.602 Y282.422
G01 X265.062 Y286.359
G01 X268.930 Y290.023
G01 X273.187 Y293.383
G01 X277.820 Y296.414
G01 X282.797 Y299.086
G01 X288.094 Y301.367
G01 X293.688 Y303.234
G01 X299.555 Y304.672
G01 X305.656 Y305.656
G01 X311.961 Y306.164
G01 X318.445 Y306.172
G01 X325.070 Y305.680
G01 X331.805 Y304.656
G01 X338.609 Y303.109
G01 X345.445 Y301.016
G01 X352.281 Y298.375
G01 X357.875 Y295.789
G01 X465.742 Y341.578
G01 X480.126 Y347.683
G01 X465.742 Y341.578
G01 X357.875 Y295.789
G01 X351.070 Y298.883
G01 X344.227 Y301.430
G01 X337.391 Y303.422
G01 X330.602 Y304.883
G01 X323.883 Y305.805
G01 X317.281 Y306.211
G01 X310.828 Y306.109
G01 X304.555 Y305.516
G01 X298.492 Y304.453
G01 X292.672 Y302.938
G01 X287.133 Y300.992
G01 X281.891 Y298.633
G01 X276.969 Y295.898
G01 X272.406 Y292.812
G01 X268.211 Y289.391
G01 X264.414 Y285.680
G01 X261.031 Y281.695
G01 X258.078 Y277.477
G01 X255.562 Y273.062
G01 X253.508 Y268.469
G01 X251.914 Y263.750
G01 X250.797 Y258.930
G01 X250.164 Y254.039
G01 X250.000 Y250.000
G01 X250.234 Y254.844
G01 X250.953 Y259.648
G01 X252.133 Y264.383
G01 X253.781 Y269.016
G01 X255.891 Y273.508
G01 X258.445 Y277.828
G01 X261.430 Y281.945
G01 X264.836 Y285.820
G01 X268.648 Y289.438
G01 X272.852 Y292.742
G01 X277.406 Y295.734
G01 X282.312 Y298.359
G01 X287.531 Y300.609
G01 X293.047 Y302.453
G01 X298.828 Y303.867
G01 X304.836 Y304.836
G01 X311.055 Y305.336
G01 X317.438 Y305.344
G01 X323.969 Y304.859
G01 X330.602 Y303.859
G01 X337.305 Y302.328
G01 X344.039 Y300.266
G01 X350.773 Y297.664
G01 X357.469 Y294.516
G01 X358.656 Y293.898
G01 X467.312 Y337.797
G01 X481.797 Y343.649
G01 X467.312 Y337.797
G01 X358.656 Y293.898
G01 X351.969 Y297.141
G01 X345.242 Y299.844
G01 X338.500 Y302.000
G01 X331.789 Y303.625
G01 X325.141 Y304.719
G01 X318.594 Y305.297
G01 X312.180 Y305.375
G01 X305.930 Y304.961
G01 X299.875 Y304.078
G01 X294.055 Y302.734
G01 X288.492 Y300.969
G01 X283.219 Y298.789
G01 X278.258 Y296.227
G01 X273.633 Y293.305
G01 X269.367 Y290.047
G01 X265.484 Y286.484
G01 X262.008 Y282.656
G01 X258.945 Y278.578
G01 X256.312 Y274.289
G01 X254.125 Y269.828
G01 X252.391 Y265.219
G01 X251.125 Y260.492
G01 X250.328 Y255.695
G01 X250.008 Y250.859
G01 X250.000 Y250.000
G01 X250.234 Y254.773
G01 X250.938 Y259.508
G01 X252.102 Y264.172
G01 X253.727 Y268.742
G01 X255.805 Y273.164
G01 X258.320 Y277.430
G01 X261.266 Y281.484
G01 X264.625 Y285.305
G01 X268.383 Y288.859
G01 X272.516 Y292.125
G01 X277.016 Y295.070
G01 X281.844 Y297.656
G01 X286.992 Y299.875
G01 X292.422 Y301.695
G01 X298.117 Y303.086
G01 X304.039 Y304.039
G01 X310.164 Y304.531
G01 X316.461 Y304.547
G01 X322.898 Y304.063
G01 X329.430 Y303.078
G01 X336.039 Y301.570
G01 X342.680 Y299.539
G01 X349.312 Y296.969
G01 X355.914 Y293.867
G01 X359.406 Y292.000
G01 X468.805 Y333.992
G01 X483.395 Y339.593
G01 X468.805 Y333.992
G01 X359.406 Y292.000
G01 X352.844 Y295.383
G01 X346.219 Y298.234
G01 X339.578 Y300.555
G01 X332.953 Y302.336
G01 X326.375 Y303.602
G01 X319.883 Y304.352
G01 X313.508 Y304.602
G01 X307.289 Y304.359
G01 X301.250 Y303.656
G01 X295.430 Y302.492
G01 X289.852 Y300.898
G01 X284.555 Y298.891
G01 X279.547 Y296.492
G01 X274.875 Y293.734
G01 X270.539 Y290.641
G01 X266.578 Y287.234
G01 X263.008 Y283.555
G01 X259.836 Y279.617
G01 X257.094 Y275.461
G01 X254.781 Y271.117
G01 X252.914 Y266.625
G01 X251.500 Y262.008
G01 X250.547 Y257.305
G01 X250.070 Y252.547
G01 X250.000 Y250.000
G01 X250.203 Y254.117
G01 X250.805 Y258.203
G01 X251.812 Y262.227
G01 X253.219 Y266.164
G01 X255.008 Y269.984
G01 X257.172 Y273.656
G01 X259.719 Y277.156
G01 X262.609 Y280.453
G01 X265.852 Y283.516
G01 X269.422 Y286.336
G01 X273.297 Y288.867
G01 X277.469 Y291.109
G01 X281.906 Y293.016
G01 X286.594 Y294.586
G01 X291.500 Y295.789
G01 X296.609 Y296.609
G01 X301.898 Y297.031
G01 X307.328 Y297.047
G01 X312.875 Y296.633
G01 X318.508 Y295.781
G01 X324.211 Y294.477
G01 X329.938 Y292.727
G01 X335.656 Y290.516
G01 X341.352 Y287.836
G01 X346.977 Y284.695
G01 X352.508 Y281.094
G01 X357.906 Y277.031
G01 X363.141 Y272.508
G01 X365.406 Y270.352
G01 X480.812 Y290.695
G01 X496.202 Y293.409
G01 X480.812 Y290.695
G01 X365.406 Y270.352
G01 X360.250 Y275.070
G01 X354.922 Y279.344
G01 X349.445 Y283.156
G01 X343.859 Y286.500
G01 X338.195 Y289.383
G01 X332.484 Y291.797
G01 X326.750 Y293.758
G01 X321.039 Y295.258
G01 X315.367 Y296.305
G01 X309.781 Y296.914
G01 X304.289 Y297.094
G01 X298.938 Y296.852
G01 X293.750 Y296.203
G01 X288.750 Y295.164
G01 X283.961 Y293.758
G01 X279.406 Y292.000
G01 X275.117 Y289.906
G01 X271.109 Y287.500
G01 X267.398 Y284.805
G01 X264.008 Y281.844
G01 X260.961 Y278.648
G01 X258.258 Y275.234
G01 X255.922 Y271.633
G01 X253.961 Y267.875
G01 X252.391 Y263.992
G01 X251.203 Y260.000
G01 X250.422 Y255.937
G01 X250.039 Y251.828
G01 X250.000 Y250.000
G01 X250.203 Y254.063
G01 X250.797 Y258.102
G01 X251.789 Y262.078
G01 X253.172 Y265.961
G01 X254.945 Y269.734
G01 X257.086 Y273.359
G01 X259.594 Y276.820
G01 X262.461 Y280.070
G01 X265.656 Y283.102
G01 X269.180 Y285.883
G01 X273.008 Y288.391
G01 X277.125 Y290.602
G01 X281.508 Y292.484
G01 X286.141 Y294.039
G01 X290.992 Y295.227
G01 X296.039 Y296.039
G01 X301.258 Y296.453
G01 X306.617 Y296.461
G01 X312.094 Y296.055
G01 X317.664 Y295.211
G01 X323.289 Y293.930
G01 X328.945 Y292.195
G01 X334.602 Y290.016
G01 X340.219 Y287.375
G01 X345.781 Y284.273
G01 X351.242 Y280.711
G01 X356.570 Y276.695
G01 X361.742 Y272.227
G01 X365.742 Y268.336
G01 X481.492 Y286.664
G01 X496.922 Y289.108
G01 X481.492 Y286.664
G01 X365.742 Y268.336
G01 X360.727 Y273.156
G01 X355.516 Y277.531
G01 X350.156 Y281.461
G01 X344.672 Y284.930
G01 X339.102 Y287.937
G01 X333.477 Y290.484
G01 X327.812 Y292.578
G01 X322.164 Y294.219
G01 X316.547 Y295.414
G01 X310.992 Y296.172
G01 X305.531 Y296.492
G01 X300.195 Y296.406
G01 X295.008 Y295.906
G01 X290.000 Y295.016
G01 X285.195 Y293.758
G01 X280.617 Y292.133
G01 X276.281 Y290.180
G01 X272.219 Y287.914
G01 X268.453 Y285.352
G01 X264.992 Y282.516
G01 X261.859 Y279.438
G01 X259.062 Y276.141
G01 X256.625 Y272.648
G01 X254.563 Y268.992
G01 X252.867 Y265.195
G01 X251.562 Y261.289
G01 X250.648 Y257.297
G01 X250.125 Y253.250
G01 X250.000 Y250.000
G01 X250.195 Y254.016
G01 X250.789 Y258.000
G01 X251.766 Y261.930
G01 X253.133 Y265.766
G01 X254.883 Y269.492
G01 X257.000 Y273.078
G01 X259.477 Y276.492
G01 X262.305 Y279.711
G01 X265.469 Y282.703
G01 X268.945 Y285.445
G01 X272.727 Y287.922
G01 X276.797 Y290.102
G01 X281.125 Y291.969
G01 X285.695 Y293.500
G01 X290.492 Y294.672
G01 X295.477 Y295.477
G01 X300.625 Y295.891
G01 X305.930 Y295.898
G01 X311.336 Y295.492
G01 X316.844 Y294.664
G01 X322.398 Y293.391
G01 X327.984 Y291.688
G01 X333.570 Y289.523
G01 X339.125 Y286.914
G01 X344.609 Y283.852
G01 X350.008 Y280.336
G01 X355.273 Y276.367
G01 X360.383 Y271.953
G01 X365.297 Y267.102
G01 X366.047 Y266.312
G01 X482.094 Y282.617
G01 X497.567 Y284.792
G01 X482.094 Y282.617
G01 X366.047 Y266.312
G01 X361.156 Y271.227
G01 X356.078 Y275.711
G01 X350.836 Y279.750
G01 X345.453 Y283.336
G01 X339.984 Y286.469
G01 X334.437 Y289.148
G01 X328.852 Y291.375
G01 X323.266 Y293.156
G01 X317.703 Y294.492
G01 X312.187 Y295.391
G01 X306.758 Y295.859
G01 X301.445 Y295.914
G01 X296.266 Y295.562
G01 X291.250 Y294.820
G01 X286.430 Y293.703
G01 X281.820 Y292.227
G01 X277.453 Y290.414
G01 X273.344 Y288.281
G01 X269.516 Y285.852
G01 X265.984 Y283.148
G01 X262.773 Y280.188
G01 X259.898 Y277.008
G01 X257.359 Y273.617
G01 X255.187 Y270.063
G01 X253.383 Y266.359
G01 X251.953 Y262.531
G01 X250.914 Y258.617
G01 X250.266 Y254.641
G01 X250.008 Y250.625
G01 X250.000 Y250.000
G01 X250.195 Y253.969
G01 X250.781 Y257.906
G01 X251.750 Y261.781
G01 X253.102 Y265.578
G01 X254.828 Y269.258
G01 X256.914 Y272.797
G01 X259.367 Y276.172
G01 X262.156 Y279.352
G01 X265.281 Y282.305
G01 X268.719 Y285.023
G01 X272.453 Y287.469
G01 X276.477 Y289.617
G01 X280.750 Y291.461
G01 X285.266 Y292.977
G01 X290.000 Y294.133
G01 X294.930 Y294.930
G01 X300.016 Y295.336
G01 X305.250 Y295.344
G01 X310.602 Y294.945
G01 X316.031 Y294.125
G01 X321.523 Y292.875
G01 X327.047 Y291.180
G01 X332.562 Y289.047
G01 X338.047 Y286.469
G01 X343.469 Y283.445
G01 X348.797 Y279.969
G01 X354.000 Y276.055
G01 X359.047 Y271.695
G01 X363.914 Y266.898
G01 X366.312 Y264.281
G01 X482.625 Y278.563
G01 X498.137 Y280.467
G01 X482.625 Y278.563
G01 X366.312 Y264.281
G01 X361.562 Y269.297
G01 X356.602 Y273.875
G01 X351.477 Y278.023
G01 X346.211 Y281.727
G01 X340.828 Y284.977
G01 X335.375 Y287.789
G01 X329.867 Y290.148
G01 X324.344 Y292.062
G01 X318.836 Y293.539
G01 X313.367 Y294.578
G01 X307.977 Y295.195
G01 X302.680 Y295.391
G01 X297.508 Y295.187
G01 X292.492 Y294.586
G01 X287.664 Y293.609
G01 X283.031 Y292.281
G01 X278.633 Y290.602
G01 X274.477 Y288.602
G01 X270.594 Y286.305
G01 X267.000 Y283.727
G01 X263.711 Y280.891
G01 X260.750 Y277.820
G01 X258.125 Y274.547
G01 X255.852 Y271.086
G01 X253.937 Y267.477
G01 X252.391 Y263.734
G01 X251.227 Y259.898
G01 X250.445 Y255.984
G01 X250.055 Y252.031
G01 X250.000 Y250.000
G01 X250.195 Y253.922
G01 X250.766 Y257.813
G01 X251.727 Y261.641
G01 X253.062 Y265.391
G01 X254.766 Y269.031
G01 X256.836 Y272.531
G01 X259.250 Y275.859
G01 X262.016 Y279.000
G01 X265.102 Y281.922
G01 X268.500 Y284.602
G01 X272.188 Y287.023
G01 X276.156 Y289.148
G01 X280.383 Y290.969
G01 X284.852 Y292.461
G01 X289.523 Y293.609
G01 X294.391 Y294.391
G01 X299.422 Y294.797
G01 X304.594 Y294.805
G01 X309.883 Y294.406
G01 X315.250 Y293.602
G01 X320.672 Y292.359
G01 X326.125 Y290.695
G01 X331.578 Y288.586
G01 X337.000 Y286.039
G01 X342.359 Y283.047
G01 X347.625 Y279.617
G01 X352.766 Y275.742
G01 X357.750 Y271.430
G01 X362.555 Y266.695
G01 X366.547 Y262.250
G01 X483.094 Y274.500
G01 X498.630 Y276.133
G01 X483.094 Y274.500
G01 X366.547 Y262.250
G01 X361.930 Y267.352
G01 X357.094 Y272.031
G01 X352.086 Y276.281
G01 X346.930 Y280.094
G01 X341.648 Y283.469
G01 X336.281 Y286.398
G01 X330.852 Y288.891
G01 X325.398 Y290.938
G01 X319.945 Y292.547
G01 X314.531 Y293.727
G01 X309.172 Y294.484
G01 X303.898 Y294.828
G01 X298.742 Y294.766
G01 X293.734 Y294.312
G01 X288.891 Y293.477
G01 X284.242 Y292.281
G01 X279.805 Y290.742
G01 X275.617 Y288.883
G01 X271.680 Y286.711
G01 X268.023 Y284.258
G01 X264.672 Y281.547
G01 X261.625 Y278.594
G01 X258.914 Y275.430
G01 X256.539 Y272.070
G01 X254.516 Y268.555
G01 X252.859 Y264.898
G01 X251.578 Y261.141
G01 X250.672 Y257.297
G01 X250.148 Y253.398
G01 X250.000 Y250.000
G01 X250.188 Y253.875
G01 X250.758 Y257.719
G01 X251.703 Y261.508
G01 X253.023 Y265.211
G01 X254.711 Y268.805
G01 X256.750 Y272.266
G01 X259.141 Y275.555
G01 X261.867 Y278.656
G01 X264.922 Y281.547
G01 X268.281 Y284.195
G01 X271.930 Y286.586
G01 X275.852 Y288.687
G01 X280.031 Y290.484
G01 X284.437 Y291.961
G01 X289.062 Y293.094
G01 X293.867 Y293.867
G01 X298.844 Y294.266
G01 X303.953 Y294.281
G01 X309.172 Y293.891
G01 X314.484 Y293.086
G01 X319.844 Y291.859
G01 X325.234 Y290.211
G01 X330.617 Y288.133
G01 X335.977 Y285.609
G01 X341.273 Y282.656
G01 X346.477 Y279.266
G01 X351.555 Y275.438
G01 X356.484 Y271.180
G01 X361.234 Y266.500
G01 X365.766 Y261.398
G01 X366.742 Y260.211
G01 X483.484 Y270.430
G01 X499.048 Y271.791
G01 X483.484 Y270.430
G01 X366.742 Y260.211
G01 X362.258 Y265.406
G01 X357.555 Y270.180
G01 X352.664 Y274.531
G01 X347.617 Y278.453
G01 X342.437 Y281.937
G01 X337.156 Y284.992
G01 X331.812 Y287.609
G01 X326.430 Y289.789
G01 X321.039 Y291.531
G01 X315.672 Y292.852
G01 X310.344 Y293.742
G01 X305.102 Y294.227
G01 X299.969 Y294.305
G01 X294.961 Y293.992
G01 X290.109 Y293.297
G01 X285.445 Y292.242
G01 X280.992 Y290.844
G01 X276.758 Y289.117
G01 X272.773 Y287.078
G01 X269.062 Y284.750
G01 X265.641 Y282.156
G01 X262.523 Y279.320
G01 X259.719 Y276.266
G01 X257.258 Y273.008
G01 X255.133 Y269.586
G01 X253.367 Y266.023
G01 X251.969 Y262.336
G01 X250.938 Y258.563
G01 X250.281 Y254.734
G01 X250.008 Y250.859
G01 X250.000 Y250.000
G01 X250.188 Y253.828
G01 X250.750 Y257.625
G01 X251.688 Y261.375
G01 X252.992 Y265.039
G01 X254.656 Y268.586
G01 X256.672 Y272.008
G01 X259.039 Y275.258
G01 X261.734 Y278.328
G01 X264.750 Y281.180
G01 X268.063 Y283.797
G01 X271.672 Y286.156
G01 X275.547 Y288.242
G01 X279.680 Y290.016
G01 X284.039 Y291.477
G01 X288.609 Y292.594
G01 X293.359 Y293.359
G01 X298.273 Y293.750
G01 X303.328 Y293.766
G01 X308.484 Y293.375
G01 X313.734 Y292.586
G01 X319.031 Y291.375
G01 X324.359 Y289.742
G01 X329.680 Y287.688
G01 X334.977 Y285.195
G01 X340.211 Y282.281
G01 X345.352 Y278.922
G01 X350.375 Y275.141
G01 X355.250 Y270.938
G01 X359.938 Y266.305
G01 X364.422 Y261.266
G01 X366.898 Y258.172
G01 X483.805 Y266.352
G01 X499.391 Y267.441
G01 X483.805 Y266.352
G01 X366.898 Y258.172
G01 X362.555 Y263.445
G01 X357.984 Y268.312
G01 X353.211 Y272.766
G01 X348.273 Y276.789
G01 X343.195 Y280.391
G01 X338.008 Y283.562
G01 X332.750 Y286.305
G01 X327.437 Y288.609
G01 X322.109 Y290.484
G01 X316.789 Y291.937
G01 X311.508 Y292.969
G01 X306.297 Y293.586
G01 X301.180 Y293.805
G01 X296.180 Y293.633
G01 X291.328 Y293.078
G01 X286.656 Y292.164
G01 X282.172 Y290.898
G01 X277.906 Y289.305
G01 X273.883 Y287.398
G01 X270.117 Y285.195
G01 X266.625 Y282.727
G01 X263.437 Y280.000
G01 X260.555 Y277.055
G01 X258.000 Y273.906
G01 X255.781 Y270.578
G01 X253.906 Y267.102
G01 X252.398 Y263.500
G01 X251.250 Y259.797
G01 X250.469 Y256.031
G01 X250.063 Y252.211
G01 X250.000 Y250.000
G01 X250.188 Y253.781
G01 X250.742 Y257.539
G01 X251.664 Y261.242
G01 X252.953 Y264.859
G01 X254.602 Y268.375
G01 X256.602 Y271.750
G01 X258.938 Y274.969
G01 X261.602 Y278.000
G01 X264.578 Y280.820
G01 X267.859 Y283.414
G01 X271.422 Y285.742
G01 X275.258 Y287.797
G01 X279.336 Y289.555
G01 X283.648 Y291.000
G01 X288.164 Y292.102
G01 X292.859 Y292.859
G01 X297.719 Y293.250
G01 X302.711 Y293.258
G01 X307.812 Y292.875
G01 X313.000 Y292.094
G01 X318.234 Y290.898
G01 X323.500 Y289.289
G01 X328.766 Y287.258
G01 X334.000 Y284.797
G01 X339.172 Y281.906
G01 X344.258 Y278.594
G01 X349.219 Y274.852
G01 X354.039 Y270.695
G01 X358.672 Y266.117
G01 X363.102 Y261.141
G01 X367.023 Y256.133
G01 X484.055 Y262.266
G01 X499.657 Y263.083
G01 X484.055 Y262.266
G01 X367.023 Y256.133
G01 X362.812 Y261.484
G01 X358.375 Y266.438
G01 X353.719 Y270.984
G01 X348.891 Y275.117
G01 X343.922 Y278.828
G01 X338.828 Y282.109
G01 X333.656 Y284.969
G01 X328.414 Y287.406
G01 X323.148 Y289.406
G01 X317.891 Y290.992
G01 X312.648 Y292.156
G01 X307.469 Y292.914
G01 X302.375 Y293.273
G01 X297.391 Y293.234
G01 X292.539 Y292.820
G01 X287.852 Y292.039
G01 X283.352 Y290.914
G01 X279.055 Y289.453
G01 X274.992 Y287.672
G01 X271.180 Y285.594
G01 X267.633 Y283.242
G01 X264.367 Y280.641
G01 X261.414 Y277.805
G01 X258.766 Y274.758
G01 X256.453 Y271.531
G01 X254.484 Y268.141
G01 X252.859 Y264.625
G01 X251.594 Y261.000
G01 X250.695 Y257.289
G01 X250.164 Y253.531
G01 X250.000 Y250.000
G01 X250.188 Y253.742
G01 X250.734 Y257.453
G01 X251.648 Y261.117
G01 X252.922 Y264.695
G01 X254.547 Y268.164
G01 X256.523 Y271.508
G01 X258.836 Y274.687
G01 X261.469 Y277.680
G01 X264.414 Y280.469
G01 X267.656 Y283.031
G01 X271.180 Y285.336
G01 X274.969 Y287.367
G01 X279.008 Y289.109
G01 X283.266 Y290.531
G01 X287.727 Y291.625
G01 X292.375 Y292.375
G01 X297.180 Y292.758
G01 X302.117 Y292.766
G01 X307.156 Y292.391
G01 X312.281 Y291.617
G01 X317.461 Y290.437
G01 X322.672 Y288.844
G01 X327.875 Y286.828
G01 X333.047 Y284.398
G01 X338.156 Y281.547
G01 X343.187 Y278.266
G01 X348.094 Y274.570
G01 X352.852 Y270.461
G01 X357.438 Y265.937
G01 X361.820 Y261.016
G01 X365.969 Y255.695
G01 X367.117 Y254.086
G01 X484.234 Y258.180
G01 X499.848 Y258.724
G01 X484.234 Y258.180
G01 X367.117 Y254.086
G01 X363.039 Y259.516
G01 X358.727 Y264.555
G01 X354.195 Y269.195
G01 X349.484 Y273.422
G01 X344.617 Y277.242
G01 X339.625 Y280.641
G01 X334.531 Y283.617
G01 X329.375 Y286.172
G01 X324.172 Y288.305
G01 X318.961 Y290.016
G01 X313.773 Y291.320
G01 X308.633 Y292.211
G01 X303.562 Y292.703
G01 X298.594 Y292.797
G01 X293.750 Y292.523
G01 X289.055 Y291.875
G01 X284.531 Y290.883
G01 X280.211 Y289.555
G01 X276.109 Y287.906
G01 X272.250 Y285.953
G01 X268.648 Y283.727
G01 X265.320 Y281.234
G01 X262.289 Y278.508
G01 X259.562 Y275.570
G01 X257.156 Y272.438
G01 X255.086 Y269.148
G01 X253.359 Y265.711
G01 X251.977 Y262.156
G01 X250.961 Y258.516
G01 X250.305 Y254.820
G01 X250.016 Y251.078
G01 X250.000 Y250.000
G01 X250.180 Y253.695
G01 X250.727 Y257.367
G01 X251.633 Y260.992
G01 X252.891 Y264.531
G01 X254.500 Y267.961
G01 X256.453 Y271.266
G01 X258.734 Y274.406
G01 X261.336 Y277.367
G01 X264.250 Y280.133
G01 X267.453 Y282.656
G01 X270.945 Y284.938
G01 X274.687 Y286.953
G01 X278.680 Y288.672
G01 X282.891 Y290.078
G01 X287.305 Y291.156
G01 X291.898 Y291.898
G01 X296.648 Y292.281
G01 X301.531 Y292.289
G01 X306.516 Y291.914
G01 X311.586 Y291.148
G01 X316.703 Y289.984
G01 X321.852 Y288.406
G01 X327.000 Y286.414
G01 X332.109 Y284.016
G01 X337.172 Y281.187
G01 X342.141 Y277.953
G01 X346.992 Y274.297
G01 X351.695 Y270.227
G01 X356.234 Y265.758
G01 X360.562 Y260.891
G01 X364.664 Y255.633
G01 X367.172 Y252.047
G01 X484.336 Y254.094
G01 X499.962 Y254.366
G01 X484.336 Y254.094
G01 X367.172 Y252.047
G01 X363.234 Y257.547
G01 X359.047 Y262.664
G01 X354.641 Y267.391
G01 X350.047 Y271.719
G01 X345.281 Y275.641
G01 X340.383 Y279.148
G01 X335.383 Y282.242
G01 X330.297 Y284.914
G01 X325.172 Y287.172
G01 X320.023 Y289.016
G01 X314.875 Y290.445
G01 X309.773 Y291.469
G01 X304.734 Y292.094
G01 X299.781 Y292.328
G01 X294.945 Y292.188
G01 X290.242 Y291.672
G01 X285.711 Y290.812
G01 X281.367 Y289.609
G01 X277.234 Y288.094
G01 X273.328 Y286.266
G01 X269.672 Y284.156
G01 X266.281 Y281.789
G01 X263.180 Y279.172
G01 X260.375 Y276.336
G01 X257.883 Y273.313
G01 X255.719 Y270.109
G01 X253.891 Y266.758
G01 X252.398 Y263.281
G01 X251.266 Y259.711
G01 X250.492 Y256.070
G01 X250.078 Y252.383
G01 X250.000 Y250.000
G01 X250.164 Y253.289
G01 X250.648 Y256.563
G01 X251.453 Y259.781
G01 X252.570 Y262.930
G01 X254.008 Y265.984
G01 X255.742 Y268.922
G01 X257.773 Y271.719
G01 X260.094 Y274.359
G01 X262.680 Y276.812
G01 X265.539 Y279.070
G01 X268.641 Y281.094
G01 X271.977 Y282.883
G01 X275.523 Y284.414
G01 X279.273 Y285.672
G01 X283.203 Y286.633
G01 X287.289 Y287.289
G01 X291.516 Y287.625
G01 X295.859 Y287.633
G01 X300.297 Y287.305
G01 X304.813 Y286.625
G01 X309.367 Y285.586
G01 X313.945 Y284.180
G01 X318.531 Y282.414
G01 X323.078 Y280.273
G01 X327.578 Y277.758
G01 X332.000 Y274.875
G01 X336.320 Y271.625
G01 X340.516 Y268.008
G01 X344.547 Y264.023
G01 X348.398 Y259.695
G01 X352.047 Y255.016
G01 X355.469 Y250.000
G01 X358.633 Y244.664
G01 X361.523 Y239.016
G01 X364.109 Y233.070
G01 X365.406 Y229.648
G01 X480.812 Y209.305
G01 X496.202 Y206.591
G01 X480.812 Y209.305
G01 X365.406 Y229.648
G01 X363.000 Y235.750
G01 X360.273 Y241.562
G01 X357.258 Y247.070
G01 X353.977 Y252.266
G01 X350.453 Y257.133
G01 X346.711 Y261.664
G01 X342.773 Y265.836
G01 X338.664 Y269.656
G01 X334.414 Y273.117
G01 X330.047 Y276.203
G01 X325.586 Y278.922
G01 X321.063 Y281.266
G01 X316.492 Y283.242
G01 X311.914 Y284.852
G01 X307.336 Y286.086
G01 X302.797 Y286.969
G01 X298.313 Y287.492
G01 X293.914 Y287.672
G01 X289.625 Y287.516
G01 X285.453 Y287.039
G01 X281.438 Y286.242
G01 X277.586 Y285.148
G01 X273.922 Y283.766
G01 X270.461 Y282.125
G01 X267.227 Y280.227
G01 X264.234 Y278.094
G01 X261.500 Y275.750
G01 X259.023 Y273.211
G01 X256.836 Y270.500
G01 X254.930 Y267.633
G01 X253.328 Y264.641
G01 X252.031 Y261.539
G01 X251.055 Y258.359
G01 X250.391 Y255.109
G01 X250.047 Y251.828
G01 X250.000 Y250.000
G01 X250.156 Y253.258
G01 X250.641 Y256.492
G01 X251.437 Y259.688
G01 X252.547 Y262.805
G01 X253.961 Y265.828
G01 X255.688 Y268.734
G01 X257.695 Y271.508
G01 X259.992 Y274.117
G01 X262.555 Y276.547
G01 X265.383 Y278.781
G01 X268.453 Y280.789
G01 X271.758 Y282.563
G01 X275.273 Y284.070
G01 X278.984 Y285.313
G01 X282.875 Y286.266
G01 X286.922 Y286.922
G01 X291.102 Y287.258
G01 X295.406 Y287.266
G01 X299.797 Y286.938
G01 X304.266 Y286.258
G01 X308.781 Y285.234
G01 X313.312 Y283.844
G01 X317.852 Y282.094
G01 X322.359 Y279.969
G01 X326.812 Y277.484
G01 X331.195 Y274.633
G01 X335.469 Y271.406
G01 X339.617 Y267.828
G01 X343.609 Y263.883
G01 X347.430 Y259.594
G01 X351.039 Y254.961
G01 X354.422 Y250.000
G01 X357.555 Y244.719
G01 X360.414 Y239.125
G01 X362.977 Y233.242
G01 X365.031 Y227.641
G01 X480.070 Y205.281
G01 X495.407 Y202.300
G01 X480.070 Y205.281
G01 X365.031 Y227.641
G01 X362.766 Y233.773
G01 X360.172 Y239.633
G01 X357.289 Y245.195
G01 X354.133 Y250.453
G01 X350.727 Y255.391
G01 X347.094 Y259.992
G01 X343.266 Y264.250
G01 X339.250 Y268.156
G01 X335.094 Y271.711
G01 X330.805 Y274.898
G01 X326.422 Y277.719
G01 X321.961 Y280.172
G01 X317.445 Y282.258
G01 X312.914 Y283.984
G01 X308.375 Y285.336
G01 X303.867 Y286.336
G01 X299.406 Y286.977
G01 X295.016 Y287.273
G01 X290.727 Y287.242
G01 X286.555 Y286.875
G01 X282.523 Y286.195
G01 X278.648 Y285.219
G01 X274.953 Y283.953
G01 X271.453 Y282.414
G01 X268.172 Y280.617
G01 X265.125 Y278.594
G01 X262.320 Y276.344
G01 X259.773 Y273.891
G01 X257.508 Y271.266
G01 X255.516 Y268.484
G01 X253.828 Y265.562
G01 X252.438 Y262.531
G01 X251.352 Y259.406
G01 X250.586 Y256.211
G01 X250.133 Y252.969
G01 X250.000 Y250.000
G01 X250.156 Y253.227
G01 X250.633 Y256.430
G01 X251.422 Y259.586
G01 X252.523 Y262.680
G01 X253.922 Y265.672
G01 X255.625 Y268.555
G01 X257.617 Y271.297
G01 X259.891 Y273.883
G01 X262.438 Y276.289
G01 X265.234 Y278.500
G01 X268.273 Y280.484
G01 X271.539 Y282.242
G01 X275.023 Y283.742
G01 X278.695 Y284.969
G01 X282.547 Y285.914
G01 X286.555 Y286.555
G01 X290.703 Y286.891
G01 X294.961 Y286.898
G01 X299.313 Y286.570
G01 X303.734 Y285.906
G01 X308.203 Y284.883
G01 X312.695 Y283.508
G01 X317.188 Y281.773
G01 X321.648 Y279.680
G01 X326.062 Y277.211
G01 X330.398 Y274.391
G01 X334.633 Y271.195
G01 X338.734 Y267.648
G01 X342.695 Y263.750
G01 X346.469 Y259.500
G01 X350.047 Y254.914
G01 X353.398 Y250.000
G01 X356.500 Y244.766
G01 X359.336 Y239.234
G01 X361.867 Y233.406
G01 X364.094 Y227.305
G01 X364.625 Y225.633
G01 X479.250 Y201.273
G01 X494.537 Y198.024
G01 X479.250 Y201.273
G01 X364.625 Y225.633
G01 X362.492 Y231.805
G01 X360.039 Y237.703
G01 X357.289 Y243.320
G01 X354.250 Y248.633
G01 X350.969 Y253.633
G01 X347.445 Y258.312
G01 X343.719 Y262.648
G01 X339.805 Y266.648
G01 X335.742 Y270.289
G01 X331.539 Y273.570
G01 X327.227 Y276.500
G01 X322.828 Y279.055
G01 X318.375 Y281.250
G01 X313.891 Y283.086
G01 X309.398 Y284.555
G01 X304.922 Y285.664
G01 X300.484 Y286.430
G01 X296.109 Y286.844
G01 X291.828 Y286.922
G01 X287.648 Y286.680
G01 X283.602 Y286.117
G01 X279.711 Y285.250
G01 X275.984 Y284.094
G01 X272.453 Y282.664
G01 X269.125 Y280.977
G01 X266.023 Y279.047
G01 X263.156 Y276.898
G01 X260.547 Y274.539
G01 X258.195 Y272.000
G01 X256.133 Y269.297
G01 X254.352 Y266.453
G01 X252.867 Y263.484
G01 X251.688 Y260.422
G01 X250.813 Y257.281
G01 X250.258 Y254.086
G01 X250.008 Y250.859
G01 X250.000 Y250.000
G01 X250.156 Y253.195
G01 X250.625 Y256.367
G01 X251.406 Y259.492
G01 X252.500 Y262.555
G01 X253.891 Y265.523
G01 X255.570 Y268.375
G01 X257.547 Y271.094
G01 X259.797 Y273.648
G01 X262.312 Y276.031
G01 X265.086 Y278.219
G01 X268.094 Y280.188
G01 X271.336 Y281.930
G01 X274.781 Y283.414
G01 X278.422 Y284.633
G01 X282.234 Y285.562
G01 X286.203 Y286.203
G01 X290.305 Y286.531
G01 X294.523 Y286.539
G01 X298.836 Y286.219
G01 X303.211 Y285.555
G01 X307.641 Y284.547
G01 X312.086 Y283.187
G01 X316.531 Y281.469
G01 X320.953 Y279.391
G01 X325.320 Y276.953
G01 X329.617 Y274.148
G01 X333.805 Y270.992
G01 X337.875 Y267.477
G01 X341.789 Y263.617
G01 X345.531 Y259.406
G01 X349.078 Y254.867
G01 X352.398 Y250.000
G01 X355.469 Y244.820
G01 X358.273 Y239.336
G01 X360.781 Y233.570
G01 X362.984 Y227.523
G01 X364.187 Y223.641
G01 X478.367 Y197.273
G01 X493.592 Y193.759
G01 X478.367 Y197.273
G01 X364.187 Y223.641
G01 X362.188 Y229.836
G01 X359.875 Y235.781
G01 X357.250 Y241.445
G01 X354.336 Y246.813
G01 X351.172 Y251.875
G01 X347.766 Y256.625
G01 X344.141 Y261.039
G01 X340.336 Y265.117
G01 X336.352 Y268.852
G01 X332.234 Y272.227
G01 X328.000 Y275.250
G01 X323.680 Y277.914
G01 X319.289 Y280.219
G01 X314.852 Y282.156
G01 X310.406 Y283.742
G01 X305.961 Y284.969
G01 X301.555 Y285.844
G01 X297.195 Y286.375
G01 X292.922 Y286.578
G01 X288.742 Y286.445
G01 X284.687 Y286.000
G01 X280.773 Y285.242
G01 X277.023 Y284.203
G01 X273.453 Y282.883
G01 X270.086 Y281.297
G01 X266.930 Y279.477
G01 X264.008 Y277.422
G01 X261.328 Y275.156
G01 X258.914 Y272.703
G01 X256.766 Y270.078
G01 X254.898 Y267.313
G01 X253.328 Y264.414
G01 X252.047 Y261.406
G01 X251.078 Y258.320
G01 X250.414 Y255.172
G01 X250.063 Y251.992
G01 X250.000 Y250.000
G01 X250.156 Y253.164
G01 X250.625 Y256.305
G01 X251.398 Y259.406
G01 X252.477 Y262.430
G01 X253.852 Y265.367
G01 X255.523 Y268.195
G01 X257.477 Y270.891
G01 X259.703 Y273.422
G01 X262.195 Y275.781
G01 X264.938 Y277.953
G01 X267.922 Y279.898
G01 X271.125 Y281.617
G01 X274.539 Y283.094
G01 X278.148 Y284.297
G01 X281.922 Y285.219
G01 X285.852 Y285.852
G01 X289.922 Y286.180
G01 X294.094 Y286.188
G01 X298.367 Y285.867
G01 X302.703 Y285.211
G01 X307.086 Y284.211
G01 X311.492 Y282.867
G01 X315.891 Y281.164
G01 X320.273 Y279.109
G01 X324.594 Y276.687
G01 X328.852 Y273.922
G01 X333.000 Y270.789
G01 X337.031 Y267.313
G01 X340.906 Y263.484
G01 X344.617 Y259.320
G01 X348.125 Y254.820
G01 X351.414 Y250.000
G01 X354.453 Y244.867
G01 X357.234 Y239.437
G01 X359.719 Y233.727
G01 X361.898 Y227.742
G01 X363.703 Y221.648
G01 X477.414 Y193.297
G01 X492.574 Y189.518
G01 X477.414 Y193.297
G01 X363.703 Y221.648
G01 X361.852 Y227.875
G01 X359.664 Y233.852
G01 X357.172 Y239.562
G01 X354.391 Y244.984
G01 X351.344 Y250.109
G01 X348.047 Y254.922
G01 X344.539 Y259.414
G01 X340.828 Y263.570
G01 X336.945 Y267.391
G01 X332.914 Y270.867
G01 X328.758 Y273.984
G01 X324.500 Y276.750
G01 X320.172 Y279.156
G01 X315.797 Y281.203
G01 X311.391 Y282.898
G01 X306.984 Y284.242
G01 X302.602 Y285.234
G01 X298.266 Y285.883
G01 X294.000 Y286.195
G01 X289.828 Y286.180
G01 X285.766 Y285.844
G01 X281.836 Y285.203
G01 X278.063 Y284.273
G01 X274.461 Y283.062
G01 X271.055 Y281.586
G01 X267.852 Y279.859
G01 X264.875 Y277.906
G01 X262.133 Y275.734
G01 X259.648 Y273.367
G01 X257.430 Y270.828
G01 X255.477 Y268.133
G01 X253.812 Y265.305
G01 X252.445 Y262.367
G01 X251.375 Y259.336
G01 X250.609 Y256.242
G01 X250.148 Y253.094
G01 X250.000 Y250.000
G01 X250.156 Y253.133
G01 X250.617 Y256.250
G01 X251.383 Y259.313
G01 X252.453 Y262.312
G01 X253.812 Y265.227
G01 X255.469 Y268.023
G01 X257.406 Y270.687
G01 X259.609 Y273.203
G01 X262.078 Y275.539
G01 X264.797 Y277.680
G01 X267.750 Y279.617
G01 X270.930 Y281.320
G01 X274.305 Y282.773
G01 X277.875 Y283.969
G01 X281.617 Y284.891
G01 X285.516 Y285.516
G01 X289.539 Y285.836
G01 X293.680 Y285.844
G01 X297.906 Y285.531
G01 X302.195 Y284.875
G01 X306.539 Y283.891
G01 X310.906 Y282.555
G01 X315.266 Y280.867
G01 X319.602 Y278.828
G01 X323.883 Y276.437
G01 X328.102 Y273.688
G01 X332.211 Y270.594
G01 X336.203 Y267.148
G01 X340.047 Y263.359
G01 X343.719 Y259.227
G01 X347.187 Y254.773
G01 X350.445 Y250.000
G01 X353.461 Y244.914
G01 X356.211 Y239.539
G01 X358.672 Y233.883
G01 X360.828 Y227.953
G01 X362.664 Y221.781
G01 X363.195 Y219.672
G01 X476.391 Y189.336
G01 X491.481 Y185.293
G01 X476.391 Y189.336
G01 X363.195 Y219.672
G01 X361.477 Y225.922
G01 X359.430 Y231.930
G01 X357.063 Y237.680
G01 X354.406 Y243.156
G01 X351.477 Y248.336
G01 X348.305 Y253.219
G01 X344.898 Y257.781
G01 X341.289 Y262.016
G01 X337.500 Y265.922
G01 X333.555 Y269.484
G01 X329.484 Y272.695
G01 X325.297 Y275.562
G01 X321.039 Y278.070
G01 X316.711 Y280.227
G01 X312.359 Y282.031
G01 X307.992 Y283.484
G01 X303.641 Y284.586
G01 X299.328 Y285.352
G01 X295.078 Y285.773
G01 X290.906 Y285.875
G01 X286.844 Y285.656
G01 X282.898 Y285.125
G01 X279.109 Y284.305
G01 X275.477 Y283.203
G01 X272.031 Y281.836
G01 X268.789 Y280.211
G01 X265.758 Y278.352
G01 X262.961 Y276.273
G01 X260.406 Y274.000
G01 X258.109 Y271.547
G01 X256.078 Y268.930
G01 X254.336 Y266.172
G01 X252.875 Y263.297
G01 X251.703 Y260.320
G01 X250.836 Y257.273
G01 X250.273 Y254.180
G01 X250.016 Y251.047
G01 X250.000 Y250.000
G01 X250.156 Y253.109
G01 X250.609 Y256.188
G01 X251.367 Y259.227
G01 X252.430 Y262.195
G01 X253.781 Y265.078
G01 X255.414 Y267.852
G01 X257.336 Y270.492
G01 X259.516 Y272.984
G01 X261.961 Y275.297
G01 X264.656 Y277.422
G01 X267.586 Y279.336
G01 X270.727 Y281.023
G01 X274.078 Y282.469
G01 X277.617 Y283.648
G01 X281.320 Y284.555
G01 X285.180 Y285.180
G01 X289.164 Y285.500
G01 X293.266 Y285.508
G01 X297.453 Y285.195
G01 X301.703 Y284.547
G01 X306.008 Y283.570
G01 X310.328 Y282.250
G01 X314.648 Y280.578
G01 X318.945 Y278.555
G01 X323.187 Y276.188
G01 X327.359 Y273.469
G01 X331.437 Y270.398
G01 X335.391 Y266.984
G01 X339.195 Y263.234
G01 X342.828 Y259.141
G01 X346.273 Y254.727
G01 X349.500 Y250.000
G01 X352.484 Y244.969
G01 X355.211 Y239.641
G01 X357.648 Y234.031
G01 X359.789 Y228.164
G01 X361.602 Y222.047
G01 X362.648 Y217.695
G01 X475.297 Y185.398
G01 X490.316 Y181.091
G01 X475.297 Y185.398
G01 X362.648 Y217.695
G01 X361.070 Y223.977
G01 X359.156 Y230.016
G01 X356.922 Y235.805
G01 X354.391 Y241.328
G01 X351.586 Y246.563
G01 X348.523 Y251.508
G01 X345.227 Y256.141
G01 X341.719 Y260.453
G01 X338.031 Y264.438
G01 X334.172 Y268.086
G01 X330.180 Y271.391
G01 X326.070 Y274.352
G01 X321.875 Y276.961
G01 X317.609 Y279.227
G01 X313.305 Y281.133
G01 X308.984 Y282.695
G01 X304.664 Y283.914
G01 X300.375 Y284.781
G01 X296.141 Y285.328
G01 X291.977 Y285.539
G01 X287.914 Y285.430
G01 X283.961 Y285.016
G01 X280.148 Y284.305
G01 X276.500 Y283.313
G01 X273.016 Y282.047
G01 X269.727 Y280.523
G01 X266.648 Y278.766
G01 X263.797 Y276.781
G01 X261.180 Y274.594
G01 X258.812 Y272.227
G01 X256.703 Y269.688
G01 X254.875 Y267.000
G01 X253.328 Y264.195
G01 X252.063 Y261.281
G01 X251.102 Y258.289
G01 X250.438 Y255.234
G01 X250.070 Y252.141
G01 X250.000 Y250.000
G01 X250.148 Y253.078
G01 X250.602 Y256.133
G01 X251.359 Y259.141
G01 X252.406 Y262.086
G01 X253.742 Y264.938
G01 X255.367 Y267.688
G01 X257.266 Y270.305
G01 X259.430 Y272.766
G01 X261.852 Y275.062
G01 X264.523 Y277.164
G01 X267.422 Y279.062
G01 X270.539 Y280.734
G01 X273.852 Y282.164
G01 X277.359 Y283.336
G01 X281.031 Y284.234
G01 X284.852 Y284.852
G01 X288.797 Y285.164
G01 X292.859 Y285.172
G01 X297.008 Y284.867
G01 X301.227 Y284.227
G01 X305.484 Y283.258
G01 X309.766 Y281.945
G01 X314.047 Y280.289
G01 X318.297 Y278.289
G01 X322.508 Y275.945
G01 X326.641 Y273.250
G01 X330.672 Y270.211
G01 X334.594 Y266.828
G01 X338.359 Y263.109
G01 X341.961 Y259.055
G01 X345.375 Y254.687
G01 X348.570 Y250.000
G01 X351.523 Y245.016
G01 X354.227 Y239.734
G01 X356.641 Y234.180
G01 X358.758 Y228.367
G01 X360.555 Y222.305
G01 X362.008 Y216.023
G01 X362.070 Y215.734
G01 X474.133 Y181.477
G01 X489.076 Y176.908
G01 X474.133 Y181.477
G01 X362.070 Y215.734
G01 X360.625 Y222.031
G01 X358.844 Y228.102
G01 X356.742 Y233.930
G01 X354.336 Y239.492
G01 X351.656 Y244.781
G01 X348.703 Y249.781
G01 X345.523 Y254.484
G01 X342.117 Y258.867
G01 X338.523 Y262.938
G01 X334.758 Y266.664
G01 X330.852 Y270.063
G01 X326.820 Y273.117
G01 X322.687 Y275.828
G01 X318.484 Y278.195
G01 X314.234 Y280.211
G01 X309.953 Y281.875
G01 X305.672 Y283.203
G01 X301.414 Y284.188
G01 X297.195 Y284.844
G01 X293.039 Y285.164
G01 X288.977 Y285.172
G01 X285.023 Y284.867
G01 X281.195 Y284.266
G01 X277.516 Y283.383
G01 X274.008 Y282.219
G01 X270.680 Y280.805
G01 X267.555 Y279.141
G01 X264.641 Y277.258
G01 X261.969 Y275.156
G01 X259.531 Y272.875
G01 X257.352 Y270.414
G01 X255.445 Y267.805
G01 X253.805 Y265.062
G01 X252.461 Y262.211
G01 X251.398 Y259.273
G01 X250.633 Y256.266
G01 X250.164 Y253.211
G01 X250.000 Y250.141
G01 X250.000 Y250.000
G01 X250.148 Y253.047
G01 X250.602 Y256.070
G01 X251.344 Y259.055
G01 X252.383 Y261.969
G01 X253.711 Y264.805
G01 X255.313 Y267.523
G01 X257.195 Y270.117
G01 X259.344 Y272.555
G01 X261.742 Y274.828
G01 X264.383 Y276.914
G01 X267.258 Y278.797
G01 X270.344 Y280.453
G01 X273.633 Y281.867
G01 X277.102 Y283.023
G01 X280.742 Y283.922
G01 X284.523 Y284.523
G01 X288.437 Y284.844
G01 X292.461 Y284.852
G01 X296.570 Y284.539
G01 X300.750 Y283.906
G01 X304.969 Y282.945
G01 X309.211 Y281.648
G01 X313.453 Y280.008
G01 X317.664 Y278.031
G01 X321.836 Y275.703
G01 X325.930 Y273.031
G01 X329.930 Y270.023
G01 X333.805 Y266.672
G01 X337.547 Y262.984
G01 X341.109 Y258.977
G01 X344.492 Y254.641
G01 X347.656 Y250.000
G01 X350.586 Y245.055
G01 X353.258 Y239.828
G01 X355.656 Y234.328
G01 X357.750 Y228.570
G01 X359.531 Y222.562
G01 X360.977 Y216.336
G01 X361.453 Y213.789
G01 X472.906 Y177.570
G01 X487.763 Y172.743
G01 X472.906 Y177.570
G01 X361.453 Y213.789
G01 X360.148 Y220.102
G01 X358.500 Y226.195
G01 X356.531 Y232.055
G01 X354.250 Y237.664
G01 X351.688 Y243.000
G01 X348.859 Y248.063
G01 X345.781 Y252.820
G01 X342.484 Y257.281
G01 X338.992 Y261.422
G01 X335.320 Y265.234
G01 X331.492 Y268.719
G01 X327.539 Y271.867
G01 X323.484 Y274.680
G01 X319.344 Y277.141
G01 X315.141 Y279.258
G01 X310.906 Y281.031
G01 X306.664 Y282.469
G01 X302.430 Y283.562
G01 X298.234 Y284.328
G01 X294.094 Y284.766
G01 X290.039 Y284.883
G01 X286.078 Y284.687
G01 X282.242 Y284.195
G01 X278.539 Y283.414
G01 X275.000 Y282.359
G01 X271.641 Y281.047
G01 X268.469 Y279.484
G01 X265.508 Y277.695
G01 X262.773 Y275.688
G01 X260.273 Y273.484
G01 X258.023 Y271.109
G01 X256.039 Y268.578
G01 X254.320 Y265.906
G01 X252.875 Y263.117
G01 X251.727 Y260.234
G01 X250.859 Y257.273
G01 X250.297 Y254.266
G01 X250.023 Y251.219
G01 X250.000 Y250.000
G01 X250.148 Y253.023
G01 X250.594 Y256.016
G01 X251.328 Y258.977
G01 X252.359 Y261.859
G01 X253.672 Y264.664
G01 X255.266 Y267.359
G01 X257.133 Y269.930
G01 X259.258 Y272.352
G01 X261.633 Y274.602
G01 X264.250 Y276.664
G01 X267.102 Y278.531
G01 X270.156 Y280.172
G01 X273.414 Y281.570
G01 X276.859 Y282.727
G01 X280.461 Y283.609
G01 X284.211 Y284.211
G01 X288.086 Y284.523
G01 X292.070 Y284.531
G01 X296.148 Y284.227
G01 X300.281 Y283.602
G01 X304.469 Y282.648
G01 X308.664 Y281.359
G01 X312.867 Y279.734
G01 X317.047 Y277.773
G01 X321.172 Y275.469
G01 X325.234 Y272.820
G01 X329.195 Y269.836
G01 X333.039 Y266.516
G01 X336.742 Y262.867
G01 X340.273 Y258.891
G01 X343.625 Y254.602
G01 X346.758 Y250.000
G01 X349.664 Y245.102
G01 X352.313 Y239.922
G01 X354.687 Y234.469
G01 X356.766 Y228.766
G01 X358.523 Y222.813
G01 X359.953 Y216.648
G01 X360.805 Y211.844
G01 X471.609 Y173.695
G01 X486.380 Y168.609
G01 X471.609 Y173.695
G01 X360.805 Y211.844
G01 X359.641 Y218.172
G01 X358.125 Y224.289
G01 X356.281 Y230.180
G01 X354.133 Y235.828
G01 X351.688 Y241.219
G01 X348.977 Y246.328
G01 X346.016 Y251.148
G01 X342.820 Y255.680
G01 X339.430 Y259.891
G01 X335.852 Y263.789
G01 X332.109 Y267.359
G01 X328.234 Y270.602
G01 X324.250 Y273.500
G01 X320.172 Y276.063
G01 X316.031 Y278.281
G01 X311.844 Y280.164
G01 X307.641 Y281.703
G01 X303.437 Y282.906
G01 X299.266 Y283.781
G01 X295.141 Y284.328
G01 X291.094 Y284.555
G01 X287.133 Y284.469
G01 X283.281 Y284.086
G01 X279.562 Y283.414
G01 X276.000 Y282.469
G01 X272.602 Y281.250
G01 X269.391 Y279.789
G01 X266.383 Y278.094
G01 X263.594 Y276.180
G01 X261.031 Y274.070
G01 X258.711 Y271.773
G01 X256.648 Y269.313
G01 X254.852 Y266.711
G01 X253.328 Y263.992
G01 X252.078 Y261.164
G01 X251.125 Y258.258
G01 X250.453 Y255.289
G01 X250.086 Y252.281
G01 X250.000 Y250.000
G01 X250.133 Y252.742
G01 X250.539 Y255.469
G01 X251.211 Y258.148
G01 X252.141 Y260.773
G01 X253.336 Y263.320
G01 X254.781 Y265.773
G01 X256.477 Y268.102
G01 X258.406 Y270.297
G01 X260.570 Y272.344
G01 X262.945 Y274.227
G01 X265.531 Y275.914
G01 X268.312 Y277.406
G01 X271.273 Y278.680
G01 X274.391 Y279.727
G01 X277.664 Y280.523
G01 X281.070 Y281.070
G01 X284.594 Y281.359
G01 X288.219 Y281.367
G01 X291.914 Y281.086
G01 X295.672 Y280.516
G01 X299.469 Y279.656
G01 X303.289 Y278.484
G01 X307.109 Y277.008
G01 X310.898 Y275.227
G01 X314.648 Y273.133
G01 X318.336 Y270.727
G01 X321.938 Y268.016
G01 X325.430 Y265.000
G01 X328.789 Y261.688
G01 X332.000 Y258.078
G01 X335.039 Y254.180
G01 X337.891 Y250.000
G01 X340.531 Y245.555
G01 X342.938 Y240.844
G01 X345.094 Y235.898
G01 X346.977 Y230.711
G01 X348.578 Y225.305
G01 X349.875 Y219.703
G01 X350.852 Y213.914
G01 X351.500 Y207.961
G01 X351.797 Y201.852
G01 X351.734 Y195.625
G01 X351.484 Y191.406
G01 X452.977 Y132.813
G01 X466.507 Y125.001
G01 X452.977 Y132.813
G01 X351.484 Y191.406
G01 X351.797 Y197.711
G01 X351.742 Y203.906
G01 X351.320 Y209.961
G01 X350.563 Y215.859
G01 X349.477 Y221.594
G01 X348.078 Y227.133
G01 X346.383 Y232.461
G01 X344.398 Y237.570
G01 X342.156 Y242.445
G01 X339.672 Y247.062
G01 X336.961 Y251.422
G01 X334.047 Y255.508
G01 X330.945 Y259.313
G01 X327.688 Y262.828
G01 X324.273 Y266.039
G01 X320.750 Y268.953
G01 X317.117 Y271.562
G01 X313.406 Y273.867
G01 X309.641 Y275.852
G01 X305.836 Y277.531
G01 X302.016 Y278.906
G01 X298.203 Y279.977
G01 X294.414 Y280.742
G01 X290.672 Y281.211
G01 X287.000 Y281.391
G01 X283.414 Y281.289
G01 X279.922 Y280.922
G01 X276.563 Y280.289
G01 X273.336 Y279.398
G01 X270.266 Y278.281
G01 X267.367 Y276.930
G01 X264.648 Y275.375
G01 X262.133 Y273.617
G01 X259.820 Y271.680
G01 X257.742 Y269.586
G01 X255.883 Y267.336
G01 X254.273 Y264.969
G01 X252.914 Y262.484
G01 X251.805 Y259.906
G01 X250.953 Y257.258
G01 X250.375 Y254.563
G01 X250.063 Y251.828
G01 X250.000 Y250.000
G01 X250.133 Y252.719
G01 X250.531 Y255.422
G01 X251.195 Y258.086
G01 X252.125 Y260.687
G01 X253.313 Y263.211
G01 X254.742 Y265.641
G01 X256.422 Y267.953
G01 X258.336 Y270.133
G01 X260.484 Y272.164
G01 X262.844 Y274.023
G01 X265.406 Y275.703
G01 X268.156 Y277.180
G01 X271.094 Y278.445
G01 X274.195 Y279.477
G01 X277.438 Y280.273
G01 X280.820 Y280.820
G01 X284.312 Y281.094
G01 X287.898 Y281.102
G01 X291.570 Y280.828
G01 X295.297 Y280.266
G01 X299.062 Y279.406
G01 X302.852 Y278.250
G01 X306.633 Y276.789
G01 X310.398 Y275.016
G01 X314.117 Y272.938
G01 X317.773 Y270.555
G01 X321.344 Y267.867
G01 X324.805 Y264.883
G01 X328.141 Y261.594
G01 X331.320 Y258.008
G01 X334.336 Y254.141
G01 X337.164 Y250.000
G01 X339.781 Y245.586
G01 X342.164 Y240.922
G01 X344.305 Y236.008
G01 X346.172 Y230.867
G01 X347.766 Y225.508
G01 X349.047 Y219.953
G01 X350.023 Y214.211
G01 X350.664 Y208.305
G01 X350.953 Y202.250
G01 X350.891 Y196.070
G01 X350.461 Y189.781
G01 X350.453 Y189.641
G01 X450.898 Y129.289
G01 X464.292 Y121.241
G01 X450.898 Y129.289
G01 X350.453 Y189.641
G01 X350.891 Y195.930
G01 X350.961 Y202.117
G01 X350.672 Y208.172
G01 X350.039 Y214.086
G01 X349.078 Y219.828
G01 X347.797 Y225.391
G01 X346.211 Y230.750
G01 X344.352 Y235.898
G01 X342.219 Y240.813
G01 X339.836 Y245.492
G01 X337.227 Y249.906
G01 X334.406 Y254.055
G01 X331.391 Y257.930
G01 X328.211 Y261.516
G01 X324.875 Y264.812
G01 X321.422 Y267.805
G01 X317.852 Y270.500
G01 X314.195 Y272.891
G01 X310.477 Y274.977
G01 X306.719 Y276.750
G01 X302.938 Y278.219
G01 X299.148 Y279.383
G01 X295.383 Y280.250
G01 X291.648 Y280.820
G01 X287.984 Y281.102
G01 X284.391 Y281.102
G01 X280.891 Y280.828
G01 X277.516 Y280.289
G01 X274.266 Y279.500
G01 X271.164 Y278.469
G01 X268.227 Y277.211
G01 X265.461 Y275.734
G01 X262.898 Y274.063
G01 X260.531 Y272.203
G01 X258.383 Y270.180
G01 X256.461 Y268.000
G01 X254.781 Y265.695
G01 X253.336 Y263.266
G01 X252.148 Y260.742
G01 X251.219 Y258.141
G01 X250.547 Y255.484
G01 X250.141 Y252.781
G01 X250.000 Y250.063
G01 X250.000 Y250.000
G01 X250.133 Y252.695
G01 X250.531 Y255.375
G01 X251.187 Y258.016
G01 X252.109 Y260.602
G01 X253.281 Y263.102
G01 X254.703 Y265.508
G01 X256.367 Y267.805
G01 X258.273 Y269.969
G01 X260.398 Y271.977
G01 X262.734 Y273.828
G01 X265.281 Y275.492
G01 X268.008 Y276.953
G01 X270.922 Y278.211
G01 X273.992 Y279.234
G01 X277.211 Y280.023
G01 X280.563 Y280.563
G01 X284.031 Y280.844
G01 X287.594 Y280.852
G01 X291.227 Y280.578
G01 X294.922 Y280.016
G01 X298.664 Y279.164
G01 X302.414 Y278.016
G01 X306.172 Y276.570
G01 X309.898 Y274.812
G01 X313.594 Y272.750
G01 X317.219 Y270.391
G01 X320.758 Y267.727
G01 X324.187 Y264.758
G01 X327.500 Y261.492
G01 X330.656 Y257.945
G01 X333.648 Y254.109
G01 X336.453 Y250.000
G01 X339.047 Y245.625
G01 X341.414 Y241.000
G01 X343.531 Y236.125
G01 X345.391 Y231.023
G01 X346.961 Y225.711
G01 X348.242 Y220.203
G01 X349.203 Y214.508
G01 X349.836 Y208.648
G01 X350.133 Y202.641
G01 X350.070 Y196.516
G01 X349.641 Y190.281
G01 X349.383 Y187.898
G01 X448.758 Y125.797
G01 X462.010 Y117.517
G01 X448.758 Y125.797
G01 X349.383 Y187.898
G01 X349.953 Y194.172
G01 X350.148 Y200.344
G01 X349.984 Y206.391
G01 X349.484 Y212.312
G01 X348.641 Y218.070
G01 X347.477 Y223.648
G01 X346.016 Y229.047
G01 X344.266 Y234.227
G01 X342.242 Y239.188
G01 X339.969 Y243.906
G01 X337.453 Y248.375
G01 X334.727 Y252.586
G01 X331.805 Y256.531
G01 X328.711 Y260.188
G01 X325.453 Y263.562
G01 X322.070 Y266.641
G01 X318.563 Y269.414
G01 X314.969 Y271.898
G01 X311.305 Y274.070
G01 X307.586 Y275.937
G01 X303.836 Y277.508
G01 X300.078 Y278.766
G01 X296.336 Y279.734
G01 X292.617 Y280.398
G01 X288.953 Y280.781
G01 X285.367 Y280.875
G01 X281.859 Y280.703
G01 X278.469 Y280.258
G01 X275.195 Y279.562
G01 X272.063 Y278.625
G01 X269.094 Y277.453
G01 X266.289 Y276.070
G01 X263.672 Y274.477
G01 X261.258 Y272.695
G01 X259.047 Y270.742
G01 X257.062 Y268.641
G01 X255.305 Y266.391
G01 X253.789 Y264.023
G01 X252.523 Y261.555
G01 X251.508 Y259.000
G01 X250.750 Y256.383
G01 X250.250 Y253.711
G01 X250.016 Y251.023
G01 X250.000 Y250.000
G01 X250.133 Y252.680
G01 X250.523 Y255.336
G01 X251.180 Y257.953
G01 X252.094 Y260.516
G01 X253.258 Y263.000
G01 X254.664 Y265.383
G01 X256.320 Y267.664
G01 X258.203 Y269.805
G01 X260.312 Y271.805
G01 X262.633 Y273.633
G01 X265.156 Y275.281
G01 X267.867 Y276.734
G01 X270.750 Y277.977
G01 X273.797 Y279.000
G01 X276.992 Y279.781
G01 X280.312 Y280.312
G01 X283.750 Y280.594
G01 X287.281 Y280.602
G01 X290.891 Y280.328
G01 X294.563 Y279.773
G01 X298.266 Y278.930
G01 X301.992 Y277.789
G01 X305.711 Y276.352
G01 X309.414 Y274.609
G01 X313.070 Y272.570
G01 X316.672 Y270.227
G01 X320.180 Y267.578
G01 X323.586 Y264.641
G01 X326.867 Y261.398
G01 X330.000 Y257.883
G01 X332.969 Y254.078
G01 X335.750 Y250.000
G01 X338.320 Y245.664
G01 X340.664 Y241.070
G01 X342.773 Y236.242
G01 X344.609 Y231.180
G01 X346.172 Y225.906
G01 X347.437 Y220.445
G01 X348.398 Y214.797
G01 X349.023 Y208.984
G01 X349.312 Y203.031
G01 X349.258 Y196.945
G01 X348.828 Y190.766
G01 X348.281 Y186.172
G01 X446.563 Y122.352
G01 X459.668 Y113.840
G01 X446.563 Y122.352
G01 X348.281 Y186.172
G01 X348.977 Y192.422
G01 X349.305 Y198.578
G01 X349.273 Y204.625
G01 X348.891 Y210.547
G01 X348.172 Y216.320
G01 X347.133 Y221.922
G01 X345.789 Y227.336
G01 X344.148 Y232.555
G01 X342.234 Y237.547
G01 X340.063 Y242.320
G01 X337.656 Y246.844
G01 X335.023 Y251.109
G01 X332.195 Y255.117
G01 X329.180 Y258.844
G01 X326.008 Y262.297
G01 X322.687 Y265.453
G01 X319.250 Y268.312
G01 X315.719 Y270.875
G01 X312.102 Y273.141
G01 X308.430 Y275.102
G01 X304.719 Y276.766
G01 X301.000 Y278.125
G01 X297.273 Y279.180
G01 X293.578 Y279.953
G01 X289.922 Y280.430
G01 X286.336 Y280.625
G01 X282.828 Y280.547
G01 X279.422 Y280.195
G01 X276.125 Y279.594
G01 X272.969 Y278.750
G01 X269.969 Y277.672
G01 X267.125 Y276.367
G01 X264.461 Y274.859
G01 X261.992 Y273.164
G01 X259.727 Y271.281
G01 X257.680 Y269.250
G01 X255.859 Y267.062
G01 X254.266 Y264.758
G01 X252.922 Y262.344
G01 X251.820 Y259.836
G01 X250.977 Y257.258
G01 X250.398 Y254.625
G01 X250.070 Y251.961
G01 X250.000 Y250.000
G01 X250.133 Y252.656
G01 X250.523 Y255.289
G01 X251.172 Y257.891
G01 X252.070 Y260.430
G01 X253.227 Y262.891
G01 X254.633 Y265.258
G01 X256.266 Y267.516
G01 X258.141 Y269.648
G01 X260.227 Y271.625
G01 X262.531 Y273.438
G01 X265.031 Y275.078
G01 X267.719 Y276.523
G01 X270.586 Y277.750
G01 X273.609 Y278.766
G01 X276.773 Y279.539
G01 X280.070 Y280.070
G01 X283.477 Y280.344
G01 X286.984 Y280.352
G01 X290.563 Y280.086
G01 X294.203 Y279.531
G01 X297.875 Y278.695
G01 X301.570 Y277.562
G01 X305.266 Y276.141
G01 X308.937 Y274.414
G01 X312.562 Y272.383
G01 X316.133 Y270.063
G01 X319.617 Y267.437
G01 X322.992 Y264.516
G01 X326.250 Y261.313
G01 X329.359 Y257.813
G01 X332.297 Y254.047
G01 X335.055 Y250.000
G01 X337.609 Y245.695
G01 X339.938 Y241.141
G01 X342.023 Y236.352
G01 X343.852 Y231.336
G01 X345.398 Y226.102
G01 X346.656 Y220.680
G01 X347.602 Y215.078
G01 X348.227 Y209.313
G01 X348.516 Y203.406
G01 X348.453 Y197.375
G01 X348.031 Y191.242
G01 X347.242 Y185.023
G01 X347.156 Y184.469
G01 X444.305 Y118.937
G01 X457.258 Y110.200
G01 X444.305 Y118.937
G01 X347.156 Y184.469
G01 X347.977 Y190.695
G01 X348.430 Y196.836
G01 X348.523 Y202.875
G01 X348.266 Y208.797
G01 X347.672 Y214.570
G01 X346.750 Y220.187
G01 X345.523 Y225.633
G01 X344.000 Y230.875
G01 X342.195 Y235.914
G01 X340.133 Y240.727
G01 X337.820 Y245.305
G01 X335.289 Y249.625
G01 X332.555 Y253.695
G01 X329.625 Y257.492
G01 X326.531 Y261.008
G01 X323.289 Y264.242
G01 X319.922 Y267.187
G01 X316.445 Y269.836
G01 X312.883 Y272.195
G01 X309.258 Y274.242
G01 X305.594 Y276.000
G01 X301.898 Y277.453
G01 X298.203 Y278.609
G01 X294.523 Y279.469
G01 X290.883 Y280.047
G01 X287.297 Y280.336
G01 X283.789 Y280.359
G01 X280.367 Y280.109
G01 X277.062 Y279.602
G01 X273.883 Y278.844
G01 X270.844 Y277.852
G01 X267.969 Y276.641
G01 X265.266 Y275.211
G01 X262.742 Y273.594
G01 X260.422 Y271.797
G01 X258.312 Y269.828
G01 X256.422 Y267.711
G01 X254.766 Y265.469
G01 X253.344 Y263.109
G01 X252.164 Y260.648
G01 X251.242 Y258.117
G01 X250.570 Y255.523
G01 X250.156 Y252.891
G01 X250.000 Y250.234
G01 X250.000 Y250.000
G01 X250.133 Y252.633
G01 X250.516 Y255.250
G01 X251.164 Y257.828
G01 X252.055 Y260.344
G01 X253.203 Y262.789
G01 X254.594 Y265.141
G01 X256.219 Y267.375
G01 X258.070 Y269.484
G01 X260.148 Y271.453
G01 X262.430 Y273.250
G01 X264.914 Y274.875
G01 X267.578 Y276.305
G01 X270.422 Y277.531
G01 X273.422 Y278.531
G01 X276.563 Y279.305
G01 X279.828 Y279.828
G01 X283.211 Y280.102
G01 X286.687 Y280.109
G01 X290.242 Y279.844
G01 X293.844 Y279.297
G01 X297.492 Y278.469
G01 X301.156 Y277.344
G01 X304.820 Y275.930
G01 X308.461 Y274.219
G01 X312.063 Y272.211
G01 X315.602 Y269.898
G01 X319.055 Y267.297
G01 X322.406 Y264.406
G01 X325.641 Y261.219
G01 X328.719 Y257.750
G01 X331.641 Y254.008
G01 X334.375 Y250.000
G01 X336.906 Y245.734
G01 X339.219 Y241.211
G01 X341.289 Y236.461
G01 X343.102 Y231.484
G01 X344.633 Y226.297
G01 X345.883 Y220.914
G01 X346.820 Y215.359
G01 X347.437 Y209.641
G01 X347.727 Y203.781
G01 X347.664 Y197.797
G01 X347.250 Y191.711
G01 X346.461 Y185.547
G01 X345.992 Y182.781
G01 X441.992 Y115.570
G01 X454.790 Y106.609
G01 X441.992 Y115.570
G01 X345.992 Y182.781
G01 X346.945 Y188.977
G01 X347.523 Y195.102
G01 X347.742 Y201.133
G01 X347.609 Y207.055
G01 X347.133 Y212.836
G01 X346.336 Y218.469
G01 X345.227 Y223.930
G01 X343.812 Y229.203
G01 X342.125 Y234.273
G01 X340.164 Y239.125
G01 X337.961 Y243.750
G01 X335.523 Y248.133
G01 X332.883 Y252.258
G01 X330.039 Y256.125
G01 X327.023 Y259.711
G01 X323.859 Y263.023
G01 X320.562 Y266.047
G01 X317.148 Y268.781
G01 X313.648 Y271.219
G01 X310.070 Y273.359
G01 X306.445 Y275.203
G01 X302.789 Y276.750
G01 X299.125 Y278.008
G01 X295.461 Y278.961
G01 X291.836 Y279.633
G01 X288.258 Y280.023
G01 X284.750 Y280.141
G01 X281.320 Y279.984
G01 X278.000 Y279.570
G01 X274.797 Y278.906
G01 X271.734 Y278.008
G01 X268.820 Y276.875
G01 X266.078 Y275.539
G01 X263.508 Y274.000
G01 X261.133 Y272.273
G01 X258.969 Y270.383
G01 X257.016 Y268.336
G01 X255.289 Y266.148
G01 X253.789 Y263.844
G01 X252.539 Y261.437
G01 X251.531 Y258.953
G01 X250.773 Y256.398
G01 X250.273 Y253.797
G01 X250.023 Y251.172
G01 X250.000 Y250.000
G01 X250.125 Y252.609
G01 X250.516 Y255.203
G01 X251.148 Y257.766
G01 X252.039 Y260.266
G01 X253.180 Y262.687
G01 X254.555 Y265.016
G01 X256.172 Y267.242
G01 X258.008 Y269.336
G01 X260.063 Y271.281
G01 X262.328 Y273.070
G01 X264.789 Y274.680
G01 X267.437 Y276.102
G01 X270.258 Y277.313
G01 X273.234 Y278.305
G01 X276.352 Y279.070
G01 X279.594 Y279.594
G01 X282.945 Y279.859
G01 X286.398 Y279.867
G01 X289.922 Y279.609
G01 X293.500 Y279.062
G01 X297.117 Y278.242
G01 X300.750 Y277.125
G01 X304.391 Y275.727
G01 X308.000 Y274.023
G01 X311.570 Y272.031
G01 X315.086 Y269.742
G01 X318.508 Y267.164
G01 X321.836 Y264.289
G01 X325.039 Y261.133
G01 X328.094 Y257.695
G01 X330.992 Y253.977
G01 X333.703 Y250.000
G01 X336.219 Y245.766
G01 X338.508 Y241.281
G01 X340.562 Y236.570
G01 X342.359 Y231.625
G01 X343.883 Y226.484
G01 X345.117 Y221.148
G01 X346.055 Y215.633
G01 X346.664 Y209.961
G01 X346.953 Y204.148
G01 X346.891 Y198.211
G01 X346.477 Y192.172
G01 X345.695 Y186.055
G01 X344.805 Y181.117
G01 X439.617 Y112.234
G01 X452.254 Y103.054
G01 X439.617 Y112.234
G01 X344.805 Y181.117
G01 X345.883 Y187.289
G01 X346.586 Y193.391
G01 X346.930 Y199.406
G01 X346.922 Y205.320
G01 X346.570 Y211.109
G01 X345.891 Y216.750
G01 X344.898 Y222.227
G01 X343.602 Y227.531
G01 X342.023 Y232.633
G01 X340.172 Y237.531
G01 X338.070 Y242.195
G01 X335.734 Y246.633
G01 X333.180 Y250.820
G01 X330.430 Y254.742
G01 X327.500 Y258.398
G01 X324.406 Y261.781
G01 X321.180 Y264.883
G01 X317.828 Y267.703
G01 X314.383 Y270.227
G01 X310.859 Y272.453
G01 X307.281 Y274.391
G01 X303.664 Y276.031
G01 X300.023 Y277.375
G01 X296.391 Y278.430
G01 X292.781 Y279.195
G01 X289.211 Y279.680
G01 X285.703 Y279.891
G01 X282.273 Y279.828
G01 X278.938 Y279.508
G01 X275.719 Y278.938
G01 X272.625 Y278.125
G01 X269.680 Y277.086
G01 X266.898 Y275.828
G01 X264.281 Y274.375
G01 X261.859 Y272.727
G01 X259.641 Y270.906
G01 X257.625 Y268.930
G01 X255.828 Y266.805
G01 X254.258 Y264.563
G01 X252.930 Y262.211
G01 X251.844 Y259.766
G01 X251.000 Y257.258
G01 X250.414 Y254.687
G01 X250.086 Y252.094
G01 X250.000 Y250.000
G01 X250.125 Y252.594
G01 X250.508 Y255.164
G01 X251.141 Y257.703
G01 X252.023 Y260.180
G01 X253.156 Y262.586
G01 X254.523 Y264.898
G01 X256.117 Y267.102
G01 X257.945 Y269.180
G01 X259.984 Y271.117
G01 X262.234 Y272.891
G01 X264.680 Y274.484
G01 X267.305 Y275.891
G01 X270.094 Y277.102
G01 X273.047 Y278.086
G01 X276.141 Y278.844
G01 X279.359 Y279.359
G01 X282.687 Y279.625
G01 X286.109 Y279.633
G01 X289.602 Y279.375
G01 X293.156 Y278.836
G01 X296.742 Y278.016
G01 X300.352 Y276.914
G01 X303.961 Y275.523
G01 X307.547 Y273.836
G01 X311.086 Y271.859
G01 X314.570 Y269.586
G01 X317.969 Y267.023
G01 X321.266 Y264.180
G01 X324.445 Y261.047
G01 X327.484 Y257.633
G01 X330.352 Y253.945
G01 X333.047 Y250.000
G01 X335.539 Y245.797
G01 X337.813 Y241.352
G01 X339.852 Y236.672
G01 X341.633 Y231.773
G01 X343.148 Y226.672
G01 X344.367 Y221.375
G01 X345.297 Y215.906
G01 X345.906 Y210.273
G01 X346.188 Y204.508
G01 X346.125 Y198.617
G01 X345.719 Y192.633
G01 X344.945 Y186.562
G01 X343.805 Y180.430
G01 X343.594 Y179.477
G01 X437.180 Y108.953
G01 X449.660 Y99.548
G01 X437.180 Y108.953
G01 X343.594 Y179.477
G01 X344.789 Y185.609
G01 X345.617 Y191.688
G01 X346.086 Y197.695
G01 X346.203 Y203.602
G01 X345.969 Y209.383
G01 X345.414 Y215.039
G01 X344.531 Y220.531
G01 X343.352 Y225.859
G01 X341.883 Y230.992
G01 X340.141 Y235.922
G01 X338.148 Y240.641
G01 X335.906 Y245.125
G01 X333.445 Y249.359
G01 X330.789 Y253.352
G01 X327.938 Y257.078
G01 X324.930 Y260.531
G01 X321.773 Y263.711
G01 X318.492 Y266.602
G01 X315.102 Y269.211
G01 X311.633 Y271.523
G01 X308.102 Y273.547
G01 X304.516 Y275.281
G01 X300.914 Y276.719
G01 X297.305 Y277.867
G01 X293.711 Y278.727
G01 X290.156 Y279.305
G01 X286.648 Y279.609
G01 X283.219 Y279.648
G01 X279.875 Y279.422
G01 X276.633 Y278.938
G01 X273.523 Y278.219
G01 X270.547 Y277.266
G01 X267.727 Y276.094
G01 X265.070 Y274.719
G01 X262.602 Y273.148
G01 X260.320 Y271.398
G01 X258.250 Y269.492
G01 X256.391 Y267.437
G01 X254.750 Y265.250
G01 X253.352 Y262.953
G01 X252.188 Y260.563
G01 X251.266 Y258.094
G01 X250.594 Y255.562
G01 X250.172 Y252.992
G01 X250.000 Y250.406
G01 X250.000 Y250.000
G01 X250.125 Y252.570
G01 X250.508 Y255.125
G01 X251.133 Y257.641
G01 X252.008 Y260.102
G01 X253.125 Y262.492
G01 X254.484 Y264.781
G01 X256.070 Y266.969
G01 X257.883 Y269.031
G01 X259.906 Y270.953
G01 X262.141 Y272.711
G01 X264.563 Y274.297
G01 X267.164 Y275.695
G01 X269.937 Y276.883
G01 X272.867 Y277.867
G01 X275.937 Y278.617
G01 X279.133 Y279.133
G01 X282.437 Y279.398
G01 X285.828 Y279.406
G01 X289.297 Y279.141
G01 X292.820 Y278.609
G01 X296.383 Y277.797
G01 X299.961 Y276.703
G01 X303.539 Y275.320
G01 X307.094 Y273.648
G01 X310.609 Y271.688
G01 X314.062 Y269.437
G01 X317.438 Y266.891
G01 X320.711 Y264.063
G01 X323.867 Y260.953
G01 X326.875 Y257.570
G01 X329.727 Y253.914
G01 X332.398 Y250.000
G01 X334.867 Y245.828
G01 X337.125 Y241.422
G01 X339.148 Y236.773
G01 X340.914 Y231.914
G01 X342.414 Y226.852
G01 X343.633 Y221.594
G01 X344.555 Y216.172
G01 X345.156 Y210.586
G01 X345.438 Y204.859
G01 X345.375 Y199.023
G01 X344.969 Y193.078
G01 X344.203 Y187.055
G01 X343.070 Y180.977
G01 X342.344 Y177.852
G01 X434.687 Y105.703
G01 X447.001 Y96.083
G01 X434.687 Y105.703
G01 X342.344 Y177.852
G01 X343.672 Y183.953
G01 X344.625 Y190.008
G01 X345.211 Y195.992
G01 X345.445 Y201.891
G01 X345.344 Y207.680
G01 X344.898 Y213.336
G01 X344.141 Y218.844
G01 X343.078 Y224.187
G01 X341.719 Y229.352
G01 X340.086 Y234.320
G01 X338.188 Y239.070
G01 X336.055 Y243.602
G01 X333.687 Y247.898
G01 X331.117 Y251.945
G01 X328.352 Y255.734
G01 X325.422 Y259.258
G01 X322.344 Y262.508
G01 X319.125 Y265.484
G01 X315.805 Y268.172
G01 X312.383 Y270.570
G01 X308.898 Y272.680
G01 X305.359 Y274.500
G01 X301.789 Y276.031
G01 X298.211 Y277.273
G01 X294.633 Y278.234
G01 X291.094 Y278.906
G01 X287.594 Y279.305
G01 X284.156 Y279.430
G01 X280.805 Y279.297
G01 X277.555 Y278.914
G01 X274.422 Y278.281
G01 X271.422 Y277.414
G01 X268.563 Y276.328
G01 X265.867 Y275.031
G01 X263.352 Y273.539
G01 X261.023 Y271.867
G01 X258.891 Y270.031
G01 X256.969 Y268.039
G01 X255.266 Y265.914
G01 X253.789 Y263.672
G01 X252.555 Y261.336
G01 X251.547 Y258.906
G01 X250.797 Y256.414
G01 X250.289 Y253.883
G01 X250.031 Y251.313
G01 X250.000 Y250.000
G01 X250.125 Y252.555
G01 X250.500 Y255.086
G01 X251.125 Y257.578
G01 X251.992 Y260.023
G01 X253.102 Y262.391
G01 X254.453 Y264.672
G01 X256.023 Y266.836
G01 X257.820 Y268.883
G01 X259.828 Y270.789
G01 X262.047 Y272.531
G01 X264.445 Y274.109
G01 X267.031 Y275.492
G01 X269.789 Y276.680
G01 X272.695 Y277.648
G01 X275.734 Y278.398
G01 X278.906 Y278.906
G01 X282.180 Y279.172
G01 X285.547 Y279.172
G01 X288.992 Y278.914
G01 X292.484 Y278.391
G01 X296.023 Y277.586
G01 X299.570 Y276.500
G01 X303.125 Y275.125
G01 X306.648 Y273.469
G01 X310.141 Y271.516
G01 X313.570 Y269.281
G01 X316.914 Y266.766
G01 X320.164 Y263.953
G01 X323.289 Y260.875
G01 X326.281 Y257.516
G01 X329.109 Y253.883
G01 X331.758 Y250.000
G01 X334.211 Y245.859
G01 X336.453 Y241.484
G01 X338.453 Y236.875
G01 X340.211 Y232.055
G01 X341.703 Y227.031
G01 X342.906 Y221.820
G01 X343.820 Y216.430
G01 X344.422 Y210.891
G01 X344.695 Y205.211
G01 X344.641 Y199.414
G01 X344.234 Y193.516
G01 X343.469 Y187.547
G01 X342.344 Y181.508
G01 X341.070 Y176.250
G01 X432.141 Y102.500
G01 X444.285 Y92.668
G01 X432.141 Y102.500
G01 X341.070 Y176.250
G01 X342.516 Y182.320
G01 X343.594 Y188.344
G01 X344.305 Y194.313
G01 X344.664 Y200.195
G01 X344.680 Y205.977
G01 X344.359 Y211.641
G01 X343.719 Y217.156
G01 X342.766 Y222.523
G01 X341.516 Y227.711
G01 X339.992 Y232.711
G01 X338.203 Y237.508
G01 X336.164 Y242.086
G01 X333.898 Y246.430
G01 X331.414 Y250.531
G01 X328.742 Y254.383
G01 X325.891 Y257.977
G01 X322.883 Y261.297
G01 X319.734 Y264.344
G01 X316.477 Y267.117
G01 X313.117 Y269.602
G01 X309.680 Y271.797
G01 X306.180 Y273.703
G01 X302.648 Y275.328
G01 X299.102 Y276.656
G01 X295.547 Y277.711
G01 X292.016 Y278.477
G01 X288.531 Y278.969
G01 X285.094 Y279.187
G01 X281.742 Y279.148
G01 X278.477 Y278.852
G01 X275.320 Y278.312
G01 X272.297 Y277.531
G01 X269.406 Y276.531
G01 X266.680 Y275.320
G01 X264.117 Y273.906
G01 X261.734 Y272.312
G01 X259.555 Y270.539
G01 X257.570 Y268.617
G01 X255.805 Y266.555
G01 X254.258 Y264.375
G01 X252.945 Y262.078
G01 X251.867 Y259.703
G01 X251.023 Y257.250
G01 X250.438 Y254.750
G01 X250.094 Y252.211
G01 X250.000 Y250.000
G01 X250.117 Y252.352
G01 X250.461 Y254.687
G01 X251.039 Y256.984
G01 X251.836 Y259.234
G01 X252.859 Y261.422
G01 X254.102 Y263.516
G01 X255.555 Y265.516
G01 X257.211 Y267.398
G01 X259.062 Y269.156
G01 X261.102 Y270.766
G01 X263.313 Y272.211
G01 X265.695 Y273.492
G01 X268.234 Y274.578
G01 X270.906 Y275.477
G01 X273.719 Y276.164
G01 X276.633 Y276.633
G01 X279.656 Y276.875
G01 X282.758 Y276.883
G01 X285.930 Y276.648
G01 X289.148 Y276.156
G01 X292.406 Y275.414
G01 X295.680 Y274.414
G01 X298.945 Y273.148
G01 X302.203 Y271.625
G01 X305.414 Y269.828
G01 X308.570 Y267.766
G01 X311.656 Y265.445
G01 X314.648 Y262.859
G01 X317.531 Y260.016
G01 X320.289 Y256.922
G01 X322.891 Y253.578
G01 X325.336 Y250.000
G01 X327.594 Y246.188
G01 X329.656 Y242.156
G01 X331.508 Y237.906
G01 X333.125 Y233.469
G01 X334.492 Y228.836
G01 X335.609 Y224.031
G01 X336.445 Y219.070
G01 X337.000 Y213.961
G01 X337.258 Y208.734
G01 X337.203 Y203.391
G01 X336.828 Y197.953
G01 X336.125 Y192.453
G01 X335.094 Y186.891
G01 X333.711 Y181.297
G01 X331.984 Y175.695
G01 X329.906 Y170.094
G01 X327.469 Y164.523
G01 X325.328 Y160.227
G01 X400.656 Y70.461
G01 X410.699 Y58.491
G01 X400.656 Y70.461
G01 X325.328 Y160.227
G01 X328.039 Y165.758
G01 X330.398 Y171.336
G01 X332.398 Y176.937
G01 X334.047 Y182.547
G01 X335.352 Y188.133
G01 X336.313 Y193.680
G01 X336.937 Y199.172
G01 X337.242 Y204.586
G01 X337.227 Y209.906
G01 X336.906 Y215.109
G01 X336.281 Y220.187
G01 X335.383 Y225.109
G01 X334.211 Y229.883
G01 X332.781 Y234.469
G01 X331.117 Y238.867
G01 X329.219 Y243.070
G01 X327.109 Y247.055
G01 X324.805 Y250.813
G01 X322.328 Y254.344
G01 X319.688 Y257.633
G01 X316.906 Y260.672
G01 X313.992 Y263.453
G01 X310.984 Y265.984
G01 X307.875 Y268.250
G01 X304.703 Y270.250
G01 X301.477 Y271.984
G01 X298.219 Y273.453
G01 X294.953 Y274.656
G01 X291.680 Y275.602
G01 X288.430 Y276.289
G01 X285.219 Y276.719
G01 X282.063 Y276.906
G01 X278.977 Y276.844
G01 X275.977 Y276.547
G01 X273.078 Y276.031
G01 X270.305 Y275.297
G01 X267.656 Y274.359
G01 X265.148 Y273.219
G01 X262.805 Y271.906
G01 X260.633 Y270.422
G01 X258.633 Y268.773
G01 X256.820 Y266.992
G01 X255.211 Y265.078
G01 X253.805 Y263.062
G01 X252.617 Y260.938
G01 X251.641 Y258.742
G01 X250.891 Y256.477
G01 X250.367 Y254.172
G01 X250.070 Y251.828
G01 X250.000 Y250.000
G01 X250.117 Y252.336
G01 X250.461 Y254.656
G01 X251.031 Y256.938
G01 X251.820 Y259.172
G01 X252.844 Y261.336
G01 X254.070 Y263.422
G01 X255.516 Y265.406
G01 X257.156 Y267.273
G01 X258.992 Y269.016
G01 X261.016 Y270.617
G01 X263.219 Y272.055
G01 X265.586 Y273.320
G01 X268.102 Y274.406
G01 X270.758 Y275.297
G01 X273.547 Y275.977
G01 X276.445 Y276.445
G01 X279.445 Y276.687
G01 X282.523 Y276.695
G01 X285.672 Y276.453
G01 X288.875 Y275.977
G01 X292.102 Y275.234
G01 X295.352 Y274.242
G01 X298.602 Y272.984
G01 X301.828 Y271.469
G01 X305.023 Y269.688
G01 X308.156 Y267.641
G01 X311.219 Y265.336
G01 X314.195 Y262.766
G01 X317.055 Y259.945
G01 X319.789 Y256.875
G01 X322.375 Y253.555
G01 X324.797 Y250.000
G01 X327.047 Y246.219
G01 X329.094 Y242.211
G01 X330.930 Y237.992
G01 X332.531 Y233.586
G01 X333.898 Y228.984
G01 X335.000 Y224.219
G01 X335.836 Y219.289
G01 X336.383 Y214.219
G01 X336.633 Y209.023
G01 X336.586 Y203.719
G01 X336.211 Y198.328
G01 X335.516 Y192.859
G01 X334.484 Y187.336
G01 X333.117 Y181.789
G01 X331.406 Y176.219
G01 X329.336 Y170.664
G01 X326.922 Y165.133
G01 X324.148 Y159.656
G01 X323.750 Y158.930
G01 X397.500 Y67.859
G01 X407.332 Y55.715
G01 X397.500 Y67.859
G01 X323.750 Y158.930
G01 X326.570 Y164.398
G01 X329.039 Y169.922
G01 X331.148 Y175.477
G01 X332.906 Y181.047
G01 X334.328 Y186.602
G01 X335.398 Y192.125
G01 X336.141 Y197.602
G01 X336.555 Y203.008
G01 X336.648 Y208.320
G01 X336.438 Y213.531
G01 X335.922 Y218.617
G01 X335.125 Y223.570
G01 X334.062 Y228.359
G01 X332.727 Y232.977
G01 X331.156 Y237.422
G01 X329.352 Y241.656
G01 X327.328 Y245.695
G01 X325.109 Y249.508
G01 X322.711 Y253.094
G01 X320.141 Y256.445
G01 X317.430 Y259.555
G01 X314.578 Y262.406
G01 X311.625 Y265.008
G01 X308.570 Y267.352
G01 X305.445 Y269.430
G01 X302.258 Y271.250
G01 X299.031 Y272.797
G01 X295.789 Y274.086
G01 X292.539 Y275.117
G01 X289.305 Y275.891
G01 X286.094 Y276.406
G01 X282.938 Y276.672
G01 X279.852 Y276.703
G01 X276.844 Y276.492
G01 X273.930 Y276.055
G01 X271.125 Y275.398
G01 X268.445 Y274.539
G01 X265.914 Y273.477
G01 X263.523 Y272.234
G01 X261.305 Y270.812
G01 X259.258 Y269.242
G01 X257.391 Y267.516
G01 X255.719 Y265.664
G01 X254.250 Y263.695
G01 X252.992 Y261.617
G01 X251.945 Y259.461
G01 X251.125 Y257.234
G01 X250.523 Y254.961
G01 X250.148 Y252.648
G01 X250.000 Y250.312
G01 X250.000 Y250.000
G01 X250.117 Y252.320
G01 X250.453 Y254.617
G01 X251.023 Y256.891
G01 X251.812 Y259.109
G01 X252.820 Y261.258
G01 X254.039 Y263.328
G01 X255.477 Y265.297
G01 X257.109 Y267.156
G01 X258.930 Y268.883
G01 X260.938 Y270.469
G01 X263.125 Y271.898
G01 X265.477 Y273.156
G01 X267.977 Y274.234
G01 X270.617 Y275.117
G01 X273.383 Y275.797
G01 X276.258 Y276.258
G01 X279.234 Y276.500
G01 X282.297 Y276.508
G01 X285.422 Y276.273
G01 X288.602 Y275.789
G01 X291.805 Y275.055
G01 X295.031 Y274.070
G01 X298.258 Y272.828
G01 X301.469 Y271.320
G01 X304.633 Y269.547
G01 X307.750 Y267.516
G01 X310.789 Y265.227
G01 X313.742 Y262.680
G01 X316.586 Y259.875
G01 X319.297 Y256.828
G01 X321.867 Y253.531
G01 X324.273 Y250.000
G01 X326.500 Y246.242
G01 X328.539 Y242.266
G01 X330.359 Y238.078
G01 X331.953 Y233.695
G01 X333.305 Y229.133
G01 X334.398 Y224.398
G01 X335.227 Y219.508
G01 X335.773 Y214.469
G01 X336.023 Y209.313
G01 X335.977 Y204.047
G01 X335.609 Y198.687
G01 X334.914 Y193.258
G01 X333.891 Y187.781
G01 X332.531 Y182.266
G01 X330.828 Y176.742
G01 X328.781 Y171.219
G01 X326.375 Y165.727
G01 X323.625 Y160.289
G01 X322.148 Y157.656
G01 X394.297 Y65.313
G01 X403.917 Y52.999
G01 X394.297 Y65.313
G01 X322.148 Y157.656
G01 X325.078 Y163.063
G01 X327.648 Y168.531
G01 X329.875 Y174.039
G01 X331.742 Y179.563
G01 X333.273 Y185.086
G01 X334.461 Y190.586
G01 X335.313 Y196.047
G01 X335.836 Y201.437
G01 X336.039 Y206.750
G01 X335.938 Y211.961
G01 X335.531 Y217.062
G01 X334.844 Y222.023
G01 X333.875 Y226.836
G01 X332.648 Y231.492
G01 X331.164 Y235.961
G01 X329.453 Y240.242
G01 X327.523 Y244.320
G01 X325.391 Y248.188
G01 X323.062 Y251.836
G01 X320.570 Y255.242
G01 X317.930 Y258.414
G01 X315.148 Y261.344
G01 X312.242 Y264.016
G01 X309.250 Y266.430
G01 X306.164 Y268.586
G01 X303.023 Y270.484
G01 X299.828 Y272.117
G01 X296.609 Y273.492
G01 X293.383 Y274.609
G01 X290.164 Y275.461
G01 X286.969 Y276.070
G01 X283.820 Y276.422
G01 X280.727 Y276.531
G01 X277.703 Y276.406
G01 X274.773 Y276.047
G01 X271.953 Y275.477
G01 X269.250 Y274.695
G01 X266.680 Y273.711
G01 X264.258 Y272.539
G01 X261.984 Y271.187
G01 X259.891 Y269.680
G01 X257.977 Y268.016
G01 X256.250 Y266.219
G01 X254.719 Y264.305
G01 X253.391 Y262.281
G01 X252.273 Y260.164
G01 X251.383 Y257.977
G01 X250.703 Y255.734
G01 X250.250 Y253.445
G01 X250.023 Y251.133
G01 X250.000 Y250.000
G01 X250.109 Y252.305
G01 X250.453 Y254.586
G01 X251.016 Y256.836
G01 X251.797 Y259.039
G01 X252.797 Y261.180
G01 X254.016 Y263.234
G01 X255.437 Y265.187
G01 X257.055 Y267.031
G01 X258.867 Y268.750
G01 X260.867 Y270.328
G01 X263.031 Y271.742
G01 X265.367 Y273.000
G01 X267.852 Y274.063
G01 X270.469 Y274.945
G01 X273.219 Y275.617
G01 X276.078 Y276.078
G01 X279.031 Y276.312
G01 X282.070 Y276.320
G01 X285.172 Y276.086
G01 X288.328 Y275.609
G01 X291.516 Y274.883
G01 X294.719 Y273.906
G01 X297.922 Y272.664
G01 X301.102 Y271.172
G01 X304.250 Y269.414
G01 X307.344 Y267.398
G01 X310.367 Y265.117
G01 X313.297 Y262.594
G01 X316.117 Y259.805
G01 X318.812 Y256.781
G01 X321.367 Y253.508
G01 X323.758 Y250.000
G01 X325.969 Y246.266
G01 X327.984 Y242.320
G01 X329.797 Y238.164
G01 X331.383 Y233.812
G01 X332.727 Y229.281
G01 X333.813 Y224.578
G01 X334.633 Y219.719
G01 X335.172 Y214.719
G01 X335.422 Y209.594
G01 X335.375 Y204.367
G01 X335.008 Y199.047
G01 X334.320 Y193.656
G01 X333.305 Y188.219
G01 X331.953 Y182.742
G01 X330.266 Y177.250
G01 X328.227 Y171.773
G01 X325.844 Y166.320
G01 X323.109 Y160.914
G01 X320.523 Y156.406
G01 X391.047 Y62.820
G01 X400.452 Y50.340
G01 X391.047 Y62.820
G01 X320.523 Y156.406
G01 X323.555 Y161.750
G01 X326.234 Y167.164
G01 X328.570 Y172.625
G01 X330.547 Y178.109
G01 X332.187 Y183.594
G01 X333.484 Y189.062
G01 X334.453 Y194.500
G01 X335.086 Y199.883
G01 X335.398 Y205.188
G01 X335.406 Y210.398
G01 X335.109 Y215.508
G01 X334.523 Y220.484
G01 X333.656 Y225.320
G01 X332.531 Y229.992
G01 X331.148 Y234.500
G01 X329.531 Y238.820
G01 X327.688 Y242.945
G01 X325.633 Y246.859
G01 X323.391 Y250.563
G01 X320.977 Y254.031
G01 X318.398 Y257.266
G01 X315.688 Y260.258
G01 X312.844 Y263.000
G01 X309.898 Y265.492
G01 X306.867 Y267.727
G01 X303.766 Y269.703
G01 X300.609 Y271.422
G01 X297.422 Y272.875
G01 X294.219 Y274.070
G01 X291.016 Y275.016
G01 X287.836 Y275.703
G01 X284.687 Y276.141
G01 X281.594 Y276.336
G01 X278.563 Y276.289
G01 X275.625 Y276.016
G01 X272.781 Y275.523
G01 X270.055 Y274.820
G01 X267.453 Y273.914
G01 X264.992 Y272.812
G01 X262.687 Y271.539
G01 X260.539 Y270.094
G01 X258.578 Y268.492
G01 X256.789 Y266.758
G01 X255.203 Y264.891
G01 X253.812 Y262.922
G01 X252.633 Y260.852
G01 X251.664 Y258.703
G01 X250.914 Y256.492
G01 X250.383 Y254.234
G01 X250.078 Y251.945
G01 X250.000 Y250.000
G01 X250.109 Y252.289
G01 X250.445 Y254.555
G01 X251.008 Y256.789
G01 X251.789 Y258.977
G01 X252.781 Y261.102
G01 X253.984 Y263.141
G01 X255.398 Y265.086
G01 X257.008 Y266.914
G01 X258.805 Y268.625
G01 X260.789 Y270.188
G01 X262.945 Y271.594
G01 X265.258 Y272.836
G01 X267.727 Y273.898
G01 X270.328 Y274.773
G01 X273.055 Y275.438
G01 X275.898 Y275.898
G01 X278.828 Y276.133
G01 X281.844 Y276.133
G01 X284.930 Y275.906
G01 X288.063 Y275.430
G01 X291.227 Y274.711
G01 X294.406 Y273.734
G01 X297.586 Y272.508
G01 X300.750 Y271.023
G01 X303.875 Y269.273
G01 X306.945 Y267.273
G01 X309.945 Y265.016
G01 X312.859 Y262.500
G01 X315.656 Y259.742
G01 X318.336 Y256.727
G01 X320.867 Y253.484
G01 X323.242 Y250.000
G01 X325.438 Y246.297
G01 X327.445 Y242.375
G01 X329.242 Y238.242
G01 X330.812 Y233.922
G01 X332.148 Y229.422
G01 X333.227 Y224.750
G01 X334.047 Y219.930
G01 X334.586 Y214.961
G01 X334.828 Y209.875
G01 X334.781 Y204.687
G01 X334.414 Y199.406
G01 X333.734 Y194.047
G01 X332.727 Y188.648
G01 X331.391 Y183.211
G01 X329.711 Y177.758
G01 X327.688 Y172.313
G01 X325.320 Y166.898
G01 X322.602 Y161.539
G01 X319.539 Y156.242
G01 X318.883 Y155.195
G01 X387.766 Y60.383
G01 X396.946 Y47.746
G01 X387.766 Y60.383
G01 X318.883 Y155.195
G01 X322.016 Y160.469
G01 X324.805 Y165.820
G01 X327.242 Y171.227
G01 X329.328 Y176.664
G01 X331.078 Y182.117
G01 X332.484 Y187.563
G01 X333.563 Y192.969
G01 X334.305 Y198.336
G01 X334.734 Y203.633
G01 X334.844 Y208.844
G01 X334.656 Y213.953
G01 X334.180 Y218.945
G01 X333.414 Y223.797
G01 X332.383 Y228.500
G01 X331.102 Y233.039
G01 X329.578 Y237.398
G01 X327.820 Y241.562
G01 X325.859 Y245.523
G01 X323.695 Y249.273
G01 X321.359 Y252.805
G01 X318.852 Y256.102
G01 X316.203 Y259.156
G01 X313.422 Y261.969
G01 X310.539 Y264.531
G01 X307.555 Y266.844
G01 X304.492 Y268.898
G01 X301.375 Y270.695
G01 X298.227 Y272.234
G01 X295.047 Y273.508
G01 X291.859 Y274.539
G01 X288.695 Y275.305
G01 X285.555 Y275.828
G01 X282.461 Y276.109
G01 X279.430 Y276.148
G01 X276.477 Y275.961
G01 X273.617 Y275.547
G01 X270.867 Y274.922
G01 X268.234 Y274.086
G01 X265.742 Y273.062
G01 X263.391 Y271.859
G01 X261.203 Y270.477
G01 X259.187 Y268.945
G01 X257.352 Y267.266
G01 X255.703 Y265.461
G01 X254.250 Y263.539
G01 X253.008 Y261.516
G01 X251.969 Y259.406
G01 X251.148 Y257.234
G01 X250.539 Y255.008
G01 X250.164 Y252.742
G01 X250.008 Y250.461
G01 X250.000 Y250.000
G01 X250.109 Y252.273
G01 X250.445 Y254.523
G01 X251.000 Y256.742
G01 X251.773 Y258.914
G01 X252.758 Y261.023
G01 X253.961 Y263.055
G01 X255.359 Y264.984
G01 X256.961 Y266.797
G01 X258.750 Y268.492
G01 X260.719 Y270.047
G01 X262.852 Y271.445
G01 X265.156 Y272.680
G01 X267.602 Y273.734
G01 X270.188 Y274.602
G01 X272.898 Y275.266
G01 X275.719 Y275.719
G01 X278.633 Y275.953
G01 X281.625 Y275.953
G01 X284.687 Y275.727
G01 X287.797 Y275.258
G01 X290.945 Y274.539
G01 X294.102 Y273.570
G01 X297.258 Y272.352
G01 X300.398 Y270.875
G01 X303.508 Y269.141
G01 X306.555 Y267.156
G01 X309.531 Y264.914
G01 X312.422 Y262.414
G01 X315.203 Y259.672
G01 X317.859 Y256.687
G01 X320.383 Y253.461
G01 X322.734 Y250.000
G01 X324.922 Y246.320
G01 X326.914 Y242.422
G01 X328.695 Y238.328
G01 X330.258 Y234.039
G01 X331.578 Y229.562
G01 X332.656 Y224.930
G01 X333.469 Y220.133
G01 X334.000 Y215.203
G01 X334.250 Y210.156
G01 X334.195 Y205.000
G01 X333.836 Y199.750
G01 X333.156 Y194.438
G01 X332.156 Y189.070
G01 X330.828 Y183.672
G01 X329.156 Y178.258
G01 X327.148 Y172.852
G01 X324.797 Y167.477
G01 X322.102 Y162.148
G01 X319.055 Y156.891
G01 X317.219 Y154.008
G01 X384.430 Y58.008
G01 X393.391 Y45.210
G01 X384.430 Y58.008
G01 X317.219 Y154.008
G01 X320.453 Y159.219
G01 X323.344 Y164.508
G01 X325.883 Y169.859
G01 X328.086 Y175.250
G01 X329.938 Y180.664
G01 X331.461 Y186.070
G01 X332.641 Y191.461
G01 X333.500 Y196.805
G01 X334.031 Y202.094
G01 X334.258 Y207.305
G01 X334.172 Y212.414
G01 X333.797 Y217.414
G01 X333.141 Y222.281
G01 X332.211 Y227.008
G01 X331.023 Y231.570
G01 X329.594 Y235.969
G01 X327.930 Y240.172
G01 X326.047 Y244.180
G01 X323.969 Y247.984
G01 X321.711 Y251.562
G01 X319.281 Y254.922
G01 X316.695 Y258.039
G01 X313.984 Y260.922
G01 X311.148 Y263.555
G01 X308.219 Y265.937
G01 X305.203 Y268.070
G01 X302.133 Y269.945
G01 X299.008 Y271.562
G01 X295.859 Y272.930
G01 X292.695 Y274.031
G01 X289.539 Y274.891
G01 X286.414 Y275.492
G01 X283.320 Y275.859
G01 X280.289 Y275.984
G01 X277.328 Y275.875
G01 X274.453 Y275.539
G01 X271.680 Y274.992
G01 X269.023 Y274.242
G01 X266.500 Y273.289
G01 X264.109 Y272.156
G01 X261.883 Y270.844
G01 X259.820 Y269.375
G01 X257.930 Y267.758
G01 X256.227 Y266.008
G01 X254.711 Y264.133
G01 X253.398 Y262.164
G01 X252.297 Y260.094
G01 X251.406 Y257.961
G01 X250.727 Y255.766
G01 X250.273 Y253.523
G01 X250.031 Y251.266
G01 X250.000 Y250.000
G01 X250.109 Y252.258
G01 X250.445 Y254.492
G01 X250.992 Y256.695
G01 X251.758 Y258.859
G01 X252.742 Y260.945
G01 X253.930 Y262.961
G01 X255.320 Y264.875
G01 X256.914 Y266.687
G01 X258.687 Y268.367
G01 X260.641 Y269.906
G01 X262.766 Y271.297
G01 X265.047 Y272.523
G01 X267.484 Y273.570
G01 X270.047 Y274.430
G01 X272.742 Y275.094
G01 X275.539 Y275.539
G01 X278.437 Y275.773
G01 X281.414 Y275.781
G01 X284.453 Y275.547
G01 X287.539 Y275.086
G01 X290.664 Y274.375
G01 X293.797 Y273.414
G01 X296.937 Y272.203
G01 X300.055 Y270.734
G01 X303.141 Y269.016
G01 X306.164 Y267.039
G01 X309.125 Y264.812
G01 X311.992 Y262.328
G01 X314.758 Y259.609
G01 X317.398 Y256.641
G01 X319.898 Y253.437
G01 X322.242 Y250.000
G01 X324.406 Y246.344
G01 X326.383 Y242.477
G01 X328.156 Y238.406
G01 X329.711 Y234.148
G01 X331.023 Y229.703
G01 X332.086 Y225.102
G01 X332.898 Y220.336
G01 X333.422 Y215.445
G01 X333.672 Y210.430
G01 X333.617 Y205.305
G01 X333.258 Y200.094
G01 X332.586 Y194.813
G01 X331.594 Y189.484
G01 X330.273 Y184.125
G01 X328.617 Y178.750
G01 X326.617 Y173.383
G01 X324.281 Y168.039
G01 X321.609 Y162.750
G01 X318.586 Y157.523
G01 X315.531 Y152.844
G01 X381.063 Y55.695
G01 X389.800 Y42.742
G01 X381.063 Y55.695
G01 X315.531 Y152.844
G01 X318.867 Y157.984
G01 X321.859 Y163.219
G01 X324.508 Y168.516
G01 X326.812 Y173.852
G01 X328.773 Y179.227
G01 X330.406 Y184.602
G01 X331.695 Y189.961
G01 X332.664 Y195.289
G01 X333.305 Y200.562
G01 X333.633 Y205.766
G01 X333.656 Y210.875
G01 X333.391 Y215.883
G01 X332.836 Y220.766
G01 X332.008 Y225.516
G01 X330.914 Y230.109
G01 X329.578 Y234.531
G01 X328.008 Y238.773
G01 X326.219 Y242.828
G01 X324.219 Y246.680
G01 X322.039 Y250.312
G01 X319.680 Y253.727
G01 X317.172 Y256.914
G01 X314.516 Y259.859
G01 X311.742 Y262.563
G01 X308.867 Y265.016
G01 X305.898 Y267.227
G01 X302.867 Y269.180
G01 X299.781 Y270.875
G01 X296.656 Y272.320
G01 X293.523 Y273.508
G01 X290.383 Y274.445
G01 X287.266 Y275.133
G01 X284.180 Y275.578
G01 X281.141 Y275.789
G01 X278.172 Y275.758
G01 X275.289 Y275.508
G01 X272.500 Y275.039
G01 X269.813 Y274.359
G01 X267.258 Y273.484
G01 X264.844 Y272.422
G01 X262.570 Y271.180
G01 X260.461 Y269.781
G01 X258.523 Y268.219
G01 X256.766 Y266.531
G01 X255.195 Y264.711
G01 X253.820 Y262.789
G01 X252.648 Y260.766
G01 X251.688 Y258.664
G01 X250.938 Y256.508
G01 X250.406 Y254.297
G01 X250.094 Y252.055
G01 X250.000 Y250.000
G01 X250.109 Y252.242
G01 X250.438 Y254.461
G01 X250.984 Y256.656
G01 X251.750 Y258.797
G01 X252.727 Y260.875
G01 X253.906 Y262.875
G01 X255.289 Y264.773
G01 X256.867 Y266.570
G01 X258.625 Y268.242
G01 X260.570 Y269.773
G01 X262.680 Y271.156
G01 X264.945 Y272.367
G01 X267.359 Y273.414
G01 X269.914 Y274.266
G01 X272.586 Y274.922
G01 X275.367 Y275.367
G01 X278.242 Y275.594
G01 X281.195 Y275.602
G01 X284.219 Y275.375
G01 X287.281 Y274.914
G01 X290.383 Y274.203
G01 X293.500 Y273.250
G01 X296.617 Y272.047
G01 X299.711 Y270.594
G01 X302.773 Y268.883
G01 X305.781 Y266.922
G01 X308.727 Y264.711
G01 X311.570 Y262.250
G01 X314.320 Y259.539
G01 X316.937 Y256.594
G01 X319.422 Y253.414
G01 X321.750 Y250.000
G01 X323.898 Y246.367
G01 X325.867 Y242.531
G01 X327.625 Y238.484
G01 X329.164 Y234.250
G01 X330.469 Y229.844
G01 X331.531 Y225.266
G01 X332.328 Y220.539
G01 X332.859 Y215.680
G01 X333.102 Y210.695
G01 X333.047 Y205.609
G01 X332.695 Y200.438
G01 X332.023 Y195.195
G01 X331.039 Y189.898
G01 X329.727 Y184.570
G01 X328.078 Y179.234
G01 X326.102 Y173.898
G01 X323.781 Y168.594
G01 X321.117 Y163.344
G01 X318.117 Y158.156
G01 X314.773 Y153.063
G01 X313.828 Y151.719
G01 X377.648 Y53.438
G01 X386.160 Y40.332
G01 X377.648 Y53.438
G01 X313.828 Y151.719
G01 X317.258 Y156.789
G01 X320.352 Y161.953
G01 X323.102 Y167.188
G01 X325.516 Y172.484
G01 X327.586 Y177.805
G01 X329.320 Y183.148
G01 X330.719 Y188.477
G01 X331.797 Y193.781
G01 X332.547 Y199.039
G01 X332.984 Y204.234
G01 X333.117 Y209.352
G01 X332.953 Y214.359
G01 X332.500 Y219.258
G01 X331.773 Y224.023
G01 X330.781 Y228.641
G01 X329.539 Y233.094
G01 X328.055 Y237.375
G01 X326.352 Y241.469
G01 X324.445 Y245.367
G01 X322.336 Y249.055
G01 X320.055 Y252.523
G01 X317.617 Y255.766
G01 X315.031 Y258.781
G01 X312.312 Y261.547
G01 X309.492 Y264.078
G01 X306.578 Y266.359
G01 X303.586 Y268.383
G01 X300.531 Y270.164
G01 X297.445 Y271.688
G01 X294.336 Y272.953
G01 X291.219 Y273.977
G01 X288.109 Y274.750
G01 X285.031 Y275.273
G01 X282.000 Y275.562
G01 X279.023 Y275.617
G01 X276.125 Y275.453
G01 X273.320 Y275.062
G01 X270.617 Y274.461
G01 X268.031 Y273.656
G01 X265.578 Y272.664
G01 X263.266 Y271.492
G01 X261.117 Y270.156
G01 X259.125 Y268.664
G01 X257.320 Y267.031
G01 X255.688 Y265.266
G01 X254.258 Y263.391
G01 X253.016 Y261.414
G01 X251.992 Y259.359
G01 X251.172 Y257.227
G01 X250.563 Y255.047
G01 X250.180 Y252.836
G01 X250.008 Y250.602
G01 X250.000 Y250.000
G01 X250.109 Y252.227
G01 X250.438 Y254.430
G01 X250.977 Y256.609
G01 X251.734 Y258.734
G01 X252.703 Y260.805
G01 X253.875 Y262.789
G01 X255.250 Y264.680
G01 X256.820 Y266.461
G01 X258.570 Y268.117
G01 X260.500 Y269.641
G01 X262.594 Y271.008
G01 X264.844 Y272.219
G01 X267.242 Y273.250
G01 X269.781 Y274.102
G01 X272.430 Y274.750
G01 X275.195 Y275.195
G01 X278.055 Y275.422
G01 X280.984 Y275.430
G01 X283.984 Y275.203
G01 X287.031 Y274.742
G01 X290.109 Y274.039
G01 X293.211 Y273.094
G01 X296.305 Y271.898
G01 X299.375 Y270.453
G01 X302.422 Y268.758
G01 X305.406 Y266.805
G01 X308.328 Y264.609
G01 X311.156 Y262.164
G01 X313.883 Y259.477
G01 X316.484 Y256.547
G01 X318.953 Y253.391
G01 X321.266 Y250.000
G01 X323.398 Y246.391
G01 X325.352 Y242.578
G01 X327.102 Y238.563
G01 X328.633 Y234.359
G01 X329.930 Y229.977
G01 X330.984 Y225.437
G01 X331.773 Y220.742
G01 X332.297 Y215.914
G01 X332.539 Y210.961
G01 X332.484 Y205.906
G01 X332.133 Y200.773
G01 X331.469 Y195.563
G01 X330.492 Y190.305
G01 X329.188 Y185.016
G01 X327.555 Y179.711
G01 X325.586 Y174.414
G01 X323.281 Y169.148
G01 X320.641 Y163.930
