;  Created by Sandify
;  https://sandify.org
;  Version: 0.2.6
;
;  Machine type: Rectangular
;    Min X (mm): 0
;    Max X (mm): 500
;    Min Y (mm): 0
;    Max Y (mm): 500
;  Content type: shape
;  Layer:
;    Shape: FileImport
;    Name: Hosta.thr
;    From file:: Hosta.thr
;    Aspect Ratio: true
;    Comments: 
;    Visible: true
;    Initial width: 10
;    Initial height: 10
;    X offset: 0
;    Y offset: 0
;    Rotate (degrees): 0
;    Reverse path: false
;    Fine tuning:
;      Connect to next layer: line
;      Draw portion of path (%): 100
;      Backtrack at end (%): 0
;      Rotate starting point (%): 0
;  Reverse export path: false
;
; File name: 'Hosta (E) (C C)'
; File type: gcode
;

G01 X250.000 Y250.000
G01 X249.854 Y252.981
G01 X249.415 Y255.940
G01 X248.686 Y258.857
G01 X247.671 Y261.709
G01 X246.374 Y264.476
G01 X244.802 Y267.136
G01 X242.962 Y269.671
G01 X240.863 Y272.059
G01 X238.515 Y274.282
G01 X235.931 Y276.322
G01 X233.122 Y278.160
G01 X230.102 Y279.779
G01 X226.887 Y281.164
G01 X223.492 Y282.300
G01 X219.935 Y283.172
G01 X216.233 Y283.767
G01 X212.406 Y284.074
G01 X208.472 Y284.081
G01 X204.452 Y283.781
G01 X200.368 Y283.163
G01 X196.241 Y282.222
G01 X192.092 Y280.952
G01 X187.945 Y279.350
G01 X183.822 Y277.412
G01 X179.747 Y275.137
G01 X175.742 Y272.526
G01 X171.831 Y269.580
G01 X168.037 Y266.303
G01 X164.383 Y262.700
G01 X160.893 Y258.776
G01 X157.589 Y254.540
G01 X154.493 Y250.000
G01 X151.627 Y245.167
G01 X149.012 Y240.054
G01 X146.670 Y234.672
G01 X144.619 Y229.038
G01 X142.879 Y223.168
G01 X141.469 Y217.077
G01 X140.405 Y210.786
G01 X139.704 Y204.314
G01 X139.380 Y197.681
G01 X139.448 Y190.909
G01 X139.921 Y184.021
G01 X140.810 Y177.041
G01 X142.124 Y169.993
G01 X143.872 Y162.903
G01 X146.062 Y155.796
G01 X148.699 Y148.699
G01 X151.788 Y141.639
G01 X155.330 Y134.644
G01 X159.326 Y127.740
G01 X161.187 Y124.802
G01 X159.997 Y123.900
G01 X159.087 Y122.922
G01 X154.927 Y114.777
G01 X152.692 Y113.204
G01 X143.507 Y109.184
G01 X143.582 Y109.692
G01 X145.211 Y117.186
G01 X146.730 Y120.608
G01 X149.252 Y122.884
G01 X150.807 Y123.631
G01 X157.239 Y123.148
G01 X160.374 Y125.537
G01 X159.733 Y125.908
G01 X150.614 Y126.589
G01 X150.255 Y126.627
G01 X147.598 Y125.342
G01 X144.306 Y122.353
G01 X142.426 Y118.107
G01 X140.716 Y110.258
G01 X140.380 Y106.694
G01 X141.118 Y104.943
G01 X156.284 Y111.593
G01 X157.968 Y114.227
G01 X162.876 Y124.168
G01 X162.928 Y127.490
G01 X160.593 Y128.780
G01 X151.554 Y129.395
G01 X149.673 Y129.596
G01 X145.943 Y127.802
G01 X141.879 Y124.106
G01 X139.623 Y119.034
G01 X137.827 Y110.828
G01 X137.481 Y106.091
G01 X139.579 Y101.069
G01 X154.931 Y107.675
G01 X157.590 Y108.981
G01 X160.782 Y113.286
G01 X166.398 Y125.217
G01 X166.377 Y125.563
G01 X165.538 Y129.382
G01 X161.451 Y131.662
G01 X152.500 Y132.222
G01 X149.120 Y132.585
G01 X144.297 Y130.255
G01 X139.448 Y125.867
G01 X136.829 Y119.946
G01 X134.972 Y111.419
G01 X134.568 Y105.430
G01 X138.036 Y97.175
G01 X153.456 Y103.669
G01 X158.857 Y106.320
G01 X163.548 Y112.228
G01 X169.989 Y125.908
G01 X169.256 Y128.540
G01 X168.379 Y131.153
G01 X162.307 Y134.523
G01 X153.445 Y135.035
G01 X148.557 Y135.565
G01 X142.631 Y132.693
G01 X137.036 Y127.615
G01 X134.016 Y120.864
G01 X132.107 Y112.002
G01 X131.673 Y104.746
G01 X135.787 Y94.827
G01 X136.487 Y93.293
G01 X137.511 Y93.756
G01 X152.908 Y100.147
G01 X160.111 Y103.680
G01 X166.299 Y111.152
G01 X173.237 Y126.132
G01 X173.226 Y126.639
G01 X171.752 Y130.487
G01 X170.373 Y133.333
G01 X164.259 Y136.740
G01 X163.164 Y137.393
G01 X154.381 Y137.846
G01 X147.982 Y138.539
G01 X140.979 Y135.156
G01 X134.604 Y129.386
G01 X131.226 Y121.785
G01 X129.215 Y112.589
G01 X128.781 Y104.050
G01 X132.896 Y94.025
G01 X134.256 Y91.051
G01 X135.127 Y89.498
G01 X138.692 Y91.078
G01 X153.901 Y97.367
G01 X161.367 Y101.022
G01 X169.012 Y110.014
G01 X176.165 Y125.584
G01 X176.153 Y127.748
G01 X173.673 Y134.910
G01 X167.639 Y138.143
G01 X164.027 Y140.269
G01 X155.322 Y140.665
G01 X147.416 Y141.524
G01 X139.334 Y137.616
G01 X132.171 Y131.128
G01 X128.428 Y122.701
G01 X126.355 Y113.162
G01 X125.908 Y103.326
G01 X130.041 Y93.214
G01 X131.617 Y89.762
G01 X133.866 Y85.731
G01 X139.862 Y88.386
G01 X154.925 Y94.617
G01 X162.607 Y98.384
G01 X171.729 Y108.878
G01 X179.098 Y125.038
G01 X179.073 Y128.862
G01 X175.879 Y136.566
G01 X175.655 Y137.165
G01 X169.733 Y140.300
G01 X164.896 Y143.150
G01 X156.261 Y143.483
G01 X147.461 Y144.416
G01 X146.842 Y144.504
G01 X137.667 Y140.067
G01 X129.756 Y132.888
G01 X125.620 Y123.613
G01 X123.485 Y113.757
G01 X123.039 Y102.587
G01 X127.198 Y92.392
G01 X128.987 Y88.478
G01 X132.626 Y81.989
G01 X141.050 Y85.719
G01 X155.959 Y91.865
G01 X163.848 Y95.725
G01 X174.425 Y107.727
G01 X182.026 Y124.501
G01 X181.996 Y129.977
G01 X178.558 Y137.200
G01 X177.621 Y139.404
G01 X177.579 Y139.461
G01 X171.764 Y142.489
G01 X166.072 Y145.824
G01 X165.749 Y146.025
G01 X157.183 Y146.301
G01 X148.451 Y147.177
G01 X146.290 Y147.485
G01 X136.006 Y142.518
G01 X127.325 Y134.634
G01 X122.833 Y124.524
G01 X120.618 Y114.361
G01 X120.193 Y101.847
G01 X124.357 Y91.543
G01 X126.336 Y87.190
G01 X131.375 Y78.231
G01 X142.228 Y83.036
G01 X157.002 Y89.111
G01 X165.075 Y93.054
G01 X177.117 Y106.553
G01 X184.962 Y123.967
G01 X184.920 Y131.095
G01 X181.301 Y137.919
G01 X179.558 Y141.632
G01 X179.445 Y141.766
G01 X173.743 Y144.702
G01 X168.161 Y147.938
G01 X166.613 Y148.903
G01 X158.114 Y149.121
G01 X149.444 Y149.940
G01 X145.724 Y150.472
G01 X134.349 Y144.971
G01 X124.911 Y136.399
G01 X120.021 Y125.442
G01 X117.751 Y114.942
G01 X117.336 Y101.068
G01 X121.531 Y90.680
G01 X123.712 Y85.892
G01 X129.213 Y76.000
G01 X130.127 Y74.478
G01 X143.408 Y80.358
G01 X158.065 Y86.374
G01 X166.298 Y90.391
G01 X179.809 Y105.356
G01 X187.896 Y123.442
G01 X187.843 Y132.192
G01 X184.120 Y138.732
G01 X181.635 Y143.714
G01 X181.310 Y144.072
G01 X175.718 Y146.909
G01 X170.241 Y150.040
G01 X167.475 Y151.763
G01 X159.042 Y151.928
G01 X150.435 Y152.693
G01 X145.155 Y153.456
G01 X132.696 Y147.427
G01 X122.475 Y138.151
G01 X117.229 Y126.360
G01 X114.872 Y115.544
G01 X114.490 Y101.235
G01 X114.503 Y100.286
G01 X118.717 Y89.796
G01 X121.066 Y84.621
G01 X126.580 Y74.576
G01 X128.427 Y71.492
G01 X128.755 Y70.665
G01 X144.591 Y77.684
G01 X159.137 Y83.640
G01 X167.532 Y87.728
G01 X182.485 Y104.171
G01 X190.828 Y122.926
G01 X190.764 Y133.298
G01 X186.968 Y139.601
G01 X183.788 Y145.690
G01 X183.187 Y146.401
G01 X177.704 Y149.134
G01 X172.329 Y152.157
G01 X168.334 Y154.640
G01 X159.952 Y154.740
G01 X151.392 Y155.443
G01 X144.593 Y156.425
G01 X131.056 Y149.875
G01 X120.066 Y139.912
G01 X114.443 Y127.288
G01 X112.009 Y116.140
G01 X111.608 Y101.894
G01 X111.645 Y99.475
G01 X115.894 Y88.899
G01 X118.435 Y83.317
G01 X124.013 Y73.191
G01 X125.781 Y70.245
G01 X127.130 Y66.726
G01 X144.287 Y74.245
G01 X145.779 Y74.981
G01 X160.246 Y80.917
G01 X168.760 Y85.073
G01 X185.174 Y102.983
G01 X193.761 Y122.421
G01 X193.682 Y134.415
G01 X189.847 Y140.537
G01 X186.474 Y146.749
G01 X186.110 Y147.478
G01 X185.049 Y148.711
G01 X179.676 Y151.344
G01 X174.406 Y154.262
G01 X169.253 Y157.462
G01 X169.187 Y157.505
G01 X160.856 Y157.548
G01 X152.344 Y158.194
G01 X144.021 Y159.404
G01 X129.389 Y152.326
G01 X117.633 Y141.662
G01 X111.624 Y128.193
G01 X109.130 Y116.724
G01 X108.739 Y102.562
G01 X108.815 Y98.689
G01 X113.084 Y88.009
G01 X115.799 Y82.026
G01 X121.432 Y71.802
G01 X123.115 Y68.993
G01 X125.502 Y62.763
G01 X128.121 Y63.970
G01 X145.148 Y71.418
G01 X146.963 Y72.313
G01 X161.342 Y78.200
G01 X169.971 Y82.402
G01 X187.841 Y101.781
G01 X196.695 Y121.925
G01 X196.616 Y135.537
G01 X192.823 Y141.627
G01 X189.494 Y147.806
G01 X189.198 Y148.404
G01 X186.919 Y151.017
G01 X181.657 Y153.554
G01 X176.494 Y156.370
G01 X171.444 Y159.462
G01 X170.053 Y160.376
G01 X161.766 Y160.357
G01 X153.293 Y160.945
G01 X144.676 Y162.158
G01 X143.449 Y162.381
G01 X127.753 Y154.789
G01 X115.194 Y143.418
G01 X108.841 Y129.110
G01 X106.270 Y117.331
G01 X105.850 Y103.204
G01 X105.961 Y97.872
G01 X110.268 Y87.104
G01 X113.161 Y80.747
G01 X118.853 Y70.432
G01 X120.464 Y67.743
G01 X123.878 Y58.831
G01 X129.312 Y61.293
G01 X146.202 Y68.673
G01 X148.135 Y69.626
G01 X162.447 Y75.488
G01 X171.200 Y79.752
G01 X188.659 Y98.365
G01 X190.527 Y100.576
G01 X199.624 Y121.416
G01 X199.544 Y136.647
G01 X195.632 Y142.404
G01 X192.159 Y148.264
G01 X190.509 Y151.379
G01 X188.774 Y153.333
G01 X183.628 Y155.776
G01 X178.574 Y158.493
G01 X173.629 Y161.480
G01 X170.917 Y163.266
G01 X162.667 Y163.186
G01 X154.228 Y163.716
G01 X145.641 Y164.874
G01 X142.899 Y165.374
G01 X126.077 Y157.231
G01 X112.777 Y145.183
G01 X106.031 Y130.034
G01 X103.407 Y117.910
G01 X102.975 Y103.828
G01 X103.133 Y97.044
G01 X107.466 Y86.172
G01 X110.522 Y79.445
G01 X116.270 Y69.033
G01 X117.795 Y66.487
G01 X122.267 Y54.864
G01 X130.516 Y58.610
G01 X147.288 Y65.946
G01 X149.306 Y66.942
G01 X163.557 Y72.775
G01 X172.409 Y77.086
G01 X189.318 Y94.795
G01 X193.195 Y99.354
G01 X202.560 Y120.916
G01 X202.463 Y137.751
G01 X198.498 Y143.295
G01 X194.958 Y148.950
G01 X192.644 Y153.132
G01 X188.440 Y156.790
G01 X186.912 Y158.216
G01 X190.462 Y171.889
G01 X193.311 Y180.226
G01 X199.757 Y181.552
G01 X205.929 Y183.333
G01 X211.798 Y185.545
G01 X217.338 Y188.162
G01 X222.523 Y191.156
G01 X227.331 Y194.500
G01 X231.740 Y198.162
G01 X235.731 Y202.112
G01 X239.287 Y206.317
G01 X242.393 Y210.744
G01 X245.036 Y215.359
G01 X247.206 Y220.127
G01 X248.896 Y225.013
G01 X250.099 Y229.980
G01 X250.811 Y234.993
G01 X251.033 Y240.016
G01 X250.826 Y244.385
G01 X251.016 Y239.545
G01 X250.733 Y234.684
G01 X249.975 Y229.837
G01 X248.742 Y225.040
G01 X247.040 Y220.326
G01 X244.873 Y215.731
G01 X242.249 Y211.288
G01 X239.180 Y207.032
G01 X235.677 Y202.995
G01 X231.755 Y199.210
G01 X227.431 Y195.707
G01 X222.724 Y192.517
G01 X217.655 Y189.668
G01 X212.245 Y187.189
G01 X206.521 Y185.105
G01 X200.507 Y183.442
G01 X194.233 Y182.221
G01 X187.726 Y181.465
G01 X181.020 Y181.192
G01 X174.144 Y181.421
G01 X167.134 Y182.167
G01 X160.022 Y183.443
G01 X152.846 Y185.260
G01 X145.641 Y187.628
G01 X138.445 Y190.552
G01 X131.294 Y194.038
G01 X124.227 Y198.088
G01 X117.282 Y202.701
G01 X110.498 Y207.874
G01 X103.913 Y213.602
G01 X97.566 Y219.878
G01 X97.478 Y219.970
G01 X96.141 Y219.259
G01 X94.876 Y218.829
G01 X85.757 Y218.429
G01 X83.404 Y217.043
G01 X75.931 Y210.361
G01 X76.397 Y210.229
G01 X83.932 Y208.602
G01 X87.655 Y208.563
G01 X90.772 Y209.901
G01 X92.118 Y211.011
G01 X94.349 Y217.051
G01 X97.818 Y218.913
G01 X97.868 Y218.177
G01 X94.645 Y209.455
G01 X94.578 Y209.252
G01 X92.334 Y207.381
G01 X88.249 Y205.634
G01 X83.601 Y205.680
G01 X75.738 Y207.373
G01 X72.370 Y208.558
G01 X71.073 Y209.969
G01 X83.431 Y220.995
G01 X86.503 Y221.429
G01 X97.594 Y221.762
G01 X100.623 Y220.434
G01 X100.845 Y217.756
G01 X97.609 Y209.136
G01 X97.068 Y207.510
G01 X93.872 Y204.850
G01 X88.825 Y202.691
G01 X83.268 Y202.740
G01 X75.063 Y204.528
G01 X70.601 Y206.173
G01 X66.907 Y210.170
G01 X79.537 Y221.595
G01 X81.583 Y223.269
G01 X86.823 Y224.385
G01 X100.024 Y224.518
G01 X100.329 Y224.369
G01 X103.449 Y222.012
G01 X103.825 Y217.358
G01 X100.571 Y208.839
G01 X99.545 Y205.756
G01 X95.408 Y202.331
G01 X89.425 Y199.764
G01 X82.925 Y199.814
G01 X74.406 Y201.667
G01 X68.800 Y203.789
G01 X62.745 Y210.381
G01 X75.301 Y221.912
G01 X79.701 Y225.514
G01 X87.019 Y227.331
G01 X102.125 Y227.514
G01 X104.230 Y225.742
G01 X106.231 Y223.868
G01 X106.792 Y216.936
G01 X103.516 Y208.513
G01 X102.011 Y203.994
G01 X96.946 Y199.805
G01 X90.007 Y196.819
G01 X82.597 Y196.892
G01 X73.731 Y198.816
G01 X66.980 Y201.449
G01 X59.608 Y209.376
G01 X58.567 Y210.576
G01 X59.385 Y211.320
G01 X71.826 Y222.868
G01 X77.804 Y227.767
G01 X87.164 Y230.282
G01 X103.687 Y230.365
G01 X104.145 Y230.144
G01 X107.031 Y227.206
G01 X109.065 Y224.776
G01 X109.636 Y217.698
G01 X109.764 Y216.528
G01 X106.467 Y208.199
G01 X104.486 Y202.245
G01 X98.512 Y197.280
G01 X90.590 Y193.879
G01 X82.286 Y193.973
G01 X73.091 Y195.972
G01 X65.150 Y199.119
G01 X57.656 Y207.086
G01 X55.579 Y209.474
G01 X54.542 Y210.927
G01 X57.453 Y213.507
G01 X69.733 Y224.924
G01 X75.920 Y229.997
G01 X87.289 Y233.213
G01 X104.410 Y233.256
G01 X106.381 Y232.347
G01 X111.856 Y227.124
G01 X112.298 Y220.190
G01 X112.720 Y216.114
G01 X109.418 Y207.882
G01 X106.974 Y200.498
G01 X100.054 Y194.754
G01 X91.175 Y190.941
G01 X81.942 Y191.042
G01 X72.419 Y193.096
G01 X63.283 Y196.793
G01 X55.743 Y204.820
G01 X53.313 Y207.624
G01 X50.588 Y211.338
G01 X55.503 Y215.691
G01 X67.628 Y226.988
G01 X74.019 Y232.236
G01 X87.363 Y236.158
G01 X105.135 Y236.152
G01 X108.593 Y234.539
G01 X114.332 Y228.386
G01 X114.729 Y227.989
G01 X115.133 Y221.199
G01 X115.709 Y215.709
G01 X112.366 Y207.562
G01 X109.512 Y199.008
G01 X109.431 Y198.736
G01 X101.596 Y192.234
G01 X91.784 Y188.014
G01 X81.613 Y188.113
G01 X71.776 Y190.245
G01 X61.421 Y194.504
G01 X53.811 Y202.588
G01 X51.059 Y205.763
G01 X46.661 Y211.778
G01 X53.560 Y217.874
G01 X65.551 Y229.065
G01 X72.127 Y234.467
G01 X87.441 Y239.092
G01 X105.866 Y239.039
G01 X110.830 Y236.738
G01 X116.009 Y230.558
G01 X117.581 Y228.834
G01 X117.614 Y228.785
G01 X117.969 Y222.136
G01 X118.659 Y215.471
G01 X118.681 Y215.305
G01 X115.325 Y207.247
G01 X112.456 Y198.780
G01 X111.928 Y196.986
G01 X103.147 Y189.703
G01 X92.372 Y185.076
G01 X81.297 Y185.186
G01 X71.111 Y187.403
G01 X59.550 Y192.211
G01 X51.859 Y200.352
G01 X48.792 Y203.884
G01 X42.719 Y212.195
G01 X51.594 Y220.074
G01 X63.493 Y231.171
G01 X70.217 Y236.689
G01 X87.495 Y242.030
G01 X106.602 Y241.932
G01 X113.046 Y238.937
G01 X117.799 Y232.758
G01 X120.408 Y229.684
G01 X120.484 Y229.523
G01 X120.794 Y223.015
G01 X121.433 Y216.489
G01 X121.640 Y214.889
G01 X118.260 Y206.913
G01 X115.365 Y198.525
G01 X114.396 Y195.223
G01 X104.671 Y187.180
G01 X92.961 Y182.137
G01 X80.972 Y182.252
G01 X70.460 Y184.543
G01 X57.661 Y189.932
G01 X49.907 Y198.136
G01 X46.527 Y202.035
G01 X39.746 Y211.215
G01 X38.784 Y212.611
G01 X49.662 Y222.257
G01 X61.452 Y233.267
G01 X68.314 Y238.903
G01 X87.528 Y244.977
G01 X107.344 Y244.819
G01 X115.266 Y241.135
G01 X119.722 Y234.979
G01 X123.185 Y230.704
G01 X123.378 Y230.266
G01 X123.639 Y223.899
G01 X124.221 Y217.511
G01 X124.611 Y214.472
G01 X121.201 Y206.574
G01 X118.277 Y198.260
G01 X116.876 Y193.480
G01 X106.229 Y184.654
G01 X93.545 Y179.209
G01 X80.629 Y179.327
G01 X69.816 Y181.683
G01 X56.536 Y187.320
G01 X55.779 Y187.678
G01 X47.930 Y195.939
G01 X44.248 Y200.171
G01 X37.365 Y209.433
G01 X35.383 Y212.319
G01 X34.739 Y212.959
G01 X47.709 Y224.436
G01 X59.392 Y235.368
G01 X66.389 Y241.124
G01 X87.564 Y247.904
G01 X108.094 Y247.700
G01 X117.493 Y243.329
G01 X121.698 Y237.206
G01 X125.870 Y231.848
G01 X126.251 Y230.993
G01 X126.475 Y224.768
G01 X127.013 Y218.520
G01 X127.589 Y214.070
G01 X124.145 Y206.245
G01 X121.187 Y198.000
G01 X119.354 Y191.735
G01 X107.762 Y182.131
G01 X94.131 Y176.276
G01 X80.297 Y176.402
G01 X69.149 Y178.832
G01 X55.927 Y184.431
G01 X53.860 Y185.414
G01 X45.941 Y193.741
G01 X41.979 Y198.298
G01 X35.036 Y207.651
G01 X33.132 Y210.424
G01 X30.503 Y213.111
G01 X44.713 Y225.785
G01 X45.757 Y226.635
G01 X57.354 Y237.496
G01 X64.469 Y243.354
G01 X87.602 Y250.844
G01 X108.851 Y250.578
G01 X119.727 Y245.529
G01 X123.752 Y239.448
G01 X128.051 Y233.749
G01 X128.478 Y233.221
G01 X129.123 Y231.731
G01 X129.304 Y225.648
G01 X129.794 Y219.539
G01 X130.558 Y213.653
G01 X127.074 Y205.895
G01 X124.077 Y197.711
G01 X121.812 Y189.964
G01 X109.302 Y179.606
G01 X94.719 Y173.336
G01 X79.976 Y173.479
G01 X68.494 Y175.963
G01 X55.339 Y181.532
G01 X51.951 Y183.157
G01 X43.961 Y191.551
G01 X39.714 Y196.439
G01 X32.706 Y205.881
G01 X30.892 Y208.519
G01 X26.220 Y213.265
G01 X28.399 Y215.146
G01 X42.452 Y227.725
G01 X43.809 Y228.832
G01 X55.351 Y239.632
G01 X62.553 Y245.556
G01 X87.619 Y253.784
G01 X109.592 Y253.454
G01 X121.945 Y247.733
G01 X125.956 Y241.703
G01 X130.241 Y236.060
G01 X130.586 Y235.637
G01 X132.020 Y232.470
G01 X132.155 Y226.530
G01 X132.591 Y220.560
G01 X133.331 Y214.578
G01 X133.537 Y213.245
G01 X130.013 Y205.549
G01 X126.976 Y197.423
G01 X124.461 Y188.898
G01 X124.287 Y188.215
G01 X110.850 Y177.078
G01 X95.309 Y170.388
G01 X79.642 Y170.546
G01 X67.860 Y173.121
G01 X54.748 Y178.657
G01 X50.044 Y180.928
G01 X41.970 Y189.387
G01 X37.459 Y194.572
G01 X30.385 Y204.105
G01 X28.664 Y206.605
G01 X21.963 Y213.433
G01 X26.471 Y217.358
G01 X40.430 Y229.837
G01 X41.865 Y231.006
G01 X53.321 Y241.751
G01 X60.638 Y247.784
G01 X85.608 Y256.148
G01 X87.614 Y256.710
G01 X110.369 Y256.343
G01 X124.175 Y249.924
G01 X127.827 Y243.924
G01 X131.755 Y238.282
G01 X133.814 Y235.601
G01 X134.894 Y233.203
G01 X134.986 Y227.404
G01 X135.372 Y221.574
G01 X136.056 Y215.729
G01 X136.503 Y212.841
G01 X132.944 Y205.205
G01 X129.875 Y197.135
G01 X127.328 Y188.661
G01 X126.770 Y186.454
G01 X112.399 Y174.559
G01 X95.909 Y167.472
G01 X79.310 Y167.631
G01 X67.207 Y170.269
G01 X54.120 Y175.774
G01 X48.128 Y178.680
G01 X39.975 Y187.208
G01 X35.182 Y192.715
G01 X28.051 Y202.341
G01 X26.413 Y204.722
G01 X17.684 Y213.604
G01 X24.521 Y219.557
G01 X38.381 Y231.944
G01 X39.921 Y233.199
G01 X51.323 Y243.895
G01 X58.725 Y249.999
G01 X82.622 Y258.222
G01 X87.636 Y259.639
G01 X111.130 Y259.206
G01 X126.393 Y252.126
G01 X129.373 Y246.152
G01 X132.635 Y240.475
G01 X136.156 Y235.109
G01 X136.891 Y234.072
G01 X138.611 Y229.004
G01 X161.474 Y228.768
G01 X184.040 Y230.713
G01 X206.150 Y234.805
G01 X227.648 Y241.004
G01 X244.505 Y247.530
G01 X240.778 Y246.388
G01 X236.935 Y245.609
G01 X233.002 Y245.202
G01 X229.007 Y245.172
G01 X224.977 Y245.525
G01 X220.941 Y246.264
G01 X216.925 Y247.389
G01 X212.960 Y248.899
G01 X209.072 Y250.793
G01 X205.291 Y253.066
G01 X201.643 Y255.711
G01 X198.156 Y258.720
G01 X194.857 Y262.084
G01 X191.773 Y265.791
G01 X188.928 Y269.826
G01 X186.349 Y274.176
G01 X184.057 Y278.824
G01 X182.077 Y283.751
G01 X180.430 Y288.938
G01 X179.137 Y294.363
G01 X178.216 Y300.004
G01 X177.686 Y305.836
G01 X177.563 Y311.836
G01 X177.861 Y317.976
G01 X178.594 Y324.229
G01 X179.434 Y328.963
G01 X148.912 Y362.776
G01 X147.489 Y363.379
G01 X146.372 Y364.086
G01 X140.304 Y370.936
G01 X137.758 Y371.894
G01 X127.847 Y373.528
G01 X128.058 Y373.068
G01 X131.511 Y366.189
G01 X133.824 Y363.262
G01 X136.830 Y361.685
G01 X138.528 Y361.338
G01 X144.630 Y363.403
G01 X148.271 Y361.860
G01 X147.724 Y361.360
G01 X139.841 Y358.717
G01 X138.732 Y358.304
G01 X135.853 Y358.883
G01 X131.905 Y360.968
G01 X129.022 Y364.615
G01 X125.420 Y371.796
G01 X124.241 Y375.157
G01 X124.501 Y377.039
G01 X138.168 Y374.910
G01 X140.839 Y374.361
G01 X143.116 Y372.235
G01 X150.338 Y363.838
G01 X151.225 Y360.618
G01 X149.284 Y358.786
G01 X141.489 Y356.237
G01 X138.916 Y355.284
G01 X134.850 Y356.095
G01 X130.003 Y358.647
G01 X126.545 Y363.019
G01 X122.767 Y370.517
G01 X121.240 Y375.029
G01 X122.044 Y380.410
G01 X135.838 Y378.388
G01 X141.451 Y377.239
G01 X145.616 Y373.854
G01 X154.020 Y363.674
G01 X154.089 Y363.340
G01 X154.218 Y359.427
G01 X150.824 Y356.224
G01 X143.142 Y353.744
G01 X139.120 Y352.244
G01 X133.852 Y353.316
G01 X128.099 Y356.355
G01 X124.073 Y361.430
G01 X120.141 Y369.241
G01 X118.268 Y374.928
G01 X119.583 Y383.772
G01 X133.515 Y381.848
G01 X142.026 Y380.107
G01 X148.045 Y375.539
G01 X157.666 Y363.901
G01 X157.610 Y361.170
G01 X157.411 Y358.420
G01 X152.380 Y353.639
G01 X144.786 Y351.252
G01 X139.309 Y349.218
G01 X132.866 Y350.516
G01 X126.161 Y354.053
G01 X121.572 Y359.852
G01 X117.498 Y367.958
G01 X115.306 Y374.877
G01 X116.922 Y386.116
G01 X117.110 Y387.156
G01 X123.969 Y387.336
G01 X138.835 Y383.599
G01 X150.423 Y377.275
G01 X160.865 Y364.494
G01 X160.997 Y363.995
G01 X160.494 Y359.917
G01 X159.891 Y356.787
G01 X154.915 Y352.070
G01 X153.920 Y351.069
G01 X146.423 Y348.762
G01 X139.503 Y346.191
G01 X131.866 Y347.738
G01 X124.258 Y351.745
G01 X119.103 Y358.275
G01 X114.881 Y366.679
G01 X112.348 Y374.832
G01 X113.928 Y386.149
G01 X114.404 Y388.778
G01 X114.863 Y390.512
G01 X121.665 Y391.258
G01 X136.076 Y388.480
G01 X140.509 Y387.381
G01 X152.771 Y379.047
G01 X163.573 Y365.742
G01 X164.109 Y363.643
G01 X163.483 Y356.096
G01 X158.534 Y351.553
G01 X155.471 Y348.506
G01 X148.067 Y346.284
G01 X140.661 Y343.567
G01 X139.677 Y343.168
G01 X130.888 Y344.949
G01 X122.338 Y349.447
G01 X116.623 Y356.692
G01 X112.245 Y365.394
G01 X109.375 Y374.812
G01 X110.943 Y386.191
G01 X111.516 Y389.372
G01 X112.706 Y393.846
G01 X119.398 Y395.409
G01 X134.115 Y392.512
G01 X142.499 Y390.300
G01 X155.121 Y380.815
G01 X166.275 Y367.005
G01 X167.204 Y363.295
G01 X165.955 Y354.399
G01 X161.085 Y349.980
G01 X157.016 Y345.931
G01 X149.708 Y343.790
G01 X142.393 Y341.156
G01 X139.890 Y340.139
G01 X129.886 Y342.166
G01 X120.430 Y347.156
G01 X114.130 Y355.100
G01 X109.602 Y364.115
G01 X106.418 Y374.817
G01 X107.981 Y386.254
G01 X108.651 Y389.970
G01 X110.574 Y397.166
G01 X115.983 Y399.633
G01 X122.976 Y398.413
G01 X137.705 Y395.046
G01 X143.411 Y393.400
G01 X157.446 Y382.622
G01 X168.976 Y368.255
G01 X170.318 Y362.946
G01 X168.624 Y354.100
G01 X168.419 Y352.720
G01 X168.393 Y352.668
G01 X163.603 Y348.370
G01 X159.037 Y343.850
G01 X158.574 Y343.366
G01 X151.361 Y341.306
G01 X144.137 Y338.756
G01 X140.077 Y337.104
G01 X128.879 Y339.372
G01 X118.513 Y344.845
G01 X111.646 Y353.527
G01 X106.970 Y362.827
G01 X103.445 Y374.850
G01 X105.004 Y386.352
G01 X105.763 Y390.562
G01 X108.417 Y400.493
G01 X116.046 Y403.161
G01 X131.169 Y400.142
G01 X144.478 Y396.411
G01 X159.764 Y384.421
G01 X171.689 Y369.502
G01 X173.414 Y362.597
G01 X171.424 Y354.141
G01 X170.851 Y351.040
G01 X170.776 Y350.886
G01 X166.062 Y346.716
G01 X161.565 Y342.326
G01 X160.102 Y340.801
G01 X152.979 Y338.822
G01 X145.839 Y336.357
G01 X140.260 Y334.084
G01 X127.884 Y336.590
G01 X116.605 Y342.538
G01 X109.166 Y351.930
G01 X104.328 Y361.547
G01 X100.495 Y374.881
G01 X102.050 Y386.450
G01 X102.899 Y391.161
G01 X105.890 Y402.563
G01 X106.267 Y403.823
G01 X110.587 Y405.909
G01 X117.092 Y406.932
G01 X131.025 Y403.456
G01 X145.267 Y399.719
G01 X145.497 Y399.648
G01 X162.076 Y386.242
G01 X174.405 Y370.737
G01 X176.527 Y362.241
G01 X174.330 Y354.070
G01 X173.375 Y349.550
G01 X173.149 Y349.123
G01 X168.523 Y345.064
G01 X164.110 Y340.789
G01 X161.665 Y338.229
G01 X154.629 Y336.335
G01 X147.573 Y333.957
G01 X140.527 Y331.088
G01 X140.450 Y331.054
G01 X126.894 Y333.806
G01 X114.705 Y340.234
G01 X106.692 Y350.352
G01 X101.695 Y360.257
G01 X97.549 Y374.928
G01 X99.088 Y386.579
G01 X100.014 Y391.756
G01 X102.992 Y403.280
G01 X103.897 Y406.297
G01 X104.007 Y407.185
G01 X113.828 Y410.949
G01 X129.022 Y408.115
G01 X143.592 Y404.200
G01 X143.745 Y404.153
G01 X164.384 Y388.058
G01 X177.125 Y371.961
G01 X179.634 Y361.888
G01 X177.290 Y353.925
G01 X175.965 Y348.161
G01 X175.542 Y347.337
G01 X170.992 Y343.405
G01 X166.649 Y339.261
G01 X163.201 Y335.661
G01 X156.255 Y333.845
G01 X149.284 Y331.549
G01 X142.321 Y328.764
G01 X140.660 Y328.025
G01 X125.906 Y331.018
G01 X112.782 Y337.932
G01 X104.202 Y348.763
G01 X99.071 Y358.961
G01 X94.812 Y374.060
G01 X94.587 Y375.009
G01 X96.131 Y386.728
G01 X97.139 Y392.346
G01 X100.147 Y403.950
G01 X101.016 Y406.845
G01 X101.453 Y410.578
G01 X112.681 Y413.889
G01 X115.379 Y414.580
G01 X127.509 Y412.474
G01 X140.666 Y408.619
G01 X160.205 Y395.019
G01 X166.677 Y389.890
G01 X179.826 Y373.190
G01 X182.744 Y361.542
G01 X180.291 Y353.733
G01 X178.654 Y347.015
G01 X177.922 Y345.566
G01 X173.454 Y341.753
G01 X169.186 Y337.732
G01 X165.128 Y333.514
G01 X164.748 Y333.097
G01 X157.884 Y331.366
G01 X150.991 Y329.156
G01 X144.100 Y326.459
G01 X140.834 Y325.005
G01 X124.914 Y328.213
G01 X110.864 Y335.630
G01 X101.714 Y347.194
G01 X96.447 Y357.687
G01 X92.209 Y372.635
G01 X91.637 Y375.077
G01 X93.186 Y386.868
G01 X94.277 Y392.932
G01 X97.294 Y404.637
G01 X98.115 Y407.390
G01 X98.894 Y414.000
G01 X101.723 Y413.504
G01 X113.039 Y416.789
G01 X118.195 Y418.053
G01 X133.904 Y413.999
G01 X141.265 Y411.628
G01 X160.321 Y398.557
G01 X168.969 Y391.720
G01 X182.547 Y374.416
G01 X185.846 Y361.195
G01 X183.423 Y353.326
G01 X181.887 Y346.876
G01 X180.302 Y343.788
G01 X175.916 Y340.095
G01 X171.724 Y336.197
G01 X167.736 Y332.106
G01 X166.300 Y330.530
G01 X159.518 Y328.881
G01 X152.703 Y326.755
G01 X145.887 Y324.144
G01 X141.023 Y321.975
G01 X123.920 Y325.438
G01 X108.949 Y333.327
G01 X99.229 Y345.600
G01 X93.819 Y356.391
G01 X89.610 Y371.193
G01 X88.690 Y375.166
G01 X90.240 Y387.036
G01 X91.408 Y393.533
G01 X94.452 Y405.326
G01 X95.228 Y407.930
G01 X96.349 Y417.433
G01 X102.203 Y416.387
G01 X113.686 Y419.532
G01 X119.822 Y420.922
G01 X135.459 Y416.774
G01 X136.427 Y416.474
G01 X154.724 Y405.534
G01 X171.262 Y393.549
G01 X185.266 Y375.628
G01 X188.951 Y360.851
G01 X186.293 Y353.331
G01 X184.219 Y345.827
G01 X183.874 Y344.331
G01 X182.690 Y342.008
G01 X178.385 Y338.435
G01 X174.269 Y334.662
G01 X170.349 Y330.699
G01 X167.850 Y327.954
G01 X161.149 Y326.386
G01 X154.412 Y324.343
G01 X147.669 Y321.816
G01 X141.231 Y318.937
G01 X122.922 Y322.641
G01 X107.037 Y331.021
G01 X96.744 Y344.025
G01 X91.177 Y355.102
G01 X87.006 Y369.764
G01 X85.756 Y375.247
G01 X87.299 Y387.203
G01 X88.538 Y394.117
G01 X91.616 Y405.990
G01 X92.355 Y408.466
G01 X93.783 Y420.846
G01 X102.710 Y419.262
G01 X114.239 Y422.416
G01 X120.891 Y423.915
G01 X135.074 Y420.389
G01 X153.172 Y409.965
G01 X169.947 Y398.214
G01 X173.556 Y395.377
G01 X187.973 Y376.847
G01 X192.061 Y360.507
G01 X188.959 Y353.707
G01 X186.380 Y346.878
G01 X184.710 Y341.493
G01 X180.929 Y337.382
G01 X177.838 Y333.684
G01 X177.463 Y326.214
G01 X177.638 Y318.918
G01 X178.345 Y311.831
G01 X179.563 Y304.988
G01 X181.271 Y298.422
G01 X183.442 Y292.163
G01 X186.052 Y286.240
G01 X189.071 Y280.682
G01 X192.470 Y275.513
G01 X196.219 Y270.756
G01 X200.283 Y266.433
G01 X204.630 Y262.564
G01 X209.225 Y259.163
G01 X214.032 Y256.247
G01 X219.014 Y253.827
G01 X224.135 Y251.912
G01 X229.355 Y250.510
G01 X234.639 Y249.625
G01 X239.947 Y249.260
G01 X242.360 Y249.266
G01 X240.233 Y249.543
G01 X238.120 Y250.028
G01 X236.036 Y250.719
G01 X233.996 Y251.615
G01 X232.016 Y252.711
G01 X230.110 Y254.005
G01 X228.292 Y255.492
G01 X226.577 Y257.166
G01 X224.979 Y259.020
G01 X223.511 Y261.046
G01 X222.187 Y263.236
G01 X221.018 Y265.580
G01 X220.016 Y268.068
G01 X219.194 Y270.690
G01 X218.560 Y273.433
G01 X218.126 Y276.285
G01 X217.900 Y279.233
G01 X217.890 Y282.263
G01 X218.103 Y285.361
G01 X218.547 Y288.512
G01 X219.226 Y291.700
G01 X220.145 Y294.911
G01 X221.308 Y298.128
G01 X222.718 Y301.334
G01 X224.375 Y304.514
G01 X226.281 Y307.650
G01 X228.434 Y310.726
G01 X230.834 Y313.724
G01 X233.478 Y316.628
G01 X236.362 Y319.422
G01 X239.481 Y322.088
G01 X242.830 Y324.610
G01 X246.402 Y326.972
G01 X250.188 Y329.158
G01 X254.180 Y331.153
G01 X258.368 Y332.942
G01 X262.741 Y334.511
G01 X267.287 Y335.845
G01 X271.994 Y336.931
G01 X276.848 Y337.758
G01 X281.835 Y338.313
G01 X286.939 Y338.585
G01 X292.145 Y338.564
G01 X297.435 Y338.241
G01 X302.793 Y337.608
G01 X308.200 Y336.657
G01 X313.639 Y335.383
G01 X316.191 Y334.673
G01 X352.151 Y381.893
G01 X352.198 Y382.994
G01 X352.434 Y384.104
G01 X356.096 Y390.991
G01 X356.108 Y393.290
G01 X354.450 Y401.662
G01 X354.133 Y401.365
G01 X349.688 Y396.560
G01 X348.045 Y393.868
G01 X347.684 Y390.992
G01 X347.911 Y389.523
G01 X351.376 Y385.281
G01 X351.237 Y381.935
G01 X350.659 Y382.219
G01 X345.556 Y388.482
G01 X345.159 Y390.962
G01 X345.649 Y394.694
G01 X347.694 Y398.077
G01 X352.347 Y403.089
G01 X354.671 Y405.052
G01 X356.263 Y405.391
G01 X358.701 Y393.320
G01 X358.982 Y391.558
G01 X357.956 Y389.128
G01 X353.408 Y380.846
G01 X351.115 Y379.215
G01 X349.076 Y380.220
G01 X343.802 Y386.725
G01 X343.196 Y387.430
G01 X342.650 Y390.921
G01 X343.246 Y395.541
G01 X345.691 Y399.587
G01 X350.547 Y404.814
G01 X353.683 Y407.394
G01 X358.219 Y408.354
G01 X360.775 Y396.146
G01 X361.448 Y391.921
G01 X359.995 Y387.618
G01 X354.375 Y377.889
G01 X354.137 Y377.728
G01 X351.054 Y376.458
G01 X347.478 Y378.200
G01 X342.314 Y384.642
G01 X340.833 Y386.368
G01 X340.113 Y390.868
G01 X340.838 Y396.380
G01 X343.677 Y401.091
G01 X348.732 Y406.540
G01 X352.716 Y409.723
G01 X360.174 Y411.318
G01 X362.847 Y398.972
G01 X363.905 Y392.334
G01 X362.065 Y386.197
G01 X355.646 Y375.046
G01 X353.451 Y374.277
G01 X351.193 Y373.612
G01 X345.884 Y376.208
G01 X340.824 Y382.582
G01 X338.480 Y385.315
G01 X337.605 Y390.825
G01 X338.423 Y397.211
G01 X341.682 Y402.602
G01 X346.947 Y408.267
G01 X351.799 Y412.083
G01 X362.127 Y414.283
G01 X364.312 Y408.874
G01 X365.746 Y395.917
G01 X364.165 Y384.802
G01 X357.070 Y372.670
G01 X356.705 Y372.425
G01 X353.297 Y371.598
G01 X350.631 Y371.160
G01 X344.304 Y374.206
G01 X339.349 Y380.514
G01 X336.125 Y384.278
G01 X335.096 Y390.809
G01 X336.013 Y398.053
G01 X339.687 Y404.130
G01 X345.134 Y409.975
G01 X350.876 Y414.422
G01 X362.622 Y416.938
G01 X364.122 Y417.098
G01 X366.738 Y411.871
G01 X368.888 Y398.870
G01 X369.264 Y395.716
G01 X366.255 Y383.435
G01 X358.887 Y370.892
G01 X357.359 Y369.845
G01 X351.143 Y368.078
G01 X344.176 Y371.541
G01 X342.713 Y372.212
G01 X337.863 Y378.453
G01 X333.782 Y383.220
G01 X332.573 Y390.769
G01 X333.622 Y398.901
G01 X337.684 Y405.623
G01 X343.334 Y411.696
G01 X350.003 Y416.793
G01 X362.224 Y419.399
G01 X366.130 Y419.783
G01 X369.390 Y414.921
G01 X371.498 Y401.579
G01 X372.173 Y394.990
G01 X368.365 Y382.104
G01 X360.680 Y369.117
G01 X358.004 Y367.267
G01 X350.533 Y365.600
G01 X343.678 Y369.045
G01 X341.124 Y370.217
G01 X336.371 Y376.381
G01 X331.412 Y382.162
G01 X330.051 Y390.725
G01 X331.221 Y399.741
G01 X335.680 Y407.134
G01 X341.517 Y413.419
G01 X349.110 Y419.153
G01 X361.840 Y421.864
G01 X368.156 Y422.486
G01 X371.733 Y418.903
G01 X372.836 Y412.966
G01 X374.578 Y399.418
G01 X374.915 Y395.183
G01 X370.495 Y380.777
G01 X362.472 Y367.321
G01 X358.649 Y364.680
G01 X349.919 Y363.146
G01 X349.869 Y363.157
G01 X343.123 Y366.577
G01 X339.536 Y368.221
G01 X334.886 Y374.314
G01 X329.850 Y380.232
G01 X329.055 Y381.110
G01 X327.541 Y390.698
G01 X328.811 Y400.572
G01 X333.678 Y408.633
G01 X339.716 Y415.126
G01 X348.243 Y421.505
G01 X361.472 Y424.333
G01 X370.186 Y425.186
G01 X374.577 Y419.895
G01 X376.694 Y406.100
G01 X377.637 Y395.234
G01 X372.619 Y379.477
G01 X364.271 Y365.535
G01 X359.283 Y362.094
G01 X349.313 Y360.707
G01 X349.174 Y360.731
G01 X342.536 Y364.125
G01 X337.950 Y366.223
G01 X333.400 Y372.242
G01 X328.467 Y378.091
G01 X326.700 Y380.040
G01 X325.018 Y390.644
G01 X326.401 Y401.417
G01 X331.690 Y410.143
G01 X337.910 Y416.858
G01 X347.398 Y423.880
G01 X360.725 Y426.732
G01 X361.089 Y426.796
G01 X372.188 Y427.876
G01 X375.112 Y425.064
G01 X377.878 Y420.185
G01 X379.239 Y408.033
G01 X380.522 Y395.380
G01 X374.765 Y378.179
G01 X366.060 Y363.738
G01 X359.934 Y359.516
G01 X348.861 Y358.250
G01 X348.461 Y358.310
G01 X341.932 Y361.680
G01 X336.366 Y364.224
G01 X331.922 Y370.180
G01 X327.099 Y375.970
G01 X324.347 Y379.011
G01 X322.492 Y390.614
G01 X324.005 Y402.269
G01 X329.687 Y411.651
G01 X336.091 Y418.563
G01 X346.564 Y426.256
G01 X359.897 Y429.131
G01 X360.704 Y429.274
G01 X373.437 Y430.505
G01 X374.178 Y430.694
G01 X380.106 Y423.982
G01 X382.419 Y410.055
G01 X383.586 Y398.105
G01 X377.271 Y377.886
G01 X376.903 Y376.877
G01 X367.838 Y361.931
G01 X360.572 Y356.939
G01 X349.243 Y355.889
G01 X348.537 Y355.794
G01 X347.749 Y355.877
G01 X341.334 Y359.228
G01 X334.829 Y362.208
G01 X334.772 Y362.233
G01 X330.427 Y368.114
G01 X325.706 Y373.834
G01 X321.984 Y377.939
G01 X320.054 Y390.191
G01 X319.978 Y390.570
G01 X321.597 Y403.112
G01 X327.680 Y413.179
G01 X334.282 Y420.284
G01 X345.730 Y428.614
G01 X359.072 Y431.512
G01 X360.325 Y431.734
G01 X373.012 Y432.968
G01 X376.139 Y433.745
G01 X382.921 Y424.600
G01 X383.462 Y423.823
G01 X385.399 Y413.519
G01 X386.225 Y401.884
G01 X381.304 Y382.680
G01 X379.022 Y375.584
G01 X369.625 Y360.130
G01 X361.226 Y354.368
G01 X349.972 Y353.490
G01 X348.416 Y353.298
G01 X347.053 Y353.451
G01 X340.746 Y356.778
G01 X334.349 Y359.738
G01 X333.191 Y360.231
G01 X328.952 Y366.047
G01 X324.339 Y371.707
G01 X319.638 Y376.898
G01 X317.729 Y389.209
G01 X317.460 Y390.549
G01 X319.189 Y403.941
G01 X325.679 Y414.667
G01 X332.471 Y422.000
G01 X344.920 Y430.996
G01 X358.274 Y433.912
G01 X359.945 Y434.209
G01 X372.606 Y435.432
G01 X378.097 Y436.798
G01 X378.545 Y434.391
G01 X385.330 Y425.134
G01 X387.055 Y422.604
G01 X388.539 Y407.898
G01 X388.817 Y402.305
G01 X384.057 Y383.311
G01 X381.165 Y374.291
G01 X371.422 Y358.334
G01 X361.859 Y351.768
G01 X350.462 Y350.841
G01 X349.273 Y350.692
G01 X346.345 Y351.023
G01 X340.149 Y354.329
G01 X333.863 Y357.273
G01 X331.601 Y358.236
G01 X327.463 Y363.982
G01 X322.956 Y369.577
G01 X318.083 Y375.000
G01 X317.272 Y375.848
G01 X315.402 Y388.271
G01 X314.953 Y390.514
G01 X316.778 Y404.785
G01 X323.682 Y416.199
G01 X330.676 Y423.704
G01 X344.092 Y433.368
G01 X357.461 Y436.306
G01 X359.553 Y436.678
G01 X372.188 Y437.889
G01 X380.071 Y439.839
G01 X380.987 Y434.844
G01 X387.708 Y425.402
G01 X389.845 Y422.158
G01 X391.221 Y407.613
G01 X387.793 Y389.376
G01 X383.308 Y373.024
G01 X373.200 Y356.537
G01 X362.514 Y349.200
G01 X351.445 Y348.700
G01 X347.838 Y348.348
G01 X345.624 Y348.595
G01 X339.540 Y351.882
G01 X333.366 Y354.811
G01 X330.013 Y356.240
G01 X325.979 Y361.918
G01 X321.579 Y367.452
G01 X316.815 Y372.819
G01 X314.923 Y374.797
G01 X313.070 Y387.298
G01 X312.430 Y390.477
G01 X314.391 Y405.630
G01 X321.692 Y417.693
G01 X328.861 Y425.413
G01 X343.309 Y435.757
G01 X356.695 Y438.708
G01 X359.181 Y439.151
G01 X371.772 Y440.358
G01 X382.057 Y442.903
G01 X383.440 Y435.304
G01 X390.192 Y425.800
G01 X392.556 Y422.198
G01 X393.957 Y409.860
G01 X390.815 Y391.722
G01 X386.267 Y374.304
G01 X385.460 Y371.738
G01 X374.970 Y354.727
G01 X363.164 Y346.620
G01 X353.874 Y347.040
G01 X345.093 Y346.878
G01 X338.885 Y349.921
G01 X332.610 Y352.591
G01 X331.464 Y353.036
G01 X316.865 Y334.174
G01 X318.346 Y327.865
G01 X319.375 Y321.621
G01 X319.963 Y315.470
G01 X320.120 Y309.440
G01 X319.862 Y303.558
G01 X319.203 Y297.851
G01 X318.160 Y292.343
G01 X316.751 Y287.057
G01 X314.995 Y282.017
G01 X312.914 Y277.242
G01 X310.530 Y272.752
G01 X307.866 Y268.565
G01 X304.945 Y264.697
G01 X301.793 Y261.162
G01 X298.436 Y257.975
G01 X294.900 Y255.145
G01 X291.213 Y252.683
G01 X287.401 Y250.596
G01 X283.494 Y248.889
G01 X279.518 Y247.567
G01 X275.502 Y246.631
G01 X271.475 Y246.083
G01 X267.465 Y245.920
G01 X263.500 Y246.138
G01 X259.607 Y246.734
G01 X255.815 Y247.699
G01 X253.021 Y248.672
G01 X300.706 Y230.629
G01 X350.054 Y217.306
G01 X400.715 Y208.817
G01 X413.508 Y207.464
G01 X421.191 Y206.324
G01 X423.366 Y207.077
G01 X430.704 Y211.427
G01 X430.311 Y211.624
G01 X424.314 Y214.210
G01 X421.207 Y214.866
G01 X418.397 Y214.248
G01 X417.095 Y213.545
G01 X414.252 Y208.863
G01 X411.034 Y207.884
G01 X411.120 Y208.515
G01 X415.322 Y215.418
G01 X417.503 Y216.603
G01 X421.201 Y217.411
G01 X425.068 Y216.603
G01 X431.342 Y213.900
G01 X433.961 Y212.345
G01 X434.800 Y210.978
G01 X423.667 Y204.323
G01 X422.702 Y203.798
G01 X420.072 Y203.936
G01 X410.772 Y205.470
G01 X408.441 Y207.086
G01 X408.699 Y209.341
G01 X413.165 Y216.633
G01 X413.533 Y217.275
G01 X416.636 Y218.970
G01 X421.206 Y219.940
G01 X425.835 Y218.983
G01 X432.364 Y216.174
G01 X435.833 Y214.067
G01 X438.245 Y210.112
G01 X427.015 Y203.310
G01 X423.864 Y201.600
G01 X419.324 Y201.529
G01 X408.282 Y203.575
G01 X408.046 Y203.747
G01 X405.841 Y206.214
G01 X406.305 Y210.171
G01 X410.733 Y217.348
G01 X411.758 Y219.142
G01 X415.763 Y221.323
G01 X421.180 Y222.497
G01 X426.570 Y221.378
G01 X433.405 Y218.441
G01 X437.725 Y215.742
G01 X441.694 Y209.261
G01 X430.389 Y202.304
G01 X425.063 Y199.413
G01 X418.661 Y199.099
G01 X406.039 Y201.423
G01 X404.580 Y203.230
G01 X403.214 Y205.128
G01 X403.885 Y211.001
G01 X408.298 Y218.057
G01 X409.996 Y221.017
G01 X414.887 Y223.678
G01 X421.165 Y225.040
G01 X427.344 Y223.758
G01 X434.414 Y220.712
G01 X439.620 Y217.411
G01 X445.141 Y208.406
G01 X444.348 Y207.925
G01 X432.988 Y200.872
G01 X426.269 Y197.225
G01 X418.065 Y196.663
G01 X404.278 Y199.284
G01 X403.920 Y199.555
G01 X401.995 Y202.482
G01 X400.706 Y204.846
G01 X401.463 Y211.824
G01 X405.850 Y218.762
G01 X408.219 Y222.889
G01 X414.011 Y226.050
G01 X421.164 Y227.587
G01 X428.086 Y226.155
G01 X435.441 Y222.977
G01 X441.540 Y219.049
G01 X447.811 Y208.829
G01 X448.445 Y207.474
G01 X445.615 Y205.783
G01 X434.255 Y198.730
G01 X427.490 Y195.056
G01 X417.486 Y194.236
G01 X403.190 Y196.997
G01 X401.713 Y198.085
G01 X397.990 Y203.327
G01 X398.915 Y210.956
G01 X399.067 Y212.650
G01 X403.409 Y219.474
G01 X406.426 Y224.755
G01 X413.152 Y228.404
G01 X421.150 Y230.126
G01 X428.842 Y228.543
G01 X436.441 Y225.264
G01 X443.466 Y220.681
G01 X450.018 Y210.016
G01 X451.680 Y206.464
G01 X446.868 Y203.655
G01 X435.535 Y196.590
G01 X428.716 Y192.870
G01 X416.942 Y191.790
G01 X402.109 Y194.699
G01 X399.479 Y196.618
G01 X395.447 Y203.088
G01 X396.388 Y210.600
G01 X396.648 Y213.490
G01 X400.966 Y220.196
G01 X404.644 Y226.627
G01 X412.264 Y230.763
G01 X421.150 Y232.671
G01 X429.590 Y230.927
G01 X437.458 Y227.529
G01 X445.394 Y222.285
G01 X452.210 Y211.194
G01 X454.892 Y205.470
G01 X448.124 Y201.494
G01 X436.766 Y194.431
G01 X429.933 Y190.711
G01 X416.393 Y189.355
G01 X401.041 Y192.404
G01 X397.263 Y195.140
G01 X392.921 Y202.843
G01 X392.912 Y202.894
G01 X393.866 Y210.290
G01 X394.228 Y214.322
G01 X398.525 Y220.909
G01 X402.517 Y227.833
G01 X402.869 Y228.488
G01 X411.395 Y233.121
G01 X421.137 Y235.211
G01 X430.354 Y233.305
G01 X438.472 Y229.813
G01 X447.331 Y223.900
G01 X454.204 Y212.716
G01 X454.392 Y212.384
G01 X458.102 Y204.468
G01 X449.395 Y199.361
G01 X438.036 Y192.288
G01 X431.157 Y188.535
G01 X415.878 Y186.899
G01 X399.939 Y190.129
G01 X395.047 Y193.674
G01 X390.418 Y202.608
G01 X390.385 Y202.744
G01 X391.363 Y210.020
G01 X391.829 Y215.141
G01 X396.097 Y221.612
G01 X400.065 Y228.419
G01 X401.103 Y230.352
G01 X410.520 Y235.481
G01 X421.113 Y237.761
G01 X431.111 Y235.698
G01 X439.479 Y232.078
G01 X449.273 Y225.486
G01 X456.185 Y214.290
G01 X456.589 Y213.579
G01 X461.314 Y203.477
G01 X450.674 Y197.217
G01 X439.291 Y190.138
G01 X432.398 Y186.380
G01 X415.364 Y184.468
G01 X398.865 Y187.831
G01 X392.848 Y192.197
G01 X388.151 Y201.842
G01 X387.956 Y202.206
G01 X387.881 Y202.602
G01 X388.858 Y209.768
G01 X389.407 Y215.973
G01 X393.650 Y222.326
G01 X397.598 Y229.015
G01 X399.320 Y232.222
G01 X409.638 Y237.844
G01 X421.101 Y240.305
G01 X431.860 Y238.089
G01 X440.509 Y234.362
G01 X451.222 Y227.062
G01 X458.175 Y215.851
G01 X458.797 Y214.759
G01 X464.212 Y203.153
G01 X464.636 Y202.520
G01 X451.937 Y195.067
G01 X440.529 Y187.981
G01 X433.622 Y184.218
G01 X414.859 Y182.021
G01 X397.756 Y185.551
G01 X390.625 Y190.743
G01 X386.229 Y200.316
G01 X385.523 Y201.694
G01 X385.343 Y202.458
G01 X386.349 Y209.502
G01 X386.993 Y216.529
G01 X387.011 Y216.804
G01 X391.222 Y223.043
G01 X395.145 Y229.616
G01 X397.545 Y234.092
G01 X408.772 Y240.191
G01 X421.101 Y242.860
G01 X432.602 Y240.477
G01 X441.509 Y236.629
G01 X453.179 Y228.628
G01 X460.153 Y217.402
G01 X460.992 Y215.928
G01 X466.392 Y204.374
G01 X468.146 Y201.721
G01 X455.072 Y193.930
G01 X453.212 Y192.926
G01 X441.791 Y185.827
G01 X434.853 Y182.040
G01 X415.675 Y179.682
G01 X414.349 Y179.582
G01 X396.658 Y183.271
G01 X388.411 Y189.265
G01 X384.205 Y198.807
G01 X383.132 Y200.965
G01 X382.823 Y202.311
G01 X383.837 Y209.241
G01 X384.493 Y216.155
G01 X384.588 Y217.634
G01 X388.770 Y223.755
G01 X392.669 Y230.211
G01 X395.751 Y235.964
G01 X407.900 Y242.557
G01 X421.088 Y245.396
G01 X433.361 Y242.863
G01 X442.530 Y238.897
G01 X455.147 Y230.203
G01 X462.138 Y218.960
G01 X463.180 Y217.126
G01 X468.561 Y205.604
G01 X471.671 Y200.871
G01 X469.576 Y199.651
G01 X456.472 Y191.858
G01 X454.472 Y190.781
G01 X443.016 Y183.674
G01 X436.082 Y179.894
G01 X417.311 Y177.403
G01 X413.849 Y177.123
G01 X395.547 Y180.998
G01 X386.194 Y187.801
G01 X381.914 Y197.416
G01 X380.976 Y199.289
G01 X380.299 Y202.171
G01 X381.333 Y208.983
G01 X382.016 Y215.780
G01 X382.190 Y218.462
G01 X386.348 Y224.467
G01 X390.229 Y230.806
G01 X393.809 Y237.465
G01 X393.986 Y237.818
G01 X406.297 Y244.478
G01 X407.018 Y244.910
G01 X421.088 Y247.946
G01 X434.114 Y245.248
G01 X443.524 Y241.188
G01 X457.122 Y231.746
G01 X464.144 Y220.479
G01 X465.381 Y218.306
G01 X470.740 Y206.814
G01 X475.225 Y200.036
G01 X470.821 Y197.503
G01 X457.737 Y189.704
G01 X455.741 Y188.626
G01 X444.259 Y181.504
G01 X437.311 Y177.714
G01 X418.815 Y175.139
G01 X413.350 Y174.688
G01 X394.446 Y178.722
G01 X383.991 Y186.329
G01 X380.173 Y195.803
G01 X378.275 Y199.862
G01 X377.770 Y202.038
G01 X378.816 Y208.734
G01 X379.516 Y215.417
G01 X379.765 Y219.287
G01 X383.897 Y225.176
G01 X387.756 Y231.397
G01 X391.322 Y237.939
G01 X392.202 Y239.700
G01 X404.716 Y246.407
G01 X406.151 Y247.267
G01 X421.074 Y250.495
G01 X434.860 Y247.633
G01 X444.540 Y243.460
G01 X459.084 Y233.300
G01 X466.140 Y222.008
G01 X467.572 Y219.494
G01 X472.937 Y208.048
G01 X478.753 Y199.206
G01 X472.074 Y195.348
G01 X458.972 Y187.551
G01 X457.001 Y186.488
G01 X445.498 Y179.348
G01 X438.563 Y175.558
G01 X420.346 Y172.886
G01 X412.867 Y172.247
G01 X393.353 Y176.440
G01 X381.756 Y184.869
G01 X378.890 Y193.978
G01 X375.789 Y201.890
G01 X376.602 Y208.576
G01 X377.066 Y215.226
G01 X377.078 Y215.513
G01 X367.720 Y211.759
G01 X358.318 Y208.835
G01 X348.930 Y206.735
G01 X339.614 Y205.450
G01 X330.428 Y204.965
G01 X321.427 Y205.266
G01 X312.664 Y206.332
G01 X304.195 Y208.138
G01 X296.068 Y210.659
G01 X288.334 Y213.865
G01 X281.040 Y217.721
G01 X274.229 Y222.193
G01 X267.944 Y227.241
G01 X262.225 Y232.823
G01 X257.109 Y238.897
G01 X252.627 Y245.415
G01 X251.205 Y247.810
G01 X257.725 Y234.171
G01 X262.892 Y219.920
G01 X266.666 Y205.157
G01 X269.009 Y189.986
G01 X269.892 Y174.511
G01 X269.294 Y158.840
G01 X267.262 Y143.439
G01 X276.140 Y84.653
G01 X275.871 Y83.549
G01 X275.789 Y82.423
G01 X277.374 Y74.801
G01 X276.719 Y72.601
G01 X272.791 Y65.024
G01 X272.576 Y65.400
G01 X269.653 Y71.227
G01 X268.852 Y74.309
G01 X269.297 Y77.174
G01 X269.933 Y78.479
G01 X274.436 Y81.589
G01 X275.247 Y84.844
G01 X274.619 Y84.749
G01 X267.965 Y80.173
G01 X266.884 Y77.901
G01 X266.309 Y74.180
G01 X267.316 Y70.358
G01 X270.365 Y64.238
G01 X272.053 Y61.712
G01 X273.485 Y60.953
G01 X279.977 Y73.452
G01 X279.677 Y76.064
G01 X277.631 Y85.276
G01 X275.890 Y87.499
G01 X273.652 Y87.108
G01 X266.039 Y81.866
G01 X265.989 Y81.833
G01 X264.479 Y78.636
G01 X263.752 Y74.037
G01 X264.981 Y69.471
G01 X268.168 Y63.081
G01 X270.453 Y59.746
G01 X274.532 Y57.557
G01 X281.745 Y71.373
G01 X282.225 Y72.400
G01 X282.045 Y76.942
G01 X279.389 Y87.842
G01 X279.199 Y88.061
G01 X276.600 Y90.148
G01 X272.686 Y89.470
G01 X265.176 Y84.252
G01 X264.033 Y83.515
G01 X262.082 Y79.377
G01 X261.213 Y73.907
G01 X262.627 Y68.589
G01 X265.946 Y61.950
G01 X268.878 Y57.775
G01 X275.562 Y54.161
G01 X282.914 Y67.965
G01 X284.491 Y71.324
G01 X284.435 Y77.733
G01 X281.410 Y90.208
G01 X279.515 Y91.576
G01 X277.546 Y92.821
G01 X271.723 Y91.835
G01 X264.317 Y86.621
G01 X262.070 Y85.166
G01 X259.675 Y80.125
G01 X258.675 Y73.788
G01 X260.292 Y67.690
G01 X263.740 Y60.798
G01 X267.331 Y55.772
G01 X276.613 Y50.770
G01 X277.046 Y51.610
G01 X284.462 Y65.422
G01 X286.719 Y70.237
G01 X286.830 Y78.459
G01 X283.439 Y92.102
G01 X283.157 Y92.426
G01 X280.127 Y94.186
G01 X277.696 Y95.335
G01 X270.767 Y94.178
G01 X263.459 Y89.005
G01 X260.095 Y86.837
G01 X257.275 Y80.881
G01 X256.138 Y73.657
G01 X257.954 Y66.823
G01 X261.529 Y59.649
G01 X265.789 Y53.784
G01 X276.266 Y48.119
G01 X276.335 Y48.085
G01 X277.748 Y47.517
G01 X279.259 Y50.459
G01 X286.637 Y64.193
G01 X288.962 Y69.149
G01 X289.240 Y79.174
G01 X285.670 Y93.283
G01 X284.512 Y94.714
G01 X279.045 Y98.153
G01 X271.573 Y96.810
G01 X269.796 Y96.547
G01 X262.590 Y91.379
G01 X258.145 Y88.505
G01 X254.866 Y81.620
G01 X253.600 Y73.512
G01 X255.614 Y65.936
G01 X259.312 Y58.526
G01 X264.276 Y51.763
G01 X274.792 Y46.077
G01 X275.280 Y45.834
G01 X278.913 Y44.373
G01 X281.477 Y49.329
G01 X288.821 Y62.987
G01 X291.201 Y68.057
G01 X291.632 Y79.870
G01 X287.903 Y94.503
G01 X285.850 Y97.020
G01 X279.147 Y100.693
G01 X271.799 Y99.355
G01 X268.845 Y98.921
G01 X261.739 Y93.784
G01 X256.170 Y90.194
G01 X252.464 Y82.343
G01 X251.058 Y73.378
G01 X253.273 Y65.029
G01 X257.090 Y57.380
G01 X262.771 Y49.757
G01 X273.330 Y44.011
G01 X274.220 Y43.566
G01 X280.103 Y41.209
G01 X283.689 Y48.167
G01 X291.002 Y61.770
G01 X293.436 Y66.958
G01 X294.048 Y80.531
G01 X290.121 Y95.706
G01 X287.192 Y99.322
G01 X279.265 Y103.214
G01 X279.216 Y103.230
G01 X271.993 Y101.878
G01 X267.872 Y101.270
G01 X260.865 Y96.149
G01 X254.206 Y91.856
G01 X250.066 Y83.100
G01 X248.514 Y73.256
G01 X250.928 Y64.152
G01 X254.882 Y56.237
G01 X261.277 Y47.714
G01 X271.881 Y41.941
G01 X273.154 Y41.305
G01 X281.270 Y38.070
G01 X285.887 Y47.023
G01 X293.176 Y60.554
G01 X295.668 Y65.853
G01 X296.444 Y81.198
G01 X292.347 Y96.925
G01 X288.526 Y101.594
G01 X280.052 Y105.393
G01 X279.363 Y105.733
G01 X279.209 Y105.753
G01 X272.111 Y104.393
G01 X266.921 Y103.625
G01 X260.012 Y98.532
G01 X252.643 Y93.776
G01 X252.252 Y93.541
G01 X247.656 Y83.842
G01 X245.965 Y73.121
G01 X248.580 Y63.280
G01 X252.669 Y55.093
G01 X259.793 Y45.685
G01 X270.441 Y39.883
G01 X272.101 Y39.055
G01 X282.440 Y34.908
G01 X288.113 Y45.878
G01 X295.375 Y59.374
G01 X297.895 Y64.741
G01 X298.860 Y81.855
G01 X294.575 Y98.131
G01 X289.870 Y103.892
G01 X281.498 Y107.341
G01 X279.613 Y108.209
G01 X279.214 Y108.280
G01 X272.241 Y106.913
G01 X265.949 Y105.980
G01 X259.137 Y100.901
G01 X251.864 Y96.153
G01 X250.278 Y95.200
G01 X245.250 Y84.568
G01 X243.429 Y72.997
G01 X246.246 Y62.388
G01 X250.449 Y53.951
G01 X258.339 Y43.668
G01 X269.039 Y37.793
G01 X271.047 Y36.786
G01 X282.352 Y32.230
G01 X282.920 Y32.022
G01 X283.581 Y31.642
G01 X290.324 Y44.749
G01 X297.569 Y58.176
G01 X300.137 Y63.626
G01 X301.264 Y82.494
G01 X296.798 Y99.351
G01 X291.212 Y106.189
G01 X282.924 Y109.387
G01 X280.002 Y110.669
G01 X279.216 Y110.808
G01 X272.366 Y109.447
G01 X265.453 Y108.422
G01 X264.983 Y108.365
G01 X258.269 Y103.296
G01 X251.093 Y98.554
G01 X248.315 Y96.884
G01 X242.848 Y85.330
G01 X240.886 Y72.859
G01 X243.908 Y61.498
G01 X248.244 Y52.833
G01 X256.878 Y41.613
G01 X267.629 Y35.706
G01 X269.987 Y34.525
G01 X281.364 Y29.953
G01 X281.818 Y29.787
G01 X284.590 Y28.181
G01 X292.529 Y43.586
G01 X299.755 Y56.980
G01 X302.368 Y62.527
G01 X303.685 Y83.149
G01 X299.002 Y100.580
G01 X292.553 Y108.484
G01 X284.332 Y111.509
G01 X280.584 Y113.100
G01 X279.213 Y113.337
G01 X272.490 Y111.959
G01 X265.702 Y110.911
G01 X264.031 Y110.705
G01 X257.412 Y105.656
G01 X250.331 Y100.932
G01 X246.348 Y98.544
G01 X240.446 Y86.053
G01 X238.335 Y72.733
G01 X241.565 Y60.613
G01 X246.012 Y51.690
G01 X255.429 Y39.570
G01 X266.233 Y33.619
G01 X268.923 Y32.271
G01 X280.375 Y27.670
G01 X280.736 Y27.538
G01 X285.618 Y24.698
G01 X286.716 Y26.876
G01 X294.721 Y42.406
G01 X294.737 Y42.442
G01 X301.947 Y55.804
G01 X304.594 Y61.418
G01 X306.105 Y83.762
G01 X301.224 Y101.803
G01 X293.904 Y110.784
G01 X285.700 Y113.832
G01 X282.136 Y115.357
G01 X279.219 Y115.871
G01 X272.621 Y114.487
G01 X265.958 Y113.428
G01 X263.060 Y113.071
G01 X256.536 Y108.025
G01 X249.548 Y103.300
G01 X244.394 Y100.205
G01 X238.032 Y86.813
G01 X235.794 Y72.593
G01 X239.218 Y59.730
G01 X243.813 Y50.546
G01 X253.839 Y37.670
G01 X253.972 Y37.512
G01 X264.829 Y31.547
G01 X267.878 Y30.025
G01 X279.408 Y25.375
G01 X279.627 Y25.295
G01 X286.661 Y21.219
G01 X288.930 Y25.754
G01 X296.903 Y41.217
G01 X296.949 Y41.316
G01 X304.146 Y54.645
G01 X306.814 Y60.300
G01 X308.501 Y84.405
G01 X303.429 Y103.036
G01 X295.236 Y113.079
G01 X287.156 Y115.747
G01 X281.418 Y118.013
G01 X279.219 Y118.405
G01 X272.746 Y117.017
G01 X266.207 Y115.948
G01 X262.101 Y115.443
G01 X255.671 Y110.413
G01 X248.776 Y105.701
G01 X242.424 Y101.894
G01 X235.632 Y87.534
G01 X233.261 Y72.462
G01 X236.884 Y58.849
G01 X241.590 Y49.426
G01 X251.532 Y36.664
G01 X252.552 Y35.465
G01 X263.467 Y29.435
G01 X266.809 Y27.760
G01 X278.413 Y23.108
G01 X278.537 Y23.062
G01 X287.695 Y17.739
G01 X291.149 Y24.626
G01 X299.100 Y39.998
G01 X299.175 Y40.160
G01 X306.359 Y53.474
G01 X309.048 Y59.177
G01 X310.873 Y82.811
G01 X310.933 Y85.018
G01 X305.630 Y104.283
G01 X296.585 Y115.356
G01 X288.685 Y117.470
G01 X281.108 Y120.024
G01 X280.276 Y120.338
G01 X273.738 Y119.773
G01 X272.287 Y119.692
G01 X257.001 Y192.090
G01 X250.657 Y242.428
G01 X250.431 Y238.524
G01 X249.822 Y234.633
G01 X248.833 Y230.784
G01 X247.466 Y227.004
G01 X245.726 Y223.321
G01 X243.621 Y219.763
G01 X241.157 Y216.356
G01 X238.347 Y213.127
G01 X235.201 Y210.102
G01 X231.733 Y207.306
G01 X227.959 Y204.762
G01 X223.896 Y202.494
G01 X219.561 Y200.524
G01 X214.975 Y198.873
G01 X210.159 Y197.561
G01 X205.135 Y196.606
G01 X199.928 Y196.024
G01 X194.562 Y195.832
G01 X189.063 Y196.042
G01 X183.459 Y196.669
G01 X177.776 Y197.721
G01 X172.737 Y199.005
G01 X110.620 Y159.241
G01 X109.704 Y158.265
G01 X108.790 Y157.607
G01 X101.490 Y154.854
G01 X99.975 Y153.141
G01 X95.662 Y145.746
G01 X96.098 Y145.771
G01 X102.608 Y146.416
G01 X105.635 Y147.374
G01 X107.807 Y149.282
G01 X108.600 Y150.542
G01 X108.817 Y156.024
G01 X111.139 Y158.448
G01 X111.384 Y157.852
G01 X111.061 Y149.760
G01 X109.716 Y147.654
G01 X106.896 Y145.158
G01 X103.114 Y143.982
G01 X96.311 Y143.294
G01 X93.269 Y143.351
G01 X91.860 Y144.142
G01 X98.939 Y156.322
G01 X101.329 Y157.496
G01 X110.194 Y160.686
G01 X113.019 Y160.413
G01 X113.886 Y158.294
G01 X113.530 Y149.008
G01 X111.643 Y146.018
G01 X108.139 Y142.941
G01 X103.618 Y141.514
G01 X96.530 Y140.809
G01 X92.462 Y140.948
G01 X88.423 Y143.216
G01 X96.850 Y157.678
G01 X100.791 Y159.953
G01 X111.431 Y163.550
G01 X111.725 Y163.503
G01 X114.868 Y162.430
G01 X116.387 Y158.749
G01 X115.988 Y148.488
G01 X115.987 Y148.231
G01 X113.548 Y144.385
G01 X109.397 Y140.722
G01 X104.119 Y139.057
G01 X96.723 Y138.316
G01 X91.630 Y138.559
G01 X85.001 Y142.278
G01 X94.746 Y159.015
G01 X100.180 Y162.401
G01 X112.362 Y166.522
G01 X114.536 Y165.657
G01 X116.645 Y164.658
G01 X118.903 Y159.193
G01 X118.469 Y148.993
G01 X118.463 Y147.472
G01 X115.474 Y142.743
G01 X110.640 Y138.501
G01 X104.635 Y136.624
G01 X96.941 Y135.829
G01 X90.802 Y136.182
G01 X81.575 Y141.357
G01 X83.515 Y146.850
G01 X90.989 Y157.517
G01 X99.534 Y164.827
G01 X112.861 Y169.244
G01 X113.299 Y169.189
G01 X116.413 Y167.565
G01 X118.697 Y166.137
G01 X121.417 Y159.654
G01 X120.931 Y149.502
G01 X120.918 Y146.703
G01 X117.380 Y141.103
G01 X111.886 Y136.291
G01 X105.139 Y134.171
G01 X97.185 Y133.349
G01 X89.927 Y133.805
G01 X80.343 Y139.137
G01 X79.450 Y139.672
G01 X78.218 Y140.573
G01 X79.714 Y146.207
G01 X88.475 Y160.012
G01 X98.852 Y167.233
G01 X112.690 Y171.784
G01 X114.525 Y171.550
G01 X120.337 Y168.782
G01 X123.251 Y161.662
G01 X123.945 Y160.106
G01 X123.405 Y149.998
G01 X123.383 Y145.926
G01 X119.298 Y139.466
G01 X113.129 Y134.061
G01 X105.631 Y131.696
G01 X97.389 Y130.874
G01 X89.021 Y131.443
G01 X79.370 Y136.813
G01 X78.099 Y137.575
G01 X74.930 Y139.877
G01 X75.714 Y145.673
G01 X86.761 Y162.471
G01 X98.134 Y169.622
G01 X112.512 Y174.302
G01 X115.737 Y173.910
G01 X122.434 Y170.237
G01 X125.268 Y163.216
G01 X126.450 Y160.562
G01 X125.879 Y150.512
G01 X125.857 Y145.183
G01 X121.216 Y137.845
G01 X114.377 Y131.842
G01 X106.137 Y129.246
G01 X97.610 Y128.376
G01 X88.116 Y129.095
G01 X78.381 Y134.494
G01 X76.766 Y135.462
G01 X71.619 Y139.183
G01 X71.333 Y144.236
G01 X74.416 Y149.423
G01 X84.582 Y164.136
G01 X97.416 Y172.033
G01 X112.334 Y176.837
G01 X116.959 Y176.281
G01 X124.086 Y171.919
G01 X124.512 Y171.676
G01 X124.543 Y171.626
G01 X127.301 Y164.703
G01 X128.948 Y160.997
G01 X128.342 Y150.999
G01 X128.322 Y144.418
G01 X123.127 Y136.211
G01 X115.641 Y129.618
G01 X106.649 Y126.789
G01 X97.842 Y125.898
G01 X87.211 Y126.763
G01 X77.392 Y132.191
G01 X75.426 Y133.368
G01 X68.329 Y138.469
G01 X68.536 Y145.355
G01 X80.329 Y162.957
G01 X82.531 Y165.900
G01 X96.690 Y174.426
G01 X112.171 Y179.364
G01 X118.177 Y178.636
G01 X124.917 Y174.121
G01 X126.571 Y173.099
G01 X126.669 Y172.989
G01 X129.364 Y166.174
G01 X131.470 Y161.456
G01 X130.809 Y151.492
G01 X130.779 Y143.631
G01 X125.034 Y134.561
G01 X116.880 Y127.399
G01 X107.156 Y124.339
G01 X98.065 Y123.426
G01 X86.298 Y124.415
G01 X76.392 Y129.873
G01 X74.070 Y131.263
G01 X65.026 Y137.787
G01 X64.699 Y141.855
G01 X65.869 Y147.321
G01 X72.842 Y157.344
G01 X80.253 Y167.691
G01 X95.956 Y176.803
G01 X112.017 Y181.896
G01 X119.402 Y181.012
G01 X125.854 Y176.411
G01 X128.550 Y174.652
G01 X128.825 Y174.351
G01 X131.437 Y167.631
G01 X133.985 Y161.899
G01 X133.279 Y151.971
G01 X133.245 Y142.880
G01 X126.962 Y132.944
G01 X118.137 Y125.174
G01 X107.669 Y121.883
G01 X98.273 Y120.929
G01 X85.349 Y122.085
G01 X75.371 Y127.584
G01 X72.750 Y129.155
G01 X63.456 Y135.808
G01 X62.352 Y136.652
G01 X61.681 Y136.991
G01 X61.684 Y145.949
G01 X72.860 Y163.182
G01 X76.151 Y167.690
G01 X95.200 Y179.195
G01 X111.872 Y184.433
G01 X120.625 Y183.370
G01 X126.844 Y178.719
G01 X130.417 Y176.290
G01 X130.959 Y175.701
G01 X133.502 Y169.084
G01 X136.411 Y162.539
G01 X136.495 Y162.364
G01 X135.742 Y152.470
G01 X135.699 Y142.302
G01 X135.705 Y142.108
G01 X128.868 Y131.293
G01 X119.386 Y122.970
G01 X108.174 Y119.433
G01 X98.508 Y118.468
G01 X84.410 Y119.754
G01 X74.348 Y125.288
G01 X71.401 Y127.055
G01 X62.027 Y133.768
G01 X61.045 Y134.517
G01 X58.199 Y135.994
G01 X59.250 Y148.284
G01 X64.611 Y157.296
G01 X71.675 Y166.573
G01 X94.464 Y181.567
G01 X111.720 Y186.952
G01 X121.835 Y185.734
G01 X127.878 Y181.067
G01 X132.164 Y178.080
G01 X133.094 Y177.049
G01 X135.564 Y170.532
G01 X138.394 Y164.084
G01 X139.004 Y162.803
G01 X138.211 Y152.942
G01 X138.130 Y142.804
G01 X138.178 Y141.333
G01 X130.779 Y129.656
G01 X120.635 Y120.741
G01 X108.673 Y116.990
G01 X98.740 Y115.967
G01 X84.531 Y117.283
G01 X83.447 Y117.426
G01 X73.310 Y123.003
G01 X70.055 Y124.958
G01 X60.608 Y131.735
G01 X59.732 Y132.404
G01 X54.718 Y135.006
G01 X55.959 Y137.092
G01 X57.167 Y150.123
G01 X57.356 Y151.588
G01 X69.463 Y167.968
G01 X93.682 Y183.949
G01 X111.572 Y189.491
G01 X123.062 Y188.103
G01 X129.064 Y183.496
G01 X133.243 Y180.600
G01 X135.222 Y178.409
G01 X137.621 Y171.994
G01 X140.377 Y165.645
G01 X141.515 Y163.257
G01 X140.675 Y153.421
G01 X140.552 Y143.304
G01 X140.642 Y140.579
G01 X132.695 Y128.030
G01 X121.890 Y118.518
G01 X109.189 Y114.525
G01 X98.948 Y113.485
G01 X84.784 Y114.803
G01 X82.478 Y115.116
G01 X72.239 Y120.718
G01 X68.703 Y122.832
G01 X59.183 Y129.675
G01 X58.415 Y130.262
G01 X51.215 Y134.011
G01 X53.808 Y138.373
G01 X55.222 Y151.499
G01 X55.549 Y153.735
G01 X64.143 Y165.595
G01 X92.943 Y186.322
G01 X111.417 Y192.014
G01 X124.285 Y190.464
G01 X129.964 Y185.762
G01 X135.796 Y181.470
G01 X135.871 Y181.418
G01 X137.357 Y179.756
G01 X139.681 Y173.441
G01 X142.357 Y167.186
G01 X144.017 Y163.700
G01 X143.132 Y153.884
G01 X142.968 Y143.785
G01 X143.103 Y139.805
G01 X134.610 Y126.388
G01 X123.138 Y116.312
G01 X109.684 Y112.080
G01 X99.176 Y111.010
G01 X85.041 Y112.321
G01 X81.517 Y112.807
G01 X71.195 Y118.449
G01 X67.362 Y120.743
G01 X57.762 Y127.647
G01 X57.123 Y128.136
G01 X47.712 Y133.023
G01 X51.686 Y139.646
G01 X53.112 Y152.770
G01 X53.518 Y155.503
G01 X60.614 Y165.701
G01 X92.164 Y188.692
G01 X111.279 Y194.531
G01 X125.214 Y192.850
G01 X125.500 Y192.828
G01 X130.542 Y187.873
G01 X132.184 Y186.371
G01 X137.776 Y182.076
G01 X140.189 Y180.373
G01 X165.361 Y190.317
G01 X189.242 Y202.527
G01 X211.670 Y216.897
G01 X232.493 Y233.312
G01 X245.498 Y245.416
G01 X241.586 Y242.235
G01 X237.360 Y239.435
G01 X232.848 Y237.039
G01 X228.080 Y235.067
G01 X223.088 Y233.539
G01 X217.903 Y232.471
G01 X212.559 Y231.878
G01 X207.090 Y231.772
G01 X201.532 Y232.165
G01 X195.920 Y233.063
G01 X190.292 Y234.472
G01 X184.683 Y236.396
G01 X179.131 Y238.835
G01 X173.672 Y241.789
G01 X168.345 Y245.252
G01 X163.187 Y249.219
G01 X158.232 Y253.682
G01 X153.519 Y258.627
G01 X149.082 Y264.044
G01 X145.823 Y268.603
G01 X86.965 Y279.316
G01 X85.741 Y278.858
G01 X84.637 Y278.643
G01 X76.888 Y279.308
G01 X74.763 Y278.408
G01 X67.698 Y273.613
G01 X68.105 Y273.450
G01 X74.253 Y271.229
G01 X77.398 Y270.797
G01 X80.166 Y271.584
G01 X81.427 Y272.366
G01 X83.964 Y277.206
G01 X87.107 Y278.400
G01 X87.072 Y277.752
G01 X83.319 Y270.608
G01 X81.197 Y269.278
G01 X77.562 Y268.244
G01 X73.649 Y268.801
G01 X67.216 Y271.115
G01 X64.510 Y272.500
G01 X63.591 Y273.823
G01 X74.443 Y281.257
G01 X75.208 Y281.737
G01 X77.854 Y281.754
G01 X87.241 Y280.814
G01 X89.663 Y279.344
G01 X89.545 Y277.083
G01 X85.528 Y269.519
G01 X85.200 Y268.854
G01 X82.206 Y266.973
G01 X77.739 Y265.704
G01 X73.057 Y266.380
G01 X66.333 Y268.783
G01 X62.762 Y270.663
G01 X60.092 Y274.444
G01 X70.989 Y282.038
G01 X73.902 Y283.869
G01 X78.455 Y284.222
G01 X89.583 Y282.871
G01 X89.830 Y282.704
G01 X92.198 Y280.383
G01 X91.992 Y276.410
G01 X88.009 Y268.962
G01 X87.095 Y267.104
G01 X83.245 Y264.681
G01 X77.904 Y263.176
G01 X72.447 Y263.951
G01 X65.457 Y266.451
G01 X60.965 Y268.873
G01 X56.596 Y275.091
G01 X67.586 Y282.836
G01 X72.584 Y285.966
G01 X78.938 Y286.677
G01 X91.706 Y285.150
G01 X93.278 Y283.439
G01 X94.762 Y281.616
G01 X94.438 Y275.729
G01 X90.479 Y268.398
G01 X88.980 Y265.345
G01 X84.261 Y262.372
G01 X78.079 Y260.640
G01 X71.846 Y261.509
G01 X64.587 Y264.121
G01 X59.189 Y267.087
G01 X53.098 Y275.725
G01 X53.873 Y276.242
G01 X64.888 Y284.086
G01 X71.233 Y288.067
G01 X79.407 Y289.136
G01 X93.323 Y287.382
G01 X93.706 Y287.158
G01 X95.781 Y284.359
G01 X97.230 Y282.069
G01 X96.911 Y275.053
G01 X92.969 Y267.840
G01 X90.879 Y263.592
G01 X85.283 Y260.079
G01 X78.241 Y258.098
G01 X71.231 Y259.091
G01 X63.723 Y261.790
G01 X57.384 Y265.328
G01 X50.477 Y275.134
G01 X49.742 Y276.469
G01 X52.495 Y278.319
G01 X63.510 Y286.156
G01 X69.899 Y290.163
G01 X79.814 Y291.613
G01 X94.244 Y289.756
G01 X95.823 Y288.763
G01 X99.847 Y283.752
G01 X99.407 Y276.164
G01 X99.359 Y274.374
G01 X95.439 Y267.278
G01 X92.771 Y261.848
G01 X86.310 Y257.783
G01 X78.415 Y255.546
G01 X70.649 Y256.659
G01 X62.839 Y259.462
G01 X55.548 Y263.577
G01 X48.350 Y273.806
G01 X46.467 Y277.254
G01 X51.080 Y280.371
G01 X62.082 Y288.210
G01 X68.531 Y292.262
G01 X80.228 Y294.076
G01 X95.197 Y292.096
G01 X97.939 Y290.356
G01 X102.373 Y284.147
G01 X101.912 Y276.676
G01 X101.833 Y273.700
G01 X97.933 Y266.722
G01 X94.678 Y260.096
G01 X87.317 Y255.486
G01 X78.577 Y253.019
G01 X70.050 Y254.232
G01 X61.985 Y257.131
G01 X53.732 Y261.851
G01 X46.312 Y272.373
G01 X46.237 Y272.486
G01 X43.194 Y278.050
G01 X49.683 Y282.432
G01 X60.697 Y290.269
G01 X67.174 Y294.336
G01 X80.606 Y296.555
G01 X96.121 Y294.467
G01 X100.062 Y291.967
G01 X104.881 Y284.547
G01 X104.898 Y284.513
G01 X104.400 Y277.161
G01 X104.283 Y273.024
G01 X100.397 Y266.163
G01 X96.842 Y258.976
G01 X96.552 Y258.342
G01 X88.356 Y253.187
G01 X78.751 Y250.481
G01 X69.434 Y251.790
G01 X61.111 Y254.782
G01 X51.909 Y260.133
G01 X44.449 Y270.665
G01 X44.112 Y271.180
G01 X39.920 Y278.836
G01 X48.280 Y284.504
G01 X59.305 Y292.343
G01 X65.811 Y296.426
G01 X80.967 Y299.029
G01 X97.077 Y296.804
G01 X102.162 Y293.572
G01 X107.346 Y284.957
G01 X107.387 Y284.811
G01 X106.876 Y277.574
G01 X106.734 Y272.358
G01 X102.874 Y265.613
G01 X99.337 Y258.542
G01 X98.443 Y256.583
G01 X89.377 Y250.885
G01 X78.938 Y247.932
G01 X68.826 Y249.368
G01 X60.241 Y252.450
G01 X50.052 Y258.425
G01 X42.582 Y268.969
G01 X41.996 Y269.864
G01 X36.648 Y279.633
G01 X46.890 Y286.564
G01 X57.927 Y294.405
G01 X64.461 Y298.506
G01 X81.335 Y301.493
G01 X98.002 Y299.161
G01 X104.291 Y295.171
G01 X109.413 Y286.126
G01 X109.800 Y285.502
G01 X109.909 Y285.117
G01 X109.378 Y277.997
G01 X109.208 Y271.669
G01 X105.364 Y265.042
G01 X101.839 Y258.088
G01 X100.353 Y254.837
G01 X90.381 Y248.581
G01 X79.087 Y245.403
G01 X68.226 Y246.930
G01 X59.375 Y250.116
G01 X48.212 Y256.724
G01 X40.714 Y267.284
G01 X39.891 Y268.540
G01 X33.765 Y279.769
G01 X33.292 Y280.365
G01 X45.488 Y288.613
G01 X56.525 Y296.465
G01 X63.104 Y300.602
G01 X81.686 Y303.955
G01 X98.964 Y301.499
G01 X106.402 Y296.777
G01 X111.238 Y287.780
G01 X112.194 Y286.175
G01 X112.409 Y285.413
G01 X111.858 Y278.409
G01 X111.660 Y271.437
G01 X111.659 Y270.995
G01 X107.833 Y264.483
G01 X104.319 Y257.646
G01 X102.232 Y253.076
G01 X91.418 Y246.290
G01 X79.274 Y242.861
G01 X67.633 Y244.511
G01 X58.513 Y247.781
G01 X46.362 Y255.033
G01 X38.819 Y265.613
G01 X37.772 Y267.209
G01 X31.666 Y278.414
G01 X29.739 Y280.952
G01 X42.446 Y289.637
G01 X44.103 Y290.669
G01 X55.148 Y298.531
G01 X61.730 Y302.675
G01 X81.153 Y306.310
G01 X82.026 Y306.432
G01 X99.919 Y303.852
G01 X108.519 Y298.383
G01 X113.154 Y289.413
G01 X114.523 Y287.044
G01 X114.918 Y285.719
G01 X114.342 Y278.833
G01 X114.114 Y271.976
G01 X114.110 Y270.317
G01 X110.305 Y263.921
G01 X106.808 Y257.199
G01 X104.131 Y251.329
G01 X92.440 Y243.980
G01 X79.449 Y240.321
G01 X67.022 Y242.074
G01 X57.629 Y245.442
G01 X44.502 Y253.352
G01 X36.913 Y263.955
G01 X35.638 Y265.894
G01 X29.554 Y277.054
G01 X26.140 Y281.572
G01 X28.179 Y282.915
G01 X40.872 Y291.609
G01 X42.685 Y292.740
G01 X53.753 Y300.612
G01 X60.348 Y304.763
G01 X79.390 Y308.476
G01 X82.373 Y308.902
G01 X100.888 Y306.196
G01 X110.644 Y299.988
G01 X115.354 Y290.962
G01 X116.589 Y288.842
G01 X117.432 Y286.021
G01 X116.840 Y279.250
G01 X116.592 Y272.507
G01 X116.589 Y269.646
G01 X112.798 Y263.368
G01 X109.308 Y256.764
G01 X106.144 Y249.849
G01 X106.026 Y249.570
G01 X93.696 Y241.853
G01 X93.446 Y241.681
G01 X79.613 Y237.781
G01 X66.416 Y239.655
G01 X56.772 Y243.120
G01 X42.632 Y251.682
G01 X35.024 Y262.310
G01 X33.540 Y264.570
G01 X27.455 Y275.709
G01 X22.567 Y282.192
G01 X26.801 Y284.992
G01 X39.513 Y293.676
G01 X41.302 Y294.790
G01 X52.378 Y302.677
G01 X58.977 Y306.840
G01 X77.672 Y310.629
G01 X82.726 Y311.365
G01 X101.841 Y308.527
G01 X112.754 Y301.599
G01 X117.001 Y292.680
G01 X119.313 Y288.446
G01 X119.950 Y286.316
G01 X119.331 Y279.663
G01 X119.049 Y273.037
G01 X119.041 Y268.964
G01 X115.266 Y262.801
G01 X111.787 Y256.312
G01 X108.628 Y249.512
G01 X107.917 Y247.828
G01 X95.415 Y240.035
G01 X94.462 Y239.378
G01 X79.789 Y235.242
G01 X65.818 Y237.218
G01 X55.894 Y240.775
G01 X40.750 Y250.002
G01 X33.114 Y260.657
G01 X31.402 Y263.266
G01 X25.367 Y274.358
G01 X18.994 Y282.816
G01 X25.415 Y287.076
G01 X38.146 Y295.753
G01 X39.910 Y296.850
G01 X51.009 Y304.751
G01 X57.621 Y308.922
G01 X75.966 Y312.798
G01 X83.045 Y313.857
G01 X102.790 Y310.875
G01 X114.873 Y303.207
G01 X118.979 Y294.353
G01 X121.744 Y287.229
G01 X121.829 Y280.474
G01 X122.202 Y274.500
G01 X146.056 Y269.862
G01 X162.883 Y262.252
G01 X180.164 Y256.347
G01 X197.772 Y252.171
G01 X215.579 Y249.741
G01 X233.455 Y249.062
G01 X245.144 Y249.568
G01 X238.532 Y249.544
G01 X231.921 Y250.170
G01 X225.360 Y251.442
G01 X218.897 Y253.358
G01 X212.578 Y255.911
G01 X206.450 Y259.088
G01 X200.559 Y262.879
G01 X194.951 Y267.265
G01 X189.669 Y272.228
G01 X184.757 Y277.745
G01 X180.255 Y283.791
G01 X176.204 Y290.340
G01 X172.642 Y297.359
G01 X169.604 Y304.817
G01 X167.125 Y312.679
G01 X165.236 Y320.906
G01 X163.967 Y329.459
G01 X163.345 Y338.297
G01 X163.394 Y347.376
G01 X164.136 Y356.651
G01 X165.590 Y366.075
G01 X167.771 Y375.601
G01 X170.692 Y385.179
G01 X174.363 Y394.759
G01 X175.898 Y398.263
G01 X176.049 Y400.096
G01 X175.936 Y401.239
G01 X173.129 Y408.492
G01 X173.413 Y410.764
G01 X176.053 Y418.896
G01 X176.324 Y418.551
G01 X180.165 Y413.267
G01 X181.462 Y410.368
G01 X181.488 Y407.466
G01 X181.078 Y406.058
G01 X177.143 Y402.267
G01 X176.872 Y398.913
G01 X177.471 Y399.122
G01 X183.301 Y404.737
G01 X183.972 Y407.141
G01 X183.949 Y410.922
G01 X182.318 Y414.522
G01 X178.305 Y420.055
G01 X176.232 Y422.270
G01 X174.719 Y422.788
G01 X170.596 Y410.277
G01 X170.348 Y409.408
G01 X171.071 Y406.862
G01 X174.573 Y398.127
G01 X176.666 Y396.215
G01 X178.811 Y396.966
G01 X184.977 Y402.940
G01 X185.500 Y403.418
G01 X186.467 Y406.792
G01 X186.429 Y411.461
G01 X184.499 Y415.779
G01 X180.313 Y421.535
G01 X177.495 Y424.458
G01 X173.125 Y425.966
G01 X168.876 Y413.338
G01 X167.947 Y410.070
G01 X168.867 Y405.620
G01 X173.273 Y395.284
G01 X173.492 Y395.117
G01 X176.400 Y393.473
G01 X180.139 Y394.776
G01 X186.196 Y400.701
G01 X187.716 Y402.091
G01 X188.956 Y406.463
G01 X188.934 Y411.998
G01 X186.660 Y417.018
G01 X182.312 Y423.032
G01 X178.741 Y426.670
G01 X171.543 Y429.148
G01 X167.158 Y416.421
G01 X165.548 Y410.768
G01 X166.650 Y404.444
G01 X171.659 Y392.626
G01 X173.747 Y391.598
G01 X175.903 Y390.679
G01 X181.479 Y392.618
G01 X187.436 Y398.476
G01 X189.932 Y400.748
G01 X191.457 Y406.109
G01 X191.408 Y412.537
G01 X188.825 Y418.275
G01 X184.295 Y424.516
G01 X179.937 Y428.894
G01 X169.954 Y432.328
G01 X169.655 Y431.431
G01 X165.190 Y418.639
G01 X163.147 Y411.474
G01 X164.401 Y403.324
G01 X169.962 Y390.445
G01 X170.299 Y390.147
G01 X173.572 Y388.913
G01 X176.168 Y388.160
G01 X182.822 Y390.434
G01 X188.667 Y396.247
G01 X192.137 Y399.412
G01 X193.952 Y405.773
G01 X193.901 Y413.097
G01 X190.980 Y419.546
G01 X186.287 Y426.024
G01 X181.125 Y431.121
G01 X169.790 Y435.011
G01 X168.318 Y435.350
G01 X167.307 Y432.186
G01 X162.840 Y419.409
G01 X160.774 Y412.175
G01 X162.145 Y402.244
G01 X167.973 Y388.886
G01 X169.344 Y387.662
G01 X175.291 Y385.179
G01 X182.479 Y387.734
G01 X184.147 Y388.269
G01 X189.887 Y394.025
G01 X194.346 Y398.088
G01 X196.450 Y405.434
G01 X196.374 Y413.637
G01 X193.158 Y420.789
G01 X188.290 Y427.504
G01 X182.304 Y433.352
G01 X170.473 Y437.426
G01 X166.628 Y438.266
G01 X164.936 Y432.968
G01 X160.464 Y420.203
G01 X158.371 Y412.898
G01 X159.890 Y401.153
G01 X165.959 Y387.325
G01 X168.400 Y385.181
G01 X175.591 Y382.656
G01 X182.661 Y385.201
G01 X185.477 Y386.105
G01 X191.111 Y391.811
G01 X196.559 Y396.774
G01 X198.928 Y405.108
G01 X198.876 Y414.174
G01 X195.327 Y422.047
G01 X190.294 Y428.979
G01 X183.457 Y435.581
G01 X171.238 Y439.786
G01 X171.133 Y439.818
G01 X164.966 Y441.193
G01 X162.562 Y433.730
G01 X158.095 Y420.954
G01 X155.996 Y413.618
G01 X157.623 Y400.102
G01 X163.961 Y385.786
G01 X167.442 Y382.717
G01 X175.906 Y380.135
G01 X175.958 Y380.136
G01 X182.910 Y382.667
G01 X186.824 Y383.922
G01 X192.347 Y389.582
G01 X198.276 Y395.016
G01 X198.767 Y395.440
G01 X201.434 Y404.758
G01 X201.351 Y414.716
G01 X197.488 Y423.320
G01 X192.292 Y430.473
G01 X184.592 Y437.838
G01 X172.364 Y442.046
G01 X171.824 Y442.210
G01 X163.274 Y444.107
G01 X160.194 Y434.504
G01 X155.722 Y421.728
G01 X153.603 Y414.340
G01 X155.357 Y399.068
G01 X161.963 Y384.230
G01 X166.495 Y380.227
G01 X176.213 Y377.660
G01 X176.365 Y377.661
G01 X183.203 Y380.175
G01 X188.151 Y381.756
G01 X193.569 Y387.362
G01 X199.391 Y392.748
G01 X200.977 Y394.115
G01 X203.921 Y404.422
G01 X203.835 Y415.273
G01 X199.656 Y424.560
G01 X194.293 Y431.964
G01 X185.724 Y440.076
G01 X173.474 Y444.313
G01 X172.499 Y444.611
G01 X161.612 Y447.033
G01 X157.824 Y435.261
G01 X153.357 Y422.461
G01 X151.240 Y415.061
G01 X153.087 Y398.022
G01 X159.966 Y382.657
G01 X165.549 Y377.731
G01 X175.703 Y375.335
G01 X176.373 Y375.148
G01 X176.775 Y375.152
G01 X183.494 Y377.653
G01 X189.494 Y379.569
G01 X194.804 Y385.125
G01 X200.516 Y390.465
G01 X203.195 Y392.774
G01 X206.413 Y404.079
G01 X206.334 Y415.822
G01 X201.817 Y425.817
G01 X196.278 Y433.445
G01 X186.826 Y442.315
G01 X174.540 Y446.607
G01 X173.176 Y447.027
G01 X160.695 Y449.772
G01 X159.970 Y450.050
G01 X155.459 Y436.030
G01 X150.989 Y423.218
G01 X148.861 Y415.785
G01 X150.816 Y396.992
G01 X157.995 Y381.084
G01 X164.602 Y375.259
G01 X174.636 Y373.116
G01 X176.393 Y372.660
G01 X177.187 Y372.667
G01 X183.789 Y375.156
G01 X190.459 Y377.295
G01 X190.817 Y377.399
G01 X196.019 Y382.909
G01 X201.622 Y388.208
G01 X205.390 Y391.458
G01 X208.903 Y403.752
G01 X208.817 Y416.353
G01 X203.978 Y427.067
G01 X198.284 Y434.930
G01 X187.936 Y444.566
G01 X175.623 Y448.881
G01 X173.843 Y449.428
G01 X161.393 Y452.159
G01 X158.401 Y453.319
G01 X153.604 Y438.659
G01 X153.083 Y436.805
G01 X148.612 Y423.969
G01 X146.482 Y416.522
G01 X148.399 Y396.842
G01 X148.525 Y395.969
G01 X155.994 Y379.533
G01 X163.646 Y372.772
G01 X173.589 Y370.828
G01 X176.218 Y370.184
G01 X177.592 Y370.171
G01 X184.074 Y372.652
G01 X190.624 Y374.789
G01 X192.156 Y375.237
G01 X197.253 Y380.694
G01 X202.749 Y385.945
G01 X207.606 Y390.127
G01 X211.406 Y403.394
G01 X211.295 Y416.896
G01 X206.152 Y428.339
G01 X200.294 Y436.412
G01 X189.032 Y446.824
G01 X176.693 Y451.155
G01 X174.520 Y451.822
G01 X162.111 Y454.569
G01 X156.809 Y456.578
G01 X156.086 Y454.243
G01 X151.287 Y439.577
G01 X150.724 Y437.573
G01 X146.236 Y424.735
G01 X144.087 Y417.262
G01 X145.840 Y397.902
G01 X146.259 Y394.951
G01 X154.019 Y377.952
G01 X162.705 Y370.287
G01 X172.730 Y368.275
G01 X175.062 Y367.693
G01 X178.003 Y367.672
G01 X184.365 Y370.146
G01 X190.794 Y372.281
G01 X193.486 Y373.069
G01 X198.477 Y378.475
G01 X203.866 Y383.680
G01 X209.644 Y388.659
G01 X209.819 Y388.801
G01 X213.791 Y402.785
G01 X213.887 Y403.073
G01 X213.786 Y417.454
G01 X208.316 Y429.576
G01 X202.288 Y437.887
G01 X190.135 Y449.094
G01 X177.766 Y453.444
G01 X175.198 Y454.233
G01 X162.818 Y456.962
G01 X155.234 Y459.844
G01 X153.723 Y454.992
G01 X148.917 Y440.348
G01 X148.353 Y438.347
G01 X143.860 Y425.483
G01 X141.706 Y417.996
G01 X143.276 Y398.965
G01 X143.971 Y393.939
G01 X152.028 Y376.370
G01 X161.741 Y367.806
G01 X171.530 Y366.214
G01 X176.203 Y365.188
G01 X178.421 Y365.169
G01 X184.667 Y367.628
G01 X190.979 Y369.754
G01 X194.828 Y370.879
G01 X199.709 Y376.242
G01 X204.987 Y381.411
G01 X210.653 Y386.359
G01 X212.028 Y387.477
G01 X216.030 Y401.625
G01 X216.396 Y402.722
G01 X216.280 Y417.999
G01 X210.476 Y430.831
G01 X204.304 Y439.365
G01 X191.211 Y451.343
G01 X178.805 Y455.723
G01 X175.864 Y456.628
G01 X163.534 Y459.346
G01 X153.636 Y463.100
G01 X151.351 Y455.748
G01 X146.546 Y441.105
G01 X145.982 Y439.105
G01 X141.489 Y426.205
G01 X139.341 Y418.724
G01 X140.751 Y399.972
G01 X141.706 Y392.933
G01 X150.059 Y374.787
G01 X160.794 Y365.325
G01 X170.015 Y364.612
G01 X178.944 Y363.283
G01 X179.305 Y363.216
G01 X185.488 Y365.577
G01 X191.730 Y367.607
G01 X198.016 Y369.305
G01 X200.358 Y369.851
G01 X205.357 Y346.251
G01 X229.099 Y299.520
G01 X232.347 Y298.317
G01 X235.424 Y296.920
G01 X238.320 Y295.343
G01 X241.024 Y293.600
G01 X243.528 Y291.706
G01 X245.824 Y289.677
G01 X247.905 Y287.528
G01 X249.764 Y285.277
G01 X251.398 Y282.939
G01 X252.801 Y280.532
G01 X253.972 Y278.071
G01 X254.910 Y275.575
G01 X255.613 Y273.060
G01 X256.082 Y270.542
G01 X256.319 Y268.040
G01 X256.327 Y265.569
G01 X256.110 Y263.146
G01 X255.673 Y260.787
G01 X255.022 Y258.507
G01 X254.163 Y256.322
G01 X253.106 Y254.246
G01 X251.857 Y252.294
G01 X251.651 Y252.009
G01 X263.318 Y267.927
G01 X273.398 Y284.958
G01 X281.813 Y302.982
G01 X288.491 Y321.874
G01 X293.369 Y341.508
G01 X296.392 Y361.751
G01 X297.516 Y382.467
G01 X296.702 Y403.517
G01 X296.163 Y409.088
G01 X297.136 Y410.106
G01 X297.761 Y411.042
G01 X300.208 Y418.426
G01 X301.876 Y420.038
G01 X309.051 Y424.610
G01 X309.062 Y424.184
G01 X308.668 Y417.656
G01 X307.842 Y414.608
G01 X306.014 Y412.359
G01 X304.808 Y411.530
G01 X299.339 Y411.088
G01 X297.026 Y408.678
G01 X297.614 Y408.451
G01 X305.671 Y409.091
G01 X307.722 Y410.512
G01 X310.111 Y413.447
G01 X311.131 Y417.253
G01 X311.546 Y424.091
G01 X311.339 Y427.104
G01 X310.506 Y428.499
G01 X298.751 Y420.998
G01 X298.633 Y420.916
G01 X297.577 Y418.486
G01 X294.752 Y409.516
G01 X295.132 Y406.705
G01 X297.278 Y405.915
G01 X306.026 Y406.635
G01 X306.533 Y406.662
G01 X309.433 Y408.659
G01 X312.375 Y412.302
G01 X313.611 Y416.861
G01 X314.037 Y423.963
G01 X313.716 Y428.016
G01 X311.292 Y431.954
G01 X299.382 Y424.468
G01 X297.199 Y422.950
G01 X295.082 Y418.912
G01 X291.941 Y408.159
G01 X291.981 Y407.863
G01 X293.200 Y404.759
G01 X296.936 Y403.405
G01 X305.570 Y404.144
G01 X307.408 Y404.238
G01 X311.154 Y406.823
G01 X314.645 Y411.142
G01 X316.085 Y416.462
G01 X316.518 Y423.860
G01 X316.073 Y428.941
G01 X312.083 Y435.407
G01 X300.020 Y427.945
G01 X295.791 Y425.008
G01 X292.614 Y419.423
G01 X288.999 Y407.107
G01 X289.956 Y404.982
G01 X291.041 Y402.913
G01 X296.574 Y400.875
G01 X305.095 Y401.640
G01 X308.270 Y401.800
G01 X312.861 Y404.987
G01 X316.904 Y409.973
G01 X318.552 Y416.056
G01 X319.016 Y423.744
G01 X318.410 Y429.881
G01 X312.890 Y438.880
G01 X312.088 Y438.356
G01 X299.941 Y430.922
G01 X294.388 Y427.071
G01 X290.182 Y419.991
G01 X286.298 Y406.496
G01 X286.380 Y406.066
G01 X288.122 Y403.049
G01 X289.650 Y400.799
G01 X296.230 Y398.338
G01 X304.642 Y399.137
G01 X309.143 Y399.367
G01 X314.586 Y403.138
G01 X319.179 Y408.812
G01 X321.014 Y415.644
G01 X321.497 Y423.631
G01 X320.753 Y430.853
G01 X314.460 Y441.043
G01 X313.522 Y442.253
G01 X310.736 Y440.450
G01 X298.620 Y433.041
G01 X292.988 Y429.139
G01 X287.735 Y420.576
G01 X283.768 Y406.575
G01 X284.070 Y404.744
G01 X287.080 Y399.057
G01 X294.181 Y396.500
G01 X295.880 Y395.828
G01 X304.181 Y396.650
G01 X310.010 Y396.944
G01 X316.282 Y401.293
G01 X321.438 Y407.671
G01 X323.498 Y415.241
G01 X323.995 Y423.506
G01 X323.067 Y431.818
G01 X316.558 Y442.415
G01 X316.514 Y442.482
G01 X314.076 Y445.571
G01 X309.396 Y442.547
G01 X297.302 Y435.151
G01 X291.611 Y431.209
G01 X285.312 Y421.196
G01 X281.234 Y406.641
G01 X281.763 Y403.447
G01 X285.717 Y396.895
G01 X292.715 Y394.405
G01 X295.538 Y393.288
G01 X303.731 Y394.144
G01 X310.861 Y394.507
G01 X317.994 Y399.433
G01 X323.705 Y406.514
G01 X325.961 Y414.840
G01 X326.476 Y423.383
G01 X325.368 Y432.824
G01 X318.854 Y443.460
G01 X318.554 Y443.914
G01 X314.634 Y448.886
G01 X308.048 Y444.654
G01 X295.969 Y437.255
G01 X290.215 Y433.264
G01 X282.901 Y421.803
G01 X278.699 Y406.719
G01 X279.448 Y402.126
G01 X284.360 Y394.779
G01 X284.397 Y394.744
G01 X291.294 Y392.318
G01 X295.189 Y390.775
G01 X303.274 Y391.661
G01 X311.551 Y392.086
G01 X311.742 Y392.090
G01 X319.703 Y397.594
G01 X325.965 Y405.346
G01 X328.421 Y414.432
G01 X328.970 Y423.279
G01 X327.684 Y433.835
G01 X321.156 Y444.493
G01 X320.598 Y445.334
G01 X315.197 Y452.199
G01 X306.705 Y446.741
G01 X294.646 Y439.373
G01 X288.831 Y435.351
G01 X280.472 Y422.428
G01 X276.173 Y406.780
G01 X277.132 Y400.804
G01 X282.978 Y392.707
G01 X283.013 Y392.655
G01 X283.124 Y392.552
G01 X289.918 Y390.188
G01 X294.833 Y388.237
G01 X302.810 Y389.159
G01 X310.982 Y389.624
G01 X312.605 Y389.660
G01 X321.414 Y395.744
G01 X328.245 Y404.182
G01 X330.905 Y414.033
G01 X331.454 Y423.147
G01 X329.978 Y434.866
G01 X323.442 Y445.575
G01 X322.654 Y446.765
G01 X315.752 Y455.539
G01 X305.355 Y448.839
G01 X293.305 Y441.472
G01 X287.449 Y437.420
G01 X278.073 Y423.063
G01 X273.640 Y406.828
G01 X274.835 Y399.501
G01 X280.763 Y391.754
G01 X281.553 Y390.629
G01 X281.860 Y390.354
G01 X288.553 Y388.066
G01 X294.496 Y385.717
G01 X302.365 Y386.668
G01 X310.432 Y387.166
G01 X313.472 Y387.232
G01 X323.124 Y393.913
G01 X330.514 Y403.038
G01 X333.371 Y413.635
G01 X333.941 Y423.012
G01 X332.259 Y435.888
G01 X325.714 Y446.649
G01 X324.694 Y448.192
G01 X316.950 Y458.054
G01 X316.782 Y458.254
G01 X316.413 Y458.897
G01 X304.018 Y450.941
G01 X291.974 Y443.578
G01 X286.074 Y439.497
G01 X275.653 Y423.716
G01 X271.104 Y406.887
G01 X272.518 Y398.174
G01 X278.511 Y390.722
G01 X279.999 Y388.693
G01 X280.597 Y388.178
G01 X287.188 Y385.954
G01 X293.635 Y383.417
G01 X294.144 Y383.201
G01 X301.902 Y384.172
G01 X309.859 Y384.694
G01 X314.331 Y384.785
G01 X324.849 Y392.063
G01 X332.779 Y401.881
G01 X335.852 Y413.224
G01 X336.423 Y422.904
G01 X334.553 Y436.915
G01 X327.991 Y447.712
G01 X326.736 Y449.608
G01 X318.949 Y459.513
G01 X318.846 Y459.634
G01 X317.277 Y462.426
G01 X303.688 Y453.761
G01 X302.674 Y453.054
G01 X290.627 Y445.666
G01 X284.702 Y441.557
G01 X273.244 Y424.383
G01 X268.575 Y406.930
G01 X270.205 Y396.867
G01 X276.240 Y389.596
G01 X278.278 Y386.885
G01 X279.330 Y385.998
G01 X285.817 Y383.829
G01 X292.161 Y381.353
G01 X293.794 Y380.656
G01 X301.450 Y381.671
G01 X309.308 Y382.242
G01 X315.189 Y382.368
G01 X326.548 Y390.216
G01 X335.040 Y400.714
G01 X338.316 Y412.815
G01 X338.909 Y422.793
G01 X336.824 Y437.966
G01 X330.250 Y448.824
G01 X328.789 Y451.037
G01 X320.964 Y461.008
G01 X320.928 Y461.050
G01 X318.113 Y465.964
G01 X316.062 Y464.613
G01 X302.484 Y455.949
G01 X301.339 Y455.149
G01 X289.296 Y447.782
G01 X283.325 Y443.654
G01 X271.467 Y426.067
G01 X270.842 Y425.038
G01 X266.054 Y406.981
G01 X267.893 Y395.554
G01 X273.925 Y388.215
G01 X275.803 Y385.693
G01 X278.070 Y383.787
G01 X284.456 Y381.695
G01 X290.705 Y379.300
G01 X293.448 Y378.134
G01 X300.999 Y379.183
G01 X308.756 Y379.792
G01 X316.060 Y379.948
G01 X328.261 Y388.377
G01 X337.309 Y399.555
G01 X340.779 Y412.400
G01 X341.405 Y422.647
G01 X339.108 Y439.025
G01 X332.510 Y449.916
G01 X330.823 Y452.464
G01 X323.004 Y462.431
G01 X318.961 Y469.497
G01 X314.715 Y466.693
G01 X301.161 Y458.047
G01 X299.992 Y457.230
G01 X287.948 Y449.872
G01 X281.952 Y445.734
G01 X270.219 Y428.605
G01 X268.449 Y425.709
G01 X263.524 Y407.019
G01 X265.582 Y394.236
G01 X271.698 Y387.329
G01 X275.090 Y383.030
G01 X276.807 Y381.623
G01 X283.090 Y379.590
G01 X289.239 Y377.259
G01 X293.110 Y375.608
G01 X300.556 Y376.685
G01 X308.208 Y377.326
G01 X316.041 Y377.514
G01 X316.919 Y377.506
G01 X329.976 Y386.524
G01 X339.573 Y398.414
G01 X343.255 Y412.002
G01 X343.898 Y422.528
G01 X341.455 Y439.652
G01 X341.376 Y440.077
G01 X334.765 Y451.032
G01 X332.868 Y453.904
G01 X325.067 Y463.831
G01 X319.803 Y473.032
G01 X313.366 Y468.783
G01 X299.839 Y460.179
G01 X298.645 Y459.348
G01 X286.588 Y451.954
G01 X280.586 Y447.799
G01 X268.964 Y431.114
G01 X266.044 Y426.372
G01 X260.982 Y407.042
G01 X263.274 Y392.910
G01 X269.356 Y385.678
G01 X270.192 Y384.594
G01 X276.090 Y380.041
G01 X277.245 Y379.081
G01 X283.297 Y376.644
G01 X285.259 Y375.776
G01 X279.116 Y352.911
G01 X281.790 Y344.408
G01 X283.705 Y335.908
G01 X284.870 Y327.463
G01 X285.294 Y319.127
G01 X284.992 Y310.952
G01 X283.982 Y302.989
G01 X282.284 Y295.286
G01 X279.922 Y287.892
G01 X276.924 Y280.853
G01 X273.318 Y274.212
G01 X269.138 Y268.013
G01 X264.418 Y262.294
G01 X259.197 Y257.093
G01 X254.390 Y253.102
G01 X379.050 Y336.665
G01 X379.484 Y337.899
G01 X380.169 Y339.069
G01 X386.686 Y345.468
G01 X387.495 Y348.051
G01 X388.597 Y358.029
G01 X388.158 Y357.820
G01 X381.463 Y353.998
G01 X378.663 Y351.533
G01 X377.240 Y348.442
G01 X377.000 Y346.743
G01 X379.372 Y340.745
G01 X378.037 Y337.047
G01 X377.482 Y337.549
G01 X374.619 Y344.907
G01 X373.983 Y346.399
G01 X374.410 Y349.292
G01 X376.285 Y353.335
G01 X379.758 Y356.394
G01 X386.740 Y360.369
G01 X390.053 Y361.753
G01 X391.946 Y361.578
G01 X390.835 Y349.927
G01 X390.125 Y345.102
G01 X388.108 Y342.728
G01 X380.106 Y335.071
G01 X376.959 Y334.032
G01 X375.001 Y335.863
G01 X372.217 Y343.097
G01 X370.957 Y346.042
G01 X371.563 Y350.143
G01 X373.882 Y355.126
G01 X378.048 Y358.794
G01 X385.334 Y362.949
G01 X389.754 Y364.706
G01 X395.183 Y364.216
G01 X394.149 Y352.365
G01 X393.012 Y344.657
G01 X389.872 Y340.322
G01 X380.137 Y331.405
G01 X379.812 Y331.310
G01 X375.913 Y330.970
G01 X372.532 Y334.203
G01 X369.824 Y341.312
G01 X367.943 Y345.685
G01 X368.738 Y350.986
G01 X371.481 Y356.909
G01 X376.331 Y361.200
G01 X383.911 Y365.516
G01 X389.523 Y367.681
G01 X398.429 Y366.842
G01 X397.478 Y354.796
G01 X395.920 Y344.228
G01 X391.673 Y337.992
G01 X380.570 Y327.768
G01 X377.829 Y327.668
G01 X375.064 Y327.728
G01 X370.043 Y332.528
G01 X367.428 Y339.523
G01 X364.930 Y345.336
G01 X365.895 Y351.829
G01 X369.072 Y358.698
G01 X374.629 Y363.587
G01 X382.519 Y368.089
G01 X389.292 Y370.644
G01 X401.662 Y369.485
G01 X401.540 Y368.385
G01 X400.642 Y356.207
G01 X398.930 Y344.414
G01 X398.821 Y343.819
G01 X393.535 Y335.704
G01 X381.311 Y324.606
G01 X380.824 Y324.451
G01 X376.712 Y324.717
G01 X373.583 Y325.172
G01 X368.310 Y330.173
G01 X367.563 Y330.841
G01 X365.044 Y337.724
G01 X362.129 Y344.552
G01 X361.930 Y344.984
G01 X363.062 Y352.674
G01 X366.682 Y360.498
G01 X372.918 Y365.984
G01 X381.079 Y370.647
G01 X389.113 Y373.616
G01 X402.178 Y372.406
G01 X403.148 Y372.278
G01 X404.872 Y371.914
G01 X404.454 Y368.047
G01 X403.542 Y355.833
G01 X401.819 Y344.004
G01 X401.714 Y343.431
G01 X395.438 Y333.443
G01 X382.718 Y321.968
G01 X380.644 Y321.334
G01 X373.066 Y321.542
G01 X367.958 Y326.554
G01 X365.075 Y329.164
G01 X362.643 Y335.929
G01 X359.821 Y342.643
G01 X358.905 Y344.631
G01 X360.228 Y353.532
G01 X364.273 Y362.275
G01 X371.197 Y368.390
G01 X379.670 Y373.215
G01 X388.937 Y376.577
G01 X402.003 Y375.401
G01 X403.591 Y375.192
G01 X408.107 Y374.230
G01 X407.364 Y367.723
G01 X406.447 Y355.475
G01 X404.723 Y343.611
G01 X404.617 Y343.036
G01 X397.333 Y331.194
G01 X384.110 Y319.339
G01 X380.444 Y318.206
G01 X371.506 Y318.987
G01 X366.512 Y323.938
G01 X362.588 Y327.486
G01 X360.254 Y334.141
G01 X357.534 Y340.751
G01 X355.904 Y344.296
G01 X357.384 Y354.373
G01 X361.879 Y364.067
G01 X369.489 Y370.782
G01 X378.242 Y375.774
G01 X388.779 Y379.514
G01 X401.848 Y378.366
G01 X404.029 Y378.082
G01 X411.315 Y376.542
G01 X410.279 Y367.398
G01 X409.354 Y355.110
G01 X407.624 Y343.205
G01 X407.522 Y342.651
G01 X399.245 Y328.970
G01 X385.501 Y316.693
G01 X380.268 Y315.091
G01 X369.950 Y316.448
G01 X369.908 Y316.472
G01 X365.025 Y321.359
G01 X360.109 Y325.796
G01 X357.865 Y332.335
G01 X355.241 Y338.833
G01 X352.889 Y343.943
G01 X354.547 Y355.215
G01 X359.469 Y365.866
G01 X367.781 Y373.176
G01 X376.827 Y378.328
G01 X388.651 Y382.490
G01 X401.701 Y381.342
G01 X404.471 Y380.978
G01 X414.513 Y378.865
G01 X413.180 Y367.059
G01 X412.258 Y354.735
G01 X410.535 Y342.794
G01 X410.438 Y342.262
G01 X401.729 Y327.607
G01 X401.160 Y326.743
G01 X386.879 Y314.053
G01 X380.070 Y311.964
G01 X368.741 Y313.896
G01 X368.417 Y313.937
G01 X368.243 Y313.996
G01 X363.479 Y318.823
G01 X358.531 Y323.338
G01 X357.623 Y324.117
G01 X355.471 Y330.541
G01 X352.944 Y336.930
G01 X350.041 Y343.262
G01 X349.881 Y343.588
G01 X351.608 Y355.032
G01 X351.717 Y356.057
G01 X357.064 Y367.652
G01 X366.073 Y375.571
G01 X375.411 Y380.892
G01 X388.526 Y385.425
G01 X401.612 Y384.320
G01 X404.903 Y383.894
G01 X417.744 Y381.183
G01 X417.747 Y381.182
G01 X416.177 Y367.284
G01 X416.097 Y366.752
G01 X415.165 Y354.379
G01 X413.435 Y342.388
G01 X413.347 Y341.902
G01 X404.981 Y327.442
G01 X403.095 Y324.536
G01 X388.252 Y311.405
G01 X379.892 Y308.847
G01 X368.865 Y311.049
G01 X367.030 Y311.327
G01 X366.609 Y311.537
G01 X361.950 Y316.298
G01 X357.110 Y320.751
G01 X355.138 Y322.436
G01 X353.077 Y328.746
G01 X350.647 Y335.024
G01 X347.845 Y341.251
G01 X346.861 Y343.246
G01 X348.653 Y354.772
G01 X348.881 Y356.907
G01 X354.681 Y369.446
G01 X364.364 Y377.969
G01 X373.993 Y383.467
G01 X388.415 Y388.382
G01 X401.517 Y387.295
G01 X405.353 Y386.801
G01 X418.293 Y384.126
G01 X420.072 Y383.686
G01 X420.977 Y383.625
G01 X419.482 Y369.541
G01 X419.010 Y366.417
G01 X418.069 Y353.993
G01 X416.332 Y341.952
G01 X416.253 Y341.512
G01 X408.175 Y327.208
G01 X405.036 Y322.323
G01 X389.613 Y308.761
G01 X379.711 Y305.727
G01 X368.901 Y308.151
G01 X365.808 Y308.678
G01 X364.944 Y309.051
G01 X360.408 Y313.755
G01 X355.692 Y318.157
G01 X352.646 Y320.765
G01 X350.678 Y326.960
G01 X348.345 Y333.130
G01 X345.645 Y339.254
G01 X343.850 Y342.894
G01 X345.703 Y354.512
G01 X346.049 Y357.757
G01 X352.272 Y371.221
G01 X362.652 Y380.372
G01 X372.569 Y386.024
G01 X388.346 Y391.334
G01 X401.463 Y390.254
G01 X405.791 Y389.695
G01 X418.775 Y387.011
G01 X420.480 Y386.591
G01 X424.231 Y386.364
G01 X422.830 Y372.084
G01 X421.929 Y366.085
G01 X420.976 Y353.605
G01 X419.227 Y341.508
G01 X419.161 Y341.139
G01 X411.320 Y326.953
G01 X406.970 Y320.133
G01 X390.993 Y306.115
G01 X379.525 Y302.604
G01 X368.803 Y305.187
G01 X364.776 Y305.923
G01 X363.306 Y306.587
G01 X358.879 Y311.227
G01 X354.273 Y315.571
G01 X350.162 Y319.082
G01 X348.286 Y325.163
G01 X346.050 Y331.224
G01 X343.453 Y337.243
G01 X340.839 Y342.541
G01 X342.748 Y354.261
G01 X343.208 Y358.614
G01 X349.868 Y373.015
G01 X360.937 Y382.780
G01 X371.143 Y388.593
G01 X388.244 Y394.287
G01 X401.384 Y393.220
G01 X406.236 Y392.595
G01 X419.259 Y389.893
G01 X420.862 Y389.497
G01 X427.508 Y389.073
G01 X427.147 Y386.235
G01 X425.746 Y371.917
G01 X424.822 Y365.762
G01 X423.869 Y353.231
G01 X422.123 Y341.082
G01 X422.070 Y340.784
G01 X414.458 Y326.701
G01 X408.913 Y317.934
G01 X392.342 Y303.461
G01 X379.334 Y299.478
G01 X368.356 Y302.071
G01 X364.833 Y302.704
G01 X361.654 Y304.111
G01 X357.341 Y308.692
G01 X352.851 Y312.982
G01 X348.203 Y316.975
G01 X347.679 Y317.398
G01 X345.894 Y323.364
G01 X343.754 Y329.314
G01 X341.258 Y335.228
G01 X338.404 Y341.085
G01 X337.820 Y342.192
G01 X339.806 Y354.055
G01 X340.380 Y359.459
G01 X347.479 Y374.822
G01 X359.216 Y385.165
G01 X369.711 Y391.145
G01 X387.732 Y397.105
G01 X388.188 Y397.234
G01 X401.349 Y396.170
G01 X406.671 Y395.481
G01 X419.750 Y392.774
G01 X421.253 Y392.404
G01 X430.802 Y391.800
G01 X430.076 Y385.897
G01 X428.655 Y371.542
G01 X427.733 Y365.427
G01 X426.771 Y352.837
G01 X425.017 Y340.628
G01 X424.976 Y340.402
G01 X417.571 Y326.405
G01 X410.866 Y315.727
G01 X393.705 Y300.815
G01 X379.154 Y296.368
G01 X368.622 Y299.284
G01 X362.393 Y300.581
G01 X360.008 Y301.639
G01 X355.808 Y306.161
G01 X351.433 Y310.397
G01 X346.901 Y314.341
G01 X345.190 Y315.723
G01 X343.496 Y321.574
G01 X341.453 Y327.415
G01 X339.058 Y333.224
G01 X336.310 Y338.981
G01 X334.803 Y341.834
G01 X336.857 Y353.851
G01 X337.540 Y360.310
G01 X345.073 Y376.602
G01 X357.521 Y387.566
G01 X368.291 Y393.700
G01 X385.980 Y399.582
G01 X388.132 Y400.186
G01 X401.340 Y399.146
G01 X407.119 Y398.404
G01 X420.227 Y395.664
G01 X421.653 Y395.311
G01 X434.079 Y394.548
G01 X432.986 Y385.554
G01 X431.561 Y371.170
G01 X430.649 Y365.099
G01 X429.674 Y352.444
G01 X427.907 Y340.171
G01 X427.884 Y340.042
G01 X420.660 Y326.108
G01 X412.816 Y313.540
G01 X395.881 Y298.829
G01 X395.058 Y298.180
G01 X378.970 Y293.238
G01 X369.315 Y296.631
G01 X359.655 Y299.187
G01 X358.826 Y299.368
G01 X354.491 Y303.732
G01 X349.994 Y307.792
G01 X345.906 Y311.119
G01 X341.043 Y307.956
G01 X341.580 Y302.167
G01 X341.774 Y296.469
G01 X341.634 Y290.879
G01 X341.172 Y285.418
G01 X340.401 Y280.103
G01 X339.333 Y274.951
G01 X337.984 Y269.977
G01 X336.368 Y265.198
G01 X334.500 Y260.626
G01 X332.399 Y256.275
G01 X330.079 Y252.156
G01 X327.561 Y248.280
G01 X324.860 Y244.657
G01 X321.998 Y241.294
G01 X318.991 Y238.198
G01 X315.860 Y235.375
G01 X312.624 Y232.830
G01 X309.304 Y230.565
G01 X305.917 Y228.583
G01 X302.484 Y226.884
G01 X299.026 Y225.468
G01 X295.560 Y224.334
G01 X292.106 Y223.477
G01 X288.683 Y222.894
G01 X285.309 Y222.580
G01 X282.002 Y222.527
G01 X278.780 Y222.729
G01 X275.659 Y223.177
G01 X272.656 Y223.862
G01 X269.785 Y224.771
G01 X267.063 Y225.895
G01 X264.501 Y227.220
G01 X262.114 Y228.733
G01 X259.914 Y230.420
G01 X257.911 Y232.267
G01 X256.116 Y234.257
G01 X254.537 Y236.375
G01 X253.183 Y238.605
G01 X252.060 Y240.928
G01 X251.174 Y243.329
G01 X250.726 Y244.927
G01 X252.743 Y235.832
G01 X255.651 Y226.945
G01 X259.431 Y218.330
G01 X264.065 Y210.053
G01 X269.525 Y202.175
G01 X275.785 Y194.758
G01 X282.810 Y187.860
G01 X290.563 Y181.538
G01 X299.004 Y175.847
G01 X308.089 Y170.837
G01 X317.771 Y166.559
G01 X327.998 Y163.058
G01 X338.718 Y160.376
G01 X349.872 Y158.552
G01 X361.403 Y157.622
G01 X373.248 Y157.618
G01 X378.027 Y157.880
G01 X378.685 Y156.741
G01 X385.260 Y150.357
G01 X386.076 Y147.769
G01 X387.249 Y137.799
G01 X386.795 Y138.034
G01 X380.083 Y141.800
G01 X377.272 Y144.246
G01 X375.825 Y147.327
G01 X375.568 Y149.035
G01 X377.905 Y155.043
G01 X376.547 Y158.733
G01 X376.016 Y158.213
G01 X373.123 Y150.719
G01 X372.550 Y149.365
G01 X372.997 Y146.461
G01 X374.888 Y142.434
G01 X378.400 Y139.387
G01 X385.391 Y135.447
G01 X388.708 Y134.109
G01 X390.604 Y134.281
G01 X389.363 Y146.340
G01 X388.686 Y150.735
G01 X386.664 Y153.110
G01 X378.601 Y160.726
G01 X375.439 Y161.745
G01 X373.519 Y159.880
G01 X370.722 Y152.495
G01 X369.543 Y149.695
G01 X370.159 Y145.604
G01 X372.506 Y140.628
G01 X376.691 Y136.982
G01 X384.000 Y132.871
G01 X388.439 Y131.123
G01 X393.863 Y131.671
G01 X392.710 Y143.917
G01 X391.589 Y151.205
G01 X388.398 Y155.516
G01 X378.619 Y164.400
G01 X378.280 Y164.477
G01 X374.387 Y164.789
G01 X371.024 Y161.552
G01 X368.312 Y154.285
G01 X366.516 Y150.030
G01 X367.330 Y144.742
G01 X370.095 Y138.831
G01 X375.004 Y134.566
G01 X382.610 Y130.290
G01 X388.214 Y128.160
G01 X397.112 Y129.048
G01 X396.037 Y141.489
G01 X394.473 Y151.644
G01 X390.207 Y157.856
G01 X379.033 Y168.017
G01 X376.293 Y168.099
G01 X373.531 Y168.035
G01 X368.524 Y163.215
G01 X365.903 Y156.062
G01 X363.500 Y150.369
G01 X364.509 Y143.874
G01 X367.714 Y137.034
G01 X373.301 Y132.169
G01 X381.202 Y127.719
G01 X388.009 Y125.190
G01 X400.374 Y126.442
G01 X400.234 Y127.535
G01 X399.222 Y140.092
G01 X397.387 Y152.079
G01 X392.051 Y160.164
G01 X379.765 Y171.185
G01 X379.275 Y171.341
G01 X375.158 Y171.057
G01 X372.026 Y170.571
G01 X366.772 Y165.554
G01 X366.027 Y164.883
G01 X363.497 Y157.842
G01 X360.552 Y150.848
G01 X360.486 Y150.702
G01 X361.667 Y143.009
G01 X365.320 Y135.228
G01 X371.600 Y129.773
G01 X379.806 Y125.155
G01 X387.838 Y122.228
G01 X400.688 Y123.481
G01 X401.853 Y123.641
G01 X403.597 Y124.025
G01 X403.151 Y127.886
G01 X402.125 Y140.468
G01 X400.281 Y152.479
G01 X393.926 Y162.426
G01 X381.141 Y173.844
G01 X379.069 Y174.460
G01 X371.493 Y174.199
G01 X366.407 Y169.176
G01 X363.533 Y166.555
G01 X361.096 Y159.626
G01 X358.247 Y152.738
G01 X357.474 Y151.032
G01 X358.842 Y142.151
G01 X362.939 Y133.406
G01 X369.906 Y127.348
G01 X378.398 Y122.569
G01 X387.673 Y119.275
G01 X400.529 Y120.503
G01 X402.330 Y120.749
G01 X406.831 Y121.739
G01 X406.061 Y128.224
G01 X405.032 Y140.828
G01 X403.185 Y152.886
G01 X395.808 Y164.702
G01 X382.521 Y176.478
G01 X378.868 Y177.575
G01 X369.924 Y176.751
G01 X364.966 Y171.785
G01 X361.054 Y168.206
G01 X358.702 Y161.393
G01 X355.944 Y154.616
G01 X354.465 Y151.361
G01 X356.011 Y141.279
G01 X360.548 Y131.615
G01 X368.206 Y124.952
G01 X376.997 Y120.017
G01 X387.546 Y116.327
G01 X400.418 Y117.532
G01 X402.778 Y117.853
G01 X410.065 Y119.415
G01 X408.956 Y128.579
G01 X407.936 Y141.199
G01 X406.100 Y153.300
G01 X397.716 Y166.923
G01 X383.900 Y179.126
G01 X378.647 Y180.699
G01 X368.354 Y179.277
G01 X368.312 Y179.254
G01 X363.465 Y174.356
G01 X358.559 Y169.877
G01 X356.292 Y163.180
G01 X353.626 Y156.515
G01 X351.433 Y151.699
G01 X353.177 Y140.434
G01 X358.167 Y129.805
G01 X366.506 Y122.552
G01 X375.582 Y117.441
G01 X387.431 Y113.358
G01 X400.311 Y114.552
G01 X403.230 Y114.950
G01 X413.298 Y117.130
G01 X411.875 Y128.918
G01 X410.834 Y141.582
G01 X408.984 Y153.700
G01 X399.656 Y169.109
G01 X399.613 Y169.173
G01 X385.270 Y181.777
G01 X378.455 Y183.822
G01 X367.611 Y181.908
G01 X366.796 Y181.800
G01 X366.634 Y181.722
G01 X361.909 Y176.888
G01 X356.992 Y172.351
G01 X356.059 Y171.541
G01 X353.887 Y164.954
G01 X351.320 Y158.394
G01 X348.423 Y152.025
G01 X350.324 Y139.815
G01 X350.353 Y139.559
G01 X355.761 Y128.014
G01 X364.822 Y120.130
G01 X374.179 Y114.867
G01 X387.340 Y110.411
G01 X400.245 Y111.587
G01 X403.702 Y112.057
G01 X416.404 Y114.793
G01 X416.511 Y114.820
G01 X414.803 Y129.123
G01 X414.780 Y129.270
G01 X413.740 Y141.965
G01 X411.898 Y154.090
G01 X402.955 Y169.253
G01 X401.549 Y171.387
G01 X386.626 Y184.420
G01 X378.234 Y186.942
G01 X367.723 Y184.751
G01 X365.399 Y184.383
G01 X364.970 Y184.185
G01 X360.359 Y179.418
G01 X355.560 Y174.943
G01 X353.563 Y173.212
G01 X351.485 Y166.733
G01 X349.017 Y160.278
G01 X346.155 Y153.867
G01 X345.419 Y152.357
G01 X347.363 Y140.057
G01 X347.514 Y138.701
G01 X353.374 Y126.213
G01 X363.118 Y117.721
G01 X372.787 Y112.291
G01 X387.247 Y107.459
G01 X400.177 Y108.622
G01 X404.147 Y109.160
G01 X416.941 Y111.872
G01 X418.856 Y112.355
G01 X419.765 Y112.403
G01 X418.107 Y126.907
G01 X417.678 Y129.604
G01 X416.632 Y142.339
G01 X414.792 Y154.479
G01 X406.172 Y169.442
G01 X403.460 Y173.602
G01 X387.982 Y187.082
G01 X378.040 Y190.062
G01 X367.736 Y187.668
G01 X364.163 Y187.036
G01 X363.316 Y186.643
G01 X358.816 Y181.944
G01 X354.131 Y177.531
G01 X351.063 Y174.877
G01 X349.072 Y168.514
G01 X346.696 Y162.169
G01 X343.932 Y155.864
G01 X342.385 Y152.697
G01 X344.420 Y140.236
G01 X344.692 Y137.823
G01 X350.992 Y124.389
G01 X361.425 Y115.317
G01 X371.376 Y109.721
G01 X387.166 Y104.516
G01 X400.149 Y105.644
G01 X404.619 Y106.241
G01 X417.454 Y108.975
G01 X419.270 Y109.434
G01 X423.039 Y109.692
G01 X421.472 Y124.390
G01 X420.593 Y129.950
G01 X419.535 Y142.732
G01 X417.696 Y154.868
G01 X409.372 Y169.659
G01 X405.399 Y175.810
G01 X389.327 Y189.739
G01 X377.843 Y193.182
G01 X367.648 Y190.637
G01 X363.118 Y189.778
G01 X361.648 Y189.105
G01 X357.264 Y184.471
G01 X352.697 Y180.119
G01 X348.567 Y176.549
G01 X346.669 Y170.296
G01 X344.391 Y164.055
G01 X341.730 Y157.851
G01 X339.376 Y153.031
G01 X341.466 Y140.431
G01 X341.853 Y136.965
G01 X348.592 Y122.592
G01 X359.729 Y112.905
G01 X369.960 Y107.167
G01 X387.102 Y101.550
G01 X400.103 Y102.683
G01 X405.063 Y103.351
G01 X417.955 Y106.096
G01 X419.673 Y106.529
G01 X426.345 Y106.982
G01 X425.974 Y109.832
G01 X424.417 Y124.550
G01 X423.513 Y130.293
G01 X422.446 Y143.123
G01 X420.609 Y155.258
G01 X412.532 Y169.912
G01 X407.322 Y178.036
G01 X390.660 Y192.392
G01 X377.640 Y196.303
G01 X367.232 Y193.759
G01 X363.155 Y193.002
G01 X359.971 Y191.580
G01 X355.714 Y187.004
G01 X351.277 Y182.703
G01 X346.674 Y178.684
G01 X346.088 Y178.201
G01 X344.277 Y172.062
G01 X342.090 Y165.932
G01 X339.524 Y159.832
G01 X336.578 Y153.785
G01 X336.357 Y153.363
G01 X338.525 Y140.571
G01 X339.023 Y136.116
G01 X346.218 Y120.790
G01 X358.027 Y110.515
G01 X368.541 Y104.598
G01 X386.095 Y98.859
G01 X387.053 Y98.592
G01 X400.086 Y99.724
G01 X405.516 Y100.458
G01 X418.483 Y103.201
G01 X420.105 Y103.607
G01 X429.651 Y104.272
G01 X428.871 Y110.195
G01 X427.315 Y124.925
G01 X426.417 Y130.644
G01 X425.336 Y143.528
G01 X423.500 Y155.640
G01 X415.659 Y170.175
G01 X409.261 Y180.227
G01 X392.013 Y195.046
G01 X377.431 Y199.425
G01 X367.457 Y196.571
G01 X360.690 Y195.115
G01 X358.320 Y194.031
G01 X354.172 Y189.521
G01 X349.846 Y185.282
G01 X345.358 Y181.319
G01 X343.587 Y179.866
G01 X341.871 Y173.834
G01 X339.785 Y167.806
G01 X337.323 Y161.802
G01 X334.485 Y155.846
G01 X333.353 Y153.685
G01 X335.589 Y140.691
G01 X336.193 Y135.238
G01 X343.828 Y118.982
G01 X356.335 Y108.095
G01 X367.133 Y102.024
G01 X384.367 Y96.387
G01 X387.006 Y95.662
G01 X400.094 Y96.772
G01 X405.980 Y97.561
G01 X418.989 Y100.335
G01 X420.510 Y100.717
G01 X432.956 Y101.560
G01 X431.768 Y110.547
G01 X430.216 Y125.292
G01 X429.326 Y130.988
G01 X428.240 Y143.924
G01 X426.411 Y156.036
G01 X418.772 Y170.477
G01 X411.210 Y182.426
G01 X393.358 Y197.700
G01 X377.213 Y202.549
G01 X367.949 Y199.281
G01 X358.687 Y196.800
G01 X356.519 Y196.331
G01 X352.228 Y192.036
G01 X347.777 Y188.030
G01 X344.163 Y185.078
G01 X336.284 Y184.037
G01 X328.540 Y183.605
G01 X320.972 Y183.765
G01 X313.620 Y184.499
G01 X306.520 Y185.784
G01 X299.708 Y187.598
G01 X293.220 Y189.915
G01 X287.086 Y192.706
G01 X281.339 Y195.944
G01 X276.005 Y199.595
G01 X271.111 Y203.627
G01 X266.682 Y208.006
G01 X262.738 Y212.694
G01 X259.299 Y217.655
G01 X256.382 Y222.851
G01 X253.999 Y228.241
G01 X252.164 Y233.786
G01 X250.885 Y239.445
G01 X250.167 Y245.177
G01 X250.087 Y246.401
G01 X249.459 Y228.372
G01 X247.063 Y210.440
G01 X242.910 Y192.734
G01 X237.017 Y175.384
G01 X229.412 Y158.516
G01 X222.537 Y146.145
G01 X209.392 Y98.886
G01 X210.064 Y97.311
G01 X210.345 Y95.999
G01 X209.905 Y86.880
G01 X211.052 Y84.419
G01 X216.993 Y76.334
G01 X217.173 Y76.809
G01 X219.504 Y84.130
G01 X219.902 Y87.845
G01 X218.854 Y91.073
G01 X217.887 Y92.490
G01 X212.075 Y95.306
G01 X210.554 Y98.940
G01 X211.293 Y98.930
G01 X218.394 Y95.460
G01 X219.859 Y94.800
G01 X221.510 Y92.379
G01 X222.877 Y88.132
G01 X222.395 Y83.523
G01 X219.962 Y75.872
G01 X218.449 Y72.609
G01 X216.935 Y71.461
G01 X209.954 Y80.653
G01 X207.126 Y84.798
G01 X206.981 Y87.912
G01 X207.691 Y98.964
G01 X209.308 Y101.888
G01 X211.978 Y101.851
G01 X218.934 Y98.407
G01 X221.841 Y97.096
G01 X224.174 Y93.669
G01 X225.860 Y88.444
G01 X225.274 Y82.920
G01 X222.731 Y74.936
G01 X220.663 Y70.633
G01 X216.339 Y67.325
G01 X209.162 Y76.609
G01 X204.685 Y83.170
G01 X204.064 Y88.506
G01 X205.177 Y101.649
G01 X205.359 Y101.933
G01 X208.000 Y104.828
G01 X212.681 Y104.768
G01 X219.491 Y101.356
G01 X223.821 Y99.409
G01 X226.836 Y94.971
G01 X228.834 Y88.758
G01 X228.159 Y82.316
G01 X225.498 Y73.997
G01 X222.861 Y68.619
G01 X215.732 Y63.192
G01 X208.363 Y72.580
G01 X202.263 Y81.533
G01 X201.153 Y88.971
G01 X202.403 Y104.040
G01 X204.349 Y105.961
G01 X206.422 Y107.776
G01 X213.364 Y107.664
G01 X220.033 Y104.292
G01 X225.807 Y101.711
G01 X229.491 Y96.262
G01 X231.815 Y89.074
G01 X231.035 Y81.715
G01 X228.286 Y73.078
G01 X225.028 Y66.592
G01 X215.151 Y59.054
G01 X214.491 Y59.964
G01 X206.990 Y69.410
G01 X200.325 Y79.116
G01 X199.854 Y79.861
G01 X198.236 Y89.412
G01 X199.701 Y105.848
G01 X199.966 Y106.285
G01 X203.172 Y108.892
G01 X205.781 Y110.674
G01 X213.173 Y110.574
G01 X214.042 Y110.588
G01 X220.565 Y107.237
G01 X227.330 Y104.195
G01 X227.783 Y104.006
G01 X232.157 Y97.566
G01 X234.788 Y89.369
G01 X233.921 Y81.114
G01 X231.071 Y72.129
G01 X227.179 Y64.524
G01 X216.457 Y56.344
G01 X215.953 Y55.990
G01 X214.428 Y55.095
G01 X212.119 Y58.231
G01 X204.597 Y67.713
G01 X197.909 Y77.454
G01 X197.448 Y78.182
G01 X195.320 Y89.800
G01 X196.891 Y106.833
G01 X197.992 Y108.718
G01 X203.705 Y113.697
G01 X210.987 Y113.472
G01 X214.737 Y113.507
G01 X221.112 Y110.174
G01 X227.730 Y107.142
G01 X229.760 Y106.293
G01 X234.817 Y98.861
G01 X237.773 Y89.691
G01 X236.801 Y80.513
G01 X233.845 Y71.228
G01 X229.302 Y62.464
G01 X218.613 Y54.278
G01 X217.588 Y53.556
G01 X213.635 Y51.199
G01 X209.761 Y56.489
G01 X202.213 Y66.008
G01 X195.498 Y75.784
G01 X195.048 Y76.494
G01 X192.393 Y90.164
G01 X194.077 Y107.855
G01 X196.014 Y111.151
G01 X203.117 Y116.625
G01 X210.279 Y116.372
G01 X215.434 Y116.425
G01 X221.663 Y113.118
G01 X228.134 Y110.105
G01 X231.741 Y108.599
G01 X237.472 Y100.173
G01 X240.738 Y89.993
G01 X239.692 Y79.887
G01 X236.619 Y70.297
G01 X231.414 Y60.409
G01 X220.753 Y52.216
G01 X219.229 Y51.142
G01 X212.843 Y47.328
G01 X207.403 Y54.768
G01 X199.828 Y64.323
G01 X193.083 Y74.133
G01 X192.644 Y74.826
G01 X189.468 Y90.500
G01 X191.268 Y108.857
G01 X194.024 Y113.561
G01 X202.538 Y119.540
G01 X202.594 Y119.573
G01 X209.631 Y119.282
G01 X216.120 Y119.346
G01 X222.203 Y116.063
G01 X228.527 Y113.067
G01 X233.718 Y110.900
G01 X239.983 Y101.683
G01 X240.135 Y101.477
G01 X243.717 Y90.299
G01 X242.566 Y79.287
G01 X239.398 Y69.361
G01 X233.527 Y58.306
G01 X222.890 Y50.120
G01 X220.867 Y48.697
G01 X212.048 Y43.458
G01 X205.041 Y53.041
G01 X197.436 Y62.635
G01 X190.661 Y72.482
G01 X190.257 Y73.117
G01 X186.796 Y89.343
G01 X186.551 Y90.830
G01 X188.461 Y109.840
G01 X192.055 Y115.991
G01 X201.957 Y122.448
G01 X202.128 Y122.517
G01 X209.040 Y122.191
G01 X215.868 Y122.233
G01 X216.809 Y122.267
G01 X222.745 Y119.006
G01 X228.922 Y116.024
G01 X235.327 Y113.337
G01 X235.690 Y113.196
G01 X241.938 Y103.929
G01 X242.792 Y102.776
G01 X246.697 Y90.609
G01 X245.455 Y78.685
G01 X242.184 Y68.443
G01 X235.611 Y56.234
G01 X224.987 Y48.019
G01 X222.510 Y46.271
G01 X211.246 Y39.564
G01 X203.082 Y50.707
G01 X202.676 Y51.308
G01 X195.040 Y60.945
G01 X188.231 Y70.835
G01 X187.852 Y71.431
G01 X184.284 Y87.365
G01 X183.641 Y91.154
G01 X185.659 Y110.856
G01 X190.073 Y118.403
G01 X200.159 Y124.572
G01 X201.206 Y125.280
G01 X201.673 Y125.447
G01 X208.464 Y125.093
G01 X215.171 Y125.100
G01 X217.501 Y125.187
G01 X223.290 Y121.947
G01 X229.320 Y118.980
G01 X235.577 Y116.300
G01 X237.668 Y115.489
G01 X243.907 Y106.160
G01 X245.457 Y104.071
G01 X249.678 Y90.925
G01 X248.329 Y78.083
G01 X244.976 Y67.519
G01 X237.679 Y54.137
G01 X227.063 Y45.895
G01 X224.153 Y43.839
G01 X212.582 Y36.892
G01 X211.212 Y36.139
G01 X210.533 Y35.577
G01 X202.184 Y46.799
G01 X200.308 Y49.568
G01 X192.644 Y59.266
G01 X185.807 Y69.217
G01 X185.465 Y69.755
G01 X181.776 Y85.390
G01 X180.710 Y91.455
G01 X182.865 Y111.876
G01 X188.099 Y120.842
G01 X198.180 Y126.691
G01 X200.323 Y128.082
G01 X201.206 Y128.373
G01 X207.877 Y127.991
G01 X214.466 Y127.966
G01 X218.184 Y128.109
G01 X223.828 Y124.898
G01 X229.710 Y121.952
G01 X235.820 Y119.286
G01 X239.652 Y117.804
G01 X245.887 Y108.374
G01 X248.116 Y105.362
G01 X252.664 Y91.247
G01 X251.221 Y77.479
G01 X247.759 Y66.614
G01 X239.751 Y52.015
G01 X229.139 Y43.762
G01 X225.794 Y41.400
G01 X214.194 Y34.449
G01 X212.894 Y33.735
G01 X209.983 Y31.357
G01 X201.435 Y42.688
G01 X197.946 Y47.844
G01 X190.246 Y57.588
G01 X183.372 Y67.583
G01 X183.080 Y68.041
G01 X179.288 Y83.451
G01 X177.793 Y91.772
G01 X180.065 Y112.908
G01 X186.127 Y123.261
G01 X196.265 Y128.937
G01 X199.205 Y130.796
G01 X200.739 Y131.317
G01 X207.288 Y130.900
G01 X213.757 Y130.834
G01 X218.870 Y131.030
G01 X224.367 Y127.841
G01 X230.102 Y124.908
G01 X236.064 Y122.249
G01 X241.633 Y120.094
