;  Created by Sandify
;  https://sandify.org
;  Version: 0.2.6
;
;  Machine type: Rectangular
;    Min X (mm): 0
;    Max X (mm): 500
;    Min Y (mm): 0
;    Max Y (mm): 500
;  Content type: shape
;  Layer:
;    Shape: FileImport
;    Name: hero_7loop4.thr
;    From file:: hero_7loop4.thr
;    Aspect Ratio: true
;    Comments: 
;    Visible: true
;    Initial width: 10
;    Initial height: 10
;    X offset: 0
;    Y offset: 0
;    Rotate (degrees): 0
;    Reverse path: false
;    Fine tuning:
;      Connect to next layer: line
;      Draw portion of path (%): 100
;      Backtrack at end (%): 0
;      Rotate starting point (%): 0
;  Reverse export path: false
;
; File name: 'loop4 (E) (C NW)'
; File type: gcode
;

G01 X250.000 Y250.000
G01 X250.000 Y250.005
G01 X250.000 Y250.007
G01 X250.000 Y250.013
G01 X250.000 Y250.019
G01 X250.001 Y250.024
G01 X250.003 Y250.030
G01 X250.005 Y250.036
G01 X250.007 Y250.043
G01 X250.009 Y250.049
G01 X250.011 Y250.057
G01 X250.013 Y250.064
G01 X250.015 Y250.073
G01 X250.017 Y250.082
G01 X250.019 Y250.092
G01 X250.020 Y250.102
G01 X250.021 Y250.113
G01 X250.021 Y250.124
G01 X250.020 Y250.136
G01 X250.019 Y250.149
G01 X250.017 Y250.162
G01 X250.014 Y250.176
G01 X250.010 Y250.190
G01 X250.005 Y250.204
G01 X250.002 Y250.218
G01 X250.009 Y250.232
G01 X250.018 Y250.246
G01 X250.028 Y250.260
G01 X250.039 Y250.274
G01 X250.052 Y250.288
G01 X250.066 Y250.300
G01 X250.081 Y250.312
G01 X250.097 Y250.324
G01 X250.115 Y250.334
G01 X250.133 Y250.343
G01 X250.153 Y250.351
G01 X250.173 Y250.358
G01 X250.195 Y250.364
G01 X250.217 Y250.368
G01 X250.239 Y250.371
G01 X250.262 Y250.372
G01 X250.286 Y250.371
G01 X250.310 Y250.368
G01 X250.333 Y250.364
G01 X250.357 Y250.359
G01 X250.380 Y250.351
G01 X250.403 Y250.342
G01 X250.426 Y250.331
G01 X250.447 Y250.318
G01 X250.468 Y250.304
G01 X250.488 Y250.288
G01 X250.507 Y250.271
G01 X250.524 Y250.252
G01 X250.540 Y250.233
G01 X250.554 Y250.212
G01 X250.567 Y250.190
G01 X250.579 Y250.167
G01 X250.588 Y250.144
G01 X250.596 Y250.120
G01 X250.602 Y250.096
G01 X250.605 Y250.072
G01 X250.608 Y250.048
G01 X250.608 Y250.024
G01 X250.606 Y250.001
G01 X250.603 Y249.978
G01 X250.597 Y249.955
G01 X250.591 Y249.934
G01 X250.582 Y249.914
G01 X250.572 Y249.895
G01 X250.561 Y249.877
G01 X250.549 Y249.861
G01 X250.535 Y249.846
G01 X250.521 Y249.833
G01 X250.506 Y249.822
G01 X250.491 Y249.813
G01 X250.475 Y249.805
G01 X250.459 Y249.799
G01 X250.443 Y249.796
G01 X250.428 Y249.794
G01 X250.413 Y249.794
G01 X250.399 Y249.796
G01 X250.385 Y249.800
G01 X250.373 Y249.805
G01 X250.362 Y249.812
G01 X250.352 Y249.820
G01 X250.344 Y249.830
G01 X250.337 Y249.840
G01 X250.333 Y249.852
G01 X250.330 Y249.865
G01 X250.329 Y249.878
G01 X250.331 Y249.891
G01 X250.335 Y249.905
G01 X250.341 Y249.918
G01 X250.349 Y249.931
G01 X250.359 Y249.944
G01 X250.372 Y249.956
G01 X250.387 Y249.967
G01 X250.403 Y249.976
G01 X250.422 Y249.984
G01 X250.443 Y249.991
G01 X250.466 Y249.995
G01 X250.490 Y249.998
G01 X250.515 Y249.998
G01 X250.541 Y249.996
G01 X250.569 Y249.991
G01 X250.597 Y249.984
G01 X250.626 Y249.973
G01 X250.655 Y249.960
G01 X250.684 Y249.944
G01 X250.713 Y249.925
G01 X250.741 Y249.903
G01 X250.769 Y249.878
G01 X250.795 Y249.851
G01 X250.820 Y249.820
G01 X250.843 Y249.786
G01 X250.864 Y249.750
G01 X250.883 Y249.712
G01 X250.900 Y249.671
G01 X250.914 Y249.628
G01 X250.926 Y249.582
G01 X250.934 Y249.536
G01 X250.939 Y249.487
G01 X250.941 Y249.438
G01 X250.939 Y249.388
G01 X250.933 Y249.337
G01 X250.924 Y249.285
G01 X250.912 Y249.234
G01 X250.895 Y249.183
G01 X250.875 Y249.132
G01 X250.851 Y249.083
G01 X250.824 Y249.034
G01 X250.792 Y248.988
G01 X250.758 Y248.943
G01 X250.720 Y248.900
G01 X250.680 Y248.860
G01 X250.636 Y248.822
G01 X250.590 Y248.788
G01 X250.541 Y248.756
G01 X250.490 Y248.728
G01 X250.437 Y248.703
G01 X250.383 Y248.682
G01 X250.328 Y248.665
G01 X250.272 Y248.652
G01 X250.215 Y248.643
G01 X250.158 Y248.637
G01 X250.101 Y248.636
G01 X250.044 Y248.639
G01 X249.988 Y248.645
G01 X249.934 Y248.656
G01 X249.881 Y248.670
G01 X249.830 Y248.688
G01 X249.781 Y248.709
G01 X249.734 Y248.733
G01 X249.690 Y248.761
G01 X249.649 Y248.791
G01 X249.611 Y248.823
G01 X249.576 Y248.857
G01 X249.545 Y248.893
G01 X249.517 Y248.931
G01 X249.493 Y248.970
G01 X249.474 Y249.009
G01 X249.457 Y249.049
G01 X249.445 Y249.089
G01 X249.437 Y249.129
G01 X249.432 Y249.167
G01 X249.431 Y249.205
G01 X249.434 Y249.241
G01 X249.440 Y249.276
G01 X249.449 Y249.308
G01 X249.461 Y249.338
G01 X249.476 Y249.366
G01 X249.494 Y249.390
G01 X249.513 Y249.411
G01 X249.535 Y249.429
G01 X249.558 Y249.443
G01 X249.582 Y249.454
G01 X249.607 Y249.461
G01 X249.632 Y249.464
G01 X249.657 Y249.463
G01 X249.682 Y249.458
G01 X249.706 Y249.449
G01 X249.729 Y249.436
G01 X249.750 Y249.420
G01 X249.769 Y249.400
G01 X249.786 Y249.377
G01 X249.800 Y249.350
G01 X249.811 Y249.321
G01 X249.819 Y249.289
G01 X249.824 Y249.254
G01 X249.824 Y249.218
G01 X249.821 Y249.180
G01 X249.813 Y249.141
G01 X249.801 Y249.100
G01 X249.784 Y249.060
G01 X249.763 Y249.019
G01 X249.737 Y248.979
G01 X249.707 Y248.940
G01 X249.672 Y248.901
G01 X249.632 Y248.865
G01 X249.588 Y248.831
G01 X249.540 Y248.799
G01 X249.488 Y248.770
G01 X249.432 Y248.744
G01 X249.372 Y248.723
G01 X249.310 Y248.705
G01 X249.244 Y248.691
G01 X249.176 Y248.683
G01 X249.105 Y248.679
G01 X249.033 Y248.680
G01 X248.960 Y248.686
G01 X248.886 Y248.698
G01 X248.811 Y248.716
G01 X248.737 Y248.739
G01 X248.663 Y248.767
G01 X248.590 Y248.802
G01 X248.519 Y248.841
G01 X248.450 Y248.887
G01 X248.383 Y248.937
G01 X248.319 Y248.992
G01 X248.259 Y249.053
G01 X248.202 Y249.118
G01 X248.150 Y249.187
G01 X248.102 Y249.259
G01 X248.058 Y249.336
G01 X248.020 Y249.415
G01 X247.988 Y249.497
G01 X247.961 Y249.582
G01 X247.939 Y249.668
G01 X247.924 Y249.755
G01 X247.915 Y249.843
G01 X247.911 Y249.931
G01 X247.914 Y250.019
G01 X247.923 Y250.106
G01 X247.937 Y250.192
G01 X247.958 Y250.276
G01 X247.984 Y250.358
G01 X248.015 Y250.437
G01 X248.052 Y250.512
G01 X248.093 Y250.585
G01 X248.139 Y250.653
G01 X248.188 Y250.716
G01 X248.242 Y250.775
G01 X248.298 Y250.829
G01 X248.357 Y250.878
G01 X248.419 Y250.921
G01 X248.482 Y250.959
G01 X248.547 Y250.991
G01 X248.612 Y251.018
G01 X248.677 Y251.038
G01 X248.742 Y251.053
G01 X248.807 Y251.062
G01 X248.869 Y251.066
G01 X248.930 Y251.064
G01 X248.989 Y251.057
G01 X249.044 Y251.045
G01 X249.097 Y251.029
G01 X249.145 Y251.008
G01 X249.190 Y250.984
G01 X249.230 Y250.956
G01 X249.265 Y250.926
G01 X249.296 Y250.893
G01 X249.321 Y250.857
G01 X249.341 Y250.821
G01 X249.356 Y250.783
G01 X249.365 Y250.745
G01 X249.368 Y250.708
G01 X249.366 Y250.671
G01 X249.358 Y250.635
G01 X249.346 Y250.601
G01 X249.328 Y250.570
G01 X249.305 Y250.541
G01 X249.278 Y250.516
G01 X249.246 Y250.494
G01 X249.211 Y250.477
G01 X249.172 Y250.464
G01 X249.130 Y250.456
G01 X249.085 Y250.454
G01 X249.038 Y250.457
G01 X248.990 Y250.465
G01 X248.941 Y250.480
G01 X248.892 Y250.501
G01 X248.842 Y250.528
G01 X248.794 Y250.561
G01 X248.747 Y250.600
G01 X248.701 Y250.645
G01 X248.659 Y250.697
G01 X248.619 Y250.753
G01 X248.583 Y250.816
G01 X248.551 Y250.883
G01 X248.524 Y250.955
G01 X248.502 Y251.032
G01 X248.485 Y251.112
G01 X248.475 Y251.196
G01 X248.471 Y251.283
G01 X248.473 Y251.373
G01 X248.482 Y251.464
G01 X248.498 Y251.557
G01 X248.522 Y251.650
G01 X248.552 Y251.743
G01 X248.591 Y251.836
G01 X248.636 Y251.927
G01 X248.688 Y252.017
G01 X248.748 Y252.104
G01 X248.815 Y252.188
G01 X248.888 Y252.268
G01 X248.968 Y252.344
G01 X249.053 Y252.415
G01 X249.145 Y252.480
G01 X249.241 Y252.540
G01 X249.342 Y252.594
G01 X249.447 Y252.641
G01 X249.556 Y252.680
G01 X249.668 Y252.713
G01 X249.782 Y252.738
G01 X249.898 Y252.755
G01 X250.015 Y252.764
G01 X250.133 Y252.765
G01 X250.250 Y252.759
G01 X250.366 Y252.744
G01 X250.481 Y252.722
G01 X250.594 Y252.691
G01 X250.703 Y252.654
G01 X250.809 Y252.609
G01 X250.911 Y252.557
G01 X251.009 Y252.499
G01 X251.101 Y252.435
G01 X251.187 Y252.365
G01 X251.268 Y252.291
G01 X251.342 Y252.212
G01 X251.409 Y252.129
G01 X251.469 Y252.042
G01 X251.521 Y251.954
G01 X251.566 Y251.863
G01 X251.604 Y251.771
G01 X251.634 Y251.678
G01 X251.656 Y251.586
G01 X251.671 Y251.494
G01 X251.678 Y251.404
G01 X251.678 Y251.316
G01 X251.671 Y251.231
G01 X251.657 Y251.149
G01 X251.638 Y251.071
G01 X251.612 Y250.998
G01 X251.581 Y250.930
G01 X251.545 Y250.867
G01 X251.505 Y250.810
G01 X251.461 Y250.759
G01 X251.415 Y250.715
G01 X251.365 Y250.678
G01 X251.314 Y250.647
G01 X251.262 Y250.624
G01 X251.210 Y250.608
G01 X251.158 Y250.599
G01 X251.107 Y250.597
G01 X251.058 Y250.602
G01 X251.011 Y250.613
G01 X250.968 Y250.631
G01 X250.928 Y250.655
G01 X250.892 Y250.685
G01 X250.862 Y250.720
G01 X250.836 Y250.760
G01 X250.817 Y250.805
G01 X250.804 Y250.853
G01 X250.797 Y250.904
G01 X250.797 Y250.957
G01 X250.805 Y251.012
G01 X250.820 Y251.069
G01 X250.843 Y251.125
G01 X250.873 Y251.181
G01 X250.911 Y251.236
G01 X250.956 Y251.289
G01 X251.008 Y251.340
G01 X251.068 Y251.387
G01 X251.135 Y251.430
G01 X251.208 Y251.469
G01 X251.287 Y251.502
G01 X251.372 Y251.529
G01 X251.462 Y251.550
G01 X251.557 Y251.564
G01 X251.655 Y251.570
G01 X251.757 Y251.569
G01 X251.862 Y251.559
G01 X251.968 Y251.541
G01 X252.076 Y251.514
G01 X252.184 Y251.479
G01 X252.291 Y251.434
G01 X252.398 Y251.381
G01 X252.502 Y251.318
G01 X252.604 Y251.247
G01 X252.702 Y251.168
G01 X252.796 Y251.080
G01 X252.885 Y250.984
G01 X252.969 Y250.881
G01 X253.046 Y250.771
G01 X253.116 Y250.654
G01 X253.178 Y250.532
G01 X253.233 Y250.404
G01 X253.279 Y250.271
G01 X253.317 Y250.134
G01 X253.345 Y249.995
G01 X253.363 Y249.852
G01 X253.372 Y249.709
G01 X253.371 Y249.564
G01 X253.361 Y249.420
G01 X253.340 Y249.276
G01 X253.310 Y249.134
G01 X253.270 Y248.994
G01 X253.221 Y248.858
G01 X253.163 Y248.726
G01 X253.097 Y248.599
G01 X253.022 Y248.477
G01 X252.939 Y248.361
G01 X252.849 Y248.252
G01 X252.753 Y248.150
G01 X252.651 Y248.057
G01 X252.544 Y247.971
G01 X252.433 Y247.894
G01 X252.318 Y247.827
G01 X252.200 Y247.768
G01 X252.080 Y247.719
G01 X251.959 Y247.679
G01 X251.838 Y247.649
G01 X251.717 Y247.629
G01 X251.598 Y247.617
G01 X251.480 Y247.615
G01 X251.366 Y247.622
G01 X251.256 Y247.637
G01 X251.150 Y247.660
G01 X251.049 Y247.691
G01 X250.954 Y247.728
G01 X250.865 Y247.773
G01 X250.783 Y247.823
G01 X250.709 Y247.878
G01 X250.643 Y247.937
G01 X250.584 Y248.000
G01 X250.534 Y248.066
G01 X250.493 Y248.134
G01 X250.460 Y248.202
G01 X250.436 Y248.272
G01 X250.421 Y248.340
G01 X250.414 Y248.407
G01 X250.416 Y248.472
G01 X250.426 Y248.534
G01 X250.443 Y248.592
G01 X250.468 Y248.645
G01 X250.500 Y248.693
G01 X250.538 Y248.735
G01 X250.582 Y248.771
G01 X250.631 Y248.799
G01 X250.684 Y248.820
G01 X250.740 Y248.833
G01 X250.800 Y248.837
G01 X250.861 Y248.833
G01 X250.924 Y248.820
G01 X250.986 Y248.799
G01 X251.048 Y248.768
G01 X251.109 Y248.728
G01 X251.167 Y248.680
G01 X251.222 Y248.623
G01 X251.273 Y248.557
G01 X251.318 Y248.484
G01 X251.359 Y248.403
G01 X251.392 Y248.315
G01 X251.419 Y248.221
G01 X251.438 Y248.121
G01 X251.449 Y248.016
G01 X251.450 Y247.906
G01 X251.443 Y247.793
G01 X251.426 Y247.677
G01 X251.399 Y247.559
G01 X251.361 Y247.440
G01 X251.313 Y247.321
G01 X251.255 Y247.203
G01 X251.187 Y247.087
G01 X251.108 Y246.974
G01 X251.019 Y246.864
G01 X250.921 Y246.758
G01 X250.813 Y246.658
G01 X250.696 Y246.565
G01 X250.571 Y246.478
G01 X250.437 Y246.399
G01 X250.297 Y246.328
G01 X250.149 Y246.267
G01 X249.996 Y246.215
G01 X249.838 Y246.174
G01 X249.676 Y246.143
G01 X249.511 Y246.123
G01 X249.344 Y246.114
G01 X249.175 Y246.117
G01 X249.005 Y246.132
G01 X248.837 Y246.158
G01 X248.670 Y246.195
G01 X248.505 Y246.244
G01 X248.344 Y246.304
G01 X248.187 Y246.375
G01 X248.036 Y246.456
G01 X247.891 Y246.548
G01 X247.752 Y246.648
G01 X247.622 Y246.757
G01 X247.500 Y246.875
G01 X247.387 Y247.000
G01 X247.283 Y247.131
G01 X247.190 Y247.268
G01 X247.107 Y247.409
G01 X247.035 Y247.555
G01 X246.975 Y247.703
G01 X246.925 Y247.853
G01 X246.887 Y248.004
G01 X246.860 Y248.155
G01 X246.845 Y248.305
G01 X246.841 Y248.453
G01 X246.847 Y248.598
G01 X246.864 Y248.739
G01 X246.890 Y248.875
G01 X246.927 Y249.005
G01 X246.972 Y249.129
G01 X247.025 Y249.246
G01 X247.085 Y249.355
G01 X247.153 Y249.456
G01 X247.226 Y249.548
G01 X247.304 Y249.630
G01 X247.386 Y249.702
G01 X247.471 Y249.765
G01 X247.559 Y249.817
G01 X247.647 Y249.859
G01 X247.735 Y249.890
G01 X247.823 Y249.912
G01 X247.909 Y249.923
G01 X247.992 Y249.924
G01 X248.071 Y249.916
G01 X248.146 Y249.899
G01 X248.215 Y249.873
G01 X248.278 Y249.839
G01 X248.334 Y249.798
G01 X248.382 Y249.751
G01 X248.422 Y249.698
G01 X248.453 Y249.639
G01 X248.475 Y249.577
G01 X248.487 Y249.512
G01 X248.489 Y249.444
G01 X248.480 Y249.376
G01 X248.462 Y249.307
G01 X248.433 Y249.239
G01 X248.394 Y249.173
G01 X248.345 Y249.110
G01 X248.286 Y249.051
G01 X248.218 Y248.996
G01 X248.141 Y248.948
G01 X248.055 Y248.906
G01 X247.962 Y248.871
G01 X247.861 Y248.845
G01 X247.754 Y248.827
G01 X247.642 Y248.820
G01 X247.524 Y248.822
G01 X247.403 Y248.835
G01 X247.279 Y248.860
G01 X247.154 Y248.895
G01 X247.027 Y248.942
G01 X246.901 Y249.001
G01 X246.776 Y249.072
G01 X246.654 Y249.154
G01 X246.535 Y249.248
G01 X246.420 Y249.353
G01 X246.311 Y249.469
G01 X246.209 Y249.596
G01 X246.114 Y249.733
G01 X246.028 Y249.878
G01 X245.950 Y250.033
G01 X245.883 Y250.195
G01 X245.826 Y250.365
G01 X245.781 Y250.540
G01 X245.748 Y250.721
G01 X245.727 Y250.906
G01 X245.718 Y251.094
G01 X245.723 Y251.284
G01 X245.740 Y251.475
G01 X245.771 Y251.665
G01 X245.816 Y251.855
G01 X245.873 Y252.042
G01 X245.943 Y252.226
G01 X246.026 Y252.405
G01 X246.121 Y252.578
G01 X246.228 Y252.745
G01 X246.346 Y252.904
G01 X246.474 Y253.055
G01 X246.612 Y253.196
G01 X246.759 Y253.327
G01 X246.914 Y253.448
G01 X247.075 Y253.557
G01 X247.243 Y253.654
G01 X247.416 Y253.738
G01 X247.593 Y253.810
G01 X247.772 Y253.869
G01 X247.953 Y253.915
G01 X248.135 Y253.947
G01 X248.316 Y253.966
G01 X248.495 Y253.973
G01 X248.671 Y253.966
G01 X248.844 Y253.948
G01 X249.011 Y253.917
G01 X249.173 Y253.875
G01 X249.328 Y253.822
G01 X249.474 Y253.759
G01 X249.613 Y253.687
G01 X249.742 Y253.606
G01 X249.860 Y253.518
G01 X249.969 Y253.424
G01 X250.066 Y253.324
G01 X250.152 Y253.220
G01 X250.226 Y253.112
G01 X250.288 Y253.002
G01 X250.338 Y252.891
G01 X250.377 Y252.780
G01 X250.403 Y252.671
G01 X250.418 Y252.564
G01 X250.421 Y252.460
G01 X250.414 Y252.360
G01 X250.396 Y252.266
G01 X250.368 Y252.179
G01 X250.332 Y252.099
G01 X250.287 Y252.027
G01 X250.235 Y251.963
G01 X250.176 Y251.910
G01 X250.112 Y251.866
G01 X250.043 Y251.833
G01 X249.971 Y251.812
G01 X249.897 Y251.801
G01 X249.821 Y251.802
G01 X249.745 Y251.815
G01 X249.671 Y251.839
G01 X249.599 Y251.875
G01 X249.530 Y251.922
G01 X249.465 Y251.980
G01 X249.406 Y252.048
G01 X249.354 Y252.127
G01 X249.309 Y252.214
G01 X249.273 Y252.311
G01 X249.246 Y252.415
G01 X249.230 Y252.526
G01 X249.224 Y252.643
G01 X249.230 Y252.766
G01 X249.247 Y252.892
G01 X249.277 Y253.021
G01 X249.320 Y253.151
G01 X249.375 Y253.282
G01 X249.444 Y253.413
G01 X249.526 Y253.541
G01 X249.620 Y253.667
G01 X249.727 Y253.788
G01 X249.847 Y253.904
G01 X249.978 Y254.013
G01 X250.121 Y254.115
G01 X250.275 Y254.208
G01 X250.439 Y254.291
G01 X250.612 Y254.364
G01 X250.793 Y254.425
G01 X250.982 Y254.474
G01 X251.177 Y254.510
G01 X251.378 Y254.532
G01 X251.582 Y254.541
G01 X251.789 Y254.535
G01 X251.998 Y254.515
G01 X252.208 Y254.480
G01 X252.416 Y254.430
G01 X252.623 Y254.365
G01 X252.826 Y254.286
G01 X253.025 Y254.193
G01 X253.218 Y254.085
G01 X253.404 Y253.964
G01 X253.582 Y253.830
G01 X253.751 Y253.685
G01 X253.910 Y253.527
G01 X254.058 Y253.360
G01 X254.194 Y253.183
G01 X254.318 Y252.997
G01 X254.428 Y252.804
G01 X254.524 Y252.605
G01 X254.606 Y252.400
G01 X254.674 Y252.192
G01 X254.726 Y251.982
G01 X254.764 Y251.770
G01 X254.787 Y251.558
G01 X254.794 Y251.347
G01 X254.788 Y251.139
G01 X254.766 Y250.935
G01 X254.731 Y250.735
G01 X254.682 Y250.542
G01 X254.621 Y250.356
G01 X254.548 Y250.178
G01 X254.463 Y250.010
G01 X254.369 Y249.851
G01 X254.265 Y249.704
G01 X254.153 Y249.568
G01 X254.034 Y249.445
G01 X253.909 Y249.334
G01 X253.779 Y249.236
G01 X253.646 Y249.152
G01 X253.510 Y249.081
G01 X253.374 Y249.025
G01 X253.238 Y248.981
G01 X253.104 Y248.952
G01 X252.973 Y248.935
G01 X252.845 Y248.931
G01 X252.723 Y248.940
G01 X252.608 Y248.960
G01 X252.499 Y248.991
G01 X252.399 Y249.032
G01 X252.309 Y249.082
G01 X252.228 Y249.140
G01 X252.159 Y249.206
G01 X252.100 Y249.278
G01 X252.054 Y249.355
G01 X252.020 Y249.435
G01 X251.999 Y249.518
G01 X251.991 Y249.602
G01 X251.996 Y249.686
G01 X252.014 Y249.769
G01 X252.044 Y249.849
G01 X252.087 Y249.925
G01 X252.142 Y249.997
G01 X252.208 Y250.061
G01 X252.286 Y250.119
G01 X252.373 Y250.168
G01 X252.470 Y250.207
G01 X252.576 Y250.236
G01 X252.689 Y250.254
G01 X252.808 Y250.260
G01 X252.933 Y250.253
G01 X253.062 Y250.233
G01 X253.193 Y250.199
G01 X253.326 Y250.151
G01 X253.460 Y250.089
G01 X253.592 Y250.013
G01 X253.722 Y249.923
G01 X253.848 Y249.818
G01 X253.969 Y249.700
G01 X254.084 Y249.569
G01 X254.191 Y249.424
G01 X254.289 Y249.267
G01 X254.378 Y249.099
G01 X254.455 Y248.920
G01 X254.521 Y248.732
G01 X254.574 Y248.535
G01 X254.613 Y248.330
G01 X254.637 Y248.118
G01 X254.647 Y247.902
G01 X254.641 Y247.682
G01 X254.620 Y247.458
G01 X254.582 Y247.234
G01 X254.528 Y247.010
G01 X254.457 Y246.787
G01 X254.371 Y246.568
G01 X254.268 Y246.352
G01 X254.150 Y246.143
G01 X254.017 Y245.940
G01 X253.869 Y245.746
G01 X253.708 Y245.560
G01 X253.533 Y245.386
G01 X253.346 Y245.223
G01 X253.149 Y245.073
G01 X252.941 Y244.937
G01 X252.724 Y244.815
G01 X252.500 Y244.708
G01 X252.270 Y244.616
G01 X252.034 Y244.541
G01 X251.795 Y244.482
G01 X251.554 Y244.440
G01 X251.312 Y244.415
G01 X251.071 Y244.407
G01 X250.832 Y244.415
G01 X250.596 Y244.439
G01 X250.365 Y244.479
G01 X250.140 Y244.535
G01 X249.923 Y244.605
G01 X249.714 Y244.690
G01 X249.515 Y244.787
G01 X249.327 Y244.897
G01 X249.150 Y245.017
G01 X248.986 Y245.148
G01 X248.836 Y245.288
G01 X248.699 Y245.435
G01 X248.577 Y245.588
G01 X248.470 Y245.746
G01 X248.378 Y245.908
G01 X248.302 Y246.071
G01 X248.241 Y246.236
G01 X248.195 Y246.399
G01 X248.164 Y246.560
G01 X248.148 Y246.718
G01 X248.146 Y246.871
G01 X248.158 Y247.018
G01 X248.183 Y247.158
G01 X248.219 Y247.289
G01 X248.267 Y247.411
G01 X248.326 Y247.522
G01 X248.393 Y247.622
G01 X248.468 Y247.709
G01 X248.550 Y247.784
G01 X248.637 Y247.845
G01 X248.728 Y247.893
G01 X248.821 Y247.926
G01 X248.916 Y247.945
G01 X249.011 Y247.950
G01 X249.104 Y247.941
G01 X249.194 Y247.917
G01 X249.280 Y247.880
G01 X249.360 Y247.830
G01 X249.433 Y247.767
G01 X249.498 Y247.693
G01 X249.553 Y247.607
G01 X249.598 Y247.511
G01 X249.632 Y247.406
G01 X249.653 Y247.293
G01 X249.661 Y247.173
G01 X249.655 Y247.048
G01 X249.635 Y246.918
G01 X249.599 Y246.786
G01 X249.549 Y246.652
G01 X249.483 Y246.518
G01 X249.402 Y246.386
G01 X249.306 Y246.257
G01 X249.194 Y246.132
G01 X249.068 Y246.013
G01 X248.927 Y245.901
G01 X248.773 Y245.797
G01 X248.606 Y245.704
G01 X248.427 Y245.621
G01 X248.236 Y245.551
G01 X248.035 Y245.494
G01 X247.826 Y245.451
G01 X247.608 Y245.424
G01 X247.384 Y245.412
G01 X247.155 Y245.416
G01 X246.923 Y245.438
G01 X246.688 Y245.476
G01 X246.452 Y245.533
G01 X246.217 Y245.607
G01 X245.985 Y245.699
G01 X245.756 Y245.808
G01 X245.533 Y245.934
G01 X245.317 Y246.077
G01 X245.109 Y246.236
G01 X244.910 Y246.411
G01 X244.723 Y246.600
G01 X244.547 Y246.803
G01 X244.385 Y247.019
G01 X244.237 Y247.246
G01 X244.105 Y247.484
G01 X243.989 Y247.731
G01 X243.889 Y247.985
G01 X243.808 Y248.246
G01 X243.744 Y248.511
G01 X243.698 Y248.780
G01 X243.671 Y249.050
G01 X243.662 Y249.320
G01 X243.671 Y249.589
G01 X243.699 Y249.855
G01 X243.745 Y250.116
G01 X243.808 Y250.372
G01 X243.888 Y250.620
G01 X243.984 Y250.859
G01 X244.095 Y251.088
G01 X244.220 Y251.306
G01 X244.358 Y251.511
G01 X244.508 Y251.703
G01 X244.669 Y251.881
G01 X244.839 Y252.043
G01 X245.017 Y252.190
G01 X245.201 Y252.320
G01 X245.390 Y252.434
G01 X245.583 Y252.530
G01 X245.777 Y252.610
G01 X245.972 Y252.672
G01 X246.166 Y252.717
G01 X246.356 Y252.746
G01 X246.543 Y252.759
G01 X246.724 Y252.755
G01 X246.897 Y252.737
G01 X247.063 Y252.705
G01 X247.218 Y252.659
G01 X247.363 Y252.601
G01 X247.496 Y252.532
G01 X247.617 Y252.453
G01 X247.724 Y252.366
G01 X247.816 Y252.271
G01 X247.894 Y252.171
G01 X247.956 Y252.066
G01 X248.003 Y251.959
G01 X248.035 Y251.851
G01 X248.050 Y251.742
G01 X248.050 Y251.636
G01 X248.035 Y251.533
G01 X248.005 Y251.435
G01 X247.960 Y251.344
G01 X247.902 Y251.260
G01 X247.831 Y251.185
G01 X247.749 Y251.120
G01 X247.655 Y251.067
G01 X247.551 Y251.026
G01 X247.439 Y250.999
G01 X247.320 Y250.986
G01 X247.195 Y250.988
G01 X247.066 Y251.006
G01 X246.934 Y251.040
G01 X246.801 Y251.090
G01 X246.668 Y251.156
G01 X246.536 Y251.240
G01 X246.409 Y251.339
G01 X246.286 Y251.455
G01 X246.170 Y251.586
G01 X246.062 Y251.732
G01 X245.963 Y251.893
G01 X245.875 Y252.068
G01 X245.800 Y252.255
G01 X245.737 Y252.454
G01 X245.690 Y252.663
G01 X245.657 Y252.881
G01 X245.642 Y253.108
G01 X245.643 Y253.340
G01 X245.662 Y253.578
G01 X245.700 Y253.819
G01 X245.756 Y254.062
G01 X245.831 Y254.304
G01 X245.925 Y254.546
G01 X246.038 Y254.784
G01 X246.169 Y255.017
G01 X246.319 Y255.244
G01 X246.487 Y255.463
G01 X246.671 Y255.672
G01 X246.872 Y255.870
G01 X247.089 Y256.056
G01 X247.319 Y256.228
G01 X247.563 Y256.385
G01 X247.819 Y256.526
G01 X248.085 Y256.650
G01 X248.360 Y256.757
G01 X248.643 Y256.844
G01 X248.932 Y256.912
G01 X249.225 Y256.961
G01 X249.521 Y256.990
G01 X249.818 Y256.998
G01 X250.115 Y256.986
G01 X250.408 Y256.955
G01 X250.698 Y256.903
G01 X250.983 Y256.832
G01 X251.260 Y256.743
G01 X251.528 Y256.635
G01 X251.786 Y256.511
G01 X252.032 Y256.370
G01 X252.265 Y256.214
G01 X252.485 Y256.044
G01 X252.689 Y255.862
G01 X252.876 Y255.668
G01 X253.047 Y255.465
G01 X253.200 Y255.254
G01 X253.336 Y255.036
G01 X253.452 Y254.814
G01 X253.550 Y254.588
G01 X253.628 Y254.361
G01 X253.688 Y254.134
G01 X253.729 Y253.909
G01 X253.752 Y253.687
G01 X253.757 Y253.471
G01 X253.745 Y253.261
G01 X253.717 Y253.059
G01 X253.673 Y252.867
G01 X253.615 Y252.685
G01 X253.543 Y252.516
G01 X253.460 Y252.360
G01 X253.366 Y252.218
G01 X253.263 Y252.091
G01 X253.152 Y251.980
G01 X253.035 Y251.885
G01 X252.914 Y251.807
G01 X252.790 Y251.746
G01 X252.664 Y251.702
G01 X252.539 Y251.675
G01 X252.417 Y251.665
G01 X252.298 Y251.672
G01 X252.185 Y251.695
G01 X252.078 Y251.733
G01 X251.980 Y251.786
G01 X251.892 Y251.853
G01 X251.816 Y251.933
G01 X251.751 Y252.024
G01 X251.701 Y252.126
G01 X251.664 Y252.236
G01 X251.643 Y252.354
G01 X251.639 Y252.479
G01 X251.651 Y252.607
G01 X251.680 Y252.739
G01 X251.727 Y252.872
G01 X251.791 Y253.004
G01 X251.873 Y253.134
G01 X251.972 Y253.260
G01 X252.088 Y253.380
G01 X252.221 Y253.493
G01 X252.370 Y253.597
G01 X252.534 Y253.691
G01 X252.713 Y253.773
G01 X252.904 Y253.841
G01 X253.108 Y253.896
G01 X253.322 Y253.934
G01 X253.546 Y253.956
G01 X253.777 Y253.960
G01 X254.015 Y253.945
G01 X254.257 Y253.912
G01 X254.503 Y253.859
G01 X254.749 Y253.786
G01 X254.996 Y253.693
G01 X255.239 Y253.580
G01 X255.479 Y253.446
G01 X255.713 Y253.293
G01 X255.940 Y253.121
G01 X256.157 Y252.931
G01 X256.363 Y252.722
G01 X256.557 Y252.496
G01 X256.737 Y252.255
G01 X256.902 Y251.998
G01 X257.050 Y251.728
G01 X257.180 Y251.446
G01 X257.292 Y251.154
G01 X257.384 Y250.852
G01 X257.456 Y250.543
G01 X257.507 Y250.228
G01 X257.536 Y249.910
G01 X257.544 Y249.589
G01 X257.530 Y249.269
G01 X257.495 Y248.949
G01 X257.437 Y248.634
G01 X257.359 Y248.323
G01 X257.260 Y248.019
G01 X257.141 Y247.724
G01 X257.003 Y247.440
G01 X256.846 Y247.167
G01 X256.673 Y246.907
G01 X256.484 Y246.662
G01 X256.280 Y246.433
G01 X256.063 Y246.221
G01 X255.835 Y246.027
G01 X255.596 Y245.852
G01 X255.350 Y245.696
G01 X255.097 Y245.561
G01 X254.840 Y245.445
G01 X254.579 Y245.351
G01 X254.318 Y245.277
G01 X254.057 Y245.224
G01 X253.800 Y245.191
G01 X253.546 Y245.178
G01 X253.298 Y245.185
G01 X253.059 Y245.210
G01 X252.828 Y245.252
G01 X252.609 Y245.312
G01 X252.401 Y245.386
G01 X252.207 Y245.475
G01 X252.028 Y245.577
G01 X251.864 Y245.690
G01 X251.717 Y245.813
G01 X251.588 Y245.943
G01 X251.476 Y246.081
G01 X251.382 Y246.223
G01 X251.307 Y246.367
G01 X251.251 Y246.513
G01 X251.213 Y246.658
G01 X251.194 Y246.800
G01 X251.192 Y246.938
G01 X251.208 Y247.070
G01 X251.241 Y247.195
G01 X251.289 Y247.310
G01 X251.352 Y247.414
G01 X251.429 Y247.507
G01 X251.518 Y247.585
G01 X251.619 Y247.650
G01 X251.729 Y247.698
G01 X251.846 Y247.730
G01 X251.970 Y247.745
G01 X252.099 Y247.741
G01 X252.231 Y247.720
G01 X252.363 Y247.680
G01 X252.495 Y247.621
G01 X252.624 Y247.543
G01 X252.749 Y247.447
G01 X252.868 Y247.334
G01 X252.978 Y247.202
G01 X253.079 Y247.054
G01 X253.169 Y246.890
G01 X253.246 Y246.711
G01 X253.308 Y246.519
G01 X253.355 Y246.314
G01 X253.385 Y246.098
G01 X253.397 Y245.873
G01 X253.391 Y245.640
G01 X253.365 Y245.400
G01 X253.318 Y245.157
G01 X253.251 Y244.910
G01 X253.162 Y244.663
G01 X253.053 Y244.417
G01 X252.922 Y244.175
G01 X252.770 Y243.937
G01 X252.597 Y243.706
G01 X252.405 Y243.484
G01 X252.193 Y243.272
G01 X251.962 Y243.072
G01 X251.714 Y242.886
G01 X251.449 Y242.716
G01 X251.170 Y242.562
G01 X250.876 Y242.427
G01 X250.571 Y242.310
G01 X250.255 Y242.214
G01 X249.930 Y242.140
G01 X249.598 Y242.087
G01 X249.261 Y242.057
G01 X248.921 Y242.050
G01 X248.579 Y242.066
G01 X248.238 Y242.105
G01 X247.900 Y242.168
G01 X247.566 Y242.253
G01 X247.239 Y242.361
G01 X246.920 Y242.491
G01 X246.611 Y242.642
G01 X246.313 Y242.813
G01 X246.030 Y243.004
G01 X245.761 Y243.212
G01 X245.509 Y243.436
G01 X245.275 Y243.676
G01 X245.059 Y243.929
G01 X244.863 Y244.194
G01 X244.688 Y244.468
G01 X244.535 Y244.751
G01 X244.403 Y245.040
G01 X244.294 Y245.334
G01 X244.207 Y245.629
G01 X244.143 Y245.925
G01 X244.101 Y246.220
G01 X244.081 Y246.511
G01 X244.083 Y246.797
G01 X244.105 Y247.075
G01 X244.148 Y247.345
G01 X244.209 Y247.604
G01 X244.288 Y247.851
G01 X244.383 Y248.084
G01 X244.494 Y248.302
G01 X244.618 Y248.504
G01 X244.754 Y248.688
G01 X244.901 Y248.855
G01 X245.056 Y249.002
G01 X245.217 Y249.130
G01 X245.383 Y249.238
G01 X245.552 Y249.326
G01 X245.722 Y249.394
G01 X245.891 Y249.442
G01 X246.056 Y249.470
G01 X246.217 Y249.478
G01 X246.372 Y249.468
G01 X246.517 Y249.440
G01 X246.653 Y249.395
G01 X246.777 Y249.334
G01 X246.888 Y249.258
G01 X246.984 Y249.170
G01 X247.065 Y249.070
G01 X247.129 Y248.959
G01 X247.175 Y248.840
G01 X247.203 Y248.715
G01 X247.212 Y248.585
G01 X247.201 Y248.452
G01 X247.170 Y248.318
G01 X247.120 Y248.185
G01 X247.050 Y248.056
G01 X246.960 Y247.930
G01 X246.852 Y247.812
G01 X246.725 Y247.703
G01 X246.581 Y247.603
G01 X246.420 Y247.516
G01 X246.244 Y247.443
G01 X246.053 Y247.385
G01 X245.850 Y247.344
G01 X245.636 Y247.320
G01 X245.412 Y247.315
G01 X245.180 Y247.331
G01 X244.943 Y247.367
G01 X244.701 Y247.425
G01 X244.457 Y247.504
G01 X244.213 Y247.606
G01 X243.971 Y247.730
G01 X243.732 Y247.876
G01 X243.500 Y248.044
G01 X243.275 Y248.234
G01 X243.060 Y248.444
G01 X242.857 Y248.675
G01 X242.667 Y248.925
G01 X242.492 Y249.192
G01 X242.334 Y249.477
G01 X242.195 Y249.776
G01 X242.075 Y250.090
G01 X241.976 Y250.416
G01 X241.898 Y250.752
G01 X241.844 Y251.096
G01 X241.813 Y251.447
G01 X241.806 Y251.803
G01 X241.824 Y252.161
G01 X241.867 Y252.519
G01 X241.934 Y252.876
G01 X242.026 Y253.230
G01 X242.141 Y253.577
G01 X242.281 Y253.917
G01 X242.444 Y254.247
G01 X242.628 Y254.565
G01 X242.834 Y254.870
G01 X243.060 Y255.160
G01 X243.304 Y255.432
G01 X243.565 Y255.687
G01 X243.841 Y255.922
G01 X244.131 Y256.136
G01 X244.433 Y256.329
G01 X244.745 Y256.498
G01 X245.065 Y256.645
G01 X245.390 Y256.768
G01 X245.720 Y256.866
G01 X246.051 Y256.940
G01 X246.381 Y256.990
G01 X246.710 Y257.016
G01 X247.033 Y257.018
G01 X247.351 Y256.997
G01 X247.659 Y256.954
G01 X247.958 Y256.890
G01 X248.244 Y256.806
G01 X248.517 Y256.702
G01 X248.775 Y256.582
G01 X249.016 Y256.445
G01 X249.239 Y256.294
G01 X249.443 Y256.131
G01 X249.627 Y255.956
G01 X249.791 Y255.774
G01 X249.933 Y255.584
G01 X250.054 Y255.390
G01 X250.153 Y255.193
G01 X250.230 Y254.995
G01 X250.286 Y254.799
G01 X250.320 Y254.607
G01 X250.334 Y254.419
G01 X250.327 Y254.240
G01 X250.301 Y254.069
G01 X250.258 Y253.910
G01 X250.197 Y253.763
G01 X250.121 Y253.630
G01 X250.031 Y253.513
G01 X249.929 Y253.413
G01 X249.815 Y253.331
G01 X249.694 Y253.268
G01 X249.565 Y253.224
G01 X249.431 Y253.201
G01 X249.295 Y253.198
G01 X249.157 Y253.216
G01 X249.021 Y253.256
G01 X248.889 Y253.316
G01 X248.761 Y253.396
G01 X248.641 Y253.496
G01 X248.530 Y253.616
G01 X248.430 Y253.754
G01 X248.343 Y253.909
G01 X248.271 Y254.079
G01 X248.215 Y254.265
G01 X248.177 Y254.464
G01 X248.157 Y254.674
G01 X248.158 Y254.893
G01 X248.180 Y255.121
G01 X248.223 Y255.354
G01 X248.289 Y255.591
G01 X248.378 Y255.830
G01 X248.491 Y256.069
G01 X248.626 Y256.305
G01 X248.784 Y256.536
G01 X248.966 Y256.761
G01 X249.169 Y256.976
G01 X249.394 Y257.181
G01 X249.640 Y257.374
G01 X249.905 Y257.551
G01 X250.189 Y257.712
G01 X250.490 Y257.855
G01 X250.806 Y257.978
G01 X251.136 Y258.080
G01 X251.477 Y258.160
G01 X251.829 Y258.216
G01 X252.189 Y258.249
G01 X252.555 Y258.256
G01 X252.925 Y258.237
G01 X253.297 Y258.193
G01 X253.668 Y258.122
G01 X254.036 Y258.026
G01 X254.400 Y257.903
G01 X254.756 Y257.755
G01 X255.104 Y257.583
G01 X255.440 Y257.387
G01 X255.762 Y257.167
G01 X256.070 Y256.926
G01 X256.360 Y256.665
G01 X256.633 Y256.384
G01 X256.885 Y256.086
G01 X257.115 Y255.773
G01 X257.323 Y255.446
G01 X257.507 Y255.107
G01 X257.667 Y254.759
G01 X257.801 Y254.403
G01 X257.910 Y254.041
G01 X257.992 Y253.677
G01 X258.049 Y253.311
G01 X258.079 Y252.947
G01 X258.084 Y252.586
G01 X258.064 Y252.231
G01 X258.019 Y251.884
G01 X257.951 Y251.546
G01 X257.860 Y251.221
G01 X257.748 Y250.908
G01 X257.616 Y250.611
G01 X257.466 Y250.331
G01 X257.299 Y250.070
G01 X257.117 Y249.828
G01 X256.922 Y249.606
G01 X256.717 Y249.407
G01 X256.502 Y249.230
G01 X256.281 Y249.075
G01 X256.055 Y248.944
G01 X255.826 Y248.837
G01 X255.597 Y248.753
G01 X255.370 Y248.692
G01 X255.148 Y248.655
G01 X254.931 Y248.639
G01 X254.723 Y248.645
G01 X254.525 Y248.671
G01 X254.339 Y248.716
G01 X254.166 Y248.779
G01 X254.009 Y248.859
G01 X253.869 Y248.954
G01 X253.746 Y249.061
G01 X253.643 Y249.180
G01 X253.561 Y249.308
G01 X253.499 Y249.443
G01 X253.458 Y249.583
G01 X253.440 Y249.726
G01 X253.444 Y249.869
G01 X253.469 Y250.012
G01 X253.517 Y250.150
G01 X253.586 Y250.283
G01 X253.676 Y250.408
G01 X253.786 Y250.523
G01 X253.915 Y250.627
G01 X254.062 Y250.716
G01 X254.226 Y250.790
G01 X254.404 Y250.847
G01 X254.596 Y250.886
G01 X254.800 Y250.904
G01 X255.014 Y250.901
G01 X255.235 Y250.876
G01 X255.462 Y250.829
G01 X255.692 Y250.757
G01 X255.924 Y250.662
G01 X256.155 Y250.543
G01 X256.383 Y250.400
G01 X256.605 Y250.233
G01 X256.820 Y250.042
G01 X257.025 Y249.828
G01 X257.218 Y249.592
G01 X257.398 Y249.335
G01 X257.561 Y249.058
G01 X257.707 Y248.762
G01 X257.833 Y248.449
G01 X257.938 Y248.121
G01 X258.021 Y247.779
G01 X258.080 Y247.425
G01 X258.114 Y247.062
G01 X258.123 Y246.691
G01 X258.105 Y246.315
G01 X258.060 Y245.935
G01 X257.988 Y245.555
G01 X257.888 Y245.176
G01 X257.762 Y244.801
G01 X257.608 Y244.432
G01 X257.428 Y244.071
G01 X257.223 Y243.722
G01 X256.992 Y243.385
G01 X256.739 Y243.063
G01 X256.462 Y242.757
G01 X256.165 Y242.471
G01 X255.849 Y242.205
G01 X255.515 Y241.960
G01 X255.165 Y241.739
G01 X254.802 Y241.543
G01 X254.427 Y241.372
G01 X254.043 Y241.228
G01 X253.652 Y241.111
G01 X253.256 Y241.021
G01 X252.858 Y240.959
G01 X252.460 Y240.925
G01 X252.064 Y240.919
G01 X251.673 Y240.939
G01 X251.289 Y240.987
G01 X250.914 Y241.060
G01 X250.550 Y241.158
G01 X250.200 Y241.280
G01 X249.865 Y241.424
G01 X249.547 Y241.588
G01 X249.247 Y241.772
G01 X248.968 Y241.974
G01 X248.710 Y242.190
G01 X248.475 Y242.420
G01 X248.263 Y242.661
G01 X248.075 Y242.911
G01 X247.913 Y243.168
G01 X247.775 Y243.429
G01 X247.663 Y243.692
G01 X247.576 Y243.955
G01 X247.514 Y244.216
G01 X247.476 Y244.471
G01 X247.462 Y244.720
G01 X247.470 Y244.960
G01 X247.500 Y245.188
G01 X247.551 Y245.403
G01 X247.620 Y245.604
G01 X247.707 Y245.787
G01 X247.810 Y245.953
G01 X247.926 Y246.099
G01 X248.054 Y246.225
G01 X248.191 Y246.330
G01 X248.336 Y246.412
G01 X248.486 Y246.471
G01 X248.640 Y246.507
G01 X248.793 Y246.519
G01 X248.945 Y246.509
G01 X249.093 Y246.475
G01 X249.235 Y246.419
G01 X249.369 Y246.341
G01 X249.492 Y246.242
G01 X249.602 Y246.123
G01 X249.698 Y245.985
G01 X249.777 Y245.830
G01 X249.839 Y245.660
G01 X249.880 Y245.476
G01 X249.901 Y245.280
G01 X249.900 Y245.074
G01 X249.876 Y244.860
G01 X249.828 Y244.641
G01 X249.755 Y244.419
G01 X249.658 Y244.195
G01 X249.535 Y243.973
G01 X249.388 Y243.755
G01 X249.216 Y243.542
G01 X249.019 Y243.338
G01 X248.799 Y243.145
G01 X248.557 Y242.964
G01 X248.292 Y242.799
G01 X248.008 Y242.651
G01 X247.704 Y242.521
G01 X247.384 Y242.412
G01 X247.048 Y242.326
G01 X246.698 Y242.263
G01 X246.337 Y242.225
G01 X245.966 Y242.214
G01 X245.589 Y242.229
G01 X245.207 Y242.272
G01 X244.823 Y242.344
G01 X244.438 Y242.443
G01 X244.057 Y242.571
G01 X243.680 Y242.728
G01 X243.311 Y242.912
G01 X242.951 Y243.124
G01 X242.604 Y243.362
G01 X242.271 Y243.625
G01 X241.954 Y243.913
G01 X241.656 Y244.223
G01 X241.379 Y244.555
G01 X241.124 Y244.906
G01 X240.892 Y245.275
G01 X240.686 Y245.659
G01 X240.506 Y246.056
G01 X240.353 Y246.465
G01 X240.229 Y246.882
G01 X240.134 Y247.306
G01 X240.068 Y247.734
G01 X240.032 Y248.163
G01 X240.025 Y248.591
G01 X240.047 Y249.015
G01 X240.098 Y249.434
G01 X240.176 Y249.844
G01 X240.282 Y250.243
G01 X240.414 Y250.630
G01 X240.571 Y251.001
G01 X240.751 Y251.356
G01 X240.952 Y251.692
G01 X241.174 Y252.007
G01 X241.413 Y252.300
G01 X241.667 Y252.570
G01 X241.936 Y252.815
G01 X242.215 Y253.035
G01 X242.504 Y253.229
G01 X242.798 Y253.396
G01 X243.097 Y253.536
G01 X243.398 Y253.649
G01 X243.698 Y253.735
G01 X243.994 Y253.794
G01 X244.285 Y253.828
G01 X244.568 Y253.836
G01 X244.841 Y253.821
G01 X245.101 Y253.782
G01 X245.347 Y253.722
G01 X245.577 Y253.642
G01 X245.790 Y253.543
G01 X245.982 Y253.429
G01 X246.154 Y253.300
G01 X246.304 Y253.158
G01 X246.431 Y253.007
G01 X246.535 Y252.848
G01 X246.614 Y252.684
G01 X246.668 Y252.516
G01 X246.698 Y252.348
G01 X246.704 Y252.183
G01 X246.685 Y252.021
G01 X246.642 Y251.866
G01 X246.577 Y251.720
G01 X246.489 Y251.586
G01 X246.381 Y251.464
G01 X246.253 Y251.358
G01 X246.108 Y251.269
G01 X245.947 Y251.200
G01 X245.771 Y251.150
G01 X245.583 Y251.123
G01 X245.385 Y251.118
G01 X245.180 Y251.138
G01 X244.969 Y251.183
G01 X244.754 Y251.253
G01 X244.539 Y251.348
G01 X244.326 Y251.470
G01 X244.118 Y251.618
G01 X243.916 Y251.790
G01 X243.723 Y251.988
G01 X243.541 Y252.210
G01 X243.374 Y252.456
G01 X243.222 Y252.723
G01 X243.089 Y253.011
G01 X242.975 Y253.317
G01 X242.884 Y253.641
G01 X242.816 Y253.981
G01 X242.773 Y254.334
G01 X242.756 Y254.697
G01 X242.766 Y255.070
G01 X242.805 Y255.449
G01 X242.873 Y255.832
G01 X242.970 Y256.217
G01 X243.096 Y256.600
G01 X243.252 Y256.980
G01 X243.437 Y257.354
G01 X243.651 Y257.719
G01 X243.892 Y258.072
G01 X244.161 Y258.412
G01 X244.456 Y258.737
G01 X244.776 Y259.043
G01 X245.118 Y259.328
G01 X245.482 Y259.592
G01 X245.866 Y259.831
G01 X246.266 Y260.046
G01 X246.683 Y260.233
G01 X247.112 Y260.391
G01 X247.551 Y260.521
G01 X247.999 Y260.620
G01 X248.452 Y260.689
G01 X248.909 Y260.727
G01 X249.365 Y260.734
G01 X249.820 Y260.710
G01 X250.269 Y260.655
G01 X250.711 Y260.570
G01 X251.143 Y260.456
G01 X251.563 Y260.313
G01 X251.968 Y260.144
G01 X252.357 Y259.949
G01 X252.727 Y259.729
G01 X253.076 Y259.488
G01 X253.402 Y259.227
G01 X253.705 Y258.947
G01 X253.982 Y258.651
G01 X254.232 Y258.342
G01 X254.456 Y258.021
G01 X254.651 Y257.692
G01 X254.817 Y257.357
G01 X254.955 Y257.018
G01 X255.064 Y256.678
G01 X255.144 Y256.339
G01 X255.196 Y256.005
G01 X255.220 Y255.678
G01 X255.218 Y255.359
G01 X255.190 Y255.052
G01 X255.139 Y254.758
G01 X255.064 Y254.480
G01 X254.969 Y254.219
G01 X254.854 Y253.978
G01 X254.722 Y253.758
G01 X254.575 Y253.560
G01 X254.416 Y253.385
G01 X254.246 Y253.235
G01 X254.069 Y253.110
G01 X253.886 Y253.010
G01 X253.700 Y252.937
G01 X253.513 Y252.890
G01 X253.329 Y252.868
G01 X253.150 Y252.873
G01 X252.978 Y252.902
G01 X252.815 Y252.955
G01 X252.664 Y253.031
G01 X252.528 Y253.128
G01 X252.407 Y253.246
G01 X252.305 Y253.382
G01 X252.222 Y253.535
G01 X252.161 Y253.702
G01 X252.123 Y253.882
G01 X252.109 Y254.073
G01 X252.120 Y254.271
G01 X252.157 Y254.474
G01 X252.220 Y254.681
G01 X252.310 Y254.888
G01 X252.427 Y255.092
G01 X252.570 Y255.292
G01 X252.740 Y255.484
G01 X252.935 Y255.667
G01 X253.155 Y255.837
G01 X253.398 Y255.993
G01 X253.664 Y256.131
G01 X253.951 Y256.251
G01 X254.256 Y256.349
G01 X254.580 Y256.425
G01 X254.918 Y256.475
G01 X255.269 Y256.500
G01 X255.632 Y256.497
G01 X256.002 Y256.466
G01 X256.378 Y256.406
G01 X256.758 Y256.315
G01 X257.138 Y256.194
G01 X257.516 Y256.043
G01 X257.890 Y255.862
G01 X258.256 Y255.650
G01 X258.612 Y255.409
G01 X258.955 Y255.139
G01 X259.284 Y254.842
G01 X259.594 Y254.518
G01 X259.885 Y254.170
G01 X260.155 Y253.798
G01 X260.400 Y253.405
G01 X260.619 Y252.992
G01 X260.812 Y252.562
G01 X260.975 Y252.118
G01 X261.109 Y251.660
G01 X261.211 Y251.193
G01 X261.282 Y250.719
G01 X261.321 Y250.240
G01 X261.327 Y249.759
G01 X261.300 Y249.280
G01 X261.241 Y248.803
G01 X261.150 Y248.333
G01 X261.028 Y247.872
G01 X260.875 Y247.422
G01 X260.693 Y246.987
G01 X260.483 Y246.568
G01 X260.246 Y246.167
G01 X259.985 Y245.787
G01 X259.702 Y245.430
G01 X259.397 Y245.098
G01 X259.075 Y244.791
G01 X258.736 Y244.512
G01 X258.384 Y244.261
G01 X258.020 Y244.040
G01 X257.649 Y243.848
G01 X257.272 Y243.688
G01 X256.891 Y243.558
G01 X256.511 Y243.459
G01 X256.133 Y243.390
G01 X255.760 Y243.351
G01 X255.395 Y243.341
G01 X255.040 Y243.359
G01 X254.698 Y243.403
G01 X254.371 Y243.474
G01 X254.061 Y243.568
G01 X253.770 Y243.684
G01 X253.499 Y243.820
G01 X253.251 Y243.974
G01 X253.027 Y244.143
G01 X252.828 Y244.325
G01 X252.655 Y244.518
G01 X252.509 Y244.720
G01 X252.390 Y244.926
G01 X252.299 Y245.136
G01 X252.235 Y245.345
G01 X252.199 Y245.552
G01 X252.189 Y245.754
G01 X252.205 Y245.948
G01 X252.247 Y246.132
G01 X252.313 Y246.303
G01 X252.401 Y246.459
G01 X252.510 Y246.598
G01 X252.638 Y246.718
G01 X252.784 Y246.818
G01 X252.944 Y246.895
G01 X253.118 Y246.948
G01 X253.302 Y246.975
G01 X253.494 Y246.977
G01 X253.691 Y246.952
G01 X253.891 Y246.900
G01 X254.092 Y246.820
G01 X254.289 Y246.712
G01 X254.482 Y246.577
G01 X254.666 Y246.415
G01 X254.840 Y246.227
G01 X255.001 Y246.013
G01 X255.146 Y245.775
G01 X255.274 Y245.515
G01 X255.381 Y245.233
G01 X255.466 Y244.933
G01 X255.528 Y244.615
G01 X255.563 Y244.281
G01 X255.572 Y243.935
G01 X255.552 Y243.579
G01 X255.502 Y243.214
G01 X255.423 Y242.845
G01 X255.312 Y242.473
G01 X255.170 Y242.101
G01 X254.997 Y241.732
G01 X254.792 Y241.369
G01 X254.557 Y241.015
G01 X254.292 Y240.672
G01 X253.997 Y240.343
G01 X253.675 Y240.031
G01 X253.326 Y239.737
G01 X252.952 Y239.465
G01 X252.554 Y239.216
G01 X252.136 Y238.993
G01 X251.698 Y238.797
G01 X251.243 Y238.630
G01 X250.774 Y238.494
G01 X250.293 Y238.389
G01 X249.803 Y238.317
G01 X249.307 Y238.278
G01 X248.807 Y238.273
G01 X248.306 Y238.301
G01 X247.808 Y238.364
G01 X247.315 Y238.461
G01 X246.829 Y238.591
G01 X246.354 Y238.753
G01 X245.892 Y238.947
G01 X245.446 Y239.171
G01 X245.019 Y239.424
G01 X244.611 Y239.703
G01 X244.227 Y240.008
G01 X243.867 Y240.336
G01 X243.534 Y240.685
G01 X243.229 Y241.052
G01 X242.953 Y241.435
G01 X242.708 Y241.831
G01 X242.495 Y242.238
G01 X242.313 Y242.652
G01 X242.164 Y243.072
G01 X242.047 Y243.494
G01 X241.963 Y243.915
G01 X241.911 Y244.332
G01 X241.891 Y244.744
G01 X241.901 Y245.146
G01 X241.940 Y245.537
G01 X242.008 Y245.913
G01 X242.102 Y246.273
G01 X242.221 Y246.615
G01 X242.363 Y246.936
G01 X242.525 Y247.234
G01 X242.706 Y247.508
G01 X242.904 Y247.757
G01 X243.114 Y247.979
G01 X243.336 Y248.173
G01 X243.565 Y248.339
G01 X243.800 Y248.476
G01 X244.038 Y248.583
G01 X244.275 Y248.662
G01 X244.509 Y248.712
G01 X244.738 Y248.733
G01 X244.958 Y248.728
G01 X245.168 Y248.696
G01 X245.364 Y248.638
G01 X245.544 Y248.558
G01 X245.706 Y248.455
G01 X245.848 Y248.332
G01 X245.968 Y248.192
G01 X246.065 Y248.036
G01 X246.137 Y247.866
G01 X246.182 Y247.686
G01 X246.201 Y247.498
G01 X246.191 Y247.304
G01 X246.154 Y247.108
G01 X246.087 Y246.912
G01 X245.992 Y246.719
G01 X245.869 Y246.531
G01 X245.718 Y246.352
G01 X245.541 Y246.184
G01 X245.337 Y246.030
G01 X245.109 Y245.892
G01 X244.857 Y245.773
G01 X244.585 Y245.675
G01 X244.293 Y245.600
G01 X243.983 Y245.550
G01 X243.659 Y245.527
G01 X243.322 Y245.531
G01 X242.974 Y245.566
G01 X242.620 Y245.630
G01 X242.261 Y245.726
G01 X241.900 Y245.854
G01 X241.540 Y246.013
G01 X241.184 Y246.205
G01 X240.835 Y246.429
G01 X240.496 Y246.684
G01 X240.169 Y246.969
G01 X239.858 Y247.285
G01 X239.565 Y247.628
G01 X239.292 Y247.998
G01 X239.041 Y248.394
G01 X238.816 Y248.812
G01 X238.618 Y249.252
G01 X238.449 Y249.711
G01 X238.310 Y250.186
G01 X238.204 Y250.674
G01 X238.130 Y251.174
G01 X238.091 Y251.682
G01 X238.086 Y252.195
G01 X238.117 Y252.711
G01 X238.183 Y253.226
G01 X238.285 Y253.737
G01 X238.421 Y254.242
G01 X238.592 Y254.738
G01 X238.796 Y255.221
G01 X239.032 Y255.689
G01 X239.299 Y256.140
G01 X239.596 Y256.570
G01 X239.919 Y256.978
G01 X240.269 Y257.361
G01 X240.641 Y257.717
G01 X241.035 Y258.045
G01 X241.447 Y258.343
G01 X241.874 Y258.609
G01 X242.314 Y258.842
G01 X242.765 Y259.043
G01 X243.222 Y259.209
G01 X243.684 Y259.340
G01 X244.146 Y259.438
G01 X244.607 Y259.501
G01 X245.064 Y259.530
G01 X245.512 Y259.526
G01 X245.950 Y259.491
G01 X246.376 Y259.424
G01 X246.785 Y259.328
G01 X247.176 Y259.204
G01 X247.548 Y259.055
G01 X247.896 Y258.882
G01 X248.221 Y258.688
G01 X248.519 Y258.474
G01 X248.790 Y258.244
G01 X249.033 Y258.001
G01 X249.246 Y257.746
G01 X249.428 Y257.483
G01 X249.580 Y257.215
G01 X249.702 Y256.945
G01 X249.793 Y256.675
G01 X249.853 Y256.409
G01 X249.884 Y256.149
G01 X249.886 Y255.898
G01 X249.860 Y255.659
G01 X249.808 Y255.435
G01 X249.732 Y255.227
G01 X249.632 Y255.038
G01 X249.512 Y254.870
G01 X249.374 Y254.725
G01 X249.219 Y254.605
G01 X249.051 Y254.510
G01 X248.871 Y254.443
G01 X248.684 Y254.405
G01 X248.490 Y254.395
G01 X248.295 Y254.415
G01 X248.099 Y254.464
G01 X247.907 Y254.543
G01 X247.721 Y254.651
G01 X247.544 Y254.787
G01 X247.379 Y254.951
G01 X247.228 Y255.142
G01 X247.094 Y255.358
G01 X246.980 Y255.597
G01 X246.888 Y255.858
G01 X246.819 Y256.138
G01 X246.777 Y256.436
G01 X246.762 Y256.749
G01 X246.776 Y257.074
G01 X246.820 Y257.409
G01 X246.896 Y257.750
G01 X247.004 Y258.096
G01 X247.144 Y258.443
G01 X247.318 Y258.788
G01 X247.524 Y259.128
G01 X247.762 Y259.461
G01 X248.033 Y259.782
G01 X248.334 Y260.090
G01 X248.666 Y260.381
G01 X249.025 Y260.653
G01 X249.412 Y260.903
G01 X249.824 Y261.129
G01 X250.259 Y261.328
G01 X250.715 Y261.499
G01 X251.189 Y261.640
G01 X251.679 Y261.748
G01 X252.182 Y261.823
G01 X252.695 Y261.863
G01 X253.215 Y261.868
G01 X253.740 Y261.836
G01 X254.265 Y261.769
G01 X254.789 Y261.664
G01 X255.308 Y261.523
G01 X255.819 Y261.346
G01 X256.318 Y261.134
G01 X256.804 Y260.888
G01 X257.273 Y260.608
G01 X257.722 Y260.298
G01 X258.149 Y259.957
G01 X258.551 Y259.589
G01 X258.927 Y259.195
G01 X259.274 Y258.778
G01 X259.590 Y258.340
G01 X259.874 Y257.884
G01 X260.125 Y257.413
G01 X260.341 Y256.930
G01 X260.521 Y256.437
G01 X260.666 Y255.939
G01 X260.774 Y255.436
G01 X260.846 Y254.934
G01 X260.883 Y254.435
G01 X260.883 Y253.942
G01 X260.850 Y253.459
G01 X260.783 Y252.987
G01 X260.683 Y252.529
G01 X260.554 Y252.090
G01 X260.396 Y251.670
G01 X260.211 Y251.272
G01 X260.001 Y250.898
G01 X259.770 Y250.551
G01 X259.519 Y250.231
G01 X259.252 Y249.941
G01 X258.970 Y249.681
G01 X258.678 Y249.453
G01 X258.377 Y249.257
G01 X258.072 Y249.093
G01 X257.765 Y248.961
G01 X257.459 Y248.862
G01 X257.156 Y248.795
G01 X256.861 Y248.759
G01 X256.576 Y248.753
G01 X256.304 Y248.776
G01 X256.047 Y248.827
G01 X255.807 Y248.903
G01 X255.588 Y249.002
G01 X255.391 Y249.124
G01 X255.218 Y249.265
G01 X255.071 Y249.422
G01 X254.952 Y249.594
G01 X254.861 Y249.776
G01 X254.799 Y249.968
G01 X254.767 Y250.164
G01 X254.766 Y250.364
G01 X254.796 Y250.562
G01 X254.856 Y250.758
G01 X254.946 Y250.946
G01 X255.065 Y251.126
G01 X255.213 Y251.292
G01 X255.388 Y251.444
G01 X255.589 Y251.578
G01 X255.814 Y251.692
G01 X256.060 Y251.783
G01 X256.327 Y251.849
G01 X256.611 Y251.888
G01 X256.910 Y251.899
G01 X257.221 Y251.880
G01 X257.541 Y251.830
G01 X257.868 Y251.748
G01 X258.199 Y251.632
G01 X258.530 Y251.483
G01 X258.858 Y251.301
G01 X259.181 Y251.086
G01 X259.495 Y250.837
G01 X259.797 Y250.556
G01 X260.084 Y250.243
G01 X260.353 Y249.901
G01 X260.602 Y249.530
G01 X260.828 Y249.132
G01 X261.028 Y248.709
G01 X261.200 Y248.263
G01 X261.342 Y247.796
G01 X261.453 Y247.312
G01 X261.530 Y246.813
G01 X261.572 Y246.301
G01 X261.579 Y245.781
G01 X261.548 Y245.254
G01 X261.480 Y244.723
G01 X261.375 Y244.193
G01 X261.232 Y243.667
G01 X261.051 Y243.147
G01 X260.834 Y242.636
G01 X260.580 Y242.138
G01 X260.292 Y241.656
G01 X259.970 Y241.193
G01 X259.617 Y240.752
G01 X259.233 Y240.334
G01 X258.821 Y239.943
G01 X258.384 Y239.581
G01 X257.924 Y239.249
G01 X257.444 Y238.951
G01 X256.945 Y238.686
G01 X256.433 Y238.457
G01 X255.908 Y238.265
G01 X255.376 Y238.110
G01 X254.838 Y237.993
G01 X254.298 Y237.913
G01 X253.759 Y237.872
G01 X253.225 Y237.868
G01 X252.698 Y237.901
G01 X252.182 Y237.970
G01 X251.680 Y238.074
G01 X251.194 Y238.211
G01 X250.727 Y238.380
G01 X250.283 Y238.578
G01 X249.862 Y238.803
G01 X249.467 Y239.053
G01 X249.101 Y239.326
G01 X248.764 Y239.619
G01 X248.459 Y239.928
G01 X248.186 Y240.252
G01 X247.947 Y240.586
G01 X247.741 Y240.928
G01 X247.570 Y241.275
G01 X247.433 Y241.623
G01 X247.330 Y241.969
G01 X247.261 Y242.310
G01 X247.224 Y242.644
G01 X247.219 Y242.967
G01 X247.244 Y243.276
G01 X247.298 Y243.568
G01 X247.379 Y243.842
G01 X247.484 Y244.094
G01 X247.611 Y244.322
G01 X247.759 Y244.526
G01 X247.924 Y244.702
G01 X248.103 Y244.849
G01 X248.294 Y244.967
G01 X248.494 Y245.054
G01 X248.699 Y245.109
G01 X248.907 Y245.133
G01 X249.113 Y245.125
G01 X249.317 Y245.086
G01 X249.513 Y245.015
G01 X249.699 Y244.914
G01 X249.872 Y244.784
G01 X250.030 Y244.626
G01 X250.168 Y244.442
G01 X250.286 Y244.233
G01 X250.381 Y244.002
G01 X250.449 Y243.751
G01 X250.491 Y243.483
G01 X250.502 Y243.199
G01 X250.483 Y242.903
G01 X250.432 Y242.598
G01 X250.348 Y242.287
G01 X250.230 Y241.973
G01 X250.078 Y241.659
G01 X249.892 Y241.348
G01 X249.672 Y241.044
G01 X249.419 Y240.749
G01 X249.132 Y240.468
G01 X248.814 Y240.202
G01 X248.466 Y239.955
G01 X248.089 Y239.730
G01 X247.685 Y239.529
G01 X247.256 Y239.355
G01 X246.805 Y239.210
G01 X246.334 Y239.096
G01 X245.845 Y239.015
G01 X245.342 Y238.969
G01 X244.828 Y238.959
G01 X244.305 Y238.987
G01 X243.777 Y239.052
G01 X243.247 Y239.155
G01 X242.719 Y239.298
G01 X242.195 Y239.479
G01 X241.679 Y239.698
G01 X241.175 Y239.955
G01 X240.685 Y240.248
G01 X240.213 Y240.577
G01 X239.761 Y240.940
G01 X239.333 Y241.334
G01 X238.931 Y241.759
G01 X238.557 Y242.212
G01 X238.214 Y242.690
G01 X237.904 Y243.191
G01 X237.629 Y243.712
G01 X237.390 Y244.249
G01 X237.188 Y244.801
G01 X237.025 Y245.363
G01 X236.901 Y245.932
G01 X236.816 Y246.506
G01 X236.772 Y247.080
G01 X236.766 Y247.652
G01 X236.800 Y248.217
G01 X236.872 Y248.774
G01 X236.982 Y249.318
G01 X237.127 Y249.846
G01 X237.307 Y250.356
G01 X237.518 Y250.845
G01 X237.761 Y251.311
G01 X238.031 Y251.750
G01 X238.326 Y252.160
G01 X238.645 Y252.541
G01 X238.983 Y252.889
G01 X239.338 Y253.205
G01 X239.707 Y253.485
G01 X240.087 Y253.731
G01 X240.474 Y253.940
G01 X240.865 Y254.113
G01 X241.257 Y254.250
G01 X241.646 Y254.352
G01 X242.029 Y254.418
G01 X242.404 Y254.450
G01 X242.767 Y254.449
G01 X243.114 Y254.416
G01 X243.444 Y254.354
G01 X243.754 Y254.263
G01 X244.041 Y254.147
G01 X244.303 Y254.008
G01 X244.539 Y253.848
G01 X244.745 Y253.670
G01 X244.922 Y253.478
G01 X245.068 Y253.273
G01 X245.181 Y253.060
G01 X245.262 Y252.841
G01 X245.309 Y252.620
G01 X245.324 Y252.399
G01 X245.306 Y252.183
G01 X245.256 Y251.974
G01 X245.174 Y251.776
G01 X245.063 Y251.591
G01 X244.923 Y251.423
G01 X244.756 Y251.273
G01 X244.563 Y251.146
G01 X244.348 Y251.043
G01 X244.113 Y250.967
G01 X243.860 Y250.918
G01 X243.592 Y250.901
G01 X243.311 Y250.914
G01 X243.022 Y250.961
G01 X242.727 Y251.042
G01 X242.429 Y251.157
G01 X242.132 Y251.306
G01 X241.839 Y251.491
G01 X241.553 Y251.710
G01 X241.277 Y251.963
G01 X241.015 Y252.250
G01 X240.770 Y252.568
G01 X240.545 Y252.917
G01 X240.343 Y253.294
G01 X240.166 Y253.698
G01 X240.017 Y254.127
G01 X239.899 Y254.579
G01 X239.813 Y255.049
G01 X239.761 Y255.537
G01 X239.745 Y256.038
G01 X239.766 Y256.550
G01 X239.826 Y257.069
G01 X239.924 Y257.592
G01 X240.062 Y258.116
G01 X240.239 Y258.637
G01 X240.456 Y259.152
G01 X240.712 Y259.657
G01 X241.006 Y260.149
G01 X241.337 Y260.626
G01 X241.703 Y261.083
G01 X242.104 Y261.517
G01 X242.537 Y261.926
G01 X243.000 Y262.308
G01 X243.491 Y262.658
G01 X244.007 Y262.976
G01 X244.545 Y263.260
G01 X245.102 Y263.506
G01 X245.676 Y263.715
G01 X246.262 Y263.884
G01 X246.858 Y264.013
G01 X247.460 Y264.101
G01 X248.065 Y264.148
G01 X248.669 Y264.153
G01 X249.269 Y264.117
G01 X249.861 Y264.041
G01 X250.442 Y263.926
G01 X251.009 Y263.772
G01 X251.559 Y263.581
G01 X252.088 Y263.355
G01 X252.594 Y263.096
G01 X253.074 Y262.806
G01 X253.526 Y262.487
G01 X253.947 Y262.143
G01 X254.336 Y261.776
G01 X254.691 Y261.388
G01 X255.010 Y260.985
G01 X255.293 Y260.567
G01 X255.538 Y260.140
G01 X255.745 Y259.705
G01 X255.915 Y259.268
G01 X256.046 Y258.830
G01 X256.140 Y258.396
G01 X256.197 Y257.969
G01 X256.218 Y257.551
G01 X256.204 Y257.147
G01 X256.158 Y256.760
G01 X256.081 Y256.391
G01 X255.975 Y256.044
G01 X255.842 Y255.721
G01 X255.685 Y255.424
G01 X255.507 Y255.156
G01 X255.311 Y254.918
G01 X255.099 Y254.712
G01 X254.875 Y254.538
G01 X254.642 Y254.398
G01 X254.404 Y254.292
G01 X254.163 Y254.220
G01 X253.924 Y254.183
G01 X253.689 Y254.180
G01 X253.462 Y254.210
G01 X253.245 Y254.272
G01 X253.043 Y254.365
G01 X252.859 Y254.488
G01 X252.694 Y254.639
G01 X252.552 Y254.815
G01 X252.435 Y255.015
G01 X252.345 Y255.235
G01 X252.285 Y255.473
G01 X252.255 Y255.727
G01 X252.259 Y255.993
G01 X252.296 Y256.267
G01 X252.367 Y256.548
G01 X252.474 Y256.830
G01 X252.617 Y257.112
G01 X252.794 Y257.389
G01 X253.007 Y257.658
G01 X253.255 Y257.916
G01 X253.536 Y258.159
G01 X253.849 Y258.384
G01 X254.193 Y258.589
G01 X254.565 Y258.770
G01 X254.965 Y258.924
G01 X255.389 Y259.050
G01 X255.834 Y259.144
G01 X256.299 Y259.204
G01 X256.780 Y259.229
G01 X257.274 Y259.218
G01 X257.777 Y259.168
G01 X258.287 Y259.079
G01 X258.800 Y258.950
G01 X259.313 Y258.780
G01 X259.821 Y258.571
G01 X260.322 Y258.321
G01 X260.812 Y258.032
G01 X261.287 Y257.704
G01 X261.745 Y257.339
G01 X262.181 Y256.938
G01 X262.593 Y256.503
G01 X262.978 Y256.035
G01 X263.334 Y255.538
G01 X263.657 Y255.013
G01 X263.945 Y254.464
G01 X264.197 Y253.893
G01 X264.410 Y253.304
G01 X264.583 Y252.700
G01 X264.715 Y252.083
G01 X264.805 Y251.458
G01 X264.853 Y250.829
G01 X264.858 Y250.198
G01 X264.820 Y249.569
G01 X264.740 Y248.947
G01 X264.618 Y248.334
G01 X264.455 Y247.733
G01 X264.253 Y247.149
G01 X264.013 Y246.584
G01 X263.737 Y246.042
G01 X263.428 Y245.526
G01 X263.087 Y245.037
G01 X262.717 Y244.579
G01 X262.322 Y244.153
G01 X261.904 Y243.762
G01 X261.465 Y243.407
G01 X261.011 Y243.090
G01 X260.543 Y242.812
G01 X260.066 Y242.573
G01 X259.583 Y242.374
G01 X259.098 Y242.216
G01 X258.613 Y242.097
G01 X258.133 Y242.017
G01 X257.661 Y241.976
G01 X257.201 Y241.972
G01 X256.755 Y242.004
G01 X256.326 Y242.070
G01 X255.919 Y242.168
G01 X255.534 Y242.296
G01 X255.176 Y242.452
G01 X254.845 Y242.633
G01 X254.545 Y242.835
G01 X254.276 Y243.057
G01 X254.040 Y243.294
G01 X253.839 Y243.543
G01 X253.673 Y243.801
G01 X253.543 Y244.065
G01 X253.448 Y244.331
G01 X253.389 Y244.595
G01 X253.366 Y244.855
G01 X253.377 Y245.106
G01 X253.422 Y245.345
G01 X253.498 Y245.570
G01 X253.605 Y245.777
G01 X253.741 Y245.963
G01 X253.903 Y246.125
G01 X254.089 Y246.262
G01 X254.296 Y246.370
G01 X254.522 Y246.448
G01 X254.763 Y246.494
G01 X255.016 Y246.506
G01 X255.278 Y246.484
G01 X255.545 Y246.426
G01 X255.815 Y246.333
G01 X256.083 Y246.203
G01 X256.346 Y246.037
G01 X256.600 Y245.835
G01 X256.843 Y245.599
G01 X257.070 Y245.328
G01 X257.279 Y245.025
G01 X257.466 Y244.691
G01 X257.628 Y244.328
G01 X257.763 Y243.939
G01 X257.868 Y243.525
G01 X257.940 Y243.090
G01 X257.978 Y242.636
G01 X257.980 Y242.167
G01 X257.944 Y241.685
G01 X257.869 Y241.194
G01 X257.753 Y240.698
G01 X257.597 Y240.200
G01 X257.400 Y239.704
G01 X257.162 Y239.213
G01 X256.884 Y238.731
G01 X256.566 Y238.261
G01 X256.208 Y237.808
G01 X255.813 Y237.373
G01 X255.382 Y236.962
G01 X254.917 Y236.577
G01 X254.420 Y236.220
G01 X253.893 Y235.895
G01 X253.340 Y235.604
G01 X252.762 Y235.350
G01 X252.164 Y235.134
G01 X251.548 Y234.958
G01 X250.918 Y234.824
G01 X250.277 Y234.732
G01 X249.629 Y234.684
G01 X248.978 Y234.680
G01 X248.327 Y234.721
G01 X247.680 Y234.805
G01 X247.041 Y234.933
G01 X246.413 Y235.104
G01 X245.800 Y235.316
G01 X245.205 Y235.569
G01 X244.632 Y235.860
G01 X244.084 Y236.188
G01 X243.563 Y236.550
G01 X243.072 Y236.943
G01 X242.614 Y237.365
G01 X242.191 Y237.813
G01 X241.805 Y238.284
G01 X241.457 Y238.774
G01 X241.149 Y239.280
G01 X240.882 Y239.799
G01 X240.657 Y240.326
G01 X240.473 Y240.858
G01 X240.332 Y241.392
G01 X240.232 Y241.923
G01 X240.173 Y242.449
G01 X240.154 Y242.965
G01 X240.174 Y243.469
G01 X240.231 Y243.956
G01 X240.324 Y244.424
G01 X240.450 Y244.869
G01 X240.607 Y245.290
G01 X240.793 Y245.683
G01 X241.003 Y246.046
G01 X241.236 Y246.378
G01 X241.489 Y246.676
G01 X241.757 Y246.939
G01 X242.038 Y247.165
G01 X242.328 Y247.355
G01 X242.623 Y247.508
G01 X242.920 Y247.623
G01 X243.215 Y247.701
G01 X243.504 Y247.742
G01 X243.785 Y247.748
G01 X244.054 Y247.718
G01 X244.306 Y247.656
G01 X244.540 Y247.561
G01 X244.753 Y247.438
G01 X244.941 Y247.287
G01 X245.102 Y247.112
G01 X245.234 Y246.915
G01 X245.334 Y246.700
G01 X245.402 Y246.468
G01 X245.435 Y246.225
G01 X245.432 Y245.972
G01 X245.393 Y245.714
G01 X245.318 Y245.455
G01 X245.205 Y245.197
G01 X245.055 Y244.945
G01 X244.870 Y244.701
G01 X244.648 Y244.470
G01 X244.393 Y244.256
G01 X244.104 Y244.060
G01 X243.785 Y243.887
G01 X243.436 Y243.740
G01 X243.061 Y243.620
G01 X242.662 Y243.532
G01 X242.242 Y243.477
G01 X241.803 Y243.458
G01 X241.349 Y243.475
G01 X240.884 Y243.532
G01 X240.410 Y243.628
G01 X239.932 Y243.765
G01 X239.453 Y243.943
G01 X238.977 Y244.163
G01 X238.507 Y244.425
G01 X238.048 Y244.727
G01 X237.603 Y245.070
G01 X237.175 Y245.452
G01 X236.768 Y245.872
G01 X236.385 Y246.328
G01 X236.030 Y246.817
G01 X235.706 Y247.338
G01 X235.414 Y247.889
G01 X235.159 Y248.465
G01 X234.941 Y249.065
G01 X234.764 Y249.685
G01 X234.628 Y250.321
G01 X234.536 Y250.971
G01 X234.488 Y251.630
G01 X234.484 Y252.294
G01 X234.527 Y252.961
G01 X234.615 Y253.625
G01 X234.748 Y254.284
G01 X234.925 Y254.933
G01 X235.147 Y255.569
G01 X235.410 Y256.187
G01 X235.715 Y256.786
G01 X236.059 Y257.361
G01 X236.439 Y257.909
G01 X236.854 Y258.427
G01 X237.301 Y258.913
G01 X237.776 Y259.363
G01 X238.277 Y259.777
G01 X238.800 Y260.151
G01 X239.342 Y260.485
G01 X239.900 Y260.776
G01 X240.469 Y261.025
G01 X241.045 Y261.230
G01 X241.626 Y261.391
G01 X242.207 Y261.508
G01 X242.784 Y261.582
G01 X243.354 Y261.613
G01 X243.913 Y261.603
G01 X244.458 Y261.552
G01 X244.984 Y261.463
G01 X245.490 Y261.337
G01 X245.971 Y261.176
G01 X246.426 Y260.984
G01 X246.851 Y260.763
G01 X247.244 Y260.516
G01 X247.604 Y260.246
G01 X247.928 Y259.956
G01 X248.216 Y259.651
G01 X248.465 Y259.332
G01 X248.676 Y259.005
G01 X248.847 Y258.673
G01 X248.980 Y258.340
G01 X249.074 Y258.009
G01 X249.129 Y257.684
G01 X249.147 Y257.368
G01 X249.129 Y257.066
G01 X249.077 Y256.780
G01 X248.992 Y256.513
G01 X248.877 Y256.270
G01 X248.734 Y256.051
G01 X248.566 Y255.861
G01 X248.375 Y255.701
G01 X248.165 Y255.574
G01 X247.940 Y255.480
G01 X247.701 Y255.422
G01 X247.454 Y255.400
G01 X247.202 Y255.416
G01 X246.948 Y255.470
G01 X246.696 Y255.561
G01 X246.450 Y255.690
G01 X246.213 Y255.856
G01 X245.989 Y256.058
G01 X245.783 Y256.295
G01 X245.596 Y256.565
G01 X245.432 Y256.866
G01 X245.295 Y257.197
G01 X245.187 Y257.554
G01 X245.110 Y257.935
G01 X245.068 Y258.337
G01 X245.062 Y258.757
G01 X245.094 Y259.192
G01 X245.165 Y259.637
G01 X245.278 Y260.090
G01 X245.431 Y260.547
G01 X245.627 Y261.004
G01 X245.864 Y261.457
G01 X246.144 Y261.902
G01 X246.465 Y262.335
G01 X246.826 Y262.754
G01 X247.227 Y263.153
G01 X247.666 Y263.530
G01 X248.140 Y263.881
G01 X248.648 Y264.204
G01 X249.187 Y264.494
G01 X249.755 Y264.749
G01 X250.349 Y264.967
G01 X250.965 Y265.145
G01 X251.599 Y265.282
G01 X252.250 Y265.376
G01 X252.912 Y265.425
G01 X253.582 Y265.428
G01 X254.257 Y265.385
G01 X254.931 Y265.295
G01 X255.602 Y265.159
G01 X256.266 Y264.976
G01 X256.917 Y264.748
G01 X257.554 Y264.476
G01 X258.172 Y264.160
G01 X258.767 Y263.803
G01 X259.336 Y263.407
G01 X259.876 Y262.974
G01 X260.385 Y262.506
G01 X260.858 Y262.007
G01 X261.294 Y261.479
G01 X261.690 Y260.926
G01 X262.046 Y260.352
G01 X262.358 Y259.759
G01 X262.626 Y259.152
G01 X262.849 Y258.534
G01 X263.027 Y257.910
G01 X263.159 Y257.283
G01 X263.245 Y256.657
G01 X263.286 Y256.036
G01 X263.282 Y255.424
G01 X263.236 Y254.825
G01 X263.148 Y254.242
G01 X263.020 Y253.679
G01 X262.854 Y253.139
G01 X262.653 Y252.625
G01 X262.420 Y252.140
G01 X262.157 Y251.687
G01 X261.867 Y251.267
G01 X261.555 Y250.883
G01 X261.222 Y250.536
G01 X260.873 Y250.229
G01 X260.512 Y249.961
G01 X260.143 Y249.734
G01 X259.769 Y249.547
G01 X259.394 Y249.402
G01 X259.021 Y249.297
G01 X258.656 Y249.232
G01 X258.301 Y249.205
G01 X257.960 Y249.216
G01 X257.636 Y249.263
G01 X257.333 Y249.343
G01 X257.054 Y249.455
G01 X256.801 Y249.595
G01 X256.578 Y249.762
G01 X256.386 Y249.951
G01 X256.227 Y250.160
G01 X256.104 Y250.385
G01 X256.017 Y250.623
G01 X255.968 Y250.870
G01 X255.957 Y251.122
G01 X255.985 Y251.376
G01 X256.052 Y251.627
G01 X256.157 Y251.872
G01 X256.300 Y252.108
G01 X256.480 Y252.329
G01 X256.695 Y252.533
G01 X256.943 Y252.717
G01 X257.224 Y252.877
G01 X257.533 Y253.009
G01 X257.870 Y253.112
G01 X258.230 Y253.182
G01 X258.611 Y253.217
G01 X259.010 Y253.215
G01 X259.423 Y253.174
G01 X259.847 Y253.094
G01 X260.277 Y252.971
G01 X260.710 Y252.807
G01 X261.142 Y252.600
G01 X261.570 Y252.351
G01 X261.988 Y252.059
G01 X262.394 Y251.726
G01 X262.784 Y251.352
G01 X263.153 Y250.939
G01 X263.499 Y250.488
G01 X263.817 Y250.001
G01 X264.105 Y249.481
G01 X264.359 Y248.930
G01 X264.578 Y248.351
G01 X264.757 Y247.748
G01 X264.895 Y247.123
G01 X264.991 Y246.480
G01 X265.041 Y245.822
G01 X265.046 Y245.154
G01 X265.004 Y244.480
G01 X264.915 Y243.802
G01 X264.778 Y243.127
G01 X264.593 Y242.456
G01 X264.361 Y241.795
G01 X264.083 Y241.148
G01 X263.760 Y240.517
G01 X263.394 Y239.908
G01 X262.986 Y239.324
G01 X262.538 Y238.767
G01 X262.054 Y238.242
G01 X261.535 Y237.751
G01 X260.985 Y237.297
G01 X260.406 Y236.883
G01 X259.804 Y236.510
G01 X259.180 Y236.181
G01 X258.539 Y235.897
G01 X257.885 Y235.659
G01 X257.221 Y235.468
G01 X256.552 Y235.325
G01 X255.882 Y235.229
G01 X255.215 Y235.181
G01 X254.554 Y235.180
G01 X253.904 Y235.224
G01 X253.269 Y235.313
G01 X252.652 Y235.444
G01 X252.057 Y235.617
G01 X251.486 Y235.828
G01 X250.944 Y236.075
G01 X250.433 Y236.356
G01 X249.956 Y236.666
G01 X249.515 Y237.004
G01 X249.111 Y237.364
G01 X248.748 Y237.745
G01 X248.425 Y238.141
G01 X248.144 Y238.550
G01 X247.905 Y238.967
G01 X247.710 Y239.388
G01 X247.557 Y239.809
G01 X247.446 Y240.227
G01 X247.377 Y240.637
G01 X247.348 Y241.035
G01 X247.357 Y241.419
G01 X247.404 Y241.784
G01 X247.486 Y242.127
G01 X247.600 Y242.445
G01 X247.743 Y242.736
G01 X247.913 Y242.996
G01 X248.107 Y243.223
G01 X248.321 Y243.415
G01 X248.552 Y243.571
G01 X248.795 Y243.690
G01 X249.048 Y243.769
G01 X249.306 Y243.809
G01 X249.565 Y243.809
G01 X249.822 Y243.769
G01 X250.072 Y243.689
G01 X250.311 Y243.572
G01 X250.537 Y243.416
G01 X250.744 Y243.225
G01 X250.931 Y243.000
G01 X251.092 Y242.742
G01 X251.226 Y242.455
G01 X251.329 Y242.141
G01 X251.399 Y241.803
G01 X251.433 Y241.444
G01 X251.430 Y241.068
G01 X251.387 Y240.678
G01 X251.303 Y240.278
G01 X251.177 Y239.872
G01 X251.008 Y239.463
G01 X250.796 Y239.056
G01 X250.541 Y238.655
G01 X250.244 Y238.264
G01 X249.905 Y237.886
G01 X249.525 Y237.526
G01 X249.106 Y237.188
G01 X248.649 Y236.874
G01 X248.156 Y236.589
G01 X247.631 Y236.335
G01 X247.076 Y236.117
G01 X246.493 Y235.936
G01 X245.886 Y235.795
G01 X245.258 Y235.696
G01 X244.614 Y235.642
G01 X243.956 Y235.633
G01 X243.290 Y235.672
G01 X242.618 Y235.758
G01 X241.945 Y235.893
G01 X241.275 Y236.076
G01 X240.612 Y236.308
G01 X239.960 Y236.587
G01 X239.324 Y236.913
G01 X238.707 Y237.285
G01 X238.113 Y237.700
G01 X237.547 Y238.157
G01 X237.010 Y238.654
G01 X236.507 Y239.187
G01 X236.040 Y239.754
G01 X235.612 Y240.352
G01 X235.227 Y240.978
G01 X234.885 Y241.627
G01 X234.588 Y242.296
G01 X234.339 Y242.982
G01 X234.138 Y243.679
G01 X233.986 Y244.385
G01 X233.884 Y245.094
G01 X233.830 Y245.803
G01 X233.826 Y246.507
G01 X233.870 Y247.203
G01 X233.961 Y247.886
G01 X234.098 Y248.552
G01 X234.279 Y249.198
G01 X234.501 Y249.821
G01 X234.763 Y250.415
G01 X235.062 Y250.980
G01 X235.394 Y251.511
G01 X235.757 Y252.006
G01 X236.147 Y252.464
G01 X236.560 Y252.880
G01 X236.993 Y253.256
G01 X237.442 Y253.588
G01 X237.902 Y253.876
G01 X238.370 Y254.119
G01 X238.841 Y254.318
G01 X239.312 Y254.472
G01 X239.779 Y254.582
G01 X240.236 Y254.649
G01 X240.682 Y254.674
G01 X241.111 Y254.659
G01 X241.520 Y254.606
G01 X241.906 Y254.516
G01 X242.265 Y254.394
G01 X242.596 Y254.240
G01 X242.895 Y254.060
G01 X243.159 Y253.855
G01 X243.387 Y253.629
G01 X243.578 Y253.387
G01 X243.729 Y253.131
G01 X243.840 Y252.866
G01 X243.910 Y252.596
G01 X243.939 Y252.325
G01 X243.928 Y252.057
G01 X243.876 Y251.795
G01 X243.784 Y251.545
G01 X243.654 Y251.309
G01 X243.487 Y251.091
G01 X243.286 Y250.896
G01 X243.052 Y250.726
G01 X242.788 Y250.584
G01 X242.497 Y250.474
G01 X242.181 Y250.398
G01 X241.845 Y250.358
G01 X241.492 Y250.357
G01 X241.125 Y250.396
G01 X240.748 Y250.477
G01 X240.366 Y250.600
G01 X239.982 Y250.767
G01 X239.600 Y250.977
G01 X239.225 Y251.230
G01 X238.861 Y251.527
G01 X238.511 Y251.865
G01 X238.180 Y252.245
G01 X237.871 Y252.663
G01 X237.589 Y253.120
G01 X237.336 Y253.611
G01 X237.116 Y254.135
G01 X236.932 Y254.688
G01 X236.787 Y255.268
G01 X236.683 Y255.872
G01 X236.622 Y256.495
G01 X236.607 Y257.134
G01 X236.639 Y257.785
G01 X236.718 Y258.444
G01 X236.847 Y259.106
G01 X237.025 Y259.768
G01 X237.252 Y260.426
G01 X237.527 Y261.074
G01 X237.852 Y261.709
G01 X238.223 Y262.327
G01 X238.640 Y262.924
G01 X239.101 Y263.496
G01 X239.603 Y264.038
G01 X240.145 Y264.549
G01 X240.723 Y265.024
G01 X241.335 Y265.460
G01 X241.977 Y265.854
G01 X242.645 Y266.205
G01 X243.336 Y266.510
G01 X244.047 Y266.768
G01 X244.771 Y266.976
G01 X245.507 Y267.134
G01 X246.249 Y267.242
G01 X246.993 Y267.298
G01 X247.736 Y267.304
G01 X248.471 Y267.259
G01 X249.196 Y267.164
G01 X249.907 Y267.021
G01 X250.598 Y266.831
G01 X251.267 Y266.597
G01 X251.910 Y266.319
G01 X252.523 Y266.002
G01 X253.104 Y265.648
G01 X253.649 Y265.259
G01 X254.155 Y264.840
G01 X254.621 Y264.394
G01 X255.045 Y263.925
G01 X255.424 Y263.436
G01 X255.759 Y262.932
G01 X256.047 Y262.417
G01 X256.288 Y261.895
G01 X256.483 Y261.371
G01 X256.631 Y260.848
G01 X256.733 Y260.330
G01 X256.791 Y259.823
G01 X256.805 Y259.329
G01 X256.777 Y258.853
G01 X256.710 Y258.398
G01 X256.606 Y257.967
G01 X256.468 Y257.565
G01 X256.298 Y257.193
G01 X256.099 Y256.855
G01 X255.876 Y256.552
G01 X255.632 Y256.287
G01 X255.371 Y256.062
G01 X255.096 Y255.877
G01 X254.812 Y255.734
G01 X254.523 Y255.633
G01 X254.233 Y255.575
G01 X253.946 Y255.558
G01 X253.666 Y255.583
G01 X253.398 Y255.649
G01 X253.145 Y255.754
G01 X252.911 Y255.896
G01 X252.700 Y256.074
G01 X252.514 Y256.285
G01 X252.358 Y256.527
G01 X252.235 Y256.796
G01 X252.146 Y257.090
G01 X252.094 Y257.404
G01 X252.082 Y257.736
G01 X252.110 Y258.081
G01 X252.181 Y258.435
G01 X252.295 Y258.795
G01 X252.453 Y259.156
G01 X252.655 Y259.514
G01 X252.901 Y259.864
G01 X253.190 Y260.203
G01 X253.521 Y260.527
G01 X253.894 Y260.831
G01 X254.305 Y261.112
G01 X254.754 Y261.366
G01 X255.238 Y261.589
G01 X255.754 Y261.778
G01 X256.299 Y261.929
G01 X256.870 Y262.041
G01 X257.463 Y262.111
G01 X258.076 Y262.136
G01 X258.703 Y262.115
G01 X259.341 Y262.046
G01 X259.985 Y261.929
G01 X260.632 Y261.761
G01 X261.277 Y261.544
G01 X261.915 Y261.277
G01 X262.543 Y260.961
G01 X263.156 Y260.596
G01 X263.749 Y260.184
G01 X264.320 Y259.726
G01 X264.863 Y259.224
G01 X265.376 Y258.680
G01 X265.854 Y258.098
G01 X266.294 Y257.480
G01 X266.694 Y256.829
G01 X267.050 Y256.149
G01 X267.361 Y255.443
G01 X267.624 Y254.715
G01 X267.837 Y253.970
G01 X267.999 Y253.211
G01 X268.110 Y252.443
G01 X268.168 Y251.671
G01 X268.173 Y250.898
G01 X268.126 Y250.129
G01 X268.028 Y249.369
G01 X267.878 Y248.621
G01 X267.679 Y247.890
G01 X267.432 Y247.180
G01 X267.140 Y246.495
G01 X266.805 Y245.839
G01 X266.429 Y245.215
G01 X266.015 Y244.625
G01 X265.568 Y244.074
G01 X265.090 Y243.564
G01 X264.585 Y243.096
G01 X264.057 Y242.673
G01 X263.510 Y242.297
G01 X262.949 Y241.968
G01 X262.377 Y241.688
G01 X261.799 Y241.456
G01 X261.220 Y241.273
G01 X260.644 Y241.138
G01 X260.074 Y241.051
G01 X259.516 Y241.011
G01 X258.973 Y241.015
G01 X258.449 Y241.063
G01 X257.948 Y241.151
G01 X257.473 Y241.278
G01 X257.027 Y241.440
G01 X256.615 Y241.634
G01 X256.237 Y241.857
G01 X255.896 Y242.106
G01 X255.596 Y242.376
G01 X255.336 Y242.663
G01 X255.118 Y242.964
G01 X254.944 Y243.275
G01 X254.813 Y243.590
G01 X254.727 Y243.906
G01 X254.683 Y244.218
G01 X254.683 Y244.523
G01 X254.724 Y244.816
G01 X254.805 Y245.093
G01 X254.925 Y245.351
G01 X255.082 Y245.584
G01 X255.272 Y245.792
G01 X255.493 Y245.968
G01 X255.742 Y246.112
G01 X256.016 Y246.221
G01 X256.311 Y246.291
G01 X256.623 Y246.321
G01 X256.949 Y246.309
G01 X257.283 Y246.254
G01 X257.623 Y246.156
G01 X257.964 Y246.013
G01 X258.300 Y245.825
G01 X258.630 Y245.593
G01 X258.947 Y245.318
G01 X259.247 Y245.000
G01 X259.528 Y244.641
G01 X259.784 Y244.242
G01 X260.012 Y243.807
G01 X260.208 Y243.337
G01 X260.370 Y242.835
G01 X260.493 Y242.304
G01 X260.576 Y241.748
G01 X260.615 Y241.170
G01 X260.609 Y240.575
G01 X260.556 Y239.965
G01 X260.454 Y239.346
G01 X260.303 Y238.722
G01 X260.101 Y238.097
G01 X259.849 Y237.475
G01 X259.547 Y236.861
G01 X259.195 Y236.259
G01 X258.795 Y235.674
G01 X258.347 Y235.110
G01 X257.853 Y234.571
G01 X257.315 Y234.061
G01 X256.737 Y233.584
G01 X256.120 Y233.143
G01 X255.468 Y232.742
G01 X254.784 Y232.384
G01 X254.071 Y232.070
G01 X253.334 Y231.805
G01 X252.577 Y231.589
G01 X251.803 Y231.424
G01 X251.017 Y231.312
G01 X250.224 Y231.253
G01 X249.428 Y231.248
G01 X248.634 Y231.298
G01 X247.846 Y231.400
G01 X247.068 Y231.556
G01 X246.305 Y231.764
G01 X245.561 Y232.022
G01 X244.841 Y232.328
G01 X244.147 Y232.681
G01 X243.485 Y233.077
G01 X242.858 Y233.514
G01 X242.267 Y233.988
G01 X241.718 Y234.497
G01 X241.211 Y235.036
G01 X240.750 Y235.601
G01 X240.336 Y236.188
G01 X239.971 Y236.794
G01 X239.656 Y237.414
G01 X239.391 Y238.042
G01 X239.177 Y238.676
G01 X239.014 Y239.310
G01 X238.901 Y239.940
G01 X238.837 Y240.561
G01 X238.821 Y241.170
G01 X238.852 Y241.762
G01 X238.928 Y242.333
G01 X239.045 Y242.879
G01 X239.202 Y243.398
G01 X239.395 Y243.885
G01 X239.621 Y244.337
G01 X239.876 Y244.753
G01 X240.158 Y245.129
G01 X240.461 Y245.465
G01 X240.782 Y245.757
G01 X241.117 Y246.005
G01 X241.460 Y246.208
G01 X241.809 Y246.366
G01 X242.158 Y246.479
G01 X242.503 Y246.546
G01 X242.839 Y246.570
G01 X243.164 Y246.550
G01 X243.471 Y246.489
G01 X243.759 Y246.388
G01 X244.022 Y246.251
G01 X244.257 Y246.078
G01 X244.461 Y245.874
G01 X244.631 Y245.642
G01 X244.765 Y245.384
G01 X244.860 Y245.105
G01 X244.913 Y244.809
G01 X244.925 Y244.499
G01 X244.892 Y244.180
G01 X244.815 Y243.857
G01 X244.692 Y243.533
G01 X244.525 Y243.213
G01 X244.313 Y242.901
G01 X244.056 Y242.602
G01 X243.757 Y242.320
G01 X243.417 Y242.059
G01 X243.037 Y241.823
G01 X242.620 Y241.616
G01 X242.169 Y241.442
G01 X241.686 Y241.303
G01 X241.175 Y241.203
G01 X240.640 Y241.145
G01 X240.083 Y241.131
G01 X239.509 Y241.163
G01 X238.922 Y241.244
G01 X238.327 Y241.373
G01 X237.728 Y241.552
G01 X237.129 Y241.782
G01 X236.535 Y242.063
G01 X235.950 Y242.395
G01 X235.379 Y242.776
G01 X234.827 Y243.207
G01 X234.297 Y243.684
G01 X233.794 Y244.207
G01 X233.322 Y244.774
G01 X232.884 Y245.381
G01 X232.484 Y246.026
G01 X232.126 Y246.705
G01 X231.812 Y247.416
G01 X231.546 Y248.153
G01 X231.329 Y248.914
G01 X231.163 Y249.694
G01 X231.049 Y250.489
G01 X230.990 Y251.294
G01 X230.986 Y252.105
G01 X231.038 Y252.917
G01 X231.144 Y253.725
G01 X231.305 Y254.525
G01 X231.520 Y255.312
G01 X231.788 Y256.082
G01 X232.106 Y256.831
G01 X232.474 Y257.554
G01 X232.888 Y258.247
G01 X233.346 Y258.907
G01 X233.844 Y259.530
G01 X234.381 Y260.112
G01 X234.950 Y260.652
G01 X235.550 Y261.146
G01 X236.176 Y261.593
G01 X236.823 Y261.989
G01 X237.487 Y262.335
G01 X238.164 Y262.629
G01 X238.850 Y262.870
G01 X239.538 Y263.058
G01 X240.226 Y263.193
G01 X240.908 Y263.277
G01 X241.580 Y263.309
G01 X242.237 Y263.292
G01 X242.876 Y263.226
G01 X243.492 Y263.116
G01 X244.081 Y262.961
G01 X244.641 Y262.767
G01 X245.167 Y262.535
G01 X245.657 Y262.270
G01 X246.107 Y261.974
G01 X246.516 Y261.653
G01 X246.883 Y261.309
G01 X247.204 Y260.948
G01 X247.479 Y260.573
G01 X247.708 Y260.189
G01 X247.889 Y259.800
G01 X248.024 Y259.412
G01 X248.112 Y259.028
G01 X248.154 Y258.653
G01 X248.152 Y258.291
G01 X248.107 Y257.946
G01 X248.022 Y257.623
G01 X247.898 Y257.325
G01 X247.739 Y257.056
G01 X247.547 Y256.819
G01 X247.327 Y256.616
G01 X247.081 Y256.452
G01 X246.813 Y256.327
G01 X246.528 Y256.244
G01 X246.229 Y256.205
G01 X245.921 Y256.210
G01 X245.609 Y256.261
G01 X245.296 Y256.357
G01 X244.988 Y256.500
G01 X244.688 Y256.687
G01 X244.402 Y256.919
G01 X244.133 Y257.195
G01 X243.886 Y257.512
G01 X243.665 Y257.868
G01 X243.474 Y258.262
G01 X243.316 Y258.690
G01 X243.194 Y259.149
G01 X243.112 Y259.636
G01 X243.073 Y260.147
G01 X243.078 Y260.679
G01 X243.130 Y261.226
G01 X243.231 Y261.786
G01 X243.382 Y262.354
G01 X243.583 Y262.924
G01 X243.835 Y263.493
G01 X244.139 Y264.056
G01 X244.493 Y264.608
G01 X244.897 Y265.144
G01 X245.350 Y265.661
G01 X245.851 Y266.153
G01 X246.396 Y266.617
G01 X246.985 Y267.049
G01 X247.613 Y267.444
G01 X248.278 Y267.800
G01 X248.977 Y268.112
G01 X249.707 Y268.379
G01 X250.462 Y268.596
G01 X251.239 Y268.763
G01 X252.034 Y268.877
G01 X252.842 Y268.937
G01 X253.658 Y268.941
G01 X254.479 Y268.889
G01 X255.298 Y268.781
G01 X256.112 Y268.616
G01 X256.916 Y268.396
G01 X257.704 Y268.121
G01 X258.473 Y267.793
G01 X259.218 Y267.413
G01 X259.935 Y266.984
G01 X260.620 Y266.509
G01 X261.269 Y265.989
G01 X261.879 Y265.429
G01 X262.445 Y264.832
G01 X262.967 Y264.202
G01 X263.440 Y263.542
G01 X263.864 Y262.858
G01 X264.235 Y262.152
G01 X264.553 Y261.431
G01 X264.817 Y260.698
G01 X265.026 Y259.959
G01 X265.180 Y259.217
G01 X265.279 Y258.479
G01 X265.325 Y257.747
G01 X265.318 Y257.028
G01 X265.260 Y256.325
G01 X265.153 Y255.643
G01 X264.999 Y254.985
G01 X264.800 Y254.356
G01 X264.561 Y253.760
G01 X264.283 Y253.199
G01 X263.971 Y252.676
G01 X263.629 Y252.195
G01 X263.260 Y251.757
G01 X262.870 Y251.364
G01 X262.461 Y251.019
G01 X262.039 Y250.721
G01 X261.609 Y250.472
G01 X261.174 Y250.272
G01 X260.740 Y250.121
G01 X260.311 Y250.017
G01 X259.892 Y249.961
G01 X259.487 Y249.951
G01 X259.100 Y249.985
G01 X258.736 Y250.061
G01 X258.397 Y250.176
G01 X258.089 Y250.327
G01 X257.813 Y250.512
G01 X257.574 Y250.726
G01 X257.373 Y250.967
G01 X257.214 Y251.229
G01 X257.097 Y251.509
G01 X257.025 Y251.803
G01 X256.999 Y252.106
G01 X257.019 Y252.413
G01 X257.085 Y252.721
G01 X257.199 Y253.023
G01 X257.358 Y253.317
G01 X257.562 Y253.597
G01 X257.810 Y253.858
G01 X258.100 Y254.098
G01 X258.429 Y254.310
G01 X258.796 Y254.493
G01 X259.197 Y254.641
G01 X259.629 Y254.752
G01 X260.089 Y254.823
G01 X260.573 Y254.851
G01 X261.076 Y254.833
G01 X261.595 Y254.767
G01 X262.125 Y254.653
G01 X262.662 Y254.488
G01 X263.201 Y254.272
G01 X263.737 Y254.004
G01 X264.266 Y253.686
G01 X264.783 Y253.316
G01 X265.283 Y252.896
G01 X265.762 Y252.428
G01 X266.215 Y251.912
G01 X266.638 Y251.352
G01 X267.027 Y250.749
G01 X267.379 Y250.107
G01 X267.689 Y249.429
G01 X267.954 Y248.718
G01 X268.172 Y247.978
G01 X268.340 Y247.214
G01 X268.455 Y246.428
G01 X268.517 Y245.627
G01 X268.522 Y244.814
G01 X268.471 Y243.994
G01 X268.363 Y243.172
G01 X268.198 Y242.354
G01 X267.975 Y241.542
G01 X267.696 Y240.744
G01 X267.362 Y239.962
G01 X266.974 Y239.203
G01 X266.535 Y238.470
G01 X266.046 Y237.767
G01 X265.510 Y237.099
G01 X264.931 Y236.469
G01 X264.312 Y235.881
G01 X263.656 Y235.338
G01 X262.967 Y234.844
G01 X262.250 Y234.399
G01 X261.510 Y234.007
G01 X260.749 Y233.669
G01 X259.974 Y233.387
G01 X259.189 Y233.161
G01 X258.399 Y232.992
G01 X257.609 Y232.880
G01 X256.823 Y232.824
G01 X256.046 Y232.823
G01 X255.284 Y232.877
G01 X254.540 Y232.983
G01 X253.819 Y233.139
G01 X253.124 Y233.344
G01 X252.461 Y233.593
G01 X251.832 Y233.885
G01 X251.242 Y234.215
G01 X250.692 Y234.580
G01 X250.185 Y234.975
G01 X249.724 Y235.397
G01 X249.311 Y235.841
G01 X248.947 Y236.302
G01 X248.632 Y236.777
G01 X248.369 Y237.260
G01 X248.156 Y237.746
G01 X247.994 Y238.231
G01 X247.882 Y238.710
G01 X247.819 Y239.178
G01 X247.803 Y239.631
G01 X247.833 Y240.065
G01 X247.906 Y240.475
G01 X248.019 Y240.858
G01 X248.169 Y241.210
G01 X248.353 Y241.528
G01 X248.568 Y241.808
G01 X248.810 Y242.048
G01 X249.074 Y242.246
G01 X249.356 Y242.400
G01 X249.651 Y242.508
G01 X249.956 Y242.570
G01 X250.266 Y242.583
G01 X250.575 Y242.550
G01 X250.879 Y242.469
G01 X251.173 Y242.341
G01 X251.454 Y242.167
G01 X251.715 Y241.949
G01 X251.954 Y241.689
G01 X252.165 Y241.389
G01 X252.346 Y241.051
G01 X252.492 Y240.679
G01 X252.600 Y240.276
G01 X252.667 Y239.845
G01 X252.690 Y239.391
G01 X252.666 Y238.918
G01 X252.595 Y238.429
G01 X252.474 Y237.930
G01 X252.303 Y237.426
G01 X252.080 Y236.919
G01 X251.805 Y236.417
G01 X251.478 Y235.923
G01 X251.101 Y235.442
G01 X250.673 Y234.980
G01 X250.197 Y234.539
G01 X249.674 Y234.126
G01 X249.107 Y233.744
G01 X248.498 Y233.398
G01 X247.851 Y233.090
G01 X247.168 Y232.826
G01 X246.453 Y232.607
G01 X245.710 Y232.437
G01 X244.944 Y232.319
G01 X244.159 Y232.254
G01 X243.359 Y232.245
G01 X242.549 Y232.292
G01 X241.735 Y232.397
G01 X240.920 Y232.560
G01 X240.110 Y232.781
G01 X239.310 Y233.060
G01 X238.524 Y233.396
G01 X237.758 Y233.787
G01 X237.016 Y234.232
G01 X236.303 Y234.729
G01 X235.623 Y235.275
G01 X234.980 Y235.868
G01 X234.377 Y236.504
G01 X233.819 Y237.179
G01 X233.308 Y237.890
G01 X232.848 Y238.633
G01 X232.440 Y239.403
G01 X232.088 Y240.196
G01 X231.791 Y241.007
G01 X231.552 Y241.832
G01 X231.371 Y242.664
G01 X231.249 Y243.500
G01 X231.186 Y244.334
G01 X231.180 Y245.162
G01 X231.232 Y245.978
G01 X231.339 Y246.779
G01 X231.500 Y247.558
G01 X231.712 Y248.312
G01 X231.973 Y249.037
G01 X232.280 Y249.728
G01 X232.629 Y250.383
G01 X233.018 Y250.997
G01 X233.441 Y251.568
G01 X233.895 Y252.093
G01 X234.375 Y252.570
G01 X234.878 Y252.997
G01 X235.397 Y253.373
G01 X235.929 Y253.697
G01 X236.469 Y253.967
G01 X237.011 Y254.185
G01 X237.551 Y254.350
G01 X238.084 Y254.464
G01 X238.605 Y254.527
G01 X239.110 Y254.541
G01 X239.594 Y254.509
G01 X240.054 Y254.432
G01 X240.485 Y254.313
G01 X240.883 Y254.156
G01 X241.246 Y253.964
G01 X241.570 Y253.741
G01 X241.852 Y253.491
G01 X242.091 Y253.218
G01 X242.285 Y252.927
G01 X242.431 Y252.622
G01 X242.529 Y252.307
G01 X242.579 Y251.988
G01 X242.580 Y251.670
G01 X242.533 Y251.357
G01 X242.438 Y251.054
G01 X242.296 Y250.765
G01 X242.110 Y250.496
G01 X241.880 Y250.250
G01 X241.610 Y250.032
G01 X241.302 Y249.846
G01 X240.960 Y249.695
G01 X240.587 Y249.582
G01 X240.186 Y249.512
G01 X239.762 Y249.486
G01 X239.319 Y249.506
G01 X238.861 Y249.576
G01 X238.393 Y249.695
G01 X237.921 Y249.866
G01 X237.447 Y250.088
G01 X236.979 Y250.363
G01 X236.519 Y250.689
G01 X236.074 Y251.067
G01 X235.648 Y251.494
G01 X235.246 Y251.970
G01 X234.871 Y252.492
G01 X234.530 Y253.058
G01 X234.225 Y253.665
G01 X233.960 Y254.311
G01 X233.740 Y254.990
G01 X233.566 Y255.701
G01 X233.443 Y256.438
G01 X233.372 Y257.198
G01 X233.356 Y257.975
G01 X233.396 Y258.765
G01 X233.494 Y259.564
G01 X233.650 Y260.366
G01 X233.865 Y261.166
G01 X234.139 Y261.959
G01 X234.471 Y262.740
G01 X234.860 Y263.504
G01 X235.305 Y264.247
G01 X235.804 Y264.964
G01 X236.354 Y265.649
G01 X236.953 Y266.299
G01 X237.599 Y266.910
G01 X238.287 Y267.477
G01 X239.013 Y267.998
G01 X239.775 Y268.469
G01 X240.567 Y268.888
G01 X241.385 Y269.252
G01 X242.225 Y269.559
G01 X243.081 Y269.807
G01 X243.949 Y269.996
G01 X244.823 Y270.125
G01 X245.699 Y270.193
G01 X246.570 Y270.201
G01 X247.433 Y270.150
G01 X248.283 Y270.040
G01 X249.114 Y269.874
G01 X249.922 Y269.653
G01 X250.702 Y269.379
G01 X251.450 Y269.056
G01 X252.162 Y268.687
G01 X252.835 Y268.274
G01 X253.465 Y267.823
G01 X254.050 Y267.337
G01 X254.586 Y266.820
G01 X255.071 Y266.276
G01 X255.504 Y265.712
G01 X255.884 Y265.130
G01 X256.208 Y264.537
G01 X256.478 Y263.938
G01 X256.693 Y263.336
G01 X256.854 Y262.738
G01 X256.961 Y262.148
G01 X257.016 Y261.572
G01 X257.020 Y261.012
G01 X256.976 Y260.475
G01 X256.887 Y259.964
G01 X256.754 Y259.484
G01 X256.583 Y259.037
G01 X256.375 Y258.628
G01 X256.136 Y258.258
G01 X255.869 Y257.932
G01 X255.579 Y257.651
G01 X255.270 Y257.418
G01 X254.947 Y257.232
G01 X254.615 Y257.096
G01 X254.278 Y257.010
G01 X253.943 Y256.974
G01 X253.612 Y256.987
G01 X253.293 Y257.050
G01 X252.988 Y257.159
G01 X252.703 Y257.315
G01 X252.442 Y257.514
G01 X252.210 Y257.754
G01 X252.010 Y258.032
G01 X251.846 Y258.345
G01 X251.721 Y258.689
G01 X251.639 Y259.061
G01 X251.602 Y259.456
G01 X251.612 Y259.870
G01 X251.672 Y260.298
G01 X251.782 Y260.736
G01 X251.944 Y261.178
G01 X252.158 Y261.620
G01 X252.425 Y262.057
G01 X252.743 Y262.484
G01 X253.113 Y262.895
G01 X253.532 Y263.287
G01 X254.000 Y263.653
G01 X254.514 Y263.991
G01 X255.071 Y264.295
G01 X255.669 Y264.561
G01 X256.305 Y264.785
G01 X256.973 Y264.965
G01 X257.672 Y265.096
G01 X258.396 Y265.176
G01 X259.142 Y265.202
G01 X259.904 Y265.173
G01 X260.677 Y265.087
G01 X261.457 Y264.943
G01 X262.238 Y264.739
G01 X263.016 Y264.476
G01 X263.784 Y264.154
G01 X264.539 Y263.774
G01 X265.276 Y263.336
G01 X265.988 Y262.843
G01 X266.672 Y262.296
G01 X267.322 Y261.697
G01 X267.935 Y261.050
G01 X268.506 Y260.357
G01 X269.032 Y259.623
G01 X269.510 Y258.851
G01 X269.935 Y258.045
G01 X270.305 Y257.210
G01 X270.619 Y256.350
G01 X270.873 Y255.471
G01 X271.068 Y254.576
G01 X271.201 Y253.672
G01 X271.272 Y252.763
G01 X271.281 Y251.856
G01 X271.229 Y250.954
G01 X271.115 Y250.063
G01 X270.943 Y249.188
G01 X270.712 Y248.334
G01 X270.426 Y247.505
G01 X270.087 Y246.707
G01 X269.698 Y245.944
G01 X269.262 Y245.219
G01 X268.783 Y244.536
G01 X268.265 Y243.898
G01 X267.712 Y243.309
G01 X267.129 Y242.771
G01 X266.520 Y242.286
G01 X265.890 Y241.855
G01 X265.244 Y241.481
G01 X264.588 Y241.163
G01 X263.926 Y240.903
G01 X263.264 Y240.699
G01 X262.606 Y240.552
G01 X261.958 Y240.460
G01 X261.324 Y240.423
G01 X260.709 Y240.437
G01 X260.118 Y240.501
G01 X259.555 Y240.612
G01 X259.025 Y240.766
G01 X258.529 Y240.961
G01 X258.073 Y241.193
G01 X257.659 Y241.457
G01 X257.290 Y241.749
G01 X256.967 Y242.065
G01 X256.693 Y242.400
G01 X256.469 Y242.749
G01 X256.297 Y243.107
G01 X256.175 Y243.470
G01 X256.105 Y243.831
G01 X256.086 Y244.187
G01 X256.116 Y244.531
G01 X256.195 Y244.860
G01 X256.321 Y245.169
G01 X256.492 Y245.453
G01 X256.704 Y245.707
G01 X256.954 Y245.929
G01 X257.240 Y246.114
G01 X257.558 Y246.258
G01 X257.903 Y246.360
G01 X258.272 Y246.416
G01 X258.659 Y246.423
G01 X259.060 Y246.381
G01 X259.471 Y246.287
G01 X259.886 Y246.142
G01 X260.299 Y245.943
G01 X260.707 Y245.692
G01 X261.105 Y245.389
G01 X261.486 Y245.035
G01 X261.846 Y244.630
G01 X262.181 Y244.178
G01 X262.485 Y243.679
G01 X262.755 Y243.138
G01 X262.986 Y242.557
G01 X263.175 Y241.938
G01 X263.317 Y241.287
G01 X263.411 Y240.608
G01 X263.452 Y239.903
G01 X263.439 Y239.179
G01 X263.370 Y238.440
G01 X263.243 Y237.691
G01 X263.057 Y236.936
G01 X262.812 Y236.182
G01 X262.506 Y235.433
G01 X262.142 Y234.695
G01 X261.719 Y233.973
G01 X261.238 Y233.272
G01 X260.702 Y232.596
G01 X260.113 Y231.951
G01 X259.472 Y231.342
G01 X258.784 Y230.772
G01 X258.051 Y230.246
G01 X257.278 Y229.767
G01 X256.467 Y229.339
G01 X255.624 Y228.965
G01 X254.754 Y228.648
G01 X253.860 Y228.390
G01 X252.948 Y228.192
G01 X252.023 Y228.057
G01 X251.090 Y227.984
G01 X250.155 Y227.975
G01 X249.223 Y228.030
G01 X248.299 Y228.147
G01 X247.389 Y228.326
G01 X246.497 Y228.565
G01 X245.629 Y228.864
G01 X244.789 Y229.218
G01 X243.982 Y229.626
G01 X243.212 Y230.084
G01 X242.483 Y230.589
G01 X241.799 Y231.137
G01 X241.163 Y231.724
G01 X240.578 Y232.345
G01 X240.046 Y232.996
G01 X239.571 Y233.672
G01 X239.152 Y234.368
G01 X238.792 Y235.079
G01 X238.490 Y235.800
G01 X238.249 Y236.524
G01 X238.066 Y237.248
G01 X237.941 Y237.966
G01 X237.874 Y238.673
G01 X237.863 Y239.363
G01 X237.905 Y240.033
G01 X237.997 Y240.677
G01 X238.139 Y241.291
G01 X238.324 Y241.871
G01 X238.552 Y242.414
G01 X238.816 Y242.916
G01 X239.114 Y243.373
G01 X239.440 Y243.784
G01 X239.790 Y244.147
G01 X240.160 Y244.458
G01 X240.543 Y244.718
G01 X240.935 Y244.926
G01 X241.332 Y245.080
G01 X241.727 Y245.182
G01 X242.116 Y245.231
G01 X242.493 Y245.229
G01 X242.854 Y245.177
G01 X243.194 Y245.078
G01 X243.509 Y244.933
G01 X243.794 Y244.746
G01 X244.044 Y244.519
G01 X244.257 Y244.256
G01 X244.430 Y243.962
G01 X244.558 Y243.639
G01 X244.639 Y243.293
G01 X244.672 Y242.929
G01 X244.654 Y242.550
G01 X244.584 Y242.162
G01 X244.462 Y241.771
G01 X244.286 Y241.381
G01 X244.058 Y240.997
G01 X243.776 Y240.625
G01 X243.444 Y240.269
G01 X243.061 Y239.935
G01 X242.631 Y239.627
G01 X242.155 Y239.351
G01 X241.636 Y239.109
G01 X241.077 Y238.908
G01 X240.483 Y238.750
G01 X239.856 Y238.638
G01 X239.201 Y238.577
G01 X238.523 Y238.568
G01 X237.826 Y238.615
G01 X237.115 Y238.718
G01 X236.396 Y238.880
G01 X235.673 Y239.101
G01 X234.951 Y239.382
G01 X234.237 Y239.723
G01 X233.535 Y240.123
G01 X232.851 Y240.582
G01 X232.190 Y241.098
G01 X231.556 Y241.670
G01 X230.955 Y242.294
G01 X230.391 Y242.969
G01 X229.869 Y243.690
G01 X229.393 Y244.456
G01 X228.966 Y245.261
G01 X228.592 Y246.102
G01 X228.274 Y246.973
G01 X228.014 Y247.872
G01 X227.815 Y248.791
G01 X227.678 Y249.727
G01 X227.605 Y250.674
G01 X227.597 Y251.626
G01 X227.653 Y252.578
G01 X227.773 Y253.526
G01 X227.958 Y254.462
G01 X228.205 Y255.383
G01 X228.514 Y256.283
G01 X228.881 Y257.156
G01 X229.306 Y257.999
G01 X229.784 Y258.806
G01 X230.312 Y259.573
G01 X230.887 Y260.296
G01 X231.505 Y260.972
G01 X232.162 Y261.597
G01 X232.852 Y262.168
G01 X233.571 Y262.683
G01 X234.314 Y263.140
G01 X235.077 Y263.538
G01 X235.852 Y263.874
G01 X236.636 Y264.150
G01 X237.423 Y264.363
G01 X238.207 Y264.516
G01 X238.984 Y264.609
G01 X239.747 Y264.642
G01 X240.493 Y264.619
G01 X241.215 Y264.540
G01 X241.910 Y264.409
G01 X242.573 Y264.229
G01 X243.200 Y264.003
G01 X243.787 Y263.735
G01 X244.331 Y263.429
G01 X244.830 Y263.089
G01 X245.279 Y262.720
G01 X245.678 Y262.328
G01 X246.024 Y261.916
G01 X246.316 Y261.490
G01 X246.554 Y261.055
G01 X246.737 Y260.617
G01 X246.866 Y260.180
G01 X246.941 Y259.750
G01 X246.963 Y259.332
G01 X246.935 Y258.932
G01 X246.857 Y258.553
G01 X246.733 Y258.200
G01 X246.565 Y257.879
G01 X246.358 Y257.592
G01 X246.113 Y257.343
G01 X245.837 Y257.137
G01 X245.532 Y256.975
G01 X245.203 Y256.861
G01 X244.856 Y256.797
G01 X244.494 Y256.784
G01 X244.124 Y256.824
G01 X243.750 Y256.917
G01 X243.378 Y257.064
G01 X243.012 Y257.264
G01 X242.659 Y257.517
G01 X242.323 Y257.822
G01 X242.009 Y258.177
G01 X241.722 Y258.580
G01 X241.467 Y259.028
G01 X241.248 Y259.519
G01 X241.070 Y260.050
G01 X240.935 Y260.615
G01 X240.848 Y261.213
G01 X240.812 Y261.837
G01 X240.829 Y262.484
G01 X240.902 Y263.149
G01 X241.032 Y263.827
G01 X241.222 Y264.512
G01 X241.470 Y265.199
G01 X241.779 Y265.883
G01 X242.148 Y266.558
G01 X242.577 Y267.219
G01 X243.064 Y267.861
G01 X243.608 Y268.479
G01 X244.206 Y269.066
G01 X244.857 Y269.620
G01 X245.558 Y270.134
G01 X246.305 Y270.605
G01 X247.094 Y271.028
G01 X247.923 Y271.400
G01 X248.785 Y271.718
G01 X249.677 Y271.977
G01 X250.593 Y272.177
G01 X251.529 Y272.315
G01 X252.480 Y272.388
G01 X253.439 Y272.397
G01 X254.402 Y272.340
G01 X255.363 Y272.217
G01 X256.316 Y272.029
G01 X257.256 Y271.776
G01 X258.178 Y271.460
G01 X259.076 Y271.081
G01 X259.945 Y270.644
G01 X260.780 Y270.149
G01 X261.577 Y269.601
G01 X262.332 Y269.002
G01 X263.040 Y268.357
G01 X263.697 Y267.670
G01 X264.302 Y266.945
G01 X264.850 Y266.187
G01 X265.339 Y265.401
G01 X265.768 Y264.592
G01 X266.134 Y263.766
G01 X266.438 Y262.927
G01 X266.678 Y262.082
G01 X266.855 Y261.236
G01 X266.968 Y260.394
G01 X267.020 Y259.562
G01 X267.011 Y258.745
G01 X266.943 Y257.948
G01 X266.819 Y257.176
G01 X266.641 Y256.434
G01 X266.414 Y255.726
G01 X266.139 Y255.056
G01 X265.822 Y254.429
G01 X265.466 Y253.847
G01 X265.076 Y253.313
G01 X264.657 Y252.830
G01 X264.214 Y252.400
G01 X263.751 Y252.024
G01 X263.275 Y251.704
G01 X262.791 Y251.441
G01 X262.303 Y251.234
G01 X261.818 Y251.084
G01 X261.340 Y250.989
G01 X260.875 Y250.948
G01 X260.428 Y250.960
G01 X260.004 Y251.022
G01 X259.607 Y251.131
G01 X259.242 Y251.285
G01 X258.913 Y251.480
G01 X258.623 Y251.712
G01 X258.377 Y251.978
G01 X258.176 Y252.271
G01 X258.024 Y252.589
G01 X257.922 Y252.926
G01 X257.873 Y253.277
G01 X257.877 Y253.637
G01 X257.936 Y254.000
G01 X258.049 Y254.361
G01 X258.216 Y254.715
G01 X258.436 Y255.057
G01 X258.708 Y255.381
G01 X259.031 Y255.682
G01 X259.402 Y255.955
G01 X259.818 Y256.196
G01 X260.277 Y256.400
G01 X260.775 Y256.563
G01 X261.308 Y256.682
G01 X261.872 Y256.752
G01 X262.462 Y256.770
G01 X263.074 Y256.735
G01 X263.704 Y256.644
G01 X264.344 Y256.495
G01 X264.991 Y256.286
G01 X265.639 Y256.018
G01 X266.283 Y255.689
G01 X266.916 Y255.300
G01 X267.534 Y254.852
G01 X268.131 Y254.346
G01 X268.702 Y253.783
G01 X269.241 Y253.166
G01 X269.745 Y252.497
G01 X270.208 Y251.779
G01 X270.625 Y251.016
G01 X270.994 Y250.211
G01 X271.309 Y249.369
G01 X271.569 Y248.495
G01 X271.769 Y247.592
G01 X271.908 Y246.666
G01 X271.983 Y245.723
G01 X271.993 Y244.767
G01 X271.937 Y243.805
G01 X271.814 Y242.841
G01 X271.625 Y241.881
G01 X271.369 Y240.932
G01 X271.048 Y239.998
G01 X270.663 Y239.085
G01 X270.216 Y238.199
G01 X269.710 Y237.344
G01 X269.146 Y236.525
G01 X268.529 Y235.747
G01 X267.863 Y235.015
G01 X267.150 Y234.332
G01 X266.396 Y233.702
G01 X265.605 Y233.127
G01 X264.782 Y232.612
G01 X263.932 Y232.158
G01 X263.061 Y231.767
G01 X262.174 Y231.440
G01 X261.276 Y231.178
G01 X260.374 Y230.982
G01 X259.472 Y230.852
G01 X258.577 Y230.786
G01 X257.694 Y230.784
G01 X256.827 Y230.845
G01 X255.984 Y230.965
G01 X255.168 Y231.143
G01 X254.384 Y231.375
G01 X253.636 Y231.659
G01 X252.930 Y231.990
G01 X252.267 Y232.364
G01 X251.653 Y232.778
G01 X251.089 Y233.225
G01 X250.579 Y233.702
G01 X250.124 Y234.202
G01 X249.725 Y234.722
G01 X249.385 Y235.255
G01 X249.103 Y235.795
G01 X248.880 Y236.339
G01 X248.715 Y236.879
G01 X248.607 Y237.411
G01 X248.554 Y237.929
G01 X248.556 Y238.428
G01 X248.610 Y238.903
G01 X248.712 Y239.349
G01 X248.859 Y239.763
G01 X249.049 Y240.140
G01 X249.276 Y240.476
G01 X249.538 Y240.767
G01 X249.828 Y241.012
G01 X250.143 Y241.207
G01 X250.477 Y241.350
G01 X250.826 Y241.439
G01 X251.183 Y241.475
G01 X251.543 Y241.455
G01 X251.901 Y241.380
G01 X252.252 Y241.250
G01 X252.590 Y241.066
G01 X252.909 Y240.829
G01 X253.206 Y240.542
G01 X253.474 Y240.206
G01 X253.709 Y239.825
G01 X253.906 Y239.402
G01 X254.062 Y238.939
G01 X254.173 Y238.442
G01 X254.234 Y237.914
G01 X254.244 Y237.360
G01 X254.199 Y236.784
G01 X254.098 Y236.193
G01 X253.938 Y235.591
G01 X253.719 Y234.984
G01 X253.440 Y234.377
G01 X253.101 Y233.776
G01 X252.701 Y233.186
G01 X252.242 Y232.612
G01 X251.725 Y232.062
G01 X251.152 Y231.538
G01 X250.526 Y231.048
G01 X249.848 Y230.594
G01 X249.122 Y230.184
G01 X248.352 Y229.820
G01 X247.542 Y229.506
G01 X246.695 Y229.247
G01 X245.818 Y229.045
G01 X244.914 Y228.904
G01 X243.988 Y228.826
G01 X243.047 Y228.812
G01 X242.096 Y228.864
G01 X241.139 Y228.984
G01 X240.184 Y229.171
G01 X239.235 Y229.425
G01 X238.299 Y229.747
G01 X237.381 Y230.134
G01 X236.486 Y230.585
G01 X235.621 Y231.098
G01 X234.789 Y231.671
G01 X233.997 Y232.300
G01 X233.248 Y232.982
G01 X232.547 Y233.714
G01 X231.898 Y234.491
G01 X231.304 Y235.308
G01 X230.769 Y236.161
G01 X230.295 Y237.044
G01 X229.885 Y237.953
G01 X229.540 Y238.882
G01 X229.262 Y239.825
G01 X229.051 Y240.776
G01 X228.907 Y241.731
G01 X228.831 Y242.682
G01 X228.822 Y243.625
G01 X228.878 Y244.553
G01 X228.997 Y245.462
G01 X229.178 Y246.346
G01 X229.417 Y247.200
G01 X229.711 Y248.019
G01 X230.058 Y248.799
G01 X230.452 Y249.536
G01 X230.890 Y250.226
G01 X231.367 Y250.865
G01 X231.879 Y251.451
G01 X232.419 Y251.981
G01 X232.983 Y252.454
G01 X233.566 Y252.868
G01 X234.161 Y253.221
G01 X234.764 Y253.513
G01 X235.368 Y253.745
G01 X235.968 Y253.917
G01 X236.559 Y254.030
G01 X237.135 Y254.085
G01 X237.690 Y254.085
G01 X238.221 Y254.032
G01 X238.722 Y253.929
G01 X239.188 Y253.779
G01 X239.616 Y253.586
G01 X240.002 Y253.355
G01 X240.342 Y253.089
G01 X240.633 Y252.793
G01 X240.874 Y252.473
G01 X241.061 Y252.133
G01 X241.194 Y251.778
G01 X241.272 Y251.415
G01 X241.293 Y251.049
G01 X241.258 Y250.685
G01 X241.167 Y250.329
G01 X241.022 Y249.986
G01 X240.823 Y249.662
G01 X240.573 Y249.362
G01 X240.275 Y249.091
G01 X239.930 Y248.853
G01 X239.543 Y248.653
G01 X239.117 Y248.495
G01 X238.656 Y248.384
G01 X238.165 Y248.322
G01 X237.648 Y248.312
G01 X237.111 Y248.357
G01 X236.558 Y248.459
G01 X235.995 Y248.620
G01 X235.428 Y248.841
G01 X234.862 Y249.122
G01 X234.303 Y249.464
G01 X233.756 Y249.865
G01 X233.227 Y250.326
G01 X232.722 Y250.844
G01 X232.245 Y251.418
G01 X231.803 Y252.045
G01 X231.399 Y252.722
G01 X231.039 Y253.446
G01 X230.727 Y254.214
G01 X230.467 Y255.021
G01 X230.263 Y255.862
G01 X230.117 Y256.734
G01 X230.033 Y257.630
G01 X230.013 Y258.546
G01 X230.058 Y259.476
G01 X230.170 Y260.414
G01 X230.350 Y261.355
G01 X230.599 Y262.292
G01 X230.915 Y263.221
G01 X231.298 Y264.135
G01 X231.747 Y265.028
G01 X232.261 Y265.895
G01 X232.836 Y266.731
G01 X233.471 Y267.530
G01 X234.161 Y268.288
G01 X234.904 Y268.999
G01 X235.695 Y269.660
G01 X236.531 Y270.267
G01 X237.406 Y270.815
G01 X238.315 Y271.303
G01 X239.253 Y271.727
G01 X240.215 Y272.085
G01 X241.195 Y272.375
G01 X242.187 Y272.597
G01 X243.186 Y272.750
G01 X244.185 Y272.833
G01 X245.179 Y272.848
G01 X246.163 Y272.794
G01 X247.129 Y272.673
G01 X248.073 Y272.488
G01 X248.990 Y272.241
G01 X249.874 Y271.934
G01 X250.720 Y271.571
G01 X251.525 Y271.156
G01 X252.283 Y270.692
G01 X252.992 Y270.184
G01 X253.648 Y269.638
G01 X254.248 Y269.057
G01 X254.789 Y268.448
G01 X255.271 Y267.816
G01 X255.691 Y267.165
G01 X256.048 Y266.503
G01 X256.342 Y265.835
G01 X256.574 Y265.165
G01 X256.743 Y264.502
G01 X256.852 Y263.848
G01 X256.901 Y263.212
G01 X256.894 Y262.596
G01 X256.831 Y262.007
G01 X256.718 Y261.450
G01 X256.557 Y260.929
G01 X256.352 Y260.447
G01 X256.107 Y260.009
G01 X255.827 Y259.619
G01 X255.517 Y259.278
G01 X255.182 Y258.990
G01 X254.826 Y258.757
G01 X254.457 Y258.579
G01 X254.079 Y258.458
G01 X253.698 Y258.395
G01 X253.319 Y258.389
G01 X252.948 Y258.440
G01 X252.591 Y258.546
G01 X252.253 Y258.707
G01 X251.940 Y258.919
G01 X251.656 Y259.181
G01 X251.406 Y259.489
G01 X251.195 Y259.840
G01 X251.027 Y260.230
G01 X250.905 Y260.655
G01 X250.833 Y261.110
G01 X250.815 Y261.590
G01 X250.851 Y262.090
G01 X250.945 Y262.606
G01 X251.099 Y263.131
G01 X251.312 Y263.659
G01 X251.586 Y264.186
G01 X251.920 Y264.705
G01 X252.314 Y265.210
G01 X252.767 Y265.697
G01 X253.278 Y266.159
G01 X253.844 Y266.591
G01 X254.462 Y266.987
G01 X255.130 Y267.344
G01 X255.844 Y267.656
G01 X256.600 Y267.919
G01 X257.395 Y268.129
G01 X258.223 Y268.282
G01 X259.079 Y268.375
G01 X259.959 Y268.406
G01 X260.856 Y268.372
G01 X261.766 Y268.272
G01 X262.682 Y268.104
G01 X263.598 Y267.868
G01 X264.510 Y267.563
G01 X265.410 Y267.190
G01 X266.293 Y266.750
G01 X267.153 Y266.243
G01 X267.985 Y265.673
G01 X268.782 Y265.042
G01 X269.541 Y264.351
G01 X270.256 Y263.605
G01 X270.922 Y262.808
G01 X271.535 Y261.963
G01 X272.091 Y261.076
G01 X272.587 Y260.150
G01 X273.020 Y259.192
G01 X273.387 Y258.206
G01 X273.686 Y257.199
G01 X273.915 Y256.175
G01 X274.074 Y255.141
G01 X274.162 Y254.103
G01 X274.178 Y253.067
G01 X274.125 Y252.038
G01 X274.002 Y251.023
G01 X273.811 Y250.027
G01 X273.554 Y249.057
G01 X273.235 Y248.116
G01 X272.855 Y247.211
G01 X272.419 Y246.347
G01 X271.930 Y245.527
G01 X271.392 Y244.755
G01 X270.811 Y244.037
G01 X270.191 Y243.374
G01 X269.538 Y242.770
G01 X268.856 Y242.226
G01 X268.152 Y241.746
G01 X267.431 Y241.329
G01 X266.699 Y240.978
G01 X265.961 Y240.692
G01 X265.225 Y240.470
G01 X264.495 Y240.313
G01 X263.778 Y240.218
G01 X263.078 Y240.185
G01 X262.401 Y240.210
G01 X261.753 Y240.290
G01 X261.138 Y240.424
G01 X260.560 Y240.606
G01 X260.024 Y240.834
G01 X259.534 Y241.101
G01 X259.092 Y241.405
G01 X258.703 Y241.739
G01 X258.367 Y242.099
G01 X258.088 Y242.479
G01 X257.866 Y242.873
G01 X257.703 Y243.276
G01 X257.598 Y243.681
G01 X257.552 Y244.084
G01 X257.564 Y244.479
G01 X257.633 Y244.859
G01 X257.756 Y245.220
G01 X257.933 Y245.556
G01 X258.159 Y245.862
G01 X258.433 Y246.133
G01 X258.749 Y246.365
G01 X259.105 Y246.553
G01 X259.496 Y246.694
G01 X259.917 Y246.784
G01 X260.363 Y246.820
G01 X260.830 Y246.801
G01 X261.311 Y246.724
G01 X261.800 Y246.587
G01 X262.293 Y246.390
G01 X262.784 Y246.132
G01 X263.266 Y245.814
G01 X263.733 Y245.436
G01 X264.181 Y244.998
G01 X264.603 Y244.504
G01 X264.995 Y243.955
G01 X265.350 Y243.354
G01 X265.664 Y242.704
G01 X265.932 Y242.008
G01 X266.151 Y241.271
G01 X266.315 Y240.498
G01 X266.422 Y239.692
G01 X266.468 Y238.859
G01 X266.450 Y238.004
G01 X266.368 Y237.133
G01 X266.218 Y236.252
G01 X266.000 Y235.366
G01 X265.714 Y234.481
G01 X265.359 Y233.604
G01 X264.935 Y232.740
G01 X264.445 Y231.895
G01 X263.888 Y231.075
G01 X263.268 Y230.287
G01 X262.587 Y229.534
G01 X261.848 Y228.823
G01 X261.055 Y228.158
G01 X260.211 Y227.544
G01 X259.320 Y226.986
G01 X258.389 Y226.486
G01 X257.420 Y226.049
G01 X256.421 Y225.677
G01 X255.396 Y225.374
G01 X254.351 Y225.140
G01 X253.293 Y224.977
G01 X252.226 Y224.887
G01 X251.158 Y224.869
G01 X250.094 Y224.924
G01 X249.040 Y225.050
G01 X248.003 Y225.247
G01 X246.987 Y225.513
G01 X245.999 Y225.845
G01 X245.045 Y226.240
G01 X244.129 Y226.697
G01 X243.256 Y227.210
G01 X242.430 Y227.776
G01 X241.656 Y228.390
G01 X240.938 Y229.047
G01 X240.278 Y229.743
G01 X239.680 Y230.472
G01 X239.145 Y231.228
G01 X238.676 Y232.005
G01 X238.273 Y232.799
G01 X237.938 Y233.602
G01 X237.669 Y234.409
G01 X237.468 Y235.213
G01 X237.333 Y236.010
G01 X237.263 Y236.792
G01 X237.256 Y237.555
G01 X237.308 Y238.293
G01 X237.418 Y239.000
G01 X237.581 Y239.673
G01 X237.795 Y240.306
G01 X238.055 Y240.895
G01 X238.355 Y241.437
G01 X238.692 Y241.928
G01 X239.060 Y242.365
G01 X239.454 Y242.746
G01 X239.868 Y243.069
G01 X240.297 Y243.333
G01 X240.734 Y243.537
G01 X241.174 Y243.681
G01 X241.610 Y243.764
G01 X242.038 Y243.788
G01 X242.451 Y243.755
G01 X242.844 Y243.665
G01 X243.211 Y243.521
G01 X243.548 Y243.327
G01 X243.849 Y243.084
G01 X244.110 Y242.799
G01 X244.327 Y242.473
G01 X244.495 Y242.112
G01 X244.613 Y241.721
G01 X244.676 Y241.304
G01 X244.682 Y240.868
G01 X244.630 Y240.417
G01 X244.518 Y239.958
G01 X244.346 Y239.496
G01 X244.112 Y239.037
G01 X243.818 Y238.587
G01 X243.463 Y238.152
G01 X243.050 Y237.737
G01 X242.580 Y237.349
G01 X242.055 Y236.993
G01 X241.479 Y236.674
G01 X240.854 Y236.397
G01 X240.185 Y236.166
G01 X239.475 Y235.986
G01 X238.729 Y235.861
G01 X237.953 Y235.795
G01 X237.150 Y235.790
G01 X236.327 Y235.848
G01 X235.490 Y235.973
G01 X234.643 Y236.165
G01 X233.794 Y236.425
G01 X232.948 Y236.754
G01 X232.112 Y237.153
G01 X231.290 Y237.619
G01 X230.490 Y238.152
G01 X229.718 Y238.751
G01 X228.978 Y239.413
G01 X228.276 Y240.135
G01 X227.618 Y240.914
G01 X227.009 Y241.747
G01 X226.453 Y242.629
G01 X225.954 Y243.556
G01 X225.516 Y244.523
G01 X225.143 Y245.525
G01 X224.837 Y246.556
G01 X224.601 Y247.610
G01 X224.437 Y248.682
G01 X224.345 Y249.766
G01 X224.327 Y250.856
G01 X224.383 Y251.944
G01 X224.512 Y253.026
G01 X224.715 Y254.095
G01 X224.989 Y255.145
G01 X225.332 Y256.170
G01 X225.742 Y257.164
G01 X226.216 Y258.122
G01 X226.751 Y259.039
G01 X227.343 Y259.910
G01 X227.987 Y260.731
G01 X228.679 Y261.496
G01 X229.413 Y262.204
G01 X230.186 Y262.850
G01 X230.990 Y263.432
G01 X231.821 Y263.947
G01 X232.672 Y264.395
G01 X233.538 Y264.774
G01 X234.412 Y265.083
G01 X235.287 Y265.322
G01 X236.159 Y265.492
G01 X237.021 Y265.594
G01 X237.867 Y265.630
G01 X238.691 Y265.601
G01 X239.488 Y265.511
G01 X240.253 Y265.362
G01 X240.980 Y265.158
G01 X241.666 Y264.903
G01 X242.306 Y264.602
G01 X242.897 Y264.259
G01 X243.434 Y263.878
G01 X243.915 Y263.467
G01 X244.339 Y263.029
G01 X244.702 Y262.571
G01 X245.004 Y262.099
G01 X245.245 Y261.619
G01 X245.423 Y261.136
G01 X245.540 Y260.656
G01 X245.596 Y260.187
G01 X245.592 Y259.732
G01 X245.531 Y259.298
G01 X245.416 Y258.891
G01 X245.248 Y258.515
G01 X245.032 Y258.176
G01 X244.772 Y257.878
G01 X244.471 Y257.624
G01 X244.135 Y257.420
G01 X243.767 Y257.268
G01 X243.375 Y257.170
G01 X242.963 Y257.130
G01 X242.536 Y257.149
G01 X242.101 Y257.229
G01 X241.664 Y257.370
G01 X241.230 Y257.572
G01 X240.805 Y257.836
G01 X240.397 Y258.159
G01 X240.009 Y258.541
G01 X239.649 Y258.981
G01 X239.320 Y259.474
G01 X239.030 Y260.019
G01 X238.783 Y260.612
G01 X238.582 Y261.248
G01 X238.434 Y261.925
G01 X238.341 Y262.636
G01 X238.306 Y263.377
G01 X238.334 Y264.143
G01 X238.426 Y264.928
G01 X238.585 Y265.727
G01 X238.811 Y266.532
G01 X239.106 Y267.339
G01 X239.469 Y268.141
G01 X239.902 Y268.932
G01 X240.402 Y269.705
G01 X240.970 Y270.456
G01 X241.602 Y271.177
G01 X242.296 Y271.863
G01 X243.050 Y272.509
G01 X243.860 Y273.109
G01 X244.723 Y273.659
G01 X245.633 Y274.154
G01 X246.587 Y274.589
G01 X247.580 Y274.961
G01 X248.605 Y275.267
G01 X249.657 Y275.504
G01 X250.731 Y275.670
G01 X251.821 Y275.763
G01 X252.920 Y275.781
G01 X254.022 Y275.724
G01 X255.120 Y275.593
G01 X256.210 Y275.386
G01 X257.283 Y275.106
G01 X258.334 Y274.755
G01 X259.358 Y274.333
G01 X260.348 Y273.844
G01 X261.299 Y273.291
G01 X262.206 Y272.677
G01 X263.064 Y272.007
G01 X263.869 Y271.285
G01 X264.616 Y270.515
G01 X265.301 Y269.704
G01 X265.923 Y268.856
G01 X266.478 Y267.977
G01 X266.963 Y267.073
G01 X267.379 Y266.150
G01 X267.722 Y265.214
G01 X267.994 Y264.272
G01 X268.194 Y263.330
G01 X268.323 Y262.394
G01 X268.382 Y261.470
G01 X268.373 Y260.563
G01 X268.298 Y259.681
G01 X268.160 Y258.828
G01 X267.962 Y258.010
G01 X267.708 Y257.232
G01 X267.402 Y256.497
G01 X267.049 Y255.811
G01 X266.654 Y255.177
G01 X266.221 Y254.598
G01 X265.757 Y254.077
G01 X265.267 Y253.617
G01 X264.756 Y253.218
G01 X264.232 Y252.883
G01 X263.699 Y252.612
G01 X263.165 Y252.405
G01 X262.635 Y252.261
G01 X262.115 Y252.179
G01 X261.611 Y252.159
G01 X261.128 Y252.197
G01 X260.673 Y252.291
G01 X260.251 Y252.438
G01 X259.866 Y252.634
G01 X259.523 Y252.876
G01 X259.225 Y253.159
G01 X258.978 Y253.478
G01 X258.784 Y253.828
G01 X258.646 Y254.203
G01 X258.565 Y254.599
G01 X258.545 Y255.009
G01 X258.586 Y255.427
G01 X258.689 Y255.847
G01 X258.854 Y256.264
G01 X259.080 Y256.670
G01 X259.367 Y257.061
G01 X259.713 Y257.429
G01 X260.115 Y257.770
G01 X260.572 Y258.078
G01 X261.080 Y258.348
G01 X261.636 Y258.574
G01 X262.235 Y258.753
G01 X262.873 Y258.879
G01 X263.545 Y258.949
G01 X264.246 Y258.959
G01 X264.971 Y258.907
G01 X265.714 Y258.791
G01 X266.469 Y258.607
G01 X267.229 Y258.356
G01 X267.990 Y258.036
G01 X268.744 Y257.647
G01 X269.485 Y257.190
G01 X270.208 Y256.665
G01 X270.905 Y256.073
G01 X271.571 Y255.417
G01 X272.201 Y254.700
G01 X272.789 Y253.924
G01 X273.329 Y253.093
G01 X273.816 Y252.211
G01 X274.247 Y251.282
G01 X274.617 Y250.312
G01 X274.922 Y249.305
G01 X275.159 Y248.266
G01 X275.326 Y247.203
G01 X275.420 Y246.120
G01 X275.440 Y245.023
G01 X275.384 Y243.920
G01 X275.252 Y242.817
G01 X275.044 Y241.719
G01 X274.762 Y240.633
G01 X274.404 Y239.566
G01 X273.975 Y238.524
G01 X273.476 Y237.512
G01 X272.909 Y236.537
G01 X272.278 Y235.604
G01 X271.587 Y234.718
G01 X270.840 Y233.884
G01 X270.042 Y233.106
G01 X269.197 Y232.389
G01 X268.311 Y231.735
G01 X267.390 Y231.149
G01 X266.440 Y230.632
