;  Created by Sandify
;  https://sandify.org
;  Version: 0.2.6
;
;  Machine type: Rectangular
;    Min X (mm): 0
;    Max X (mm): 500
;    Min Y (mm): 0
;    Max Y (mm): 500
;  Content type: shape
;  Layer:
;    Shape: FileImport
;    Name: Circular+Labyrinth+7+circuit.thr
;    From file:: Circular+Labyrinth+7+circuit.thr
;    Aspect Ratio: true
;    Comments: 
;    Visible: true
;    Initial width: 10
;    Initial height: 10
;    X offset: 0
;    Y offset: 0
;    Rotate (degrees): 180
;    Reverse path: false
;    Fine tuning:
;      Connect to next layer: line
;      Draw portion of path (%): 100
;      Backtrack at end (%): 0
;      Rotate starting point (%): 0
;  Reverse export path: false
;
; File name: 'Labyrinth1 (S S)'
; File type: gcode
;

G01 X133.834 Y28.628
G01 X132.373 Y30.089
G01 X130.912 Y31.550
G01 X129.451 Y31.550
G01 X127.990 Y33.012
G01 X126.528 Y33.012
G01 X125.067 Y34.473
G01 X123.606 Y34.473
G01 X122.145 Y35.934
G01 X120.684 Y37.395
G01 X119.222 Y37.395
G01 X117.761 Y38.856
G01 X116.300 Y38.856
G01 X114.839 Y40.318
G01 X113.378 Y41.779
G01 X111.916 Y41.779
G01 X110.455 Y43.240
G01 X108.994 Y44.701
G01 X107.533 Y44.701
G01 X106.072 Y46.162
G01 X104.610 Y47.624
G01 X103.149 Y49.085
G01 X101.688 Y49.085
G01 X100.227 Y50.546
G01 X98.766 Y52.007
G01 X97.304 Y53.468
G01 X95.843 Y53.468
G01 X94.382 Y54.930
G01 X92.921 Y56.391
G01 X91.460 Y57.852
G01 X89.998 Y59.313
G01 X88.537 Y60.774
G01 X87.076 Y62.236
G01 X85.615 Y63.697
G01 X84.154 Y65.158
G01 X82.692 Y66.619
G01 X81.231 Y68.080
G01 X79.770 Y69.542
G01 X78.309 Y71.003
G01 X76.848 Y72.464
G01 X75.386 Y73.925
G01 X73.925 Y75.386
G01 X72.464 Y76.848
G01 X71.003 Y78.309
G01 X69.542 Y79.770
G01 X68.080 Y81.231
G01 X66.619 Y82.692
G01 X65.158 Y84.154
G01 X63.697 Y85.615
G01 X62.236 Y87.076
G01 X60.774 Y88.537
G01 X60.774 Y89.998
G01 X59.313 Y91.460
G01 X57.852 Y92.921
G01 X56.391 Y94.382
G01 X54.930 Y95.843
G01 X54.930 Y97.304
G01 X53.468 Y98.766
G01 X52.007 Y100.227
G01 X50.546 Y101.688
G01 X50.546 Y103.149
G01 X49.085 Y104.610
G01 X47.624 Y106.072
G01 X46.162 Y107.533
G01 X46.162 Y108.994
G01 X44.701 Y110.455
G01 X43.240 Y111.916
G01 X43.240 Y113.378
G01 X41.779 Y114.839
G01 X40.318 Y116.300
G01 X40.318 Y117.761
G01 X38.856 Y119.222
G01 X38.856 Y120.684
G01 X37.395 Y122.145
G01 X35.934 Y123.606
G01 X35.934 Y125.067
G01 X34.473 Y126.528
G01 X34.473 Y127.990
G01 X33.012 Y129.451
G01 X33.012 Y130.912
G01 X31.550 Y132.373
G01 X31.550 Y133.834
G01 X30.089 Y135.296
G01 X30.089 Y136.757
G01 X28.628 Y138.218
G01 X27.167 Y139.679
G01 X27.167 Y141.140
G01 X27.167 Y142.602
G01 X25.706 Y144.063
G01 X25.706 Y145.524
G01 X24.244 Y146.985
G01 X24.244 Y148.446
G01 X22.783 Y149.908
G01 X22.783 Y151.369
G01 X21.322 Y152.830
G01 X21.322 Y154.291
G01 X21.322 Y155.753
G01 X19.861 Y157.214
G01 X19.861 Y158.675
G01 X18.400 Y160.136
G01 X18.400 Y161.597
G01 X18.400 Y163.059
G01 X16.938 Y164.520
G01 X16.938 Y165.981
G01 X16.938 Y167.442
G01 X15.477 Y168.903
G01 X15.477 Y170.365
G01 X15.477 Y171.826
G01 X14.016 Y173.287
G01 X14.016 Y174.748
G01 X14.016 Y176.209
G01 X12.555 Y177.671
G01 X12.555 Y179.132
G01 X12.555 Y180.593
G01 X11.094 Y182.054
G01 X11.094 Y183.515
G01 X11.094 Y184.977
G01 X11.094 Y186.438
G01 X9.632 Y187.899
G01 X9.632 Y189.360
G01 X9.632 Y190.821
G01 X9.632 Y192.283
G01 X8.171 Y193.744
G01 X8.171 Y195.205
G01 X8.171 Y196.666
G01 X8.171 Y198.127
G01 X6.710 Y199.589
G01 X6.710 Y201.050
G01 X6.710 Y202.511
G01 X6.710 Y203.972
G01 X6.710 Y205.433
G01 X5.249 Y206.895
G01 X5.249 Y208.356
G01 X5.249 Y209.817
G01 X5.249 Y211.278
G01 X5.249 Y212.739
G01 X5.249 Y214.201
G01 X3.788 Y215.662
G01 X3.788 Y217.123
G01 X3.788 Y218.584
G01 X3.788 Y220.045
G01 X3.788 Y221.507
G01 X3.788 Y222.968
G01 X3.788 Y224.429
G01 X3.788 Y225.890
G01 X2.326 Y227.351
G01 X2.326 Y228.813
G01 X2.326 Y230.274
G01 X2.326 Y231.735
G01 X2.326 Y233.196
G01 X2.326 Y234.657
G01 X2.326 Y236.119
G01 X2.326 Y237.580
G01 X2.326 Y239.041
G01 X2.326 Y240.502
G01 X2.326 Y241.963
G01 X2.326 Y243.425
G01 X2.326 Y244.886
G01 X2.326 Y246.347
G01 X2.326 Y247.808
G01 X2.326 Y249.269
G01 X2.326 Y250.731
G01 X2.326 Y252.192
G01 X2.326 Y253.653
G01 X2.326 Y255.114
G01 X2.326 Y256.575
G01 X2.326 Y258.037
G01 X2.326 Y259.498
G01 X2.326 Y260.959
G01 X2.326 Y262.420
G01 X2.326 Y263.881
G01 X2.326 Y265.343
G01 X2.326 Y266.804
G01 X2.326 Y268.265
G01 X2.326 Y269.726
G01 X2.326 Y271.187
G01 X2.326 Y272.649
G01 X3.788 Y274.110
G01 X3.788 Y275.571
G01 X3.788 Y277.032
G01 X3.788 Y278.493
G01 X3.788 Y279.955
G01 X3.788 Y281.416
G01 X3.788 Y282.877
G01 X3.788 Y284.338
G01 X5.249 Y285.799
G01 X5.249 Y287.261
G01 X5.249 Y288.722
G01 X5.249 Y290.183
G01 X5.249 Y291.644
G01 X5.249 Y293.105
G01 X6.710 Y294.567
G01 X6.710 Y296.028
G01 X6.710 Y297.489
G01 X6.710 Y298.950
G01 X6.710 Y300.411
G01 X8.171 Y301.873
G01 X8.171 Y303.334
G01 X8.171 Y304.795
G01 X8.171 Y306.256
G01 X9.632 Y307.717
G01 X9.632 Y309.179
G01 X9.632 Y310.640
G01 X9.632 Y312.101
G01 X9.632 Y313.562
G01 X11.094 Y315.023
G01 X11.094 Y316.485
G01 X11.094 Y317.946
G01 X12.555 Y319.407
G01 X12.555 Y320.868
G01 X12.555 Y322.329
G01 X12.555 Y323.791
G01 X14.016 Y325.252
G01 X14.016 Y326.713
G01 X14.016 Y328.174
G01 X15.477 Y329.635
G01 X15.477 Y331.097
G01 X15.477 Y332.558
G01 X16.938 Y334.019
G01 X16.938 Y335.480
G01 X16.938 Y336.941
G01 X18.400 Y338.403
G01 X18.400 Y339.864
G01 X19.861 Y341.325
G01 X19.861 Y342.786
G01 X19.861 Y344.247
G01 X21.322 Y345.709
G01 X21.322 Y347.170
G01 X22.783 Y348.631
G01 X22.783 Y350.092
G01 X24.244 Y351.554
G01 X24.244 Y353.015
G01 X24.244 Y354.476
G01 X25.706 Y355.937
G01 X25.706 Y357.398
G01 X27.167 Y358.860
G01 X27.167 Y360.321
G01 X28.628 Y361.782
G01 X28.628 Y363.243
G01 X30.089 Y364.704
G01 X30.089 Y366.166
G01 X31.550 Y367.627
G01 X31.550 Y369.088
G01 X33.012 Y370.549
G01 X34.473 Y372.010
G01 X34.473 Y373.472
G01 X35.934 Y374.933
G01 X35.934 Y376.394
G01 X37.395 Y377.855
G01 X38.856 Y379.316
G01 X38.856 Y380.778
G01 X40.318 Y382.239
G01 X40.318 Y383.700
G01 X41.779 Y385.161
G01 X43.240 Y386.622
G01 X43.240 Y388.084
G01 X44.701 Y389.545
G01 X46.162 Y391.006
G01 X46.162 Y392.467
G01 X47.624 Y393.928
G01 X49.085 Y395.390
G01 X50.546 Y396.851
G01 X50.546 Y398.312
G01 X52.007 Y399.773
G01 X53.468 Y401.234
G01 X54.930 Y402.696
G01 X54.930 Y404.157
G01 X56.391 Y405.618
G01 X57.852 Y407.079
G01 X59.313 Y408.540
G01 X60.774 Y410.002
G01 X62.236 Y411.463
G01 X63.697 Y412.924
G01 X65.158 Y414.385
G01 X66.619 Y415.846
G01 X68.080 Y417.308
G01 X69.542 Y418.769
G01 X71.003 Y420.230
G01 X72.464 Y421.691
G01 X73.925 Y423.152
G01 X75.386 Y424.614
G01 X76.848 Y426.075
G01 X78.309 Y427.536
G01 X79.770 Y428.997
G01 X81.231 Y430.458
G01 X82.692 Y431.920
G01 X84.154 Y433.381
G01 X85.615 Y434.842
G01 X87.076 Y436.303
G01 X88.537 Y437.764
G01 X89.998 Y439.226
G01 X91.460 Y439.226
G01 X92.921 Y440.687
G01 X94.382 Y442.148
G01 X95.843 Y443.609
G01 X97.304 Y445.070
G01 X98.766 Y445.070
G01 X100.227 Y446.532
G01 X101.688 Y447.993
G01 X103.149 Y449.454
G01 X104.610 Y449.454
G01 X106.072 Y450.915
G01 X107.533 Y452.376
G01 X108.994 Y453.838
G01 X110.455 Y453.838
G01 X111.916 Y455.299
G01 X113.378 Y456.760
G01 X114.839 Y456.760
G01 X116.300 Y458.221
G01 X117.761 Y459.682
G01 X119.222 Y459.682
G01 X120.684 Y461.144
G01 X122.145 Y461.144
G01 X123.606 Y462.605
G01 X125.067 Y464.066
G01 X126.528 Y464.066
G01 X127.990 Y465.527
G01 X129.451 Y465.527
G01 X130.912 Y466.988
G01 X132.373 Y468.450
G01 X133.834 Y468.450
G01 X135.296 Y469.911
G01 X136.757 Y469.911
G01 X138.218 Y471.372
G01 X139.679 Y471.372
G01 X141.140 Y472.833
G01 X142.602 Y472.833
G01 X144.063 Y474.294
G01 X145.524 Y474.294
G01 X146.985 Y475.756
G01 X148.446 Y475.756
G01 X149.908 Y475.756
G01 X151.369 Y477.217
G01 X152.830 Y477.217
G01 X154.291 Y478.678
G01 X155.753 Y478.678
G01 X157.214 Y480.139
G01 X158.675 Y480.139
G01 X160.136 Y480.139
G01 X161.597 Y481.600
G01 X163.059 Y481.600
G01 X164.520 Y483.062
G01 X165.981 Y483.062
G01 X167.442 Y483.062
G01 X168.903 Y484.523
G01 X170.365 Y484.523
G01 X171.826 Y484.523
G01 X173.287 Y485.984
G01 X174.748 Y485.984
G01 X176.209 Y485.984
G01 X177.671 Y487.445
G01 X179.132 Y487.445
G01 X180.593 Y487.445
G01 X182.054 Y487.445
G01 X183.515 Y488.906
G01 X184.977 Y488.906
G01 X186.438 Y488.906
G01 X187.899 Y490.368
G01 X189.360 Y490.368
G01 X190.821 Y490.368
G01 X192.283 Y490.368
G01 X193.744 Y490.368
G01 X195.205 Y491.829
G01 X196.666 Y491.829
G01 X198.127 Y491.829
G01 X199.589 Y491.829
G01 X201.050 Y493.290
G01 X202.511 Y493.290
G01 X203.972 Y493.290
G01 X205.433 Y493.290
G01 X206.895 Y493.290
G01 X208.356 Y494.751
G01 X209.817 Y494.751
G01 X211.278 Y494.751
G01 X212.739 Y494.751
G01 X214.201 Y494.751
G01 X215.662 Y494.751
G01 X217.123 Y496.212
G01 X218.584 Y496.212
G01 X220.045 Y496.212
G01 X221.507 Y496.212
G01 X222.968 Y496.212
G01 X224.429 Y496.212
G01 X225.890 Y496.212
G01 X227.351 Y497.674
G01 X225.890 Y496.212
G01 X224.429 Y496.212
G01 X222.968 Y496.212
G01 X221.507 Y496.212
G01 X220.045 Y496.212
G01 X218.584 Y496.212
G01 X217.123 Y496.212
G01 X215.662 Y494.751
G01 X214.201 Y494.751
G01 X212.739 Y494.751
G01 X211.278 Y494.751
G01 X209.817 Y494.751
G01 X208.356 Y494.751
G01 X206.895 Y493.290
G01 X205.433 Y493.290
G01 X203.972 Y493.290
G01 X202.511 Y493.290
G01 X201.050 Y493.290
G01 X199.589 Y491.829
G01 X198.127 Y491.829
G01 X196.666 Y491.829
G01 X195.205 Y491.829
G01 X193.744 Y490.368
G01 X192.283 Y490.368
G01 X190.821 Y490.368
G01 X189.360 Y490.368
G01 X187.899 Y490.368
G01 X186.438 Y488.906
G01 X184.977 Y488.906
G01 X183.515 Y488.906
G01 X182.054 Y487.445
G01 X180.593 Y487.445
G01 X179.132 Y487.445
G01 X177.671 Y487.445
G01 X176.209 Y485.984
G01 X174.748 Y485.984
G01 X173.287 Y485.984
G01 X171.826 Y484.523
G01 X170.365 Y484.523
G01 X168.903 Y484.523
G01 X167.442 Y483.062
G01 X165.981 Y483.062
G01 X164.520 Y483.062
G01 X163.059 Y481.600
G01 X161.597 Y481.600
G01 X160.136 Y480.139
G01 X158.675 Y480.139
G01 X157.214 Y480.139
G01 X155.753 Y478.678
G01 X154.291 Y478.678
G01 X152.830 Y477.217
G01 X151.369 Y477.217
G01 X149.908 Y475.756
G01 X148.446 Y475.756
G01 X146.985 Y475.756
G01 X145.524 Y474.294
G01 X144.063 Y474.294
G01 X142.602 Y472.833
G01 X141.140 Y472.833
G01 X139.679 Y471.372
G01 X138.218 Y471.372
G01 X136.757 Y469.911
G01 X135.296 Y469.911
G01 X133.834 Y468.450
G01 X132.373 Y468.450
G01 X130.912 Y466.988
G01 X129.451 Y465.527
G01 X127.990 Y465.527
G01 X126.528 Y464.066
G01 X125.067 Y464.066
G01 X123.606 Y462.605
G01 X122.145 Y461.144
G01 X120.684 Y461.144
G01 X119.222 Y459.682
G01 X117.761 Y459.682
G01 X116.300 Y458.221
G01 X114.839 Y456.760
G01 X113.378 Y456.760
G01 X111.916 Y455.299
G01 X110.455 Y453.838
G01 X108.994 Y453.838
G01 X107.533 Y452.376
G01 X106.072 Y450.915
G01 X104.610 Y449.454
G01 X103.149 Y449.454
G01 X101.688 Y447.993
G01 X100.227 Y446.532
G01 X98.766 Y445.070
G01 X97.304 Y445.070
G01 X95.843 Y443.609
G01 X94.382 Y442.148
G01 X92.921 Y440.687
G01 X91.460 Y439.226
G01 X89.998 Y439.226
G01 X88.537 Y437.764
G01 X87.076 Y436.303
G01 X85.615 Y434.842
G01 X84.154 Y433.381
G01 X82.692 Y431.920
G01 X81.231 Y430.458
G01 X79.770 Y428.997
G01 X78.309 Y427.536
G01 X76.848 Y426.075
G01 X75.386 Y424.614
G01 X73.925 Y423.152
G01 X72.464 Y421.691
G01 X71.003 Y420.230
G01 X69.542 Y418.769
G01 X68.080 Y417.308
G01 X66.619 Y415.846
G01 X65.158 Y414.385
G01 X63.697 Y412.924
G01 X62.236 Y411.463
G01 X60.774 Y410.002
G01 X59.313 Y408.540
G01 X57.852 Y407.079
G01 X56.391 Y405.618
G01 X54.930 Y404.157
G01 X54.930 Y402.696
G01 X53.468 Y401.234
G01 X52.007 Y399.773
G01 X50.546 Y398.312
G01 X50.546 Y396.851
G01 X49.085 Y395.390
G01 X47.624 Y393.928
G01 X46.162 Y392.467
G01 X46.162 Y391.006
G01 X44.701 Y389.545
G01 X43.240 Y388.084
G01 X43.240 Y386.622
G01 X41.779 Y385.161
G01 X40.318 Y383.700
G01 X40.318 Y382.239
G01 X38.856 Y380.778
G01 X38.856 Y379.316
G01 X37.395 Y377.855
G01 X35.934 Y376.394
G01 X35.934 Y374.933
G01 X34.473 Y373.472
G01 X34.473 Y372.010
G01 X33.012 Y370.549
G01 X31.550 Y369.088
G01 X31.550 Y367.627
G01 X30.089 Y366.166
G01 X30.089 Y364.704
G01 X28.628 Y363.243
G01 X28.628 Y361.782
G01 X27.167 Y360.321
G01 X27.167 Y358.860
G01 X25.706 Y357.398
G01 X25.706 Y355.937
G01 X24.244 Y354.476
G01 X24.244 Y353.015
G01 X24.244 Y351.554
G01 X22.783 Y350.092
G01 X22.783 Y348.631
G01 X21.322 Y347.170
G01 X21.322 Y345.709
G01 X19.861 Y344.247
G01 X19.861 Y342.786
G01 X19.861 Y341.325
G01 X18.400 Y339.864
G01 X18.400 Y338.403
G01 X16.938 Y336.941
G01 X16.938 Y335.480
G01 X16.938 Y334.019
G01 X15.477 Y332.558
G01 X15.477 Y331.097
G01 X15.477 Y329.635
G01 X14.016 Y328.174
G01 X14.016 Y326.713
G01 X14.016 Y325.252
G01 X12.555 Y323.791
G01 X12.555 Y322.329
G01 X12.555 Y320.868
G01 X12.555 Y319.407
G01 X11.094 Y317.946
G01 X11.094 Y316.485
G01 X11.094 Y315.023
G01 X9.632 Y313.562
G01 X9.632 Y312.101
G01 X9.632 Y310.640
G01 X9.632 Y309.179
G01 X9.632 Y307.717
G01 X8.171 Y306.256
G01 X8.171 Y304.795
G01 X8.171 Y303.334
G01 X8.171 Y301.873
G01 X6.710 Y300.411
G01 X6.710 Y298.950
G01 X6.710 Y297.489
G01 X6.710 Y296.028
G01 X6.710 Y294.567
G01 X5.249 Y293.105
G01 X5.249 Y291.644
G01 X5.249 Y290.183
G01 X5.249 Y288.722
G01 X5.249 Y287.261
G01 X5.249 Y285.799
G01 X3.788 Y284.338
G01 X3.788 Y282.877
G01 X3.788 Y281.416
G01 X3.788 Y279.955
G01 X3.788 Y278.493
G01 X3.788 Y277.032
G01 X3.788 Y275.571
G01 X3.788 Y274.110
G01 X2.326 Y272.649
G01 X2.326 Y271.187
G01 X2.326 Y269.726
G01 X2.326 Y268.265
G01 X2.326 Y266.804
G01 X2.326 Y265.343
G01 X2.326 Y263.881
G01 X2.326 Y262.420
G01 X2.326 Y260.959
G01 X2.326 Y259.498
G01 X2.326 Y258.037
G01 X2.326 Y256.575
G01 X2.326 Y255.114
G01 X2.326 Y253.653
G01 X2.326 Y252.192
G01 X2.326 Y250.731
G01 X2.326 Y249.269
G01 X2.326 Y247.808
G01 X2.326 Y246.347
G01 X2.326 Y244.886
G01 X2.326 Y243.425
G01 X2.326 Y241.963
G01 X2.326 Y240.502
G01 X2.326 Y239.041
G01 X2.326 Y237.580
G01 X2.326 Y236.119
G01 X2.326 Y234.657
G01 X2.326 Y233.196
G01 X2.326 Y231.735
G01 X2.326 Y230.274
G01 X2.326 Y228.813
G01 X2.326 Y227.351
G01 X3.788 Y225.890
G01 X3.788 Y224.429
G01 X3.788 Y222.968
G01 X3.788 Y221.507
G01 X3.788 Y220.045
G01 X3.788 Y218.584
G01 X3.788 Y217.123
G01 X3.788 Y215.662
G01 X5.249 Y214.201
G01 X5.249 Y212.739
G01 X5.249 Y211.278
G01 X5.249 Y209.817
G01 X5.249 Y208.356
G01 X5.249 Y206.895
G01 X6.710 Y205.433
G01 X6.710 Y203.972
G01 X6.710 Y202.511
G01 X6.710 Y201.050
G01 X6.710 Y199.589
G01 X8.171 Y198.127
G01 X8.171 Y196.666
G01 X8.171 Y195.205
G01 X8.171 Y193.744
G01 X9.632 Y192.283
G01 X9.632 Y190.821
G01 X9.632 Y189.360
G01 X9.632 Y187.899
G01 X11.094 Y186.438
G01 X11.094 Y184.977
G01 X11.094 Y183.515
G01 X11.094 Y182.054
G01 X12.555 Y180.593
G01 X12.555 Y179.132
G01 X12.555 Y177.671
G01 X14.016 Y176.209
G01 X14.016 Y174.748
G01 X14.016 Y173.287
G01 X15.477 Y171.826
G01 X15.477 Y170.365
G01 X15.477 Y168.903
G01 X16.938 Y167.442
G01 X16.938 Y165.981
G01 X16.938 Y164.520
G01 X18.400 Y163.059
G01 X18.400 Y161.597
G01 X18.400 Y160.136
G01 X19.861 Y158.675
G01 X19.861 Y157.214
G01 X21.322 Y155.753
G01 X21.322 Y154.291
G01 X21.322 Y152.830
G01 X22.783 Y151.369
G01 X22.783 Y149.908
G01 X24.244 Y148.446
G01 X24.244 Y146.985
G01 X25.706 Y145.524
G01 X25.706 Y144.063
G01 X27.167 Y142.602
G01 X27.167 Y141.140
G01 X27.167 Y139.679
G01 X28.628 Y138.218
G01 X30.089 Y136.757
G01 X30.089 Y135.296
G01 X31.550 Y133.834
G01 X31.550 Y132.373
G01 X33.012 Y130.912
G01 X33.012 Y129.451
G01 X34.473 Y127.990
G01 X34.473 Y126.528
G01 X35.934 Y125.067
G01 X35.934 Y123.606
G01 X37.395 Y122.145
G01 X38.856 Y120.684
G01 X38.856 Y119.222
G01 X40.318 Y117.761
G01 X40.318 Y116.300
G01 X41.779 Y114.839
G01 X43.240 Y113.378
G01 X43.240 Y111.916
G01 X44.701 Y110.455
G01 X46.162 Y108.994
G01 X46.162 Y107.533
G01 X47.624 Y106.072
G01 X49.085 Y104.610
G01 X50.546 Y103.149
G01 X50.546 Y101.688
G01 X52.007 Y100.227
G01 X53.468 Y98.766
G01 X54.930 Y97.304
G01 X54.930 Y95.843
G01 X56.391 Y94.382
G01 X57.852 Y92.921
G01 X59.313 Y91.460
G01 X60.774 Y89.998
G01 X60.774 Y88.537
G01 X62.236 Y87.076
G01 X63.697 Y85.615
G01 X65.158 Y84.154
G01 X66.619 Y82.692
G01 X68.080 Y81.231
G01 X69.542 Y79.770
G01 X71.003 Y78.309
G01 X72.464 Y76.848
G01 X73.925 Y75.386
G01 X75.386 Y73.925
G01 X76.848 Y72.464
G01 X78.309 Y71.003
G01 X79.770 Y69.542
G01 X81.231 Y68.080
G01 X82.692 Y66.619
G01 X84.154 Y65.158
G01 X85.615 Y63.697
G01 X87.076 Y62.236
G01 X88.537 Y60.774
G01 X89.998 Y59.313
G01 X91.460 Y57.852
G01 X92.921 Y56.391
G01 X94.382 Y54.930
G01 X95.843 Y53.468
G01 X97.304 Y53.468
G01 X98.766 Y52.007
G01 X100.227 Y50.546
G01 X101.688 Y49.085
G01 X103.149 Y49.085
G01 X104.610 Y47.624
G01 X106.072 Y46.162
G01 X107.533 Y44.701
G01 X108.994 Y44.701
G01 X110.455 Y43.240
G01 X111.916 Y41.779
G01 X113.378 Y41.779
G01 X114.839 Y40.318
G01 X116.300 Y38.856
G01 X117.761 Y38.856
G01 X119.222 Y37.395
G01 X120.684 Y37.395
G01 X122.145 Y35.934
G01 X123.606 Y34.473
G01 X125.067 Y34.473
G01 X126.528 Y33.012
G01 X127.990 Y33.012
G01 X129.451 Y31.550
G01 X130.912 Y31.550
G01 X132.373 Y30.089
G01 X133.834 Y28.628
G01 X135.296 Y28.628
G01 X136.757 Y27.167
G01 X138.218 Y27.167
G01 X139.679 Y25.706
G01 X141.140 Y25.706
G01 X142.602 Y25.706
G01 X144.063 Y24.244
G01 X145.524 Y24.244
G01 X146.985 Y22.783
G01 X148.446 Y22.783
G01 X149.908 Y21.322
G01 X151.369 Y21.322
G01 X152.830 Y19.861
G01 X154.291 Y19.861
G01 X155.753 Y19.861
G01 X157.214 Y18.400
G01 X158.675 Y18.400
G01 X160.136 Y16.938
G01 X161.597 Y16.938
G01 X163.059 Y16.938
G01 X164.520 Y15.477
G01 X165.981 Y15.477
G01 X167.442 Y15.477
G01 X168.903 Y14.016
G01 X170.365 Y14.016
G01 X171.826 Y14.016
G01 X173.287 Y12.555
G01 X174.748 Y12.555
G01 X176.209 Y12.555
G01 X177.671 Y11.094
G01 X179.132 Y11.094
G01 X180.593 Y11.094
G01 X182.054 Y9.632
G01 X183.515 Y9.632
G01 X184.977 Y9.632
G01 X186.438 Y9.632
G01 X187.899 Y8.171
G01 X189.360 Y8.171
G01 X190.821 Y8.171
G01 X192.283 Y8.171
G01 X193.744 Y6.710
G01 X195.205 Y6.710
G01 X196.666 Y6.710
G01 X198.127 Y6.710
G01 X199.589 Y5.249
G01 X201.050 Y5.249
G01 X202.511 Y5.249
G01 X203.972 Y5.249
G01 X205.433 Y5.249
G01 X206.895 Y5.249
G01 X208.356 Y3.788
G01 X209.817 Y3.788
G01 X211.278 Y3.788
G01 X212.739 Y3.788
G01 X214.201 Y3.788
G01 X215.662 Y3.788
G01 X217.123 Y3.788
G01 X218.584 Y3.788
G01 X220.045 Y2.326
G01 X221.507 Y2.326
G01 X222.968 Y2.326
G01 X224.429 Y2.326
G01 X225.890 Y2.326
G01 X227.351 Y2.326
G01 X228.813 Y2.326
G01 X230.274 Y2.326
G01 X231.735 Y2.326
G01 X233.196 Y2.326
G01 X234.657 Y2.326
G01 X236.119 Y2.326
G01 X237.580 Y2.326
G01 X239.041 Y2.326
G01 X240.502 Y2.326
G01 X241.963 Y2.326
G01 X243.425 Y2.326
G01 X244.886 Y2.326
G01 X246.347 Y2.326
G01 X247.808 Y2.326
G01 X249.269 Y2.326
G01 X250.731 Y2.326
G01 X252.192 Y2.326
G01 X253.653 Y2.326
G01 X255.114 Y2.326
G01 X256.575 Y2.326
G01 X258.037 Y2.326
G01 X259.498 Y2.326
G01 X260.959 Y2.326
G01 X262.420 Y2.326
G01 X263.881 Y2.326
G01 X265.343 Y2.326
G01 X266.804 Y2.326
G01 X268.265 Y2.326
G01 X269.726 Y2.326
G01 X271.187 Y2.326
G01 X272.649 Y2.326
G01 X274.110 Y2.326
G01 X275.571 Y2.326
G01 X277.032 Y2.326
G01 X278.493 Y2.326
G01 X279.955 Y3.788
G01 X281.416 Y3.788
G01 X282.877 Y3.788
G01 X284.338 Y3.788
G01 X285.799 Y3.788
G01 X287.261 Y3.788
G01 X288.722 Y3.788
G01 X290.183 Y3.788
G01 X291.644 Y5.249
G01 X293.105 Y5.249
G01 X294.567 Y5.249
G01 X296.028 Y5.249
G01 X297.489 Y5.249
G01 X298.950 Y5.249
G01 X300.411 Y6.710
G01 X301.873 Y6.710
G01 X303.334 Y6.710
G01 X304.795 Y6.710
G01 X306.256 Y8.171
G01 X307.717 Y8.171
G01 X309.179 Y8.171
G01 X310.640 Y8.171
G01 X312.101 Y9.632
G01 X313.562 Y9.632
G01 X315.023 Y9.632
G01 X316.485 Y9.632
G01 X317.946 Y11.094
G01 X319.407 Y11.094
G01 X320.868 Y11.094
G01 X322.329 Y12.555
G01 X323.791 Y12.555
G01 X325.252 Y12.555
G01 X326.713 Y14.016
G01 X328.174 Y14.016
G01 X329.635 Y14.016
G01 X331.097 Y15.477
G01 X332.558 Y15.477
G01 X334.019 Y15.477
G01 X335.480 Y16.938
G01 X336.941 Y16.938
G01 X338.403 Y16.938
G01 X339.864 Y18.400
G01 X341.325 Y18.400
G01 X342.786 Y19.861
G01 X344.247 Y19.861
G01 X345.709 Y19.861
G01 X347.170 Y21.322
G01 X348.631 Y21.322
G01 X350.092 Y22.783
G01 X351.554 Y22.783
G01 X353.015 Y24.244
G01 X354.476 Y24.244
G01 X355.937 Y25.706
G01 X357.398 Y25.706
G01 X358.860 Y25.706
G01 X360.321 Y27.167
G01 X361.782 Y28.628
G01 X363.243 Y28.628
G01 X364.704 Y30.089
G01 X366.166 Y30.089
G01 X367.627 Y31.550
G01 X369.088 Y31.550
G01 X370.549 Y33.012
G01 X372.010 Y33.012
G01 X373.472 Y34.473
G01 X374.933 Y34.473
G01 X376.394 Y35.934
G01 X377.855 Y37.395
G01 X379.316 Y37.395
G01 X380.778 Y38.856
G01 X382.239 Y38.856
G01 X383.700 Y40.318
G01 X385.161 Y41.779
G01 X386.622 Y41.779
G01 X388.084 Y43.240
G01 X389.545 Y44.701
G01 X391.006 Y44.701
G01 X392.467 Y46.162
G01 X393.928 Y47.624
G01 X395.390 Y49.085
G01 X396.851 Y49.085
G01 X398.312 Y50.546
G01 X399.773 Y52.007
G01 X401.234 Y53.468
G01 X402.696 Y53.468
G01 X404.157 Y54.930
G01 X405.618 Y56.391
G01 X407.079 Y57.852
G01 X408.540 Y59.313
G01 X410.002 Y59.313
G01 X411.463 Y60.774
G01 X412.924 Y62.236
G01 X414.385 Y63.697
G01 X415.846 Y65.158
G01 X417.308 Y66.619
G01 X418.769 Y68.080
G01 X420.230 Y69.542
G01 X421.691 Y71.003
G01 X423.152 Y72.464
G01 X424.614 Y73.925
G01 X426.075 Y75.386
G01 X427.536 Y76.848
G01 X428.997 Y78.309
G01 X430.458 Y79.770
G01 X431.920 Y81.231
G01 X433.381 Y82.692
G01 X434.842 Y84.154
G01 X436.303 Y85.615
G01 X437.764 Y87.076
G01 X439.226 Y88.537
G01 X440.687 Y89.998
G01 X442.148 Y91.460
G01 X443.609 Y92.921
G01 X445.070 Y94.382
G01 X446.532 Y95.843
G01 X446.532 Y97.304
G01 X447.993 Y98.766
G01 X449.454 Y100.227
G01 X450.915 Y101.688
G01 X450.915 Y103.149
G01 X452.376 Y104.610
G01 X453.838 Y106.072
G01 X455.299 Y107.533
G01 X455.299 Y108.994
G01 X456.760 Y110.455
G01 X458.221 Y111.916
G01 X458.221 Y113.378
G01 X459.682 Y114.839
G01 X461.144 Y116.300
G01 X461.144 Y117.761
G01 X462.605 Y119.222
G01 X462.605 Y120.684
G01 X464.066 Y122.145
G01 X465.527 Y123.606
G01 X465.527 Y125.067
G01 X466.988 Y126.528
G01 X466.988 Y127.990
G01 X468.450 Y129.451
G01 X468.450 Y130.912
G01 X469.911 Y132.373
G01 X469.911 Y133.834
G01 X471.372 Y135.296
G01 X472.833 Y136.757
G01 X472.833 Y138.218
G01 X474.294 Y139.679
G01 X474.294 Y141.140
G01 X475.756 Y142.602
G01 X475.756 Y144.063
G01 X475.756 Y145.524
G01 X477.217 Y146.985
G01 X477.217 Y148.446
G01 X478.678 Y149.908
G01 X478.678 Y151.369
G01 X480.139 Y152.830
G01 X480.139 Y154.291
G01 X480.139 Y155.753
G01 X481.600 Y157.214
G01 X481.600 Y158.675
G01 X483.062 Y160.136
G01 X483.062 Y161.597
G01 X483.062 Y163.059
G01 X484.523 Y164.520
G01 X484.523 Y165.981
G01 X484.523 Y167.442
G01 X485.984 Y168.903
G01 X485.984 Y170.365
G01 X485.984 Y171.826
G01 X487.445 Y173.287
G01 X487.445 Y174.748
G01 X487.445 Y176.209
G01 X488.906 Y177.671
G01 X488.906 Y179.132
G01 X488.906 Y180.593
G01 X490.368 Y182.054
G01 X490.368 Y183.515
G01 X490.368 Y184.977
G01 X490.368 Y186.438
G01 X491.829 Y187.899
G01 X491.829 Y189.360
G01 X491.829 Y190.821
G01 X491.829 Y192.283
G01 X493.290 Y193.744
G01 X493.290 Y195.205
G01 X493.290 Y196.666
G01 X493.290 Y198.127
G01 X494.751 Y199.589
G01 X494.751 Y201.050
G01 X494.751 Y202.511
G01 X494.751 Y203.972
G01 X494.751 Y205.433
G01 X494.751 Y206.895
G01 X496.212 Y208.356
G01 X496.212 Y209.817
G01 X496.212 Y211.278
G01 X496.212 Y212.739
G01 X496.212 Y214.201
G01 X496.212 Y215.662
G01 X496.212 Y217.123
G01 X496.212 Y218.584
G01 X497.674 Y220.045
G01 X497.674 Y221.507
G01 X497.674 Y222.968
G01 X497.674 Y224.429
G01 X497.674 Y225.890
G01 X497.674 Y227.351
G01 X497.674 Y228.813
G01 X497.674 Y230.274
G01 X497.674 Y231.735
G01 X497.674 Y233.196
G01 X497.674 Y234.657
G01 X497.674 Y236.119
G01 X497.674 Y237.580
G01 X497.674 Y239.041
G01 X497.674 Y240.502
G01 X497.674 Y241.963
G01 X497.674 Y243.425
G01 X497.674 Y244.886
G01 X497.674 Y246.347
G01 X497.674 Y247.808
G01 X497.674 Y249.269
G01 X497.674 Y250.731
G01 X497.674 Y252.192
G01 X497.674 Y253.653
G01 X497.674 Y255.114
G01 X497.674 Y256.575
G01 X497.674 Y258.037
G01 X497.674 Y259.498
G01 X497.674 Y260.959
G01 X497.674 Y262.420
G01 X497.674 Y263.881
G01 X497.674 Y265.343
G01 X497.674 Y266.804
G01 X497.674 Y268.265
G01 X497.674 Y269.726
G01 X497.674 Y271.187
G01 X497.674 Y272.649
G01 X497.674 Y274.110
G01 X497.674 Y275.571
G01 X497.674 Y277.032
G01 X496.212 Y278.493
G01 X496.212 Y279.955
G01 X496.212 Y281.416
G01 X496.212 Y282.877
G01 X496.212 Y284.338
G01 X496.212 Y285.799
G01 X496.212 Y287.261
G01 X496.212 Y288.722
G01 X494.751 Y290.183
G01 X494.751 Y291.644
G01 X494.751 Y293.105
G01 X494.751 Y294.567
G01 X494.751 Y296.028
G01 X493.290 Y297.489
G01 X493.290 Y298.950
G01 X493.290 Y300.411
G01 X493.290 Y301.873
G01 X493.290 Y303.334
G01 X491.829 Y304.795
G01 X491.829 Y306.256
G01 X491.829 Y307.717
G01 X491.829 Y309.179
G01 X491.829 Y310.640
G01 X490.368 Y312.101
G01 X490.368 Y313.562
G01 X490.368 Y315.023
G01 X488.906 Y316.485
G01 X488.906 Y317.946
G01 X488.906 Y319.407
G01 X488.906 Y320.868
G01 X487.445 Y322.329
G01 X487.445 Y323.791
G01 X487.445 Y325.252
G01 X485.984 Y326.713
G01 X485.984 Y328.174
G01 X485.984 Y329.635
G01 X484.523 Y331.097
G01 X484.523 Y332.558
G01 X484.523 Y334.019
G01 X483.062 Y335.480
G01 X483.062 Y336.941
G01 X481.600 Y338.403
G01 X481.600 Y339.864
G01 X481.600 Y341.325
G01 X480.139 Y342.786
G01 X480.139 Y344.247
G01 X478.678 Y345.709
G01 X478.678 Y347.170
G01 X477.217 Y348.631
G01 X477.217 Y350.092
G01 X477.217 Y351.554
G01 X475.756 Y353.015
G01 X475.756 Y354.476
G01 X474.294 Y355.937
G01 X474.294 Y357.398
G01 X472.833 Y358.860
G01 X472.833 Y360.321
G01 X471.372 Y361.782
G01 X471.372 Y363.243
G01 X469.911 Y364.704
G01 X469.911 Y366.166
G01 X468.450 Y367.627
G01 X466.988 Y369.088
G01 X466.988 Y370.549
G01 X465.527 Y372.010
G01 X465.527 Y373.472
G01 X464.066 Y374.933
G01 X462.605 Y376.394
G01 X462.605 Y377.855
G01 X461.144 Y379.316
G01 X461.144 Y380.778
G01 X459.682 Y382.239
G01 X458.221 Y383.700
G01 X458.221 Y385.161
G01 X456.760 Y386.622
G01 X455.299 Y388.084
G01 X455.299 Y389.545
G01 X453.838 Y391.006
G01 X452.376 Y392.467
G01 X450.915 Y393.928
G01 X450.915 Y395.390
G01 X449.454 Y396.851
G01 X447.993 Y398.312
G01 X446.532 Y399.773
G01 X446.532 Y401.234
G01 X445.070 Y402.696
G01 X443.609 Y404.157
G01 X442.148 Y405.618
G01 X440.687 Y407.079
G01 X440.687 Y408.540
G01 X439.226 Y410.002
G01 X437.764 Y411.463
G01 X436.303 Y412.924
G01 X434.842 Y414.385
G01 X433.381 Y415.846
G01 X431.920 Y417.308
G01 X430.458 Y418.769
G01 X428.997 Y420.230
G01 X427.536 Y421.691
G01 X426.075 Y423.152
G01 X424.614 Y424.614
G01 X423.152 Y426.075
G01 X421.691 Y427.536
G01 X420.230 Y428.997
G01 X418.769 Y430.458
G01 X417.308 Y431.920
G01 X415.846 Y433.381
G01 X414.385 Y434.842
G01 X412.924 Y436.303
G01 X411.463 Y437.764
G01 X410.002 Y439.226
G01 X408.540 Y440.687
G01 X407.079 Y442.148
G01 X405.618 Y443.609
G01 X404.157 Y445.070
G01 X402.696 Y445.070
G01 X401.234 Y446.532
G01 X399.773 Y447.993
G01 X398.312 Y449.454
G01 X396.851 Y449.454
G01 X395.390 Y450.915
G01 X393.928 Y452.376
G01 X392.467 Y453.838
G01 X391.006 Y453.838
G01 X389.545 Y455.299
G01 X388.084 Y456.760
G01 X386.622 Y456.760
G01 X385.161 Y458.221
G01 X383.700 Y459.682
G01 X382.239 Y459.682
G01 X380.778 Y461.144
G01 X379.316 Y461.144
G01 X377.855 Y462.605
G01 X376.394 Y464.066
G01 X374.933 Y464.066
G01 X373.472 Y465.527
G01 X372.010 Y465.527
G01 X370.549 Y466.988
G01 X369.088 Y468.450
G01 X367.627 Y468.450
G01 X366.166 Y469.911
G01 X364.704 Y469.911
G01 X363.243 Y471.372
G01 X361.782 Y471.372
G01 X360.321 Y472.833
G01 X358.860 Y472.833
G01 X357.398 Y474.294
G01 X355.937 Y474.294
G01 X354.476 Y475.756
G01 X353.015 Y475.756
G01 X351.554 Y475.756
G01 X350.092 Y477.217
G01 X348.631 Y477.217
G01 X347.170 Y478.678
G01 X345.709 Y478.678
G01 X344.247 Y480.139
G01 X342.786 Y480.139
G01 X341.325 Y480.139
G01 X339.864 Y481.600
G01 X338.403 Y481.600
G01 X336.941 Y483.062
G01 X335.480 Y483.062
G01 X334.019 Y483.062
G01 X332.558 Y484.523
G01 X331.097 Y484.523
G01 X329.635 Y484.523
G01 X328.174 Y485.984
G01 X326.713 Y485.984
G01 X325.252 Y485.984
G01 X323.791 Y487.445
G01 X322.329 Y487.445
G01 X320.868 Y487.445
G01 X319.407 Y487.445
G01 X317.946 Y488.906
G01 X316.485 Y488.906
G01 X315.023 Y488.906
G01 X313.562 Y490.368
G01 X312.101 Y490.368
G01 X310.640 Y490.368
G01 X309.179 Y490.368
G01 X307.717 Y490.368
G01 X306.256 Y491.829
G01 X304.795 Y491.829
G01 X303.334 Y491.829
G01 X301.873 Y491.829
G01 X300.411 Y493.290
G01 X298.950 Y493.290
G01 X297.489 Y493.290
G01 X296.028 Y493.290
G01 X294.567 Y493.290
G01 X296.028 Y493.290
G01 X297.489 Y493.290
G01 X298.950 Y493.290
G01 X300.411 Y493.290
G01 X301.873 Y491.829
G01 X303.334 Y491.829
G01 X304.795 Y491.829
G01 X306.256 Y491.829
G01 X307.717 Y490.368
G01 X309.179 Y490.368
G01 X310.640 Y490.368
G01 X312.101 Y490.368
G01 X313.562 Y490.368
G01 X315.023 Y488.906
G01 X316.485 Y488.906
G01 X317.946 Y488.906
G01 X319.407 Y487.445
G01 X320.868 Y487.445
G01 X322.329 Y487.445
G01 X323.791 Y487.445
G01 X325.252 Y485.984
G01 X326.713 Y485.984
G01 X328.174 Y485.984
G01 X329.635 Y484.523
G01 X331.097 Y484.523
G01 X332.558 Y484.523
G01 X334.019 Y483.062
G01 X335.480 Y483.062
G01 X336.941 Y483.062
G01 X338.403 Y481.600
G01 X339.864 Y481.600
G01 X341.325 Y480.139
G01 X342.786 Y480.139
G01 X344.247 Y480.139
G01 X345.709 Y478.678
G01 X347.170 Y478.678
G01 X348.631 Y477.217
G01 X350.092 Y477.217
G01 X351.554 Y475.756
G01 X353.015 Y475.756
G01 X354.476 Y475.756
G01 X355.937 Y474.294
G01 X357.398 Y474.294
G01 X358.860 Y472.833
G01 X360.321 Y472.833
G01 X361.782 Y471.372
G01 X363.243 Y471.372
G01 X364.704 Y469.911
G01 X366.166 Y469.911
G01 X367.627 Y468.450
G01 X369.088 Y468.450
G01 X370.549 Y466.988
G01 X372.010 Y465.527
G01 X373.472 Y465.527
G01 X374.933 Y464.066
G01 X376.394 Y464.066
G01 X377.855 Y462.605
G01 X379.316 Y461.144
G01 X380.778 Y461.144
G01 X382.239 Y459.682
G01 X383.700 Y459.682
G01 X385.161 Y458.221
G01 X386.622 Y456.760
G01 X388.084 Y456.760
G01 X389.545 Y455.299
G01 X391.006 Y453.838
G01 X392.467 Y453.838
G01 X393.928 Y452.376
G01 X395.390 Y450.915
G01 X396.851 Y449.454
G01 X398.312 Y449.454
G01 X399.773 Y447.993
G01 X401.234 Y446.532
G01 X402.696 Y445.070
G01 X404.157 Y445.070
G01 X405.618 Y443.609
G01 X407.079 Y442.148
G01 X408.540 Y440.687
G01 X410.002 Y439.226
G01 X411.463 Y437.764
G01 X412.924 Y436.303
G01 X414.385 Y434.842
G01 X415.846 Y433.381
G01 X417.308 Y431.920
G01 X418.769 Y430.458
G01 X420.230 Y428.997
G01 X421.691 Y427.536
G01 X423.152 Y426.075
G01 X424.614 Y424.614
G01 X426.075 Y423.152
G01 X427.536 Y421.691
G01 X428.997 Y420.230
G01 X430.458 Y418.769
G01 X431.920 Y417.308
G01 X433.381 Y415.846
G01 X434.842 Y414.385
G01 X436.303 Y412.924
G01 X437.764 Y411.463
G01 X439.226 Y410.002
G01 X440.687 Y408.540
G01 X440.687 Y407.079
G01 X442.148 Y405.618
G01 X443.609 Y404.157
G01 X445.070 Y402.696
G01 X446.532 Y401.234
G01 X446.532 Y399.773
G01 X447.993 Y398.312
G01 X449.454 Y396.851
G01 X450.915 Y395.390
G01 X450.915 Y393.928
G01 X452.376 Y392.467
G01 X453.838 Y391.006
G01 X455.299 Y389.545
G01 X455.299 Y388.084
G01 X456.760 Y386.622
G01 X458.221 Y385.161
G01 X458.221 Y383.700
G01 X459.682 Y382.239
G01 X461.144 Y380.778
G01 X461.144 Y379.316
G01 X462.605 Y377.855
G01 X462.605 Y376.394
G01 X464.066 Y374.933
G01 X465.527 Y373.472
G01 X465.527 Y372.010
G01 X466.988 Y370.549
G01 X466.988 Y369.088
G01 X468.450 Y367.627
G01 X469.911 Y366.166
G01 X469.911 Y364.704
G01 X471.372 Y363.243
G01 X471.372 Y361.782
G01 X472.833 Y360.321
G01 X472.833 Y358.860
G01 X474.294 Y357.398
G01 X474.294 Y355.937
G01 X475.756 Y354.476
G01 X475.756 Y353.015
G01 X477.217 Y351.554
G01 X477.217 Y350.092
G01 X477.217 Y348.631
G01 X478.678 Y347.170
G01 X478.678 Y345.709
G01 X480.139 Y344.247
G01 X480.139 Y342.786
G01 X481.600 Y341.325
G01 X481.600 Y339.864
G01 X481.600 Y338.403
G01 X483.062 Y336.941
G01 X483.062 Y335.480
G01 X484.523 Y334.019
G01 X484.523 Y332.558
G01 X484.523 Y331.097
G01 X485.984 Y329.635
G01 X485.984 Y328.174
G01 X485.984 Y326.713
G01 X487.445 Y325.252
G01 X487.445 Y323.791
G01 X487.445 Y322.329
G01 X488.906 Y320.868
G01 X488.906 Y319.407
G01 X488.906 Y317.946
G01 X488.906 Y316.485
G01 X490.368 Y315.023
G01 X490.368 Y313.562
G01 X490.368 Y312.101
G01 X491.829 Y310.640
G01 X491.829 Y309.179
G01 X491.829 Y307.717
G01 X491.829 Y306.256
G01 X491.829 Y304.795
G01 X493.290 Y303.334
G01 X493.290 Y301.873
G01 X493.290 Y300.411
G01 X493.290 Y298.950
G01 X493.290 Y297.489
G01 X494.751 Y296.028
G01 X494.751 Y294.567
G01 X494.751 Y293.105
G01 X494.751 Y291.644
G01 X494.751 Y290.183
G01 X496.212 Y288.722
G01 X496.212 Y287.261
G01 X496.212 Y285.799
G01 X496.212 Y284.338
G01 X496.212 Y282.877
G01 X496.212 Y281.416
G01 X496.212 Y279.955
G01 X496.212 Y278.493
G01 X497.674 Y277.032
G01 X497.674 Y275.571
G01 X497.674 Y274.110
G01 X497.674 Y272.649
G01 X497.674 Y271.187
G01 X497.674 Y269.726
G01 X497.674 Y268.265
G01 X497.674 Y266.804
G01 X497.674 Y265.343
G01 X497.674 Y263.881
G01 X497.674 Y262.420
G01 X497.674 Y260.959
G01 X497.674 Y259.498
G01 X497.674 Y258.037
G01 X497.674 Y256.575
G01 X497.674 Y255.114
G01 X497.674 Y253.653
G01 X497.674 Y252.192
G01 X497.674 Y250.731
G01 X497.674 Y249.269
G01 X497.674 Y247.808
G01 X497.674 Y246.347
G01 X497.674 Y244.886
G01 X497.674 Y243.425
G01 X497.674 Y241.963
G01 X497.674 Y240.502
G01 X497.674 Y239.041
G01 X497.674 Y237.580
G01 X497.674 Y236.119
G01 X497.674 Y234.657
G01 X497.674 Y233.196
G01 X497.674 Y231.735
G01 X497.674 Y230.274
G01 X497.674 Y228.813
G01 X497.674 Y227.351
G01 X497.674 Y225.890
G01 X497.674 Y224.429
G01 X497.674 Y222.968
G01 X497.674 Y221.507
G01 X497.674 Y220.045
G01 X496.212 Y218.584
G01 X496.212 Y217.123
G01 X496.212 Y215.662
G01 X496.212 Y214.201
G01 X496.212 Y212.739
G01 X496.212 Y211.278
G01 X496.212 Y209.817
G01 X496.212 Y208.356
G01 X494.751 Y206.895
G01 X494.751 Y205.433
G01 X494.751 Y203.972
G01 X494.751 Y202.511
G01 X494.751 Y201.050
G01 X494.751 Y199.589
G01 X493.290 Y198.127
G01 X493.290 Y196.666
G01 X493.290 Y195.205
G01 X493.290 Y193.744
G01 X491.829 Y192.283
G01 X491.829 Y190.821
G01 X491.829 Y189.360
G01 X491.829 Y187.899
G01 X490.368 Y186.438
G01 X490.368 Y184.977
G01 X490.368 Y183.515
G01 X490.368 Y182.054
G01 X488.906 Y180.593
G01 X488.906 Y179.132
G01 X488.906 Y177.671
G01 X487.445 Y176.209
G01 X487.445 Y174.748
G01 X487.445 Y173.287
G01 X485.984 Y171.826
G01 X485.984 Y170.365
G01 X485.984 Y168.903
G01 X484.523 Y167.442
G01 X484.523 Y165.981
G01 X484.523 Y164.520
G01 X483.062 Y163.059
G01 X483.062 Y161.597
G01 X483.062 Y160.136
G01 X481.600 Y158.675
G01 X481.600 Y157.214
G01 X480.139 Y155.753
G01 X480.139 Y154.291
G01 X480.139 Y152.830
G01 X478.678 Y151.369
G01 X478.678 Y149.908
G01 X477.217 Y148.446
G01 X477.217 Y146.985
G01 X475.756 Y145.524
G01 X475.756 Y144.063
G01 X475.756 Y142.602
G01 X474.294 Y141.140
G01 X474.294 Y139.679
G01 X472.833 Y138.218
G01 X472.833 Y136.757
G01 X471.372 Y135.296
G01 X469.911 Y133.834
G01 X469.911 Y132.373
G01 X468.450 Y130.912
G01 X468.450 Y129.451
G01 X466.988 Y127.990
G01 X466.988 Y126.528
G01 X465.527 Y125.067
G01 X465.527 Y123.606
G01 X464.066 Y122.145
G01 X462.605 Y120.684
G01 X462.605 Y119.222
G01 X461.144 Y117.761
G01 X461.144 Y116.300
G01 X459.682 Y114.839
G01 X458.221 Y113.378
G01 X458.221 Y111.916
G01 X456.760 Y110.455
G01 X455.299 Y108.994
G01 X455.299 Y107.533
G01 X453.838 Y106.072
G01 X452.376 Y104.610
G01 X450.915 Y103.149
G01 X450.915 Y101.688
G01 X449.454 Y100.227
G01 X447.993 Y98.766
G01 X446.532 Y97.304
G01 X446.532 Y95.843
G01 X445.070 Y94.382
G01 X443.609 Y92.921
G01 X442.148 Y91.460
G01 X440.687 Y89.998
G01 X439.226 Y88.537
G01 X437.764 Y87.076
G01 X436.303 Y85.615
G01 X434.842 Y84.154
G01 X433.381 Y82.692
G01 X431.920 Y81.231
G01 X430.458 Y79.770
G01 X428.997 Y78.309
G01 X427.536 Y76.848
G01 X426.075 Y75.386
G01 X424.614 Y73.925
G01 X423.152 Y72.464
G01 X421.691 Y71.003
G01 X420.230 Y69.542
G01 X418.769 Y68.080
G01 X417.308 Y66.619
G01 X415.846 Y65.158
G01 X414.385 Y63.697
G01 X412.924 Y62.236
G01 X411.463 Y60.774
G01 X410.002 Y59.313
G01 X408.540 Y59.313
G01 X407.079 Y57.852
G01 X405.618 Y56.391
G01 X404.157 Y54.930
G01 X402.696 Y53.468
G01 X401.234 Y53.468
G01 X399.773 Y52.007
G01 X398.312 Y50.546
G01 X396.851 Y49.085
G01 X395.390 Y49.085
G01 X393.928 Y47.624
G01 X392.467 Y46.162
G01 X391.006 Y44.701
G01 X389.545 Y44.701
G01 X388.084 Y43.240
G01 X386.622 Y41.779
G01 X385.161 Y41.779
G01 X383.700 Y40.318
G01 X382.239 Y38.856
G01 X380.778 Y38.856
G01 X379.316 Y37.395
G01 X377.855 Y37.395
G01 X376.394 Y35.934
G01 X374.933 Y34.473
G01 X373.472 Y34.473
G01 X372.010 Y33.012
G01 X370.549 Y33.012
G01 X369.088 Y31.550
G01 X367.627 Y31.550
G01 X366.166 Y30.089
G01 X364.704 Y30.089
G01 X363.243 Y28.628
G01 X361.782 Y28.628
G01 X360.321 Y27.167
G01 X358.860 Y25.706
G01 X357.398 Y25.706
G01 X355.937 Y25.706
G01 X354.476 Y24.244
G01 X353.015 Y24.244
G01 X351.554 Y22.783
G01 X350.092 Y22.783
G01 X348.631 Y21.322
G01 X347.170 Y21.322
G01 X345.709 Y19.861
G01 X344.247 Y19.861
G01 X342.786 Y19.861
G01 X341.325 Y18.400
G01 X339.864 Y18.400
G01 X338.403 Y16.938
G01 X336.941 Y16.938
G01 X335.480 Y16.938
G01 X334.019 Y15.477
G01 X332.558 Y15.477
G01 X331.097 Y15.477
G01 X329.635 Y14.016
G01 X328.174 Y14.016
G01 X326.713 Y14.016
G01 X325.252 Y12.555
G01 X323.791 Y12.555
G01 X322.329 Y12.555
G01 X320.868 Y11.094
G01 X319.407 Y11.094
G01 X317.946 Y11.094
G01 X316.485 Y9.632
G01 X315.023 Y9.632
G01 X313.562 Y9.632
G01 X312.101 Y9.632
G01 X310.640 Y8.171
G01 X309.179 Y8.171
G01 X307.717 Y8.171
G01 X306.256 Y8.171
G01 X304.795 Y6.710
G01 X303.334 Y6.710
G01 X301.873 Y6.710
G01 X300.411 Y6.710
G01 X298.950 Y5.249
G01 X297.489 Y5.249
G01 X296.028 Y5.249
G01 X294.567 Y5.249
G01 X293.105 Y5.249
G01 X291.644 Y5.249
G01 X290.183 Y3.788
G01 X288.722 Y3.788
G01 X287.261 Y3.788
G01 X285.799 Y3.788
G01 X284.338 Y3.788
G01 X282.877 Y3.788
G01 X281.416 Y3.788
G01 X279.955 Y3.788
G01 X278.493 Y2.326
G01 X277.032 Y2.326
G01 X275.571 Y2.326
G01 X274.110 Y2.326
G01 X272.649 Y2.326
G01 X271.187 Y2.326
G01 X269.726 Y2.326
G01 X268.265 Y2.326
G01 X266.804 Y2.326
G01 X265.343 Y2.326
G01 X263.881 Y2.326
G01 X262.420 Y2.326
G01 X260.959 Y2.326
G01 X259.498 Y2.326
G01 X258.037 Y2.326
G01 X256.575 Y2.326
G01 X255.114 Y2.326
G01 X253.653 Y2.326
G01 X252.192 Y2.326
G01 X250.731 Y2.326
G01 X249.269 Y2.326
G01 X247.808 Y2.326
G01 X246.347 Y2.326
G01 X244.886 Y2.326
G01 X243.425 Y2.326
G01 X241.963 Y2.326
G01 X240.502 Y2.326
G01 X239.041 Y2.326
G01 X237.580 Y2.326
G01 X236.119 Y2.326
G01 X234.657 Y2.326
G01 X233.196 Y2.326
G01 X231.735 Y2.326
G01 X230.274 Y2.326
G01 X228.813 Y2.326
G01 X227.351 Y2.326
G01 X225.890 Y2.326
G01 X224.429 Y2.326
G01 X222.968 Y2.326
G01 X221.507 Y2.326
G01 X220.045 Y2.326
G01 X218.584 Y3.788
G01 X217.123 Y3.788
G01 X215.662 Y3.788
G01 X214.201 Y3.788
G01 X212.739 Y3.788
G01 X211.278 Y3.788
G01 X209.817 Y3.788
G01 X208.356 Y3.788
G01 X206.895 Y5.249
G01 X205.433 Y5.249
G01 X203.972 Y5.249
G01 X202.511 Y5.249
G01 X201.050 Y5.249
G01 X199.589 Y5.249
G01 X198.127 Y6.710
G01 X196.666 Y6.710
G01 X195.205 Y6.710
G01 X193.744 Y6.710
G01 X192.283 Y8.171
G01 X190.821 Y8.171
G01 X189.360 Y8.171
G01 X187.899 Y8.171
G01 X186.438 Y9.632
G01 X184.977 Y9.632
G01 X183.515 Y9.632
G01 X182.054 Y9.632
G01 X180.593 Y11.094
G01 X179.132 Y11.094
G01 X177.671 Y11.094
G01 X176.209 Y12.555
G01 X174.748 Y12.555
G01 X173.287 Y12.555
G01 X171.826 Y14.016
G01 X170.365 Y14.016
G01 X168.903 Y14.016
G01 X167.442 Y15.477
G01 X165.981 Y15.477
G01 X164.520 Y15.477
G01 X163.059 Y16.938
G01 X161.597 Y16.938
G01 X160.136 Y16.938
G01 X158.675 Y18.400
G01 X157.214 Y18.400
G01 X155.753 Y19.861
G01 X154.291 Y19.861
G01 X152.830 Y19.861
G01 X151.369 Y21.322
G01 X149.908 Y21.322
G01 X148.446 Y22.783
G01 X146.985 Y22.783
G01 X145.524 Y24.244
G01 X144.063 Y24.244
G01 X142.602 Y25.706
G01 X141.140 Y25.706
G01 X139.679 Y25.706
G01 X138.218 Y27.167
G01 X136.757 Y27.167
G01 X135.296 Y28.628
G01 X133.834 Y28.628
G01 X132.373 Y30.089
G01 X130.912 Y31.550
G01 X129.451 Y31.550
G01 X127.990 Y33.012
G01 X126.528 Y33.012
G01 X125.067 Y34.473
G01 X123.606 Y34.473
G01 X122.145 Y35.934
G01 X120.684 Y37.395
G01 X119.222 Y37.395
G01 X117.761 Y38.856
G01 X116.300 Y38.856
G01 X114.839 Y40.318
G01 X113.378 Y41.779
G01 X111.916 Y41.779
G01 X110.455 Y43.240
G01 X108.994 Y44.701
G01 X107.533 Y44.701
G01 X106.072 Y46.162
G01 X104.610 Y47.624
G01 X103.149 Y49.085
G01 X101.688 Y49.085
G01 X100.227 Y50.546
G01 X98.766 Y52.007
G01 X97.304 Y53.468
G01 X95.843 Y53.468
G01 X94.382 Y54.930
G01 X92.921 Y56.391
G01 X91.460 Y57.852
G01 X89.998 Y59.313
G01 X88.537 Y60.774
G01 X87.076 Y62.236
G01 X85.615 Y63.697
G01 X84.154 Y65.158
G01 X82.692 Y66.619
G01 X81.231 Y68.080
G01 X79.770 Y69.542
G01 X78.309 Y71.003
G01 X76.848 Y72.464
G01 X75.386 Y73.925
G01 X73.925 Y75.386
G01 X72.464 Y76.848
G01 X71.003 Y78.309
G01 X69.542 Y79.770
G01 X68.080 Y81.231
G01 X66.619 Y82.692
G01 X65.158 Y84.154
G01 X63.697 Y85.615
G01 X62.236 Y87.076
G01 X60.774 Y88.537
G01 X60.774 Y89.998
G01 X59.313 Y91.460
G01 X57.852 Y92.921
G01 X56.391 Y94.382
G01 X54.930 Y95.843
G01 X54.930 Y97.304
G01 X53.468 Y98.766
G01 X52.007 Y100.227
G01 X50.546 Y101.688
G01 X50.546 Y103.149
G01 X49.085 Y104.610
G01 X47.624 Y106.072
G01 X46.162 Y107.533
G01 X46.162 Y108.994
G01 X44.701 Y110.455
G01 X43.240 Y111.916
G01 X43.240 Y113.378
G01 X41.779 Y114.839
G01 X40.318 Y116.300
G01 X40.318 Y117.761
G01 X38.856 Y119.222
G01 X38.856 Y120.684
G01 X37.395 Y122.145
G01 X35.934 Y123.606
G01 X35.934 Y125.067
G01 X34.473 Y126.528
G01 X34.473 Y127.990
G01 X33.012 Y129.451
G01 X33.012 Y130.912
G01 X31.550 Y132.373
G01 X31.550 Y133.834
G01 X30.089 Y135.296
G01 X30.089 Y136.757
G01 X28.628 Y138.218
G01 X27.167 Y139.679
G01 X27.167 Y141.140
G01 X27.167 Y142.602
G01 X25.706 Y144.063
G01 X25.706 Y145.524
G01 X24.244 Y146.985
G01 X24.244 Y148.446
G01 X22.783 Y149.908
G01 X22.783 Y151.369
G01 X21.322 Y152.830
G01 X21.322 Y154.291
G01 X21.322 Y155.753
G01 X19.861 Y157.214
G01 X19.861 Y158.675
G01 X18.400 Y160.136
G01 X18.400 Y161.597
G01 X18.400 Y163.059
G01 X16.938 Y164.520
G01 X16.938 Y165.981
G01 X16.938 Y167.442
G01 X15.477 Y168.903
G01 X15.477 Y170.365
G01 X15.477 Y171.826
G01 X14.016 Y173.287
G01 X14.016 Y174.748
G01 X14.016 Y176.209
G01 X12.555 Y177.671
G01 X12.555 Y179.132
G01 X12.555 Y180.593
G01 X11.094 Y182.054
G01 X11.094 Y183.515
G01 X11.094 Y184.977
G01 X11.094 Y186.438
G01 X9.632 Y187.899
G01 X9.632 Y189.360
G01 X9.632 Y190.821
G01 X9.632 Y192.283
G01 X8.171 Y193.744
G01 X8.171 Y195.205
G01 X8.171 Y196.666
G01 X8.171 Y198.127
G01 X6.710 Y199.589
G01 X6.710 Y201.050
G01 X6.710 Y202.511
G01 X6.710 Y203.972
G01 X6.710 Y205.433
G01 X5.249 Y206.895
G01 X5.249 Y208.356
G01 X5.249 Y209.817
G01 X5.249 Y211.278
G01 X5.249 Y212.739
G01 X5.249 Y214.201
G01 X3.788 Y215.662
G01 X3.788 Y217.123
G01 X3.788 Y218.584
G01 X3.788 Y220.045
G01 X3.788 Y221.507
G01 X3.788 Y222.968
G01 X3.788 Y224.429
G01 X3.788 Y225.890
G01 X2.326 Y227.351
G01 X2.326 Y228.813
G01 X2.326 Y230.274
G01 X2.326 Y231.735
G01 X2.326 Y233.196
G01 X2.326 Y234.657
G01 X2.326 Y236.119
G01 X2.326 Y237.580
G01 X2.326 Y239.041
G01 X2.326 Y240.502
G01 X2.326 Y241.963
G01 X2.326 Y243.425
G01 X2.326 Y244.886
G01 X2.326 Y246.347
G01 X2.326 Y247.808
G01 X2.326 Y249.269
G01 X2.326 Y250.731
G01 X2.326 Y252.192
G01 X2.326 Y253.653
G01 X2.326 Y255.114
G01 X2.326 Y256.575
G01 X2.326 Y258.037
G01 X2.326 Y259.498
G01 X2.326 Y260.959
G01 X2.326 Y262.420
G01 X2.326 Y263.881
G01 X2.326 Y265.343
G01 X2.326 Y266.804
G01 X2.326 Y268.265
G01 X2.326 Y269.726
G01 X2.326 Y271.187
G01 X2.326 Y272.649
G01 X3.788 Y274.110
G01 X3.788 Y275.571
G01 X3.788 Y277.032
G01 X3.788 Y278.493
G01 X3.788 Y279.955
G01 X3.788 Y281.416
G01 X3.788 Y282.877
G01 X3.788 Y284.338
G01 X5.249 Y285.799
G01 X5.249 Y287.261
G01 X5.249 Y288.722
G01 X5.249 Y290.183
G01 X5.249 Y291.644
G01 X5.249 Y293.105
G01 X6.710 Y294.567
G01 X6.710 Y296.028
G01 X6.710 Y297.489
G01 X6.710 Y298.950
G01 X6.710 Y300.411
G01 X8.171 Y301.873
G01 X8.171 Y303.334
G01 X8.171 Y304.795
G01 X8.171 Y306.256
G01 X9.632 Y307.717
G01 X9.632 Y309.179
G01 X9.632 Y310.640
G01 X9.632 Y312.101
G01 X9.632 Y313.562
G01 X11.094 Y315.023
G01 X11.094 Y316.485
G01 X11.094 Y317.946
G01 X12.555 Y319.407
G01 X12.555 Y320.868
G01 X12.555 Y322.329
G01 X12.555 Y323.791
G01 X14.016 Y325.252
G01 X14.016 Y326.713
G01 X14.016 Y328.174
G01 X15.477 Y329.635
G01 X15.477 Y331.097
G01 X15.477 Y332.558
G01 X16.938 Y334.019
G01 X16.938 Y335.480
G01 X16.938 Y336.941
G01 X18.400 Y338.403
G01 X18.400 Y339.864
G01 X19.861 Y341.325
G01 X19.861 Y342.786
G01 X19.861 Y344.247
G01 X21.322 Y345.709
G01 X21.322 Y347.170
G01 X22.783 Y348.631
G01 X22.783 Y350.092
G01 X24.244 Y351.554
G01 X24.244 Y353.015
G01 X24.244 Y354.476
G01 X25.706 Y355.937
G01 X25.706 Y357.398
G01 X27.167 Y358.860
G01 X27.167 Y360.321
G01 X28.628 Y361.782
G01 X28.628 Y363.243
G01 X30.089 Y364.704
G01 X30.089 Y366.166
G01 X31.550 Y367.627
G01 X31.550 Y369.088
G01 X33.012 Y370.549
G01 X34.473 Y372.010
G01 X34.473 Y373.472
G01 X35.934 Y374.933
G01 X35.934 Y376.394
G01 X37.395 Y377.855
G01 X38.856 Y379.316
G01 X38.856 Y380.778
G01 X40.318 Y382.239
G01 X40.318 Y383.700
G01 X41.779 Y385.161
G01 X43.240 Y386.622
G01 X43.240 Y388.084
G01 X44.701 Y389.545
G01 X46.162 Y391.006
G01 X46.162 Y392.467
G01 X47.624 Y393.928
G01 X49.085 Y395.390
G01 X50.546 Y396.851
G01 X50.546 Y398.312
G01 X52.007 Y399.773
G01 X53.468 Y401.234
G01 X54.930 Y402.696
G01 X54.930 Y404.157
G01 X56.391 Y405.618
G01 X57.852 Y407.079
G01 X59.313 Y408.540
G01 X60.774 Y410.002
G01 X62.236 Y411.463
G01 X63.697 Y412.924
G01 X65.158 Y414.385
G01 X66.619 Y415.846
G01 X68.080 Y417.308
G01 X69.542 Y418.769
G01 X71.003 Y420.230
G01 X72.464 Y421.691
G01 X73.925 Y423.152
G01 X75.386 Y424.614
G01 X76.848 Y426.075
G01 X78.309 Y427.536
G01 X79.770 Y428.997
G01 X81.231 Y430.458
G01 X82.692 Y431.920
G01 X84.154 Y433.381
G01 X85.615 Y434.842
G01 X87.076 Y436.303
G01 X88.537 Y437.764
G01 X89.998 Y439.226
G01 X91.460 Y439.226
G01 X92.921 Y440.687
G01 X94.382 Y442.148
G01 X95.843 Y443.609
G01 X97.304 Y445.070
G01 X98.766 Y445.070
G01 X100.227 Y446.532
G01 X101.688 Y447.993
G01 X103.149 Y449.454
G01 X104.610 Y449.454
G01 X106.072 Y450.915
G01 X107.533 Y452.376
G01 X108.994 Y453.838
G01 X110.455 Y453.838
G01 X111.916 Y455.299
G01 X113.378 Y456.760
G01 X114.839 Y456.760
G01 X116.300 Y458.221
G01 X117.761 Y459.682
G01 X119.222 Y459.682
G01 X120.684 Y461.144
G01 X122.145 Y461.144
G01 X123.606 Y462.605
G01 X125.067 Y464.066
G01 X126.528 Y464.066
G01 X127.990 Y465.527
G01 X129.451 Y465.527
G01 X130.912 Y466.988
G01 X132.373 Y468.450
G01 X133.834 Y468.450
G01 X135.296 Y469.911
G01 X136.757 Y469.911
G01 X138.218 Y471.372
G01 X139.679 Y471.372
G01 X141.140 Y472.833
G01 X142.602 Y472.833
G01 X144.063 Y474.294
G01 X145.524 Y474.294
G01 X146.985 Y475.756
G01 X148.446 Y475.756
G01 X149.908 Y475.756
G01 X151.369 Y477.217
G01 X152.830 Y477.217
G01 X154.291 Y478.678
G01 X155.753 Y478.678
G01 X157.214 Y480.139
G01 X158.675 Y480.139
G01 X160.136 Y480.139
G01 X161.597 Y481.600
G01 X163.059 Y481.600
G01 X164.520 Y483.062
G01 X165.981 Y483.062
G01 X167.442 Y483.062
G01 X168.903 Y484.523
G01 X170.365 Y484.523
G01 X171.826 Y484.523
G01 X173.287 Y485.984
G01 X174.748 Y485.984
G01 X176.209 Y485.984
G01 X177.671 Y487.445
G01 X179.132 Y487.445
G01 X180.593 Y487.445
G01 X182.054 Y487.445
G01 X183.515 Y488.906
G01 X184.977 Y488.906
G01 X186.438 Y488.906
G01 X187.899 Y490.368
G01 X189.360 Y490.368
G01 X190.821 Y490.368
G01 X192.283 Y490.368
G01 X193.744 Y490.368
G01 X195.205 Y491.829
G01 X196.666 Y491.829
G01 X198.127 Y491.829
G01 X199.589 Y491.829
G01 X201.050 Y493.290
G01 X202.511 Y493.290
G01 X203.972 Y493.290
G01 X205.433 Y493.290
G01 X206.895 Y493.290
G01 X208.356 Y494.751
G01 X209.817 Y494.751
G01 X211.278 Y494.751
G01 X212.739 Y494.751
G01 X214.201 Y494.751
G01 X215.662 Y494.751
G01 X217.123 Y496.212
G01 X218.584 Y496.212
G01 X220.045 Y496.212
G01 X221.507 Y496.212
G01 X222.968 Y496.212
G01 X224.429 Y496.212
G01 X225.890 Y496.212
G01 X227.351 Y497.674
G01 X228.813 Y497.674
G01 X230.274 Y497.674
G01 X231.735 Y497.674
G01 X233.196 Y497.674
G01 X234.657 Y497.674
G01 X236.119 Y497.674
G01 X237.580 Y497.674
G01 X239.041 Y497.674
G01 X240.502 Y497.674
G01 X241.963 Y497.674
G01 X243.425 Y497.674
G01 X244.886 Y497.674
G01 X246.347 Y497.674
G01 X247.808 Y497.674
G01 X249.269 Y497.674
G01 X250.731 Y497.674
G01 X252.192 Y497.674
G01 X253.653 Y497.674
G01 X255.114 Y497.674
G01 X256.575 Y497.674
G01 X258.037 Y497.674
G01 X259.498 Y497.674
G01 X260.959 Y497.674
G01 X262.420 Y497.674
G01 X263.881 Y496.212
G01 X263.881 Y494.751
G01 X263.881 Y493.290
G01 X263.881 Y491.829
G01 X263.881 Y490.368
G01 X263.881 Y488.906
G01 X263.881 Y487.445
G01 X265.343 Y485.984
G01 X265.343 Y484.523
G01 X265.343 Y483.062
G01 X265.343 Y481.600
G01 X265.343 Y480.139
G01 X265.343 Y478.678
G01 X265.343 Y477.217
G01 X265.343 Y475.756
G01 X265.343 Y474.294
G01 X265.343 Y472.833
G01 X265.343 Y471.372
G01 X265.343 Y469.911
G01 X265.343 Y468.450
G01 X265.343 Y466.988
G01 X265.343 Y465.527
G01 X265.343 Y464.066
G01 X265.343 Y462.605
G01 X265.343 Y461.144
G01 X265.343 Y459.682
G01 X265.343 Y458.221
G01 X265.343 Y456.760
G01 X265.343 Y455.299
G01 X265.343 Y453.838
G01 X265.343 Y452.376
G01 X263.881 Y450.915
G01 X263.881 Y449.454
G01 X263.881 Y447.993
G01 X263.881 Y446.532
G01 X263.881 Y445.070
G01 X263.881 Y443.609
G01 X263.881 Y442.148
G01 X263.881 Y440.687
G01 X263.881 Y439.226
G01 X263.881 Y437.764
G01 X263.881 Y436.303
G01 X263.881 Y434.842
G01 X263.881 Y433.381
G01 X263.881 Y431.920
G01 X263.881 Y430.458
G01 X263.881 Y428.997
G01 X265.343 Y427.536
G01 X265.343 Y426.075
G01 X265.343 Y424.614
G01 X265.343 Y423.152
G01 X265.343 Y421.691
G01 X265.343 Y420.230
G01 X265.343 Y418.769
G01 X265.343 Y417.308
G01 X265.343 Y415.846
G01 X265.343 Y414.385
G01 X265.343 Y412.924
G01 X265.343 Y411.463
G01 X265.343 Y410.002
G01 X265.343 Y408.540
G01 X265.343 Y407.079
G01 X265.343 Y405.618
G01 X265.343 Y404.157
G01 X265.343 Y402.696
G01 X265.343 Y401.234
G01 X265.343 Y399.773
G01 X265.343 Y398.312
G01 X265.343 Y396.851
G01 X265.343 Y395.390
G01 X265.343 Y393.928
G01 X265.343 Y392.467
G01 X265.343 Y391.006
G01 X265.343 Y389.545
G01 X265.343 Y388.084
G01 X265.343 Y386.622
G01 X265.343 Y385.161
G01 X265.343 Y383.700
G01 X265.343 Y382.239
G01 X265.343 Y380.778
G01 X265.343 Y379.316
G01 X265.343 Y377.855
G01 X265.343 Y376.394
G01 X265.343 Y374.933
G01 X265.343 Y373.472
G01 X265.343 Y372.010
G01 X265.343 Y370.549
G01 X265.343 Y369.088
G01 X265.343 Y367.627
G01 X265.343 Y366.166
G01 X265.343 Y364.704
G01 X265.343 Y363.243
G01 X265.343 Y361.782
G01 X265.343 Y360.321
G01 X265.343 Y358.860
G01 X265.343 Y357.398
G01 X265.343 Y355.937
G01 X265.343 Y354.476
G01 X265.343 Y353.015
G01 X265.343 Y351.554
G01 X265.343 Y350.092
G01 X265.343 Y348.631
G01 X265.343 Y347.170
G01 X265.343 Y345.709
G01 X265.343 Y344.247
G01 X265.343 Y342.786
G01 X265.343 Y341.325
G01 X265.343 Y339.864
G01 X265.343 Y338.403
G01 X265.343 Y336.941
G01 X265.343 Y335.480
G01 X265.343 Y334.019
G01 X265.343 Y332.558
G01 X265.343 Y331.097
G01 X265.343 Y329.635
G01 X265.343 Y328.174
G01 X265.343 Y326.713
G01 X265.343 Y325.252
G01 X265.343 Y323.791
G01 X265.343 Y322.329
G01 X265.343 Y320.868
G01 X265.343 Y319.407
G01 X265.343 Y317.946
G01 X265.343 Y316.485
G01 X265.343 Y315.023
G01 X265.343 Y313.562
G01 X265.343 Y312.101
G01 X265.343 Y310.640
G01 X265.343 Y309.179
G01 X265.343 Y307.717
G01 X265.343 Y306.256
G01 X265.343 Y304.795
G01 X265.343 Y303.334
G01 X265.343 Y301.873
G01 X265.343 Y300.411
G01 X265.343 Y298.950
G01 X265.343 Y297.489
G01 X265.343 Y296.028
G01 X265.343 Y294.567
G01 X265.343 Y293.105
G01 X265.343 Y291.644
G01 X266.804 Y290.183
G01 X268.265 Y288.722
G01 X269.726 Y288.722
G01 X271.187 Y287.261
G01 X272.649 Y285.799
G01 X274.110 Y285.799
G01 X275.571 Y284.338
G01 X277.032 Y282.877
G01 X278.493 Y281.416
G01 X279.955 Y279.955
G01 X281.416 Y278.493
G01 X282.877 Y277.032
G01 X284.338 Y275.571
G01 X285.799 Y274.110
G01 X287.261 Y272.649
G01 X288.722 Y271.187
G01 X290.183 Y269.726
G01 X290.183 Y268.265
G01 X291.644 Y266.804
G01 X291.644 Y265.343
G01 X291.644 Y263.881
G01 X293.105 Y262.420
G01 X293.105 Y260.959
G01 X293.105 Y259.498
G01 X293.105 Y258.037
G01 X293.105 Y256.575
G01 X293.105 Y255.114
G01 X293.105 Y253.653
G01 X293.105 Y252.192
G01 X293.105 Y250.731
G01 X293.105 Y249.269
G01 X293.105 Y247.808
G01 X293.105 Y246.347
G01 X293.105 Y244.886
G01 X293.105 Y243.425
G01 X293.105 Y241.963
G01 X293.105 Y240.502
G01 X293.105 Y239.041
G01 X291.644 Y237.580
G01 X291.644 Y236.119
G01 X291.644 Y234.657
G01 X290.183 Y233.196
G01 X290.183 Y231.735
G01 X288.722 Y230.274
G01 X288.722 Y228.813
G01 X287.261 Y227.351
G01 X287.261 Y225.890
G01 X285.799 Y224.429
G01 X284.338 Y222.968
G01 X282.877 Y221.507
G01 X281.416 Y220.045
G01 X279.955 Y218.584
G01 X278.493 Y217.123
G01 X277.032 Y215.662
G01 X275.571 Y214.201
G01 X274.110 Y212.739
G01 X272.649 Y211.278
G01 X271.187 Y211.278
G01 X269.726 Y209.817
G01 X268.265 Y209.817
G01 X266.804 Y208.356
G01 X265.343 Y208.356
G01 X263.881 Y208.356
G01 X262.420 Y206.895
G01 X260.959 Y206.895
G01 X259.498 Y206.895
G01 X258.037 Y206.895
G01 X256.575 Y206.895
G01 X255.114 Y206.895
G01 X253.653 Y206.895
G01 X252.192 Y206.895
G01 X250.731 Y206.895
G01 X250.731 Y205.433
G01 X250.731 Y203.972
G01 X250.731 Y202.511
G01 X250.731 Y201.050
G01 X250.731 Y199.589
G01 X250.731 Y198.127
G01 X250.731 Y196.666
G01 X250.731 Y195.205
G01 X250.731 Y193.744
G01 X250.731 Y192.283
G01 X250.731 Y190.821
G01 X250.731 Y189.360
G01 X250.731 Y187.899
G01 X250.731 Y186.438
G01 X250.731 Y184.977
G01 X250.731 Y183.515
G01 X250.731 Y182.054
G01 X250.731 Y180.593
G01 X250.731 Y179.132
G01 X250.731 Y177.671
G01 X250.731 Y176.209
G01 X250.731 Y174.748
G01 X250.731 Y173.287
G01 X250.731 Y171.826
G01 X250.731 Y170.365
G01 X250.731 Y168.903
G01 X250.731 Y167.442
G01 X250.731 Y165.981
G01 X250.731 Y164.520
G01 X250.731 Y163.059
G01 X250.731 Y161.597
G01 X250.731 Y160.136
G01 X250.731 Y158.675
G01 X250.731 Y157.214
G01 X250.731 Y155.753
G01 X250.731 Y154.291
G01 X250.731 Y152.830
G01 X250.731 Y151.369
G01 X250.731 Y149.908
G01 X250.731 Y148.446
G01 X252.192 Y148.446
G01 X253.653 Y148.446
G01 X255.114 Y148.446
G01 X256.575 Y148.446
G01 X258.037 Y148.446
G01 X259.498 Y148.446
G01 X260.959 Y148.446
G01 X262.420 Y148.446
G01 X263.881 Y148.446
G01 X265.343 Y148.446
G01 X266.804 Y148.446
G01 X268.265 Y148.446
G01 X269.726 Y148.446
G01 X271.187 Y149.908
G01 X272.649 Y149.908
G01 X274.110 Y149.908
G01 X275.571 Y149.908
G01 X277.032 Y151.369
G01 X278.493 Y151.369
G01 X279.955 Y151.369
G01 X281.416 Y152.830
G01 X282.877 Y152.830
G01 X284.338 Y152.830
G01 X285.799 Y154.291
G01 X287.261 Y154.291
G01 X288.722 Y154.291
G01 X290.183 Y155.753
G01 X291.644 Y155.753
G01 X293.105 Y157.214
G01 X294.567 Y157.214
G01 X296.028 Y158.675
G01 X297.489 Y158.675
G01 X298.950 Y160.136
G01 X300.411 Y160.136
G01 X301.873 Y161.597
G01 X303.334 Y163.059
G01 X304.795 Y163.059
G01 X306.256 Y164.520
G01 X307.717 Y165.981
G01 X309.179 Y165.981
G01 X310.640 Y167.442
G01 X312.101 Y168.903
G01 X313.562 Y170.365
G01 X315.023 Y170.365
G01 X316.485 Y171.826
G01 X317.946 Y173.287
G01 X319.407 Y174.748
G01 X320.868 Y176.209
G01 X322.329 Y177.671
G01 X323.791 Y179.132
G01 X325.252 Y180.593
G01 X326.713 Y182.054
G01 X328.174 Y183.515
G01 X329.635 Y184.977
G01 X331.097 Y186.438
G01 X332.558 Y187.899
G01 X334.019 Y189.360
G01 X334.019 Y190.821
G01 X335.480 Y192.283
G01 X336.941 Y193.744
G01 X336.941 Y195.205
G01 X338.403 Y196.666
G01 X339.864 Y198.127
G01 X339.864 Y199.589
G01 X341.325 Y201.050
G01 X341.325 Y202.511
G01 X342.786 Y203.972
G01 X342.786 Y205.433
G01 X344.247 Y206.895
G01 X344.247 Y208.356
G01 X345.709 Y209.817
G01 X345.709 Y211.278
G01 X345.709 Y212.739
G01 X347.170 Y214.201
G01 X347.170 Y215.662
G01 X347.170 Y217.123
G01 X348.631 Y218.584
G01 X348.631 Y220.045
G01 X348.631 Y221.507
G01 X350.092 Y222.968
G01 X350.092 Y224.429
G01 X350.092 Y225.890
G01 X350.092 Y227.351
G01 X351.554 Y228.813
G01 X351.554 Y230.274
G01 X351.554 Y231.735
G01 X351.554 Y233.196
G01 X351.554 Y234.657
G01 X351.554 Y236.119
G01 X351.554 Y237.580
G01 X351.554 Y239.041
G01 X351.554 Y240.502
G01 X351.554 Y241.963
G01 X351.554 Y243.425
G01 X351.554 Y244.886
G01 X351.554 Y246.347
G01 X351.554 Y247.808
G01 X351.554 Y249.269
G01 X351.554 Y250.731
G01 X351.554 Y252.192
G01 X351.554 Y253.653
G01 X351.554 Y255.114
G01 X351.554 Y256.575
G01 X351.554 Y258.037
G01 X351.554 Y259.498
G01 X351.554 Y260.959
G01 X351.554 Y262.420
G01 X351.554 Y263.881
G01 X351.554 Y265.343
G01 X351.554 Y266.804
G01 X351.554 Y268.265
G01 X350.092 Y269.726
G01 X350.092 Y271.187
G01 X350.092 Y272.649
G01 X350.092 Y274.110
G01 X348.631 Y275.571
G01 X348.631 Y277.032
G01 X348.631 Y278.493
G01 X348.631 Y279.955
G01 X347.170 Y281.416
G01 X347.170 Y282.877
G01 X345.709 Y284.338
G01 X345.709 Y285.799
G01 X345.709 Y287.261
G01 X344.247 Y288.722
G01 X344.247 Y290.183
G01 X342.786 Y291.644
G01 X342.786 Y293.105
G01 X341.325 Y294.567
G01 X341.325 Y296.028
G01 X339.864 Y297.489
G01 X339.864 Y298.950
G01 X338.403 Y300.411
G01 X336.941 Y301.873
G01 X336.941 Y303.334
G01 X335.480 Y304.795
G01 X334.019 Y306.256
G01 X334.019 Y307.717
G01 X332.558 Y309.179
G01 X331.097 Y310.640
G01 X329.635 Y312.101
G01 X329.635 Y313.562
G01 X328.174 Y315.023
G01 X326.713 Y316.485
G01 X325.252 Y317.946
G01 X323.791 Y319.407
G01 X322.329 Y320.868
G01 X322.329 Y322.329
G01 X322.329 Y323.791
G01 X322.329 Y322.329
G01 X322.329 Y320.868
G01 X323.791 Y319.407
G01 X325.252 Y317.946
G01 X326.713 Y316.485
G01 X328.174 Y315.023
G01 X329.635 Y313.562
G01 X329.635 Y312.101
G01 X331.097 Y310.640
G01 X332.558 Y309.179
G01 X334.019 Y307.717
G01 X334.019 Y306.256
G01 X335.480 Y304.795
G01 X336.941 Y303.334
G01 X336.941 Y301.873
G01 X338.403 Y300.411
G01 X339.864 Y298.950
G01 X339.864 Y297.489
G01 X341.325 Y296.028
G01 X341.325 Y294.567
G01 X342.786 Y293.105
G01 X342.786 Y291.644
G01 X344.247 Y290.183
G01 X344.247 Y288.722
G01 X345.709 Y287.261
G01 X345.709 Y285.799
G01 X345.709 Y284.338
G01 X347.170 Y282.877
G01 X347.170 Y281.416
G01 X348.631 Y279.955
G01 X348.631 Y278.493
G01 X348.631 Y277.032
G01 X348.631 Y275.571
G01 X350.092 Y274.110
G01 X350.092 Y272.649
G01 X350.092 Y271.187
G01 X350.092 Y269.726
G01 X351.554 Y268.265
G01 X351.554 Y266.804
G01 X351.554 Y265.343
G01 X351.554 Y263.881
G01 X351.554 Y262.420
G01 X351.554 Y260.959
G01 X351.554 Y259.498
G01 X351.554 Y258.037
G01 X351.554 Y256.575
G01 X351.554 Y255.114
G01 X351.554 Y253.653
G01 X351.554 Y252.192
G01 X351.554 Y250.731
G01 X351.554 Y249.269
G01 X353.015 Y249.269
G01 X353.015 Y247.808
G01 X353.015 Y249.269
G01 X354.476 Y249.269
G01 X355.937 Y249.269
G01 X357.398 Y249.269
G01 X358.860 Y249.269
G01 X360.321 Y249.269
G01 X361.782 Y249.269
G01 X363.243 Y249.269
G01 X364.704 Y249.269
G01 X366.166 Y249.269
G01 X367.627 Y249.269
G01 X369.088 Y249.269
G01 X370.549 Y249.269
G01 X372.010 Y249.269
G01 X373.472 Y249.269
G01 X374.933 Y249.269
G01 X376.394 Y249.269
G01 X377.855 Y249.269
G01 X379.316 Y249.269
G01 X380.778 Y249.269
G01 X382.239 Y249.269
G01 X383.700 Y249.269
G01 X385.161 Y249.269
G01 X386.622 Y249.269
G01 X388.084 Y249.269
G01 X389.545 Y249.269
G01 X391.006 Y249.269
G01 X392.467 Y249.269
G01 X393.928 Y249.269
G01 X395.390 Y249.269
G01 X396.851 Y249.269
G01 X398.312 Y249.269
G01 X399.773 Y249.269
G01 X401.234 Y249.269
G01 X402.696 Y249.269
G01 X404.157 Y249.269
G01 X405.618 Y249.269
G01 X407.079 Y249.269
G01 X408.540 Y249.269
G01 X410.002 Y249.269
G01 X410.002 Y247.808
G01 X410.002 Y246.347
G01 X410.002 Y244.886
G01 X410.002 Y243.425
G01 X410.002 Y241.963
G01 X410.002 Y240.502
G01 X410.002 Y239.041
G01 X410.002 Y237.580
G01 X410.002 Y236.119
G01 X410.002 Y234.657
G01 X410.002 Y233.196
G01 X410.002 Y231.735
G01 X410.002 Y230.274
G01 X410.002 Y228.813
G01 X410.002 Y227.351
G01 X410.002 Y225.890
G01 X408.540 Y224.429
G01 X408.540 Y222.968
G01 X408.540 Y221.507
G01 X408.540 Y220.045
G01 X408.540 Y218.584
G01 X408.540 Y217.123
G01 X407.079 Y215.662
G01 X407.079 Y214.201
G01 X407.079 Y212.739
G01 X407.079 Y211.278
G01 X405.618 Y209.817
G01 X405.618 Y208.356
G01 X405.618 Y206.895
G01 X404.157 Y205.433
G01 X404.157 Y203.972
G01 X404.157 Y202.511
G01 X402.696 Y201.050
G01 X402.696 Y199.589
G01 X402.696 Y198.127
G01 X401.234 Y196.666
G01 X401.234 Y195.205
G01 X401.234 Y193.744
G01 X399.773 Y192.283
G01 X399.773 Y190.821
G01 X399.773 Y189.360
G01 X398.312 Y187.899
G01 X398.312 Y186.438
G01 X396.851 Y184.977
G01 X396.851 Y183.515
G01 X395.390 Y182.054
G01 X395.390 Y180.593
G01 X393.928 Y179.132
G01 X393.928 Y177.671
G01 X392.467 Y176.209
G01 X392.467 Y174.748
G01 X391.006 Y173.287
G01 X391.006 Y171.826
G01 X389.545 Y170.365
G01 X389.545 Y168.903
G01 X388.084 Y167.442
G01 X386.622 Y165.981
G01 X386.622 Y164.520
G01 X385.161 Y163.059
G01 X385.161 Y161.597
G01 X383.700 Y160.136
G01 X382.239 Y158.675
G01 X380.778 Y157.214
G01 X380.778 Y155.753
G01 X379.316 Y154.291
G01 X377.855 Y152.830
G01 X376.394 Y151.369
G01 X376.394 Y149.908
G01 X374.933 Y148.446
G01 X373.472 Y146.985
G01 X372.010 Y145.524
G01 X370.549 Y144.063
G01 X369.088 Y142.602
G01 X367.627 Y141.140
G01 X366.166 Y139.679
G01 X366.166 Y138.218
G01 X364.704 Y136.757
G01 X363.243 Y135.296
G01 X361.782 Y133.834
G01 X360.321 Y132.373
G01 X358.860 Y130.912
G01 X357.398 Y129.451
G01 X355.937 Y127.990
G01 X354.476 Y126.528
G01 X353.015 Y125.067
G01 X351.554 Y123.606
G01 X350.092 Y123.606
G01 X348.631 Y122.145
G01 X347.170 Y120.684
G01 X345.709 Y119.222
G01 X344.247 Y119.222
G01 X342.786 Y117.761
G01 X341.325 Y116.300
G01 X339.864 Y114.839
G01 X338.403 Y114.839
G01 X336.941 Y113.378
G01 X335.480 Y113.378
G01 X334.019 Y111.916
G01 X332.558 Y110.455
G01 X331.097 Y110.455
G01 X329.635 Y108.994
G01 X328.174 Y108.994
G01 X326.713 Y107.533
G01 X325.252 Y107.533
G01 X323.791 Y106.072
G01 X322.329 Y106.072
G01 X320.868 Y104.610
G01 X319.407 Y104.610
G01 X317.946 Y103.149
G01 X316.485 Y103.149
G01 X315.023 Y101.688
G01 X313.562 Y101.688
G01 X312.101 Y100.227
G01 X310.640 Y100.227
G01 X309.179 Y100.227
G01 X307.717 Y98.766
G01 X306.256 Y98.766
G01 X304.795 Y98.766
G01 X303.334 Y97.304
G01 X301.873 Y97.304
G01 X300.411 Y97.304
G01 X298.950 Y95.843
G01 X297.489 Y95.843
G01 X296.028 Y95.843
G01 X294.567 Y94.382
G01 X293.105 Y94.382
G01 X291.644 Y94.382
G01 X290.183 Y92.921
G01 X288.722 Y92.921
G01 X287.261 Y92.921
G01 X285.799 Y92.921
G01 X284.338 Y91.460
G01 X282.877 Y91.460
G01 X281.416 Y91.460
G01 X279.955 Y91.460
G01 X278.493 Y91.460
G01 X279.955 Y91.460
G01 X281.416 Y91.460
G01 X282.877 Y91.460
G01 X284.338 Y91.460
G01 X285.799 Y92.921
G01 X287.261 Y92.921
G01 X288.722 Y92.921
G01 X290.183 Y92.921
G01 X291.644 Y94.382
G01 X293.105 Y94.382
G01 X294.567 Y94.382
G01 X296.028 Y95.843
G01 X297.489 Y95.843
G01 X298.950 Y95.843
G01 X300.411 Y97.304
G01 X301.873 Y97.304
G01 X303.334 Y97.304
G01 X304.795 Y98.766
G01 X306.256 Y98.766
G01 X307.717 Y98.766
G01 X309.179 Y100.227
G01 X310.640 Y100.227
G01 X312.101 Y100.227
G01 X313.562 Y101.688
G01 X315.023 Y101.688
G01 X316.485 Y103.149
G01 X317.946 Y103.149
G01 X319.407 Y104.610
G01 X320.868 Y104.610
G01 X322.329 Y106.072
G01 X323.791 Y106.072
G01 X325.252 Y107.533
G01 X326.713 Y107.533
G01 X328.174 Y108.994
G01 X329.635 Y108.994
G01 X331.097 Y110.455
G01 X332.558 Y110.455
G01 X334.019 Y111.916
G01 X335.480 Y113.378
G01 X336.941 Y113.378
G01 X338.403 Y114.839
G01 X339.864 Y114.839
G01 X341.325 Y116.300
G01 X342.786 Y117.761
G01 X344.247 Y119.222
G01 X345.709 Y119.222
G01 X347.170 Y120.684
G01 X348.631 Y122.145
G01 X350.092 Y123.606
G01 X351.554 Y123.606
G01 X353.015 Y125.067
G01 X354.476 Y126.528
G01 X355.937 Y127.990
G01 X357.398 Y129.451
G01 X358.860 Y130.912
G01 X360.321 Y132.373
G01 X361.782 Y133.834
G01 X363.243 Y135.296
G01 X364.704 Y136.757
G01 X366.166 Y138.218
G01 X366.166 Y139.679
G01 X367.627 Y141.140
G01 X369.088 Y142.602
G01 X370.549 Y144.063
G01 X372.010 Y145.524
G01 X373.472 Y146.985
G01 X374.933 Y148.446
G01 X376.394 Y149.908
G01 X376.394 Y151.369
G01 X377.855 Y152.830
G01 X379.316 Y154.291
G01 X380.778 Y155.753
G01 X380.778 Y157.214
G01 X382.239 Y158.675
G01 X383.700 Y160.136
G01 X385.161 Y161.597
G01 X385.161 Y163.059
G01 X386.622 Y164.520
G01 X386.622 Y165.981
G01 X388.084 Y167.442
G01 X389.545 Y168.903
G01 X389.545 Y170.365
G01 X391.006 Y171.826
G01 X391.006 Y173.287
G01 X392.467 Y174.748
G01 X392.467 Y176.209
G01 X393.928 Y177.671
G01 X393.928 Y179.132
G01 X395.390 Y180.593
G01 X395.390 Y182.054
G01 X396.851 Y183.515
G01 X396.851 Y184.977
G01 X398.312 Y186.438
G01 X398.312 Y187.899
G01 X399.773 Y189.360
G01 X399.773 Y190.821
G01 X399.773 Y192.283
G01 X401.234 Y193.744
G01 X401.234 Y195.205
G01 X401.234 Y196.666
G01 X402.696 Y198.127
G01 X402.696 Y199.589
G01 X402.696 Y201.050
G01 X404.157 Y202.511
G01 X404.157 Y203.972
G01 X404.157 Y205.433
G01 X405.618 Y206.895
G01 X405.618 Y208.356
G01 X405.618 Y209.817
G01 X407.079 Y211.278
G01 X407.079 Y212.739
G01 X407.079 Y214.201
G01 X407.079 Y215.662
G01 X408.540 Y217.123
G01 X408.540 Y218.584
G01 X408.540 Y220.045
G01 X408.540 Y221.507
G01 X408.540 Y222.968
G01 X408.540 Y224.429
G01 X410.002 Y225.890
G01 X410.002 Y227.351
G01 X410.002 Y228.813
G01 X410.002 Y230.274
G01 X410.002 Y231.735
G01 X410.002 Y233.196
G01 X410.002 Y234.657
G01 X410.002 Y236.119
G01 X410.002 Y237.580
G01 X410.002 Y239.041
G01 X410.002 Y240.502
G01 X410.002 Y241.963
G01 X410.002 Y243.425
G01 X410.002 Y244.886
G01 X410.002 Y246.347
G01 X410.002 Y247.808
G01 X410.002 Y249.269
G01 X410.002 Y250.731
G01 X410.002 Y252.192
G01 X410.002 Y253.653
G01 X410.002 Y255.114
G01 X410.002 Y256.575
G01 X410.002 Y258.037
G01 X410.002 Y259.498
G01 X410.002 Y260.959
G01 X410.002 Y262.420
G01 X410.002 Y263.881
G01 X410.002 Y265.343
G01 X410.002 Y266.804
G01 X410.002 Y268.265
G01 X410.002 Y269.726
G01 X410.002 Y271.187
G01 X408.540 Y272.649
G01 X408.540 Y274.110
G01 X408.540 Y275.571
G01 X408.540 Y277.032
G01 X408.540 Y278.493
G01 X408.540 Y279.955
G01 X408.540 Y281.416
G01 X407.079 Y282.877
G01 X407.079 Y284.338
G01 X407.079 Y285.799
G01 X407.079 Y287.261
G01 X405.618 Y288.722
G01 X405.618 Y290.183
G01 X405.618 Y291.644
G01 X405.618 Y293.105
G01 X404.157 Y294.567
G01 X404.157 Y296.028
G01 X404.157 Y297.489
G01 X402.696 Y298.950
G01 X402.696 Y300.411
G01 X402.696 Y301.873
G01 X401.234 Y303.334
G01 X401.234 Y304.795
G01 X401.234 Y306.256
G01 X399.773 Y307.717
G01 X399.773 Y309.179
G01 X398.312 Y310.640
G01 X398.312 Y312.101
G01 X396.851 Y313.562
G01 X396.851 Y315.023
G01 X396.851 Y316.485
G01 X395.390 Y317.946
G01 X395.390 Y319.407
G01 X393.928 Y320.868
G01 X393.928 Y322.329
G01 X392.467 Y323.791
G01 X391.006 Y325.252
G01 X391.006 Y326.713
G01 X389.545 Y328.174
G01 X389.545 Y329.635
G01 X388.084 Y331.097
G01 X386.622 Y332.558
G01 X386.622 Y334.019
G01 X385.161 Y335.480
G01 X385.161 Y336.941
G01 X383.700 Y338.403
G01 X382.239 Y339.864
G01 X380.778 Y341.325
G01 X380.778 Y342.786
G01 X379.316 Y344.247
G01 X377.855 Y345.709
G01 X376.394 Y347.170
G01 X376.394 Y348.631
G01 X374.933 Y350.092
G01 X373.472 Y351.554
G01 X372.010 Y353.015
G01 X370.549 Y354.476
G01 X369.088 Y355.937
G01 X367.627 Y357.398
G01 X367.627 Y358.860
G01 X366.166 Y360.321
G01 X364.704 Y361.782
G01 X363.243 Y363.243
G01 X361.782 Y364.704
G01 X360.321 Y366.166
G01 X358.860 Y367.627
G01 X357.398 Y369.088
G01 X355.937 Y370.549
G01 X354.476 Y372.010
G01 X353.015 Y373.472
G01 X351.554 Y374.933
G01 X350.092 Y374.933
G01 X348.631 Y376.394
G01 X347.170 Y377.855
G01 X345.709 Y379.316
G01 X344.247 Y379.316
G01 X342.786 Y380.778
G01 X341.325 Y382.239
G01 X339.864 Y383.700
G01 X338.403 Y383.700
G01 X336.941 Y385.161
G01 X335.480 Y385.161
G01 X334.019 Y386.622
G01 X332.558 Y388.084
G01 X331.097 Y388.084
G01 X329.635 Y389.545
G01 X328.174 Y389.545
G01 X326.713 Y391.006
G01 X325.252 Y391.006
G01 X323.791 Y392.467
G01 X322.329 Y393.928
G01 X320.868 Y393.928
G01 X322.329 Y393.928
G01 X323.791 Y392.467
G01 X325.252 Y391.006
G01 X326.713 Y391.006
G01 X328.174 Y389.545
G01 X329.635 Y389.545
G01 X331.097 Y388.084
G01 X332.558 Y388.084
G01 X334.019 Y386.622
G01 X335.480 Y385.161
G01 X336.941 Y385.161
G01 X338.403 Y383.700
G01 X339.864 Y383.700
G01 X341.325 Y382.239
G01 X342.786 Y380.778
G01 X344.247 Y379.316
G01 X345.709 Y379.316
G01 X347.170 Y377.855
G01 X348.631 Y376.394
G01 X350.092 Y374.933
G01 X351.554 Y374.933
G01 X353.015 Y373.472
G01 X354.476 Y372.010
G01 X355.937 Y370.549
G01 X357.398 Y369.088
G01 X358.860 Y367.627
G01 X360.321 Y366.166
G01 X361.782 Y364.704
G01 X363.243 Y363.243
G01 X364.704 Y361.782
G01 X366.166 Y360.321
G01 X367.627 Y358.860
G01 X367.627 Y357.398
G01 X369.088 Y355.937
G01 X370.549 Y354.476
G01 X372.010 Y353.015
G01 X373.472 Y351.554
G01 X374.933 Y350.092
G01 X376.394 Y348.631
G01 X376.394 Y347.170
G01 X377.855 Y345.709
G01 X379.316 Y344.247
G01 X380.778 Y342.786
G01 X380.778 Y341.325
G01 X382.239 Y339.864
G01 X383.700 Y338.403
G01 X385.161 Y336.941
G01 X385.161 Y335.480
G01 X386.622 Y334.019
G01 X386.622 Y332.558
G01 X388.084 Y331.097
G01 X389.545 Y329.635
G01 X389.545 Y328.174
G01 X391.006 Y326.713
G01 X391.006 Y325.252
G01 X392.467 Y323.791
G01 X393.928 Y322.329
G01 X393.928 Y320.868
G01 X395.390 Y319.407
G01 X395.390 Y317.946
G01 X396.851 Y316.485
G01 X396.851 Y315.023
G01 X396.851 Y313.562
G01 X398.312 Y312.101
G01 X398.312 Y310.640
G01 X399.773 Y309.179
G01 X399.773 Y307.717
G01 X401.234 Y306.256
G01 X401.234 Y304.795
G01 X401.234 Y303.334
G01 X402.696 Y301.873
G01 X402.696 Y300.411
G01 X402.696 Y298.950
G01 X404.157 Y297.489
G01 X404.157 Y296.028
G01 X404.157 Y294.567
G01 X405.618 Y293.105
G01 X405.618 Y291.644
G01 X405.618 Y290.183
G01 X405.618 Y288.722
G01 X407.079 Y287.261
G01 X407.079 Y285.799
G01 X407.079 Y284.338
G01 X407.079 Y282.877
G01 X408.540 Y281.416
G01 X408.540 Y279.955
G01 X408.540 Y278.493
G01 X408.540 Y277.032
G01 X408.540 Y275.571
G01 X408.540 Y274.110
G01 X408.540 Y272.649
G01 X410.002 Y271.187
G01 X410.002 Y269.726
G01 X410.002 Y268.265
G01 X410.002 Y266.804
G01 X410.002 Y265.343
G01 X410.002 Y263.881
G01 X410.002 Y262.420
G01 X410.002 Y260.959
G01 X410.002 Y259.498
G01 X410.002 Y258.037
G01 X410.002 Y256.575
G01 X410.002 Y255.114
G01 X410.002 Y253.653
G01 X410.002 Y252.192
G01 X410.002 Y250.731
G01 X410.002 Y249.269
G01 X408.540 Y249.269
G01 X407.079 Y249.269
G01 X405.618 Y249.269
G01 X404.157 Y249.269
G01 X402.696 Y249.269
G01 X401.234 Y249.269
G01 X399.773 Y249.269
G01 X398.312 Y249.269
G01 X396.851 Y249.269
G01 X395.390 Y249.269
G01 X393.928 Y249.269
G01 X392.467 Y249.269
G01 X391.006 Y249.269
G01 X389.545 Y249.269
G01 X388.084 Y249.269
G01 X386.622 Y249.269
G01 X385.161 Y249.269
G01 X383.700 Y249.269
G01 X382.239 Y249.269
G01 X380.778 Y249.269
G01 X379.316 Y249.269
G01 X377.855 Y249.269
G01 X376.394 Y249.269
G01 X374.933 Y249.269
G01 X373.472 Y249.269
G01 X372.010 Y249.269
G01 X370.549 Y249.269
G01 X369.088 Y249.269
G01 X367.627 Y249.269
G01 X366.166 Y249.269
G01 X364.704 Y249.269
G01 X363.243 Y249.269
G01 X361.782 Y249.269
G01 X360.321 Y249.269
G01 X358.860 Y249.269
G01 X357.398 Y249.269
G01 X355.937 Y249.269
G01 X354.476 Y249.269
G01 X353.015 Y249.269
G01 X351.554 Y249.269
G01 X351.554 Y247.808
G01 X353.015 Y247.808
G01 X351.554 Y247.808
G01 X351.554 Y246.347
G01 X351.554 Y244.886
G01 X351.554 Y243.425
G01 X351.554 Y241.963
G01 X351.554 Y240.502
G01 X351.554 Y239.041
G01 X351.554 Y237.580
G01 X351.554 Y236.119
G01 X351.554 Y234.657
G01 X351.554 Y233.196
G01 X351.554 Y231.735
G01 X351.554 Y230.274
G01 X351.554 Y228.813
G01 X350.092 Y227.351
G01 X350.092 Y225.890
G01 X350.092 Y224.429
G01 X350.092 Y222.968
G01 X348.631 Y221.507
G01 X348.631 Y220.045
G01 X348.631 Y218.584
G01 X347.170 Y217.123
G01 X347.170 Y215.662
G01 X347.170 Y214.201
G01 X345.709 Y212.739
G01 X345.709 Y211.278
G01 X345.709 Y209.817
G01 X344.247 Y208.356
G01 X344.247 Y206.895
G01 X342.786 Y205.433
G01 X342.786 Y203.972
G01 X341.325 Y202.511
G01 X341.325 Y201.050
G01 X339.864 Y199.589
G01 X339.864 Y198.127
G01 X338.403 Y196.666
G01 X336.941 Y195.205
G01 X336.941 Y193.744
G01 X335.480 Y192.283
G01 X334.019 Y190.821
G01 X334.019 Y189.360
G01 X332.558 Y187.899
G01 X331.097 Y186.438
G01 X329.635 Y184.977
G01 X328.174 Y183.515
G01 X326.713 Y182.054
G01 X325.252 Y180.593
G01 X323.791 Y179.132
G01 X322.329 Y177.671
G01 X320.868 Y176.209
G01 X319.407 Y174.748
G01 X317.946 Y173.287
G01 X316.485 Y171.826
G01 X315.023 Y170.365
G01 X313.562 Y170.365
G01 X312.101 Y168.903
G01 X310.640 Y167.442
G01 X309.179 Y165.981
G01 X307.717 Y165.981
G01 X306.256 Y164.520
G01 X304.795 Y163.059
G01 X303.334 Y163.059
G01 X301.873 Y161.597
G01 X300.411 Y160.136
G01 X298.950 Y160.136
G01 X297.489 Y158.675
G01 X296.028 Y158.675
G01 X294.567 Y157.214
G01 X293.105 Y157.214
G01 X291.644 Y155.753
G01 X290.183 Y155.753
G01 X288.722 Y154.291
G01 X287.261 Y154.291
G01 X285.799 Y154.291
G01 X284.338 Y152.830
G01 X282.877 Y152.830
G01 X281.416 Y152.830
G01 X279.955 Y151.369
G01 X278.493 Y151.369
G01 X277.032 Y151.369
G01 X275.571 Y149.908
G01 X274.110 Y149.908
G01 X272.649 Y149.908
G01 X271.187 Y149.908
G01 X269.726 Y148.446
G01 X268.265 Y148.446
G01 X266.804 Y148.446
G01 X265.343 Y148.446
G01 X263.881 Y148.446
G01 X262.420 Y148.446
G01 X260.959 Y148.446
G01 X259.498 Y148.446
G01 X258.037 Y148.446
G01 X256.575 Y148.446
G01 X255.114 Y148.446
G01 X253.653 Y148.446
G01 X252.192 Y148.446
G01 X250.731 Y148.446
G01 X249.269 Y148.446
G01 X247.808 Y148.446
G01 X246.347 Y148.446
G01 X244.886 Y148.446
G01 X243.425 Y148.446
G01 X241.963 Y148.446
G01 X240.502 Y148.446
G01 X239.041 Y148.446
G01 X237.580 Y148.446
G01 X236.119 Y148.446
G01 X234.657 Y148.446
G01 X233.196 Y148.446
G01 X231.735 Y148.446
G01 X230.274 Y148.446
G01 X228.813 Y149.908
G01 X227.351 Y149.908
G01 X225.890 Y149.908
G01 X224.429 Y149.908
G01 X222.968 Y151.369
G01 X221.507 Y151.369
G01 X220.045 Y151.369
G01 X218.584 Y152.830
G01 X217.123 Y152.830
G01 X215.662 Y152.830
G01 X214.201 Y154.291
G01 X212.739 Y154.291
G01 X211.278 Y155.753
G01 X209.817 Y155.753
G01 X208.356 Y155.753
G01 X206.895 Y157.214
G01 X205.433 Y157.214
G01 X203.972 Y158.675
G01 X202.511 Y158.675
G01 X201.050 Y160.136
G01 X199.589 Y160.136
G01 X198.127 Y161.597
G01 X196.666 Y163.059
G01 X195.205 Y163.059
G01 X193.744 Y164.520
G01 X192.283 Y165.981
G01 X190.821 Y165.981
G01 X189.360 Y167.442
G01 X187.899 Y168.903
G01 X186.438 Y170.365
G01 X184.977 Y170.365
G01 X183.515 Y171.826
G01 X182.054 Y173.287
G01 X180.593 Y174.748
G01 X179.132 Y176.209
G01 X177.671 Y177.671
G01 X176.209 Y179.132
G01 X174.748 Y180.593
G01 X173.287 Y182.054
G01 X171.826 Y183.515
G01 X170.365 Y184.977
G01 X168.903 Y186.438
G01 X167.442 Y187.899
G01 X167.442 Y189.360
G01 X165.981 Y190.821
G01 X164.520 Y192.283
G01 X164.520 Y193.744
G01 X163.059 Y195.205
G01 X161.597 Y196.666
G01 X161.597 Y198.127
G01 X160.136 Y199.589
G01 X160.136 Y201.050
G01 X158.675 Y202.511
G01 X158.675 Y203.972
G01 X157.214 Y205.433
G01 X157.214 Y206.895
G01 X157.214 Y208.356
G01 X155.753 Y209.817
G01 X155.753 Y211.278
G01 X154.291 Y212.739
G01 X154.291 Y214.201
G01 X154.291 Y215.662
G01 X152.830 Y217.123
G01 X152.830 Y218.584
G01 X151.369 Y220.045
G01 X151.369 Y221.507
G01 X151.369 Y220.045
G01 X152.830 Y218.584
G01 X152.830 Y217.123
G01 X154.291 Y215.662
G01 X154.291 Y214.201
G01 X154.291 Y212.739
G01 X155.753 Y211.278
G01 X155.753 Y209.817
G01 X157.214 Y208.356
G01 X157.214 Y206.895
G01 X157.214 Y205.433
G01 X158.675 Y203.972
G01 X158.675 Y202.511
G01 X160.136 Y201.050
G01 X160.136 Y199.589
G01 X161.597 Y198.127
G01 X161.597 Y196.666
G01 X163.059 Y195.205
G01 X164.520 Y193.744
G01 X164.520 Y192.283
G01 X165.981 Y190.821
G01 X167.442 Y189.360
G01 X167.442 Y187.899
G01 X168.903 Y186.438
G01 X170.365 Y184.977
G01 X171.826 Y183.515
G01 X173.287 Y182.054
G01 X174.748 Y180.593
G01 X176.209 Y179.132
G01 X177.671 Y177.671
G01 X179.132 Y176.209
G01 X180.593 Y174.748
G01 X182.054 Y173.287
G01 X183.515 Y171.826
G01 X184.977 Y170.365
G01 X186.438 Y170.365
G01 X187.899 Y168.903
G01 X189.360 Y167.442
G01 X190.821 Y165.981
G01 X192.283 Y165.981
G01 X193.744 Y164.520
G01 X195.205 Y163.059
G01 X196.666 Y163.059
G01 X198.127 Y161.597
G01 X199.589 Y160.136
G01 X201.050 Y160.136
G01 X202.511 Y158.675
G01 X203.972 Y158.675
G01 X205.433 Y157.214
G01 X206.895 Y157.214
G01 X208.356 Y155.753
G01 X209.817 Y155.753
G01 X211.278 Y155.753
G01 X212.739 Y154.291
G01 X214.201 Y154.291
G01 X215.662 Y152.830
G01 X217.123 Y152.830
G01 X218.584 Y152.830
G01 X220.045 Y151.369
G01 X221.507 Y151.369
G01 X222.968 Y151.369
G01 X224.429 Y149.908
G01 X225.890 Y149.908
G01 X227.351 Y149.908
G01 X228.813 Y149.908
G01 X230.274 Y148.446
G01 X231.735 Y148.446
G01 X233.196 Y148.446
G01 X234.657 Y148.446
G01 X236.119 Y148.446
G01 X237.580 Y148.446
G01 X239.041 Y148.446
G01 X240.502 Y148.446
G01 X241.963 Y148.446
G01 X243.425 Y148.446
G01 X244.886 Y148.446
G01 X246.347 Y148.446
G01 X247.808 Y148.446
G01 X249.269 Y148.446
G01 X250.731 Y148.446
G01 X250.731 Y149.908
G01 X250.731 Y151.369
G01 X250.731 Y152.830
G01 X250.731 Y154.291
G01 X250.731 Y155.753
G01 X250.731 Y157.214
G01 X250.731 Y158.675
G01 X250.731 Y160.136
G01 X250.731 Y161.597
G01 X250.731 Y163.059
G01 X250.731 Y164.520
G01 X250.731 Y165.981
G01 X250.731 Y167.442
G01 X250.731 Y168.903
G01 X250.731 Y170.365
G01 X250.731 Y171.826
G01 X250.731 Y173.287
G01 X250.731 Y174.748
G01 X250.731 Y176.209
G01 X250.731 Y177.671
G01 X250.731 Y179.132
G01 X250.731 Y180.593
G01 X250.731 Y182.054
G01 X250.731 Y183.515
G01 X250.731 Y184.977
G01 X250.731 Y186.438
G01 X250.731 Y187.899
G01 X250.731 Y189.360
G01 X250.731 Y190.821
G01 X250.731 Y192.283
G01 X250.731 Y193.744
G01 X250.731 Y195.205
G01 X250.731 Y196.666
G01 X250.731 Y198.127
G01 X250.731 Y199.589
G01 X250.731 Y201.050
G01 X250.731 Y202.511
G01 X250.731 Y203.972
G01 X250.731 Y205.433
G01 X249.269 Y206.895
G01 X247.808 Y206.895
G01 X246.347 Y206.895
G01 X244.886 Y206.895
G01 X243.425 Y206.895
G01 X241.963 Y206.895
G01 X240.502 Y206.895
G01 X239.041 Y206.895
G01 X237.580 Y208.356
G01 X236.119 Y208.356
G01 X234.657 Y208.356
G01 X233.196 Y209.817
G01 X231.735 Y209.817
G01 X230.274 Y211.278
G01 X228.813 Y211.278
G01 X227.351 Y212.739
G01 X225.890 Y212.739
G01 X224.429 Y214.201
G01 X222.968 Y215.662
G01 X221.507 Y217.123
G01 X220.045 Y218.584
G01 X218.584 Y220.045
G01 X217.123 Y221.507
G01 X215.662 Y222.968
G01 X214.201 Y224.429
G01 X212.739 Y225.890
G01 X212.739 Y227.351
G01 X211.278 Y228.813
G01 X211.278 Y230.274
G01 X209.817 Y231.735
G01 X209.817 Y233.196
G01 X209.817 Y234.657
G01 X208.356 Y236.119
G01 X208.356 Y237.580
G01 X208.356 Y239.041
G01 X206.895 Y240.502
G01 X206.895 Y241.963
G01 X206.895 Y243.425
G01 X206.895 Y244.886
G01 X206.895 Y246.347
G01 X206.895 Y247.808
G01 X206.895 Y249.269
G01 X206.895 Y250.731
G01 X206.895 Y252.192
G01 X206.895 Y253.653
G01 X206.895 Y255.114
G01 X206.895 Y256.575
G01 X208.356 Y258.037
G01 X208.356 Y259.498
G01 X208.356 Y260.959
G01 X208.356 Y262.420
G01 X209.817 Y263.881
G01 X209.817 Y265.343
G01 X209.817 Y266.804
G01 X211.278 Y268.265
G01 X211.278 Y269.726
G01 X212.739 Y271.187
G01 X214.201 Y272.649
G01 X214.201 Y274.110
G01 X215.662 Y275.571
G01 X217.123 Y277.032
G01 X218.584 Y278.493
G01 X220.045 Y279.955
G01 X221.507 Y281.416
G01 X222.968 Y282.877
G01 X224.429 Y284.338
G01 X225.890 Y285.799
G01 X227.351 Y287.261
G01 X228.813 Y288.722
G01 X230.274 Y288.722
G01 X231.735 Y290.183
G01 X233.196 Y290.183
G01 X234.657 Y291.644
G01 X234.657 Y293.105
G01 X234.657 Y294.567
G01 X234.657 Y296.028
G01 X234.657 Y297.489
G01 X234.657 Y298.950
G01 X236.119 Y300.411
G01 X236.119 Y301.873
G01 X236.119 Y303.334
G01 X236.119 Y304.795
G01 X236.119 Y306.256
G01 X236.119 Y307.717
G01 X236.119 Y309.179
G01 X236.119 Y310.640
G01 X236.119 Y312.101
G01 X236.119 Y313.562
G01 X236.119 Y315.023
G01 X236.119 Y316.485
G01 X236.119 Y317.946
G01 X236.119 Y319.407
G01 X236.119 Y320.868
G01 X236.119 Y322.329
G01 X236.119 Y323.791
G01 X236.119 Y325.252
G01 X236.119 Y326.713
G01 X236.119 Y328.174
G01 X236.119 Y329.635
G01 X234.657 Y331.097
G01 X234.657 Y332.558
G01 X234.657 Y334.019
G01 X234.657 Y335.480
G01 X234.657 Y336.941
G01 X234.657 Y338.403
G01 X234.657 Y339.864
G01 X234.657 Y341.325
G01 X234.657 Y342.786
G01 X234.657 Y344.247
G01 X234.657 Y345.709
G01 X234.657 Y347.170
G01 X234.657 Y348.631
G01 X234.657 Y350.092
G01 X234.657 Y351.554
G01 X234.657 Y353.015
G01 X234.657 Y354.476
G01 X234.657 Y355.937
G01 X234.657 Y357.398
G01 X234.657 Y358.860
G01 X234.657 Y360.321
G01 X234.657 Y361.782
G01 X236.119 Y363.243
G01 X236.119 Y364.704
G01 X236.119 Y366.166
G01 X236.119 Y367.627
G01 X236.119 Y369.088
G01 X236.119 Y370.549
G01 X236.119 Y372.010
G01 X236.119 Y373.472
G01 X236.119 Y374.933
G01 X236.119 Y376.394
G01 X236.119 Y377.855
G01 X236.119 Y379.316
G01 X236.119 Y380.778
G01 X236.119 Y382.239
G01 X236.119 Y383.700
G01 X236.119 Y385.161
G01 X236.119 Y386.622
G01 X236.119 Y388.084
G01 X236.119 Y389.545
G01 X236.119 Y391.006
G01 X236.119 Y392.467
G01 X236.119 Y393.928
G01 X236.119 Y395.390
G01 X236.119 Y396.851
G01 X234.657 Y398.312
G01 X234.657 Y399.773
G01 X234.657 Y401.234
G01 X234.657 Y402.696
G01 X234.657 Y404.157
G01 X234.657 Y405.618
G01 X234.657 Y407.079
G01 X234.657 Y408.540
G01 X233.196 Y410.002
G01 X231.735 Y408.540
G01 X230.274 Y408.540
G01 X228.813 Y408.540
G01 X227.351 Y408.540
G01 X225.890 Y408.540
G01 X224.429 Y408.540
G01 X222.968 Y407.079
G01 X221.507 Y407.079
G01 X220.045 Y407.079
G01 X218.584 Y407.079
G01 X217.123 Y407.079
G01 X215.662 Y405.618
G01 X214.201 Y405.618
G01 X212.739 Y405.618
G01 X211.278 Y405.618
G01 X209.817 Y404.157
G01 X208.356 Y404.157
G01 X206.895 Y404.157
G01 X205.433 Y404.157
G01 X203.972 Y402.696
G01 X202.511 Y402.696
G01 X201.050 Y402.696
G01 X199.589 Y401.234
G01 X198.127 Y401.234
G01 X196.666 Y401.234
G01 X195.205 Y399.773
G01 X193.744 Y399.773
G01 X192.283 Y399.773
G01 X190.821 Y398.312
G01 X189.360 Y398.312
G01 X187.899 Y396.851
G01 X186.438 Y396.851
G01 X184.977 Y395.390
G01 X183.515 Y395.390
G01 X182.054 Y395.390
G01 X180.593 Y393.928
G01 X179.132 Y393.928
G01 X177.671 Y392.467
G01 X176.209 Y391.006
G01 X174.748 Y391.006
G01 X173.287 Y389.545
G01 X171.826 Y389.545
G01 X170.365 Y388.084
G01 X168.903 Y388.084
G01 X167.442 Y386.622
G01 X165.981 Y386.622
G01 X164.520 Y385.161
G01 X163.059 Y383.700
G01 X161.597 Y383.700
G01 X160.136 Y382.239
G01 X158.675 Y380.778
G01 X157.214 Y379.316
G01 X155.753 Y379.316
G01 X154.291 Y377.855
G01 X152.830 Y376.394
G01 X151.369 Y374.933
G01 X149.908 Y374.933
G01 X148.446 Y373.472
G01 X146.985 Y372.010
G01 X145.524 Y370.549
G01 X144.063 Y369.088
G01 X142.602 Y367.627
G01 X141.140 Y366.166
G01 X139.679 Y366.166
G01 X138.218 Y364.704
G01 X136.757 Y363.243
G01 X135.296 Y361.782
G01 X133.834 Y360.321
G01 X132.373 Y358.860
G01 X130.912 Y357.398
G01 X129.451 Y355.937
G01 X127.990 Y354.476
G01 X126.528 Y353.015
G01 X125.067 Y351.554
G01 X125.067 Y350.092
G01 X123.606 Y348.631
G01 X122.145 Y347.170
G01 X120.684 Y345.709
G01 X120.684 Y344.247
G01 X119.222 Y342.786
G01 X117.761 Y341.325
G01 X116.300 Y339.864
G01 X116.300 Y338.403
G01 X114.839 Y336.941
G01 X114.839 Y335.480
G01 X113.378 Y334.019
G01 X111.916 Y332.558
G01 X111.916 Y331.097
G01 X110.455 Y329.635
G01 X110.455 Y328.174
G01 X108.994 Y326.713
G01 X108.994 Y325.252
G01 X107.533 Y323.791
G01 X106.072 Y322.329
G01 X106.072 Y320.868
G01 X104.610 Y319.407
G01 X104.610 Y317.946
G01 X104.610 Y316.485
G01 X103.149 Y315.023
G01 X103.149 Y313.562
G01 X101.688 Y312.101
G01 X101.688 Y310.640
G01 X100.227 Y309.179
G01 X100.227 Y307.717
G01 X100.227 Y306.256
G01 X98.766 Y304.795
G01 X98.766 Y303.334
G01 X98.766 Y301.873
G01 X97.304 Y300.411
G01 X97.304 Y298.950
G01 X97.304 Y297.489
G01 X95.843 Y296.028
G01 X95.843 Y294.567
G01 X95.843 Y293.105
G01 X95.843 Y291.644
G01 X94.382 Y290.183
G01 X94.382 Y288.722
G01 X94.382 Y287.261
G01 X94.382 Y285.799
G01 X92.921 Y284.338
G01 X92.921 Y282.877
G01 X92.921 Y281.416
G01 X92.921 Y279.955
G01 X92.921 Y278.493
G01 X91.460 Y277.032
G01 X91.460 Y275.571
G01 X91.460 Y274.110
G01 X91.460 Y272.649
G01 X91.460 Y271.187
G01 X91.460 Y269.726
G01 X89.998 Y268.265
G01 X89.998 Y266.804
G01 X89.998 Y265.343
G01 X89.998 Y263.881
G01 X89.998 Y262.420
G01 X89.998 Y260.959
G01 X89.998 Y259.498
G01 X89.998 Y258.037
G01 X89.998 Y256.575
G01 X89.998 Y255.114
G01 X89.998 Y253.653
G01 X89.998 Y252.192
G01 X89.998 Y250.731
G01 X89.998 Y249.269
G01 X89.998 Y247.808
G01 X89.998 Y246.347
G01 X89.998 Y244.886
G01 X89.998 Y243.425
G01 X89.998 Y241.963
G01 X89.998 Y240.502
G01 X89.998 Y239.041
G01 X89.998 Y237.580
G01 X89.998 Y236.119
G01 X89.998 Y234.657
G01 X89.998 Y233.196
G01 X89.998 Y231.735
G01 X91.460 Y230.274
G01 X91.460 Y228.813
G01 X91.460 Y227.351
G01 X91.460 Y225.890
G01 X91.460 Y224.429
G01 X91.460 Y222.968
G01 X92.921 Y221.507
G01 X92.921 Y220.045
G01 X92.921 Y218.584
G01 X92.921 Y217.123
G01 X92.921 Y215.662
G01 X94.382 Y214.201
G01 X94.382 Y212.739
G01 X94.382 Y211.278
G01 X94.382 Y209.817
G01 X95.843 Y208.356
G01 X95.843 Y206.895
G01 X95.843 Y205.433
G01 X97.304 Y203.972
G01 X97.304 Y202.511
G01 X97.304 Y201.050
G01 X98.766 Y199.589
G01 X98.766 Y198.127
G01 X98.766 Y196.666
G01 X100.227 Y195.205
G01 X100.227 Y193.744
G01 X100.227 Y192.283
G01 X101.688 Y190.821
G01 X101.688 Y189.360
G01 X101.688 Y187.899
G01 X103.149 Y186.438
G01 X103.149 Y184.977
G01 X104.610 Y183.515
G01 X104.610 Y182.054
G01 X106.072 Y180.593
G01 X106.072 Y179.132
G01 X107.533 Y177.671
G01 X107.533 Y176.209
G01 X108.994 Y174.748
G01 X108.994 Y173.287
G01 X110.455 Y171.826
G01 X110.455 Y170.365
G01 X111.916 Y168.903
G01 X111.916 Y167.442
G01 X113.378 Y165.981
G01 X114.839 Y164.520
G01 X114.839 Y163.059
G01 X116.300 Y161.597
G01 X116.300 Y160.136
G01 X117.761 Y158.675
G01 X119.222 Y157.214
G01 X120.684 Y155.753
G01 X120.684 Y154.291
G01 X122.145 Y152.830
G01 X123.606 Y151.369
G01 X125.067 Y149.908
G01 X125.067 Y148.446
G01 X126.528 Y146.985
G01 X127.990 Y145.524
G01 X129.451 Y144.063
G01 X130.912 Y142.602
G01 X132.373 Y141.140
G01 X133.834 Y139.679
G01 X135.296 Y138.218
G01 X136.757 Y136.757
G01 X136.757 Y135.296
G01 X138.218 Y133.834
G01 X139.679 Y132.373
G01 X141.140 Y130.912
G01 X142.602 Y129.451
G01 X144.063 Y127.990
G01 X145.524 Y126.528
G01 X146.985 Y125.067
G01 X148.446 Y123.606
G01 X149.908 Y123.606
G01 X151.369 Y122.145
G01 X152.830 Y120.684
G01 X154.291 Y119.222
G01 X155.753 Y119.222
G01 X157.214 Y117.761
G01 X158.675 Y116.300
G01 X160.136 Y114.839
G01 X161.597 Y114.839
G01 X163.059 Y113.378
G01 X164.520 Y113.378
G01 X165.981 Y111.916
G01 X167.442 Y110.455
G01 X168.903 Y110.455
G01 X170.365 Y108.994
G01 X171.826 Y108.994
G01 X173.287 Y107.533
G01 X174.748 Y107.533
G01 X176.209 Y106.072
G01 X177.671 Y106.072
G01 X179.132 Y104.610
G01 X180.593 Y104.610
G01 X182.054 Y103.149
G01 X183.515 Y103.149
G01 X184.977 Y101.688
G01 X186.438 Y101.688
G01 X187.899 Y100.227
G01 X189.360 Y100.227
G01 X190.821 Y100.227
G01 X192.283 Y98.766
G01 X193.744 Y98.766
G01 X195.205 Y98.766
G01 X196.666 Y97.304
G01 X198.127 Y97.304
G01 X199.589 Y97.304
G01 X201.050 Y95.843
G01 X202.511 Y95.843
G01 X203.972 Y95.843
G01 X205.433 Y94.382
G01 X206.895 Y94.382
G01 X208.356 Y94.382
G01 X209.817 Y92.921
G01 X211.278 Y92.921
G01 X212.739 Y92.921
G01 X214.201 Y92.921
G01 X215.662 Y91.460
G01 X217.123 Y91.460
G01 X218.584 Y91.460
G01 X220.045 Y91.460
G01 X221.507 Y91.460
G01 X220.045 Y91.460
G01 X218.584 Y91.460
G01 X217.123 Y91.460
G01 X215.662 Y91.460
G01 X214.201 Y92.921
G01 X212.739 Y92.921
G01 X211.278 Y92.921
G01 X209.817 Y92.921
G01 X208.356 Y94.382
G01 X206.895 Y94.382
G01 X205.433 Y94.382
G01 X203.972 Y95.843
G01 X202.511 Y95.843
G01 X201.050 Y95.843
G01 X199.589 Y97.304
G01 X198.127 Y97.304
G01 X196.666 Y97.304
G01 X195.205 Y98.766
G01 X193.744 Y98.766
G01 X192.283 Y98.766
G01 X190.821 Y100.227
G01 X189.360 Y100.227
G01 X187.899 Y100.227
G01 X186.438 Y101.688
G01 X184.977 Y101.688
G01 X183.515 Y103.149
G01 X182.054 Y103.149
G01 X180.593 Y104.610
G01 X179.132 Y104.610
G01 X177.671 Y106.072
G01 X176.209 Y106.072
G01 X174.748 Y107.533
G01 X173.287 Y107.533
G01 X171.826 Y108.994
G01 X170.365 Y108.994
G01 X168.903 Y110.455
G01 X167.442 Y110.455
G01 X165.981 Y111.916
G01 X164.520 Y113.378
G01 X163.059 Y113.378
G01 X161.597 Y114.839
G01 X160.136 Y114.839
G01 X158.675 Y116.300
G01 X157.214 Y117.761
G01 X155.753 Y119.222
G01 X154.291 Y119.222
G01 X152.830 Y120.684
G01 X151.369 Y122.145
G01 X149.908 Y123.606
G01 X148.446 Y123.606
G01 X146.985 Y125.067
G01 X145.524 Y126.528
G01 X144.063 Y127.990
G01 X142.602 Y129.451
G01 X141.140 Y130.912
G01 X139.679 Y132.373
G01 X138.218 Y133.834
G01 X136.757 Y135.296
G01 X136.757 Y136.757
G01 X135.296 Y138.218
G01 X133.834 Y139.679
G01 X132.373 Y141.140
G01 X130.912 Y142.602
G01 X129.451 Y144.063
G01 X127.990 Y145.524
G01 X126.528 Y146.985
G01 X125.067 Y148.446
G01 X125.067 Y149.908
G01 X123.606 Y151.369
G01 X122.145 Y152.830
G01 X120.684 Y154.291
G01 X120.684 Y155.753
G01 X119.222 Y157.214
G01 X117.761 Y158.675
G01 X116.300 Y160.136
G01 X116.300 Y161.597
G01 X114.839 Y163.059
G01 X114.839 Y164.520
G01 X113.378 Y165.981
G01 X111.916 Y167.442
G01 X111.916 Y168.903
G01 X110.455 Y170.365
G01 X110.455 Y171.826
G01 X108.994 Y173.287
G01 X108.994 Y174.748
G01 X107.533 Y176.209
G01 X107.533 Y177.671
G01 X106.072 Y179.132
G01 X106.072 Y180.593
G01 X104.610 Y182.054
G01 X104.610 Y183.515
G01 X103.149 Y184.977
G01 X103.149 Y186.438
G01 X101.688 Y187.899
G01 X101.688 Y189.360
G01 X101.688 Y190.821
G01 X100.227 Y192.283
G01 X100.227 Y193.744
G01 X100.227 Y195.205
G01 X98.766 Y196.666
G01 X98.766 Y198.127
G01 X98.766 Y199.589
G01 X97.304 Y201.050
G01 X97.304 Y202.511
G01 X97.304 Y203.972
G01 X95.843 Y205.433
G01 X95.843 Y206.895
G01 X95.843 Y208.356
G01 X94.382 Y209.817
G01 X94.382 Y211.278
G01 X94.382 Y212.739
G01 X94.382 Y214.201
G01 X92.921 Y215.662
G01 X92.921 Y217.123
G01 X92.921 Y218.584
G01 X92.921 Y220.045
G01 X92.921 Y221.507
G01 X91.460 Y222.968
G01 X91.460 Y224.429
G01 X91.460 Y225.890
G01 X91.460 Y227.351
G01 X91.460 Y228.813
G01 X91.460 Y230.274
G01 X89.998 Y231.735
G01 X89.998 Y233.196
G01 X89.998 Y234.657
G01 X89.998 Y236.119
G01 X89.998 Y237.580
G01 X89.998 Y239.041
G01 X89.998 Y240.502
G01 X89.998 Y241.963
G01 X89.998 Y243.425
G01 X89.998 Y244.886
G01 X89.998 Y246.347
G01 X89.998 Y247.808
G01 X89.998 Y249.269
G01 X89.998 Y250.731
G01 X89.998 Y252.192
G01 X89.998 Y253.653
G01 X89.998 Y255.114
G01 X89.998 Y256.575
G01 X89.998 Y258.037
G01 X89.998 Y259.498
G01 X89.998 Y260.959
G01 X89.998 Y262.420
G01 X89.998 Y263.881
G01 X89.998 Y265.343
G01 X89.998 Y266.804
G01 X89.998 Y268.265
G01 X91.460 Y269.726
G01 X91.460 Y271.187
G01 X91.460 Y272.649
G01 X91.460 Y274.110
G01 X91.460 Y275.571
G01 X91.460 Y277.032
G01 X92.921 Y278.493
G01 X92.921 Y279.955
G01 X92.921 Y281.416
G01 X92.921 Y282.877
G01 X92.921 Y284.338
G01 X94.382 Y285.799
G01 X94.382 Y287.261
G01 X94.382 Y288.722
G01 X94.382 Y290.183
G01 X95.843 Y291.644
G01 X95.843 Y293.105
G01 X95.843 Y294.567
G01 X95.843 Y296.028
G01 X97.304 Y297.489
G01 X97.304 Y298.950
G01 X97.304 Y300.411
G01 X98.766 Y301.873
G01 X98.766 Y303.334
G01 X98.766 Y304.795
G01 X100.227 Y306.256
G01 X100.227 Y307.717
G01 X100.227 Y309.179
G01 X101.688 Y310.640
G01 X101.688 Y312.101
G01 X103.149 Y313.562
G01 X103.149 Y315.023
G01 X104.610 Y316.485
G01 X104.610 Y317.946
G01 X104.610 Y319.407
G01 X106.072 Y320.868
G01 X106.072 Y322.329
G01 X107.533 Y323.791
G01 X108.994 Y325.252
G01 X108.994 Y326.713
G01 X110.455 Y328.174
G01 X110.455 Y329.635
G01 X111.916 Y331.097
G01 X111.916 Y332.558
G01 X113.378 Y334.019
G01 X114.839 Y335.480
G01 X114.839 Y336.941
G01 X116.300 Y338.403
G01 X116.300 Y339.864
G01 X117.761 Y341.325
G01 X119.222 Y342.786
G01 X120.684 Y344.247
G01 X120.684 Y345.709
G01 X122.145 Y347.170
G01 X123.606 Y348.631
G01 X125.067 Y350.092
G01 X125.067 Y351.554
G01 X126.528 Y353.015
G01 X127.990 Y354.476
G01 X129.451 Y355.937
G01 X130.912 Y357.398
G01 X132.373 Y358.860
G01 X133.834 Y360.321
G01 X135.296 Y361.782
G01 X136.757 Y363.243
G01 X138.218 Y364.704
G01 X139.679 Y366.166
G01 X141.140 Y366.166
G01 X142.602 Y367.627
G01 X144.063 Y369.088
G01 X145.524 Y370.549
G01 X146.985 Y372.010
G01 X148.446 Y373.472
G01 X149.908 Y374.933
G01 X151.369 Y374.933
G01 X152.830 Y376.394
G01 X154.291 Y377.855
G01 X155.753 Y379.316
G01 X157.214 Y379.316
G01 X158.675 Y380.778
G01 X160.136 Y382.239
G01 X161.597 Y383.700
G01 X163.059 Y383.700
G01 X164.520 Y385.161
G01 X165.981 Y386.622
G01 X167.442 Y386.622
G01 X168.903 Y388.084
G01 X170.365 Y388.084
G01 X171.826 Y389.545
G01 X173.287 Y389.545
G01 X174.748 Y391.006
G01 X176.209 Y391.006
G01 X177.671 Y392.467
G01 X179.132 Y393.928
G01 X180.593 Y393.928
G01 X182.054 Y395.390
G01 X183.515 Y395.390
G01 X184.977 Y395.390
G01 X186.438 Y396.851
G01 X187.899 Y396.851
G01 X189.360 Y398.312
G01 X190.821 Y398.312
G01 X192.283 Y399.773
G01 X193.744 Y399.773
G01 X195.205 Y399.773
G01 X196.666 Y401.234
G01 X198.127 Y401.234
G01 X199.589 Y401.234
G01 X201.050 Y402.696
G01 X202.511 Y402.696
G01 X203.972 Y402.696
G01 X205.433 Y404.157
G01 X206.895 Y404.157
G01 X208.356 Y404.157
G01 X209.817 Y404.157
G01 X211.278 Y405.618
G01 X212.739 Y405.618
G01 X214.201 Y405.618
G01 X215.662 Y405.618
G01 X217.123 Y407.079
G01 X218.584 Y407.079
G01 X220.045 Y407.079
G01 X221.507 Y407.079
G01 X222.968 Y407.079
G01 X224.429 Y408.540
G01 X225.890 Y408.540
G01 X227.351 Y408.540
G01 X228.813 Y408.540
G01 X230.274 Y408.540
G01 X231.735 Y408.540
G01 X233.196 Y410.002
G01 X234.657 Y408.540
G01 X234.657 Y407.079
G01 X234.657 Y405.618
G01 X234.657 Y404.157
G01 X234.657 Y402.696
G01 X234.657 Y401.234
G01 X234.657 Y399.773
G01 X234.657 Y398.312
G01 X236.119 Y396.851
G01 X236.119 Y395.390
G01 X236.119 Y393.928
G01 X236.119 Y392.467
G01 X236.119 Y391.006
G01 X236.119 Y389.545
G01 X236.119 Y388.084
G01 X236.119 Y386.622
G01 X236.119 Y385.161
G01 X236.119 Y383.700
G01 X236.119 Y382.239
G01 X236.119 Y380.778
G01 X236.119 Y379.316
G01 X236.119 Y377.855
G01 X236.119 Y376.394
G01 X236.119 Y374.933
G01 X236.119 Y373.472
G01 X236.119 Y372.010
G01 X236.119 Y370.549
G01 X236.119 Y369.088
G01 X236.119 Y367.627
G01 X236.119 Y366.166
G01 X236.119 Y364.704
G01 X236.119 Y363.243
G01 X234.657 Y361.782
G01 X234.657 Y360.321
G01 X234.657 Y358.860
G01 X234.657 Y357.398
G01 X234.657 Y355.937
G01 X234.657 Y354.476
G01 X234.657 Y353.015
G01 X234.657 Y351.554
G01 X234.657 Y350.092
G01 X233.196 Y350.092
G01 X231.735 Y350.092
G01 X230.274 Y350.092
G01 X228.813 Y348.631
G01 X227.351 Y348.631
G01 X225.890 Y348.631
G01 X224.429 Y348.631
G01 X222.968 Y347.170
G01 X221.507 Y347.170
G01 X220.045 Y347.170
G01 X218.584 Y347.170
G01 X217.123 Y345.709
G01 X215.662 Y345.709
G01 X214.201 Y344.247
G01 X212.739 Y344.247
G01 X211.278 Y344.247
G01 X209.817 Y342.786
G01 X208.356 Y342.786
G01 X206.895 Y341.325
G01 X205.433 Y341.325
G01 X203.972 Y339.864
G01 X202.511 Y339.864
G01 X201.050 Y338.403
G01 X199.589 Y338.403
G01 X198.127 Y336.941
G01 X196.666 Y335.480
G01 X195.205 Y335.480
G01 X193.744 Y334.019
G01 X192.283 Y332.558
G01 X190.821 Y332.558
G01 X189.360 Y331.097
G01 X187.899 Y329.635
G01 X186.438 Y328.174
G01 X184.977 Y328.174
G01 X183.515 Y326.713
G01 X182.054 Y325.252
G01 X180.593 Y323.791
G01 X179.132 Y322.329
G01 X177.671 Y320.868
G01 X176.209 Y319.407
G01 X174.748 Y317.946
G01 X173.287 Y316.485
G01 X171.826 Y315.023
G01 X170.365 Y313.562
G01 X168.903 Y312.101
G01 X167.442 Y310.640
G01 X167.442 Y309.179
G01 X165.981 Y307.717
G01 X164.520 Y306.256
G01 X164.520 Y304.795
G01 X163.059 Y303.334
G01 X161.597 Y301.873
G01 X161.597 Y300.411
G01 X160.136 Y298.950
G01 X160.136 Y297.489
G01 X158.675 Y296.028
G01 X158.675 Y294.567
G01 X157.214 Y293.105
G01 X157.214 Y291.644
G01 X155.753 Y290.183
G01 X155.753 Y288.722
G01 X155.753 Y287.261
G01 X154.291 Y285.799
G01 X154.291 Y284.338
G01 X152.830 Y282.877
G01 X152.830 Y281.416
G01 X152.830 Y279.955
G01 X151.369 Y278.493
G01 X152.830 Y279.955
G01 X152.830 Y281.416
G01 X152.830 Y282.877
G01 X154.291 Y284.338
G01 X154.291 Y285.799
G01 X155.753 Y287.261
G01 X155.753 Y288.722
G01 X155.753 Y290.183
G01 X157.214 Y291.644
G01 X157.214 Y293.105
G01 X158.675 Y294.567
G01 X158.675 Y296.028
G01 X160.136 Y297.489
G01 X160.136 Y298.950
G01 X161.597 Y300.411
G01 X161.597 Y301.873
G01 X163.059 Y303.334
G01 X164.520 Y304.795
G01 X164.520 Y306.256
G01 X165.981 Y307.717
G01 X167.442 Y309.179
G01 X167.442 Y310.640
G01 X168.903 Y312.101
G01 X170.365 Y313.562
G01 X171.826 Y315.023
G01 X173.287 Y316.485
G01 X174.748 Y317.946
G01 X176.209 Y319.407
G01 X177.671 Y320.868
G01 X179.132 Y322.329
G01 X180.593 Y323.791
G01 X182.054 Y325.252
G01 X183.515 Y326.713
G01 X184.977 Y328.174
G01 X186.438 Y328.174
G01 X187.899 Y329.635
G01 X189.360 Y331.097
G01 X190.821 Y332.558
G01 X192.283 Y332.558
G01 X193.744 Y334.019
G01 X195.205 Y335.480
G01 X196.666 Y335.480
G01 X198.127 Y336.941
G01 X199.589 Y338.403
G01 X201.050 Y338.403
G01 X202.511 Y339.864
G01 X203.972 Y339.864
G01 X205.433 Y341.325
G01 X206.895 Y341.325
G01 X208.356 Y342.786
G01 X209.817 Y342.786
G01 X211.278 Y344.247
G01 X212.739 Y344.247
G01 X214.201 Y344.247
G01 X215.662 Y345.709
G01 X217.123 Y345.709
G01 X218.584 Y347.170
G01 X220.045 Y347.170
G01 X221.507 Y347.170
G01 X222.968 Y347.170
G01 X224.429 Y348.631
G01 X225.890 Y348.631
G01 X227.351 Y348.631
G01 X228.813 Y348.631
G01 X230.274 Y350.092
G01 X231.735 Y350.092
G01 X233.196 Y350.092
G01 X234.657 Y350.092
G01 X234.657 Y348.631
G01 X234.657 Y347.170
G01 X234.657 Y345.709
G01 X234.657 Y344.247
G01 X234.657 Y342.786
G01 X234.657 Y341.325
G01 X234.657 Y339.864
G01 X234.657 Y338.403
G01 X234.657 Y336.941
G01 X234.657 Y335.480
G01 X234.657 Y334.019
G01 X234.657 Y332.558
G01 X234.657 Y331.097
G01 X236.119 Y329.635
G01 X236.119 Y328.174
G01 X236.119 Y326.713
G01 X236.119 Y325.252
G01 X236.119 Y323.791
G01 X236.119 Y322.329
G01 X236.119 Y320.868
G01 X236.119 Y319.407
G01 X236.119 Y317.946
G01 X236.119 Y316.485
G01 X236.119 Y315.023
G01 X236.119 Y313.562
G01 X236.119 Y312.101
G01 X236.119 Y310.640
G01 X236.119 Y309.179
G01 X236.119 Y307.717
G01 X236.119 Y306.256
G01 X236.119 Y304.795
G01 X236.119 Y303.334
G01 X236.119 Y301.873
G01 X236.119 Y300.411
G01 X234.657 Y298.950
G01 X234.657 Y297.489
G01 X234.657 Y296.028
G01 X234.657 Y294.567
G01 X234.657 Y293.105
G01 X234.657 Y291.644
G01 X233.196 Y290.183
G01 X231.735 Y290.183
G01 X230.274 Y288.722
G01 X228.813 Y288.722
G01 X227.351 Y287.261
G01 X225.890 Y285.799
G01 X224.429 Y284.338
G01 X222.968 Y282.877
G01 X221.507 Y281.416
G01 X220.045 Y279.955
G01 X218.584 Y278.493
G01 X217.123 Y277.032
G01 X215.662 Y275.571
G01 X214.201 Y274.110
G01 X214.201 Y272.649
G01 X212.739 Y271.187
G01 X211.278 Y269.726
G01 X211.278 Y268.265
G01 X209.817 Y266.804
G01 X209.817 Y265.343
G01 X209.817 Y263.881
G01 X208.356 Y262.420
G01 X208.356 Y260.959
G01 X208.356 Y259.498
G01 X208.356 Y258.037
G01 X206.895 Y256.575
G01 X206.895 Y255.114
G01 X206.895 Y253.653
G01 X206.895 Y252.192
G01 X206.895 Y250.731
G01 X206.895 Y249.269
G01 X206.895 Y247.808
G01 X206.895 Y246.347
G01 X206.895 Y244.886
G01 X206.895 Y243.425
G01 X206.895 Y241.963
G01 X206.895 Y240.502
G01 X208.356 Y239.041
G01 X208.356 Y237.580
G01 X208.356 Y236.119
G01 X209.817 Y234.657
G01 X209.817 Y233.196
G01 X209.817 Y231.735
G01 X211.278 Y230.274
G01 X211.278 Y228.813
G01 X212.739 Y227.351
G01 X212.739 Y225.890
G01 X214.201 Y224.429
G01 X215.662 Y222.968
G01 X217.123 Y221.507
G01 X218.584 Y220.045
G01 X220.045 Y218.584
G01 X221.507 Y217.123
G01 X222.968 Y215.662
G01 X224.429 Y214.201
G01 X225.890 Y212.739
G01 X227.351 Y212.739
G01 X228.813 Y211.278
G01 X230.274 Y211.278
G01 X231.735 Y209.817
G01 X233.196 Y209.817
G01 X234.657 Y208.356
G01 X236.119 Y208.356
G01 X237.580 Y208.356
G01 X239.041 Y206.895
G01 X240.502 Y206.895
G01 X241.963 Y206.895
G01 X243.425 Y206.895
G01 X244.886 Y206.895
G01 X246.347 Y206.895
G01 X247.808 Y206.895
G01 X249.269 Y206.895
G01 X250.731 Y205.433
G01 X250.731 Y206.895
G01 X249.269 Y206.895
G01 X250.731 Y206.895
G01 X252.192 Y206.895
G01 X253.653 Y206.895
G01 X255.114 Y206.895
G01 X256.575 Y206.895
G01 X258.037 Y206.895
G01 X259.498 Y206.895
G01 X260.959 Y206.895
G01 X262.420 Y206.895
G01 X263.881 Y208.356
G01 X265.343 Y208.356
G01 X266.804 Y208.356
G01 X268.265 Y209.817
G01 X269.726 Y209.817
G01 X271.187 Y211.278
G01 X272.649 Y211.278
G01 X274.110 Y212.739
G01 X275.571 Y214.201
G01 X277.032 Y215.662
G01 X278.493 Y217.123
G01 X279.955 Y218.584
G01 X281.416 Y220.045
G01 X282.877 Y221.507
G01 X284.338 Y222.968
G01 X285.799 Y224.429
G01 X287.261 Y225.890
G01 X287.261 Y227.351
G01 X288.722 Y228.813
G01 X288.722 Y230.274
G01 X290.183 Y231.735
G01 X290.183 Y233.196
G01 X291.644 Y234.657
G01 X291.644 Y236.119
G01 X291.644 Y237.580
G01 X293.105 Y239.041
G01 X293.105 Y240.502
G01 X293.105 Y241.963
G01 X293.105 Y243.425
G01 X293.105 Y244.886
G01 X293.105 Y246.347
G01 X293.105 Y247.808
G01 X293.105 Y249.269
G01 X293.105 Y250.731
G01 X293.105 Y252.192
G01 X293.105 Y253.653
G01 X293.105 Y255.114
G01 X293.105 Y256.575
