;  Created by Sandify
;  https://sandify.org
;  Version: 0.2.6
;
;  Machine type: Rectangular
;    Min X (mm): 0
;    Max X (mm): 500
;    Min Y (mm): 0
;    Max Y (mm): 500
;  Content type: shape
;  Layer:
;    Shape: FileImport
;    Name: MilkHill 6-2-2009.thr
;    From file:: MilkHill 6-2-2009.thr
;    Aspect Ratio: true
;    Comments: 
;    Visible: true
;    Initial width: 10
;    Initial height: 10
;    X offset: 0
;    Y offset: 0
;    Rotate (degrees): 0
;    Reverse path: false
;    Fine tuning:
;      Connect to next layer: line
;      Draw portion of path (%): 100
;      Backtrack at end (%): 0
;      Rotate starting point (%): 0
;  Reverse export path: false
;
; File name: 'Milkhill (C C)'
; File type: gcode
;

G01 X250.000 Y250.000
G01 X250.004 Y250.081
G01 X250.016 Y250.161
G01 X250.036 Y250.240
G01 X250.063 Y250.317
G01 X250.098 Y250.392
G01 X250.141 Y250.465
G01 X250.191 Y250.533
G01 X250.248 Y250.598
G01 X250.311 Y250.658
G01 X250.381 Y250.714
G01 X250.458 Y250.763
G01 X250.539 Y250.807
G01 X250.627 Y250.845
G01 X250.719 Y250.876
G01 X250.815 Y250.899
G01 X250.915 Y250.915
G01 X251.019 Y250.924
G01 X251.126 Y250.924
G01 X251.235 Y250.916
G01 X251.345 Y250.899
G01 X251.457 Y250.874
G01 X251.570 Y250.839
G01 X251.682 Y250.796
G01 X251.794 Y250.743
G01 X251.904 Y250.681
G01 X252.013 Y250.611
G01 X252.119 Y250.531
G01 X252.171 Y250.488
G01 X252.448 Y250.425
G01 X252.723 Y250.336
G01 X252.995 Y250.221
G01 X253.262 Y250.080
G01 X253.521 Y249.914
G01 X253.771 Y249.722
G01 X254.010 Y249.505
G01 X254.237 Y249.265
G01 X254.402 Y249.064
G01 X254.601 Y248.783
G01 X254.782 Y248.480
G01 X254.945 Y248.156
G01 X255.086 Y247.814
G01 X255.206 Y247.453
G01 X255.301 Y247.076
G01 X255.372 Y246.683
G01 X255.416 Y246.276
G01 X255.431 Y245.950
G01 X255.431 Y245.520
G01 X255.401 Y245.080
G01 X255.340 Y244.632
G01 X255.248 Y244.180
G01 X255.124 Y243.723
G01 X254.968 Y243.266
G01 X254.778 Y242.809
G01 X254.555 Y242.355
G01 X254.390 Y242.057
G01 X254.106 Y241.624
G01 X253.791 Y241.199
G01 X253.443 Y240.786
G01 X253.064 Y240.386
G01 X252.654 Y240.002
G01 X252.213 Y239.635
G01 X251.743 Y239.289
G01 X251.243 Y238.964
G01 X250.791 Y238.703
G01 X250.241 Y238.413
G01 X249.665 Y238.151
G01 X249.063 Y237.918
G01 X248.438 Y237.716
G01 X247.791 Y237.547
G01 X247.124 Y237.412
G01 X246.438 Y237.314
G01 X245.736 Y237.253
G01 X245.240 Y237.234
G01 X244.520 Y237.252
G01 X243.790 Y237.310
G01 X243.054 Y237.410
G01 X242.312 Y237.552
G01 X241.568 Y237.737
G01 X240.825 Y237.966
G01 X240.083 Y238.239
G01 X239.347 Y238.555
G01 X238.724 Y238.861
G01 X237.996 Y239.253
G01 X237.279 Y239.689
G01 X236.577 Y240.171
G01 X235.891 Y240.697
G01 X235.226 Y241.267
G01 X234.583 Y241.880
G01 X233.966 Y242.536
G01 X233.376 Y243.233
G01 X232.944 Y243.794
G01 X232.422 Y244.564
G01 X231.935 Y245.372
G01 X231.485 Y246.214
G01 X231.075 Y247.089
G01 X230.707 Y247.995
G01 X230.383 Y248.931
G01 X230.105 Y249.893
G01 X229.875 Y250.880
G01 X229.722 Y251.712
G01 X229.578 Y252.738
G01 X229.487 Y253.783
G01 X229.449 Y254.844
G01 X229.467 Y255.917
G01 X229.541 Y257.000
G01 X229.672 Y258.089
G01 X229.862 Y259.183
G01 X230.111 Y260.277
G01 X230.364 Y261.188
G01 X230.721 Y262.276
G01 X231.138 Y263.355
G01 X231.615 Y264.422
G01 X232.152 Y265.474
G01 X232.748 Y266.508
G01 X233.403 Y267.520
G01 X234.116 Y268.507
G01 X234.887 Y269.466
G01 X235.547 Y270.215
G01 X236.423 Y271.108
G01 X237.351 Y271.964
G01 X238.331 Y272.779
G01 X239.361 Y273.550
G01 X240.438 Y274.274
G01 X241.561 Y274.949
G01 X242.728 Y275.571
G01 X243.935 Y276.139
G01 X245.022 Y276.588
G01 X246.297 Y277.062
G01 X247.606 Y277.474
G01 X248.947 Y277.822
G01 X250.317 Y278.105
G01 X251.711 Y278.319
G01 X253.128 Y278.463
G01 X254.562 Y278.537
G01 X256.011 Y278.537
G01 X257.182 Y278.483
G01 X258.643 Y278.331
G01 X260.106 Y278.103
G01 X261.567 Y277.800
G01 X263.022 Y277.420
G01 X264.468 Y276.964
G01 X265.900 Y276.432
G01 X267.314 Y275.824
G01 X268.706 Y275.140
G01 X269.902 Y274.480
G01 X271.258 Y273.673
G01 X272.581 Y272.791
G01 X273.869 Y271.835
G01 X275.117 Y270.808
G01 X276.321 Y269.710
G01 X277.478 Y268.544
G01 X278.583 Y267.311
G01 X279.632 Y266.015
G01 X280.444 Y264.912
G01 X281.367 Y263.499
G01 X282.225 Y262.031
G01 X283.013 Y260.510
G01 X283.730 Y258.941
G01 X284.371 Y257.328
G01 X284.934 Y255.672
G01 X285.418 Y253.979
G01 X285.819 Y252.252
G01 X286.092 Y250.765
G01 X286.349 Y248.985
G01 X286.518 Y247.183
G01 X286.597 Y245.361
G01 X286.584 Y243.525
G01 X286.479 Y241.679
G01 X286.280 Y239.828
G01 X285.987 Y237.977
G01 X285.599 Y236.130
G01 X285.203 Y234.598
G01 X284.639 Y232.773
G01 X283.980 Y230.967
G01 X283.226 Y229.184
G01 X282.379 Y227.429
G01 X281.439 Y225.708
G01 X280.407 Y224.025
G01 X279.286 Y222.385
G01 X278.077 Y220.793
G01 X277.033 Y219.541
G01 X275.667 Y218.050
G01 X274.220 Y216.621
G01 X272.694 Y215.257
G01 X271.092 Y213.962
G01 X269.418 Y212.742
G01 X267.674 Y211.600
G01 X265.865 Y210.540
G01 X263.994 Y209.565
G01 X262.410 Y208.830
G01 X260.438 Y208.020
G01 X258.415 Y207.305
G01 X256.347 Y206.689
G01 X254.239 Y206.172
G01 X252.096 Y205.759
G01 X249.922 Y205.452
G01 X247.723 Y205.252
G01 X245.505 Y205.161
G01 X243.681 Y205.168
G01 X241.441 Y205.279
G01 X239.196 Y205.502
G01 X236.952 Y205.838
G01 X234.716 Y206.288
G01 X232.492 Y206.852
G01 X230.287 Y207.529
G01 X228.107 Y208.319
G01 X225.957 Y209.221
G01 X224.228 Y210.040
G01 X222.151 Y211.148
G01 X220.121 Y212.364
G01 X218.144 Y213.685
G01 X216.225 Y215.111
G01 X214.370 Y216.638
G01 X212.583 Y218.263
G01 X210.871 Y219.984
G01 X209.238 Y221.796
G01 X207.960 Y223.351
G01 X206.476 Y225.317
G01 X205.084 Y227.365
G01 X203.789 Y229.490
G01 X202.595 Y231.688
G01 X201.506 Y233.955
G01 X200.526 Y236.284
G01 X199.658 Y238.671
G01 X198.906 Y241.110
G01 X198.379 Y243.137
G01 X197.856 Y245.658
G01 X197.457 Y248.213
G01 X197.183 Y250.797
G01 X197.038 Y253.404
G01 X197.021 Y256.026
G01 X197.134 Y258.659
G01 X197.379 Y261.295
G01 X197.756 Y263.927
G01 X198.169 Y266.103
G01 X198.776 Y268.716
G01 X199.516 Y271.308
G01 X200.388 Y273.873
G01 X201.390 Y276.403
G01 X202.521 Y278.892
G01 X203.780 Y281.333
G01 X205.165 Y283.720
G01 X206.673 Y286.046
G01 X208.002 Y287.906
G01 X209.738 Y290.095
G01 X211.588 Y292.204
G01 X213.548 Y294.228
G01 X215.616 Y296.161
G01 X217.785 Y297.997
G01 X220.052 Y299.730
G01 X222.411 Y301.357
G01 X224.859 Y302.871
G01 X226.972 Y304.049
G01 X229.561 Y305.358
G01 X232.224 Y306.543
G01 X234.954 Y307.599
G01 X237.745 Y308.523
G01 X240.591 Y309.311
G01 X243.484 Y309.960
G01 X246.419 Y310.468
G01 X249.387 Y310.831
G01 X251.864 Y311.022
G01 X254.875 Y311.105
G01 X257.900 Y311.039
G01 X260.929 Y310.822
G01 X263.956 Y310.455
G01 X266.974 Y309.937
G01 X269.974 Y309.268
G01 X272.949 Y308.448
G01 X275.891 Y307.478
G01 X278.336 Y306.548
G01 X281.206 Y305.318
G01 X284.023 Y303.943
G01 X286.781 Y302.425
G01 X289.470 Y300.765
G01 X292.085 Y298.967
G01 X294.619 Y297.034
G01 X297.063 Y294.970
G01 X299.412 Y292.779
G01 X301.278 Y290.873
G01 X303.801 Y288.725
G01 X306.236 Y286.427
G01 X308.573 Y283.982
G01 X309.236 Y283.240
G01 X311.588 Y280.689
G01 X313.831 Y277.986
G01 X315.955 Y275.135
G01 X317.361 Y273.063
G01 X319.398 Y270.014
G01 X321.295 Y266.821
G01 X321.861 Y265.788
G01 X323.682 Y262.434
G01 X325.345 Y258.939
G01 X326.719 Y255.623
G01 X328.173 Y251.883
G01 X329.442 Y248.013
G01 X330.516 Y244.023
G01 X330.545 Y243.905
G01 X331.521 Y239.788
G01 X332.285 Y235.561
G01 X332.827 Y231.235
G01 X332.954 Y229.811
G01 X333.273 Y225.348
G01 X333.351 Y220.805
G01 X333.180 Y216.197
G01 X333.167 Y215.995
G01 X332.765 Y211.316
G01 X332.102 Y206.596
G01 X331.171 Y201.850
G01 X330.551 Y199.259
G01 X329.207 Y194.497
G01 X327.587 Y189.746
G01 X327.307 Y189.000
G01 X325.346 Y184.299
G01 X323.107 Y179.646
G01 X322.965 Y179.371
G01 X320.399 Y174.821
G01 X317.896 Y170.858
G01 X314.787 Y166.518
G01 X312.881 Y164.076
G01 X309.313 Y159.996
G01 X306.992 Y157.556
G01 X302.984 Y153.787
G01 X298.743 Y150.190
G01 X298.215 Y149.769
G01 X300.721 Y151.266
G01 X304.018 Y153.374
G01 X307.317 Y155.703
G01 X310.256 Y157.942
G01 X314.386 Y161.442
G01 X314.879 Y161.883
G01 X318.146 Y164.961
G01 X321.768 Y168.726
G01 X324.692 Y172.097
G01 X327.192 Y175.219
G01 X330.005 Y179.100
G01 X332.057 Y182.229
G01 X333.588 Y184.693
G01 X330.784 Y180.238
G01 X330.616 Y179.986
G01 X327.539 Y175.677
G01 X327.192 Y175.219
G01 X323.835 Y171.088
G01 X323.651 Y170.872
G01 X320.057 Y166.905
G01 X319.496 Y166.320
G01 X316.510 Y163.423
G01 X313.326 Y160.516
G01 X310.256 Y157.942
G01 X306.365 Y155.015
G01 X302.369 Y152.329
G01 X298.215 Y149.769
G01 X303.134 Y152.147
G01 X305.165 Y153.218
G01 X309.749 Y155.742
G01 X313.898 Y158.198
G01 X318.535 Y161.172
G01 X318.620 Y161.230
G01 X323.059 Y164.287
G01 X327.513 Y167.617
G01 X327.817 Y167.857
G01 X332.159 Y171.387
G01 X333.215 Y172.301
G01 X336.249 Y174.957
G01 X338.406 Y177.000
G01 X340.457 Y182.489
G01 X340.795 Y183.489
G01 X343.137 Y188.066
G01 X346.147 Y192.661
G01 X346.265 Y192.853
G01 X349.311 Y196.616
G01 X352.895 Y200.229
G01 X355.936 Y202.802
G01 X359.449 Y205.300
G01 X363.527 Y207.704
G01 X361.100 Y203.925
G01 X358.122 Y199.582
G01 X354.886 Y195.177
G01 X351.235 Y190.587
G01 X350.627 Y189.868
G01 X347.637 Y186.445
G01 X343.732 Y182.214
G01 X343.731 Y182.213
G01 X340.735 Y179.182
G01 X337.324 Y175.979
G01 X341.458 Y179.888
G01 X343.731 Y182.213
G01 X347.673 Y186.419
G01 X350.627 Y189.868
G01 X354.312 Y194.422
G01 X356.513 Y197.383
G01 X359.972 Y202.236
G01 X360.286 Y202.703
G01 X363.527 Y207.704
G01 X366.642 Y212.952
G01 X368.048 Y215.539
G01 X370.937 Y221.052
G01 X373.567 Y226.766
G01 X374.871 Y229.921
G01 X377.211 Y235.906
G01 X379.260 Y242.072
G01 X379.319 Y242.266
G01 X381.182 Y248.603
G01 X381.964 Y251.698
G01 X383.427 Y258.277
G01 X384.220 Y262.758
G01 X385.203 Y269.585
G01 X385.497 Y272.335
G01 X386.077 Y279.353
G01 X386.283 Y285.477
G01 X386.232 Y292.703
G01 X385.824 Y299.682
G01 X385.077 Y307.071
G01 X384.112 Y313.476
G01 X382.639 Y320.945
G01 X381.787 Y324.526
G01 X379.728 Y332.013
G01 X379.371 Y333.172
G01 X376.816 Y340.622
G01 X376.364 Y341.818
G01 X373.366 Y348.355
G01 X374.742 Y345.950
G01 X376.218 Y343.244
G01 X377.891 Y340.028
G01 X379.275 Y337.226
G01 X381.374 Y332.725
G01 X383.030 Y328.816
G01 X384.773 Y324.410
G01 X387.323 Y317.248
G01 X387.391 Y317.041
G01 X389.165 Y311.193
G01 X390.875 Y304.570
G01 X392.442 Y297.279
G01 X392.556 Y296.667
G01 X393.728 Y289.357
G01 X394.007 Y287.165
G01 X394.761 Y279.869
G01 X394.813 Y279.184
G01 X395.140 Y273.150
G01 X395.222 Y265.904
G01 X395.202 Y264.755
G01 X395.163 Y271.178
G01 X394.864 Y278.455
G01 X394.813 Y279.184
G01 X394.093 Y286.479
G01 X394.007 Y287.165
G01 X393.296 Y291.915
G01 X392.252 Y298.291
G01 X391.135 Y303.473
G01 X390.010 Y307.874
G01 X388.260 Y314.108
G01 X386.095 Y320.726
G01 X383.414 Y327.875
G01 X383.030 Y328.816
G01 X380.314 Y334.981
G01 X377.059 Y341.626
G01 X374.742 Y345.950
G01 X373.366 Y348.355
G01 X375.646 Y345.094
G01 X377.134 Y342.884
G01 X378.595 Y340.677
G01 X380.150 Y338.253
G01 X382.053 Y335.195
G01 X384.741 Y330.633
G01 X386.934 Y326.697
G01 X389.676 Y321.473
G01 X392.801 Y315.003
G01 X395.910 Y307.954
G01 X397.428 Y304.127
G01 X399.875 Y297.591
G01 X402.309 Y290.300
G01 X404.491 Y282.861
G01 X405.578 Y278.546
G01 X407.321 Y270.949
G01 X408.049 Y267.131
G01 X408.441 Y264.740
G01 X406.986 Y259.536
G01 X405.973 Y252.927
G01 X405.861 Y245.520
G01 X406.756 Y238.531
G01 X407.998 Y233.567
G01 X409.322 Y229.781
G01 X410.495 Y227.066
G01 X411.426 Y225.168
G01 X411.513 Y228.977
G01 X411.484 Y233.499
G01 X411.321 Y238.570
G01 X411.016 Y244.083
G01 X410.424 Y250.685
G01 X409.735 Y256.692
G01 X408.990 Y261.766
G01 X408.049 Y267.131
G01 X409.335 Y259.392
G01 X409.358 Y259.232
G01 X410.366 Y251.408
G01 X410.525 Y249.802
G01 X411.139 Y241.885
G01 X411.167 Y241.332
G01 X411.474 Y233.338
G01 X411.489 Y231.243
G01 X411.408 Y223.170
G01 X411.354 Y221.798
G01 X410.890 Y213.663
G01 X410.476 Y209.326
G01 X409.505 Y201.127
G01 X408.791 Y196.614
G01 X407.271 Y188.381
G01 X406.252 Y183.858
G01 X404.177 Y175.615
G01 X402.270 Y169.263
G01 X399.546 Y161.043
G01 X396.802 Y153.918
G01 X393.326 Y145.801
G01 X392.740 Y144.535
G01 X388.833 Y136.481
G01 X386.456 Y132.038
G01 X381.913 Y124.140
G01 X378.169 Y118.261
G01 X372.912 Y110.587
G01 X367.207 Y103.115
G01 X363.953 Y99.185
G01 X357.637 Y91.982
G01 X352.447 Y86.582
G01 X345.403 Y79.793
G01 X337.937 Y73.306
G01 X332.601 Y69.063
G01 X324.479 Y63.082
G01 X315.966 Y57.467
G01 X315.287 Y57.046
G01 X306.377 Y51.836
G01 X301.851 Y49.418
G01 X292.418 Y44.831
G01 X282.836 Y40.761
G01 X272.776 Y37.100
G01 X265.046 Y34.675
G01 X254.509 Y31.929
G01 X252.004 Y31.359
G01 X241.183 Y29.281
G01 X237.744 Y28.739
G01 X226.675 Y27.444
G01 X221.659 Y27.044
G01 X210.358 Y26.361
G01 X199.220 Y27.645
G01 X194.912 Y28.291
G01 X184.148 Y31.421
G01 X173.558 Y35.073
G01 X172.549 Y35.452
G01 X162.012 Y39.265
G01 X155.829 Y41.780
G01 X145.884 Y46.961
G01 X136.779 Y52.272
G01 X127.359 Y58.293
G01 X118.256 Y64.762
G01 X117.126 Y65.613
G01 X108.298 Y72.429
G01 X103.311 Y76.598
G01 X108.306 Y69.910
G01 X115.443 Y61.775
G01 X122.586 Y53.015
G01 X128.806 Y45.197
G01 X135.175 Y37.516
G01 X143.496 Y27.613
G01 X156.408 Y27.113
G01 X169.108 Y27.334
G01 X169.704 Y27.362
G01 X181.690 Y26.844
G01 X182.422 Y26.832
G01 X190.773 Y27.032
G01 X179.454 Y28.800
G01 X173.928 Y29.874
G01 X161.798 Y30.335
G01 X161.273 Y30.370
G01 X150.278 Y30.325
G01 X145.709 Y30.546
G01 X137.776 Y40.975
G01 X135.384 Y44.388
G01 X127.031 Y52.821
G01 X124.827 Y55.200
G01 X116.715 Y63.390
G01 X116.377 Y63.750
G01 X125.117 Y56.552
G01 X134.243 Y49.764
G01 X138.227 Y47.014
G01 X147.898 Y40.907
G01 X149.529 Y39.941
G01 X138.887 Y43.893
G01 X146.585 Y34.837
G01 X154.897 Y39.101
G01 X165.471 Y34.972
G01 X173.254 Y32.307
G01 X161.753 Y34.104
G01 X154.880 Y35.467
G01 X148.970 Y33.569
G01 X161.064 Y32.185
G01 X173.047 Y31.459
G01 X178.258 Y31.344
G01 X189.189 Y28.509
G01 X195.791 Y27.071
G01 X207.055 Y26.037
G01 X211.480 Y25.785
G01 X222.627 Y24.972
G01 X233.760 Y24.710
G01 X235.803 Y24.722
G01 X246.876 Y24.430
G01 X257.943 Y24.683
G01 X258.557 Y24.712
G01 X269.691 Y24.367
G01 X280.880 Y24.574
G01 X283.512 Y24.704
G01 X294.581 Y26.345
G01 X305.570 Y28.531
G01 X316.451 Y31.256
G01 X323.592 Y33.358
G01 X334.344 Y36.697
G01 X343.170 Y39.880
G01 X353.471 Y44.500
G01 X359.863 Y47.679
G01 X369.319 Y53.870
G01 X377.014 Y59.422
G01 X384.741 Y64.990
G01 X387.744 Y67.090
G01 X390.428 Y68.636
G01 X381.619 Y61.592
G01 X376.170 Y57.576
G01 X368.389 Y48.532
G01 X360.020 Y39.795
G01 X356.168 Y36.071
G01 X358.390 Y41.884
G01 X367.247 Y49.548
G01 X372.303 Y54.299
G01 X362.709 Y48.255
G01 X355.539 Y44.154
G01 X353.689 Y34.997
G01 X341.833 Y34.637
G01 X351.557 Y40.492
G01 X340.776 Y36.649
G01 X338.981 Y36.067
G01 X328.028 Y32.928
G01 X316.982 Y30.347
G01 X312.253 Y29.416
G01 X323.719 Y30.601
G01 X324.213 Y30.665
G01 X335.986 Y31.780
G01 X339.239 Y32.198
G01 X352.241 Y31.668
G01 X356.486 Y31.658
G01 X359.519 Y35.070
G01 X366.361 Y43.704
G01 X374.297 Y52.906
G01 X374.625 Y53.308
G01 X383.284 Y60.856
G01 X387.344 Y64.669
G01 X382.312 Y58.030
G01 X374.469 Y48.965
G01 X373.969 Y48.419
G01 X366.254 Y38.345
G01 X357.844 Y28.552
G01 X357.410 Y28.077
G01 X344.503 Y27.758
G01 X334.528 Y27.570
G01 X324.516 Y27.575
G01 X313.215 Y27.454
G01 X302.406 Y26.949
G01 X294.068 Y27.191
G01 X304.967 Y29.545
G01 X311.285 Y31.170
G01 X322.035 Y34.184
G01 X332.636 Y37.727
G01 X333.968 Y38.213
G01 X344.403 Y42.272
G01 X354.027 Y46.553
G01 X363.751 Y52.133
G01 X369.419 Y55.687
G01 X378.903 Y61.643
G01 X388.091 Y68.062
G01 X388.959 Y68.704
G01 X397.059 Y76.483
G01 X400.082 Y79.593
G01 X406.594 Y88.818
G01 X412.714 Y98.189
G01 X415.295 Y102.481
G01 X420.603 Y112.168
G01 X422.157 Y115.245
G01 X426.692 Y125.175
G01 X427.676 Y127.522
G01 X431.504 Y137.606
G01 X434.009 Y145.221
G01 X436.858 Y155.424
G01 X439.118 Y165.469
G01 X440.857 Y175.700
G01 X441.517 Y180.756
G01 X442.487 Y190.911
G01 X442.927 Y200.993
G01 X442.939 Y201.775
G01 X442.861 Y211.739
G01 X442.276 Y221.578
G01 X441.590 Y228.212
G01 X440.266 Y237.779
G01 X438.911 Y245.081
G01 X436.867 Y254.309
G01 X434.377 Y263.324
G01 X432.858 Y268.082
G01 X429.824 Y276.746
G01 X427.252 Y283.147
G01 X423.618 Y291.376
G01 X421.423 Y295.853
G01 X417.301 Y303.675
G01 X416.620 Y304.878
G01 X412.185 Y312.394
G01 X408.025 Y318.733
G01 X403.098 Y325.729
G01 X399.074 Y330.930
G01 X393.738 Y337.427
G01 X390.683 Y340.863
G01 X385.033 Y346.923
G01 X381.815 Y350.116
G01 X375.869 Y355.729
G01 X372.611 Y358.576
G01 X366.386 Y363.730
G01 X365.311 Y364.568
G01 X358.923 Y369.400
G01 X357.222 Y370.604
G01 X350.663 Y375.084
G01 X350.187 Y375.391
G01 X343.475 Y379.548
G01 X342.099 Y380.345
G01 X335.252 Y384.171
G01 X335.095 Y384.253
G01 X339.889 Y381.637
G01 X344.308 Y379.066
G01 X349.449 Y375.881
G01 X354.977 Y372.201
G01 X359.477 Y369.003
G01 X363.533 Y365.981
G01 X367.097 Y363.175
G01 X370.021 Y360.733
G01 X367.945 Y361.199
G01 X365.103 Y361.962
G01 X361.306 Y363.298
G01 X356.662 Y365.409
G01 X350.640 Y369.065
G01 X344.906 Y373.778
G01 X340.383 Y378.679
G01 X337.222 Y383.091
G01 X335.095 Y384.253
G01 X328.141 Y387.802
G01 X324.629 Y389.434
G01 X317.527 Y392.569
G01 X313.401 Y394.203
G01 X306.184 Y396.843
G01 X299.556 Y399.026
G01 X292.153 Y401.169
G01 X288.162 Y402.162
G01 X281.155 Y403.750
G01 X275.366 Y404.887
G01 X270.921 Y405.625
G01 X265.678 Y406.366
G01 X262.101 Y406.784
G01 X259.236 Y407.079
G01 X256.601 Y407.337
G01 X253.944 Y407.526
G01 X249.973 Y407.775
G01 X252.711 Y407.352
G01 X257.537 Y406.469
G01 X264.762 Y404.873
G01 X271.275 Y403.154
G01 X278.559 Y400.842
G01 X279.513 Y400.509
G01 X286.038 Y398.078
G01 X292.003 Y395.561
G01 X296.146 Y393.697
G01 X300.886 Y391.318
G01 X306.522 Y388.160
G01 X310.689 Y385.779
G01 X316.854 Y381.802
G01 X317.421 Y381.414
G01 X323.323 Y377.140
G01 X323.900 Y376.698
G01 X328.959 Y372.747
G01 X323.272 Y377.221
G01 X322.343 Y377.909
G01 X317.421 Y381.414
G01 X311.278 Y385.418
G01 X310.689 Y385.779
G01 X304.302 Y389.490
G01 X302.345 Y390.544
G01 X295.693 Y393.910
G01 X295.126 Y394.178
G01 X288.875 Y396.945
G01 X283.197 Y399.202
G01 X276.016 Y401.705
G01 X275.807 Y401.771
G01 X271.275 Y403.154
G01 X267.186 Y404.296
G01 X262.358 Y405.460
G01 X259.305 Y406.123
G01 X255.762 Y406.819
G01 X252.711 Y407.352
G01 X249.973 Y407.775
G01 X256.953 Y406.045
G01 X264.408 Y403.458
G01 X265.588 Y403.008
G01 X272.766 Y400.005
G01 X273.856 Y399.509
G01 X280.742 Y396.157
G01 X283.946 Y394.440
G01 X290.436 Y390.664
G01 X295.800 Y387.181
G01 X301.766 Y382.946
G01 X307.185 Y378.664
G01 X312.588 Y374.035
G01 X316.983 Y369.881
G01 X321.827 Y364.918
G01 X323.663 Y362.893
G01 X328.111 Y357.760
G01 X330.904 Y354.237
G01 X334.855 Y348.899
G01 X336.639 Y346.283
G01 X340.192 Y340.840
G01 X343.421 Y335.283
G01 X343.510 Y335.120
G01 X346.510 Y329.553
G01 X349.191 Y323.897
G01 X350.503 Y320.823
G01 X352.816 Y315.147
G01 X353.817 Y312.396
G01 X355.707 Y306.745
G01 X357.353 Y301.010
G01 X357.491 Y300.469
G01 X358.943 Y294.766
G01 X359.702 Y291.175
G01 X360.762 Y285.478
G01 X361.388 Y281.015
G01 X362.029 Y275.344
G01 X362.266 Y272.123
G01 X361.889 Y276.785
G01 X361.388 Y281.015
G01 X360.538 Y286.711
G01 X360.538 Y286.713
G01 X359.702 Y291.175
G01 X358.437 Y296.892
G01 X358.203 Y297.824
G01 X356.794 Y303.119
G01 X355.259 Y308.143
G01 X353.817 Y312.396
G01 X353.133 Y307.697
G01 X352.918 Y303.406
G01 X353.012 Y299.413
G01 X353.625 Y294.371
G01 X354.645 Y289.636
G01 X356.373 Y284.424
G01 X356.441 Y284.198
G01 X358.556 Y279.526
G01 X361.607 Y274.545
G01 X362.142 Y273.606
G01 X362.394 Y270.646
G01 X362.605 Y266.623
G01 X362.707 Y261.022
G01 X362.689 Y259.632
G01 X362.536 Y254.073
G01 X362.515 Y253.677
G01 X362.162 Y248.314
G01 X361.578 Y242.836
G01 X361.563 Y242.723
G01 X360.922 Y237.947
G01 X360.037 Y232.791
G01 X358.923 Y227.441
G01 X358.377 Y225.214
G01 X358.963 Y230.045
G01 X359.356 Y234.853
G01 X359.493 Y239.718
G01 X359.420 Y243.720
G01 X359.132 Y248.021
G01 X358.704 Y252.160
G01 X357.904 Y257.452
G01 X357.759 Y258.256
G01 X356.612 Y263.456
G01 X356.544 Y263.731
G01 X355.121 Y268.831
G01 X354.949 Y269.387
G01 X353.227 Y274.361
G01 X353.122 Y274.643
G01 X354.118 Y271.916
G01 X355.263 Y268.347
G01 X356.544 Y263.731
G01 X357.426 Y259.832
G01 X358.239 Y255.435
G01 X358.925 Y250.269
G01 X359.319 Y245.786
G01 X359.491 Y240.382
G01 X359.493 Y239.718
G01 X359.411 Y236.026
G01 X359.174 Y231.986
G01 X358.768 Y228.106
G01 X358.377 Y225.214
G01 X358.255 Y230.776
G01 X357.852 Y236.266
G01 X357.785 Y236.923
G01 X356.971 Y242.323
G01 X356.334 Y245.602
G01 X355.025 Y250.814
G01 X354.158 Y253.748
G01 X352.409 Y258.731
G01 X350.662 Y263.014
G01 X348.433 Y267.673
G01 X345.992 Y272.146
G01 X345.841 Y272.407
G01 X343.179 Y276.668
G01 X340.333 Y280.724
G01 X339.863 Y281.351
G01 X336.819 Y285.156
G01 X333.620 Y288.740
G01 X330.283 Y292.095
G01 X328.404 Y293.832
G01 X324.914 Y296.848
G01 X321.319 Y299.628
G01 X317.634 Y302.170
G01 X317.464 Y302.280
G01 X313.768 Y304.628
G01 X310.006 Y306.741
G01 X306.192 Y308.619
G01 X304.938 Y309.181
G01 X301.150 Y310.833
G01 X297.334 Y312.258
G01 X293.503 Y313.457
G01 X293.391 Y313.489
G01 X289.627 Y314.569
G01 X285.863 Y315.436
G01 X282.428 Y316.043
G01 X278.738 Y316.604
G01 X275.072 Y316.963
G01 X273.919 Y317.036
G01 X270.347 Y317.288
G01 X266.808 Y317.353
G01 X263.312 Y317.234
G01 X260.897 Y317.045
G01 X257.515 Y316.790
G01 X254.184 Y316.366
G01 X250.912 Y315.777
G01 X249.969 Y315.575
G01 X246.818 Y314.161
G01 X244.013 Y312.715
G01 X241.074 Y311.446
G01 X238.244 Y310.042
G01 X236.791 Y309.245
G01 X234.031 Y308.047
G01 X231.357 Y306.722
G01 X229.751 Y305.842
G01 X227.075 Y304.685
G01 X224.465 Y303.400
G01 X222.846 Y302.521
G01 X220.395 Y301.352
G01 X217.746 Y300.094
G01 X216.925 Y299.670
G01 X214.231 Y298.388
G01 X213.552 Y298.038
G01 X210.737 Y296.789
G01 X207.958 Y295.379
G01 X207.643 Y295.207
G01 X204.696 Y293.828
G01 X203.172 Y293.036
G01 X200.038 Y291.585
G01 X198.661 Y290.877
G01 X200.198 Y293.813
G01 X201.900 Y296.697
G01 X203.767 Y299.517
G01 X204.339 Y300.322
G01 X206.301 Y303.186
G01 X208.436 Y305.978
G01 X210.740 Y308.686
G01 X212.446 Y310.520
G01 X214.963 Y313.188
G01 X217.653 Y315.751
G01 X218.533 Y316.534
G01 X221.399 Y319.051
G01 X224.438 Y321.444
G01 X227.372 Y323.522
G01 X230.693 Y325.775
G01 X234.182 Y327.877
G01 X237.830 Y329.815
G01 X237.939 Y329.870
G01 X241.735 Y331.733
G01 X245.684 Y333.414
G01 X249.779 Y334.900
G01 X251.146 Y335.342
G01 X255.424 Y336.650
G01 X259.833 Y337.739
G01 X264.361 Y338.602
G01 X264.570 Y338.635
G01 X269.218 Y339.281
G01 X273.963 Y339.681
G01 X278.793 Y339.827
G01 X281.465 Y339.797
G01 X286.404 Y339.550
G01 X291.394 Y339.031
G01 X292.193 Y338.923
G01 X297.204 Y338.049
G01 X302.230 Y336.895
G01 X302.540 Y336.815
G01 X307.544 Y335.330
G01 X311.962 Y333.775
G01 X316.882 Y331.714
G01 X319.696 Y330.396
G01 X324.465 Y327.828
G01 X327.368 Y326.105
G01 X331.933 Y323.040
G01 X336.381 Y319.709
G01 X336.910 Y319.289
G01 X334.892 Y321.398
G01 X332.105 Y324.140
G01 X329.101 Y326.835
G01 X326.266 Y329.199
G01 X321.951 Y332.461
G01 X321.405 Y332.851
G01 X317.662 Y335.329
G01 X313.187 Y338.018
G01 X309.256 Y340.143
G01 X305.644 Y341.861
G01 X301.248 Y343.758
G01 X297.732 Y345.065
G01 X294.990 Y346.006
G01 X299.946 Y344.247
G01 X300.228 Y344.138
G01 X305.110 Y342.101
G01 X305.644 Y341.861
G01 X310.430 Y339.532
G01 X310.682 Y339.401
G01 X315.348 Y336.783
G01 X316.052 Y336.361
G01 X319.540 Y334.098
G01 X323.083 Y331.643
G01 X326.266 Y329.199
G01 X329.976 Y326.069
G01 X333.491 Y322.766
G01 X336.910 Y319.289
G01 X333.497 Y323.552
G01 X331.994 Y325.300
G01 X328.540 Y329.214
G01 X325.206 Y332.691
G01 X321.291 Y336.565
G01 X321.208 Y336.643
G01 X317.226 Y340.267
G01 X312.989 Y343.864
G01 X312.678 Y344.114
G01 X308.282 Y347.574
G01 X307.159 Y348.404
G01 X303.883 Y350.746
G01 X301.423 Y352.415
G01 X295.618 Y353.192
G01 X294.558 Y353.300
G01 X289.586 Y354.557
G01 X284.438 Y356.465
G01 X284.214 Y356.541
G01 X279.868 Y358.670
G01 X275.549 Y361.357
G01 X272.363 Y363.747
G01 X269.146 Y366.614
G01 X265.898 Y370.077
G01 X270.122 Y368.554
G01 X275.019 Y366.621
G01 X280.027 Y364.426
G01 X285.314 Y361.892
G01 X286.161 Y361.456
G01 X290.163 Y359.305
G01 X295.156 Y356.443
G01 X295.157 Y356.442
G01 X298.768 Y354.175
G01 X302.659 Y351.588
G01 X297.929 Y354.745
G01 X295.157 Y356.442
G01 X290.180 Y359.346
G01 X286.161 Y361.456
G01 X280.902 Y364.031
G01 X277.526 Y365.516
G01 X272.031 Y367.826
G01 X271.494 Y368.034
G01 X265.898 Y370.077
G01 X260.088 Y371.941
G01 X257.241 Y372.737
G01 X251.224 Y374.323
G01 X245.068 Y375.611
G01 X241.702 Y376.177
G01 X235.346 Y377.136
G01 X228.876 Y377.771
G01 X228.687 Y377.785
G01 X222.093 Y378.187
G01 X218.902 Y378.259
G01 X212.163 Y378.217
G01 X207.618 Y377.990
G01 X200.736 Y377.444
G01 X198.001 Y377.126
G01 X191.035 Y376.112
G01 X185.011 Y374.932
G01 X177.973 Y373.282
G01 X171.253 Y371.336
G01 X164.215 Y368.962
G01 X158.198 Y366.598
G01 X151.245 Y363.496
G01 X147.944 Y361.866
G01 X141.104 Y358.188
G01 X140.053 Y357.582
G01 X133.342 Y353.445
G01 X132.286 Y352.750
G01 X126.590 Y348.341
G01 X128.639 Y350.230
G01 X130.947 Y352.273
G01 X133.692 Y354.638
G01 X136.104 Y356.601
G01 X140.042 Y359.634
G01 X143.467 Y362.138
G01 X147.374 Y364.821
G01 X153.805 Y368.888
G01 X153.992 Y368.999
G01 X159.298 Y372.034
G01 X165.373 Y375.178
G01 X172.132 Y378.332
G01 X172.703 Y378.580
G01 X179.569 Y381.353
G01 X181.644 Y382.114
G01 X188.599 Y384.455
G01 X189.242 Y384.652
G01 X195.051 Y386.317
G01 X202.089 Y388.034
G01 X203.213 Y388.274
G01 X196.969 Y386.779
G01 X189.942 Y384.864
G01 X189.242 Y384.652
G01 X182.280 Y382.344
G01 X181.644 Y382.114
G01 X177.171 Y380.332
G01 X171.202 Y377.900
G01 X166.373 Y375.668
G01 X162.333 Y373.589
G01 X156.642 Y370.521
G01 X150.689 Y366.914
G01 X144.302 Y362.721
G01 X143.467 Y362.138
G01 X138.072 Y358.126
G01 X132.308 Y353.458
G01 X128.639 Y350.230
G01 X126.590 Y348.341
G01 X129.242 Y351.307
G01 X131.065 Y353.251
G01 X132.891 Y355.168
G01 X134.908 Y357.225
G01 X137.483 Y359.745
G01 X141.331 Y363.383
G01 X144.680 Y366.399
G01 X149.162 Y370.238
G01 X154.773 Y374.729
G01 X160.952 Y379.331
G01 X164.344 Y381.665
G01 X170.171 Y385.509
G01 X176.748 Y389.485
G01 X183.513 Y393.272
G01 X187.477 Y395.293
G01 X194.495 Y398.687
G01 X198.054 Y400.249
G01 X200.297 Y401.163
G01 X205.695 Y400.906
G01 X212.362 Y401.392
G01 X219.608 Y402.934
G01 X226.225 Y405.341
G01 X230.771 Y407.657
G01 X234.179 Y409.819
G01 X236.566 Y411.542
G01 X238.208 Y412.874
G01 X234.476 Y412.108
G01 X230.076 Y411.072
G01 X225.169 Y409.782
G01 X219.864 Y408.256
G01 X213.556 Y406.231
G01 X207.861 Y404.196
G01 X203.074 Y402.362
G01 X198.054 Y400.249
G01 X205.310 Y403.228
G01 X205.462 Y403.286
G01 X212.864 Y406.014
G01 X214.394 Y406.526
G01 X221.979 Y408.868
G01 X222.512 Y409.017
G01 X230.234 Y411.099
G01 X232.273 Y411.581
G01 X240.160 Y413.301
G01 X241.509 Y413.555
G01 X249.541 Y414.917
G01 X253.861 Y415.480
G01 X262.067 Y416.344
G01 X266.641 Y416.646
G01 X275.004 Y417.002
G01 X279.622 Y417.019
G01 X288.120 Y416.846
G01 X294.756 Y416.412
G01 X303.370 Y415.575
G01 X310.939 Y414.474
G01 X319.625 Y412.897
G01 X320.972 Y412.612
G01 X329.684 Y410.584
G01 X334.556 Y409.243
G01 X343.265 Y406.576
G01 X349.828 Y404.238
G01 X358.484 Y400.833
G01 X367.042 Y396.946
G01 X371.601 Y394.654
G01 X380.017 Y390.091
G01 X386.443 Y386.217
G01 X394.627 Y380.863
G01 X402.610 Y375.031
G01 X407.948 Y370.764
G01 X415.585 Y364.179
G01 X422.952 Y357.133
G01 X423.514 Y356.565
G01 X430.571 Y349.041
G01 X433.948 Y345.150
G01 X440.518 Y336.979
G01 X446.616 Y328.546
G01 X452.420 Y319.555
G01 X456.512 Y312.542
G01 X461.536 Y302.884
G01 X462.640 Y300.589
G01 X467.070 Y290.505
G01 X468.370 Y287.253
G01 X472.094 Y276.753
G01 X473.600 Y271.953
G01 X476.754 Y261.090
G01 X477.998 Y249.950
G01 X478.333 Y245.608
G01 X477.676 Y234.421
G01 X476.471 Y223.288
G01 X476.326 Y222.220
G01 X474.953 Y211.103
G01 X473.872 Y204.495
G01 X471.033 Y193.650
G01 X467.880 Y183.595
G01 X464.105 Y173.076
G01 X459.823 Y162.767
G01 X459.244 Y161.475
G01 X454.578 Y151.349
G01 X451.631 Y145.558
G01 X457.008 Y151.903
G01 X463.361 Y160.688
G01 X470.312 Y169.597
G01 X476.550 Y177.396
G01 X482.629 Y185.334
G01 X490.427 Y195.621
G01 X488.047 Y208.317
G01 X485.013 Y220.647
G01 X484.846 Y221.246
G01 X482.685 Y233.043
G01 X482.533 Y233.758
G01 X480.481 Y241.853
G01 X481.276 Y230.429
G01 X481.458 Y224.804
G01 X483.706 Y212.879
G01 X483.789 Y212.359
G01 X486.299 Y201.624
G01 X487.076 Y197.126
G01 X478.671 Y187.077
G01 X475.876 Y183.987
G01 X469.531 Y173.965
G01 X467.707 Y171.286
G01 X461.504 Y161.568
G01 X461.227 Y161.159
G01 X466.311 Y171.274
G01 X470.908 Y181.675
G01 X472.708 Y186.168
G01 X476.510 Y196.953
G01 X477.095 Y198.780
G01 X475.586 Y187.535
G01 X482.721 Y197.022
G01 X476.691 Y204.181
G01 X478.366 Y215.405
G01 X479.236 Y223.606
G01 X480.043 Y211.997
G01 X480.243 Y204.995
G01 X483.402 Y199.634
G01 X482.062 Y211.729
G01 X480.106 Y223.570
G01 X479.059 Y228.674
G01 X479.393 Y239.959
G01 X479.326 Y246.713
G01 X476.774 Y257.885
G01 X475.836 Y261.430
G01 X475.406 Y269.811
G01 X473.922 Y278.471
G01 X472.873 Y284.155
G01 X471.130 Y293.277
G01 X469.560 Y300.083
G01 X467.948 Y306.689
G01 X465.930 Y316.031
G01 X463.043 Y326.768
G01 X459.622 Y337.380
G01 X458.935 Y339.315
G01 X455.070 Y349.834
G01 X450.674 Y360.187
G01 X447.185 Y367.521
G01 X441.421 Y377.214
G01 X435.179 Y386.624
G01 X428.475 Y395.727
G01 X427.562 Y396.897
G01 X419.715 Y405.045
G01 X412.976 Y411.441
G01 X404.528 Y418.883
G01 X402.107 Y420.884
G01 X397.395 Y425.161
G01 X395.501 Y427.255
G01 X404.317 Y420.227
G01 X409.438 Y415.804
G01 X419.986 Y410.235
G01 X430.364 Y404.025
G01 X434.852 Y401.100
G01 X428.706 Y401.953
G01 X419.279 Y408.891
G01 X413.511 Y412.783
G01 X421.527 Y404.767
G01 X427.128 Y398.669
G01 X436.465 Y398.905
G01 X439.454 Y387.429
G01 X431.583 Y395.602
G01 X437.727 Y385.951
G01 X438.694 Y384.331
G01 X444.190 Y374.355
G01 X449.164 Y364.164
G01 X451.124 Y359.761
G01 X447.398 Y370.660
G01 X447.224 Y371.127
G01 X443.535 Y382.363
G01 X442.408 Y385.444
G01 X440.033 Y398.234
G01 X439.098 Y402.375
G01 X435.098 Y404.571
G01 X425.159 Y409.316
G01 X414.424 Y415.002
G01 X413.959 Y415.232
G01 X404.677 Y421.992
G01 X400.038 Y425.114
G01 X407.646 Y421.673
G01 X418.231 Y416.052
G01 X418.854 Y415.699
G01 X430.387 Y410.421
G01 X441.801 Y404.403
G01 X442.384 Y404.073
G01 X445.565 Y391.564
G01 X447.968 Y381.883
G01 X450.190 Y372.123
G01 X452.822 Y361.136
G01 X455.720 Y350.714
G01 X457.316 Y342.524
G01 X452.610 Y352.627
G01 X449.640 Y358.408
G01 X444.311 Y368.214
G01 X438.500 Y377.757
G01 X437.717 Y378.967
G01 X431.439 Y388.233
G01 X425.111 Y396.677
G01 X417.507 Y404.912
G01 X412.798 Y409.628
G01 X404.882 Y417.546
G01 X396.582 Y425.072
G01 X395.763 Y425.775
G01 X386.391 Y431.952
G01 X382.671 Y434.224
G01 X372.197 Y438.509
G01 X361.708 Y442.397
G01 X356.975 Y443.955
G01 X346.344 Y446.957
G01 X342.976 Y447.787
G01 X332.295 Y450.010
G01 X329.812 Y450.445
G01 X319.131 Y451.933
G01 X311.130 Y452.682
G01 X300.551 Y453.185
G01 X290.257 Y453.150
G01 X279.901 Y452.581
G01 X274.827 Y452.106
G01 X264.713 Y450.791
G01 X254.787 Y448.976
G01 X254.002 Y448.810
G01 X244.308 Y446.522
G01 X234.847 Y443.767
G01 X228.531 Y441.626
G01 X219.501 Y438.202
G01 X212.684 Y435.254
G01 X204.144 Y431.204
G01 X195.910 Y426.768
G01 X191.611 Y424.226
G01 X183.841 Y419.337
G01 X178.175 Y415.403
G01 X170.962 Y410.028
G01 X167.072 Y406.880
G01 X160.368 Y401.114
G01 X159.361 Y400.195
G01 X153.015 Y394.207
G01 X147.756 Y388.747
G01 X142.024 Y382.395
G01 X137.842 Y377.319
G01 X132.697 Y370.668
G01 X130.027 Y366.923
G01 X125.389 Y360.052
G01 X123.000 Y356.197
G01 X118.840 Y349.158
G01 X116.783 Y345.351
G01 X113.146 Y338.133
G01 X112.568 Y336.897
G01 X109.281 Y329.590
G01 X108.486 Y327.664
G01 X105.581 Y320.269
G01 X105.393 Y319.751
G01 X102.833 Y312.280
G01 X102.358 Y310.745
G01 X100.132 Y303.223
G01 X100.090 Y303.067
G01 X101.591 Y308.302
G01 X103.119 Y313.198
G01 X105.079 Y318.922
G01 X107.429 Y325.119
G01 X109.544 Y330.220
G01 X111.595 Y334.862
G01 X113.529 Y338.949
G01 X115.258 Y342.346
G01 X115.265 Y340.217
G01 X115.155 Y337.276
G01 X114.699 Y333.276
G01 X113.675 Y328.277
G01 X111.452 Y321.589
G01 X108.141 Y314.961
G01 X104.341 Y309.453
G01 X100.774 Y305.391
G01 X100.090 Y303.067
G01 X98.179 Y295.494
G01 X97.370 Y291.704
G01 X95.896 Y284.079
G01 X95.225 Y279.706
G01 X94.257 Y272.079
G01 X93.605 Y265.127
G01 X93.149 Y257.431
G01 X93.060 Y253.316
G01 X93.072 Y246.143
G01 X93.278 Y240.243
G01 X93.548 Y235.743
G01 X93.993 Y230.464
G01 X94.358 Y226.879
G01 X94.709 Y224.018
G01 X95.069 Y221.395
G01 X95.476 Y218.761
G01 X96.117 Y214.833
G01 X95.917 Y217.613
G01 X95.706 Y222.501
G01 X95.653 Y229.904
G01 X95.853 Y236.637
G01 X96.510 Y244.259
G01 X96.624 Y245.248
G01 X97.540 Y252.154
G01 X98.665 Y258.533
G01 X99.560 Y262.989
G01 X100.824 Y268.143
G01 X102.645 Y274.329
G01 X104.041 Y278.938
G01 X106.548 Y285.838
G01 X106.794 Y286.464
G01 X109.647 Y293.172
G01 X109.949 Y293.834
G01 X112.693 Y299.627
G01 X109.577 Y293.090
G01 X109.115 Y292.046
G01 X106.794 Y286.464
G01 X104.258 Y279.580
G01 X104.041 Y278.938
G01 X101.846 Y271.882
G01 X101.254 Y269.738
G01 X99.453 Y262.500
G01 X99.318 Y261.887
G01 X97.988 Y255.174
G01 X97.052 Y249.132
G01 X96.210 Y241.570
G01 X96.192 Y241.366
G01 X95.853 Y236.637
G01 X95.676 Y232.397
G01 X95.616 Y227.429
G01 X95.650 Y224.303
G01 X95.760 Y220.692
G01 X95.917 Y217.613
G01 X96.117 Y214.833
G01 X96.222 Y222.037
G01 X97.109 Y229.889
G01 X97.287 Y231.125
G01 X98.617 Y238.794
G01 X98.858 Y239.968
G01 X100.592 Y247.432
G01 X101.553 Y250.939
G01 X103.791 Y258.110
G01 X105.989 Y264.104
G01 X108.791 Y270.867
G01 X111.755 Y277.093
G01 X115.064 Y283.395
G01 X118.136 Y288.608
G01 X121.898 Y294.439
G01 X123.457 Y296.669
G01 X127.485 Y302.148
G01 X130.306 Y305.653
G01 X134.617 Y310.704
G01 X136.755 Y313.022
G01 X141.281 Y317.695
G01 X145.989 Y322.078
G01 X146.128 Y322.201
G01 X150.889 Y326.368
G01 X155.806 Y330.244
G01 X158.502 Y332.201
G01 X163.532 Y335.713
G01 X165.997 Y337.297
G01 X171.075 Y340.393
G01 X176.299 Y343.280
G01 X176.805 Y343.541
G01 X182.042 Y346.229
G01 X185.363 Y347.765
G01 X190.682 Y350.071
G01 X194.893 Y351.676
G01 X200.279 Y353.568
G01 X203.366 Y354.518
G01 X198.916 Y353.087
G01 X194.893 Y351.676
G01 X189.529 Y349.576
G01 X189.528 Y349.576
G01 X185.363 Y347.765
G01 X180.071 Y345.256
G01 X179.226 Y344.825
G01 X174.377 Y342.270
G01 X169.813 Y339.644
G01 X165.997 Y337.297
G01 X170.730 Y337.679
G01 X174.953 Y338.420
G01 X178.809 Y339.422
G01 X183.604 Y341.127
G01 X187.993 Y343.179
G01 X192.689 Y346.027
G01 X192.884 Y346.138
G01 X196.976 Y349.249
G01 X201.150 Y353.338
G01 X201.938 Y354.062
G01 X204.788 Y354.951
G01 X208.662 Y356.053
G01 X214.100 Y357.403
G01 X215.458 Y357.696
G01 X220.911 Y358.787
G01 X221.291 Y358.853
G01 X226.613 Y359.685
G01 X232.079 Y360.361
G01 X232.191 Y360.373
G01 X236.993 Y360.789
G01 X242.204 Y361.077
G01 X247.667 Y361.185
G01 X249.970 Y361.150
G01 X245.120 Y360.667
G01 X240.347 Y359.952
G01 X235.586 Y359.001
G01 X231.703 Y358.037
G01 X227.565 Y356.794
G01 X223.621 Y355.476
G01 X218.641 Y353.514
G01 X217.900 Y353.198
G01 X213.086 Y350.920
G01 X212.824 Y350.787
G01 X208.171 Y348.261
G01 X207.677 Y347.974
G01 X203.201 Y345.208
G01 X202.941 Y345.037
G01 X205.396 Y346.600
G01 X208.610 Y348.508
G01 X212.824 Y350.787
G01 X216.428 Y352.518
G01 X220.532 Y354.292
G01 X225.425 Y356.117
G01 X229.701 Y357.475
G01 X234.929 Y358.848
G01 X235.586 Y359.001
G01 X239.203 Y359.745
G01 X243.182 Y360.415
G01 X247.063 Y360.911
G01 X249.970 Y361.150
G01 X244.577 Y359.790
G01 X239.316 Y358.172
G01 X238.691 Y357.959
G01 X233.611 Y355.961
G01 X230.557 Y354.608
G01 X225.766 Y352.186
G01 X223.088 Y350.691
G01 X218.621 Y347.873
G01 X214.837 Y345.214
G01 X210.787 Y342.013
G01 X206.965 Y338.648
G01 X206.738 Y338.435
G01 X203.177 Y334.888
G01 X199.859 Y331.208
G01 X199.353 Y330.610
G01 X196.323 Y326.790
G01 X193.544 Y322.871
G01 X191.018 Y318.867
G01 X189.750 Y316.655
G01 X187.583 Y312.584
G01 X185.669 Y308.463
G01 X184.006 Y304.308
G01 X183.936 Y304.118
G01 X182.472 Y299.988
G01 X181.252 Y295.847
G01 X180.273 Y291.708
G01 X180.006 Y290.367
G01 X179.233 Y286.307
G01 X178.687 Y282.271
G01 X178.364 Y278.269
G01 X178.358 Y278.153
G01 X178.153 Y274.236
G01 X178.156 Y270.368
G01 X178.338 Y266.887
G01 X178.605 Y263.164
G01 X179.062 Y259.509
G01 X179.244 Y258.376
G01 X179.796 Y254.833
G01 X180.522 Y251.365
G01 X181.418 Y247.981
G01 X182.137 Y245.680
G01 X183.134 Y242.435
G01 X184.283 Y239.277
G01 X185.580 Y236.213
G01 X185.980 Y235.349
G01 X187.901 Y232.542
G01 X189.940 Y229.887
G01 X192.087 Y227.389
G01 X193.703 Y225.681
G01 X195.488 Y223.205
G01 X197.379 Y220.845
G01 X199.192 Y218.795
G01 X200.933 Y216.442
G01 X202.782 Y214.183
G01 X203.745 Y213.092
G01 X205.336 Y210.624
G01 X207.059 Y208.223
G01 X208.910 Y205.898
G01 X210.886 Y203.654
G01 X212.984 Y201.498
G01 X213.053 Y201.431
G01 X214.918 Y198.856
G01 X216.948 Y196.349
G01 X218.328 Y194.789
G01 X220.447 Y192.070
G01 X221.497 Y190.832
G01 X218.287 Y191.674
G01 X215.091 Y192.689
G01 X211.920 Y193.880
G01 X211.018 Y194.252
G01 X207.787 Y195.531
G01 X204.588 Y196.995
G01 X201.433 Y198.643
G01 X199.275 Y199.893
G01 X196.113 Y201.757
G01 X193.012 Y203.813
G01 X192.059 Y204.493
G01 X188.965 Y206.731
G01 X185.953 Y209.164
G01 X183.284 Y211.555
G01 X180.346 Y214.294
G01 X177.518 Y217.231
G01 X174.813 Y220.360
G01 X174.747 Y220.441
G01 X172.076 Y223.728
G01 X169.550 Y227.206
G01 X167.180 Y230.869
G01 X166.446 Y232.097
G01 X164.226 Y235.983
G01 X162.188 Y240.044
G01 X160.347 Y244.271
G01 X160.271 Y244.459
G01 X158.604 Y248.850
G01 X157.156 Y253.390
G01 X155.936 Y258.070
G01 X155.374 Y260.664
G01 X154.514 Y265.538
G01 X153.909 Y270.521
G01 X153.836 Y271.325
G01 X153.570 Y276.409
G01 X153.575 Y281.570
G01 X153.584 Y281.879
G01 X153.916 Y287.092
G01 X154.447 Y291.749
G01 X155.374 Y297.002
G01 X156.037 Y300.025
G01 X157.464 Y305.257
G01 X158.489 Y308.478
G01 X160.469 Y313.608
G01 X162.735 Y318.683
G01 X163.028 Y319.291
G01 X161.422 Y316.853
G01 X159.376 Y313.531
G01 X157.412 Y309.992
G01 X155.738 Y306.699
G01 X153.521 Y301.763
G01 X153.267 Y301.153
G01 X151.663 Y296.961
G01 X150.038 Y291.995
G01 X148.866 Y287.678
G01 X147.975 Y283.790
G01 X147.129 Y279.072
G01 X146.614 Y275.358
G01 X146.332 Y272.468
G01 X146.920 Y277.699
G01 X146.961 Y277.999
G01 X147.860 Y283.216
G01 X147.975 Y283.790
G01 X149.202 Y288.970
G01 X149.275 Y289.244
G01 X150.787 Y294.379
G01 X151.038 Y295.150
G01 X152.467 Y299.057
G01 X154.071 Y303.059
G01 X155.738 Y306.699
G01 X157.969 Y311.025
G01 X160.400 Y315.181
G01 X163.028 Y319.291
G01 X159.632 Y315.012
G01 X158.269 Y313.165
G01 X155.217 Y308.914
G01 X152.549 Y304.898
G01 X149.666 Y300.204
G01 X149.614 Y300.115
G01 X146.968 Y295.422
G01 X144.383 Y290.496
G01 X144.212 Y290.148
G01 X141.818 Y285.088
G01 X141.259 Y283.807
G01 X139.706 Y280.089
G01 X138.650 Y277.311
G01 X139.169 Y271.480
G01 X139.295 Y270.434
G01 X139.175 Y265.293
G01 X138.463 Y259.845
G01 X138.439 Y259.621
G01 X137.332 Y254.907
G01 X135.675 Y250.094
G01 X134.029 Y246.465
G01 X131.976 Y242.700
G01 X129.322 Y238.760
G01 X129.867 Y243.208
G01 X130.661 Y248.416
G01 X131.686 Y253.790
G01 X132.980 Y259.513
G01 X133.214 Y260.424
G01 X134.420 Y264.808
G01 X136.098 Y270.317
G01 X136.098 Y270.318
G01 X137.504 Y274.345
G01 X139.181 Y278.701
G01 X137.141 Y273.388
G01 X136.098 Y270.318
G01 X134.376 Y264.815
G01 X133.214 Y260.424
G01 X131.875 Y254.720
G01 X131.180 Y251.096
G01 X130.151 Y245.220
G01 X130.069 Y244.663
G01 X129.322 Y238.760
G01 X128.783 Y232.675
G01 X128.633 Y229.719
G01 X128.426 Y223.494
G01 X128.541 Y217.201
G01 X128.737 Y213.804
G01 X129.228 Y207.393
G01 X130.060 Y200.944
G01 X130.088 Y200.769
G01 X131.163 Y194.248
G01 X131.804 Y191.120
G01 X133.344 Y184.554
G01 X134.572 Y180.184
G01 X136.638 Y173.594
G01 X137.563 Y170.984
G01 X140.100 Y164.413
G01 X142.577 Y158.824
G01 X145.753 Y152.325
G01 X149.146 Y146.203
G01 X153.028 Y139.867
G01 X156.672 Y134.524
G01 X161.245 Y128.432
G01 X163.568 Y125.574
G01 X168.676 Y119.717
G01 X169.490 Y118.838
G01 X175.027 Y113.230
G01 X175.942 Y112.359
G01 X181.497 Y107.761
G01 X179.199 Y109.339
G01 X176.693 Y111.137
G01 X173.802 Y113.303
G01 X171.338 Y115.227
G01 X167.504 Y118.364
G01 X164.313 Y121.168
G01 X160.815 Y124.392
G01 X155.406 Y129.742
G01 X155.266 Y129.888
G01 X151.126 Y134.389
G01 X146.719 Y139.606
G01 X142.139 Y145.497
G01 X141.770 Y145.999
G01 X137.537 Y152.079
G01 X136.333 Y153.934
G01 X132.502 Y160.197
G01 X132.167 Y160.780
G01 X129.250 Y166.077
G01 X126.011 Y172.560
G01 X125.533 Y173.590
G01 X128.372 Y167.844
G01 X131.805 Y161.416
G01 X132.167 Y160.780
G01 X135.967 Y154.503
G01 X136.333 Y153.934
G01 X139.056 Y149.978
G01 X142.757 Y144.696
G01 X146.008 Y140.482
G01 X148.934 Y137.003
G01 X153.208 Y132.154
G01 X158.035 Y127.130
G01 X163.558 Y121.851
G01 X164.313 Y121.168
G01 X169.425 Y116.799
G01 X175.246 Y112.223
G01 X179.199 Y109.339
G01 X181.497 Y107.761
G01 X178.026 Y109.710
G01 X175.713 Y111.035
G01 X173.450 Y112.412
G01 X170.995 Y113.922
G01 X167.952 Y115.852
G01 X163.547 Y118.797
G01 X159.874 Y121.384
G01 X155.133 Y124.903
G01 X149.521 Y129.397
G01 X143.647 Y134.388
G01 X140.622 Y137.161
G01 X135.576 Y141.990
G01 X130.235 Y147.521
G01 X125.036 Y153.277
G01 X122.193 Y156.682
G01 X117.321 Y162.772
G01 X115.006 Y165.896
G01 X113.593 Y167.867
G01 X112.664 Y173.203
G01 X110.706 Y179.598
G01 X107.595 Y186.308
G01 X103.745 Y192.232
G01 X100.476 Y196.151
G01 X97.638 Y198.988
G01 X95.426 Y200.933
G01 X93.762 Y202.239
G01 X95.339 Y198.769
G01 X97.329 Y194.707
G01 X99.657 Y190.199
G01 X102.320 Y185.379
G01 X105.722 Y179.686
G01 X108.952 Y174.572
G01 X111.827 Y170.322
G01 X115.006 Y165.896
G01 X110.485 Y172.311
G01 X110.395 Y172.446
G01 X106.086 Y179.059
G01 X105.254 Y180.423
G01 X101.262 Y187.292
G01 X100.989 Y187.792
G01 X97.238 Y194.862
G01 X96.321 Y196.729
G01 X92.907 Y204.046
G01 X92.363 Y205.306
G01 X89.246 Y212.837
G01 X87.740 Y216.910
G01 X85.070 Y224.721
G01 X83.757 Y229.115
G01 X81.548 Y237.192
G01 X80.503 Y241.692
G01 X78.778 Y250.019
G01 X77.725 Y256.571
G01 X76.623 Y265.159
G01 X76.011 Y272.787
G01 X75.613 Y281.609
G01 X75.592 Y282.986
G01 X75.629 Y291.935
G01 X75.852 Y296.985
G01 X76.511 Y306.073
G01 X77.326 Y312.977
G01 X78.727 Y322.173
G01 X80.620 Y331.382
G01 X81.843 Y336.335
G01 X84.417 Y345.558
G01 X86.763 Y352.688
G01 X90.159 Y361.862
G01 X94.066 Y370.947
G01 X97.028 Y377.085
G01 X101.754 Y385.992
G01 X106.991 Y394.737
G01 X107.420 Y395.411
G01 X113.183 Y403.969
G01 X116.223 Y408.128
G01 X122.725 Y416.355
G01 X129.587 Y424.180
G01 X137.067 Y431.831
G01 X142.997 Y437.375
G01 X151.284 Y444.440
G01 X153.292 Y446.045
G01 X162.142 Y452.596
G01 X165.007 Y454.571
G01 X174.412 Y460.542
G01 X178.755 Y463.080
G01 X188.662 Y468.581
G01 X188.664 Y468.582
G01 X199.247 Y472.277
G01 X203.405 Y473.571
G01 X214.457 Y475.423
G01 X225.579 Y476.730
G01 X226.652 Y476.827
G01 X237.797 Y477.949
G01 X244.457 Y478.358
G01 X255.660 Y478.007
G01 X266.163 Y477.176
G01 X277.258 Y475.841
G01 X288.262 Y473.965
G01 X289.671 Y473.684
G01 X300.578 Y471.376
G01 X306.877 Y469.785
G01 X299.500 Y473.637
G01 X289.522 Y477.873
G01 X279.290 Y482.664
G01 X270.297 Y487.008
G01 X261.205 Y491.165
G01 X249.440 Y496.474
G01 X237.595 Y491.326
G01 X226.253 Y485.620
G01 X225.706 Y485.324
G01 X214.684 Y480.613
G01 X214.021 Y480.307
G01 X206.587 Y476.502
G01 X217.549 Y479.806
G01 X222.993 Y481.228
G01 X234.116 Y486.077
G01 X234.604 Y486.274
G01 X244.509 Y491.112
G01 X248.720 Y492.872
G01 X260.388 Y486.918
G01 X264.022 Y484.882
G01 X275.203 Y480.910
G01 X278.220 Y479.723
G01 X289.078 Y475.865
G01 X289.538 Y475.688
G01 X278.544 Y478.378
G01 X267.381 Y480.531
G01 X262.578 Y481.283
G01 X251.219 Y482.609
G01 X249.332 Y482.774
G01 X260.629 Y483.809
G01 X249.792 Y488.650
G01 X244.157 Y481.176
G01 X232.843 Y480.308
G01 X224.655 Y479.329
G01 X235.791 Y482.702
G01 X242.572 Y484.457
G01 X247.094 Y488.732
G01 X235.603 Y484.734
G01 X224.496 Y480.191
G01 X219.731 Y478.025
G01 X208.658 Y475.834
G01 X202.089 Y474.264
G01 X192.041 Y470.381
G01 X182.359 Y466.007
G01 X172.058 Y461.840
G01 X164.024 Y458.169
G01 X153.913 Y453.700
G01 X152.244 Y452.904
G01 X142.234 Y448.178
G01 X139.057 Y446.550
G01 X129.211 Y441.401
G01 X119.604 Y435.757
G01 X114.445 Y432.456
G01 X105.226 Y426.108
G01 X96.304 Y419.293
G01 X87.704 Y412.026
G01 X87.148 Y411.531
G01 X78.844 Y403.862
G01 X70.901 Y395.766
G01 X70.850 Y395.711
G01 X63.988 Y386.692
G01 X57.726 Y377.579
G01 X52.660 Y367.418
G01 X49.842 Y361.153
G01 X44.736 Y352.370
G01 X49.625 Y362.533
G01 X52.796 Y368.512
G01 X55.878 Y380.035
G01 X59.624 Y391.537
G01 X61.485 Y396.587
G01 X62.008 Y390.385
G01 X57.346 Y379.646
G01 X54.847 Y373.176
G01 X60.877 Y382.778
G01 X65.562 Y389.579
G01 X63.252 Y398.630
G01 X73.775 Y404.102
G01 X67.559 Y394.607
G01 X75.600 Y402.748
G01 X76.965 Y404.052
G01 X85.474 Y411.628
G01 X94.309 Y418.741
G01 X98.168 Y421.629
G01 X88.355 Y415.585
G01 X87.938 Y415.312
G01 X77.819 Y409.197
G01 X75.070 Y407.408
G01 X63.115 Y402.254
G01 X59.282 Y400.423
G01 X58.032 Y396.033
G01 X55.619 Y385.286
G01 X52.446 Y373.564
G01 X52.325 Y373.060
G01 X47.801 Y362.502
G01 X45.791 Y357.282
G01 X47.473 Y365.456
G01 X50.601 Y377.026
G01 X50.814 Y377.735
G01 X53.388 Y390.159
G01 X56.711 Y402.631
G01 X56.895 Y403.248
G01 X68.401 Y409.122
G01 X77.304 Y413.623
G01 X86.323 Y417.964
G01 X96.449 Y422.979
G01 X105.964 Y428.127
G01 X113.594 Y431.508
G01 X104.792 Y424.669
G01 X99.800 Y420.470
G01 X91.428 Y413.088
G01 X83.419 Y405.295
G01 X82.430 Y404.279
G01 X74.785 Y396.101
G01 X67.953 Y388.056
G01 X61.618 Y378.807
G01 X58.069 Y373.164
G01 X52.102 Y363.687
G01 X46.603 Y353.921
G01 X46.098 Y352.967
G01 X42.181 Y342.442
G01 X40.808 Y338.328
G01 X38.940 Y327.169
G01 X37.484 Y316.074
G01 X37.019 Y311.111
G01 X36.463 Y300.075
G01 X36.405 Y296.627
G01 X36.611 Y285.716
G01 X36.740 Y283.175
G01 X37.668 Y272.428
G01 X38.719 Y264.458
G01 X40.584 Y254.029
G01 X42.912 Y243.998
G01 X45.776 Y234.025
G01 X47.364 Y229.203
G01 X50.901 Y219.632
G01 X54.883 Y210.357
G01 X55.211 Y209.647
G01 X59.600 Y200.700
G01 X64.392 Y192.086
G01 X67.885 Y186.403
G01 X73.236 Y178.359
G01 X77.618 Y172.383
G01 X83.468 Y164.954
G01 X89.626 Y157.910
G01 X93.062 Y154.282
G01 X99.559 Y147.791
G01 X104.655 Y143.140
G01 X111.505 Y137.301
G01 X115.427 Y134.219
G01 X122.541 Y128.963
G01 X123.662 Y128.185
G01 X130.914 Y123.326
G01 X137.409 Y119.411
G01 X144.889 Y115.245
G01 X150.760 Y112.312
G01 X158.390 Y108.772
G01 X162.636 Y107.000
G01 X170.360 Y103.990
G01 X174.648 Y102.509
G01 X182.445 Y100.030
G01 X186.619 Y98.878
G01 X194.468 Y96.937
G01 X195.786 Y96.651
G01 X203.643 Y95.070
G01 X205.683 Y94.726
G01 X213.540 Y93.533
G01 X214.103 Y93.463
G01 X221.959 Y92.628
G01 X223.545 Y92.506
G01 X231.379 Y92.031
G01 X231.541 Y92.025
G01 X226.098 Y92.301
G01 X220.983 Y92.704
G01 X214.981 Y93.341
G01 X208.399 Y94.260
G01 X202.970 Y95.186
G01 X197.987 Y96.155
G01 X193.571 Y97.133
G01 X189.874 Y98.064
G01 X191.948 Y98.544
G01 X194.841 Y99.090
G01 X198.829 Y99.538
G01 X203.932 Y99.649
G01 X210.963 Y98.963
G01 X218.148 Y97.210
G01 X224.365 Y94.727
G01 X229.119 Y92.150
G01 X231.541 Y92.025
G01 X239.350 Y91.842
G01 X243.225 Y91.895
G01 X250.989 Y92.151
G01 X255.402 Y92.468
G01 X263.055 Y93.218
G01 X269.979 Y94.125
G01 X277.583 Y95.406
G01 X281.613 Y96.241
G01 X288.605 Y97.846
G01 X294.311 Y99.357
G01 X298.639 Y100.619
G01 X303.687 Y102.225
G01 X307.093 Y103.400
G01 X309.790 Y104.371
G01 X312.277 Y105.281
G01 X314.769 Y106.269
G01 X318.443 Y107.760
G01 X315.791 Y106.954
G01 X311.072 Y105.664
G01 X303.851 Y103.962
G01 X297.256 Y102.668
G01 X289.679 Y101.614
G01 X288.674 Y101.503
G01 X281.757 Y100.843
G01 X275.286 Y100.524
G01 X270.739 Y100.431
G01 X265.420 Y100.493
G01 X258.984 Y100.895
G01 X254.193 Y101.234
G01 X246.908 Y102.146
G01 X246.243 Y102.248
G01 X239.067 Y103.539
G01 X238.355 Y103.688
G01 X232.078 Y105.054
G01 X239.148 Y103.489
G01 X240.284 Y103.271
G01 X246.243 Y102.248
G01 X253.520 Y101.303
G01 X254.193 Y101.234
G01 X261.562 Y100.660
G01 X263.784 Y100.559
G01 X271.243 Y100.411
G01 X271.870 Y100.415
G01 X278.707 Y100.634
G01 X284.806 Y101.063
G01 X292.367 Y101.920
G01 X292.569 Y101.948
G01 X297.256 Y102.668
G01 X301.429 Y103.436
G01 X306.287 Y104.482
G01 X309.313 Y105.202
G01 X312.823 Y106.117
G01 X315.791 Y106.954
G01 X318.443 Y107.760
G01 X311.400 Y106.292
G01 X303.555 Y105.394
G01 X302.312 Y105.290
G01 X294.539 Y104.884
G01 X293.340 Y104.858
G01 X285.678 Y104.892
G01 X282.045 Y105.050
G01 X274.556 Y105.640
G01 X268.224 Y106.452
G01 X261.009 Y107.668
G01 X254.266 Y109.165
G01 X247.385 Y110.993
G01 X241.619 Y112.831
G01 X235.098 Y115.206
G01 X232.576 Y116.230
G01 X226.337 Y118.929
G01 X222.302 Y120.888
G01 X216.418 Y123.970
G01 X213.682 Y125.541
G01 X208.118 Y128.916
G01 X202.797 Y132.535
G01 X202.646 Y132.644
G01 X197.524 Y136.361
G01 X192.650 Y140.296
G01 X190.142 Y142.490
G01 X185.592 Y146.604
G01 X183.503 Y148.641
G01 X179.353 Y152.907
G01 X175.375 Y157.361
G01 X175.007 Y157.797
G01 X171.222 Y162.309
G01 X168.993 Y165.199
G01 X165.560 Y169.874
G01 X163.056 Y173.625
G01 X160.013 Y178.460
G01 X158.406 Y181.251
G01 X160.766 Y177.221
G01 X163.056 Y173.625
G01 X166.316 Y168.877
G01 X166.317 Y168.876
G01 X168.993 Y165.199
G01 X172.617 Y160.594
G01 X173.226 Y159.865
G01 X176.788 Y155.711
G01 X180.355 Y151.849
G01 X183.503 Y148.641
G01 X182.077 Y153.173
G01 X180.429 Y157.147
G01 X178.595 Y160.685
G01 X175.866 Y164.983
G01 X172.871 Y168.789
G01 X169.049 Y172.738
G01 X168.897 Y172.904
G01 X164.960 Y176.197
G01 X160.043 Y179.361
G01 X159.162 Y179.968
G01 X157.648 Y182.527
G01 X155.730 Y186.076
G01 X153.203 Y191.081
G01 X152.620 Y192.330
G01 X150.341 Y197.407
G01 X150.188 Y197.773
G01 X148.197 Y202.771
G01 X146.321 Y207.952
G01 X146.288 Y208.049
G01 X144.813 Y212.640
G01 X143.371 Y217.660
G01 X142.032 Y222.961
G01 X141.549 Y225.204
G01 X143.121 Y220.596
G01 X144.858 Y216.091
G01 X146.869 Y211.666
G01 X148.675 Y208.092
G01 X150.781 Y204.331
G01 X152.962 Y200.796
G01 X155.983 Y196.374
G01 X156.463 Y195.712
G01 X159.757 Y191.523
G01 X159.938 Y191.306
G01 X163.438 Y187.328
G01 X163.827 Y186.909
G01 X167.523 Y183.159
G01 X167.739 Y182.950
G01 X165.675 Y184.990
G01 X163.072 Y187.695
G01 X159.938 Y191.306
G01 X157.426 Y194.424
G01 X154.804 Y198.047
G01 X151.940 Y202.405
G01 X149.664 Y206.274
G01 X147.160 Y211.069
G01 X146.869 Y211.666
G01 X145.314 Y215.021
G01 X143.799 Y218.762
G01 X142.453 Y222.427
G01 X141.549 Y225.204
G01 X144.089 Y220.247
G01 X146.851 Y215.480
G01 X147.193 Y214.927
G01 X150.259 Y210.409
G01 X152.249 Y207.727
G01 X155.695 Y203.598
G01 X157.751 Y201.331
G01 X161.495 Y197.600
G01 X164.924 Y194.507
G01 X168.948 Y191.268
G01 X173.083 Y188.288
G01 X173.332 Y188.119
G01 X177.585 Y185.434
G01 X181.915 Y183.015
G01 X182.602 Y182.659
G01 X187.002 Y180.552
G01 X191.444 Y178.711
G01 X195.913 Y177.136
G01 X198.343 Y176.392
G01 X202.802 Y175.191
G01 X207.253 Y174.246
G01 X211.681 Y173.555
G01 X211.864 Y173.532
G01 X216.218 Y173.021
G01 X220.530 Y172.749
G01 X224.785 Y172.712
G01 X226.144 Y172.750
G01 X230.279 Y172.905
G01 X234.340 Y173.277
G01 X238.316 Y173.859
G01 X238.415 Y173.876
G01 X242.282 Y174.544
G01 X246.054 Y175.406
G01 X249.402 Y176.352
G01 X252.974 Y177.437
G01 X256.439 Y178.693
G01 X257.504 Y179.121
G01 X260.836 Y180.451
G01 X264.057 Y181.935
G01 X267.158 Y183.565
G01 X269.235 Y184.777
G01 X272.176 Y186.475
G01 X274.998 Y188.302
G01 X277.694 Y190.252
G01 X278.442 Y190.831
G01 X280.866 Y193.117
G01 X283.136 Y195.497
G01 X285.247 Y197.960
G01 X287.198 Y200.498
G01 X288.987 Y203.100
G01 X290.610 Y205.756
G01 X291.227 Y206.856
G01 X293.148 Y209.069
G01 X294.952 Y211.367
G01 X296.192 Y213.094
G01 X298.213 Y215.213
G01 X300.137 Y217.442
G01 X301.958 Y219.776
G01 X303.669 Y222.211
G01 X304.479 Y223.460
G01 X306.540 Y225.813
G01 X308.499 Y228.305
G01 X309.867 Y230.219
G01 X312.049 Y232.825
G01 X313.945 Y235.357
G01 X313.837 Y232.043
G01 X313.556 Y228.706
G01 X313.100 Y225.353
G01 X312.935 Y224.379
G01 X312.405 Y220.948
G01 X311.688 Y217.508
G01 X310.783 Y214.069
G01 X310.040 Y211.684
G01 X308.934 Y208.184
G01 X307.626 Y204.701
G01 X307.174 Y203.613
G01 X305.685 Y200.096
G01 X303.987 Y196.615
G01 X302.253 Y193.478
G01 X300.234 Y190.007
G01 X297.998 Y186.599
G01 X295.547 Y183.269
G01 X295.482 Y183.186
G01 X292.871 Y179.854
G01 X290.041 Y176.620
G01 X286.994 Y173.497
G01 X285.966 Y172.515
G01 X282.674 Y169.482
G01 X279.169 Y166.587
G01 X275.458 Y163.847
G01 X275.291 Y163.731
G01 X271.381 Y161.126
G01 X267.275 Y158.700
G01 X262.982 Y156.466
G01 X260.577 Y155.339
G01 X256.014 Y153.419
G01 X251.288 Y151.722
G01 X250.530 Y151.476
G01 X245.630 Y150.088
G01 X240.596 Y148.947
G01 X240.302 Y148.889
G01 X235.144 Y148.057
G01 X230.484 Y147.542
G01 X225.152 Y147.265
G01 X222.053 Y147.232
G01 X216.632 Y147.462
G01 X213.273 Y147.746
G01 X207.829 Y148.538
G01 X202.375 Y149.620
G01 X201.728 Y149.768
G01 X204.463 Y148.743
G01 X208.158 Y147.485
G01 X212.036 Y146.359
G01 X215.620 Y145.458
G01 X220.927 Y144.391
G01 X221.579 Y144.279
G01 X226.024 Y143.644
G01 X231.222 Y143.188
G01 X235.690 Y142.977
G01 X239.683 Y142.996
G01 X244.472 Y143.218
G01 X248.209 Y143.540
G01 X251.080 Y143.905
G01 X245.847 Y143.317
G01 X245.556 Y143.292
G01 X240.268 Y143.011
G01 X239.683 Y142.996
G01 X234.355 Y143.021
G01 X234.071 Y143.029
G01 X228.727 Y143.365
G01 X227.919 Y143.439
G01 X223.801 Y143.964
G01 X219.541 Y144.639
G01 X215.620 Y145.458
G01 X210.915 Y146.670
G01 X206.311 Y148.123
G01 X201.728 Y149.768
G01 X206.650 Y147.391
G01 X208.752 Y146.464
G01 X213.575 Y144.459
G01 X218.093 Y142.772
G01 X223.305 Y140.978
G01 X223.403 Y140.947
G01 X228.557 Y139.410
G01 X233.939 Y138.006
G01 X234.328 Y137.915
G01 X239.794 Y136.702
G01 X241.156 Y136.444
G01 X245.128 Y135.754
G01 X248.071 Y135.341
G01 X253.643 Y137.140
G01 X254.635 Y137.495
G01 X259.663 Y138.543
G01 X265.133 Y139.056
G01 X265.357 Y139.083
G01 X270.214 Y139.026
G01 X275.264 Y138.476
G01 X279.174 Y137.703
G01 X283.301 Y136.536
G01 X287.732 Y134.823
G01 X283.273 Y134.367
G01 X278.019 Y133.986
G01 X272.556 Y133.768
G01 X266.685 Y133.782
G01 X265.743 Y133.812
G01 X261.204 Y133.990
G01 X255.458 Y134.429
G01 X255.456 Y134.429
G01 X251.229 Y134.882
G01 X246.597 Y135.551
G01 X252.232 Y134.756
G01 X255.456 Y134.429
G01 X261.204 Y133.970
G01 X265.743 Y133.812
G01 X271.605 Y133.757
G01 X275.296 Y133.873
G01 X281.249 Y134.195
G01 X281.810 Y134.241
G01 X287.732 Y134.823
G01 X293.778 Y135.662
G01 X296.691 Y136.179
G01 X302.805 Y137.358
G01 X308.915 Y138.865
G01 X312.183 Y139.810
G01 X318.324 Y141.712
G01 X324.426 Y143.955
G01 X324.602 Y144.025
G01 X330.719 Y146.522
G01 X333.639 Y147.847
G01 X339.698 Y150.806
G01 X343.686 Y152.973
G01 X349.640 Y156.460
G01 X351.963 Y157.937
G01 X357.804 Y161.869
G01 X362.712 Y165.533
G01 X368.342 Y170.071
G01 X373.556 Y174.736
G01 X378.858 Y179.934
G01 X383.255 Y184.688
G01 X388.178 Y190.496
G01 X390.447 Y193.395
G01 X395.018 Y199.674
G01 X395.703 Y200.676
G01 X399.935 Y207.318
G01 X400.589 Y208.417
G01 X403.832 Y214.837
G01 X402.809 Y212.262
G01 X401.609 Y209.406
G01 X400.141 Y206.107
G01 X398.813 Y203.278
G01 X396.601 Y198.830
G01 X394.600 Y195.090
G01 X392.241 Y190.979
G01 X388.205 Y184.529
G01 X388.093 Y184.360
G01 X384.627 Y179.326
G01 X380.535 Y173.847
G01 X375.792 Y168.086
G01 X375.374 Y167.605
G01 X370.403 Y162.119
G01 X368.867 Y160.531
G01 X363.612 Y155.407
G01 X363.118 Y154.950
G01 X358.621 Y150.915
G01 X353.004 Y146.333
G01 X352.104 Y145.641
G01 X357.075 Y149.684
G01 X362.578 Y154.456
G01 X363.118 Y154.950
G01 X368.393 Y160.047
G01 X368.867 Y160.531
G01 X372.127 Y164.075
G01 X376.454 Y168.855
G01 X379.839 Y172.959
G01 X382.580 Y176.584
G01 X386.364 Y181.840
G01 X390.167 Y187.671
G01 X394.108 Y194.217
G01 X394.600 Y195.090
G01 X397.705 Y201.066
G01 X400.872 Y207.754
G01 X402.809 Y212.262
G01 X403.832 Y214.837
G01 X402.704 Y211.022
G01 X401.927 Y208.473
G01 X401.112 Y205.955
G01 X400.185 Y203.226
G01 X398.956 Y199.840
G01 X397.064 Y194.893
G01 X395.353 Y190.724
G01 X392.977 Y185.323
G01 X389.872 Y178.858
G01 X386.312 Y172.024
G01 X384.274 Y168.447
G01 X380.688 Y162.456
G01 X376.483 Y156.021
G01 X372.038 Y149.666
G01 X369.348 Y146.119
G01 X364.493 Y140.018
G01 X361.961 Y137.068
G01 X360.335 Y135.271
G01 X355.357 Y133.163
G01 X349.557 Y129.834
G01 X343.707 Y125.311
G01 X338.786 Y120.244
G01 X335.691 Y116.186
G01 X333.555 Y112.789
G01 X332.164 Y110.179
G01 X331.247 Y108.289
G01 X334.293 Y110.575
G01 X337.798 Y113.438
G01 X341.676 Y116.708
G01 X345.769 Y120.395
G01 X350.591 Y124.965
G01 X354.831 Y129.258
G01 X358.334 Y133.004
G01 X361.961 Y137.068
G01 X356.710 Y131.236
G01 X356.599 Y131.118
G01 X351.109 Y125.450
G01 X349.964 Y124.335
G01 X344.153 Y118.918
G01 X343.726 Y118.541
G01 X337.667 Y113.315
G01 X336.050 Y112.006
G01 X329.686 Y107.035
G01 X328.579 Y106.222
G01 X321.929 Y101.510
G01 X318.292 Y99.137
G01 X311.269 Y94.800
G01 X307.276 Y92.544
G01 X299.891 Y88.596
G01 X295.735 Y86.579
G01 X287.999 Y83.048
G01 X281.844 Y80.567
G01 X273.718 Y77.569
G01 X266.434 Y75.271
G01 X257.919 Y72.927
G01 X256.563 Y72.596
G01 X247.828 Y70.643
G01 X242.872 Y69.741
G01 X233.863 Y68.367
G01 X226.932 Y67.628
G01 X217.651 Y66.941
G01 X208.248 Y66.731
G01 X203.163 Y66.818
G01 X193.596 Y67.279
G01 X186.121 Y67.984
G01 X176.420 Y69.256
G01 X166.691 Y71.047
G01 X160.065 Y72.566
G01 X150.323 Y75.186
G01 X140.624 Y78.339
G01 X139.871 Y78.607
G01 X130.241 Y82.324
G01 X125.527 Y84.355
G01 X116.058 Y88.867
G01 X106.900 Y93.820
G01 X97.774 Y99.412
G01 X91.064 Y103.950
G01 X82.331 Y110.460
G01 X80.319 Y112.061
G01 X71.961 Y119.236
G01 X69.397 Y121.590
G01 X61.482 Y129.435
G01 X58.041 Y133.106
G01 X50.481 Y141.526
G01 X44.522 Y151.025
G01 X42.335 Y154.792
G01 X38.068 Y165.158
G01 X34.318 Y175.714
G01 X33.985 Y176.739
G01 X30.409 Y187.358
G01 X28.529 Y193.762
G01 X26.377 Y204.766
G01 X24.849 Y215.194
G01 X23.682 Y226.312
G01 X23.062 Y237.460
G01 X23.022 Y238.875
G01 X22.845 Y250.026
G01 X22.994 Y256.523
G01 X20.880 Y248.448
G01 X18.972 Y237.796
G01 X16.580 Y226.751
G01 X14.347 Y217.014
G01 X12.315 Y207.246
G01 X9.733 Y194.585
G01 X17.401 Y184.181
G01 X25.500 Y174.393
G01 X25.911 Y173.926
G01 X32.959 Y164.225
G01 X33.405 Y163.646
G01 X38.769 Y157.243
G01 X33.107 Y167.198
G01 X30.508 Y172.191
G01 X23.282 Y181.952
G01 X22.980 Y182.384
G01 X16.082 Y190.975
G01 X13.430 Y194.690
G01 X16.637 Y207.394
G01 X17.813 Y211.392
G01 X19.182 Y223.178
G01 X19.660 Y226.360
G01 X21.027 Y237.810
G01 X21.099 Y238.299
G01 X20.912 Y226.977
G01 X21.288 Y215.609
G01 X21.618 Y210.779
G01 X22.876 Y199.410
G01 X23.138 Y197.534
G01 X19.615 Y208.321
G01 X17.312 Y196.652
G01 X25.848 Y192.842
G01 X29.213 Y182.002
G01 X31.990 Y174.235
G01 X26.207 Y184.340
G01 X22.977 Y190.560
G01 X17.833 Y194.002
G01 X24.283 Y183.684
G01 X31.179 Y173.861
G01 X34.334 Y169.714
G01 X38.936 Y159.402
G01 X41.920 Y153.365
G01 X48.318 Y144.010
G01 X52.715 Y138.121
G01 X59.078 Y128.978
G01 X59.712 Y128.119
G01 X62.037 Y125.782
G01 X68.359 Y116.709
G01 X69.379 Y115.330
G01 X76.204 Y106.630
G01 X78.420 Y103.985
G01 X85.533 Y95.499
G01 X93.066 Y87.361
G01 X95.629 Y84.766
G01 X103.279 Y76.629
G01 X107.705 Y72.270
G01 X112.324 Y67.696
G01 X121.351 Y61.038
G01 X126.134 Y57.778
G01 X135.437 Y51.449
G01 X142.646 Y46.987
G01 X152.305 Y41.039
G01 X153.069 Y40.596
G01 X141.524 Y24.760
G01 X152.452 Y24.712
G01 X163.570 Y24.710
G01 X176.032 Y24.710
G01 X176.614 Y24.727
G01 X188.421 Y24.714
G01 X198.311 Y24.703
G01 X206.761 Y24.712
G01 X214.563 Y24.720
G01 X224.953 Y24.713
G01 X234.859 Y24.758
G01 X244.767 Y24.711
G01 X254.885 Y24.703
G01 X265.338 Y24.722
G01 X271.849 Y24.707
G01 X282.270 Y24.725
G01 X290.155 Y24.700
G01 X301.437 Y24.723
G01 X312.760 Y24.703
G01 X324.862 Y24.674
G01 X326.107 Y24.708
G01 X336.289 Y24.710
G01 X347.583 Y24.727
G01 X358.421 Y24.734
G01 X366.747 Y35.106
G01 X367.088 Y35.559
G01 X375.042 Y45.530
G01 X375.122 Y45.636
G01 X382.306 Y54.635
G01 X389.772 Y63.973
G01 X390.342 Y64.728
G01 X397.636 Y73.780
G01 X398.987 Y75.566
G01 X406.167 Y84.358
G01 X409.293 Y88.487
G01 X416.288 Y97.176
G01 X417.277 Y98.478
G01 X424.228 Y107.100
G01 X425.781 Y109.151
G01 X429.355 Y113.648
G01 X432.360 Y117.396
G01 X436.085 Y122.058
G01 X440.789 Y127.974
G01 X447.492 Y136.367
G01 X453.864 Y144.379
G01 X461.122 Y153.448
G01 X461.598 Y154.077
G01 X468.705 Y162.997
G01 X475.783 Y171.851
G01 X481.307 Y178.773
G01 X488.845 Y188.244
G01 X493.695 Y194.322
G01 X492.683 Y198.802
G01 X490.980 Y206.219
G01 X489.678 Y211.980
G01 X488.197 Y218.467
G01 X486.711 Y225.025
G01 X485.071 Y232.119
G01 X483.431 Y239.320
G01 X481.821 Y246.333
G01 X479.873 Y254.893
G01 X478.482 Y261.063
G01 X477.296 Y266.230
G01 X476.409 Y270.108
G01 X475.049 Y276.037
G01 X473.517 Y282.726
G01 X472.400 Y287.715
G01 X470.334 Y296.682
G01 X469.130 Y302.044
G01 X467.638 Y308.545
G01 X465.929 Y316.034
G01 X463.480 Y326.928
G01 X463.028 Y328.700
G01 X460.908 Y338.050
G01 X458.410 Y349.281
G01 X457.756 Y351.843
G01 X455.157 Y363.221
G01 X452.921 Y373.070
G01 X450.129 Y385.238
G01 X450.083 Y385.415
G01 X447.210 Y398.083
G01 X447.190 Y398.164
G01 X445.421 Y405.838
G01 X435.914 Y410.408
G01 X426.140 Y415.108
G01 X416.736 Y419.657
G01 X407.129 Y424.273
G01 X397.055 Y429.117
G01 X390.565 Y432.237
G01 X383.106 Y435.851
G01 X377.188 Y438.685
G01 X369.098 Y442.601
G01 X363.793 Y445.146
G01 X357.765 Y448.055
G01 X352.257 Y450.702
G01 X346.820 Y453.325
G01 X341.151 Y456.038
G01 X337.152 Y457.978
G01 X327.134 Y462.810
G01 X326.635 Y463.035
G01 X316.526 Y467.971
G01 X314.448 Y468.910
G01 X304.185 Y474.107
G01 X295.969 Y477.808
G01 X285.224 Y483.018
G01 X284.014 Y483.561
G01 X272.893 Y488.914
G01 X272.774 Y488.967
G01 X265.519 Y492.479
G01 X257.397 Y496.364
G01 X249.979 Y499.950
G01 X240.647 Y495.472
G01 X230.662 Y490.649
G01 X221.902 Y486.436
G01 X213.279 Y482.290
G01 X204.228 Y477.924
G01 X194.938 Y473.466
G01 X186.613 Y469.454
G01 X179.189 Y465.857
G01 X173.009 Y462.907
G01 X167.659 Y460.305
G01 X161.202 Y457.199
G01 X155.366 Y454.407
G01 X148.432 Y451.051
G01 X141.991 Y447.950
G01 X134.999 Y444.582
G01 X124.841 Y439.842
G01 X119.959 Y437.340
G01 X109.613 Y432.436
G01 X107.106 Y431.150
G01 X96.513 Y426.072
G01 X95.611 Y425.608
G01 X84.677 Y420.402
G01 X82.927 Y419.501
G01 X71.555 Y414.093
G01 X69.826 Y413.202
G01 X60.252 Y408.597
G01 X54.513 Y405.836
G01 X51.986 Y394.742
G01 X49.060 Y382.260
G01 X48.554 Y379.721
G01 X45.800 Y367.739
G01 X45.731 Y367.394
G01 X43.092 Y355.760
G01 X43.077 Y355.686
G01 X40.669 Y345.171
G01 X38.270 Y334.718
G01 X35.722 Y323.760
G01 X35.347 Y321.900
G01 X32.885 Y311.053
G01 X32.858 Y310.917
G01 X30.351 Y300.139
G01 X30.116 Y298.988
G01 X27.662 Y288.194
G01 X27.626 Y288.014
G01 X24.978 Y277.184
G01 X23.628 Y270.522
G01 X20.977 Y259.469
G01 X19.968 Y254.466
G01 X17.123 Y243.087
G01 X15.258 Y233.803
G01 X12.410 Y221.839
G01 X11.609 Y217.841
G01 X8.798 Y205.488
G01 X6.279 Y194.324
G01 X13.948 Y184.673
G01 X19.943 Y177.120
G01 X26.222 Y169.254
G01 X32.301 Y161.634
G01 X37.734 Y154.829
G01 X44.407 Y146.446
G01 X51.307 Y137.817
G01 X58.107 Y129.294
G01 X65.018 Y120.554
G01 X65.790 Y119.631
G01 X72.626 Y110.919
G01 X75.194 Y107.862
G01 X81.995 Y99.111
G01 X85.571 Y94.845
G01 X92.467 Y86.010
G01 X95.355 Y82.564
G01 X102.442 Y73.607
G01 X103.890 Y71.886
G01 X111.122 Y62.660
G01 X113.398 Y59.949
G01 X120.865 Y50.347
G01 X124.317 Y46.245
G01 X128.437 Y41.095
G01 X136.498 Y30.871
G01 X137.952 Y29.148
G01 X141.527 Y24.759
G01 X155.668 Y45.399
G01 X165.822 Y41.018
G01 X176.178 Y37.141
G01 X186.712 Y33.776
G01 X197.398 Y30.933
G01 X208.210 Y28.617
G01 X219.124 Y26.835
G01 X230.111 Y25.590
G01 X241.147 Y24.886
G01 X252.203 Y24.724
G01 X263.254 Y25.105
G01 X274.273 Y26.028
G01 X285.233 Y27.490
G01 X296.109 Y29.488
G01 X306.873 Y32.018
G01 X317.500 Y35.072
G01 X327.964 Y38.644
G01 X338.240 Y42.726
G01 X338.906 Y43.011
G01 X348.955 Y47.624
G01 X358.764 Y52.725
G01 X368.312 Y58.301
G01 X377.575 Y64.339
G01 X386.530 Y70.824
G01 X395.156 Y77.741
G01 X403.432 Y85.072
G01 X411.339 Y92.800
G01 X418.856 Y100.908
G01 X425.967 Y109.374
G01 X432.654 Y118.179
G01 X438.900 Y127.301
G01 X444.597 Y136.556
G01 X449.927 Y146.242
G01 X454.775 Y156.178
G01 X459.129 Y166.340
G01 X462.980 Y176.703
G01 X466.318 Y187.242
G01 X469.134 Y197.933
G01 X471.422 Y208.748
G01 X473.177 Y219.663
G01 X474.394 Y230.650
G01 X475.071 Y241.684
G01 X475.205 Y252.738
G01 X474.797 Y263.785
G01 X473.847 Y274.798
G01 X472.358 Y285.752
G01 X470.334 Y296.619
G01 X467.779 Y307.373
G01 X464.699 Y317.989
G01 X461.102 Y328.441
G01 X456.996 Y338.704
G01 X454.284 Y344.778
G01 X449.388 Y354.688
G01 X444.011 Y364.345
G01 X438.166 Y373.727
G01 X431.869 Y382.811
G01 X425.133 Y391.575
G01 X417.975 Y399.998
G01 X410.413 Y408.059
G01 X402.464 Y415.740
G01 X394.148 Y423.021
G01 X385.485 Y429.886
G01 X376.495 Y436.317
G01 X367.200 Y442.300
G01 X357.623 Y447.819
G01 X347.787 Y452.861
G01 X337.716 Y457.415
G01 X327.432 Y461.469
G01 X316.963 Y465.014
G01 X308.090 Y467.579
G01 X297.345 Y470.168
G01 X286.485 Y472.227
G01 X275.537 Y473.751
G01 X264.527 Y474.735
G01 X253.482 Y475.179
G01 X242.429 Y475.079
G01 X231.394 Y474.438
G01 X220.404 Y473.256
G01 X209.484 Y471.536
G01 X198.663 Y469.282
G01 X187.965 Y466.500
G01 X177.416 Y463.196
G01 X167.042 Y459.379
G01 X156.867 Y455.057
G01 X146.917 Y450.241
G01 X137.216 Y444.943
G01 X127.786 Y439.175
G01 X118.650 Y432.951
G01 X109.830 Y426.287
G01 X101.348 Y419.197
G01 X93.225 Y411.700
G01 X85.478 Y403.814
G01 X81.778 Y399.758
G01 X74.630 Y391.325
G01 X67.904 Y382.552
G01 X61.617 Y373.459
G01 X55.783 Y364.068
G01 X50.417 Y354.402
G01 X45.532 Y344.485
G01 X41.140 Y334.339
G01 X37.250 Y323.991
G01 X33.873 Y313.463
G01 X31.016 Y302.783
G01 X28.687 Y291.974
G01 X26.891 Y281.065
G01 X25.633 Y270.080
G01 X24.915 Y259.047
G01 X24.739 Y247.992
G01 X25.106 Y236.941
G01 X25.623 Y229.909
G01 X26.877 Y218.923
G01 X28.669 Y208.012
G01 X30.995 Y197.202
G01 X33.848 Y186.519
G01 X37.221 Y175.989
G01 X41.108 Y165.637
G01 X45.497 Y155.488
G01 X50.380 Y145.567
G01 X55.743 Y135.897
G01 X61.575 Y126.502
G01 X67.860 Y117.404
G01 X74.584 Y108.626
G01 X81.731 Y100.188
G01 X89.284 Y92.110
G01 X97.224 Y84.413
G01 X103.485 Y78.847
G01 X112.060 Y71.864
G01 X120.967 Y65.310
G01 X130.184 Y59.201
G01 X139.691 Y53.552
G01 X149.463 Y48.376
G01 X159.477 Y43.685
G01 X169.710 Y39.492
G01 X180.135 Y35.806
G01 X190.730 Y32.636
G01 X201.467 Y29.990
G01 X212.320 Y27.873
G01 X216.913 Y27.143
G01 X219.335 Y26.898
G01 X229.688 Y27.877
G01 X240.703 Y29.333
G01 X244.875 Y30.035
G01 X255.620 Y32.191
G01 X256.272 Y32.340
G01 X266.767 Y35.182
G01 X267.888 Y35.520
G01 X278.084 Y38.954
G01 X282.846 Y40.762
G01 X292.555 Y45.121
G01 X294.146 Y45.895
G01 X303.520 Y50.497
G01 X308.570 Y53.232
G01 X317.367 Y58.579
G01 X320.086 Y60.362
G01 X328.411 Y66.128
G01 X335.017 Y71.182
G01 X342.683 Y77.442
G01 X346.566 Y80.877
G01 X353.556 Y87.687
G01 X356.524 Y90.802
G01 X362.853 Y98.045
G01 X368.730 Y105.521
G01 X371.063 Y108.726
G01 X376.568 Y116.191
G01 X381.635 Y123.853
G01 X386.258 Y131.686
G01 X386.449 Y132.031
G01 X390.607 Y140.015
G01 X394.313 Y148.121
G01 X394.779 Y149.223
G01 X398.152 Y157.322
G01 X401.082 Y165.508
G01 X402.273 Y169.270
G01 X404.672 Y177.485
G01 X406.635 Y185.740
G01 X407.521 Y190.243
G01 X409.066 Y198.432
G01 X410.189 Y206.628
G01 X410.211 Y206.833
G01 X410.986 Y214.996
G01 X411.096 Y216.708
G01 X411.482 Y224.817
G01 X411.517 Y229.805
G01 X411.360 Y237.826
G01 X411.167 Y241.323
G01 X410.616 Y249.245
G01 X409.735 Y256.699
G01 X408.567 Y264.469
G01 X407.779 Y268.627
G01 X406.167 Y276.261
G01 X404.925 Y281.149
G01 X402.830 Y288.617
G01 X401.090 Y293.940
G01 X398.563 Y301.235
G01 X396.448 Y306.585
G01 X393.435 Y313.676
G01 X390.512 Y319.758
G01 X387.002 Y326.615
G01 X384.745 Y330.626
G01 X380.789 Y337.249
G01 X380.146 Y338.259
G01 X375.925 Y344.739
G01 X373.362 Y348.360
G01 X376.564 Y341.126
G01 X376.862 Y340.398
G01 X379.408 Y332.951
G01 X379.700 Y332.005
G01 X381.790 Y324.537
G01 X382.047 Y323.500
G01 X383.658 Y316.025
G01 X384.115 Y313.469
G01 X384.973 Y306.575
G01 X385.792 Y299.233
G01 X386.220 Y291.949
G01 X386.275 Y289.646
G01 X386.230 Y282.476
G01 X385.815 Y275.407
G01 X385.328 Y270.690
G01 X384.398 Y263.841
G01 X383.126 Y257.134
G01 X382.502 Y254.402
G01 X380.934 Y247.921
G01 X379.054 Y241.604
G01 X378.607 Y240.260
G01 X376.521 Y234.144
G01 X374.872 Y229.927
G01 X372.373 Y224.112
G01 X370.097 Y219.438
G01 X367.163 Y213.979
G01 X365.780 Y211.620
G01 X362.693 Y206.397
G01 X360.288 Y202.708
G01 X356.885 Y197.817
G01 X354.883 Y195.171
G01 X351.293 Y190.545
G01 X347.502 Y186.138
G01 X343.526 Y181.959
G01 X342.239 Y180.693
G01 X338.177 Y176.708
G01 X334.732 Y173.622
G01 X330.476 Y169.960
G01 X326.066 Y166.531
G01 X325.442 Y166.073
G01 X320.967 Y162.799
G01 X316.353 Y159.761
G01 X316.265 Y159.706
G01 X311.614 Y156.777
G01 X306.835 Y154.087
G01 X305.169 Y153.220
G01 X300.726 Y151.269
G01 X298.219 Y149.771
G01 X302.419 Y153.474
G01 X302.610 Y153.653
G01 X305.774 Y156.321
G01 X308.889 Y159.527
G01 X312.483 Y163.596
G01 X312.885 Y164.079
G01 X315.863 Y167.969
G01 X318.802 Y172.435
G01 X319.722 Y173.948
G01 X322.411 Y178.410
G01 X323.340 Y180.086
G01 X325.442 Y184.840
G01 X325.632 Y185.308
G01 X327.518 Y190.024
G01 X328.927 Y194.130
G01 X330.374 Y198.833
G01 X331.312 Y202.490
G01 X332.208 Y207.233
G01 X332.838 Y211.947
G01 X332.897 Y212.523
G01 X333.255 Y217.180
G01 X333.359 Y221.781
G01 X333.268 Y225.316
G01 X332.880 Y229.797
G01 X332.255 Y234.179
G01 X331.750 Y236.858
G01 X331.002 Y241.029
G01 X330.045 Y245.094
G01 X328.887 Y249.043
G01 X328.650 Y249.765
G01 X327.426 Y253.572
G01 X326.021 Y257.258
G01 X324.444 Y260.815
G01 X322.808 Y264.041
G01 X321.052 Y267.357
G01 X319.147 Y270.535
G01 X317.104 Y273.569
G01 X314.933 Y276.453
G01 X314.679 Y276.769
G01 X312.510 Y279.543
G01 X310.226 Y282.169
G01 X307.838 Y284.644
G01 X305.353 Y286.962
G01 X305.252 Y287.051
G01 X302.912 Y289.379
G01 X301.280 Y290.871
G01 X298.628 Y292.146
G01 X296.657 Y293.111
G01 X293.820 Y294.669
G01 X290.943 Y296.055
G01 X288.038 Y297.268
G01 X287.816 Y297.353
G01 X285.162 Y298.757
G01 X282.462 Y300.015
G01 X281.054 Y300.607
G01 X278.464 Y301.942
G01 X275.818 Y303.146
G01 X275.626 Y303.228
G01 X273.051 Y304.582
G01 X270.405 Y305.812
G01 X269.257 Y306.298
G01 X266.635 Y307.740
G01 X263.916 Y309.060
G01 X261.108 Y310.250
G01 X260.821 Y310.363
G01 X257.975 Y311.819
G01 X255.348 Y312.998
G01 X252.298 Y314.540
G01 X249.973 Y315.575
G01 X246.817 Y314.245
G01 X243.792 Y312.767
G01 X241.647 Y311.586
G01 X238.777 Y310.337
G01 X236.010 Y308.957
G01 X234.564 Y308.162
G01 X231.860 Y306.924
G01 X229.754 Y305.843
G01 X227.066 Y304.716
G01 X224.440 Y303.459
G01 X221.882 Y302.077
G01 X221.624 Y301.928
G01 X218.894 Y300.827
G01 X216.204 Y299.582
G01 X213.561 Y298.195
G01 X211.961 Y297.270
G01 X209.051 Y296.063
G01 X206.169 Y294.682
G01 X203.326 Y293.127
G01 X203.174 Y293.039
G01 X200.041 Y291.586
G01 X198.659 Y290.875
G01 X197.734 Y287.573
G01 X197.008 Y284.282
G01 X196.592 Y281.832
G01 X195.775 Y278.811
G01 X195.125 Y275.788
G01 X194.817 Y273.996
G01 X194.097 Y271.112
G01 X193.666 Y268.993
G01 X192.941 Y266.167
G01 X192.358 Y263.315
G01 X192.322 Y263.115
G01 X191.575 Y260.300
G01 X190.965 Y257.442
G01 X190.754 Y256.255
G01 X189.930 Y253.373
G01 X189.246 Y250.426
G01 X188.709 Y247.419
G01 X188.648 Y247.009
G01 X187.824 Y243.899
G01 X187.160 Y240.702
G01 X187.026 Y239.926
G01 X186.219 Y236.559
G01 X185.979 Y235.353
G01 X188.086 Y232.598
G01 X189.851 Y230.519
G01 X191.686 Y227.897
G01 X193.632 Y225.407
G01 X195.679 Y223.054
G01 X196.442 Y222.239
G01 X198.194 Y219.833
G01 X200.053 Y217.533
G01 X201.460 Y215.936
G01 X203.118 Y213.539
G01 X204.893 Y211.222
G01 X206.784 Y208.992
G01 X208.395 Y207.255
G01 X210.125 Y204.791
G01 X211.997 Y202.395
G01 X214.009 Y200.075
G01 X214.857 Y199.165
G01 X216.750 Y196.466
G01 X218.825 Y193.833
G01 X221.080 Y191.277
G01 X221.500 Y190.831
G01 X224.915 Y190.633
G01 X228.279 Y190.625
G01 X231.583 Y190.800
G01 X231.978 Y190.834
G01 X235.035 Y190.547
G01 X238.077 Y190.416
G01 X241.095 Y190.440
G01 X244.082 Y190.614
G01 X246.150 Y190.825
G01 X249.057 Y190.675
G01 X251.970 Y190.668
G01 X254.882 Y190.804
G01 X255.157 Y190.824
G01 X258.121 Y190.662
G01 X261.113 Y190.650
G01 X264.125 Y190.789
G01 X264.602 Y190.825
G01 X267.767 Y190.680
G01 X270.981 Y190.705
G01 X273.326 Y190.832
G01 X276.772 Y190.785
G01 X278.444 Y190.832
G01 X280.635 Y193.549
G01 X281.041 Y194.089
G01 X283.137 Y196.662
G01 X283.683 Y197.383
G01 X285.676 Y199.869
G01 X285.986 Y200.282
G01 X287.999 Y202.586
G01 X289.873 Y204.967
G01 X291.225 Y206.853
G01 X293.113 Y209.098
G01 X294.880 Y211.424
G01 X294.916 Y211.474
G01 X296.838 Y213.657
G01 X298.654 Y215.937
G01 X300.336 Y218.275
G01 X302.264 Y220.540
G01 X304.089 Y222.918
G01 X304.480 Y223.463
G01 X306.500 Y225.833
G01 X308.416 Y228.338
G01 X308.898 Y229.015
G01 X310.997 Y231.586
G01 X311.902 Y232.790
G01 X313.944 Y235.353
G01 X313.304 Y238.736
G01 X312.490 Y242.021
G01 X312.153 Y243.187
G01 X311.658 Y246.291
G01 X311.010 Y249.329
G01 X310.215 Y252.295
G01 X309.725 Y253.865
G01 X309.297 Y256.772
G01 X308.728 Y259.646
G01 X308.020 Y262.481
G01 X307.176 Y265.270
G01 X307.013 Y265.756
G01 X306.541 Y268.656
G01 X305.921 Y271.548
G01 X305.152 Y274.424
G01 X304.682 Y275.946
G01 X304.105 Y279.006
G01 X303.358 Y282.072
G01 X302.960 Y283.471
G01 X302.328 Y286.785
G01 X301.496 Y290.115
G01 X301.280 Y290.871
G01 X298.215 Y292.460
G01 X295.138 Y293.842
G01 X292.275 Y295.299
G01 X289.840 Y296.391
G01 X287.132 Y297.796
G01 X284.382 Y299.048
G01 X283.947 Y299.231
G01 X281.138 Y300.270
G01 X278.311 Y301.153
G01 X277.824 Y301.289
G01 X276.235 Y302.232
G01 X273.617 Y303.402
G01 X270.947 Y304.442
G01 X268.232 Y305.348
G01 X267.146 Y305.669
G01 X264.379 Y306.387
G01 X261.583 Y306.967
G01 X258.765 Y307.408
G01 X257.639 Y307.545
G01 X254.802 Y307.799
G01 X251.958 Y307.914
G01 X249.115 Y307.889
G01 X247.973 Y307.839
G01 X245.141 Y307.634
G01 X242.323 Y307.289
G01 X239.528 Y306.808
G01 X238.412 Y306.575
G01 X235.657 Y305.910
G01 X232.940 Y305.111
G01 X230.266 Y304.180
G01 X229.216 Y303.773
G01 X226.623 Y302.641
G01 X224.092 Y301.385
G01 X221.627 Y300.007
G01 X220.671 Y299.428
G01 X218.313 Y297.881
G01 X216.037 Y296.221
G01 X213.847 Y294.453
G01 X213.000 Y293.720
G01 X210.935 Y291.815
G01 X208.967 Y289.811
G01 X207.102 Y287.716
G01 X206.385 Y286.853
G01 X204.659 Y284.646
G01 X203.043 Y282.359
G01 X201.544 Y279.997
G01 X200.974 Y279.027
G01 X199.634 Y276.573
G01 X198.418 Y274.057
G01 X197.327 Y271.486
G01 X196.930 Y270.454
G01 X196.025 Y267.814
G01 X195.252 Y265.134
G01 X194.611 Y262.421
G01 X194.394 Y261.339
G01 X193.963 Y258.588
G01 X193.668 Y255.822
G01 X193.509 Y253.048
G01 X193.484 Y251.954
G01 X193.507 Y249.180
G01 X193.667 Y246.412
G01 X193.962 Y243.658
G01 X194.116 Y242.573
G01 X194.584 Y239.846
G01 X195.185 Y237.148
G01 X195.917 Y234.484
G01 X196.246 Y233.429
G01 X197.152 Y230.821
G01 X198.184 Y228.263
G01 X199.339 Y225.759
G01 X199.828 Y224.789
G01 X201.157 Y222.376
G01 X202.603 Y220.032
G01 X204.161 Y217.764
G01 X204.801 Y216.897
G01 X206.525 Y214.756
G01 X208.351 Y212.704
G01 X210.273 Y210.747
G01 X211.048 Y210.011
G01 X213.091 Y208.186
G01 X215.219 Y206.466
G01 X217.427 Y204.854
G01 X218.313 Y204.252
G01 X220.620 Y202.790
G01 X222.993 Y201.444
G01 X225.428 Y200.217
G01 X226.407 Y199.764
G01 X228.912 Y198.694
G01 X231.465 Y197.749
G01 X234.059 Y196.931
G01 X235.086 Y196.645
G01 X237.730 Y196.014
G01 X240.401 Y195.513
G01 X243.090 Y195.144
G01 X244.143 Y195.036
G01 X246.850 Y194.874
G01 X249.559 Y194.845
G01 X252.264 Y194.949
G01 X253.310 Y195.025
G01 X255.998 Y195.304
G01 X258.666 Y195.716
G01 X261.309 Y196.257
G01 X262.336 Y196.504
G01 X264.932 Y197.223
G01 X267.487 Y198.068
G01 X269.996 Y199.037
G01 X270.970 Y199.452
G01 X273.412 Y200.568
G01 X275.795 Y201.803
G01 X278.114 Y203.152
G01 X279.004 Y203.711
G01 X281.215 Y205.226
G01 X283.347 Y206.847
G01 X285.396 Y208.569
G01 X286.171 Y209.267
G01 X288.090 Y211.127
G01 X289.913 Y213.078
G01 X291.637 Y215.114
G01 X292.278 Y215.926
G01 X293.846 Y218.080
G01 X295.303 Y220.307
G01 X296.649 Y222.599
G01 X297.144 Y223.514
G01 X298.348 Y225.879
G01 X299.433 Y228.298
G01 X300.397 Y230.766
G01 X300.745 Y231.755
G01 X301.536 Y234.279
G01 X302.203 Y236.838
G01 X302.743 Y239.424
G01 X302.921 Y240.454
G01 X303.289 Y243.067
G01 X303.528 Y245.693
G01 X303.638 Y248.326
G01 X303.646 Y249.358
G01 X303.561 Y251.990
G01 X303.348 Y254.611
G01 X303.006 Y257.216
G01 X302.838 Y258.231
G01 X302.305 Y260.800
G01 X301.648 Y263.337
G01 X300.868 Y265.836
G01 X300.528 Y266.808
G01 X299.594 Y269.249
G01 X298.543 Y271.638
G01 X297.377 Y273.971
G01 X296.879 Y274.887
G01 X295.563 Y277.134
G01 X294.140 Y279.313
G01 X292.613 Y281.417
G01 X291.974 Y282.237
G01 X290.314 Y284.234
G01 X288.558 Y286.146
G01 X286.713 Y287.968
G01 X285.958 Y288.664
G01 X283.984 Y290.342
G01 X281.933 Y291.920
G01 X279.808 Y293.394
G01 X278.948 Y293.948
G01 X276.727 Y295.265
G01 X274.446 Y296.469
G01 X272.111 Y297.560
G01 X271.173 Y297.959
G01 X268.776 Y298.892
G01 X266.339 Y299.706
G01 X263.866 Y300.398
G01 X262.864 Y300.642
G01 X260.355 Y301.169
G01 X257.825 Y301.572
G01 X255.281 Y301.850
G01 X254.255 Y301.926
G01 X251.701 Y302.035
G01 X249.146 Y302.019
G01 X246.597 Y301.878
G01 X245.580 Y301.787
G01 X243.050 Y301.464
G01 X240.541 Y301.017
G01 X238.060 Y300.449
G01 X237.081 Y300.189
G01 X234.649 Y299.445
G01 X232.259 Y298.584
G01 X229.916 Y297.608
G01 X229.003 Y297.190
G01 X226.739 Y296.050
G01 X224.537 Y294.802
G01 X222.401 Y293.449
G01 X221.562 Y292.876
G01 X219.514 Y291.400
G01 X217.542 Y289.825
G01 X215.652 Y288.157
G01 X214.916 Y287.461
G01 X213.141 Y285.674
G01 X211.457 Y283.803
G01 X209.868 Y281.853
G01 X209.259 Y281.052
G01 X207.821 Y278.990
G01 X206.487 Y276.863
G01 X205.260 Y274.674
G01 X204.805 Y273.791
G01 X203.738 Y271.523
G01 X202.786 Y269.208
G01 X201.949 Y266.851
G01 X201.650 Y265.908
G01 X200.977 Y263.502
G01 X200.424 Y261.069
G01 X199.991 Y258.615
G01 X199.853 Y257.638
G01 X199.583 Y255.164
G01 X199.434 Y252.681
G01 X199.408 Y250.197
G01 X199.431 Y249.204
G01 X199.561 Y246.725
G01 X199.811 Y244.258
G01 X200.183 Y241.807
G01 X200.364 Y240.837
G01 X200.909 Y238.421
G01 X201.572 Y236.036
G01 X202.350 Y233.689
G01 X202.686 Y232.780
G01 X203.636 Y230.499
G01 X204.695 Y228.270
G01 X205.861 Y226.098
G01 X206.347 Y225.263
G01 X207.657 Y223.179
G01 X209.066 Y221.163
G01 X210.571 Y219.221
G01 X211.186 Y218.481
G01 X212.812 Y216.644
G01 X214.525 Y214.890
G01 X216.320 Y213.224
G01 X217.053 Y212.590
G01 X218.947 Y211.041
G01 X220.913 Y209.588
G01 X222.947 Y208.235
G01 X223.766 Y207.729
G01 X225.889 Y206.525
G01 X228.068 Y205.428
G01 X230.296 Y204.439
G01 X231.177 Y204.083
G01 X233.470 Y203.264
G01 X235.798 Y202.559
G01 X238.155 Y201.969
G01 X239.076 Y201.772
G01 X241.466 Y201.352
G01 X243.870 Y201.050
G01 X246.284 Y200.867
G01 X247.226 Y200.828
G01 X249.643 Y200.795
G01 X252.056 Y200.881
G01 X254.459 Y201.085
G01 X255.402 Y201.198
G01 X257.785 Y201.558
G01 X260.145 Y202.035
G01 X262.476 Y202.626
G01 X263.382 Y202.889
G01 X265.665 Y203.637
G01 X267.908 Y204.496
G01 X270.104 Y205.463
G01 X270.946 Y205.869
G01 X273.062 Y206.995
G01 X275.118 Y208.223
G01 X277.109 Y209.549
G01 X277.862 Y210.088
G01 X279.751 Y211.550
G01 X281.564 Y213.101
G01 X283.296 Y214.737
G01 X283.945 Y215.394
G01 X285.564 Y217.136
G01 X287.094 Y218.954
G01 X288.532 Y220.843
G01 X289.072 Y221.605
G01 X290.381 Y223.581
G01 X291.591 Y225.616
G01 X292.698 Y227.707
G01 X293.108 Y228.549
G01 X294.074 Y230.704
G01 X294.934 Y232.903
G01 X295.683 Y235.140
G01 X295.947 Y236.026
G01 X296.527 Y238.310
G01 X296.994 Y240.617
G01 X297.347 Y242.942
G01 X297.453 Y243.852
G01 X297.639 Y246.192
G01 X297.710 Y248.536
G01 X297.665 Y250.878
G01 X297.616 Y251.794
G01 X297.412 Y254.123
G01 X297.094 Y256.436
G01 X296.664 Y258.729
G01 X296.463 Y259.629
G01 X295.892 Y261.886
G01 X295.211 Y264.111
G01 X294.423 Y266.297
G01 X294.078 Y267.160
G01 X293.149 Y269.287
G01 X292.118 Y271.364
G01 X290.987 Y273.387
G01 X290.512 Y274.172
G01 X289.234 Y276.102
G01 X287.865 Y277.965
G01 X286.407 Y279.756
G01 X285.806 Y280.445
G01 X284.226 Y282.125
G01 X282.568 Y283.724
G01 X280.835 Y285.237
G01 X280.129 Y285.811
G01 X278.305 Y287.206
G01 X276.416 Y288.507
G01 X274.468 Y289.713
G01 X273.677 Y290.166
G01 X271.657 Y291.240
G01 X269.589 Y292.213
G01 X267.477 Y293.083
G01 X266.613 Y293.404
G01 X264.452 Y294.132
G01 X262.259 Y294.753
G01 X260.040 Y295.265
G01 X259.147 Y295.439
G01 X256.899 Y295.789
G01 X254.640 Y296.028
G01 X252.374 Y296.157
G01 X251.466 Y296.177
G01 X249.200 Y296.134
G01 X246.941 Y295.981
G01 X244.695 Y295.717
G01 X243.811 Y295.582
G01 X241.591 Y295.173
G01 X239.397 Y294.655
G01 X237.232 Y294.032
G01 X236.376 Y293.753
G01 X234.261 Y292.990
G01 X232.188 Y292.126
G01 X230.161 Y291.161
G01 X229.357 Y290.744
G01 X227.401 Y289.650
G01 X225.502 Y288.462
G01 X223.666 Y287.184
G01 X222.946 Y286.645
G01 X221.203 Y285.245
G01 X219.533 Y283.762
G01 X217.939 Y282.201
G01 X217.327 Y281.558
G01 X215.857 Y279.883
G01 X214.472 Y278.139
G01 X213.176 Y276.332
G01 X212.688 Y275.600
G01 X211.520 Y273.711
G01 X210.448 Y271.770
G01 X209.474 Y269.780
G01 X209.114 Y268.976
G01 X208.273 Y266.931
G01 X207.534 Y264.848
G01 X206.899 Y262.734
G01 X206.673 Y261.876
G01 X206.179 Y259.728
G01 X205.790 Y257.560
G01 X205.509 Y255.377
G01 X205.427 Y254.501
G01 X205.289 Y252.307
G01 X205.259 Y250.110
G01 X205.337 Y247.916
G01 X205.397 Y247.054
G01 X205.647 Y244.875
G01 X206.003 Y242.713
G01 X206.464 Y240.574
G01 X206.673 Y239.743
G01 X207.278 Y237.643
G01 X207.984 Y235.579
G01 X208.790 Y233.553
G01 X209.135 Y232.768
G01 X210.069 Y230.802
G01 X211.098 Y228.887
G01 X212.219 Y227.027
G01 X212.687 Y226.306
G01 X213.925 Y224.525
G01 X215.247 Y222.808
G01 X216.651 Y221.160
G01 X217.229 Y220.527
G01 X218.741 Y218.980
G01 X220.325 Y217.511
G01 X221.979 Y216.123
G01 X222.641 Y215.604
G01 X224.388 Y214.339
G01 X226.192 Y213.162
G01 X228.051 Y212.077
G01 X228.789 Y211.679
G01 X230.717 Y210.730
G01 X232.688 Y209.879
G01 X234.696 Y209.126
G01 X235.483 Y208.861
G01 X237.534 Y208.248
G01 X239.610 Y207.737
G01 X241.706 Y207.328
G01 X242.532 Y207.197
G01 X244.646 Y206.918
G01 X246.769 Y206.744
G01 X248.896 Y206.675
G01 X249.734 Y206.676
G01 X251.859 Y206.752
G01 X253.975 Y206.932
G01 X256.079 Y207.215
G01 X256.894 Y207.354
G01 X258.969 Y207.787
G01 X261.018 Y208.320
G01 X263.037 Y208.953
G01 X263.810 Y209.225
G01 X265.773 Y210.007
G01 X267.692 Y210.883
G01 X269.563 Y211.851
G01 X270.271 Y212.248
G01 X272.072 Y213.332
G01 X273.816 Y214.502
G01 X275.498 Y215.755
G01 X276.140 Y216.268
G01 X277.730 Y217.630
G01 X279.250 Y219.067
G01 X280.695 Y220.576
G01 X281.243 Y221.188
G01 X282.591 Y222.780
G01 X283.858 Y224.434
G01 X285.041 Y226.147
G01 X285.479 Y226.830
G01 X286.535 Y228.621
G01 X287.501 Y230.460
G01 X288.374 Y232.342
G01 X288.689 Y233.086
G01 X289.418 Y235.026
G01 X290.049 Y236.996
G01 X290.582 Y238.993
G01 X290.763 Y239.777
G01 X291.157 Y241.801
G01 X291.452 Y243.839
G01 X291.645 Y245.886
G01 X291.694 Y246.694
G01 X291.762 Y248.745
G01 X291.729 Y250.795
G01 X291.596 Y252.838
G01 X291.515 Y253.649
G01 X291.242 Y255.676
G01 X290.871 Y257.684
G01 X290.401 Y259.670
G01 X290.189 Y260.449
G01 X289.586 Y262.395
G01 X288.888 Y264.308
G01 X288.099 Y266.181
G01 X287.763 Y266.908
G01 X286.842 Y268.717
G01 X285.834 Y270.477
G01 X284.743 Y272.182
G01 X284.290 Y272.839
G01 X283.081 Y274.459
G01 X281.796 Y276.015
G01 X280.437 Y277.505
G01 X279.877 Y278.078
G01 X278.427 Y279.473
G01 X276.913 Y280.794
G01 X275.338 Y282.037
G01 X274.688 Y282.514
G01 X273.042 Y283.656
G01 X271.344 Y284.715
G01 X269.597 Y285.688
G01 X268.882 Y286.055
G01 X267.072 Y286.898
G01 X265.224 Y287.650
G01 X263.344 Y288.310
G01 X262.587 Y288.547
G01 X260.667 Y289.068
G01 X258.726 Y289.494
G01 X256.769 Y289.824
G01 X255.987 Y289.929
G01 X254.014 Y290.116
G01 X252.038 Y290.206
G01 X250.063 Y290.198
G01 X249.274 Y290.168
G01 X247.307 Y290.040
G01 X245.350 Y289.816
G01 X243.410 Y289.497
G01 X242.631 Y289.341
G01 X240.718 Y288.896
G01 X238.831 Y288.358
G01 X236.974 Y287.730
G01 X236.233 Y287.450
G01 X234.427 Y286.695
G01 X232.661 Y285.854
G01 X230.940 Y284.928
G01 X230.265 Y284.534
G01 X228.622 Y283.480
G01 X227.035 Y282.349
G01 X225.507 Y281.143
G01 X224.916 Y280.643
G01 X223.477 Y279.337
G01 X222.106 Y277.963
G01 X220.806 Y276.526
G01 X220.309 Y275.938
G01 X219.106 Y274.422
G01 X217.981 Y272.851
G01 X216.936 Y271.229
G01 X216.538 Y270.563
G01 X215.608 Y268.875
G01 X214.763 Y267.145
G01 X214.005 Y265.378
G01 X213.725 Y264.658
G01 X213.077 Y262.851
G01 X212.519 Y261.016
G01 X212.052 Y259.156
G01 X211.892 Y258.411
G01 X211.569 Y256.523
G01 X211.339 Y254.624
G01 X211.203 Y252.719
G01 X211.175 Y251.967
G01 X211.177 Y250.060
G01 X211.272 Y248.157
G01 X211.460 Y246.264
G01 X211.560 Y245.522
G01 X211.877 Y243.649
G01 X212.285 Y241.797
G01 X212.782 Y239.970
G01 X213.004 Y239.254
G01 X213.611 Y237.464
G01 X214.304 Y235.707
G01 X215.081 Y233.988
G01 X215.414 Y233.315
G01 X216.300 Y231.653
G01 X217.266 Y230.036
G01 X218.310 Y228.471
G01 X218.741 Y227.869
G01 X219.900 Y226.389
G01 X221.128 Y224.969
G01 X222.423 Y223.614
G01 X222.945 Y223.103
G01 X224.332 Y221.846
G01 X225.778 Y220.660
G01 X227.277 Y219.548
G01 X227.873 Y219.138
G01 X229.442 Y218.132
G01 X231.056 Y217.207
G01 X232.712 Y216.363
G01 X233.371 Y216.054
G01 X235.074 Y215.320
G01 X236.809 Y214.671
G01 X238.572 Y214.108
G01 X239.273 Y213.911
G01 X241.064 Y213.456
G01 X242.873 Y213.091
G01 X244.697 Y212.815
G01 X245.411 Y212.731
G01 X247.248 Y212.595
G01 X249.088 Y212.550
G01 X250.926 Y212.594
G01 X251.633 Y212.636
G01 X253.460 Y212.812
G01 X255.273 Y213.078
G01 X257.069 Y213.432
G01 X257.756 Y213.592
G01 X259.518 Y214.073
G01 X261.251 Y214.640
G01 X262.952 Y215.290
G01 X263.602 Y215.564
G01 X265.257 Y216.313
G01 X266.871 Y217.142
G01 X268.441 Y218.047
G01 X269.047 Y218.425
G01 X270.552 Y219.428
G01 X272.006 Y220.503
G01 X273.403 Y221.647
G01 X273.932 Y222.111
G01 X275.241 Y223.351
G01 X276.487 Y224.652
G01 X277.665 Y226.011
G01 X278.106 Y226.556
G01 X279.175 Y227.999
G01 X280.171 Y229.490
G01 X281.090 Y231.026
G01 X281.424 Y231.630
G01 X282.242 Y233.217
G01 X282.980 Y234.841
G01 X283.636 Y236.497
G01 X283.869 Y237.150
G01 X284.410 Y238.843
G01 X284.866 Y240.559
G01 X285.237 Y242.292
G01 X285.360 Y242.982
G01 X285.618 Y244.732
G01 X285.790 Y246.491
G01 X285.875 Y248.253
G01 X285.885 Y248.951
G01 X285.849 Y250.712
G01 X285.726 Y252.468
G01 X285.518 Y254.212
G01 X285.413 Y254.896
G01 X285.080 Y256.618
G01 X284.662 Y258.319
G01 X284.163 Y259.996
G01 X283.945 Y260.645
G01 X283.326 Y262.277
G01 X282.630 Y263.875
G01 X281.857 Y265.434
G01 X281.531 Y266.036
G01 X280.662 Y267.538
G01 X279.721 Y268.994
G01 X278.711 Y270.400
G01 X278.287 Y270.950
G01 X277.190 Y272.285
G01 X276.031 Y273.563
G01 X274.813 Y274.780
G01 X274.309 Y275.250
G01 X273.017 Y276.385
G01 X271.672 Y277.454
G01 X270.277 Y278.454
G01 X269.706 Y278.834
G01 X268.241 Y279.723
G01 X266.735 Y280.537
G01 X265.194 Y281.275
G01 X264.572 Y281.547
G01 X262.984 Y282.170
G01 X261.371 Y282.712
G01 X259.735 Y283.174
G01 X259.079 Y283.336
G01 X257.422 Y283.691
G01 X255.751 Y283.964
G01 X254.071 Y284.154
G01 X253.391 Y284.207
G01 X251.707 Y284.296
G01 X250.022 Y284.302
G01 X248.341 Y284.225
G01 X247.660 Y284.170
G01 X245.990 Y283.977
G01 X244.334 Y283.704
G01 X242.695 Y283.349
G01 X242.041 Y283.184
G01 X240.437 Y282.704
G01 X238.861 Y282.147
G01 X237.316 Y281.514
G01 X236.708 Y281.240
G01 X235.213 Y280.503
G01 X233.759 Y279.696
G01 X232.348 Y278.819
G01 X231.800 Y278.452
G01 X230.451 Y277.489
G01 X229.153 Y276.462
G01 X227.909 Y275.374
G01 X227.422 Y274.917
G01 X226.258 Y273.748
G01 X225.154 Y272.525
G01 X224.112 Y271.251
G01 X223.710 Y270.722
G01 X222.755 Y269.386
G01 X221.867 Y268.006
G01 X221.049 Y266.585
G01 X220.741 Y266.004
G01 X220.024 Y264.533
G01 X219.381 Y263.030
G01 X218.813 Y261.499
G01 X218.609 Y260.886
G01 X218.169 Y259.316
G01 X217.808 Y257.729
G01 X217.525 Y256.129
G01 X217.437 Y255.503
G01 X217.257 Y253.892
G01 X217.157 Y252.277
G01 X217.136 Y250.662
G01 X217.150 Y250.023
G01 X217.240 Y248.414
G01 X217.408 Y246.813
G01 X217.655 Y245.225
G01 X217.776 Y244.591
G01 X218.109 Y243.023
G01 X218.518 Y241.474
G01 X219.002 Y239.949
G01 X219.218 Y239.343
G01 X219.805 Y237.856
G01 X220.464 Y236.402
G01 X221.193 Y234.982
G01 X221.499 Y234.434
G01 X222.328 Y233.073
G01 X223.223 Y231.757
G01 X224.180 Y230.487
G01 X224.569 Y230.005
G01 X225.620 Y228.815
G01 X226.726 Y227.680
G01 X227.885 Y226.603
G01 X228.343 Y226.205
G01 X229.574 Y225.217
G01 X230.850 Y224.292
G01 X232.167 Y223.432
G01 X232.686 Y223.118
G01 X234.052 Y222.346
G01 X235.451 Y221.642
G01 X236.881 Y221.010
G01 X237.453 Y220.780
G01 X238.914 Y220.234
G01 X240.399 Y219.761
G01 X241.904 Y219.362
G01 X242.504 Y219.225
G01 X244.029 Y218.923
G01 X245.565 Y218.697
G01 X247.109 Y218.546
G01 X247.713 Y218.508
G01 X249.262 Y218.471
G01 X250.809 Y218.509
G01 X252.350 Y218.624
G01 X252.942 Y218.688
G01 X254.467 Y218.929
G01 X255.975 Y219.243
G01 X257.463 Y219.631
G01 X258.022 Y219.797
G01 X259.476 Y220.283
G01 X260.902 Y220.839
G01 X262.296 Y221.464
G01 X262.822 Y221.721
G01 X264.171 Y222.430
G01 X265.481 Y223.204
G01 X266.749 Y224.039
G01 X267.231 Y224.381
G01 X268.441 Y225.293
G01 X269.603 Y226.261
G01 X270.715 Y227.284
G01 X271.140 Y227.704
G01 X272.182 Y228.794
G01 X273.168 Y229.932
G01 X274.096 Y231.115
G01 X274.445 Y231.594
G01 X275.288 Y232.836
G01 X276.068 Y234.117
G01 X276.784 Y235.433
G01 X277.042 Y235.949
G01 X277.646 Y237.317
G01 X278.180 Y238.711
G01 X278.644 Y240.127
G01 X278.804 Y240.678
G01 X279.170 Y242.118
G01 X279.464 Y243.571
G01 X279.685 Y245.034
G01 X279.752 Y245.601
G01 X279.873 Y247.072
G01 X279.922 Y248.544
G01 X279.898 Y250.014
G01 X279.869 Y250.591
G01 X279.760 Y252.053
G01 X279.580 Y253.506
G01 X279.329 Y254.946
G01 X279.207 Y255.523
G01 X278.858 Y256.939
G01 X278.441 Y258.335
G01 X277.956 Y259.706
G01 X277.743 Y260.247
G01 X277.173 Y261.581
G01 X276.539 Y262.884
G01 X275.843 Y264.154
G01 X275.550 Y264.646
G01 X274.757 Y265.854
G01 X273.907 Y267.020
G01 X273.003 Y268.141
G01 X272.632 Y268.569
G01 X271.650 Y269.618
G01 X270.620 Y270.615
G01 X269.544 Y271.558
G01 X269.110 Y271.912
G01 X267.976 Y272.778
G01 X266.802 Y273.584
G01 X265.593 Y274.331
G01 X265.100 Y274.612
G01 X263.853 Y275.285
G01 X262.576 Y275.895
G01 X261.273 Y276.440
G01 X260.732 Y276.645
G01 X259.397 Y277.098
G01 X258.044 Y277.484
G01 X256.675 Y277.803
G01 X256.113 Y277.913
G01 X254.731 Y278.151
G01 X253.341 Y278.320
G01 X251.945 Y278.420
G01 X251.383 Y278.441
G01 X249.986 Y278.424
G01 X248.594 Y278.337
G01 X247.210 Y278.183
G01 X246.660 Y278.102
G01 X245.294 Y277.854
G01 X243.944 Y277.539
G01 X242.613 Y277.159
G01 X242.092 Y276.990
G01 X240.797 Y276.514
G01 X239.529 Y275.976
G01 X238.292 Y275.378
G01 X237.803 Y275.121
G01 X236.606 Y274.453
G01 X235.446 Y273.729
G01 X234.324 Y272.950
G01 X233.875 Y272.615
G01 X232.808 Y271.768
G01 X231.784 Y270.870
G01 X230.808 Y269.925
G01 X230.421 Y269.524
G01 X229.508 Y268.520
G01 X228.647 Y267.474
G01 X227.839 Y266.387
G01 X227.530 Y265.940
G01 X226.812 Y264.795
G01 X226.152 Y263.617
G01 X225.552 Y262.410
G01 X225.330 Y261.923
G01 X224.822 Y260.678
G01 X224.377 Y259.412
G01 X223.995 Y258.128
G01 X223.863 Y257.620
G01 X223.571 Y256.317
G01 X223.343 Y255.003
G01 X223.181 Y253.682
G01 X223.135 Y253.157
G01 X223.056 Y251.832
G01 X223.043 Y250.507
G01 X223.095 Y249.185
G01 X223.134 Y248.655
G01 X223.269 Y247.342
G01 X223.467 Y246.039
G01 X223.730 Y244.749
G01 X223.853 Y244.235
G01 X224.203 Y242.969
G01 X224.614 Y241.723
G01 X225.085 Y240.500
G01 X225.289 Y240.021
G01 X225.842 Y238.836
G01 X226.451 Y237.681
G01 X227.116 Y236.559
G01 X227.390 Y236.131
G01 X228.134 Y235.063
G01 X228.929 Y234.035
G01 X229.771 Y233.049
G01 X230.107 Y232.682
G01 X231.023 Y231.768
G01 X231.981 Y230.902
G01 X232.979 Y230.085
G01 X233.371 Y229.786
G01 X234.409 Y229.030
G01 X235.482 Y228.327
G01 X236.585 Y227.678
G01 X237.028 Y227.438
G01 X238.171 Y226.868
G01 X239.339 Y226.356
G01 X240.528 Y225.902
G01 X241.001 Y225.740
G01 X242.214 Y225.363
G01 X243.441 Y225.046
G01 X244.681 Y224.791
G01 X245.170 Y224.707
G01 X246.422 Y224.537
G01 X247.679 Y224.429
G01 X248.938 Y224.383
G01 X249.421 Y224.382
G01 X250.678 Y224.428
G01 X251.928 Y224.537
G01 X253.170 Y224.706
G01 X253.638 Y224.786
G01 X254.860 Y225.053
G01 X256.064 Y225.379
G01 X257.248 Y225.763
G01 X257.689 Y225.923
G01 X258.843 Y226.378
G01 X259.971 Y226.887
G01 X261.070 Y227.451
G01 X261.488 Y227.683
G01 X262.544 Y228.319
G01 X263.564 Y229.004
G01 X264.548 Y229.736
G01 X264.925 Y230.038
G01 X265.863 Y230.823
G01 X266.760 Y231.651
G01 X267.614 Y232.522
G01 X267.937 Y232.874
G01 X268.728 Y233.799
G01 X269.471 Y234.760
G01 X270.165 Y235.755
G01 X270.420 Y236.147
G01 X271.031 Y237.193
G01 X271.588 Y238.265
G01 X272.091 Y239.361
G01 X272.271 Y239.789
G01 X272.690 Y240.916
G01 X273.053 Y242.060
G01 X273.358 Y243.217
G01 X273.459 Y243.662
G01 X273.684 Y244.833
G01 X273.851 Y246.011
G01 X273.959 Y247.193
G01 X273.986 Y247.657
G01 X274.020 Y248.839
G01 X273.997 Y250.019
G01 X273.916 Y251.194
G01 X273.867 Y251.662
G01 X273.720 Y252.827
G01 X273.517 Y253.981
G01 X273.257 Y255.122
G01 X273.138 Y255.574
G01 X272.794 Y256.691
G01 X272.397 Y257.786
G01 X271.947 Y258.859
G01 X271.754 Y259.278
G01 X271.233 Y260.314
G01 X270.663 Y261.323
G01 X270.045 Y262.300
G01 X269.787 Y262.678
G01 X269.093 Y263.599
G01 X268.356 Y264.483
G01 X267.579 Y265.327
G01 X267.266 Y265.646
G01 X266.436 Y266.432
G01 X265.570 Y267.175
G01 X264.671 Y267.873
G01 X264.303 Y268.139
G01 X263.366 Y268.778
G01 X262.401 Y269.368
G01 X261.410 Y269.908
G01 X260.999 Y270.114
G01 X259.982 Y270.597
G01 X258.945 Y271.028
G01 X257.890 Y271.407
G01 X257.450 Y271.548
G01 X256.374 Y271.853
G01 X255.285 Y272.103
G01 X254.188 Y272.300
G01 X253.740 Y272.364
G01 X252.632 Y272.470
G01 X251.523 Y272.521
G01 X250.415 Y272.517
G01 X249.970 Y272.500
G01 X248.869 Y272.420
G01 X247.775 Y272.286
G01 X246.692 Y272.099
G01 X246.267 Y272.011
G01 X245.202 Y271.751
G01 X244.154 Y271.440
G01 X243.125 Y271.078
G01 X242.715 Y270.918
G01 X241.717 Y270.488
G01 X240.743 Y270.010
G01 X239.796 Y269.486
G01 X239.416 Y269.258
G01 X238.503 Y268.685
G01 X237.621 Y268.068
G01 X236.771 Y267.409
G01 X236.429 Y267.125
G01 X235.630 Y266.411
G01 X234.867 Y265.660
G01 X234.144 Y264.873
G01 X233.862 Y264.544
G01 X233.196 Y263.711
G01 X232.573 Y262.848
G01 X231.994 Y261.958
G01 X231.774 Y261.592
G01 X231.272 Y260.658
G01 X230.818 Y259.703
G01 X230.412 Y258.729
G01 X230.265 Y258.341
G01 X229.928 Y257.345
G01 X229.641 Y256.336
G01 X229.405 Y255.316
G01 X229.325 Y254.910
G01 X229.152 Y253.882
G01 X229.031 Y252.848
G01 X228.960 Y251.812
G01 X228.946 Y251.395
G01 X228.940 Y250.360
G01 X228.984 Y249.327
G01 X229.079 Y248.300
G01 X229.132 Y247.885
G01 X229.297 Y246.869
G01 X229.512 Y245.864
G01 X229.775 Y244.873
G01 X229.893 Y244.482
G01 X230.223 Y243.514
G01 X230.600 Y242.565
G01 X231.022 Y241.636
G01 X231.199 Y241.279
G01 X231.689 Y240.388
G01 X232.221 Y239.523
G01 X232.793 Y238.688
G01 X233.025 Y238.374
G01 X233.657 Y237.586
G01 X234.325 Y236.832
G01 X235.028 Y236.114
G01 X235.305 Y235.850
G01 X236.053 Y235.183
G01 X236.830 Y234.556
G01 X237.635 Y233.970
G01 X237.956 Y233.752
G01 X238.793 Y233.217
G01 X239.652 Y232.726
G01 X240.533 Y232.278
G01 X240.887 Y232.112
G01 X241.791 Y231.721
G01 X242.711 Y231.374
G01 X243.646 Y231.074
G01 X244.013 Y230.969
G01 X244.964 Y230.734
G01 X245.923 Y230.547
G01 X246.888 Y230.406
G01 X247.258 Y230.366
G01 X248.228 Y230.299
G01 X249.199 Y230.280
G01 X250.167 Y230.309
G01 X250.534 Y230.332
G01 X251.494 Y230.441
G01 X252.444 Y230.597
G01 X253.383 Y230.799
G01 X253.730 Y230.886
G01 X254.651 Y231.142
G01 X255.556 Y231.442
G01 X256.443 Y231.786
G01 X256.776 Y231.929
G01 X257.637 Y232.323
G01 X258.476 Y232.759
G01 X259.290 Y233.234
G01 X259.602 Y233.431
G01 X260.379 Y233.959
G01 X261.128 Y234.524
G01 X261.846 Y235.123
G01 X262.118 Y235.366
G01 X262.797 Y236.005
G01 X263.442 Y236.676
G01 X264.052 Y237.377
G01 X264.276 Y237.653
G01 X264.824 Y238.400
G01 X265.333 Y239.171
G01 X265.802 Y239.964
G01 X265.971 Y240.272
G01 X266.383 Y241.093
G01 X266.754 Y241.930
G01 X267.082 Y242.782
G01 X267.195 Y243.107
G01 X267.456 Y243.978
G01 X267.674 Y244.858
G01 X267.848 Y245.746
G01 X267.903 Y246.089
G01 X268.022 Y246.981
G01 X268.098 Y247.875
G01 X268.129 Y248.769
G01 X268.129 Y249.124
G01 X268.106 Y250.015
G01 X268.039 Y250.901
G01 X267.930 Y251.781
G01 X267.873 Y252.132
G01 X267.711 Y253.000
G01 X267.506 Y253.858
G01 X267.260 Y254.703
G01 X267.152 Y255.033
G01 X266.835 Y255.852
G01 X266.480 Y256.651
G01 X266.087 Y257.430
G01 X265.922 Y257.731
G01 X265.472 Y258.475
G01 X264.987 Y259.193
G01 X264.469 Y259.884
G01 X264.259 Y260.146
G01 X263.703 Y260.801
G01 X263.118 Y261.427
G01 X262.504 Y262.021
G01 X262.253 Y262.249
G01 X261.602 Y262.797
G01 X260.928 Y263.311
G01 X260.231 Y263.790
G01 X259.939 Y263.976
G01 X259.218 Y264.410
G01 X258.478 Y264.807
G01 X257.721 Y265.166
G01 X257.403 Y265.303
G01 X256.629 Y265.614
G01 X255.842 Y265.887
G01 X255.045 Y266.119
G01 X254.715 Y266.203
G01 X253.902 Y266.365
G01 X253.085 Y266.486
G01 X252.265 Y266.567
G01 X251.932 Y266.588
G01 X251.113 Y266.611
G01 X250.295 Y266.594
G01 X249.482 Y266.537
G01 X249.160 Y266.504
G01 X248.357 Y266.391
G01 X247.562 Y266.240
G01 X246.778 Y266.051
G01 X246.465 Y265.963
G01 X245.698 Y265.728
G01 X244.945 Y265.456
G01 X244.208 Y265.149
G01 X243.908 Y265.011
G01 X243.197 Y264.654
G01 X242.507 Y264.264
G01 X241.838 Y263.841
G01 X241.564 Y263.654
G01 X240.925 Y263.194
G01 X240.311 Y262.703
G01 X239.723 Y262.185
G01 X239.488 Y261.963
G01 X238.944 Y261.401
G01 X238.431 Y260.815
G01 X237.947 Y260.206
G01 X237.759 Y259.951
G01 X237.321 Y259.312
G01 X236.917 Y258.654
G01 X236.546 Y257.979
G01 X236.411 Y257.712
G01 X236.095 Y257.012
G01 X235.815 Y256.301
G01 X235.571 Y255.578
G01 X235.487 Y255.297
G01 X235.293 Y254.563
G01 X235.137 Y253.824
G01 X235.018 Y253.079
G01 X234.980 Y252.781
G01 X234.913 Y252.034
G01 X234.882 Y251.286
G01 X234.889 Y250.541
G01 X234.902 Y250.235
G01 X234.945 Y249.495
G01 X235.024 Y248.760
G01 X235.140 Y248.032
G01 X235.198 Y247.731
G01 X235.356 Y247.013
G01 X235.549 Y246.305
G01 X235.775 Y245.609
G01 X235.877 Y245.332
G01 X236.157 Y244.658
G01 X236.470 Y244.000
G01 X236.813 Y243.360
G01 X236.955 Y243.115
G01 X237.341 Y242.502
G01 X237.755 Y241.910
G01 X238.196 Y241.341
G01 X238.373 Y241.129
G01 X238.862 Y240.603
G01 X239.374 Y240.103
G01 X239.909 Y239.631
G01 X240.109 Y239.466
G01 X240.676 Y239.039
G01 X241.261 Y238.641
G01 X241.863 Y238.275
G01 X242.091 Y238.146
G01 X242.705 Y237.810
G01 X243.333 Y237.506
G01 X243.973 Y237.234
G01 X244.224 Y237.137
G01 X244.878 Y236.911
G01 X245.541 Y236.717
G01 X246.210 Y236.556
G01 X246.478 Y236.502
G01 X247.152 Y236.381
G01 X247.829 Y236.294
G01 X248.508 Y236.241
G01 X248.777 Y236.229
G01 X249.456 Y236.223
G01 X250.132 Y236.250
G01 X250.805 Y236.310
G01 X251.060 Y236.341
G01 X251.723 Y236.454
G01 X252.378 Y236.598
G01 X253.023 Y236.774
G01 X253.261 Y236.848
G01 X253.887 Y237.074
G01 X254.499 Y237.329
G01 X255.096 Y237.614
G01 X255.306 Y237.723
G01 X255.879 Y238.044
G01 X256.433 Y238.393
G01 X256.968 Y238.767
G01 X257.154 Y238.906
G01 X257.655 Y239.319
G01 X258.133 Y239.754
G01 X258.587 Y240.210
G01 X258.750 Y240.385
G01 X259.174 Y240.863
G01 X259.574 Y241.358
G01 X259.946 Y241.871
G01 X260.085 Y242.078
G01 X260.432 Y242.603
G01 X260.751 Y243.144
G01 X261.043 Y243.698
G01 X261.152 Y243.924
G01 X261.397 Y244.498
G01 X261.613 Y245.081
G01 X261.799 Y245.672
G01 X261.864 Y245.906
G01 X262.008 Y246.506
G01 X262.122 Y247.110
G01 X262.205 Y247.716
G01 X262.229 Y247.950
G01 X262.271 Y248.558
G01 X262.283 Y249.165
G01 X262.265 Y249.769
G01 X262.250 Y249.998
G01 X262.176 Y250.596
G01 X262.073 Y251.187
G01 X261.941 Y251.769
G01 X261.886 Y251.981
G01 X261.717 Y252.549
G01 X261.520 Y253.106
G01 X261.298 Y253.649
G01 X261.206 Y253.853
G01 X260.956 Y254.379
G01 X260.681 Y254.890
G01 X260.383 Y255.384
G01 X260.256 Y255.579
G01 X259.926 Y256.049
G01 X259.575 Y256.500
G01 X259.203 Y256.931
G01 X259.041 Y257.107
G01 X258.654 Y257.519
G01 X258.248 Y257.909
G01 X257.825 Y258.277
G01 X257.641 Y258.426
G01 X257.190 Y258.757
G01 X256.726 Y259.064
G01 X256.249 Y259.347
G01 X256.047 Y259.457
G01 X255.554 Y259.704
G01 X255.052 Y259.925
G01 X254.540 Y260.121
G01 X254.329 Y260.194
G01 X253.805 Y260.346
G01 X253.278 Y260.471
G01 X252.747 Y260.569
G01 X252.540 Y260.600
G01 X252.006 Y260.654
G01 X251.472 Y260.681
G01 X250.941 Y260.682
G01 X250.733 Y260.675
G01 X250.207 Y260.647
G01 X249.686 Y260.593
G01 X249.171 Y260.514
G01 X248.959 Y260.473
G01 X248.453 Y260.367
G01 X247.955 Y260.235
