;  Created by Sandify
;  https://sandify.org
;  Version: 0.2.6
;
;  Machine type: Rectangular
;    Min X (mm): 0
;    Max X (mm): 500
;    Min Y (mm): 0
;    Max Y (mm): 500
;  Content type: shape
;  Layer:
;    Shape: FileImport
;    Name: star5.thr
;    From file:: star5.thr
;    Aspect Ratio: true
;    Comments: 
;    Visible: true
;    Initial width: 10
;    Initial height: 10
;    X offset: 0
;    Y offset: 0
;    Rotate (degrees): 0
;    Reverse path: false
;    Fine tuning:
;      Connect to next layer: line
;      Draw portion of path (%): 100
;      Backtrack at end (%): 0
;      Rotate starting point (%): 0
;  Reverse export path: false
;
; File name: 'raisedstar 5 (E) (C NE)'
; File type: gcode
;

G01 X250.000 Y250.000
G01 X249.992 Y250.156
G01 X249.969 Y250.310
G01 X249.931 Y250.462
G01 X249.878 Y250.611
G01 X249.811 Y250.756
G01 X249.729 Y250.895
G01 X249.633 Y251.027
G01 X249.523 Y251.152
G01 X249.400 Y251.268
G01 X249.266 Y251.374
G01 X249.119 Y251.470
G01 X248.961 Y251.555
G01 X248.793 Y251.627
G01 X248.616 Y251.686
G01 X248.430 Y251.732
G01 X248.237 Y251.763
G01 X73.223 Y426.777
G01 X82.110 Y435.238
G01 X91.402 Y443.253
G01 X101.075 Y450.802
G01 X111.107 Y457.867
G01 X121.474 Y464.432
G01 X132.151 Y470.480
G01 X143.111 Y475.997
G01 X154.329 Y480.970
G01 X165.778 Y485.386
G01 X177.429 Y489.235
G01 X189.255 Y492.508
G01 X201.227 Y495.196
G01 X213.317 Y497.294
G01 X225.496 Y498.796
G01 X237.733 Y499.699
G01 X250.000 Y500.000
G01 X262.267 Y499.699
G01 X274.504 Y498.796
G01 X286.683 Y497.294
G01 X298.773 Y495.196
G01 X310.745 Y492.508
G01 X322.571 Y489.235
G01 X334.222 Y485.386
G01 X345.671 Y480.970
G01 X356.889 Y475.997
G01 X367.849 Y470.480
G01 X378.526 Y464.432
G01 X388.893 Y457.867
G01 X398.925 Y450.802
G01 X408.598 Y443.253
G01 X417.890 Y435.238
G01 X426.777 Y426.777
G01 X435.238 Y417.890
G01 X443.253 Y408.598
G01 X450.802 Y398.925
G01 X457.867 Y388.893
G01 X464.432 Y378.526
G01 X470.480 Y367.849
G01 X475.997 Y356.889
G01 X480.970 Y345.671
G01 X485.386 Y334.222
G01 X489.235 Y322.571
G01 X492.508 Y310.745
G01 X495.196 Y298.773
G01 X497.294 Y286.683
G01 X498.796 Y274.504
G01 X499.699 Y262.267
G01 X500.000 Y250.000
G01 X499.699 Y237.733
G01 X498.796 Y225.496
G01 X497.294 Y213.317
G01 X495.196 Y201.227
G01 X495.030 Y200.399
G01 X496.364 Y212.604
G01 X497.000 Y222.500
G01 X497.254 Y234.702
G01 X497.000 Y245.000
G01 X497.254 Y257.135
G01 X497.000 Y267.500
G01 X497.136 Y279.754
G01 X496.785 Y289.965
G01 X494.527 Y302.026
G01 X491.679 Y313.962
G01 X488.881 Y323.729
G01 X491.446 Y311.723
G01 X493.000 Y302.500
G01 X493.258 Y290.179
G01 X493.000 Y280.000
G01 X493.259 Y267.972
G01 X493.000 Y257.500
G01 X493.259 Y245.564
G01 X493.000 Y235.000
G01 X493.259 Y222.951
G01 X493.000 Y212.500
G01 X493.096 Y200.165
G01 X492.711 Y190.071
G01 X489.478 Y178.234
G01 X488.531 Y175.147
G01 X489.050 Y187.689
G01 X489.000 Y197.500
G01 X489.263 Y209.632
G01 X489.000 Y220.000
G01 X489.264 Y231.833
G01 X489.000 Y242.500
G01 X489.264 Y254.239
G01 X489.000 Y265.000
G01 X489.264 Y276.854
G01 X489.000 Y287.500
G01 X489.262 Y299.678
G01 X489.000 Y310.000
G01 X487.716 Y322.247
G01 X486.317 Y331.574
G01 X482.030 Y343.071
G01 X480.039 Y347.889
G01 X483.162 Y335.966
G01 X485.000 Y327.500
G01 X485.264 Y314.977
G01 X485.000 Y305.000
G01 X485.268 Y293.010
G01 X485.000 Y282.500
G01 X485.269 Y270.838
G01 X485.000 Y260.000
G01 X485.269 Y248.457
G01 X485.000 Y237.500
G01 X485.269 Y225.865
G01 X485.000 Y215.000
G01 X485.268 Y203.059
G01 X485.000 Y192.500
G01 X485.264 Y180.037
G01 X485.000 Y170.000
G01 X481.755 Y158.184
G01 X479.151 Y150.051
G01 X479.425 Y150.682
G01 X480.585 Y163.350
G01 X481.000 Y172.500
G01 X481.270 Y184.845
G01 X481.000 Y195.000
G01 X481.273 Y206.802
G01 X481.000 Y217.500
G01 X481.274 Y228.969
G01 X481.000 Y240.000
G01 X481.274 Y251.347
G01 X481.000 Y262.500
G01 X481.274 Y273.940
G01 X481.000 Y285.000
G01 X481.273 Y296.751
G01 X481.000 Y307.500
G01 X481.270 Y319.782
G01 X481.000 Y330.000
G01 X479.791 Y342.443
G01 X478.514 Y351.397
G01 X473.263 Y362.487
G01 X470.009 Y368.727
G01 X474.489 Y357.273
G01 X477.000 Y350.000
G01 X477.268 Y337.069
G01 X477.000 Y327.500
G01 X477.275 Y315.333
G01 X477.000 Y305.000
G01 X477.278 Y293.385
G01 X477.000 Y282.500
G01 X477.279 Y271.225
G01 X477.000 Y260.001
G01 X477.000 Y260.000
G01 X477.279 Y248.849
G01 X477.010 Y237.695
G01 X477.000 Y237.500
G01 X477.279 Y226.255
G01 X477.000 Y215.000
G01 X477.278 Y203.439
G01 X477.000 Y192.500
G01 X477.275 Y180.399
G01 X477.000 Y170.000
G01 X477.267 Y157.133
G01 X477.000 Y147.500
G01 X472.211 Y136.222
G01 X468.993 Y129.409
G01 X469.116 Y129.633
G01 X471.696 Y142.021
G01 X473.000 Y150.000
G01 X473.273 Y162.768
G01 X473.000 Y172.500
G01 X473.281 Y184.490
G01 X473.000 Y195.000
G01 X473.283 Y206.427
G01 X473.000 Y217.500
G01 X473.283 Y228.581
G01 X473.019 Y239.612
G01 X473.000 Y240.000
G01 X473.283 Y250.954
G01 X473.029 Y261.913
G01 X473.000 Y262.500
G01 X473.283 Y273.550
G01 X473.017 Y284.658
G01 X473.000 Y285.000
G01 X473.283 Y296.371
G01 X473.000 Y307.500
G01 X473.280 Y319.421
G01 X473.000 Y330.000
G01 X473.273 Y342.700
G01 X473.000 Y352.500
G01 X470.188 Y364.613
G01 X468.076 Y372.240
G01 X467.122 Y373.928
G01 X468.504 Y360.874
G01 X469.000 Y352.500
G01 X469.278 Y339.793
G01 X469.000 Y330.000
G01 X469.286 Y318.109
G01 X469.000 Y307.500
G01 X469.288 Y296.207
G01 X469.001 Y285.025
G01 X469.000 Y285.000
G01 X469.288 Y274.084
G01 X469.036 Y263.224
G01 X469.000 Y262.500
G01 X469.288 Y251.739
G01 X469.048 Y240.979
G01 X469.000 Y240.000
G01 X469.288 Y229.167
G01 X469.039 Y218.282
G01 X469.000 Y217.500
G01 X469.288 Y206.366
G01 X469.006 Y195.127
G01 X469.000 Y195.000
G01 X469.286 Y183.333
G01 X469.000 Y172.500
G01 X469.280 Y160.065
G01 X469.000 Y150.000
G01 X468.768 Y136.820
G01 X468.186 Y127.955
G01 X461.935 Y117.396
G01 X456.150 Y108.571
G01 X462.112 Y119.306
G01 X465.000 Y125.000
G01 X465.268 Y138.601
G01 X465.000 Y147.500
G01 X465.284 Y160.048
G01 X465.000 Y170.000
G01 X465.291 Y181.716
G01 X465.000 Y192.500
G01 X465.294 Y203.608
G01 X465.020 Y214.605
G01 X465.000 Y215.000
G01 X465.293 Y225.723
G01 X465.055 Y236.390
G01 X465.000 Y237.500
G01 X465.293 Y248.065
G01 X465.067 Y258.629
G01 X465.000 Y260.000
G01 X465.293 Y270.637
G01 X465.058 Y281.328
G01 X465.000 Y282.500
G01 X465.293 Y293.444
G01 X465.026 Y304.493
G01 X465.000 Y305.000
G01 X465.292 Y316.487
G01 X465.000 Y327.500
G01 X465.285 Y339.769
G01 X465.000 Y350.000
G01 X465.271 Y363.291
G01 X465.000 Y372.500
G01 X460.130 Y383.793
G01 X457.268 Y389.785
G01 X454.899 Y393.235
G01 X459.056 Y381.359
G01 X461.000 Y375.000
G01 X461.274 Y361.537
G01 X461.000 Y352.500
G01 X461.290 Y340.110
G01 X461.000 Y330.000
G01 X461.297 Y318.457
G01 X461.000 Y307.500
G01 X461.299 Y296.577
G01 X461.039 Y285.765
G01 X461.000 Y285.000
G01 X461.298 Y274.470
G01 X461.075 Y263.995
G01 X461.000 Y262.500
G01 X461.298 Y252.131
G01 X461.087 Y241.763
G01 X461.000 Y240.000
G01 X461.298 Y229.558
G01 X461.077 Y219.063
G01 X461.000 Y217.500
G01 X461.299 Y206.746
G01 X461.045 Y195.886
G01 X461.000 Y195.000
G01 X461.297 Y183.693
G01 X461.000 Y172.500
G01 X461.291 Y160.396
G01 X461.000 Y150.000
G01 X461.277 Y136.855
G01 X461.000 Y127.500
G01 X457.993 Y115.182
G01 X456.039 Y108.409
G01 X453.599 Y104.923
G01 X456.013 Y117.947
G01 X457.000 Y125.000
G01 X457.280 Y138.327
G01 X457.000 Y147.500
G01 X457.295 Y159.733
G01 X457.000 Y170.000
G01 X457.302 Y181.370
G01 X457.000 Y192.500
G01 X457.304 Y203.238
G01 X457.059 Y213.866
G01 X457.000 Y215.000
G01 X457.303 Y225.338
G01 X457.094 Y235.621
G01 X457.000 Y237.500
G01 X457.303 Y247.673
G01 X457.106 Y257.845
G01 X457.000 Y260.000
G01 X457.303 Y270.247
G01 X457.097 Y280.547
G01 X457.000 Y282.500
G01 X457.304 Y293.064
G01 X457.065 Y303.735
G01 X457.000 Y305.000
G01 X457.303 Y316.128
G01 X457.005 Y327.415
G01 X457.000 Y327.500
G01 X457.297 Y339.440
G01 X457.000 Y350.000
G01 X457.283 Y363.002
G01 X457.000 Y372.500
G01 X455.798 Y385.848
G01 X454.761 Y393.432
G01 X452.249 Y396.954
G01 X452.980 Y382.774
G01 X453.000 Y375.000
G01 X453.285 Y361.807
G01 X453.000 Y352.500
G01 X453.301 Y340.422
G01 X453.000 Y330.000
G01 X453.308 Y318.802
G01 X453.015 Y307.768
G01 X453.000 Y307.500
G01 X453.309 Y296.946
G01 X453.078 Y286.502
G01 X453.000 Y285.000
G01 X453.308 Y274.855
G01 X453.113 Y264.764
G01 X453.000 Y262.500
G01 X453.307 Y252.523
G01 X453.125 Y242.547
G01 X453.000 Y240.000
G01 X453.308 Y229.948
G01 X453.116 Y219.843
G01 X453.000 Y217.500
G01 X453.309 Y207.125
G01 X453.084 Y196.643
G01 X453.000 Y195.000
G01 X453.308 Y184.051
G01 X453.024 Y172.941
G01 X453.000 Y172.500
G01 X453.303 Y160.722
G01 X453.000 Y150.000
G01 X453.289 Y137.140
G01 X453.000 Y127.500
G01 X453.263 Y113.303
G01 X453.000 Y105.000
G01 X445.935 Y94.981
G01 X442.832 Y90.890
G01 X438.907 Y86.249
G01 X446.262 Y96.070
G01 X449.000 Y100.000
G01 X449.259 Y114.607
G01 X449.000 Y122.500
G01 X449.289 Y135.703
G01 X449.000 Y145.000
G01 X449.306 Y157.039
G01 X449.000 Y167.500
G01 X449.314 Y178.616
G01 X449.024 Y189.560
G01 X449.000 Y190.000
G01 X449.250 Y200.447
G01 X449.000 Y210.000
G01 X449.251 Y220.034
G01 X449.000 Y229.996
G01 X449.000 Y230.000
G01 X449.251 Y239.814
G01 X449.020 Y249.604
G01 X449.000 Y250.000
G01 X449.251 Y259.789
G01 X449.020 Y269.602
G01 X449.000 Y270.000
G01 X449.251 Y279.962
G01 X449.000 Y289.996
G01 X449.000 Y290.000
G01 X449.250 Y300.336
G01 X449.000 Y310.000
G01 X449.313 Y320.937
G01 X449.025 Y332.046
G01 X449.000 Y332.500
G01 X449.306 Y344.340
G01 X449.000 Y355.000
G01 X449.290 Y368.002
G01 X449.000 Y377.500
G01 X449.261 Y391.923
G01 X449.000 Y400.000
G01 X441.841 Y409.952
G01 X438.907 Y413.751
G01 X437.249 Y415.643
G01 X442.926 Y404.474
G01 X445.000 Y400.000
G01 X445.264 Y385.490
G01 X445.000 Y377.500
G01 X445.295 Y364.423
G01 X445.000 Y355.000
G01 X445.312 Y343.110
G01 X445.000 Y332.500
G01 X445.250 Y321.527
G01 X445.000 Y312.500
G01 X445.255 Y302.168
G01 X445.000 Y292.500
G01 X445.256 Y282.614
G01 X445.016 Y272.806
G01 X445.000 Y272.500
G01 X445.256 Y262.864
G01 X445.037 Y253.258
G01 X445.000 Y252.500
G01 X445.256 Y242.915
G01 X445.040 Y233.312
G01 X445.000 Y232.500
G01 X445.256 Y222.765
G01 X445.023 Y212.962
G01 X445.000 Y212.500
G01 X445.255 Y202.409
G01 X445.000 Y192.500
G01 X445.252 Y181.846
G01 X445.000 Y172.500
G01 X445.315 Y161.043
G01 X445.000 Y150.000
G01 X445.300 Y137.415
G01 X445.000 Y127.500
G01 X445.274 Y113.523
G01 X445.000 Y105.000
G01 X441.424 Y92.502
G01 X439.642 Y87.102
G01 X434.329 Y81.113
G01 X439.286 Y92.939
G01 X441.000 Y97.500
G01 X441.265 Y112.094
G01 X441.000 Y120.000
G01 X441.298 Y133.104
G01 X441.000 Y142.500
G01 X441.242 Y154.402
G01 X441.000 Y162.500
G01 X441.254 Y173.501
G01 X441.000 Y182.500
G01 X441.260 Y192.797
G01 X441.000 Y202.500
G01 X441.261 Y212.292
G01 X441.026 Y221.994
G01 X441.000 Y222.500
G01 X441.261 Y231.986
G01 X441.053 Y241.431
G01 X441.000 Y242.500
G01 X441.261 Y251.882
G01 X441.060 Y261.272
G01 X441.000 Y262.500
G01 X441.261 Y271.984
G01 X441.049 Y281.523
G01 X441.000 Y282.500
G01 X441.261 Y292.294
G01 X441.016 Y302.191
G01 X441.000 Y302.500
G01 X441.259 Y312.815
G01 X441.000 Y322.500
G01 X441.252 Y333.549
G01 X441.000 Y342.500
G01 X441.312 Y354.537
G01 X441.000 Y365.000
G01 X441.289 Y378.369
G01 X441.000 Y387.500
G01 X441.252 Y402.469
G01 X441.000 Y410.000
G01 X433.382 Y419.607
G01 X430.753 Y422.709
G01 X432.536 Y420.823
G01 X435.917 Y407.607
G01 X437.000 Y402.500
G01 X437.270 Y387.992
G01 X437.000 Y380.000
G01 X437.303 Y367.013
G01 X437.000 Y357.500
G01 X437.247 Y345.740
G01 X437.000 Y337.500
G01 X437.260 Y326.660
G01 X437.000 Y317.500
G01 X437.265 Y307.378
G01 X437.000 Y297.500
G01 X437.266 Y287.895
G01 X437.045 Y278.379
G01 X437.000 Y277.500
G01 X437.266 Y268.208
G01 X437.072 Y258.956
G01 X437.000 Y257.500
G01 X437.265 Y248.314
G01 X437.080 Y239.120
G01 X437.000 Y237.500
G01 X437.266 Y228.211
G01 X437.068 Y218.866
G01 X437.000 Y217.500
G01 X437.266 Y207.894
G01 X437.035 Y198.186
G01 X437.000 Y197.500
G01 X437.264 Y187.362
G01 X437.000 Y177.500
G01 X437.258 Y166.612
G01 X437.000 Y157.500
G01 X437.244 Y145.645
G01 X437.000 Y137.500
G01 X437.298 Y124.407
G01 X437.000 Y115.000
G01 X437.262 Y100.302
G01 X437.000 Y92.500
G01 X432.032 Y80.738
G01 X430.116 Y76.627
G01 X430.682 Y77.217
G01 X432.541 Y91.837
G01 X433.000 Y97.500
G01 X433.275 Y111.927
G01 X433.000 Y120.000
G01 X433.309 Y132.873
G01 X433.000 Y142.500
G01 X433.253 Y154.121
G01 X433.000 Y162.500
G01 X433.266 Y173.181
G01 X433.000 Y182.500
G01 X433.271 Y192.447
G01 X433.013 Y202.255
G01 X433.000 Y202.500
G01 X433.272 Y211.919
G01 X433.064 Y221.249
G01 X433.000 Y222.500
G01 X433.271 Y231.599
G01 X433.092 Y240.657
G01 X433.000 Y242.500
G01 X433.270 Y251.489
G01 X433.099 Y260.487
G01 X433.000 Y262.500
G01 X433.271 Y271.594
G01 X433.087 Y280.745
G01 X433.000 Y282.500
G01 X433.271 Y291.917
G01 X433.055 Y301.439
G01 X433.000 Y302.500
G01 X433.270 Y312.461
G01 X433.000 Y322.500
G01 X433.264 Y333.228
G01 X433.000 Y342.500
G01 X433.250 Y354.217
G01 X433.000 Y362.500
G01 X433.304 Y375.482
G01 X433.000 Y385.000
G01 X433.266 Y399.622
G01 X433.000 Y407.500
G01 X429.631 Y420.640
G01 X428.232 Y425.310
G01 X428.763 Y424.768
G01 X429.156 Y408.728
G01 X429.000 Y402.500
G01 X429.279 Y388.148
G01 X429.000 Y380.000
G01 X429.233 Y367.183
G01 X429.000 Y360.000
G01 X429.257 Y348.381
G01 X429.000 Y340.000
G01 X429.270 Y329.369
G01 X429.000 Y320.000
G01 X429.276 Y310.145
G01 X429.024 Y300.434
G01 X429.000 Y300.000
G01 X429.277 Y290.711
G01 X429.078 Y281.517
G01 X429.000 Y280.000
G01 X429.276 Y271.066
G01 X429.108 Y262.177
G01 X429.000 Y260.000
G01 X429.275 Y251.205
G01 X429.118 Y242.407
G01 X429.000 Y240.000
G01 X429.276 Y231.126
G01 X429.109 Y222.200
G01 X429.000 Y220.000
G01 X429.277 Y210.824
G01 X429.079 Y201.549
G01 X429.000 Y200.000
G01 X429.276 Y190.296
G01 X429.024 Y180.447
G01 X429.000 Y180.000
G01 X429.271 Y169.541
G01 X429.000 Y160.000
G01 X429.258 Y148.558
G01 X429.000 Y140.000
G01 X429.234 Y127.348
G01 X429.000 Y120.000
G01 X429.281 Y105.845
G01 X429.000 Y97.500
G01 X429.055 Y81.609
G01 X428.763 Y75.232
G01 X419.972 Y66.671
G01 X415.797 Y62.887
G01 X423.349 Y72.709
G01 X425.000 Y75.000
G01 X425.229 Y91.181
G01 X425.000 Y97.500
G01 X425.284 Y111.781
G01 X425.000 Y120.000
G01 X425.238 Y132.712
G01 X425.000 Y140.000
G01 X425.263 Y151.487
G01 X425.000 Y160.000
G01 X425.276 Y170.478
G01 X425.000 Y180.000
G01 X425.282 Y189.684
G01 X425.042 Y199.224
G01 X425.000 Y200.000
G01 X425.282 Y209.104
G01 X425.098 Y218.115
G01 X425.000 Y220.000
G01 X425.281 Y228.742
G01 X425.128 Y237.439
G01 X425.000 Y240.000
G01 X425.280 Y248.599
G01 X425.137 Y257.201
G01 X425.000 Y260.000
G01 X425.281 Y268.679
G01 X425.129 Y277.410
G01 X425.000 Y280.000
G01 X425.282 Y288.988
G01 X425.099 Y298.074
G01 X425.000 Y300.000
G01 X425.282 Y309.527
G01 X425.043 Y319.200
G01 X425.000 Y320.000
G01 X425.277 Y330.299
G01 X425.000 Y340.000
G01 X425.263 Y351.305
G01 X425.000 Y360.000
G01 X425.239 Y372.543
G01 X425.000 Y380.000
G01 X425.285 Y394.081
G01 X425.000 Y402.500
G01 X425.231 Y418.524
G01 X425.000 Y425.000
G01 X417.575 Y434.891
G01 X415.797 Y437.113
G01 X413.642 Y439.001
G01 X419.720 Y427.607
G01 X421.000 Y425.000
G01 X421.232 Y408.840
G01 X421.000 Y402.500
G01 X421.288 Y388.284
G01 X421.000 Y380.000
G01 X421.243 Y367.388
G01 X421.000 Y360.000
G01 X421.269 Y348.642
G01 X421.000 Y340.000
G01 X421.283 Y329.674
G01 X421.000 Y320.000
G01 X421.288 Y310.487
G01 X421.061 Y301.116
G01 X421.000 Y300.000
G01 X421.288 Y291.079
G01 X421.117 Y282.252
G01 X421.000 Y280.000
G01 X421.286 Y271.451
G01 X421.147 Y262.946
G01 X421.000 Y260.000
G01 X421.285 Y251.597
G01 X421.157 Y243.191
G01 X421.000 Y240.000
G01 X421.285 Y231.515
G01 X421.148 Y222.979
G01 X421.000 Y220.000
G01 X421.287 Y211.200
G01 X421.118 Y202.301
G01 X421.000 Y200.000
G01 X421.288 Y190.649
G01 X421.062 Y181.151
G01 X421.000 Y180.000
G01 X421.283 Y169.858
G01 X421.000 Y160.000
G01 X421.269 Y148.828
G01 X421.000 Y140.000
G01 X421.244 Y127.561
G01 X421.000 Y120.000
G01 X421.290 Y105.986
G01 X421.000 Y97.500
G01 X421.234 Y81.497
G01 X421.000 Y75.000
G01 X415.084 Y63.571
G01 X413.642 Y60.999
G01 X411.421 Y59.098
G01 X416.077 Y72.088
G01 X417.000 Y75.000
G01 X417.234 Y91.148
G01 X417.000 Y97.500
G01 X417.293 Y111.657
G01 X417.000 Y120.000
G01 X417.248 Y132.516
G01 X417.000 Y140.000
G01 X417.275 Y151.233
G01 X417.000 Y160.000
G01 X417.289 Y170.176
G01 X417.000 Y180.000
G01 X417.294 Y189.344
G01 X417.080 Y198.547
G01 X417.000 Y200.000
G01 X417.293 Y208.738
G01 X417.136 Y217.383
G01 X417.000 Y220.000
G01 X417.291 Y228.357
G01 X417.166 Y236.670
G01 X417.000 Y240.000
G01 X417.290 Y248.206
G01 X417.176 Y256.417
G01 X417.000 Y260.000
G01 X417.290 Y268.290
G01 X417.167 Y276.632
G01 X417.000 Y280.000
G01 X417.293 Y288.612
G01 X417.138 Y297.324
G01 X417.000 Y300.000
G01 X417.293 Y309.177
G01 X417.081 Y318.500
G01 X417.000 Y320.000
G01 X417.289 Y329.987
G01 X417.000 Y340.000
G01 X417.275 Y351.041
G01 X417.000 Y360.000
G01 X417.250 Y372.340
G01 X417.000 Y380.000
G01 X417.294 Y393.953
G01 X417.000 Y402.500
G01 X417.236 Y418.490
G01 X417.000 Y425.000
G01 X412.541 Y437.991
G01 X411.421 Y440.902
G01 X409.132 Y442.813
G01 X412.416 Y428.205
G01 X413.000 Y425.000
G01 X413.236 Y408.856
G01 X413.000 Y402.500
G01 X413.206 Y388.318
G01 X413.000 Y382.500
G01 X413.249 Y369.895
G01 X413.000 Y362.500
G01 X413.278 Y351.238
G01 X413.000 Y342.500
G01 X413.294 Y332.349
G01 X413.000 Y322.500
G01 X413.300 Y313.229
G01 X413.090 Y304.107
G01 X413.000 Y302.500
G01 X413.299 Y293.880
G01 X413.150 Y285.358
G01 X413.000 Y282.500
G01 X413.296 Y274.299
G01 X413.183 Y266.147
G01 X413.000 Y262.500
G01 X413.294 Y254.484
G01 X413.195 Y246.468
G01 X413.000 Y242.500
G01 X413.295 Y234.429
G01 X413.189 Y226.311
G01 X413.000 Y222.500
G01 X413.298 Y214.130
G01 X413.162 Y205.666
G01 X413.000 Y202.500
G01 X413.299 Y193.583
G01 X413.110 Y184.524
G01 X413.000 Y182.500
G01 X413.296 Y172.784
G01 X413.022 Y162.881
G01 X413.000 Y162.500
G01 X413.283 Y151.735
G01 X413.000 Y142.500
G01 X413.259 Y130.435
G01 X413.000 Y122.500
G01 X413.220 Y108.887
G01 X413.000 Y102.500
G01 X413.253 Y87.005
G01 X413.000 Y80.000
G01 X412.009 Y63.520
G01 X411.552 Y59.210
G01 X406.774 Y55.265
G01 X408.735 Y71.519
G01 X409.000 Y75.000
G01 X409.238 Y91.150
G01 X409.000 Y97.500
G01 X409.210 Y111.640
G01 X409.000 Y117.500
G01 X409.254 Y130.024
G01 X409.000 Y137.500
G01 X409.284 Y148.647
G01 X409.000 Y157.500
G01 X409.300 Y167.509
G01 X409.011 Y177.319
G01 X409.000 Y177.500
G01 X409.306 Y186.607
G01 X409.109 Y195.566
G01 X409.000 Y197.500
G01 X409.239 Y205.958
G01 X409.036 Y214.312
G01 X409.000 Y215.000
G01 X409.239 Y223.062
G01 X409.073 Y231.062
G01 X409.000 Y232.500
G01 X409.238 Y240.349
G01 X409.090 Y248.179
G01 X409.000 Y250.000
G01 X409.238 Y257.823
G01 X409.090 Y265.669
G01 X409.000 Y267.500
G01 X409.239 Y275.487
G01 X409.073 Y283.539
G01 X409.000 Y285.000
G01 X409.304 Y293.362
G01 X409.166 Y301.837
G01 X409.000 Y305.000
G01 X409.305 Y314.020
G01 X409.100 Y323.199
G01 X409.000 Y325.000
G01 X409.299 Y334.935
G01 X409.000 Y345.000
G01 X409.282 Y356.108
G01 X409.000 Y365.000
G01 X409.251 Y377.536
G01 X409.000 Y385.000
G01 X409.291 Y399.300
G01 X409.000 Y407.500
G01 X409.223 Y424.011
G01 X409.000 Y430.000
G01 X405.182 Y444.096
G01 X404.391 Y446.630
G01 X404.345 Y446.666
G01 X405.031 Y428.735
G01 X405.000 Y425.000
G01 X405.240 Y408.834
G01 X405.000 Y402.500
G01 X405.213 Y388.395
G01 X405.000 Y382.500
G01 X405.259 Y370.052
G01 X405.000 Y362.500
G01 X405.290 Y351.464
G01 X405.000 Y342.500
G01 X405.307 Y332.631
G01 X405.028 Y322.959
G01 X405.000 Y322.500
G01 X405.242 Y313.527
G01 X405.000 Y305.000
G01 X405.245 Y296.647
G01 X405.048 Y288.404
G01 X405.000 Y287.500
G01 X405.244 Y279.581
G01 X405.088 Y271.729
G01 X405.000 Y270.000
G01 X405.243 Y262.327
G01 X405.108 Y254.678
G01 X405.000 Y252.500
G01 X405.243 Y244.881
G01 X405.110 Y237.245
G01 X405.000 Y235.000
G01 X405.244 Y227.242
G01 X405.096 Y219.424
G01 X405.000 Y217.500
G01 X405.244 Y209.404
G01 X405.063 Y201.207
G01 X405.000 Y200.000
G01 X405.243 Y191.366
G01 X405.005 Y182.590
G01 X405.000 Y182.500
G01 X405.309 Y173.090
G01 X405.058 Y163.492
G01 X405.000 Y162.500
G01 X405.296 Y151.986
G01 X405.000 Y142.500
G01 X405.269 Y130.618
G01 X405.000 Y122.500
G01 X405.227 Y108.989
G01 X405.000 Y102.500
G01 X405.258 Y87.008
G01 X405.000 Y80.000
G01 X405.175 Y62.058
G01 X405.000 Y57.500
G01 X396.771 Y48.198
G01 X395.088 Y46.409
G01 X390.387 Y43.139
G01 X399.642 Y51.241
G01 X401.000 Y52.500
G01 X401.150 Y71.217
G01 X401.000 Y75.000
G01 X401.241 Y91.193
G01 X401.000 Y97.500
G01 X401.216 Y111.579
G01 X401.000 Y117.500
G01 X401.264 Y129.878
G01 X401.000 Y137.500
G01 X401.296 Y148.430
G01 X401.000 Y157.500
G01 X401.236 Y167.275
G01 X401.000 Y175.000
G01 X401.247 Y183.920
G01 X401.000 Y192.500
G01 X401.250 Y200.756
G01 X401.060 Y208.897
G01 X401.000 Y210.000
G01 X401.250 Y217.784
G01 X401.103 Y225.494
G01 X401.000 Y227.500
G01 X401.248 Y235.003
G01 X401.125 Y242.476
G01 X401.000 Y245.000
G01 X401.247 Y252.418
G01 X401.130 Y259.849
G01 X401.000 Y262.500
G01 X401.248 Y270.032
G01 X401.119 Y277.619
G01 X401.000 Y280.000
G01 X401.250 Y287.849
G01 X401.088 Y295.795
G01 X401.000 Y297.500
G01 X401.249 Y305.872
G01 X401.034 Y314.381
G01 X401.000 Y315.000
G01 X401.244 Y324.102
G01 X401.000 Y332.500
G01 X401.306 Y342.586
G01 X401.000 Y352.500
G01 X401.283 Y363.923
G01 X401.000 Y372.500
G01 X401.243 Y385.529
G01 X401.000 Y392.500
G01 X401.275 Y407.493
G01 X401.000 Y415.000
G01 X401.194 Y432.433
G01 X401.000 Y437.500
G01 X396.059 Y450.789
G01 X394.810 Y453.789
G01 X388.893 Y457.867
G01 X395.945 Y446.784
G01 X397.000 Y445.000
G01 X397.159 Y426.480
G01 X397.000 Y422.500
G01 X397.250 Y406.536
G01 X397.000 Y400.000
G01 X397.226 Y386.171
G01 X397.000 Y380.000
G01 X397.274 Y367.885
G01 X397.000 Y360.000
G01 X397.305 Y349.340
G01 X397.000 Y340.000
G01 X397.244 Y330.495
G01 X397.000 Y322.500
G01 X397.254 Y313.844
G01 X397.020 Y305.341
G01 X397.000 Y305.000
G01 X397.256 Y296.998
G01 X397.086 Y289.105
G01 X397.000 Y287.500
G01 X397.255 Y279.955
G01 X397.127 Y272.477
G01 X397.000 Y270.000
G01 X397.253 Y262.715
G01 X397.146 Y255.454
G01 X397.000 Y252.500
G01 X397.252 Y245.274
G01 X397.149 Y238.030
G01 X397.000 Y235.000
G01 X397.254 Y227.628
G01 X397.135 Y220.195
G01 X397.000 Y217.500
G01 X397.255 Y209.772
G01 X397.102 Y201.943
G01 X397.000 Y200.000
G01 X397.255 Y191.705
G01 X397.043 Y183.268
G01 X397.000 Y182.500
G01 X397.248 Y173.425
G01 X397.000 Y165.000
G01 X397.310 Y154.882
G01 X397.000 Y145.000
G01 X397.284 Y133.473
G01 X397.000 Y125.000
G01 X397.240 Y111.788
G01 X397.000 Y105.000
G01 X397.269 Y89.733
G01 X397.000 Y82.500
G01 X397.182 Y64.688
G01 X397.000 Y60.000
G01 X392.172 Y46.323
G01 X391.102 Y43.626
G01 X386.247 Y40.389
G01 X392.195 Y53.106
G01 X393.000 Y55.000
G01 X393.155 Y73.636
G01 X393.000 Y77.500
G01 X393.251 Y93.509
G01 X393.000 Y100.000
G01 X393.228 Y113.815
G01 X393.000 Y120.000
G01 X393.278 Y132.053
G01 X393.000 Y140.000
G01 X393.311 Y150.559
G01 X393.000 Y160.000
G01 X393.251 Y169.373
G01 X393.000 Y177.500
G01 X393.260 Y186.000
G01 X393.038 Y194.348
G01 X393.000 Y195.000
G01 X393.262 Y202.829
G01 X393.106 Y210.549
G01 X393.000 Y212.500
G01 X393.260 Y219.858
G01 X393.146 Y227.151
G01 X393.000 Y230.000
G01 X393.258 Y237.090
G01 X393.166 Y244.158
G01 X393.000 Y247.500
G01 X393.257 Y254.529
G01 X393.168 Y261.578
G01 X393.000 Y265.000
G01 X393.259 Y272.179
G01 X393.155 Y279.420
G01 X393.000 Y282.500
G01 X393.261 Y290.044
G01 X393.121 Y297.691
G01 X393.000 Y300.000
G01 X393.261 Y308.128
G01 X393.061 Y316.398
G01 X393.000 Y317.500
G01 X393.254 Y326.430
G01 X393.000 Y335.000
G01 X393.239 Y344.951
G01 X393.000 Y352.500
G01 X393.293 Y363.756
G01 X393.000 Y372.500
G01 X393.250 Y385.452
G01 X393.000 Y392.500
G01 X393.279 Y407.529
G01 X393.000 Y415.000
G01 X393.191 Y432.606
G01 X393.000 Y437.500
G01 X390.293 Y453.983
G01 X389.575 Y457.410
G01 X383.534 Y461.349
G01 X388.417 Y446.963
G01 X389.000 Y445.000
G01 X389.151 Y426.230
G01 X389.000 Y422.500
G01 X389.251 Y406.433
G01 X389.000 Y400.000
G01 X389.230 Y386.189
G01 X389.000 Y380.000
G01 X389.283 Y368.000
G01 X389.000 Y360.000
G01 X389.233 Y349.477
G01 X389.000 Y342.500
G01 X389.255 Y333.111
G01 X389.000 Y325.000
G01 X389.265 Y316.538
G01 X389.043 Y308.234
G01 X389.000 Y307.500
G01 X389.268 Y299.758
G01 X389.117 Y292.130
G01 X389.000 Y290.000
G01 X389.266 Y282.772
G01 X389.161 Y275.614
G01 X389.000 Y272.500
G01 X389.263 Y265.577
G01 X389.183 Y258.683
G01 X389.000 Y255.000
G01 X389.262 Y248.171
G01 X389.188 Y241.329
G01 X389.000 Y237.500
G01 X389.264 Y230.549
G01 X389.177 Y223.542
G01 X389.000 Y220.000
G01 X389.266 Y212.705
G01 X389.147 Y205.314
G01 X389.000 Y202.500
G01 X389.267 Y194.638
G01 X389.091 Y186.637
G01 X389.000 Y185.000
G01 X389.262 Y176.344
G01 X389.001 Y167.510
G01 X389.000 Y167.500
G01 X389.247 Y157.825
G01 X389.000 Y150.000
G01 X389.303 Y139.016
G01 X389.000 Y130.000
G01 X389.260 Y117.306
G01 X389.000 Y110.000
G01 X389.199 Y95.307
G01 X389.000 Y90.000
G01 X389.211 Y72.904
G01 X389.000 Y67.500
G01 X389.100 Y47.472
G01 X389.000 Y45.000
G01 X379.907 Y36.565
G01 X379.307 Y36.038
G01 X380.754 Y36.919
G01 X384.610 Y53.018
G01 X385.000 Y55.000
G01 X385.146 Y73.923
G01 X385.000 Y77.500
G01 X385.250 Y93.640
G01 X385.000 Y100.000
G01 X385.232 Y113.819
G01 X385.000 Y120.000
G01 X385.287 Y131.954
G01 X385.000 Y140.000
G01 X385.238 Y150.435
G01 X385.000 Y157.500
G01 X385.261 Y166.768
G01 X385.000 Y175.000
G01 X385.272 Y183.314
G01 X385.061 Y191.471
G01 X385.000 Y192.500
G01 X385.274 Y200.073
G01 X385.136 Y207.533
G01 X385.000 Y210.000
G01 X385.272 Y217.045
G01 X385.181 Y224.019
G01 X385.000 Y227.500
G01 X385.268 Y234.230
G01 X385.202 Y240.931
G01 X385.000 Y245.000
G01 X385.267 Y251.632
G01 X385.207 Y258.279
G01 X385.000 Y262.500
G01 X385.269 Y269.258
G01 X385.197 Y276.072
G01 X385.000 Y280.000
G01 X385.272 Y287.111
G01 X385.167 Y294.320
G01 X385.000 Y297.500
G01 X385.273 Y305.196
G01 X385.110 Y313.030
G01 X385.000 Y315.000
G01 X385.268 Y323.513
G01 X385.018 Y332.205
G01 X385.000 Y332.500
G01 X385.253 Y342.063
G01 X385.000 Y350.000
G01 X385.308 Y360.912
G01 X385.000 Y370.000
G01 X385.264 Y382.673
G01 X385.000 Y390.000
G01 X385.199 Y404.731
G01 X385.000 Y410.000
G01 X385.208 Y427.207
G01 X385.000 Y432.500
G01 X385.093 Y452.725
G01 X385.000 Y455.000
G01 X376.976 Y465.099
G01 X376.550 Y465.604
G01 X377.905 Y464.803
G01 X380.773 Y446.945
G01 X381.000 Y445.000
G01 X381.140 Y425.902
G01 X381.000 Y422.500
G01 X381.249 Y406.271
G01 X381.000 Y400.000
G01 X381.234 Y386.161
G01 X381.000 Y380.000
G01 X381.292 Y368.083
G01 X381.000 Y360.000
G01 X381.243 Y349.646
G01 X381.000 Y342.500
G01 X381.267 Y333.349
G01 X381.000 Y325.000
G01 X381.279 Y316.830
G01 X381.079 Y308.818
G01 X381.000 Y307.500
G01 X381.281 Y300.094
G01 X381.156 Y292.800
G01 X381.000 Y290.000
G01 X381.277 Y283.138
G01 X381.200 Y276.347
G01 X381.000 Y272.500
G01 X381.273 Y265.963
G01 X381.222 Y259.454
G01 X381.000 Y255.000
G01 X381.272 Y248.564
G01 X381.227 Y242.114
G01 X381.000 Y237.500
G01 X381.274 Y230.935
G01 X381.216 Y224.314
G01 X381.000 Y220.000
G01 X381.278 Y213.072
G01 X381.187 Y206.045
G01 X381.000 Y202.500
G01 X381.280 Y194.969
G01 X381.129 Y187.299
G01 X381.000 Y185.000
G01 X381.275 Y176.626
G01 X381.035 Y168.073
G01 X381.000 Y167.500
G01 X381.259 Y158.044
G01 X381.000 Y150.000
G01 X381.230 Y139.223
G01 X381.000 Y132.500
G01 X381.274 Y120.081
G01 X381.000 Y112.500
G01 X381.208 Y97.997
G01 X381.000 Y92.500
G01 X381.217 Y75.486
G01 X381.000 Y70.000
G01 X381.099 Y49.917
G01 X381.000 Y47.500
G01 X375.101 Y34.076
G01 X374.752 Y33.351
G01 X376.060 Y34.109
G01 X377.004 Y55.129
G01 X377.000 Y57.500
G01 X377.147 Y76.447
G01 X377.000 Y80.000
G01 X377.258 Y96.032
G01 X377.000 Y102.500
G01 X377.244 Y116.107
G01 X377.000 Y122.500
G01 X377.302 Y134.164
G01 X377.000 Y142.500
G01 X377.253 Y152.588
G01 X377.000 Y160.000
G01 X377.276 Y168.881
G01 X377.000 Y177.500
G01 X377.286 Y185.402
G01 X377.110 Y193.153
G01 X377.000 Y195.000
G01 X377.287 Y202.147
G01 X377.183 Y209.188
G01 X377.000 Y212.500
G01 X377.282 Y219.118
G01 X377.224 Y225.672
G01 X377.000 Y230.000
G01 X377.278 Y236.315
G01 X377.243 Y242.609
G01 X377.000 Y247.500
G01 X377.276 Y253.744
G01 X377.245 Y260.008
G01 X377.000 Y265.000
G01 X377.280 Y271.410
G01 X377.233 Y277.883
G01 X377.000 Y282.500
G01 X377.284 Y289.320
G01 X377.200 Y296.245
G01 X377.000 Y300.000
G01 X377.286 Y307.477
G01 X377.137 Y315.100
G01 X377.000 Y317.500
G01 X377.280 Y325.883
G01 X377.034 Y334.450
G01 X377.000 Y335.000
G01 X377.261 Y344.535
G01 X377.000 Y352.500
G01 X377.229 Y363.433
G01 X377.000 Y370.000
G01 X377.269 Y382.665
G01 X377.000 Y390.000
G01 X377.198 Y404.853
G01 X377.000 Y410.000
G01 X377.201 Y427.487
G01 X377.000 Y432.500
G01 X377.172 Y453.350
G01 X377.000 Y457.500
G01 X369.875 Y469.355
G01 X369.845 Y469.402
G01 X362.168 Y473.424
G01 X372.932 Y467.539
G01 X373.000 Y467.500
G01 X373.095 Y444.706
G01 X373.000 Y442.500
G01 X373.139 Y423.341
G01 X373.000 Y420.000
G01 X373.256 Y403.852
G01 X373.000 Y397.500
G01 X373.245 Y383.853
G01 X373.000 Y377.500
G01 X373.212 Y365.771
G01 X373.000 Y360.000
G01 X373.254 Y349.788
G01 X373.000 Y342.500
G01 X373.280 Y333.567
G01 X373.000 Y325.000
G01 X373.292 Y317.111
G01 X373.114 Y309.378
G01 X373.000 Y307.500
G01 X373.294 Y300.422
G01 X373.195 Y293.457
G01 X373.000 Y290.000
G01 X373.289 Y283.502
G01 X373.240 Y277.073
G01 X373.000 Y272.500
G01 X373.283 Y266.348
G01 X373.261 Y260.223
G01 X373.000 Y255.000
G01 X373.281 Y248.957
G01 X373.265 Y242.899
G01 X373.000 Y237.500
G01 X373.284 Y231.321
G01 X373.256 Y225.085
G01 X373.000 Y220.000
G01 X373.290 Y213.434
G01 X373.227 Y206.769
G01 X373.000 Y202.500
G01 X373.293 Y195.292
G01 X373.168 Y187.944
G01 X373.000 Y185.000
G01 X373.288 Y176.893
G01 X373.068 Y168.607
G01 X373.000 Y167.500
G01 X373.271 Y158.239
G01 X373.000 Y150.000
G01 X373.239 Y139.331
G01 X373.000 Y132.500
G01 X373.279 Y120.080
G01 X373.000 Y112.500
G01 X373.207 Y97.860
G01 X373.000 Y92.500
G01 X373.208 Y75.183
G01 X373.000 Y70.000
G01 X373.080 Y49.416
G01 X373.000 Y47.500
G01 X369.006 Y30.473
G01 X368.899 Y30.084
G01 X359.226 Y25.123
G01 X369.000 Y32.500
G01 X369.080 Y55.655
G01 X369.000 Y57.500
G01 X369.130 Y76.898
G01 X369.000 Y80.000
G01 X369.252 Y96.286
G01 X369.000 Y102.500
G01 X369.245 Y116.202
G01 X369.000 Y122.500
G01 X369.215 Y134.221
G01 X369.000 Y140.000
G01 X369.259 Y150.154
G01 X369.000 Y157.500
G01 X369.286 Y166.333
G01 X369.002 Y174.964
G01 X369.000 Y175.000
G01 X369.299 Y182.754
G01 X369.132 Y190.353
G01 X369.000 Y192.500
G01 X369.300 Y199.416
G01 X369.214 Y206.221
G01 X369.000 Y210.000
G01 X369.229 Y216.336
G01 X369.127 Y222.597
G01 X369.000 Y225.000
G01 X369.227 Y231.006
G01 X369.152 Y236.973
G01 X369.000 Y240.000
G01 X369.225 Y245.855
G01 X369.162 Y251.709
G01 X369.000 Y255.000
G01 X369.225 Y260.889
G01 X369.158 Y266.812
G01 X369.000 Y270.000
G01 X369.228 Y276.111
G01 X369.139 Y282.292
G01 X369.000 Y285.000
G01 X369.297 Y291.549
G01 X369.234 Y298.209
G01 X369.000 Y302.500
G01 X369.299 Y309.789
G01 X369.163 Y317.230
G01 X369.000 Y320.000
G01 X369.291 Y328.294
G01 X369.046 Y336.779
G01 X369.000 Y337.500
G01 X369.269 Y347.063
G01 X369.000 Y355.000
G01 X369.230 Y366.093
G01 X369.000 Y372.500
G01 X369.265 Y385.483
G01 X369.000 Y392.500
G01 X369.183 Y407.861
G01 X369.000 Y412.500
G01 X369.175 Y430.717
G01 X369.000 Y435.000
G01 X369.133 Y456.857
G01 X369.000 Y460.000
G01 X362.282 Y472.994
G01 X361.992 Y473.513
G01 X356.227 Y476.309
G01 X365.000 Y467.500
G01 X365.063 Y443.946
G01 X365.000 Y442.500
G01 X365.120 Y422.833
G01 X365.000 Y420.000
G01 X365.248 Y403.554
G01 X365.000 Y397.500
G01 X365.245 Y383.726
G01 X365.000 Y377.500
G01 X365.217 Y365.774
G01 X365.000 Y360.000
G01 X365.263 Y349.895
G01 X365.000 Y342.500
G01 X365.293 Y333.762
G01 X365.015 Y325.225
G01 X365.000 Y325.000
G01 X365.306 Y317.376
G01 X365.149 Y309.908
G01 X365.000 Y307.500
G01 X365.236 Y300.711
G01 X365.088 Y294.040
G01 X365.000 Y292.500
G01 X365.235 Y286.267
G01 X365.140 Y280.115
G01 X365.000 Y277.500
G01 X365.232 Y271.640
G01 X365.169 Y265.825
G01 X365.000 Y262.500
G01 X365.230 Y256.828
G01 X365.180 Y251.163
G01 X365.000 Y247.500
G01 X365.230 Y241.825
G01 X365.179 Y236.122
G01 X365.000 Y232.500
G01 X365.233 Y226.629
G01 X365.163 Y220.693
G01 X365.000 Y217.500
G01 X365.235 Y211.234
G01 X365.128 Y204.869
G01 X365.000 Y202.500
G01 X365.234 Y195.639
G01 X365.066 Y188.644
G01 X365.000 Y187.500
G01 X365.303 Y179.796
G01 X365.119 Y171.918
G01 X365.000 Y170.000
G01 X365.286 Y161.099
G01 X365.000 Y152.500
G01 X365.253 Y142.131
G01 X365.000 Y135.000
G01 X365.292 Y122.795
G01 X365.000 Y115.000
G01 X365.214 Y100.464
G01 X365.000 Y95.000
G01 X365.210 Y77.645
G01 X365.000 Y72.500
G01 X365.072 Y51.700
G01 X365.000 Y50.000
G01 X363.789 Y27.507
G01 X363.778 Y27.391
G01 X353.171 Y22.281
G01 X361.000 Y32.500
G01 X361.044 Y56.496
G01 X361.000 Y57.500
G01 X361.108 Y77.470
G01 X361.000 Y80.000
G01 X361.243 Y96.632
G01 X361.000 Y102.500
G01 X361.244 Y116.365
G01 X361.000 Y122.500
G01 X361.219 Y134.245
G01 X361.000 Y140.000
G01 X361.268 Y150.066
G01 X361.000 Y157.500
G01 X361.299 Y166.151
G01 X361.027 Y174.601
G01 X361.000 Y175.000
G01 X361.235 Y182.545
G01 X361.005 Y189.928
G01 X361.000 Y190.000
G01 X361.242 Y196.748
G01 X361.095 Y203.373
G01 X361.000 Y205.000
G01 X361.242 Y211.141
G01 X361.153 Y217.195
G01 X361.000 Y220.000
G01 X361.238 Y225.723
G01 X361.185 Y231.396
G01 X361.000 Y235.000
G01 X361.235 Y240.496
G01 X361.199 Y245.979
G01 X361.000 Y250.000
G01 X361.235 Y255.465
G01 X361.199 Y260.952
G01 X361.000 Y265.000
G01 X361.237 Y270.634
G01 X361.187 Y276.327
G01 X361.000 Y280.000
G01 X361.241 Y286.008
G01 X361.155 Y292.111
G01 X361.000 Y295.000
G01 X361.241 Y301.590
G01 X361.097 Y308.310
G01 X361.000 Y310.000
G01 X361.311 Y317.427
G01 X361.153 Y325.025
G01 X361.000 Y327.500
G01 X361.296 Y336.128
G01 X361.002 Y344.965
G01 X361.000 Y345.000
G01 X361.263 Y355.110
G01 X361.000 Y362.500
G01 X361.211 Y374.370
G01 X361.000 Y380.000
G01 X361.234 Y394.026
G01 X361.000 Y400.000
G01 X361.231 Y416.853
G01 X361.000 Y422.500
G01 X361.092 Y442.822
G01 X361.000 Y445.000
G01 X361.024 Y469.435
G01 X361.000 Y470.000
G01 X352.304 Y478.110
G01 X350.058 Y479.104
G01 X357.000 Y467.500
G01 X357.023 Y443.014
G01 X357.000 Y442.500
G01 X357.094 Y422.190
G01 X357.000 Y420.000
G01 X357.236 Y403.153
G01 X357.000 Y397.500
G01 X357.242 Y383.523
G01 X357.000 Y377.500
G01 X357.220 Y365.721
G01 X357.000 Y360.000
G01 X357.272 Y349.962
G01 X357.000 Y342.500
G01 X357.306 Y333.928
G01 X357.038 Y325.557
G01 X357.000 Y325.000
G01 X357.241 Y317.574
G01 X357.020 Y310.310
G01 X357.000 Y310.000
G01 X357.249 Y303.400
G01 X357.114 Y296.923
G01 X357.000 Y295.000
G01 X357.248 Y289.029
G01 X357.173 Y283.144
G01 X357.000 Y280.000
G01 X357.244 Y274.463
G01 X357.205 Y268.975
G01 X357.000 Y265.000
G01 X357.240 Y259.698
G01 X357.218 Y254.410
G01 X357.000 Y250.000
G01 X357.239 Y244.732
G01 X357.219 Y239.440
G01 X357.000 Y235.000
G01 X357.243 Y229.557
G01 X357.206 Y224.054
G01 X357.000 Y220.000
G01 X357.247 Y214.168
G01 X357.175 Y208.242
G01 X357.000 Y205.000
G01 X357.248 Y198.564
G01 X357.116 Y191.999
G01 X357.000 Y190.000
G01 X357.241 Y182.744
G01 X357.020 Y175.324
G01 X357.000 Y175.000
G01 X357.306 Y166.644
G01 X357.039 Y158.085
G01 X357.000 Y157.500
G01 X357.273 Y147.647
G01 X357.000 Y140.000
G01 X357.221 Y128.362
G01 X357.000 Y122.500
G01 X357.243 Y108.668
G01 X357.000 Y102.500
G01 X357.237 Y85.783
G01 X357.000 Y80.000
G01 X357.095 Y59.738
G01 X357.000 Y57.500
G01 X357.023 Y33.024
G01 X357.000 Y32.500
G01 X350.058 Y20.896
G01 X346.888 Y19.538
G01 X353.000 Y32.500
G01 X353.000 Y57.500
G01 X353.078 Y78.192
G01 X353.000 Y80.000
G01 X353.228 Y97.093
G01 X353.000 Y102.500
G01 X353.239 Y116.613
G01 X353.000 Y122.500
G01 X353.221 Y134.332
G01 X353.000 Y140.000
G01 X353.277 Y150.024
G01 X353.000 Y157.500
G01 X353.312 Y166.001
G01 X353.049 Y174.301
G01 X353.000 Y175.000
G01 X353.248 Y182.313
G01 X353.035 Y189.464
G01 X353.000 Y190.000
G01 X353.256 Y196.456
G01 X353.132 Y202.789
G01 X353.000 Y205.000
G01 X353.255 Y210.803
G01 X353.193 Y216.520
G01 X353.000 Y220.000
G01 X353.249 Y225.352
G01 X353.224 Y230.656
G01 X353.000 Y235.000
G01 X353.245 Y240.107
G01 X353.237 Y245.202
G01 X353.000 Y250.000
G01 X353.244 Y255.072
G01 X353.238 Y260.168
G01 X353.000 Y265.000
G01 X353.248 Y270.253
G01 X353.226 Y275.567
G01 X353.000 Y280.000
G01 X353.253 Y285.656
G01 X353.195 Y291.409
G01 X353.000 Y295.000
G01 X353.255 Y301.285
G01 X353.135 Y307.700
G01 X353.000 Y310.000
G01 X353.248 Y317.138
G01 X353.035 Y324.440
G01 X353.000 Y325.000
G01 X353.312 Y333.282
G01 X353.050 Y341.767
G01 X353.000 Y342.500
G01 X353.277 Y352.338
G01 X353.000 Y360.000
G01 X353.222 Y371.692
G01 X353.000 Y377.500
G01 X353.240 Y391.473
G01 X353.000 Y397.500
G01 X353.229 Y414.470
G01 X353.000 Y420.000
G01 X353.079 Y440.653
G01 X353.000 Y442.500
G01 X353.000 Y467.500
G01 X346.888 Y480.462
G01 X343.663 Y481.792
G01 X349.000 Y467.500
G01 X349.000 Y442.500
G01 X349.060 Y421.380
G01 X349.000 Y420.000
G01 X349.218 Y402.625
G01 X349.000 Y397.500
G01 X349.235 Y383.224
G01 X349.000 Y377.500
G01 X349.220 Y365.596
G01 X349.000 Y360.000
G01 X349.280 Y349.977
G01 X349.000 Y342.500
G01 X349.229 Y333.984
G01 X349.000 Y327.500
G01 X349.252 Y320.125
G01 X349.028 Y312.917
G01 X349.000 Y312.500
G01 X349.262 Y306.051
G01 X349.137 Y299.730
G01 X349.000 Y297.500
G01 X349.262 Y291.765
G01 X349.205 Y286.121
G01 X349.000 Y282.500
G01 X349.256 Y277.268
G01 X349.241 Y272.090
G01 X349.000 Y267.500
G01 X349.250 Y262.559
G01 X349.256 Y257.636
G01 X349.018 Y252.743
G01 X349.000 Y252.500
G01 X349.249 Y247.633
G01 X349.258 Y242.748
G01 X349.026 Y237.857
G01 X349.000 Y237.500
G01 X349.253 Y232.483
G01 X349.249 Y227.412
G01 X349.000 Y222.500
G01 X349.259 Y217.103
G01 X349.222 Y211.616
G01 X349.000 Y207.500
G01 X349.262 Y201.488
G01 X349.167 Y195.351
G01 X349.000 Y192.500
G01 X349.257 Y185.638
G01 X349.071 Y178.618
G01 X349.000 Y177.500
G01 X349.239 Y169.556
G01 X349.000 Y162.500
G01 X349.294 Y153.157
G01 X349.000 Y145.000
G01 X349.241 Y133.816
G01 X349.000 Y127.500
G01 X349.261 Y114.036
G01 X349.000 Y107.500
G01 X349.153 Y91.179
G01 X349.000 Y87.500
G01 X349.117 Y67.741
G01 X349.000 Y65.000
G01 X349.038 Y40.864
G01 X349.000 Y40.000
G01 X346.188 Y19.245
G01 X341.190 Y17.225
G01 X345.000 Y35.000
G01 X345.000 Y60.000
G01 X345.060 Y81.141
G01 X345.000 Y82.500
G01 X345.223 Y99.796
G01 X345.000 Y105.000
G01 X345.243 Y119.122
G01 X345.000 Y125.000
G01 X345.230 Y136.700
G01 X345.000 Y142.500
G01 X345.291 Y152.284
G01 X345.000 Y160.000
G01 X345.239 Y168.257
G01 X345.000 Y175.000
G01 X345.262 Y182.106
G01 X345.063 Y189.052
G01 X345.000 Y190.000
G01 X345.270 Y196.179
G01 X345.169 Y202.237
G01 X345.000 Y205.000
G01 X345.268 Y210.473
G01 X345.233 Y215.862
G01 X345.000 Y220.000
G01 X345.261 Y224.985
G01 X345.265 Y229.924
G01 X345.016 Y234.801
G01 X345.000 Y235.000
G01 X345.255 Y239.719
G01 X345.276 Y244.427
G01 X345.066 Y249.112
G01 X345.000 Y250.000
G01 X345.254 Y254.680
G01 X345.277 Y259.384
G01 X345.067 Y264.102
G01 X345.000 Y265.000
G01 X345.259 Y269.875
G01 X345.266 Y274.811
G01 X345.016 Y279.795
G01 X345.000 Y280.000
G01 X345.266 Y285.312
G01 X345.236 Y290.721
G01 X345.000 Y295.000
G01 X345.269 Y300.994
G01 X345.172 Y307.120
G01 X345.000 Y310.000
G01 X345.261 Y316.921
G01 X345.064 Y324.007
G01 X345.000 Y325.000
G01 X345.240 Y333.091
G01 X345.000 Y340.000
G01 X345.291 Y349.593
G01 X345.000 Y357.500
G01 X345.231 Y369.058
G01 X345.000 Y375.000
G01 X345.244 Y388.984
G01 X345.000 Y395.000
G01 X345.224 Y412.181
G01 X345.000 Y417.500
G01 X345.060 Y438.613
G01 X345.000 Y440.000
G01 X345.000 Y465.000
G01 X341.190 Y482.775
G01 X337.834 Y484.062
G01 X341.000 Y465.000
G01 X341.000 Y440.000
G01 X341.037 Y418.338
G01 X341.000 Y417.500
G01 X341.210 Y399.854
G01 X341.000 Y395.000
G01 X341.237 Y380.667
G01 X341.000 Y375.000
G01 X341.228 Y363.194
G01 X341.000 Y357.500
G01 X341.294 Y347.693
G01 X341.000 Y340.000
G01 X341.244 Y331.785
G01 X341.000 Y325.000
G01 X341.269 Y317.985
G01 X341.076 Y311.130
G01 X341.000 Y310.000
G01 X341.278 Y303.952
G01 X341.188 Y298.024
G01 X341.000 Y295.000
G01 X341.276 Y289.688
G01 X341.254 Y284.459
G01 X341.000 Y280.000
G01 X341.267 Y275.196
G01 X341.285 Y270.439
G01 X341.058 Y265.742
G01 X341.000 Y265.000
G01 X341.260 Y260.475
G01 X341.296 Y255.960
G01 X341.109 Y251.467
G01 X341.000 Y250.000
G01 X341.259 Y245.517
G01 X341.296 Y241.008
G01 X341.110 Y236.485
G01 X341.000 Y235.000
G01 X341.265 Y230.313
G01 X341.287 Y225.565
G01 X341.059 Y220.768
G01 X341.000 Y220.000
G01 X341.273 Y214.857
G01 X341.257 Y209.616
G01 X341.000 Y205.000
G01 X341.276 Y199.144
G01 X341.191 Y193.155
G01 X341.000 Y190.000
G01 X341.268 Y183.175
G01 X341.078 Y176.185
G01 X341.000 Y175.000
G01 X341.245 Y166.953
G01 X341.000 Y160.000
G01 X341.295 Y150.384
G01 X341.000 Y142.500
G01 X341.230 Y130.831
G01 X341.000 Y125.000
G01 X341.238 Y110.797
G01 X341.000 Y105.000
G01 X341.211 Y87.459
G01 X341.000 Y82.500
G01 X341.037 Y60.855
G01 X341.000 Y60.000
G01 X341.000 Y35.000
G01 X337.834 Y15.938
G01 X334.422 Y14.686
G01 X337.000 Y37.500
G01 X337.000 Y62.500
G01 X337.033 Y84.253
G01 X337.000 Y85.000
G01 X337.212 Y102.614
G01 X337.000 Y107.500
G01 X337.243 Y121.710
G01 X337.000 Y127.500
G01 X337.237 Y139.121
G01 X337.000 Y145.000
G01 X337.305 Y154.579
G01 X337.000 Y162.500
G01 X337.255 Y170.460
G01 X337.000 Y177.500
G01 X337.279 Y184.247
G01 X337.112 Y190.842
G01 X337.000 Y192.500
G01 X337.286 Y198.278
G01 X337.221 Y203.943
G01 X337.000 Y207.500
G01 X337.211 Y212.579
G01 X337.138 Y217.575
G01 X337.000 Y220.000
G01 X337.208 Y224.642
G01 X337.173 Y229.232
G01 X337.000 Y232.500
G01 X337.204 Y236.873
G01 X337.189 Y241.223
G01 X337.000 Y245.000
G01 X337.202 Y249.274
G01 X337.194 Y253.557
G01 X337.000 Y257.500
G01 X337.204 Y261.852
G01 X337.188 Y266.241
G01 X337.000 Y270.000
G01 X337.208 Y274.610
G01 X337.170 Y279.288
G01 X337.000 Y282.500
G01 X337.211 Y287.552
G01 X337.130 Y292.701
G01 X337.000 Y295.000
G01 X337.284 Y300.724
G01 X337.210 Y306.580
G01 X337.000 Y310.000
G01 X337.275 Y316.738
G01 X337.091 Y323.642
G01 X337.000 Y325.000
G01 X337.249 Y333.017
G01 X337.000 Y340.000
G01 X337.297 Y349.661
G01 X337.000 Y357.500
G01 X337.227 Y369.308
G01 X337.000 Y375.000
G01 X337.230 Y389.460
G01 X337.000 Y395.000
G01 X337.195 Y412.951
G01 X337.000 Y417.500
G01 X337.112 Y439.963
G01 X337.000 Y442.500
G01 X337.000 Y470.000
G01 X332.167 Y486.111
G01 X330.956 Y486.529
G01 X333.000 Y462.500
G01 X333.007 Y435.152
G01 X333.000 Y435.000
G01 X333.028 Y413.121
G01 X333.000 Y412.500
G01 X333.214 Y394.895
G01 X333.000 Y390.000
G01 X333.250 Y375.899
G01 X333.000 Y370.000
G01 X333.246 Y358.556
G01 X333.000 Y352.500
G01 X333.315 Y343.145
G01 X333.000 Y335.000
G01 X333.265 Y327.293
G01 X333.000 Y320.000
G01 X333.288 Y313.520
G01 X333.148 Y307.185
G01 X333.000 Y305.000
G01 X333.217 Y299.446
G01 X333.094 Y294.006
G01 X333.000 Y292.500
G01 X333.218 Y287.578
G01 X333.158 Y282.739
G01 X333.000 Y280.000
G01 X333.214 Y275.536
G01 X333.193 Y271.124
G01 X333.000 Y267.500
G01 X333.209 Y263.318
G01 X333.209 Y259.158
G01 X333.002 Y255.031
G01 X333.000 Y255.000
G01 X333.207 Y250.922
G01 X333.213 Y246.836
G01 X333.019 Y242.751
G01 X333.000 Y242.500
G01 X333.209 Y238.342
G01 X333.208 Y234.145
G01 X333.000 Y230.000
G01 X333.214 Y225.571
G01 X333.190 Y221.074
G01 X333.000 Y217.500
G01 X333.217 Y212.607
G01 X333.150 Y207.617
G01 X333.000 Y205.000
G01 X333.292 Y199.402
G01 X333.228 Y193.671
G01 X333.000 Y190.000
G01 X333.282 Y183.337
G01 X333.102 Y176.509
G01 X333.000 Y175.000
G01 X333.254 Y166.996
G01 X333.000 Y160.000
G01 X333.299 Y150.271
G01 X333.000 Y142.500
G01 X333.223 Y130.520
G01 X333.000 Y125.000
G01 X333.220 Y110.240
G01 X333.000 Y105.000
G01 X333.177 Y86.579
G01 X333.000 Y82.500
G01 X333.082 Y59.351
G01 X333.000 Y57.500
G01 X333.000 Y30.000
G01 X328.772 Y12.734
G01 X327.438 Y12.296
G01 X329.000 Y37.500
G01 X329.000 Y65.000
G01 X329.000 Y87.500
G01 X329.195 Y105.583
G01 X329.000 Y110.000
G01 X329.240 Y124.403
G01 X329.000 Y130.000
G01 X329.243 Y141.612
G01 X329.000 Y147.500
G01 X329.215 Y157.038
G01 X329.000 Y162.500
G01 X329.264 Y170.431
G01 X329.000 Y177.500
G01 X329.293 Y184.098
G01 X329.137 Y190.543
G01 X329.000 Y192.500
G01 X329.223 Y198.086
G01 X329.093 Y203.552
G01 X329.000 Y205.000
G01 X329.226 Y209.886
G01 X329.167 Y214.683
G01 X329.000 Y217.500
G01 X329.222 Y221.869
G01 X329.208 Y226.181
G01 X329.000 Y230.000
G01 X329.215 Y234.036
G01 X329.227 Y238.044
G01 X329.037 Y242.015
G01 X329.000 Y242.500
G01 X329.212 Y246.388
G01 X329.232 Y250.279
G01 X329.062 Y254.163
G01 X329.000 Y255.000
G01 X329.213 Y258.933
G01 X329.229 Y262.898
G01 X329.046 Y266.887
G01 X329.000 Y267.500
G01 X329.219 Y271.676
G01 X329.215 Y275.915
G01 X329.000 Y280.000
G01 X329.224 Y284.623
G01 X329.180 Y289.338
G01 X329.000 Y292.500
G01 X329.223 Y297.775
G01 X329.113 Y303.170
G01 X329.000 Y305.000
G01 X329.295 Y311.194
G01 X329.165 Y317.543
G01 X329.000 Y320.000
G01 X329.271 Y327.508
G01 X329.000 Y335.000
G01 X329.226 Y344.109
G01 X329.000 Y350.000
G01 X329.256 Y361.128
G01 X329.000 Y367.500
G01 X329.257 Y381.375
G01 X329.000 Y387.500
G01 X329.216 Y405.023
G01 X329.000 Y410.000
G01 X329.021 Y432.036
G01 X329.000 Y432.500
G01 X329.000 Y460.000
G01 X328.166 Y487.466
G01 X324.569 Y488.620
G01 X325.000 Y460.000
G01 X325.000 Y432.500
G01 X325.000 Y410.000
G01 X325.193 Y391.852
G01 X325.000 Y387.500
G01 X325.244 Y373.158
G01 X325.000 Y367.500
G01 X325.251 Y356.035
G01 X325.000 Y350.000
G01 X325.225 Y340.666
G01 X325.000 Y335.000
G01 X325.275 Y327.309
G01 X325.000 Y320.000
G01 X325.304 Y313.665
G01 X325.174 Y307.475
G01 X325.000 Y305.000
G01 X325.232 Y299.684
G01 X325.128 Y294.482
G01 X325.000 Y292.500
G01 X325.233 Y287.882
G01 X325.198 Y283.345
G01 X325.000 Y280.000
G01 X325.227 Y275.886
G01 X325.234 Y271.824
G01 X325.026 Y267.824
G01 X325.000 Y267.500
G01 X325.220 Y263.699
G01 X325.248 Y259.919
G01 X325.089 Y256.169
G01 X325.000 Y255.000
G01 X325.216 Y251.315
G01 X325.251 Y247.621
G01 X325.105 Y243.926
G01 X325.000 Y242.500
G01 X325.219 Y238.727
G01 X325.248 Y234.915
G01 X325.081 Y231.074
G01 X325.000 Y230.000
G01 X325.226 Y225.929
G01 X325.231 Y221.788
G01 X325.007 Y217.590
G01 X325.000 Y217.500
G01 X325.232 Y212.914
G01 X325.190 Y208.230
G01 X325.000 Y205.000
G01 X325.229 Y199.684
G01 X325.111 Y194.240
G01 X325.000 Y192.500
G01 X325.299 Y186.167
G01 X325.150 Y179.673
G01 X325.000 Y177.500
G01 X325.269 Y169.731
G01 X325.000 Y162.500
G01 X325.310 Y152.872
G01 X325.000 Y145.000
G01 X325.224 Y132.939
G01 X325.000 Y127.500
G01 X325.211 Y112.422
G01 X325.000 Y107.500
G01 X325.152 Y88.440
G01 X325.000 Y85.000
G01 X325.035 Y60.786
G01 X325.000 Y60.000
G01 X325.000 Y32.500
G01 X322.502 Y10.744
G01 X320.920 Y10.270
G01 X321.000 Y40.000
G01 X321.000 Y67.500
G01 X321.073 Y90.894
G01 X321.000 Y92.500
G01 X321.190 Y110.751
G01 X321.000 Y115.000
G01 X321.247 Y129.304
G01 X321.000 Y135.000
G01 X321.258 Y146.331
G01 X321.000 Y152.500
G01 X321.235 Y161.638
G01 X321.000 Y167.500
G01 X321.286 Y174.954
G01 X321.021 Y182.227
G01 X321.000 Y182.500
G01 X321.225 Y188.651
G01 X321.025 Y194.654
G01 X321.000 Y195.000
G01 X321.239 Y200.209
G01 X321.144 Y205.305
G01 X321.000 Y207.500
G01 X321.241 Y211.974
G01 X321.218 Y216.367
G01 X321.000 Y220.000
G01 X321.234 Y223.942
G01 X321.255 Y227.833
G01 X321.069 Y231.662
G01 X321.000 Y232.500
G01 X321.225 Y236.112
G01 X321.268 Y239.703
G01 X321.132 Y243.265
G01 X321.000 Y245.000
G01 X321.221 Y248.489
G01 X321.271 Y251.987
G01 X321.149 Y255.486
G01 X321.000 Y257.500
G01 X321.225 Y261.080
G01 X321.268 Y264.700
G01 X321.125 Y268.351
G01 X321.000 Y270.000
G01 X321.233 Y273.896
G01 X321.252 Y277.862
G01 X321.050 Y281.886
G01 X321.000 Y282.500
G01 X321.239 Y286.940
G01 X321.210 Y291.480
G01 X321.000 Y295.000
G01 X321.237 Y300.213
G01 X321.127 Y305.553
G01 X321.000 Y307.500
G01 X321.220 Y313.712
G01 X321.000 Y320.000
G01 X321.279 Y327.532
G01 X321.000 Y335.000
G01 X321.225 Y344.315
G01 X321.000 Y350.000
G01 X321.245 Y361.565
G01 X321.000 Y367.500
G01 X321.231 Y382.123
G01 X321.000 Y387.500
G01 X321.169 Y406.182
G01 X321.000 Y410.000
G01 X321.047 Y433.962
G01 X321.000 Y435.000
G01 X321.000 Y462.500
G01 X319.586 Y490.120
G01 X309.178 Y492.895
G01 X317.000 Y490.000
G01 X317.000 Y457.500
G01 X317.000 Y430.000
G01 X317.057 Y406.238
G01 X317.000 Y405.000
G01 X317.185 Y386.601
G01 X317.000 Y382.500
G01 X317.250 Y368.206
G01 X317.000 Y362.500
G01 X317.265 Y351.286
G01 X317.000 Y345.000
G01 X317.244 Y336.049
G01 X317.000 Y330.000
G01 X317.297 Y322.780
G01 X317.056 Y315.732
G01 X317.000 Y315.000
G01 X317.236 Y309.108
G01 X317.061 Y303.356
G01 X317.000 Y302.500
G01 X317.249 Y297.560
G01 X317.180 Y292.727
G01 X317.000 Y290.000
G01 X317.248 Y285.795
G01 X317.249 Y281.663
G01 X317.011 Y277.620
G01 X317.000 Y277.500
G01 X317.239 Y273.815
G01 X317.280 Y270.173
G01 X317.129 Y266.585
G01 X317.000 Y265.000
G01 X317.229 Y261.621
G01 X317.289 Y258.255
G01 X317.182 Y254.912
G01 X317.000 Y252.500
G01 X317.226 Y249.207
G01 X317.290 Y245.898
G01 X317.191 Y242.581
G01 X317.000 Y240.000
G01 X317.232 Y236.564
G01 X317.286 Y233.081
G01 X317.159 Y229.562
G01 X317.000 Y227.500
G01 X317.242 Y223.681
G01 X317.268 Y219.785
G01 X317.069 Y215.825
G01 X317.000 Y215.000
G01 X317.248 Y210.555
G01 X317.216 Y206.003
G01 X317.000 Y202.500
G01 X317.242 Y197.186
G01 X317.117 Y191.738
G01 X317.000 Y190.000
G01 X317.220 Y183.578
G01 X317.000 Y177.500
G01 X317.274 Y169.626
G01 X317.000 Y162.500
G01 X317.306 Y152.541
G01 X317.000 Y145.000
G01 X317.204 Y132.318
G01 X317.000 Y127.500
G01 X317.172 Y111.439
G01 X317.000 Y107.500
G01 X317.089 Y86.982
G01 X317.000 Y85.000
G01 X317.000 Y60.000
G01 X317.000 Y30.000
G01 X314.118 Y8.362
G01 X305.826 Y6.313
G01 X313.000 Y12.500
G01 X313.000 Y45.000
G01 X313.000 Y72.500
G01 X313.036 Y96.711
G01 X313.000 Y97.500
G01 X313.177 Y116.099
G01 X313.000 Y120.000
G01 X313.251 Y134.317
G01 X313.000 Y140.000
G01 X313.272 Y151.115
G01 X313.000 Y157.500
G01 X313.254 Y166.274
G01 X313.000 Y172.500
G01 X313.309 Y179.491
G01 X313.092 Y186.317
G01 X313.000 Y187.500
G01 X313.246 Y193.134
G01 X313.098 Y198.636
G01 X313.000 Y200.000
G01 X313.258 Y204.670
G01 X313.215 Y209.241
G01 X313.000 Y212.500
G01 X313.255 Y216.437
G01 X313.280 Y220.307
G01 X313.081 Y224.096
G01 X313.000 Y225.000
G01 X313.244 Y228.431
G01 X313.305 Y231.824
G01 X313.188 Y235.171
G01 X313.000 Y237.500
G01 X313.233 Y240.651
G01 X313.309 Y243.795
G01 X313.230 Y246.924
G01 X313.000 Y250.000
G01 X313.232 Y253.106
G01 X313.309 Y256.235
G01 X313.231 Y259.380
G01 X313.000 Y262.500
G01 X313.240 Y265.809
G01 X313.306 Y269.170
G01 X313.191 Y272.576
G01 X313.000 Y275.000
G01 X313.252 Y278.768
G01 X313.282 Y282.620
G01 X313.083 Y286.542
G01 X313.000 Y287.500
G01 X313.256 Y291.988
G01 X313.218 Y296.588
G01 X313.000 Y300.000
G01 X313.246 Y305.465
G01 X313.100 Y311.068
G01 X313.000 Y312.500
G01 X313.308 Y319.293
G01 X313.093 Y326.258
G01 X313.000 Y327.500
G01 X313.255 Y336.126
G01 X313.000 Y342.500
G01 X313.273 Y353.473
G01 X313.000 Y360.000
G01 X313.252 Y374.201
G01 X313.000 Y380.000
G01 X313.178 Y398.527
G01 X313.000 Y402.500
G01 X313.037 Y426.698
G01 X313.000 Y427.500
G01 X313.000 Y455.000
G01 X313.000 Y487.500
G01 X305.826 Y493.687
G01 X302.443 Y494.438
G01 X309.000 Y487.500
G01 X309.000 Y455.000
G01 X309.000 Y427.500
G01 X309.000 Y402.500
G01 X309.140 Y383.060
G01 X309.000 Y380.000
G01 X309.229 Y365.132
G01 X309.000 Y360.000
G01 X309.261 Y348.550
G01 X309.000 Y342.500
G01 X309.251 Y333.548
G01 X309.000 Y327.500
G01 X309.211 Y320.329
G01 X309.000 Y315.000
G01 X309.248 Y309.160
G01 X309.072 Y303.460
G01 X309.000 Y302.500
G01 X309.266 Y297.738
G01 X309.212 Y293.081
G01 X309.000 Y290.000
G01 X309.266 Y286.068
G01 X309.293 Y282.208
G01 X309.087 Y278.435
G01 X309.000 Y277.500
G01 X309.186 Y274.126
G01 X309.185 Y270.802
G01 X309.003 Y267.537
G01 X309.000 Y267.500
G01 X309.179 Y264.435
G01 X309.201 Y261.396
G01 X309.069 Y258.389
G01 X309.000 Y257.500
G01 X309.175 Y254.586
G01 X309.206 Y251.674
G01 X309.094 Y248.769
G01 X309.000 Y247.500
G01 X309.175 Y244.574
G01 X309.205 Y241.625
G01 X309.087 Y238.660
G01 X309.000 Y237.500
G01 X309.181 Y234.392
G01 X309.196 Y231.237
G01 X309.043 Y228.043
G01 X309.000 Y227.500
G01 X309.258 Y224.003
G01 X309.312 Y220.428
G01 X309.155 Y216.787
G01 X309.000 Y215.000
G01 X309.265 Y210.788
G01 X309.254 Y206.470
G01 X309.000 Y202.500
G01 X309.256 Y197.298
G01 X309.138 Y191.962
G01 X309.000 Y190.000
G01 X309.228 Y183.538
G01 X309.000 Y177.500
G01 X309.275 Y169.383
G01 X309.000 Y162.500
G01 X309.294 Y152.012
G01 X309.000 Y145.000
G01 X309.171 Y131.422
G01 X309.000 Y127.500
G01 X309.116 Y110.084
G01 X309.000 Y107.500
G01 X309.001 Y85.024
G01 X309.000 Y85.000
G01 X309.000 Y57.500
G01 X309.000 Y27.500
G01 X305.835 Y6.315
G01 X299.029 Y4.855
G01 X305.000 Y12.500
G01 X305.000 Y45.000
G01 X305.000 Y75.000
G01 X305.000 Y100.000
G01 X305.124 Y119.814
G01 X305.000 Y122.500
G01 X305.225 Y137.504
G01 X305.000 Y142.500
G01 X305.265 Y153.922
G01 X305.000 Y160.000
G01 X305.259 Y168.817
G01 X305.000 Y175.000
G01 X305.221 Y181.969
G01 X305.000 Y187.500
G01 X305.259 Y193.097
G01 X305.108 Y198.562
G01 X305.000 Y200.000
G01 X305.277 Y204.496
G01 X305.250 Y208.895
G01 X305.000 Y212.500
G01 X305.197 Y216.209
G01 X305.166 Y219.845
G01 X305.000 Y222.500
G01 X305.193 Y225.712
G01 X305.206 Y228.875
G01 X305.044 Y231.979
G01 X305.000 Y232.500
G01 X305.185 Y235.381
G01 X305.222 Y238.237
G01 X305.112 Y241.061
G01 X305.000 Y242.500
G01 X305.180 Y245.218
G01 X305.225 Y247.936
G01 X305.137 Y250.647
G01 X305.000 Y252.500
G01 X305.180 Y255.231
G01 X305.225 Y257.985
G01 X305.130 Y260.756
G01 X305.000 Y262.500
G01 X305.187 Y265.426
G01 X305.217 Y268.400
G01 X305.087 Y271.413
G01 X305.000 Y272.500
G01 X305.194 Y275.810
G01 X305.192 Y279.191
G01 X305.000 Y282.500
G01 X305.274 Y286.435
G01 X305.290 Y290.473
G01 X305.039 Y294.596
G01 X305.000 Y295.000
G01 X305.267 Y299.941
G01 X305.176 Y305.011
G01 X305.000 Y307.500
G01 X305.239 Y313.737
G01 X305.000 Y320.000
G01 X305.285 Y327.952
G01 X305.000 Y335.000
G01 X305.300 Y345.425
G01 X305.000 Y352.500
G01 X305.169 Y366.160
G01 X305.000 Y370.000
G01 X305.104 Y387.693
G01 X305.000 Y390.000
G01 X305.077 Y413.326
G01 X305.000 Y415.000
G01 X305.000 Y442.500
G01 X305.000 Y475.000
G01 X301.268 Y494.687
G01 X295.586 Y495.809
G01 X301.000 Y485.000
G01 X301.000 Y450.000
G01 X301.000 Y420.000
G01 X301.000 Y395.000
G01 X301.132 Y375.354
G01 X301.000 Y372.500
G01 X301.241 Y357.837
G01 X301.000 Y352.500
G01 X301.286 Y341.519
G01 X301.000 Y335.000
G01 X301.281 Y326.671
G01 X301.000 Y320.000
G01 X301.241 Y313.529
G01 X301.000 Y307.500
G01 X301.276 Y302.391
G01 X301.180 Y297.399
G01 X301.000 Y295.000
G01 X301.202 Y290.891
G01 X301.129 Y286.874
G01 X301.000 Y285.000
G01 X301.205 Y281.561
G01 X301.200 Y278.189
G01 X301.000 Y275.000
G01 X301.199 Y272.051
G01 X301.234 Y269.144
G01 X301.109 Y266.288
G01 X301.000 Y265.000
G01 X301.189 Y262.362
G01 X301.244 Y259.742
G01 X301.165 Y257.147
G01 X301.000 Y255.000
G01 X301.184 Y252.492
G01 X301.245 Y249.977
G01 X301.182 Y247.463
G01 X301.000 Y245.000
G01 X301.187 Y242.431
G01 X301.244 Y239.831
G01 X301.168 Y237.208
G01 X301.000 Y235.000
G01 X301.196 Y232.170
G01 X301.235 Y229.285
G01 X301.112 Y226.354
G01 X301.000 Y225.000
G01 X301.203 Y221.704
G01 X301.202 Y218.329
G01 X301.000 Y215.000
G01 X301.284 Y210.970
G01 X301.291 Y206.831
G01 X301.010 Y202.601
G01 X301.000 Y202.500
G01 X301.270 Y197.319
G01 X301.148 Y192.005
G01 X301.000 Y190.000
G01 X301.231 Y183.359
G01 X301.000 Y177.500
G01 X301.268 Y168.940
G01 X301.000 Y162.500
G01 X301.268 Y151.193
G01 X301.000 Y145.000
G01 X301.219 Y129.885
G01 X301.000 Y125.000
G01 X301.103 Y104.747
G01 X301.000 Y102.500
G01 X301.000 Y77.500
G01 X301.000 Y47.500
G01 X301.000 Y12.500
G01 X295.586 Y4.191
G01 X292.117 Y3.573
G01 X297.000 Y15.000
G01 X297.000 Y50.000
G01 X297.000 Y80.000
G01 X297.000 Y105.000
G01 X297.075 Y125.891
G01 X297.000 Y127.500
G01 X297.207 Y142.984
G01 X297.000 Y147.500
G01 X297.267 Y158.990
G01 X297.000 Y165.000
G01 X297.274 Y173.614
G01 X297.000 Y180.000
G01 X297.241 Y186.601
G01 X297.000 Y192.500
G01 X297.283 Y197.624
G01 X297.182 Y202.632
G01 X297.000 Y205.000
G01 X297.210 Y209.044
G01 X297.142 Y212.997
G01 X297.000 Y215.000
G01 X297.215 Y218.319
G01 X297.221 Y221.572
G01 X297.024 Y224.747
G01 X297.000 Y225.000
G01 X297.207 Y227.789
G01 X297.257 Y230.538
G01 X297.152 Y233.236
G01 X297.000 Y235.000
G01 X297.195 Y237.453
G01 X297.265 Y239.889
G01 X297.210 Y242.301
G01 X297.033 Y244.682
G01 X297.000 Y245.000
G01 X297.189 Y247.312
G01 X297.264 Y249.631
G01 X297.225 Y251.950
G01 X297.072 Y254.265
G01 X297.000 Y255.000
G01 X297.193 Y257.378
G01 X297.264 Y259.786
G01 X297.212 Y262.219
G01 X297.034 Y264.670
G01 X297.000 Y265.000
G01 X297.204 Y267.661
G01 X297.257 Y270.377
G01 X297.156 Y273.140
G01 X297.000 Y275.000
G01 X297.212 Y278.168
G01 X297.223 Y281.415
G01 X297.025 Y284.729
G01 X297.000 Y285.000
G01 X297.209 Y288.898
G01 X297.144 Y292.897
G01 X297.000 Y295.000
G01 X297.282 Y299.941
G01 X297.185 Y305.012
G01 X297.000 Y307.500
G01 X297.241 Y313.960
G01 X297.000 Y320.000
G01 X297.274 Y328.473
G01 X297.000 Y335.000
G01 X297.268 Y346.370
G01 X297.000 Y352.500
G01 X297.207 Y367.904
G01 X297.000 Y372.500
G01 X297.075 Y393.366
G01 X297.000 Y395.000
G01 X297.000 Y422.500
G01 X297.000 Y452.500
G01 X297.000 Y487.500
G01 X292.117 Y496.427
G01 X288.622 Y496.999
G01 X293.000 Y482.500
G01 X293.000 Y447.500
G01 X293.000 Y417.500
G01 X293.000 Y390.000
G01 X293.074 Y369.078
G01 X293.000 Y367.500
G01 X293.218 Y352.247
G01 X293.000 Y347.500
G01 X293.286 Y336.399
G01 X293.000 Y330.000
G01 X293.295 Y321.855
G01 X293.000 Y315.000
G01 X293.262 Y308.897
G01 X293.036 Y302.934
G01 X293.000 Y302.500
G01 X293.202 Y297.760
G01 X293.049 Y293.133
G01 X293.000 Y292.500
G01 X293.222 Y288.716
G01 X293.180 Y285.016
G01 X293.000 Y282.500
G01 X293.224 Y279.452
G01 X293.255 Y276.463
G01 X293.101 Y273.543
G01 X293.000 Y272.500
G01 X293.213 Y269.975
G01 X293.284 Y267.484
G01 X293.217 Y265.036
G01 X293.016 Y262.637
G01 X293.000 Y262.500
G01 X293.199 Y260.289
G01 X293.285 Y258.088
G01 X293.261 Y255.904
G01 X293.127 Y253.742
G01 X293.000 Y252.500
G01 X293.194 Y250.388
G01 X293.283 Y248.263
G01 X293.268 Y246.131
G01 X293.147 Y243.995
G01 X293.000 Y242.500
G01 X293.202 Y240.259
G01 X293.286 Y237.980
G01 X293.249 Y235.671
G01 X293.088 Y233.336
G01 X293.000 Y232.500
G01 X293.216 Y229.887
G01 X293.276 Y227.212
G01 X293.174 Y224.484
G01 X293.000 Y222.500
G01 X293.222 Y219.269
G01 X293.227 Y215.953
G01 X293.006 Y212.565
G01 X293.000 Y212.500
G01 X293.213 Y208.409
G01 X293.124 Y204.212
G01 X293.000 Y202.500
G01 X293.280 Y197.199
G01 X293.137 Y191.764
G01 X293.000 Y190.000
G01 X293.226 Y182.966
G01 X293.000 Y177.500
G01 X293.245 Y168.185
G01 X293.000 Y162.500
G01 X293.220 Y149.925
G01 X293.000 Y145.000
G01 X293.133 Y127.909
G01 X293.000 Y125.000
G01 X293.069 Y101.473
G01 X293.000 Y100.000
G01 X293.000 Y72.500
G01 X293.000 Y40.000
G01 X292.378 Y3.618
G01 X285.103 Y2.477
G01 X289.000 Y20.000
G01 X289.000 Y57.500
G01 X289.000 Y90.000
G01 X289.000 Y117.500
G01 X289.104 Y137.796
G01 X289.000 Y140.000
G01 X289.126 Y154.762
G01 X289.000 Y157.500
G01 X289.181 Y168.493
G01 X289.000 Y172.500
G01 X289.301 Y180.607
G01 X289.000 Y187.500
G01 X289.272 Y193.445
G01 X289.062 Y199.257
G01 X289.000 Y200.000
G01 X289.214 Y204.517
G01 X289.084 Y208.928
G01 X289.000 Y210.000
G01 X289.233 Y213.526
G01 X289.219 Y216.975
G01 X289.000 Y220.000
G01 X289.233 Y222.777
G01 X289.291 Y225.502
G01 X289.178 Y228.166
G01 X289.000 Y230.000
G01 X289.149 Y232.293
G01 X289.168 Y234.552
G01 X289.063 Y236.769
G01 X289.000 Y237.500
G01 X289.142 Y239.542
G01 X289.178 Y241.568
G01 X289.111 Y243.572
G01 X289.000 Y245.000
G01 X289.137 Y246.924
G01 X289.180 Y248.850
G01 X289.128 Y250.773
G01 X289.000 Y252.500
G01 X289.139 Y254.446
G01 X289.179 Y256.411
G01 X289.121 Y258.391
G01 X289.000 Y260.000
G01 X289.145 Y262.113
G01 X289.174 Y264.263
G01 X289.085 Y266.445
G01 X289.000 Y267.500
G01 X289.225 Y269.968
G01 X289.300 Y272.500
G01 X289.218 Y275.085
G01 X289.000 Y277.500
G01 X289.232 Y280.653
G01 X289.245 Y283.892
G01 X289.030 Y287.202
G01 X289.000 Y287.500
G01 X289.220 Y291.603
G01 X289.126 Y295.813
G01 X289.000 Y297.500
G01 X289.283 Y302.942
G01 X289.119 Y308.517
G01 X289.000 Y310.000
G01 X289.218 Y317.352
G01 X289.000 Y322.500
G01 X289.226 Y332.369
G01 X289.000 Y337.500
G01 X289.183 Y350.964
G01 X289.000 Y355.000
G01 X289.173 Y373.760
G01 X289.000 Y377.500
G01 X289.000 Y402.500
G01 X289.000 Y432.500
G01 X289.000 Y467.500
G01 X287.085 Y497.234
G01 X281.564 Y497.999
G01 X285.000 Y477.500
G01 X285.000 Y440.000
G01 X285.000 Y407.500
G01 X285.000 Y380.000
G01 X285.055 Y358.655
G01 X285.000 Y357.500
G01 X285.234 Y342.526
G01 X285.000 Y337.500
G01 X285.197 Y326.827
G01 X285.000 Y322.500
G01 X285.204 Y314.617
G01 X285.000 Y310.000
G01 X285.282 Y304.187
G01 X285.085 Y298.501
G01 X285.000 Y297.500
G01 X285.226 Y293.196
G01 X285.119 Y288.990
G01 X285.000 Y287.500
G01 X285.246 Y284.230
G01 X285.258 Y281.030
G01 X285.046 Y277.914
G01 X285.000 Y277.500
G01 X285.162 Y274.937
G01 X285.159 Y272.427
G01 X285.000 Y270.000
G01 X285.157 Y267.861
G01 X285.191 Y265.756
G01 X285.105 Y263.692
G01 X285.000 Y262.500
G01 X285.148 Y260.640
G01 X285.200 Y258.795
G01 X285.155 Y256.971
G01 X285.018 Y255.173
G01 X285.000 Y255.000
G01 X285.142 Y253.271
G01 X285.199 Y251.540
G01 X285.171 Y249.811
G01 X285.058 Y248.089
G01 X285.000 Y247.500
G01 X285.144 Y245.748
G01 X285.199 Y243.977
G01 X285.165 Y242.189
G01 X285.039 Y240.391
G01 X285.000 Y240.000
G01 X285.152 Y238.062
G01 X285.196 Y236.086
G01 X285.130 Y234.077
G01 X285.000 Y232.500
G01 X285.159 Y230.207
G01 X285.175 Y227.858
G01 X285.042 Y225.461
G01 X285.000 Y225.000
G01 X285.243 Y222.117
G01 X285.284 Y219.152
G01 X285.115 Y216.119
G01 X285.000 Y215.000
G01 X285.232 Y211.128
G01 X285.163 Y207.154
G01 X285.000 Y205.000
G01 X285.293 Y199.713
G01 X285.146 Y194.297
G01 X285.000 Y192.500
G01 X285.222 Y185.172
G01 X285.000 Y180.000
G01 X285.221 Y169.963
G01 X285.000 Y165.000
G01 X285.164 Y151.072
G01 X285.000 Y147.500
G01 X285.131 Y127.810
G01 X285.000 Y125.000
G01 X285.000 Y100.000
G01 X285.000 Y70.000
G01 X285.000 Y32.500
G01 X283.041 Y2.193
G01 X278.004 Y1.573
G01 X281.000 Y25.000
G01 X281.000 Y65.000
G01 X281.000 Y97.500
G01 X281.000 Y125.000
G01 X281.032 Y146.833
G01 X281.000 Y147.500
G01 X281.236 Y162.473
G01 X281.000 Y167.500
G01 X281.211 Y177.899
G01 X281.000 Y182.500
G01 X281.224 Y189.969
G01 X281.000 Y195.000
G01 X281.305 Y200.327
G01 X281.167 Y205.542
G01 X281.000 Y207.500
G01 X281.246 Y211.304
G01 X281.197 Y215.025
G01 X281.000 Y217.500
G01 X281.168 Y220.380
G01 X281.132 Y223.196
G01 X281.000 Y225.000
G01 X281.172 Y227.293
G01 X281.195 Y229.540
G01 X281.076 Y231.734
G01 X281.000 Y232.500
G01 X281.164 Y234.372
G01 X281.220 Y236.217
G01 X281.172 Y238.029
G01 X281.023 Y239.803
G01 X281.000 Y240.000
G01 X281.152 Y241.614
G01 X281.221 Y243.219
G01 X281.208 Y244.810
G01 X281.115 Y246.384
G01 X281.000 Y247.500
G01 X281.147 Y249.022
G01 X281.218 Y250.553
G01 X281.215 Y252.088
G01 X281.135 Y253.624
G01 X281.000 Y255.000
G01 X281.153 Y256.607
G01 X281.221 Y258.242
G01 X281.203 Y259.898
G01 X281.097 Y261.572
G01 X281.000 Y262.500
G01 X281.164 Y264.382
G01 X281.216 Y266.309
G01 X281.152 Y268.275
G01 X281.000 Y270.000
G01 X281.170 Y272.349
G01 X281.181 Y274.761
G01 X281.027 Y277.225
G01 X281.000 Y277.500
G01 X281.253 Y280.593
G01 X281.273 Y283.773
G01 X281.052 Y287.025
G01 X281.000 Y287.500
G01 X281.228 Y291.794
G01 X281.104 Y296.193
G01 X281.000 Y297.500
G01 X281.276 Y303.486
G01 X281.034 Y309.603
G01 X281.000 Y310.000
G01 X281.284 Y318.610
G01 X281.000 Y325.000
G01 X281.230 Y337.488
G01 X281.000 Y342.500
G01 X281.093 Y360.505
G01 X281.000 Y362.500
G01 X281.000 Y387.500
G01 X281.000 Y417.500
G01 X281.000 Y455.000
G01 X280.764 Y498.100
G01 X274.428 Y498.804
G01 X277.000 Y472.500
G01 X277.000 Y430.000
G01 X277.000 Y395.000
G01 X277.000 Y367.500
G01 X277.041 Y345.856
G01 X277.000 Y345.000
G01 X277.130 Y330.252
G01 X277.000 Y327.500
G01 X277.222 Y317.309
G01 X277.000 Y312.500
G01 X277.243 Y305.422
G01 X277.000 Y300.000
G01 X277.214 Y294.968
G01 X277.004 Y290.044
G01 X277.000 Y290.000
G01 X277.259 Y286.395
G01 X277.233 Y282.867
G01 X277.000 Y280.000
G01 X277.180 Y277.371
G01 X277.171 Y274.800
G01 X277.000 Y272.500
G01 X277.182 Y270.478
G01 X277.232 Y268.493
G01 X277.155 Y266.555
G01 X277.000 Y265.000
G01 X277.169 Y263.394
G01 X277.248 Y261.808
G01 X277.237 Y260.247
G01 X277.140 Y258.716
G01 X277.000 Y257.500
G01 X277.155 Y256.125
G01 X277.240 Y254.754
G01 X277.257 Y253.389
G01 X277.206 Y252.033
G01 X277.087 Y250.691
G01 X277.000 Y250.000
G01 X277.152 Y248.666
G01 X277.239 Y247.317
G01 X277.257 Y245.957
G01 X277.208 Y244.588
G01 X277.089 Y243.215
G01 X277.000 Y242.500
G01 X277.165 Y240.997
G01 X277.246 Y239.460
G01 X277.240 Y237.894
G01 X277.144 Y236.304
G01 X277.000 Y235.000
G01 X277.178 Y233.105
G01 X277.232 Y231.158
G01 X277.159 Y229.166
G01 X277.000 Y227.500
G01 X277.178 Y224.992
G01 X277.173 Y222.416
G01 X277.000 Y220.000
G01 X277.257 Y216.550
G01 X277.236 Y213.008
G01 X277.000 Y210.000
G01 X277.214 Y205.077
G01 X277.004 Y200.046
G01 X277.000 Y200.000
G01 X277.244 Y193.028
G01 X277.000 Y187.500
G01 X277.223 Y177.390
G01 X277.000 Y172.500
G01 X277.231 Y157.448
G01 X277.000 Y152.500
G01 X277.000 Y130.000
G01 X277.000 Y102.500
G01 X277.000 Y67.500
G01 X277.000 Y25.000
G01 X274.428 Y1.196
G01 X270.836 Y0.870
G01 X273.000 Y30.000
G01 X273.000 Y75.000
G01 X273.000 Y110.000
G01 X273.000 Y137.500
G01 X273.000 Y160.000
G01 X273.115 Y175.088
G01 X273.000 Y177.500
G01 X273.229 Y187.584
G01 X273.000 Y192.500
G01 X273.262 Y199.225
G01 X273.000 Y205.000
G01 X273.236 Y209.566
G01 X273.084 Y214.039
G01 X273.000 Y215.000
G01 X273.174 Y218.247
G01 X273.089 Y221.422
G01 X273.000 Y222.500
G01 X273.193 Y224.883
G01 X273.211 Y227.217
G01 X273.058 Y229.488
G01 X273.000 Y230.000
G01 X273.192 Y231.752
G01 X273.269 Y233.473
G01 X273.236 Y235.156
G01 X273.095 Y236.795
G01 X273.000 Y237.500
G01 X273.174 Y238.842
G01 X273.273 Y240.170
G01 X273.298 Y241.481
G01 X273.252 Y242.770
G01 X273.137 Y244.033
G01 X273.000 Y245.000
G01 X273.157 Y246.145
G01 X273.258 Y247.293
G01 X273.302 Y248.441
G01 X273.289 Y249.587
G01 X273.220 Y250.729
G01 X273.095 Y251.862
G01 X273.000 Y252.500
G01 X273.162 Y253.675
G01 X273.263 Y254.872
G01 X273.302 Y256.088
G01 X273.277 Y257.318
G01 X273.186 Y258.561
G01 X273.029 Y259.813
G01 X273.000 Y260.000
G01 X273.181 Y261.462
G01 X273.273 Y262.966
G01 X273.271 Y264.505
G01 X273.172 Y266.074
G01 X273.000 Y267.500
G01 X273.192 Y269.515
G01 X273.239 Y271.588
G01 X273.135 Y273.711
G01 X273.000 Y275.000
G01 X273.182 Y277.822
G01 X273.138 Y280.718
G01 X273.000 Y282.500
G01 X273.249 Y286.530
G01 X273.154 Y290.656
G01 X273.000 Y292.500
G01 X273.283 Y298.577
G01 X273.020 Y304.773
G01 X273.000 Y305.000
G01 X273.260 Y314.321
G01 X273.000 Y320.000
G01 X273.155 Y334.198
G01 X273.000 Y337.500
G01 X273.039 Y359.186
G01 X273.000 Y360.000
G01 X273.000 Y387.500
G01 X273.000 Y422.500
G01 X273.000 Y467.500
G01 X271.026 Y499.114
G01 X267.232 Y499.405
G01 X269.000 Y465.000
G01 X269.000 Y417.500
G01 X269.000 Y380.000
G01 X269.000 Y352.500
G01 X269.017 Y330.362
G01 X269.000 Y330.000
G01 X269.172 Y316.108
G01 X269.000 Y312.500
G01 X269.296 Y303.827
G01 X269.000 Y297.500
G01 X269.200 Y291.909
G01 X269.000 Y287.500
G01 X269.273 Y283.814
G01 X269.235 Y280.199
G01 X269.000 Y277.500
G01 X269.203 Y275.068
G01 X269.216 Y272.686
G01 X269.044 Y270.367
G01 X269.000 Y270.000
G01 X269.208 Y268.327
G01 X269.299 Y266.684
G01 X269.277 Y265.078
G01 X269.146 Y263.516
G01 X269.000 Y262.500
G01 X269.115 Y261.272
G01 X269.156 Y260.064
G01 X269.126 Y258.879
G01 X269.027 Y257.723
G01 X269.000 Y257.500
G01 X269.106 Y256.477
G01 X269.157 Y255.463
G01 X269.156 Y254.459
G01 X269.103 Y253.468
G01 X269.000 Y252.500
G01 X269.100 Y251.565
G01 X269.154 Y250.626
G01 X269.161 Y249.685
G01 X269.123 Y248.745
G01 X269.038 Y247.808
G01 X269.000 Y247.500
G01 X269.103 Y246.525
G01 X269.156 Y245.535
G01 X269.157 Y244.531
G01 X269.105 Y243.516
G01 X269.000 Y242.500
G01 X269.187 Y241.315
G01 X269.303 Y240.094
G01 X269.344 Y238.842
G01 X269.307 Y237.562
G01 X269.189 Y236.260
G01 X269.000 Y235.000
G01 X269.205 Y233.245
G01 X269.280 Y231.436
G01 X269.223 Y229.582
G01 X269.027 Y227.690
G01 X269.000 Y227.500
G01 X269.194 Y224.865
G01 X269.172 Y222.161
G01 X269.000 Y220.000
G01 X269.258 Y216.011
G01 X269.165 Y211.931
G01 X269.000 Y210.000
G01 X269.278 Y203.676
G01 X269.000 Y197.500
G01 X269.229 Y187.428
G01 X269.000 Y182.500
G01 X269.181 Y166.309
G01 X269.000 Y162.500
G01 X269.000 Y137.500
G01 X269.000 Y105.000
G01 X269.000 Y62.500
G01 X269.000 Y10.000
G01 X267.232 Y0.595
G01 X263.616 Y0.371
G01 X265.000 Y42.500
G01 X265.000 Y92.500
G01 X265.000 Y130.000
G01 X265.000 Y160.000
G01 X265.090 Y180.646
G01 X265.000 Y182.500
G01 X265.271 Y194.338
G01 X265.000 Y200.000
G01 X265.260 Y206.934
G01 X265.000 Y212.500
G01 X265.263 Y216.685
G01 X265.155 Y220.797
G01 X265.000 Y222.500
G01 X265.208 Y225.107
G01 X265.200 Y227.664
G01 X265.000 Y230.000
G01 X265.225 Y231.649
G01 X265.327 Y233.271
G01 X265.308 Y234.855
G01 X265.172 Y236.396
G01 X265.000 Y237.500
G01 X265.128 Y238.603
G01 X265.185 Y239.688
G01 X265.173 Y240.750
G01 X265.094 Y241.786
G01 X265.000 Y242.500
G01 X265.115 Y243.349
G01 X265.183 Y244.190
G01 X265.205 Y245.022
G01 X265.183 Y245.842
G01 X265.118 Y246.648
G01 X265.010 Y247.437
G01 X265.000 Y247.500
G01 X265.105 Y248.239
G01 X265.173 Y248.982
G01 X265.204 Y249.728
G01 X265.200 Y250.474
G01 X265.158 Y251.220
G01 X265.080 Y251.962
G01 X265.000 Y252.500
G01 X265.111 Y253.288
G01 X265.179 Y254.092
G01 X265.205 Y254.911
G01 X265.186 Y255.742
G01 X265.122 Y256.583
G01 X265.011 Y257.431
G01 X265.000 Y257.500
G01 X265.124 Y258.514
G01 X265.183 Y259.558
G01 X265.175 Y260.627
G01 X265.098 Y261.717
G01 X265.000 Y262.500
G01 X265.219 Y264.003
G01 X265.324 Y265.556
G01 X265.312 Y267.152
G01 X265.178 Y268.781
G01 X265.000 Y270.000
G01 X265.207 Y272.496
G01 X265.202 Y275.057
G01 X265.000 Y277.500
G01 X265.262 Y281.574
G01 X265.156 Y285.731
G01 X265.000 Y287.500
G01 X265.261 Y294.348
G01 X265.000 Y300.000
G01 X265.271 Y311.769
G01 X265.000 Y317.500
G01 X265.090 Y338.129
G01 X265.000 Y340.000
G01 X265.000 Y370.000
G01 X265.000 Y410.000
G01 X265.000 Y462.500
G01 X263.616 Y499.629
G01 X259.992 Y499.800
G01 X261.000 Y447.500
G01 X261.000 Y392.500
G01 X261.000 Y352.500
G01 X261.000 Y325.000
G01 X261.050 Y306.030
G01 X261.000 Y305.000
G01 X261.221 Y294.598
G01 X261.000 Y290.000
G01 X261.191 Y284.062
G01 X261.000 Y280.000
G01 X261.179 Y276.400
G01 X261.033 Y272.863
G01 X261.000 Y272.500
G01 X261.233 Y270.377
G01 X261.286 Y268.289
G01 X261.164 Y266.249
G01 X261.000 Y265.000
G01 X261.146 Y263.731
G01 X261.195 Y262.486
G01 X261.150 Y261.271
G01 X261.014 Y260.092
G01 X261.000 Y260.000
G01 X261.138 Y259.169
G01 X261.223 Y258.350
G01 X261.254 Y257.544
G01 X261.235 Y256.757
G01 X261.166 Y255.990
G01 X261.050 Y255.247
G01 X261.000 Y255.000
G01 X261.116 Y254.408
G01 X261.201 Y253.817
G01 X261.255 Y253.229
G01 X261.279 Y252.644
G01 X261.272 Y252.065
G01 X261.237 Y251.493
G01 X261.172 Y250.930
G01 X261.080 Y250.376
G01 X261.000 Y250.000
G01 X261.111 Y249.454
G01 X261.195 Y248.897
G01 X261.251 Y248.331
G01 X261.278 Y247.757
G01 X261.275 Y247.176
G01 X261.242 Y246.590
G01 X261.178 Y246.000
G01 X261.084 Y245.409
G01 X261.000 Y245.000
G01 X261.132 Y244.265
G01 X261.217 Y243.506
G01 X261.253 Y242.725
G01 X261.239 Y241.926
G01 X261.173 Y241.110
G01 X261.053 Y240.283
G01 X261.000 Y240.000
G01 X261.143 Y238.824
G01 X261.195 Y237.611
G01 X261.153 Y236.368
G01 X261.015 Y235.101
G01 X261.000 Y235.000
G01 X261.230 Y232.996
G01 X261.287 Y230.936
G01 X261.167 Y228.834
G01 X261.000 Y227.500
G01 X261.281 Y223.731
G01 X261.215 Y219.889
G01 X261.000 Y217.500
G01 X261.256 Y210.451
G01 X261.000 Y205.000
G01 X261.211 Y191.910
G01 X261.000 Y187.500
G01 X261.002 Y162.536
G01 X261.000 Y162.500
G01 X261.000 Y127.500
G01 X261.000 Y80.000
G01 X261.000 Y12.500
G01 X259.992 Y0.200
G01 X256.362 Y0.081
G01 X257.000 Y67.500
G01 X257.000 Y130.000
G01 X257.000 Y170.000
G01 X257.000 Y197.500
G01 X257.206 Y210.766
G01 X257.000 Y215.000
G01 X257.315 Y220.926
G01 X257.069 Y226.785
G01 X257.000 Y227.500
G01 X257.220 Y230.264
G01 X257.187 Y232.991
G01 X257.000 Y235.000
G01 X257.155 Y236.445
G01 X257.187 Y237.867
G01 X257.098 Y239.257
G01 X257.000 Y240.000
G01 X257.064 Y240.894
G01 X257.059 Y241.769
G01 X257.000 Y242.500
G01 X257.067 Y243.136
G01 X257.090 Y243.761
G01 X257.069 Y244.370
G01 X257.006 Y244.961
G01 X257.000 Y245.000
G01 X257.063 Y245.461
G01 X257.097 Y245.917
G01 X257.105 Y246.364
G01 X257.086 Y246.802
G01 X257.042 Y247.230
G01 X257.000 Y247.500
G01 X257.055 Y247.864
G01 X257.091 Y248.228
G01 X257.109 Y248.590
G01 X257.108 Y248.950
G01 X257.089 Y249.306
G01 X257.053 Y249.658
G01 X257.000 Y250.000
G01 X257.053 Y250.347
G01 X257.090 Y250.698
G01 X257.108 Y251.054
G01 X257.109 Y251.414
G01 X257.091 Y251.776
G01 X257.054 Y252.140
G01 X257.000 Y252.500
G01 X257.060 Y252.920
G01 X257.096 Y253.351
G01 X257.105 Y253.793
G01 X257.088 Y254.243
G01 X257.044 Y254.701
G01 X257.000 Y255.000
G01 X257.066 Y255.590
G01 X257.090 Y256.198
G01 X257.070 Y256.822
G01 X257.006 Y257.457
G01 X257.000 Y257.500
G01 X257.160 Y258.469
G01 X257.240 Y259.469
G01 X257.238 Y260.497
G01 X257.151 Y261.545
G01 X257.000 Y262.500
G01 X257.241 Y264.564
G01 X257.294 Y266.678
G01 X257.156 Y268.827
G01 X257.000 Y270.000
G01 X257.256 Y274.532
G01 X257.082 Y279.128
G01 X257.000 Y280.000
G01 X257.250 Y289.807
G01 X257.000 Y295.000
G01 X257.041 Y316.661
G01 X257.000 Y317.500
G01 X257.000 Y352.500
G01 X257.000 Y405.000
G01 X257.000 Y485.000
G01 X256.362 Y499.919
G01 X252.727 Y499.985
G01 X253.000 Y397.500
G01 X253.000 Y330.000
G01 X253.000 Y292.500
G01 X253.204 Y276.674
G01 X253.000 Y272.500
G01 X253.253 Y267.711
G01 X253.045 Y262.963
G01 X253.000 Y262.500
G01 X253.155 Y260.785
G01 X253.151 Y259.089
G01 X253.000 Y257.500
G01 X253.077 Y256.717
G01 X253.085 Y255.946
G01 X253.026 Y255.191
G01 X253.000 Y255.000
G01 X253.085 Y254.613
G01 X253.140 Y254.230
G01 X253.165 Y253.853
G01 X253.161 Y253.484
G01 X253.129 Y253.126
G01 X253.070 Y252.780
G01 X253.000 Y252.500
G01 X253.068 Y252.311
G01 X253.125 Y252.122
G01 X253.171 Y251.933
G01 X253.205 Y251.744
G01 X253.230 Y251.557
G01 X253.243 Y251.372
G01 X253.247 Y251.189
G01 X253.240 Y251.009
G01 X253.224 Y250.833
G01 X253.198 Y250.661
G01 X253.163 Y250.494
G01 X253.120 Y250.331
G01 X253.069 Y250.174
G01 X253.010 Y250.023
G01 X253.000 Y250.000
G01 X253.060 Y249.850
G01 X253.113 Y249.693
G01 X253.157 Y249.532
G01 X253.193 Y249.365
G01 X253.220 Y249.193
G01 X253.238 Y249.018
G01 X253.246 Y248.839
G01 X253.244 Y248.656
G01 X253.232 Y248.471
G01 X253.210 Y248.284
G01 X253.177 Y248.096
G01 X253.133 Y247.907
G01 X253.077 Y247.718
G01 X253.011 Y247.529
G01 X253.000 Y247.500
G01 X253.081 Y247.165
G01 X253.136 Y246.817
G01 X253.163 Y246.457
G01 X253.163 Y246.087
G01 X253.133 Y245.709
G01 X253.073 Y245.325
G01 X253.000 Y245.000
G01 X253.180 Y244.058
G01 X253.273 Y243.087
G01 X253.278 Y242.095
G01 X253.193 Y241.089
G01 X253.016 Y240.073
G01 X253.000 Y240.000
G01 X253.214 Y237.000
G01 X253.139 Y233.962
G01 X253.000 Y232.500
G01 X253.269 Y223.044
G01 X253.000 Y217.500
G01 X253.000 Y190.000
G01 X253.000 Y137.500
G01 X253.000 Y40.000
G01 X252.727 Y0.015
G01 X249.091 Y0.002
G01 X249.000 Y155.000
G01 X249.000 Y215.000
G01 X248.953 Y236.546
G01 X249.000 Y237.500
G01 X248.787 Y240.645
G01 X248.880 Y243.774
G01 X249.000 Y245.000
G01 X248.913 Y245.681
G01 X248.891 Y246.356
G01 X248.931 Y247.022
G01 X249.000 Y247.500
G01 X248.908 Y247.616
G01 X248.824 Y247.734
G01 X248.749 Y247.855
G01 X248.684 Y247.977
G01 X248.627 Y248.101
G01 X248.579 Y248.225
G01 X248.540 Y248.349
G01 X248.509 Y248.473
G01 X248.487 Y248.595
G01 X248.474 Y248.716
G01 X248.468 Y248.835
G01 X248.470 Y248.951
G01 X248.480 Y249.064
G01 X248.497 Y249.173
G01 X248.521 Y249.278
G01 X248.552 Y249.379
G01 X248.588 Y249.475
G01 X248.631 Y249.566
G01 X248.679 Y249.652
G01 X248.732 Y249.732
G01 X248.789 Y249.805
G01 X248.850 Y249.873
G01 X248.915 Y249.933
G01 X248.983 Y249.988
G01 X249.000 Y250.000
G01 X248.931 Y250.052
G01 X248.866 Y250.112
G01 X248.804 Y250.177
G01 X248.745 Y250.250
G01 X248.691 Y250.328
G01 X248.642 Y250.412
G01 X248.598 Y250.501
G01 X248.560 Y250.596
G01 X248.528 Y250.696
G01 X248.502 Y250.800
G01 X248.484 Y250.909
G01 X248.472 Y251.021
G01 X248.468 Y251.136
G01 X248.472 Y251.254
G01 X248.483 Y251.375
G01 X248.503 Y251.497
G01 X248.532 Y251.620
G01 X248.569 Y251.744
G01 X248.614 Y251.868
G01 X248.669 Y251.992
G01 X248.732 Y252.115
G01 X248.805 Y252.236
G01 X248.886 Y252.355
G01 X248.976 Y252.472
G01 X249.000 Y252.500
G01 X248.810 Y253.458
G01 X248.712 Y254.439
G01 X248.709 Y255.436
G01 X248.800 Y256.441
G01 X248.988 Y257.448
G01 X249.000 Y257.500
G01 X248.752 Y264.919
G01 X249.000 Y270.000
G01 X249.000 Y307.500
G01 X249.000 Y415.000
G01 X249.091 Y499.998
G01 X245.455 Y499.959
G01 X245.000 Y420.000
G01 X245.000 Y355.000
G01 X245.000 Y315.000
G01 X245.000 Y290.000
G01 X244.762 Y279.899
G01 X245.000 Y275.000
G01 X244.712 Y271.018
G01 X244.801 Y267.076
G01 X245.000 Y265.000
G01 X244.851 Y263.243
G01 X244.860 Y261.512
G01 X245.000 Y260.000
G01 X244.935 Y258.997
G01 X244.955 Y258.014
G01 X245.000 Y257.500
G01 X244.925 Y256.857
G01 X244.901 Y256.226
G01 X244.926 Y255.610
G01 X244.998 Y255.013
G01 X245.000 Y255.000
G01 X244.928 Y254.597
G01 X244.883 Y254.199
G01 X244.865 Y253.808
G01 X244.872 Y253.426
G01 X244.904 Y253.054
G01 X244.959 Y252.694
G01 X245.000 Y252.500
G01 X244.941 Y252.226
G01 X244.896 Y251.953
G01 X244.865 Y251.681
G01 X244.849 Y251.410
G01 X244.847 Y251.143
G01 X244.859 Y250.878
G01 X244.884 Y250.617
G01 X244.922 Y250.361
G01 X244.973 Y250.110
G01 X245.000 Y250.000
G01 X244.944 Y249.752
G01 X244.900 Y249.498
G01 X244.869 Y249.239
G01 X244.851 Y248.976
G01 X244.847 Y248.709
G01 X244.857 Y248.440
G01 X244.880 Y248.168
G01 X244.919 Y247.895
G01 X244.972 Y247.622
G01 X245.000 Y247.500
G01 X244.932 Y247.147
G01 X244.887 Y246.781
G01 X244.866 Y246.405
G01 X244.870 Y246.018
G01 X244.900 Y245.624
G01 X244.957 Y245.224
G01 X245.000 Y245.000
G01 X244.927 Y244.403
G01 X244.901 Y243.787
G01 X244.924 Y243.156
G01 X244.998 Y242.514
G01 X245.000 Y242.500
G01 X244.834 Y241.360
G01 X244.769 Y240.189
G01 X244.808 Y238.992
G01 X244.952 Y237.777
G01 X245.000 Y237.500
G01 X244.776 Y234.820
G01 X244.806 Y232.094
G01 X245.000 Y230.000
G01 X244.718 Y223.382
G01 X245.000 Y217.500
G01 X244.854 Y200.492
G01 X245.000 Y197.500
G01 X245.000 Y165.000
G01 X245.000 Y112.500
G01 X245.000 Y25.000
G01 X245.455 Y0.041
G01 X241.823 Y0.134
G01 X241.000 Y60.000
G01 X241.000 Y117.500
G01 X241.000 Y157.500
G01 X241.000 Y185.000
G01 X240.827 Y201.431
G01 X241.000 Y205.000
G01 X240.806 Y213.457
G01 X241.000 Y217.500
G01 X240.741 Y221.989
G01 X240.898 Y226.415
G01 X241.000 Y227.500
G01 X240.769 Y229.850
G01 X240.744 Y232.163
G01 X240.922 Y234.427
G01 X241.000 Y235.000
G01 X240.848 Y236.316
G01 X240.802 Y237.609
G01 X240.859 Y238.872
G01 X241.000 Y240.000
G01 X240.850 Y240.786
G01 X240.755 Y241.562
G01 X240.713 Y242.324
G01 X240.723 Y243.070
G01 X240.783 Y243.795
G01 X240.891 Y244.497
G01 X241.000 Y245.000
G01 X240.944 Y245.535
G01 X240.917 Y246.064
G01 X240.921 Y246.584
G01 X240.953 Y247.095
G01 X241.000 Y247.500
G01 X240.948 Y247.958
G01 X240.920 Y248.415
G01 X240.914 Y248.870
G01 X240.931 Y249.322
G01 X240.971 Y249.770
G01 X241.000 Y250.000
G01 X240.949 Y250.445
G01 X240.920 Y250.894
G01 X240.914 Y251.348
G01 X240.931 Y251.804
G01 X240.970 Y252.262
G01 X241.000 Y252.500
G01 X240.945 Y253.001
G01 X240.918 Y253.513
G01 X240.920 Y254.035
G01 X240.952 Y254.565
G01 X241.000 Y255.000
G01 X240.858 Y255.683
G01 X240.763 Y256.391
G01 X240.716 Y257.122
G01 X240.719 Y257.872
G01 X240.775 Y258.638
G01 X240.884 Y259.417
G01 X241.000 Y260.000
G01 X240.851 Y261.228
G01 X240.801 Y262.494
G01 X240.856 Y263.789
G01 X241.000 Y265.000
G01 X240.771 Y267.248
G01 X240.743 Y269.550
G01 X240.920 Y271.892
G01 X241.000 Y272.500
G01 X240.741 Y276.906
G01 X240.897 Y281.382
G01 X241.000 Y282.500
G01 X240.707 Y291.350
G01 X241.000 Y297.500
G01 X240.900 Y315.440
G01 X241.000 Y317.500
G01 X241.000 Y347.500
G01 X241.000 Y390.000
G01 X241.000 Y452.500
G01 X241.823 Y499.866
G01 X238.195 Y499.721
G01 X237.000 Y452.500
G01 X237.000 Y400.000
G01 X237.000 Y360.000
G01 X237.000 Y332.500
G01 X237.000 Y312.500
G01 X236.850 Y300.618
G01 X237.000 Y297.500
G01 X236.740 Y290.526
G01 X237.000 Y285.000
G01 X236.727 Y280.984
G01 X236.814 Y277.034
G01 X237.000 Y275.000
G01 X236.780 Y272.636
G01 X236.757 Y270.315
G01 X236.929 Y268.050
G01 X237.000 Y267.500
G01 X236.864 Y265.981
G01 X236.843 Y264.493
G01 X236.936 Y263.044
G01 X237.000 Y262.500
G01 X236.864 Y261.445
G01 X236.799 Y260.407
G01 X236.804 Y259.392
G01 X236.875 Y258.403
G01 X237.000 Y257.500
G01 X236.880 Y256.734
G01 X236.802 Y255.975
G01 X236.768 Y255.224
G01 X236.774 Y254.485
G01 X236.821 Y253.759
G01 X236.906 Y253.049
G01 X237.000 Y252.500
G01 X236.893 Y251.859
G01 X236.818 Y251.214
G01 X236.774 Y250.565
G01 X236.762 Y249.916
G01 X236.782 Y249.266
G01 X236.834 Y248.619
G01 X236.918 Y247.974
G01 X237.000 Y247.500
G01 X236.885 Y246.803
G01 X236.808 Y246.090
G01 X236.769 Y245.361
G01 X236.772 Y244.619
G01 X236.815 Y243.866
G01 X236.901 Y243.105
G01 X237.000 Y242.500
G01 X236.869 Y241.539
G01 X236.802 Y240.549
G01 X236.801 Y239.532
G01 X236.870 Y238.493
G01 X237.000 Y237.500
G01 X236.772 Y235.968
G01 X236.665 Y234.386
G01 X236.684 Y232.762
G01 X236.831 Y231.104
G01 X237.000 Y230.000
G01 X236.794 Y227.320
G01 X236.823 Y224.577
G01 X237.000 Y222.500
G01 X236.752 Y217.998
G01 X236.917 Y213.414
G01 X237.000 Y212.500
G01 X236.776 Y204.797
G01 X237.000 Y200.000
G01 X236.803 Y186.620
G01 X237.000 Y182.500
G01 X237.000 Y160.000
G01 X237.000 Y127.500
G01 X237.000 Y85.000
G01 X237.000 Y27.500
G01 X238.195 Y0.279
G01 X234.575 Y0.476
G01 X233.000 Y40.000
G01 X233.000 Y87.500
G01 X233.000 Y125.000
G01 X233.000 Y155.000
G01 X232.916 Y175.751
G01 X233.000 Y177.500
G01 X232.757 Y189.902
G01 X233.000 Y195.000
G01 X232.773 Y202.639
G01 X233.000 Y207.500
G01 X232.769 Y212.387
G01 X232.971 Y217.186
G01 X233.000 Y217.500
G01 X232.816 Y220.741
G01 X232.906 Y223.915
G01 X233.000 Y225.000
G01 X232.787 Y227.180
G01 X232.744 Y229.318
G01 X232.867 Y231.402
G01 X233.000 Y232.500
G01 X232.875 Y234.021
G01 X232.857 Y235.510
G01 X232.942 Y236.961
G01 X233.000 Y237.500
G01 X232.879 Y238.662
G01 X232.830 Y239.805
G01 X232.851 Y240.924
G01 X232.939 Y242.016
G01 X233.000 Y242.500
G01 X232.890 Y243.434
G01 X232.831 Y244.361
G01 X232.820 Y245.278
G01 X232.858 Y246.182
G01 X232.942 Y247.071
G01 X233.000 Y247.500
G01 X232.898 Y248.337
G01 X232.837 Y249.178
G01 X232.817 Y250.021
G01 X232.839 Y250.865
G01 X232.902 Y251.706
G01 X233.000 Y252.500
G01 X232.893 Y253.381
G01 X232.833 Y254.277
G01 X232.819 Y255.188
G01 X232.855 Y256.110
G01 X232.940 Y257.042
G01 X233.000 Y257.500
G01 X232.882 Y258.579
G01 X232.831 Y259.686
G01 X232.848 Y260.819
G01 X232.936 Y261.973
G01 X233.000 Y262.500
G01 X232.790 Y264.006
G01 X232.689 Y265.561
G01 X232.701 Y267.157
G01 X232.830 Y268.789
G01 X233.000 Y270.000
G01 X232.795 Y272.379
G01 X232.786 Y274.823
G01 X232.978 Y277.318
G01 X233.000 Y277.500
G01 X232.731 Y281.268
G01 X232.795 Y285.122
G01 X233.000 Y287.500
G01 X232.715 Y293.716
G01 X233.000 Y300.000
G01 X232.775 Y310.206
G01 X233.000 Y315.000
G01 X232.847 Y331.791
G01 X233.000 Y335.000
G01 X233.000 Y360.000
G01 X233.000 Y392.500
G01 X233.000 Y435.000
G01 X233.000 Y492.500
G01 X234.575 Y499.524
G01 X230.965 Y499.274
G01 X229.000 Y467.500
G01 X229.000 Y422.500
G01 X229.000 Y385.000
G01 X229.000 Y357.500
G01 X228.996 Y335.092
G01 X229.000 Y335.000
G01 X228.856 Y320.520
G01 X229.000 Y317.500
G01 X228.738 Y308.121
G01 X229.000 Y302.500
G01 X228.707 Y296.479
G01 X228.948 Y290.567
G01 X229.000 Y290.000
G01 X228.738 Y286.078
G01 X228.807 Y282.233
G01 X229.000 Y280.000
G01 X228.807 Y277.317
G01 X228.824 Y274.692
G01 X229.000 Y272.500
G01 X228.798 Y270.591
G01 X228.731 Y268.718
G01 X228.794 Y266.891
G01 X228.983 Y265.116
G01 X229.000 Y265.000
G01 X228.812 Y263.616
G01 X228.708 Y262.250
G01 X228.685 Y260.907
G01 X228.742 Y259.593
G01 X228.875 Y258.311
G01 X229.000 Y257.500
G01 X228.835 Y256.407
G01 X228.727 Y255.315
G01 X228.674 Y254.229
G01 X228.676 Y253.150
G01 X228.732 Y252.082
G01 X228.841 Y251.027
G01 X229.000 Y250.000
G01 X228.840 Y248.960
G01 X228.731 Y247.905
G01 X228.676 Y246.837
G01 X228.674 Y245.758
G01 X228.728 Y244.672
G01 X228.837 Y243.580
G01 X229.000 Y242.500
G01 X228.819 Y241.241
G01 X228.713 Y239.947
G01 X228.684 Y238.622
G01 X228.735 Y237.271
G01 X228.868 Y235.898
G01 X229.000 Y235.000
G01 X228.803 Y233.229
G01 X228.731 Y231.405
G01 X228.789 Y229.535
G01 X228.982 Y227.628
G01 X229.000 Y227.500
G01 X228.809 Y224.935
G01 X228.822 Y222.300
G01 X229.000 Y220.000
G01 X228.740 Y216.212
G01 X228.805 Y212.333
G01 X229.000 Y210.000
G01 X228.707 Y204.101
G01 X228.948 Y198.088
G01 X229.000 Y197.500
G01 X228.737 Y188.209
G01 X229.000 Y182.500
G01 X228.856 Y168.059
G01 X229.000 Y165.000
G01 X228.996 Y142.593
G01 X229.000 Y142.500
G01 X229.000 Y112.500
G01 X229.000 Y75.000
G01 X229.000 Y27.500
G01 X230.965 Y0.726
G01 X227.366 Y1.027
G01 X225.000 Y30.000
G01 X225.000 Y72.500
G01 X225.000 Y107.500
G01 X225.000 Y135.000
G01 X224.982 Y157.135
G01 X225.000 Y157.500
G01 X224.876 Y172.385
G01 X225.000 Y175.000
G01 X224.774 Y185.122
G01 X225.000 Y190.000
G01 X224.747 Y196.896
G01 X225.000 Y202.500
G01 X224.775 Y207.298
G01 X224.956 Y211.995
G01 X225.000 Y212.500
G01 X224.731 Y215.854
G01 X224.727 Y219.138
G01 X224.980 Y222.337
G01 X225.000 Y222.500
G01 X224.812 Y224.888
G01 X224.795 Y227.225
G01 X224.945 Y229.501
G01 X225.000 Y230.000
G01 X224.815 Y231.804
G01 X224.745 Y233.577
G01 X224.786 Y235.312
G01 X224.935 Y237.002
G01 X225.000 Y237.500
G01 X224.831 Y238.924
G01 X224.741 Y240.334
G01 X224.727 Y241.726
G01 X224.788 Y243.096
G01 X224.922 Y244.439
G01 X225.000 Y245.000
G01 X224.845 Y246.242
G01 X224.752 Y247.487
G01 X224.720 Y248.732
G01 X224.750 Y249.974
G01 X224.840 Y251.210
G01 X224.991 Y252.437
G01 X225.000 Y252.500
G01 X224.841 Y253.770
G01 X224.748 Y255.062
G01 X224.722 Y256.372
G01 X224.764 Y257.697
G01 X224.875 Y259.032
G01 X225.000 Y260.000
G01 X224.825 Y261.534
G01 X224.741 Y263.108
G01 X224.754 Y264.717
G01 X224.864 Y266.355
G01 X225.000 Y267.500
G01 X224.814 Y269.539
G01 X224.771 Y271.637
G01 X224.876 Y273.783
G01 X225.000 Y275.000
G01 X224.821 Y277.780
G01 X224.859 Y280.635
G01 X225.000 Y282.500
G01 X224.750 Y286.389
G01 X224.826 Y290.375
G01 X225.000 Y292.500
G01 X224.708 Y298.271
G01 X224.927 Y304.162
G01 X225.000 Y305.000
G01 X224.717 Y313.755
G01 X225.000 Y320.000
G01 X224.802 Y333.244
G01 X225.000 Y337.500
G01 X224.888 Y357.633
G01 X225.000 Y360.000
G01 X225.000 Y387.500
G01 X225.000 Y422.500
G01 X225.000 Y465.000
G01 X226.737 Y498.915
G01 X223.782 Y498.621
G01 X221.000 Y475.000
G01 X221.000 Y432.500
G01 X221.000 Y400.000
G01 X221.000 Y372.500
G01 X220.985 Y350.321
G01 X221.000 Y350.000
G01 X220.902 Y334.580
G01 X221.000 Y332.500
G01 X220.811 Y321.598
G01 X221.000 Y317.500
G01 X220.788 Y309.730
G01 X221.000 Y305.000
G01 X220.697 Y299.521
G01 X220.857 Y294.154
G01 X221.000 Y292.500
G01 X220.752 Y288.645
G01 X220.807 Y284.873
G01 X221.000 Y282.500
G01 X220.828 Y279.629
G01 X220.864 Y276.822
G01 X221.000 Y275.000
G01 X220.823 Y272.756
G01 X220.794 Y270.556
G01 X220.908 Y268.410
G01 X221.000 Y267.500
G01 X220.831 Y265.703
G01 X220.767 Y263.933
G01 X220.805 Y262.195
G01 X220.941 Y260.495
G01 X221.000 Y260.000
G01 X220.845 Y258.478
G01 X220.768 Y256.964
G01 X220.769 Y255.464
G01 X220.846 Y253.981
G01 X220.998 Y252.519
G01 X221.000 Y252.500
G01 X220.851 Y251.076
G01 X220.772 Y249.644
G01 X220.764 Y248.207
G01 X220.826 Y246.767
G01 X220.959 Y245.330
G01 X221.000 Y245.000
G01 X220.844 Y243.486
G01 X220.768 Y241.944
G01 X220.774 Y240.380
G01 X220.864 Y238.797
G01 X221.000 Y237.500
G01 X220.831 Y235.691
G01 X220.772 Y233.837
G01 X220.826 Y231.943
G01 X220.998 Y230.017
G01 X221.000 Y230.000
G01 X220.825 Y227.690
G01 X220.810 Y225.318
G01 X220.960 Y222.892
G01 X221.000 Y222.500
G01 X220.742 Y219.392
G01 X220.724 Y216.197
G01 X220.952 Y212.931
G01 X221.000 Y212.500
G01 X220.772 Y208.108
G01 X220.910 Y203.610
G01 X221.000 Y202.500
G01 X220.729 Y196.297
G01 X221.000 Y190.000
G01 X220.731 Y180.992
G01 X221.000 Y175.000
G01 X220.799 Y161.846
G01 X221.000 Y157.500
G01 X220.856 Y138.068
G01 X221.000 Y135.000
G01 X221.000 Y107.500
G01 X221.000 Y75.000
G01 X221.000 Y35.000
G01 X222.548 Y1.512
G01 X220.214 Y1.781
G01 X217.000 Y22.500
G01 X217.000 Y62.500
G01 X217.000 Y95.000
G01 X217.000 Y122.500
G01 X216.955 Y144.059
G01 X217.000 Y145.000
G01 X216.765 Y159.958
G01 X217.000 Y165.000
G01 X216.796 Y175.529
G01 X217.000 Y180.000
G01 X216.786 Y187.674
G01 X217.000 Y192.500
G01 X216.707 Y198.069
G01 X216.874 Y203.520
G01 X217.000 Y205.000
G01 X216.764 Y209.054
G01 X216.842 Y213.018
G01 X217.000 Y215.000
G01 X216.747 Y218.031
G01 X216.709 Y221.000
G01 X216.879 Y223.892
G01 X217.000 Y225.000
G01 X216.834 Y227.347
G01 X216.816 Y229.647
G01 X216.941 Y231.894
G01 X217.000 Y232.500
G01 X216.841 Y234.450
G01 X216.792 Y236.372
G01 X216.851 Y238.261
G01 X217.000 Y240.000
G01 X216.851 Y241.707
G01 X216.790 Y243.404
G01 X216.814 Y245.087
G01 X216.923 Y246.752
G01 X217.000 Y247.500
G01 X216.856 Y249.121
G01 X216.791 Y250.749
G01 X216.807 Y252.382
G01 X216.903 Y254.016
G01 X217.000 Y255.000
G01 X216.851 Y256.701
G01 X216.790 Y258.429
G01 X216.820 Y260.178
G01 X216.942 Y261.944
G01 X217.000 Y262.500
G01 X216.841 Y264.458
G01 X216.796 Y266.462
G01 X216.870 Y268.503
G01 X217.000 Y270.000
G01 X216.835 Y272.396
G01 X216.829 Y274.854
G01 X216.987 Y277.365
G01 X217.000 Y277.500
G01 X216.752 Y280.592
G01 X216.733 Y283.771
G01 X216.949 Y287.022
G01 X217.000 Y287.500
G01 X216.773 Y291.719
G01 X216.886 Y296.045
G01 X217.000 Y297.500
G01 X216.720 Y303.307
G01 X216.937 Y309.246
G01 X217.000 Y310.000
G01 X216.705 Y318.271
G01 X217.000 Y325.000
G01 X216.746 Y336.915
G01 X217.000 Y342.500
G01 X216.865 Y359.598
G01 X217.000 Y362.500
G01 X216.983 Y387.148
G01 X217.000 Y387.500
G01 X217.000 Y417.500
G01 X217.000 Y452.500
G01 X217.000 Y495.000
G01 X220.214 Y498.219
G01 X216.664 Y497.767
G01 X213.000 Y480.000
G01 X213.000 Y442.500
G01 X213.000 Y410.000
G01 X213.000 Y382.500
G01 X212.938 Y361.318
G01 X213.000 Y360.000
G01 X212.769 Y344.986
G01 X213.000 Y340.000
G01 X212.811 Y329.172
G01 X213.000 Y325.000
G01 X212.807 Y316.903
G01 X213.000 Y312.500
G01 X212.729 Y306.443
G01 X212.956 Y300.521
G01 X213.000 Y300.000
G01 X212.784 Y295.446
G01 X212.921 Y290.999
G01 X213.000 Y290.000
G01 X212.762 Y286.490
G01 X212.775 Y283.057
G01 X213.000 Y280.000
G01 X212.761 Y277.278
G01 X212.697 Y274.607
G01 X212.803 Y271.997
G01 X213.000 Y270.000
G01 X212.847 Y267.785
G01 X212.820 Y265.604
G01 X212.916 Y263.465
G01 X213.000 Y262.500
G01 X212.855 Y260.549
G01 X212.811 Y258.614
G01 X212.867 Y256.701
G01 X213.000 Y255.000
G01 X212.860 Y253.173
G01 X212.811 Y251.345
G01 X212.851 Y249.519
G01 X212.980 Y247.701
G01 X213.000 Y247.500
G01 X212.859 Y245.651
G01 X212.811 Y243.783
G01 X212.857 Y241.900
G01 X212.999 Y240.006
G01 X213.000 Y240.000
G01 X212.852 Y237.975
G01 X212.815 Y235.913
G01 X212.892 Y233.818
G01 X213.000 Y232.500
G01 X212.845 Y230.140
G01 X212.836 Y227.724
G01 X212.976 Y225.261
G01 X213.000 Y225.000
G01 X212.763 Y222.084
G01 X212.726 Y219.086
G01 X212.897 Y216.021
G01 X213.000 Y215.000
G01 X212.772 Y211.150
G01 X212.837 Y207.198
G01 X213.000 Y205.000
G01 X212.707 Y199.813
G01 X212.840 Y194.497
G01 X213.000 Y192.500
G01 X212.771 Y185.383
G01 X213.000 Y180.000
G01 X212.765 Y170.321
G01 X213.000 Y165.000
G01 X212.812 Y151.640
G01 X213.000 Y147.500
G01 X212.828 Y128.689
G01 X213.000 Y125.000
G01 X213.000 Y100.000
G01 X213.000 Y70.000
G01 X213.000 Y35.000
G01 X214.443 Y2.542
G01 X213.135 Y2.733
G01 X209.000 Y17.500
G01 X209.000 Y55.000
G01 X209.000 Y85.000
G01 X209.000 Y112.500
G01 X208.928 Y133.476
G01 X209.000 Y135.000
G01 X208.777 Y150.157
G01 X209.000 Y155.000
G01 X208.704 Y165.915
G01 X209.000 Y172.500
G01 X208.694 Y180.412
G01 X209.000 Y187.500
G01 X208.727 Y193.354
G01 X208.924 Y199.075
G01 X209.000 Y200.000
G01 X208.788 Y204.493
G01 X208.914 Y208.880
G01 X209.000 Y210.000
G01 X208.772 Y213.550
G01 X208.789 Y217.022
G01 X209.000 Y220.000
G01 X208.773 Y222.835
G01 X208.722 Y225.619
G01 X208.842 Y228.340
G01 X209.000 Y230.000
G01 X208.786 Y232.344
G01 X208.702 Y234.659
G01 X208.744 Y236.940
G01 X208.908 Y239.179
G01 X209.000 Y240.000
G01 X208.801 Y242.070
G01 X208.706 Y244.136
G01 X208.713 Y246.192
G01 X208.822 Y248.233
G01 X209.000 Y250.000
G01 X208.803 Y252.024
G01 X208.707 Y254.067
G01 X208.712 Y256.125
G01 X208.820 Y258.191
G01 X209.000 Y260.000
G01 X208.791 Y262.222
G01 X208.703 Y264.488
G01 X208.740 Y266.791
G01 X208.905 Y269.125
G01 X209.000 Y270.000
G01 X208.777 Y272.678
G01 X208.720 Y275.424
G01 X208.837 Y278.228
G01 X209.000 Y280.000
G01 X208.774 Y283.391
G01 X208.786 Y286.873
G01 X209.000 Y290.000
G01 X208.789 Y294.356
G01 X208.912 Y298.824
G01 X209.000 Y300.000
G01 X208.728 Y305.696
G01 X208.922 Y311.531
G01 X209.000 Y312.500
G01 X208.693 Y320.258
G01 X209.000 Y327.500
G01 X208.704 Y338.288
G01 X209.000 Y345.000
G01 X208.776 Y360.075
G01 X209.000 Y365.000
G01 X208.928 Y385.953
G01 X209.000 Y387.500
G01 X209.000 Y415.000
G01 X209.000 Y447.500
G01 X209.000 Y485.000
G01 X213.135 Y497.267
G01 X209.628 Y496.719
G01 X205.000 Y482.500
G01 X205.000 Y447.500
G01 X205.000 Y417.500
G01 X205.000 Y392.500
G01 X204.925 Y371.605
G01 X205.000 Y370.000
G01 X204.787 Y354.638
G01 X205.000 Y350.000
G01 X204.723 Y338.707
G01 X205.000 Y332.500
G01 X204.715 Y324.121
G01 X205.000 Y317.500
G01 X204.748 Y311.148
G01 X205.000 Y305.000
G01 X204.708 Y300.122
G01 X204.781 Y295.355
G01 X205.000 Y292.500
G01 X204.783 Y288.689
G01 X204.827 Y284.962
G01 X205.000 Y282.500
G01 X204.781 Y279.394
G01 X204.756 Y276.346
G01 X204.917 Y273.369
G01 X205.000 Y272.500
G01 X204.791 Y269.895
G01 X204.728 Y267.324
G01 X204.806 Y264.796
G01 X205.000 Y262.500
G01 X204.804 Y260.195
G01 X204.725 Y257.901
G01 X204.762 Y255.624
G01 X204.911 Y253.370
G01 X205.000 Y252.500
G01 X204.809 Y250.290
G01 X204.727 Y248.067
G01 X204.754 Y245.836
G01 X204.891 Y243.604
G01 X205.000 Y242.500
G01 X204.802 Y240.166
G01 X204.725 Y237.795
G01 X204.774 Y235.393
G01 X204.951 Y232.966
G01 X205.000 Y232.500
G01 X204.789 Y229.811
G01 X204.736 Y227.061
G01 X204.847 Y224.258
G01 X205.000 Y222.500
G01 X204.783 Y219.222
G01 X204.783 Y215.859
G01 X205.000 Y212.500
G01 X204.790 Y208.401
G01 X204.879 Y204.196
G01 X205.000 Y202.500
G01 X204.722 Y197.247
G01 X204.857 Y191.859
G01 X205.000 Y190.000
G01 X204.772 Y183.091
G01 X205.000 Y177.500
G01 X204.747 Y168.412
G01 X205.000 Y162.500
G01 X204.765 Y150.297
G01 X205.000 Y145.000
G01 X204.841 Y128.482
G01 X205.000 Y125.000
G01 X204.992 Y102.662
G01 X205.000 Y102.500
G01 X205.000 Y75.000
G01 X205.000 Y42.500
G01 X205.000 Y5.000
G01 X209.628 Y3.281
G01 X206.145 Y3.877
G01 X201.000 Y15.000
G01 X201.000 Y50.000
G01 X201.000 Y80.000
G01 X201.000 Y105.000
G01 X200.895 Y125.239
G01 X201.000 Y127.500
G01 X200.775 Y142.552
G01 X201.000 Y147.500
G01 X200.723 Y158.721
G01 X201.000 Y165.000
G01 X200.722 Y173.462
G01 X201.000 Y180.000
G01 X200.759 Y186.529
G01 X201.000 Y192.500
G01 X200.720 Y197.613
G01 X200.818 Y202.608
G01 X201.000 Y205.000
G01 X200.794 Y209.074
G01 X200.864 Y213.056
G01 X201.000 Y215.000
G01 X200.790 Y218.377
G01 X200.790 Y221.688
G01 X200.993 Y224.921
G01 X201.000 Y225.000
G01 X200.797 Y227.868
G01 X200.755 Y230.695
G01 X200.870 Y233.472
G01 X201.000 Y235.000
G01 X200.808 Y237.545
G01 X200.746 Y240.073
G01 X200.813 Y242.576
G01 X201.000 Y245.000
G01 X200.814 Y247.410
G01 X200.746 Y249.827
G01 X200.797 Y252.244
G01 X200.966 Y254.655
G01 X201.000 Y255.000
G01 X200.810 Y257.473
G01 X200.746 Y259.977
G01 X200.810 Y262.505
G01 X201.000 Y265.000
G01 X200.800 Y267.745
G01 X200.754 Y270.545
G01 X200.866 Y273.391
G01 X201.000 Y275.000
G01 X200.792 Y278.231
G01 X200.787 Y281.540
G01 X200.992 Y284.916
G01 X201.000 Y285.000
G01 X200.795 Y288.930
G01 X200.862 Y292.961
G01 X201.000 Y295.000
G01 X200.722 Y299.929
G01 X200.815 Y304.988
G01 X201.000 Y307.500
G01 X200.759 Y313.885
G01 X201.000 Y320.000
G01 X200.722 Y328.315
G01 X201.000 Y335.000
G01 X200.722 Y346.093
G01 X201.000 Y352.500
G01 X200.774 Y367.462
G01 X201.000 Y372.500
G01 X200.894 Y392.703
G01 X201.000 Y395.000
G01 X201.000 Y420.000
G01 X201.000 Y450.000
G01 X201.000 Y485.000
G01 X206.145 Y496.123
G01 X202.689 Y495.482
G01 X197.000 Y485.000
G01 X197.000 Y452.500
G01 X197.000 Y422.500
G01 X197.000 Y397.500
G01 X196.872 Y377.777
G01 X197.000 Y375.000
G01 X196.767 Y360.170
G01 X197.000 Y355.000
G01 X196.725 Y343.799
G01 X197.000 Y337.500
G01 X196.730 Y328.927
G01 X197.000 Y322.500
G01 X196.769 Y315.780
G01 X197.000 Y310.000
G01 X196.732 Y304.647
G01 X196.856 Y299.419
G01 X197.000 Y297.500
G01 X196.717 Y293.232
G01 X196.721 Y289.055
G01 X197.000 Y285.000
G01 X196.799 Y281.497
G01 X196.811 Y278.061
G01 X197.000 Y275.000
G01 X196.805 Y271.970
G01 X196.777 Y268.981
G01 X196.912 Y266.044
G01 X197.000 Y265.000
G01 X196.814 Y262.269
G01 X196.767 Y259.557
G01 X196.856 Y256.869
G01 X197.000 Y255.000
G01 X196.819 Y252.393
G01 X196.765 Y249.781
G01 X196.840 Y247.169
G01 X197.000 Y245.000
G01 X196.816 Y242.334
G01 X196.766 Y239.639
G01 X196.855 Y236.920
G01 X197.000 Y235.000
G01 X196.808 Y232.083
G01 X196.776 Y229.112
G01 X196.910 Y226.096
G01 X197.000 Y225.000
G01 X196.801 Y221.635
G01 X196.808 Y218.193
G01 X197.000 Y215.000
G01 X196.721 Y210.931
G01 X196.718 Y206.753
G01 X197.000 Y202.500
G01 X196.733 Y197.325
G01 X196.853 Y192.016
G01 X197.000 Y190.000
G01 X196.769 Y183.421
G01 X197.000 Y177.500
G01 X196.730 Y169.075
G01 X197.000 Y162.500
G01 X196.724 Y151.432
G01 X197.000 Y145.000
G01 X196.766 Y130.268
G01 X197.000 Y125.000
G01 X196.871 Y105.323
G01 X197.000 Y102.500
G01 X197.000 Y77.500
G01 X197.000 Y47.500
G01 X197.000 Y12.500
G01 X202.689 Y4.518
G01 X199.260 Y5.203
G01 X193.000 Y12.500
G01 X193.000 Y45.000
G01 X193.000 Y72.500
G01 X193.000 Y97.500
G01 X192.881 Y117.415
G01 X193.000 Y120.000
G01 X192.784 Y135.182
G01 X193.000 Y140.000
G01 X192.745 Y151.646
G01 X193.000 Y157.500
G01 X192.751 Y166.561
G01 X193.000 Y172.500
G01 X192.789 Y179.718
G01 X193.000 Y185.000
G01 X192.749 Y190.841
G01 X192.928 Y196.543
G01 X193.000 Y197.500
G01 X192.730 Y202.226
G01 X192.780 Y206.848
G01 X193.000 Y210.000
G01 X192.729 Y213.869
G01 X192.696 Y217.666
G01 X192.894 Y221.376
G01 X193.000 Y222.500
G01 X192.811 Y225.792
G01 X192.805 Y229.035
G01 X192.976 Y232.220
G01 X193.000 Y232.500
G01 X192.818 Y235.472
G01 X192.789 Y238.420
G01 X192.910 Y241.335
G01 X193.000 Y242.500
G01 X192.823 Y245.316
G01 X192.785 Y248.131
G01 X192.884 Y250.939
G01 X193.000 Y252.500
G01 X192.822 Y255.328
G01 X192.785 Y258.180
G01 X192.892 Y261.048
G01 X193.000 Y262.500
G01 X192.816 Y265.517
G01 X192.793 Y268.581
G01 X192.935 Y271.684
G01 X193.000 Y272.500
G01 X192.810 Y275.887
G01 X192.818 Y279.344
G01 X193.000 Y282.500
G01 X192.730 Y286.489
G01 X192.720 Y290.580
G01 X192.977 Y294.757
G01 X193.000 Y295.000
G01 X192.737 Y299.959
G01 X192.828 Y305.047
G01 X193.000 Y307.500
G01 X192.763 Y313.708
G01 X193.000 Y320.000
G01 X192.715 Y327.862
G01 X193.000 Y335.000
G01 X192.695 Y345.247
G01 X193.000 Y352.500
G01 X192.820 Y365.869
G01 X193.000 Y370.000
G01 X192.877 Y387.261
G01 X193.000 Y390.000
G01 X192.996 Y412.407
G01 X193.000 Y412.500
G01 X193.000 Y440.000
G01 X193.000 Y470.000
G01 X195.464 Y493.979
G01 X195.861 Y494.068
G01 X189.000 Y487.500
G01 X189.000 Y455.000
G01 X189.000 Y427.500
G01 X188.991 Y402.701
G01 X189.000 Y402.500
G01 X188.841 Y383.498
G01 X189.000 Y380.000
G01 X188.760 Y365.420
G01 X189.000 Y360.000
G01 X188.733 Y348.726
G01 X189.000 Y342.500
G01 X188.747 Y333.643
G01 X189.000 Y327.500
G01 X188.790 Y320.368
G01 X189.000 Y315.000
G01 X188.755 Y309.156
G01 X188.930 Y303.450
G01 X189.000 Y302.500
G01 X188.738 Y297.699
G01 X188.796 Y293.003
G01 X189.000 Y290.000
G01 X188.738 Y286.002
G01 X188.718 Y282.077
G01 X188.932 Y278.239
G01 X189.000 Y277.500
G01 X188.750 Y274.071
G01 X188.687 Y270.684
G01 X188.806 Y267.350
G01 X189.000 Y265.000
G01 X188.763 Y261.906
G01 X188.681 Y258.825
G01 X188.753 Y255.765
G01 X188.976 Y252.734
G01 X189.000 Y252.500
G01 X188.767 Y249.502
G01 X188.681 Y246.488
G01 X188.744 Y243.464
G01 X188.957 Y240.437
G01 X189.000 Y240.000
G01 X188.759 Y236.846
G01 X188.682 Y233.645
G01 X188.774 Y230.404
G01 X189.000 Y227.500
