;  Created by Sandify
;  https://sandify.org
;  Version: 0.2.6
;
;  Machine type: Rectangular
;    Min X (mm): 0
;    Max X (mm): 500
;    Min Y (mm): 0
;    Max Y (mm): 500
;  Content type: shape
;  Layer:
;    Shape: FileImport
;    Name: Hampton-on-Lucy 8-8-2015.thr
;    From file:: Hampton-on-Lucy 8-8-2015.thr
;    Aspect Ratio: true
;    Comments: 
;    Visible: true
;    Initial width: 10
;    Initial height: 10
;    X offset: 0
;    Y offset: 0
;    Rotate (degrees): 0
;    Reverse path: false
;    Fine tuning:
;      Connect to next layer: line
;      Draw portion of path (%): 100
;      Backtrack at end (%): 0
;      Rotate starting point (%): 0
;  Reverse export path: false
;
; File name: 'Lucy Bird (C C)'
; File type: gcode
;

G01 X250.000 Y250.000
G01 X249.999 Y250.075
G01 X250.004 Y250.150
G01 X250.018 Y250.225
G01 X250.038 Y250.299
G01 X250.066 Y250.370
G01 X250.101 Y250.440
G01 X250.143 Y250.507
G01 X250.191 Y250.571
G01 X250.247 Y250.631
G01 X250.308 Y250.686
G01 X250.376 Y250.738
G01 X250.449 Y250.784
G01 X250.527 Y250.824
G01 X250.611 Y250.858
G01 X250.698 Y250.887
G01 X250.791 Y250.908
G01 X250.886 Y250.922
G01 X250.985 Y250.929
G01 X251.087 Y250.929
G01 X251.191 Y250.920
G01 X251.296 Y250.904
G01 X251.403 Y250.879
G01 X251.510 Y250.846
G01 X251.617 Y250.804
G01 X251.723 Y250.754
G01 X251.828 Y250.696
G01 X251.932 Y250.628
G01 X252.033 Y250.552
G01 X252.131 Y250.468
G01 X252.226 Y250.376
G01 X252.316 Y250.275
G01 X252.402 Y250.166
G01 X252.482 Y250.049
G01 X252.500 Y250.022
G01 X255.000 Y250.043
G01 X257.500 Y250.065
G01 X260.000 Y250.087
G01 X262.500 Y250.109
G01 X264.999 Y250.130
G01 X267.499 Y250.152
G01 X269.999 Y250.174
G01 X272.499 Y250.195
G01 X274.299 Y250.211
G01 X274.999 Y250.207
G01 X277.499 Y250.197
G01 X279.999 Y250.185
G01 X282.500 Y250.175
G01 X285.000 Y250.164
G01 X287.500 Y250.153
G01 X290.000 Y250.143
G01 X292.500 Y250.131
G01 X295.000 Y250.121
G01 X297.500 Y250.108
G01 X300.000 Y250.099
G01 X302.500 Y250.088
G01 X305.000 Y250.076
G01 X307.475 Y250.068
G01 X309.975 Y250.053
G01 X312.475 Y250.043
G01 X313.800 Y250.037
G01 X314.467 Y251.024
G01 X315.827 Y253.108
G01 X317.225 Y255.192
G01 X318.418 Y256.995
G01 X318.700 Y257.190
G01 X320.752 Y258.616
G01 X322.786 Y260.041
G01 X324.852 Y261.465
G01 X326.902 Y262.891
G01 X327.128 Y263.056
G01 X328.964 Y264.310
G01 X331.010 Y265.738
G01 X333.072 Y267.158
G01 X335.121 Y268.578
G01 X337.184 Y270.008
G01 X338.950 Y271.238
G01 X339.203 Y271.469
G01 X341.019 Y273.181
G01 X342.848 Y274.887
G01 X344.658 Y276.603
G01 X346.480 Y278.317
G01 X348.294 Y280.017
G01 X348.318 Y280.024
G01 X350.378 Y281.401
G01 X352.482 Y282.792
G01 X354.558 Y284.172
G01 X356.631 Y285.547
G01 X358.270 Y286.636
G01 X358.745 Y286.869
G01 X361.007 Y287.983
G01 X363.243 Y289.090
G01 X365.483 Y290.187
G01 X367.717 Y291.294
G01 X369.951 Y292.402
G01 X370.448 Y292.645
G01 X372.339 Y293.149
G01 X374.762 Y293.794
G01 X377.164 Y294.423
G01 X379.587 Y295.066
G01 X379.974 Y295.171
G01 X381.567 Y296.523
G01 X383.482 Y298.148
G01 X385.396 Y299.759
G01 X387.301 Y301.380
G01 X389.202 Y302.998
G01 X391.100 Y304.611
G01 X393.019 Y306.227
G01 X394.931 Y307.850
G01 X395.899 Y308.660
G01 X396.847 Y309.451
G01 X398.763 Y311.042
G01 X400.703 Y312.632
G01 X402.615 Y314.216
G01 X404.546 Y315.812
G01 X405.871 Y316.911
G01 X406.640 Y317.018
G01 X409.111 Y317.342
G01 X411.602 Y317.674
G01 X414.062 Y318.011
G01 X416.549 Y318.340
G01 X416.930 Y318.399
G01 X418.931 Y319.121
G01 X421.264 Y319.955
G01 X423.614 Y320.814
G01 X425.971 Y321.652
G01 X428.323 Y322.506
G01 X430.653 Y323.348
G01 X430.676 Y323.357
G01 X432.925 Y324.462
G01 X435.150 Y325.562
G01 X437.395 Y326.675
G01 X439.647 Y327.774
G01 X441.897 Y328.876
G01 X444.122 Y329.972
G01 X446.369 Y331.082
G01 X448.614 Y332.195
G01 X450.866 Y333.291
G01 X452.033 Y333.870
G01 X453.160 Y334.219
G01 X455.546 Y334.991
G01 X457.943 Y335.739
G01 X460.309 Y336.493
G01 X462.699 Y337.253
G01 X465.092 Y338.008
G01 X467.462 Y338.749
G01 X469.858 Y339.496
G01 X470.764 Y339.788
G01 X471.440 Y341.174
G01 X472.534 Y343.426
G01 X473.650 Y345.662
G01 X473.830 Y346.004
G01 X471.717 Y345.728
G01 X469.234 Y345.359
G01 X466.777 Y344.988
G01 X464.311 Y344.572
G01 X461.858 Y344.123
G01 X459.385 Y343.652
G01 X456.949 Y343.159
G01 X454.502 Y342.624
G01 X452.059 Y342.078
G01 X449.629 Y341.501
G01 X447.211 Y340.895
G01 X444.783 Y340.248
G01 X442.382 Y339.603
G01 X439.978 Y338.901
G01 X437.578 Y338.189
G01 X435.190 Y337.451
G01 X432.813 Y336.687
G01 X430.448 Y335.897
G01 X428.072 Y335.072
G01 X425.730 Y334.234
G01 X423.375 Y333.361
G01 X421.062 Y332.460
G01 X418.729 Y331.543
G01 X416.414 Y330.589
G01 X414.108 Y329.614
G01 X411.819 Y328.604
G01 X409.562 Y327.586
G01 X407.291 Y326.540
G01 X405.035 Y325.462
G01 X402.795 Y324.352
G01 X400.562 Y323.228
G01 X398.342 Y322.075
G01 X396.136 Y320.895
G01 X393.936 Y319.703
G01 X391.754 Y318.472
G01 X389.584 Y317.217
G01 X387.446 Y315.951
G01 X385.302 Y314.639
G01 X383.183 Y313.333
G01 X381.085 Y311.982
G01 X378.993 Y310.614
G01 X376.914 Y309.219
G01 X374.839 Y307.811
G01 X372.802 Y306.377
G01 X370.780 Y304.908
G01 X368.759 Y303.431
G01 X366.777 Y301.923
G01 X364.799 Y300.399
G01 X362.829 Y298.849
G01 X360.889 Y297.286
G01 X358.957 Y295.692
G01 X357.056 Y294.079
G01 X355.159 Y292.439
G01 X353.289 Y290.786
G01 X351.423 Y289.103
G01 X349.606 Y287.410
G01 X347.789 Y285.694
G01 X345.973 Y283.947
G01 X344.202 Y282.191
G01 X342.449 Y280.419
G01 X340.715 Y278.627
G01 X339.000 Y276.809
G01 X337.299 Y274.969
G01 X335.610 Y273.112
G01 X333.955 Y271.239
G01 X332.331 Y269.354
G01 X330.711 Y267.446
G01 X329.117 Y265.518
G01 X327.546 Y263.573
G01 X325.994 Y261.608
G01 X324.479 Y259.637
G01 X322.976 Y257.638
G01 X321.479 Y255.621
G01 X320.033 Y253.595
G01 X318.583 Y251.549
G01 X317.173 Y249.488
G01 X315.774 Y247.413
G01 X314.405 Y245.321
G01 X313.061 Y243.219
G01 X311.761 Y241.094
G01 X310.450 Y238.961
G01 X309.173 Y236.810
G01 X307.924 Y234.646
G01 X306.701 Y232.466
G01 X305.498 Y230.273
G01 X304.339 Y228.062
G01 X303.173 Y225.850
G01 X302.046 Y223.620
G01 X300.957 Y221.368
G01 X299.865 Y219.124
G01 X298.810 Y216.856
G01 X297.799 Y214.566
G01 X296.792 Y212.283
G01 X295.808 Y209.984
G01 X294.860 Y207.676
G01 X293.944 Y205.346
G01 X293.048 Y203.013
G01 X292.175 Y200.672
G01 X291.326 Y198.315
G01 X290.498 Y195.967
G01 X289.719 Y193.578
G01 X288.948 Y191.205
G01 X288.207 Y188.826
G01 X287.491 Y186.432
G01 X286.808 Y184.023
G01 X286.142 Y181.613
G01 X285.506 Y179.205
G01 X284.905 Y176.768
G01 X284.320 Y174.346
G01 X283.779 Y171.891
G01 X283.243 Y169.466
G01 X282.754 Y167.004
G01 X282.289 Y164.547
G01 X281.839 Y162.088
G01 X281.426 Y159.633
G01 X281.191 Y158.152
G01 X282.099 Y157.697
G01 X282.961 Y157.258
G01 X283.266 Y158.776
G01 X283.784 Y161.210
G01 X284.336 Y163.651
G01 X284.909 Y166.097
G01 X285.516 Y168.503
G01 X286.140 Y170.944
G01 X286.797 Y173.350
G01 X287.482 Y175.749
G01 X288.195 Y178.146
G01 X288.944 Y180.520
G01 X289.700 Y182.917
G01 X290.503 Y185.279
G01 X291.316 Y187.646
G01 X292.175 Y189.987
G01 X293.036 Y192.340
G01 X293.938 Y194.675
G01 X294.867 Y196.988
G01 X295.828 Y199.290
G01 X296.799 Y201.600
G01 X297.806 Y203.882
G01 X298.836 Y206.162
G01 X299.901 Y208.426
G01 X300.973 Y210.682
G01 X302.099 Y212.915
G01 X303.226 Y215.142
G01 X304.383 Y217.363
G01 X305.583 Y219.554
G01 X306.784 Y221.745
G01 X308.007 Y223.920
G01 X309.279 Y226.074
G01 X310.553 Y228.224
G01 X311.855 Y230.355
G01 X313.188 Y232.470
G01 X314.557 Y234.570
G01 X315.938 Y236.653
G01 X317.337 Y238.724
G01 X318.758 Y240.772
G01 X320.208 Y242.813
G01 X321.689 Y244.828
G01 X323.181 Y246.828
G01 X324.691 Y248.818
G01 X326.246 Y250.784
G01 X327.802 Y252.731
G01 X329.388 Y254.664
G01 X331.008 Y256.583
G01 X332.617 Y258.471
G01 X334.266 Y260.356
G01 X335.936 Y262.214
G01 X337.631 Y264.050
G01 X339.352 Y265.870
G01 X341.078 Y267.665
G01 X342.835 Y269.446
G01 X344.625 Y271.218
G01 X346.407 Y272.948
G01 X348.224 Y274.671
G01 X350.059 Y276.370
G01 X351.910 Y278.049
G01 X353.782 Y279.706
G01 X355.676 Y281.338
G01 X357.589 Y282.961
G01 X359.505 Y284.545
G01 X361.444 Y286.115
G01 X363.412 Y287.657
G01 X365.402 Y289.191
G01 X367.397 Y290.695
G01 X369.398 Y292.166
G01 X371.451 Y293.630
G01 X373.486 Y295.059
G01 X375.552 Y296.469
G01 X377.621 Y297.860
G01 X379.724 Y299.226
G01 X381.839 Y300.557
G01 X383.956 Y301.877
G01 X386.110 Y303.165
G01 X388.246 Y304.430
G01 X390.415 Y305.674
G01 X392.620 Y306.895
G01 X394.809 Y308.087
G01 X397.011 Y309.244
G01 X399.246 Y310.388
G01 X401.466 Y311.498
G01 X403.720 Y312.592
G01 X405.985 Y313.660
G01 X408.261 Y314.699
G01 X410.542 Y315.726
G01 X412.842 Y316.705
G01 X415.149 Y317.669
G01 X417.469 Y318.601
G01 X419.796 Y319.514
G01 X422.138 Y320.393
G01 X424.488 Y321.252
G01 X426.846 Y322.091
G01 X429.196 Y322.882
G01 X431.578 Y323.660
G01 X433.977 Y324.398
G01 X436.354 Y325.120
G01 X438.764 Y325.829
G01 X441.168 Y326.484
G01 X443.581 Y327.113
G01 X445.998 Y327.735
G01 X448.432 Y328.310
G01 X450.868 Y328.877
G01 X453.323 Y329.396
G01 X455.781 Y329.905
G01 X458.226 Y330.376
G01 X460.682 Y330.816
G01 X463.140 Y331.246
G01 X465.618 Y331.623
G01 X468.098 Y331.989
G01 X470.566 Y332.313
G01 X473.037 Y332.626
G01 X475.134 Y332.865
G01 X475.157 Y332.439
G01 X475.311 Y329.950
G01 X475.468 Y327.451
G01 X475.622 Y324.965
G01 X475.675 Y324.006
G01 X474.154 Y323.830
G01 X471.673 Y323.529
G01 X469.185 Y323.167
G01 X466.724 Y322.803
G01 X464.247 Y322.401
G01 X461.773 Y321.990
G01 X459.316 Y321.528
G01 X456.868 Y321.038
G01 X454.421 Y320.541
G01 X451.991 Y319.996
G01 X449.562 Y319.445
G01 X447.125 Y318.841
G01 X444.690 Y318.231
G01 X442.294 Y317.585
G01 X439.882 Y316.908
G01 X437.478 Y316.208
G01 X435.081 Y315.487
G01 X432.698 Y314.726
G01 X430.323 Y313.945
G01 X427.954 Y313.145
G01 X425.598 Y312.309
G01 X423.254 Y311.439
G01 X420.916 Y310.552
G01 X418.607 Y309.658
G01 X416.291 Y308.708
G01 X413.980 Y307.744
G01 X411.679 Y306.752
G01 X409.410 Y305.741
G01 X407.127 Y304.696
G01 X404.881 Y303.619
G01 X402.614 Y302.527
G01 X400.382 Y301.406
G01 X398.156 Y300.264
G01 X395.964 Y299.098
G01 X393.757 Y297.892
G01 X391.578 Y296.679
G01 X389.407 Y295.438
G01 X387.266 Y294.179
G01 X385.110 Y292.875
G01 X382.983 Y291.557
G01 X380.883 Y290.226
G01 X378.789 Y288.865
G01 X376.699 Y287.475
G01 X374.640 Y286.054
G01 X372.603 Y284.630
G01 X370.570 Y283.172
G01 X368.563 Y281.690
G01 X366.553 Y280.193
G01 X364.568 Y278.667
G01 X362.607 Y277.113
G01 X360.664 Y275.548
G01 X358.741 Y273.961
G01 X356.814 Y272.340
G01 X354.926 Y270.711
G01 X353.052 Y269.059
G01 X351.193 Y267.379
G01 X349.369 Y265.688
G01 X347.554 Y263.975
G01 X345.747 Y262.234
G01 X343.968 Y260.472
G01 X342.216 Y258.692
G01 X340.487 Y256.898
G01 X338.780 Y255.082
G01 X337.064 Y253.247
G01 X335.389 Y251.390
G01 X333.749 Y249.521
G01 X332.116 Y247.625
G01 X330.486 Y245.713
G01 X328.906 Y243.784
G01 X327.346 Y241.839
G01 X325.801 Y239.873
G01 X324.269 Y237.891
G01 X322.771 Y235.898
G01 X321.301 Y233.882
G01 X319.829 Y231.848
G01 X318.405 Y229.801
G01 X316.998 Y227.737
G01 X315.604 Y225.656
G01 X314.247 Y223.560
G01 X312.901 Y221.455
G01 X311.584 Y219.326
G01 X310.298 Y217.183
G01 X309.021 Y215.036
G01 X307.793 Y212.857
G01 X306.575 Y210.675
G01 X305.368 Y208.490
G01 X304.210 Y206.269
G01 X303.071 Y204.049
G01 X301.945 Y201.819
G01 X300.858 Y199.566
G01 X299.793 Y197.304
G01 X298.734 Y195.046
G01 X297.723 Y192.760
G01 X296.740 Y190.453
G01 X295.774 Y188.145
G01 X294.833 Y185.837
G01 X293.915 Y183.520
G01 X293.035 Y181.171
G01 X292.168 Y178.829
G01 X291.338 Y176.474
G01 X290.534 Y174.095
G01 X289.743 Y171.738
G01 X288.993 Y169.357
G01 X288.279 Y166.947
G01 X287.576 Y164.547
G01 X286.898 Y162.160
G01 X286.251 Y159.732
G01 X285.638 Y157.315
G01 X285.339 Y156.078
G01 X286.442 Y155.535
G01 X287.705 Y154.902
G01 X288.014 Y155.941
G01 X288.755 Y158.331
G01 X289.521 Y160.705
G01 X290.319 Y163.070
G01 X291.135 Y165.423
G01 X291.984 Y167.773
G01 X292.852 Y170.118
G01 X293.745 Y172.464
G01 X294.672 Y174.792
G01 X295.622 Y177.099
G01 X296.602 Y179.392
G01 X297.608 Y181.676
G01 X298.626 Y183.973
G01 X299.690 Y186.222
G01 X300.756 Y188.487
G01 X301.860 Y190.737
G01 X302.985 Y192.963
G01 X304.143 Y195.180
G01 X305.324 Y197.383
G01 X306.527 Y199.574
G01 X307.747 Y201.752
G01 X309.007 Y203.909
G01 X310.287 Y206.061
G01 X311.576 Y208.197
G01 X312.903 Y210.316
G01 X314.244 Y212.426
G01 X315.620 Y214.515
G01 X317.008 Y216.591
G01 X318.434 Y218.646
G01 X319.875 Y220.686
G01 X321.335 Y222.715
G01 X322.815 Y224.732
G01 X324.315 Y226.725
G01 X325.864 Y228.692
G01 X327.419 Y230.650
G01 X328.981 Y232.602
G01 X330.576 Y234.519
G01 X332.187 Y236.431
G01 X333.839 Y238.312
G01 X335.488 Y240.184
G01 X337.162 Y242.036
G01 X338.864 Y243.866
G01 X340.597 Y245.683
G01 X342.341 Y247.477
G01 X344.097 Y249.245
G01 X345.870 Y251.005
G01 X347.687 Y252.734
G01 X349.501 Y254.449
G01 X351.339 Y256.137
G01 X353.205 Y257.815
G01 X355.074 Y259.470
G01 X356.976 Y261.099
G01 X358.886 Y262.708
G01 X360.807 Y264.293
G01 X362.766 Y265.855
G01 X364.714 Y267.394
G01 X366.700 Y268.927
G01 X368.706 Y270.423
G01 X370.729 Y271.904
G01 X372.749 Y273.350
G01 X374.812 Y274.792
G01 X376.875 Y276.192
G01 X378.959 Y277.579
G01 X381.042 Y278.943
G01 X383.151 Y280.276
G01 X385.286 Y281.588
G01 X387.420 Y282.884
G01 X389.582 Y284.155
G01 X391.748 Y285.392
G01 X393.917 Y286.607
G01 X396.114 Y287.805
G01 X398.342 Y288.967
G01 X400.548 Y290.111
G01 X402.785 Y291.230
G01 X405.052 Y292.325
G01 X407.299 Y293.395
G01 X409.579 Y294.437
G01 X411.863 Y295.457
G01 X414.153 Y296.454
G01 X416.455 Y297.411
G01 X418.758 Y298.359
G01 X421.097 Y299.270
G01 X423.439 Y300.170
G01 X425.771 Y301.016
G01 X428.131 Y301.856
G01 X430.499 Y302.663
G01 X432.873 Y303.454
G01 X435.256 Y304.211
G01 X437.650 Y304.932
G01 X440.049 Y305.635
G01 X442.454 Y306.318
G01 X444.871 Y306.962
G01 X447.293 Y307.584
G01 X449.698 Y308.178
G01 X452.134 Y308.756
G01 X454.582 Y309.290
G01 X457.037 Y309.799
G01 X459.475 Y310.277
G01 X461.945 Y310.735
G01 X464.391 Y311.181
G01 X466.876 Y311.585
G01 X469.343 Y311.954
G01 X471.819 Y312.294
G01 X474.296 Y312.627
G01 X476.057 Y312.826
G01 X476.052 Y312.095
G01 X476.026 Y309.591
G01 X476.022 Y307.107
G01 X475.996 Y304.607
G01 X475.973 Y302.096
G01 X475.969 Y300.645
G01 X474.909 Y300.573
G01 X472.424 Y300.342
G01 X469.940 Y300.103
G01 X467.463 Y299.836
G01 X464.971 Y299.514
G01 X462.506 Y299.193
G01 X460.021 Y298.839
G01 X457.572 Y298.444
G01 X455.104 Y298.020
G01 X452.641 Y297.571
G01 X450.188 Y297.080
G01 X447.736 Y296.587
G01 X445.294 Y296.053
G01 X442.860 Y295.479
G01 X440.432 Y294.886
G01 X438.012 Y294.256
G01 X435.595 Y293.609
G01 X433.188 Y292.927
G01 X430.807 Y292.236
G01 X428.410 Y291.507
G01 X426.024 Y290.729
G01 X423.665 Y289.945
G01 X421.288 Y289.128
G01 X418.944 Y288.273
G01 X416.602 Y287.410
G01 X414.267 Y286.506
G01 X411.937 Y285.581
G01 X409.638 Y284.624
G01 X407.346 Y283.633
G01 X405.055 Y282.625
G01 X402.769 Y281.586
G01 X400.511 Y280.523
G01 X398.257 Y279.433
G01 X396.029 Y278.324
G01 X393.805 Y277.177
G01 X391.605 Y276.014
G01 X389.408 Y274.818
G01 X387.209 Y273.607
G01 X385.061 Y272.362
G01 X382.887 Y271.088
G01 X380.761 Y269.787
G01 X378.631 Y268.466
G01 X376.521 Y267.131
G01 X374.431 Y265.759
G01 X372.359 Y264.367
G01 X370.306 Y262.944
G01 X368.267 Y261.506
G01 X366.243 Y260.031
G01 X364.231 Y258.547
G01 X362.255 Y257.034
G01 X360.288 Y255.495
G01 X358.329 Y253.932
G01 X356.399 Y252.350
G01 X354.472 Y250.750
G01 X352.571 Y249.116
G01 X350.693 Y247.470
G01 X348.836 Y245.795
G01 X346.996 Y244.103
G01 X345.196 Y242.385
G01 X343.384 Y240.657
G01 X341.605 Y238.897
G01 X339.856 Y237.116
G01 X338.110 Y235.318
G01 X336.413 Y233.496
G01 X334.712 Y231.659
G01 X333.029 Y229.803
G01 X331.385 Y227.929
G01 X329.752 Y226.034
G01 X328.151 Y224.118
G01 X326.577 Y222.176
G01 X325.008 Y220.230
G01 X323.485 Y218.252
G01 X321.959 Y216.262
G01 X320.477 Y214.252
G01 X319.017 Y212.232
G01 X317.570 Y210.190
G01 X316.139 Y208.135
G01 X314.749 Y206.061
G01 X313.375 Y203.974
G01 X312.038 Y201.860
G01 X310.722 Y199.739
G01 X309.425 Y197.604
G01 X308.148 Y195.457
G01 X306.911 Y193.279
G01 X305.683 Y191.106
G01 X304.501 Y188.900
G01 X303.330 Y186.694
G01 X302.192 Y184.470
G01 X301.071 Y182.241
G01 X299.982 Y179.985
G01 X298.917 Y177.722
G01 X297.884 Y175.454
G01 X296.884 Y173.147
G01 X295.899 Y170.845
G01 X294.939 Y168.550
G01 X294.013 Y166.234
G01 X293.112 Y163.890
G01 X292.247 Y161.546
G01 X291.402 Y159.193
G01 X290.581 Y156.829
G01 X289.787 Y154.480
G01 X289.615 Y153.949
G01 X291.353 Y153.078
G01 X292.222 Y152.636
G01 X292.717 Y154.082
G01 X293.544 Y156.436
G01 X294.399 Y158.781
G01 X295.280 Y161.119
G01 X296.184 Y163.451
G01 X297.128 Y165.762
G01 X298.098 Y168.076
G01 X299.095 Y170.368
G01 X300.119 Y172.641
G01 X301.161 Y174.925
G01 X302.241 Y177.175
G01 X303.345 Y179.416
G01 X304.487 Y181.631
G01 X305.635 Y183.864
G01 X306.832 Y186.055
G01 X308.040 Y188.243
G01 X309.282 Y190.418
G01 X310.562 Y192.552
G01 X311.857 Y194.696
G01 X313.172 Y196.822
G01 X314.508 Y198.933
G01 X315.890 Y201.022
G01 X317.287 Y203.090
G01 X318.707 Y205.150
G01 X320.167 Y207.181
G01 X321.645 Y209.196
G01 X323.120 Y211.203
G01 X324.662 Y213.174
G01 X326.206 Y215.141
G01 X327.773 Y217.089
G01 X329.366 Y219.014
G01 X330.988 Y220.921
G01 X332.617 Y222.812
G01 X334.277 Y224.674
G01 X335.976 Y226.518
G01 X337.690 Y228.344
G01 X339.422 Y230.143
G01 X341.175 Y231.924
G01 X342.930 Y233.692
G01 X344.736 Y235.428
G01 X346.547 Y237.140
G01 X348.393 Y238.832
G01 X350.251 Y240.506
G01 X352.124 Y242.150
G01 X354.039 Y243.780
G01 X355.949 Y245.376
G01 X357.882 Y246.955
G01 X359.840 Y248.504
G01 X361.825 Y250.043
G01 X363.815 Y251.546
G01 X365.836 Y253.022
G01 X367.865 Y254.479
G01 X369.904 Y255.914
G01 X371.981 Y257.313
G01 X374.071 Y258.697
G01 X376.175 Y260.050
G01 X378.271 Y261.379
G01 X380.409 Y262.687
G01 X382.568 Y263.955
G01 X384.720 Y265.204
G01 X386.917 Y266.437
G01 X389.112 Y267.633
G01 X391.305 Y268.802
G01 X393.546 Y269.948
G01 X395.762 Y271.059
G01 X398.028 Y272.142
G01 X400.294 Y273.204
G01 X402.561 Y274.242
G01 X404.856 Y275.242
G01 X407.154 Y276.214
G01 X409.452 Y277.171
G01 X411.780 Y278.084
G01 X414.111 Y278.979
G01 X416.471 Y279.843
G01 X418.837 Y280.668
G01 X421.179 Y281.482
G01 X423.580 Y282.247
G01 X425.958 Y282.998
G01 X428.343 Y283.704
G01 X430.755 Y284.403
G01 X433.176 Y285.054
G01 X435.575 Y285.686
G01 X438.005 Y286.290
G01 X440.441 Y286.859
G01 X442.884 Y287.392
G01 X445.331 Y287.907
G01 X447.785 Y288.383
G01 X450.243 Y288.839
G01 X452.709 Y289.254
G01 X455.179 Y289.648
G01 X457.658 Y289.997
G01 X460.117 Y290.318
G01 X462.604 Y290.620
G01 X465.097 Y290.895
G01 X467.574 Y291.118
G01 X470.076 Y291.340
G01 X472.562 Y291.508
G01 X475.054 Y291.647
G01 X475.329 Y291.674
G01 X475.222 Y289.445
G01 X475.113 Y286.948
G01 X474.976 Y284.458
G01 X474.931 Y283.416
G01 X473.474 Y283.359
G01 X470.983 Y283.281
G01 X468.474 Y283.149
G01 X465.995 Y282.994
G01 X463.494 Y282.809
G01 X461.000 Y282.577
G01 X458.535 Y282.324
G01 X456.048 Y282.044
G01 X453.565 Y281.741
G01 X451.092 Y281.376
G01 X448.619 Y281.011
G01 X446.155 Y280.586
G01 X443.691 Y280.162
G01 X441.235 Y279.682
G01 X438.785 Y279.166
G01 X436.338 Y278.635
G01 X433.919 Y278.075
G01 X431.481 Y277.480
G01 X429.075 Y276.841
G01 X426.644 Y276.188
G01 X424.245 Y275.494
G01 X421.848 Y274.775
G01 X419.479 Y274.036
G01 X417.090 Y273.254
G01 X414.729 Y272.439
G01 X412.371 Y271.588
G01 X410.039 Y270.725
G01 X407.708 Y269.830
G01 X405.381 Y268.890
G01 X403.077 Y267.943
G01 X400.776 Y266.940
G01 X398.498 Y265.932
G01 X396.220 Y264.875
G01 X393.965 Y263.802
G01 X391.732 Y262.702
G01 X389.497 Y261.560
G01 X387.281 Y260.410
G01 X385.086 Y259.211
G01 X382.910 Y257.995
G01 X380.751 Y256.750
G01 X378.583 Y255.479
G01 X376.456 Y254.185
G01 X374.342 Y252.858
G01 X372.241 Y251.501
G01 X370.150 Y250.118
G01 X368.093 Y248.711
G01 X366.043 Y247.282
G01 X363.999 Y245.824
G01 X362.007 Y244.337
G01 X360.016 Y242.826
G01 X358.025 Y241.294
G01 X356.079 Y239.730
G01 X354.153 Y238.147
G01 X352.242 Y236.538
G01 X350.346 Y234.904
G01 X348.485 Y233.245
G01 X346.632 Y231.564
G01 X344.809 Y229.860
G01 X342.989 Y228.137
G01 X341.216 Y226.376
G01 X339.441 Y224.608
G01 X337.707 Y222.810
G01 X335.990 Y220.995
G01 X334.310 Y219.156
G01 X332.636 Y217.289
G01 X330.998 Y215.409
G01 X329.365 Y213.513
G01 X327.778 Y211.579
G01 X326.196 Y209.640
G01 X324.662 Y207.675
G01 X323.126 Y205.696
G01 X321.638 Y203.696
G01 X320.168 Y201.673
G01 X318.717 Y199.632
G01 X317.291 Y197.579
G01 X315.911 Y195.500
G01 X314.528 Y193.414
G01 X313.195 Y191.302
G01 X311.883 Y189.170
G01 X310.602 Y187.023
G01 X309.355 Y184.862
G01 X308.111 Y182.689
G01 X306.912 Y180.505
G01 X305.742 Y178.292
G01 X304.593 Y176.073
G01 X303.464 Y173.843
G01 X302.385 Y171.589
G01 X301.327 Y169.317
G01 X300.285 Y167.052
G01 X299.295 Y164.752
G01 X298.318 Y162.448
G01 X297.371 Y160.148
G01 X296.452 Y157.818
G01 X295.571 Y155.488
G01 X294.720 Y153.124
G01 X294.201 Y151.651
G01 X295.032 Y151.231
G01 X296.315 Y150.584
G01 X296.658 Y151.602
G01 X297.500 Y153.954
G01 X298.374 Y156.300
G01 X299.291 Y158.621
G01 X300.226 Y160.936
G01 X301.196 Y163.256
G01 X302.205 Y165.531
G01 X303.237 Y167.810
G01 X304.293 Y170.071
G01 X305.390 Y172.327
G01 X306.518 Y174.545
G01 X307.678 Y176.759
G01 X308.861 Y178.969
G01 X310.078 Y181.152
G01 X311.329 Y183.314
G01 X312.611 Y185.453
G01 X313.908 Y187.592
G01 X315.251 Y189.696
G01 X316.607 Y191.803
G01 X318.004 Y193.872
G01 X319.427 Y195.926
G01 X320.874 Y197.964
G01 X322.348 Y199.991
G01 X323.839 Y201.990
G01 X325.377 Y203.960
G01 X326.940 Y205.915
G01 X328.528 Y207.850
G01 X330.137 Y209.754
G01 X331.779 Y211.648
G01 X333.423 Y213.521
G01 X335.120 Y215.357
G01 X336.828 Y217.177
G01 X338.574 Y218.975
G01 X340.330 Y220.744
G01 X342.132 Y222.495
G01 X343.925 Y224.216
G01 X345.767 Y225.912
G01 X347.612 Y227.596
G01 X349.507 Y229.236
G01 X351.410 Y230.863
G01 X353.321 Y232.454
G01 X355.270 Y234.023
G01 X357.233 Y235.564
G01 X359.239 Y237.081
G01 X361.239 Y238.567
G01 X363.262 Y240.028
G01 X365.309 Y241.461
G01 X367.383 Y242.864
G01 X369.462 Y244.247
G01 X371.570 Y245.595
G01 X373.686 Y246.905
G01 X375.837 Y248.198
G01 X377.999 Y249.460
G01 X380.173 Y250.688
G01 X382.362 Y251.890
G01 X384.565 Y253.053
G01 X386.811 Y254.199
G01 X389.049 Y255.298
G01 X391.306 Y256.375
G01 X393.558 Y257.426
G01 X395.856 Y258.437
G01 X398.150 Y259.432
G01 X400.467 Y260.381
G01 X402.783 Y261.293
G01 X405.122 Y262.184
G01 X407.460 Y263.049
G01 X409.824 Y263.873
G01 X412.188 Y264.666
G01 X414.578 Y265.430
G01 X416.971 Y266.143
G01 X419.365 Y266.836
G01 X421.785 Y267.510
G01 X424.209 Y268.127
G01 X426.634 Y268.737
G01 X429.065 Y269.284
G01 X431.496 Y269.822
G01 X433.957 Y270.314
G01 X436.421 Y270.775
G01 X438.864 Y271.200
G01 X441.335 Y271.594
G01 X443.811 Y271.951
G01 X446.288 Y272.292
G01 X448.772 Y272.574
G01 X451.259 Y272.836
G01 X453.750 Y273.057
G01 X456.243 Y273.255
G01 X458.741 Y273.410
G01 X461.245 Y273.520
G01 X463.726 Y273.601
G01 X466.235 Y273.659
G01 X468.721 Y273.688
G01 X471.237 Y273.670
G01 X473.732 Y273.620
G01 X474.060 Y273.609
G01 X473.747 Y271.474
G01 X473.368 Y269.005
G01 X472.988 Y266.527
G01 X472.606 Y264.061
G01 X472.341 Y262.192
G01 X471.737 Y262.248
G01 X469.244 Y262.506
G01 X466.753 Y262.712
G01 X464.263 Y262.889
G01 X461.750 Y263.014
G01 X459.265 Y263.113
G01 X456.755 Y263.184
G01 X454.273 Y263.211
G01 X451.769 Y263.191
G01 X449.268 Y263.127
G01 X446.768 Y263.041
G01 X444.272 Y262.896
G01 X441.778 Y262.730
G01 X439.286 Y262.527
G01 X436.796 Y262.287
G01 X434.310 Y261.994
G01 X431.826 Y261.668
G01 X429.369 Y261.312
G01 X426.889 Y260.907
G01 X424.436 Y260.476
G01 X421.984 Y260.000
G01 X419.534 Y259.501
G01 X417.086 Y258.945
G01 X414.662 Y258.369
G01 X412.240 Y257.742
G01 X409.843 Y257.083
G01 X407.420 Y256.392
G01 X405.047 Y255.659
G01 X402.672 Y254.884
G01 X400.294 Y254.086
G01 X397.940 Y253.238
G01 X395.606 Y252.356
G01 X393.268 Y251.444
G01 X390.974 Y250.505
G01 X388.674 Y249.512
G01 X386.392 Y248.497
G01 X384.126 Y247.449
G01 X381.875 Y246.357
G01 X379.638 Y245.238
G01 X377.413 Y244.081
G01 X375.223 Y242.890
G01 X373.043 Y241.667
G01 X370.870 Y240.405
G01 X368.727 Y239.116
G01 X366.614 Y237.803
G01 X364.526 Y236.444
G01 X362.437 Y235.058
G01 X360.370 Y233.644
G01 X358.346 Y232.191
G01 X356.316 Y230.718
G01 X354.346 Y229.193
G01 X352.365 Y227.655
G01 X350.419 Y226.093
G01 X348.500 Y224.490
G01 X346.609 Y222.855
G01 X344.744 Y221.198
G01 X342.900 Y219.511
G01 X341.076 Y217.802
G01 X339.289 Y216.053
G01 X337.520 Y214.289
G01 X335.782 Y212.490
G01 X334.077 Y210.662
G01 X332.382 Y208.822
G01 X330.737 Y206.944
G01 X329.120 Y205.043
G01 X327.504 Y203.128
G01 X325.938 Y201.185
G01 X324.413 Y199.199
G01 X322.896 Y197.216
G01 X321.421 Y195.195
G01 X319.992 Y193.143
G01 X318.573 Y191.094
G01 X317.192 Y189.002
G01 X315.846 Y186.899
G01 X314.524 Y184.772
G01 X313.238 Y182.630
G01 X311.985 Y180.468
G01 X310.770 Y178.285
G01 X309.591 Y176.079
G01 X308.440 Y173.868
G01 X307.322 Y171.625
G01 X306.239 Y169.377
G01 X305.183 Y167.114
G01 X304.176 Y164.819
G01 X303.194 Y162.530
G01 X302.263 Y160.201
G01 X301.350 Y157.869
G01 X300.478 Y155.541
G01 X299.640 Y153.184
G01 X298.838 Y150.823
G01 X298.427 Y149.538
G01 X299.456 Y149.009
G01 X301.104 Y148.208
G01 X301.307 Y148.815
G01 X302.103 Y151.196
G01 X302.940 Y153.549
G01 X303.825 Y155.879
G01 X304.735 Y158.205
G01 X305.690 Y160.514
G01 X306.665 Y162.823
G01 X307.696 Y165.099
G01 X308.758 Y167.360
G01 X309.875 Y169.595
G01 X311.000 Y171.835
G01 X312.179 Y174.026
G01 X313.391 Y176.216
G01 X314.636 Y178.379
G01 X315.907 Y180.543
G01 X317.226 Y182.664
G01 X318.578 Y184.765
G01 X319.961 Y186.845
G01 X321.375 Y188.909
G01 X322.833 Y190.932
G01 X324.325 Y192.943
G01 X325.842 Y194.933
G01 X327.383 Y196.898
G01 X328.972 Y198.832
G01 X330.584 Y200.735
G01 X332.228 Y202.622
G01 X333.897 Y204.480
G01 X335.596 Y206.313
G01 X337.348 Y208.106
G01 X339.107 Y209.874
G01 X340.904 Y211.618
G01 X342.712 Y213.333
G01 X344.562 Y215.019
G01 X346.426 Y216.668
G01 X348.339 Y218.291
G01 X350.274 Y219.878
G01 X352.233 Y221.429
G01 X354.198 Y222.958
G01 X356.197 Y224.460
G01 X358.229 Y225.921
G01 X360.297 Y227.341
G01 X362.356 Y228.739
G01 X364.456 Y230.091
G01 X366.579 Y231.423
G01 X368.723 Y232.710
G01 X370.890 Y233.959
G01 X373.061 Y235.184
G01 X375.260 Y236.366
G01 X377.490 Y237.515
G01 X379.727 Y238.617
G01 X381.973 Y239.696
G01 X384.256 Y240.733
G01 X386.550 Y241.726
G01 X388.858 Y242.687
G01 X391.181 Y243.612
G01 X393.520 Y244.498
G01 X395.876 Y245.342
G01 X398.225 Y246.157
G01 X400.619 Y246.924
G01 X403.007 Y247.656
G01 X405.416 Y248.350
G01 X407.822 Y249.003
G01 X410.250 Y249.612
G01 X412.675 Y250.192
G01 X415.123 Y250.724
G01 X417.571 Y251.220
G01 X420.017 Y251.663
G01 X422.487 Y252.084
G01 X424.958 Y252.446
G01 X427.428 Y252.783
G01 X429.924 Y253.074
G01 X432.395 Y253.335
G01 X434.891 Y253.528
G01 X437.388 Y253.707
G01 X439.886 Y253.833
G01 X442.385 Y253.922
G01 X444.885 Y253.973
G01 X447.385 Y253.964
G01 X449.886 Y253.935
G01 X452.388 Y253.862
G01 X454.866 Y253.746
G01 X457.369 Y253.584
G01 X459.873 Y253.396
G01 X462.351 Y253.160
G01 X464.831 Y252.875
G01 X467.310 Y252.560
G01 X469.789 Y252.194
G01 X470.715 Y252.049
G01 X470.374 Y250.525
G01 X469.817 Y248.084
G01 X469.282 Y245.654
G01 X468.749 Y243.344
G01 X468.624 Y243.370
G01 X466.163 Y243.855
G01 X463.724 Y244.288
G01 X461.233 Y244.672
G01 X458.766 Y245.027
G01 X456.297 Y245.333
G01 X453.802 Y245.593
G01 X451.306 Y245.809
G01 X448.810 Y246.000
G01 X446.312 Y246.129
G01 X443.838 Y246.216
G01 X441.339 Y246.265
G01 X438.838 Y246.257
G01 X436.337 Y246.232
G01 X433.834 Y246.136
G01 X431.331 Y246.007
G01 X428.851 Y245.829
G01 X426.346 Y245.622
G01 X423.863 Y245.354
G01 X421.379 Y245.060
G01 X418.917 Y244.708
G01 X416.428 Y244.320
G01 X413.986 Y243.894
G01 X411.516 Y243.420
G01 X409.092 Y242.897
G01 X406.637 Y242.331
G01 X404.228 Y241.723
G01 X401.813 Y241.076
G01 X399.391 Y240.393
G01 X397.012 Y239.660
G01 X394.624 Y238.897
G01 X392.276 Y238.075
G01 X389.918 Y237.230
G01 X387.598 Y236.331
G01 X385.263 Y235.387
G01 X382.964 Y234.410
G01 X380.675 Y233.405
G01 X378.417 Y232.346
G01 X376.165 Y231.252
G01 X373.939 Y230.111
G01 X371.741 Y228.937
G01 X369.542 Y227.726
G01 X367.390 Y226.470
G01 X365.258 Y225.178
G01 X363.118 Y223.858
G01 X361.044 Y222.494
G01 X358.959 Y221.106
G01 X356.907 Y219.673
G01 X354.884 Y218.196
G01 X352.895 Y216.697
G01 X350.930 Y215.156
G01 X348.985 Y213.574
G01 X347.066 Y211.970
G01 X345.187 Y210.324
G01 X343.327 Y208.656
G01 X341.505 Y206.953
G01 X339.717 Y205.212
G01 X337.936 Y203.443
G01 X336.212 Y201.639
G01 X334.497 Y199.818
G01 X332.830 Y197.952
G01 X331.195 Y196.067
G01 X329.589 Y194.158
G01 X328.027 Y192.206
G01 X326.491 Y190.228
G01 X324.987 Y188.234
G01 X323.514 Y186.220
G01 X322.085 Y184.164
G01 X320.692 Y182.092
G01 X319.331 Y179.997
G01 X318.000 Y177.877
G01 X316.727 Y175.720
G01 X315.476 Y173.558
G01 X314.270 Y171.376
G01 X313.100 Y169.161
G01 X311.957 Y166.937
G01 X310.874 Y164.692
G01 X309.817 Y162.430
G01 X308.811 Y160.133
G01 X307.828 Y157.840
G01 X306.906 Y155.513
G01 X306.010 Y153.184
G01 X305.156 Y150.831
G01 X304.343 Y148.480
G01 X303.808 Y146.840
G01 X304.523 Y146.481
G01 X306.339 Y145.579
G01 X306.466 Y146.017
G01 X307.214 Y148.402
G01 X308.007 Y150.788
G01 X308.835 Y153.144
G01 X309.739 Y155.469
G01 X310.661 Y157.789
G01 X311.634 Y160.099
G01 X312.660 Y162.374
G01 X313.717 Y164.632
G01 X314.812 Y166.882
G01 X315.961 Y169.109
G01 X317.155 Y171.310
G01 X318.382 Y173.477
G01 X319.658 Y175.627
G01 X320.978 Y177.759
G01 X322.346 Y179.846
G01 X323.731 Y181.927
G01 X325.171 Y183.975
G01 X326.657 Y185.979
G01 X328.175 Y187.962
G01 X329.727 Y189.928
G01 X331.320 Y191.844
G01 X332.950 Y193.747
G01 X334.603 Y195.615
G01 X336.310 Y197.448
G01 X338.044 Y199.247
G01 X339.805 Y201.007
G01 X341.629 Y202.737
G01 X343.455 Y204.427
G01 X345.325 Y206.095
G01 X347.229 Y207.716
G01 X349.170 Y209.292
G01 X351.134 Y210.842
G01 X353.119 Y212.356
G01 X355.149 Y213.817
G01 X357.183 Y215.250
G01 X359.271 Y216.639
G01 X361.368 Y217.998
G01 X363.498 Y219.306
G01 X365.641 Y220.580
G01 X367.822 Y221.801
G01 X370.022 Y222.982
G01 X372.265 Y224.117
G01 X374.509 Y225.225
G01 X376.774 Y226.273
G01 X379.042 Y227.288
G01 X381.361 Y228.246
G01 X383.688 Y229.177
G01 X386.020 Y230.052
G01 X388.385 Y230.877
G01 X390.761 Y231.666
G01 X393.147 Y232.403
G01 X395.547 Y233.097
G01 X397.960 Y233.746
G01 X400.386 Y234.331
G01 X402.830 Y234.895
G01 X405.264 Y235.390
G01 X407.717 Y235.859
G01 X410.187 Y236.268
G01 X412.676 Y236.628
G01 X415.134 Y236.941
G01 X417.637 Y237.198
G01 X420.110 Y237.420
G01 X422.604 Y237.583
G01 X425.119 Y237.701
G01 X427.605 Y237.776
G01 X430.112 Y237.802
G01 X432.617 Y237.780
G01 X435.117 Y237.705
G01 X437.615 Y237.596
G01 X440.109 Y237.412
G01 X442.576 Y237.210
G01 X445.062 Y236.927
G01 X447.548 Y236.622
G01 X450.028 Y236.253
G01 X452.482 Y235.860
G01 X454.956 Y235.399
G01 X457.400 Y234.892
G01 X459.841 Y234.334
G01 X462.254 Y233.748
G01 X464.685 Y233.087
G01 X466.206 Y232.663
G01 X465.959 Y231.791
G01 X465.266 Y229.397
G01 X464.545 Y226.995
G01 X463.847 Y224.601
G01 X463.268 Y222.569
G01 X462.904 Y222.681
G01 X460.498 Y223.375
G01 X458.087 Y224.039
G01 X455.669 Y224.654
G01 X453.218 Y225.204
G01 X450.788 Y225.724
G01 X448.325 Y226.183
G01 X445.857 Y226.599
G01 X443.382 Y226.953
G01 X440.904 Y227.287
G01 X438.417 Y227.545
G01 X435.925 Y227.766
G01 X433.428 Y227.935
G01 X430.948 Y228.049
G01 X428.438 Y228.119
G01 X425.947 Y228.138
G01 X423.447 Y228.096
G01 X420.942 Y228.013
G01 X418.455 Y227.888
G01 X415.960 Y227.709
G01 X413.456 Y227.479
G01 X410.993 Y227.195
G01 X408.496 Y226.869
G01 X406.039 Y226.494
G01 X403.571 Y226.064
G01 X401.114 Y225.579
G01 X398.672 Y225.058
G01 X396.241 Y224.487
G01 X393.818 Y223.856
G01 X391.405 Y223.183
G01 X389.025 Y222.466
G01 X386.650 Y221.699
G01 X384.280 Y220.885
G01 X381.940 Y220.036
G01 X379.597 Y219.120
G01 X377.281 Y218.174
G01 X374.987 Y217.176
G01 X372.735 Y216.122
G01 X370.480 Y215.040
G01 X368.241 Y213.913
G01 X366.035 Y212.726
G01 X363.868 Y211.503
G01 X361.711 Y210.242
G01 X359.580 Y208.926
G01 X357.481 Y207.578
G01 X355.408 Y206.188
G01 X353.356 Y204.756
G01 X351.328 Y203.293
G01 X349.340 Y201.778
G01 X347.390 Y200.220
G01 X345.455 Y198.629
G01 X343.556 Y197.001
G01 X341.691 Y195.334
G01 X339.860 Y193.635
G01 X338.081 Y191.886
G01 X336.313 Y190.120
G01 X334.593 Y188.307
G01 X332.903 Y186.463
G01 X331.244 Y184.594
G01 X329.632 Y182.679
G01 X328.056 Y180.746
G01 X326.525 Y178.764
G01 X325.030 Y176.761
G01 X323.568 Y174.732
G01 X322.168 Y172.669
G01 X320.778 Y170.589
G01 X319.452 Y168.472
G01 X318.162 Y166.324
G01 X316.925 Y164.155
G01 X315.714 Y161.974
G01 X314.554 Y159.763
G01 X313.443 Y157.520
G01 X312.366 Y155.260
G01 X311.334 Y152.987
G01 X310.360 Y150.678
G01 X309.420 Y148.371
G01 X308.541 Y146.022
G01 X308.058 Y144.723
G01 X309.056 Y144.218
G01 X310.458 Y143.516
G01 X310.787 Y144.367
G01 X311.696 Y146.696
G01 X312.655 Y149.007
G01 X313.678 Y151.281
G01 X314.725 Y153.556
G01 X315.835 Y155.801
G01 X316.997 Y158.011
G01 X318.212 Y160.193
G01 X319.457 Y162.362
G01 X320.749 Y164.501
G01 X322.105 Y166.598
G01 X323.486 Y168.686
G01 X324.921 Y170.727
G01 X326.402 Y172.750
G01 X327.927 Y174.720
G01 X329.491 Y176.668
G01 X331.089 Y178.590
G01 X332.743 Y180.474
G01 X334.417 Y182.317
G01 X336.150 Y184.124
G01 X337.912 Y185.899
G01 X339.722 Y187.622
G01 X341.564 Y189.312
G01 X343.436 Y190.962
G01 X345.347 Y192.584
G01 X347.307 Y194.141
G01 X349.281 Y195.670
G01 X351.291 Y197.149
G01 X353.321 Y198.601
G01 X355.411 Y199.985
G01 X357.502 Y201.344
G01 X359.635 Y202.646
G01 X361.793 Y203.901
G01 X363.982 Y205.118
G01 X366.195 Y206.275
G01 X368.444 Y207.392
G01 X370.699 Y208.453
G01 X372.971 Y209.478
G01 X375.279 Y210.446
G01 X377.604 Y211.362
G01 X379.945 Y212.223
G01 X382.309 Y213.038
G01 X384.697 Y213.804
G01 X387.085 Y214.526
G01 X389.495 Y215.180
G01 X391.935 Y215.789
G01 X394.355 Y216.350
G01 X396.803 Y216.845
G01 X399.262 Y217.308
G01 X401.726 Y217.705
G01 X404.224 Y218.043
G01 X406.682 Y218.334
G01 X409.178 Y218.574
G01 X411.683 Y218.751
G01 X414.177 Y218.882
G01 X416.660 Y218.963
G01 X419.180 Y218.984
G01 X421.665 Y218.954
G01 X424.163 Y218.862
G01 X426.653 Y218.726
G01 X429.156 Y218.523
G01 X431.650 Y218.273
G01 X434.111 Y217.976
G01 X436.587 Y217.622
G01 X439.053 Y217.213
G01 X441.510 Y216.748
G01 X443.959 Y216.242
G01 X446.395 Y215.657
G01 X448.826 Y215.047
G01 X451.221 Y214.377
G01 X453.628 Y213.636
G01 X456.006 Y212.871
G01 X458.345 Y212.041
G01 X459.656 Y211.563
G01 X459.285 Y210.527
G01 X458.421 Y208.181
G01 X457.575 Y205.818
G01 X456.707 Y203.490
G01 X456.302 Y202.388
G01 X455.053 Y202.870
G01 X452.716 Y203.749
G01 X450.362 Y204.560
G01 X447.973 Y205.330
G01 X445.598 Y206.051
G01 X443.185 Y206.715
G01 X440.759 Y207.319
G01 X438.319 Y207.865
G01 X435.871 Y208.374
G01 X433.407 Y208.810
G01 X430.931 Y209.195
G01 X428.468 Y209.525
G01 X425.966 Y209.796
G01 X423.477 Y210.018
G01 X420.999 Y210.175
G01 X418.486 Y210.298
G01 X416.003 Y210.339
G01 X413.482 Y210.336
G01 X410.996 Y210.274
G01 X408.496 Y210.167
G01 X406.003 Y209.997
G01 X403.515 Y209.766
G01 X401.034 Y209.479
G01 X398.558 Y209.138
G01 X396.087 Y208.747
G01 X393.641 Y208.288
G01 X391.175 Y207.792
G01 X388.757 Y207.227
G01 X386.313 Y206.618
G01 X383.915 Y205.946
G01 X381.513 Y205.230
G01 X379.155 Y204.456
G01 X376.787 Y203.630
G01 X374.454 Y202.740
G01 X372.136 Y201.808
G01 X369.827 Y200.826
G01 X367.554 Y199.797
G01 X365.303 Y198.700
G01 X363.082 Y197.560
G01 X360.890 Y196.377
G01 X358.718 Y195.141
G01 X356.564 Y193.854
G01 X354.457 Y192.525
G01 X352.361 Y191.145
G01 X350.306 Y189.721
G01 X348.288 Y188.252
G01 X346.304 Y186.737
G01 X344.350 Y185.172
G01 X342.433 Y183.575
G01 X340.564 Y181.919
G01 X338.705 Y180.239
G01 X336.917 Y178.495
G01 X335.145 Y176.739
G01 X333.416 Y174.925
G01 X331.721 Y173.084
G01 X330.083 Y171.201
G01 X328.496 Y169.271
G01 X326.923 Y167.326
G01 X325.427 Y165.322
G01 X323.954 Y163.309
G01 X322.536 Y161.245
G01 X321.146 Y159.172
G01 X319.822 Y157.054
G01 X318.548 Y154.906
G01 X317.321 Y152.723
G01 X316.127 Y150.524
G01 X314.999 Y148.297
G01 X313.914 Y146.052
G01 X312.884 Y143.767
G01 X312.358 Y142.560
G01 X313.422 Y142.023
G01 X314.306 Y141.587
G01 X314.959 Y142.941
G01 X316.063 Y145.182
G01 X317.237 Y147.392
G01 X318.445 Y149.583
G01 X319.728 Y151.723
G01 X321.047 Y153.851
G01 X322.409 Y155.943
G01 X323.824 Y158.010
G01 X325.302 Y160.029
G01 X326.812 Y162.010
G01 X328.374 Y163.973
G01 X329.982 Y165.879
G01 X331.631 Y167.760
G01 X333.334 Y169.594
G01 X335.062 Y171.387
G01 X336.852 Y173.143
G01 X338.667 Y174.858
G01 X340.532 Y176.518
G01 X342.430 Y178.144
G01 X344.378 Y179.714
G01 X346.342 Y181.262
G01 X348.351 Y182.741
G01 X350.396 Y184.178
G01 X352.475 Y185.565
G01 X354.592 Y186.903
G01 X356.721 Y188.197
G01 X358.910 Y189.420
G01 X361.097 Y190.611
G01 X363.329 Y191.744
G01 X365.585 Y192.832
G01 X367.863 Y193.860
G01 X370.165 Y194.829
G01 X372.499 Y195.748
G01 X374.838 Y196.612
G01 X377.208 Y197.410
G01 X379.592 Y198.162
G01 X381.990 Y198.864
G01 X384.401 Y199.500
G01 X386.829 Y200.082
G01 X389.275 Y200.605
G01 X391.741 Y201.067
G01 X394.204 Y201.472
G01 X396.687 Y201.809
G01 X399.149 Y202.105
G01 X401.637 Y202.341
G01 X404.152 Y202.515
G01 X406.642 Y202.621
G01 X409.139 Y202.681
G01 X411.640 Y202.675
G01 X414.143 Y202.601
G01 X416.631 Y202.478
G01 X419.126 Y202.296
G01 X421.604 Y202.060
G01 X424.090 Y201.760
G01 X426.558 Y201.399
G01 X429.037 Y200.986
G01 X431.498 Y200.507
G01 X433.921 Y199.985
G01 X436.348 Y199.385
G01 X438.761 Y198.729
G01 X441.163 Y198.036
G01 X443.544 Y197.264
G01 X445.913 Y196.450
G01 X448.241 Y195.579
G01 X450.580 Y194.657
G01 X452.876 Y193.674
G01 X451.861 Y191.381
G01 X450.868 Y189.091
G01 X449.849 Y186.815
G01 X449.050 Y184.981
G01 X448.594 Y185.196
G01 X446.356 Y186.317
G01 X444.096 Y187.372
G01 X441.821 Y188.381
G01 X439.496 Y189.316
G01 X437.151 Y190.191
G01 X434.787 Y191.008
G01 X432.405 Y191.768
G01 X430.006 Y192.474
G01 X427.585 Y193.111
G01 X425.166 Y193.673
G01 X422.709 Y194.197
G01 X420.249 Y194.634
G01 X417.774 Y195.030
G01 X415.299 Y195.347
G01 X412.823 Y195.587
G01 X410.335 Y195.794
G01 X407.841 Y195.915
G01 X405.323 Y195.978
G01 X402.836 Y195.985
G01 X400.343 Y195.917
G01 X397.851 Y195.792
G01 X395.354 Y195.600
G01 X392.851 Y195.345
G01 X390.367 Y195.020
G01 X387.905 Y194.644
G01 X385.454 Y194.192
G01 X382.995 Y193.689
G01 X380.569 Y193.108
G01 X378.156 Y192.474
G01 X375.750 Y191.777
G01 X373.378 Y191.022
G01 X371.009 Y190.209
G01 X368.665 Y189.331
G01 X366.365 Y188.377
G01 X364.069 Y187.384
G01 X361.790 Y186.331
G01 X359.554 Y185.217
G01 X357.358 Y184.043
G01 X355.176 Y182.820
G01 X353.026 Y181.536
G01 X350.913 Y180.201
G01 X348.851 Y178.798
G01 X346.797 Y177.354
G01 X344.801 Y175.858
G01 X342.830 Y174.313
G01 X340.917 Y172.717
G01 X339.046 Y171.059
G01 X337.212 Y169.368
G01 X335.401 Y167.632
G01 X333.670 Y165.839
G01 X331.945 Y164.020
G01 X330.299 Y162.142
G01 X328.694 Y160.236
G01 X327.134 Y158.270
G01 X325.642 Y156.264
G01 X324.176 Y154.244
G01 X322.782 Y152.181
G01 X321.438 Y150.056
G01 X320.143 Y147.928
G01 X318.901 Y145.764
G01 X317.724 Y143.541
G01 X316.605 Y141.310
G01 X316.260 Y140.601
G01 X317.795 Y139.840
G01 X317.902 Y139.788
G01 X319.024 Y141.879
G01 X320.235 Y144.069
G01 X321.524 Y146.207
G01 X322.868 Y148.313
G01 X324.259 Y150.383
G01 X325.708 Y152.427
G01 X327.213 Y154.415
G01 X328.771 Y156.380
G01 X330.382 Y158.291
G01 X332.051 Y160.153
G01 X333.772 Y161.963
G01 X335.533 Y163.742
G01 X337.337 Y165.462
G01 X339.198 Y167.134
G01 X341.104 Y168.745
G01 X343.049 Y170.325
G01 X345.033 Y171.834
G01 X347.057 Y173.308
G01 X349.121 Y174.707
G01 X351.239 Y176.043
G01 X353.373 Y177.347
G01 X355.553 Y178.572
G01 X357.751 Y179.756
G01 X360.002 Y180.863
G01 X362.263 Y181.907
G01 X364.550 Y182.911
G01 X366.866 Y183.827
G01 X369.234 Y184.689
G01 X371.594 Y185.483
G01 X373.982 Y186.221
G01 X376.394 Y186.887
G01 X378.808 Y187.489
G01 X381.255 Y188.028
G01 X383.708 Y188.497
G01 X386.174 Y188.908
G01 X388.646 Y189.242
G01 X391.133 Y189.510
G01 X393.634 Y189.709
G01 X396.128 Y189.845
G01 X398.636 Y189.905
G01 X401.113 Y189.903
G01 X403.612 Y189.832
G01 X406.132 Y189.690
G01 X408.620 Y189.475
G01 X411.088 Y189.215
G01 X413.577 Y188.874
G01 X416.039 Y188.464
G01 X418.496 Y187.974
G01 X420.938 Y187.444
G01 X423.351 Y186.836
G01 X425.764 Y186.156
G01 X428.152 Y185.409
G01 X430.522 Y184.611
G01 X432.866 Y183.742
G01 X435.190 Y182.816
G01 X437.462 Y181.822
G01 X439.735 Y180.759
G01 X441.962 Y179.641
G01 X444.165 Y178.459
G01 X445.603 Y177.663
G01 X445.211 Y176.897
G01 X444.094 Y174.669
G01 X442.967 Y172.430
G01 X441.958 Y170.484
G01 X441.712 Y170.676
G01 X439.636 Y172.067
G01 X437.539 Y173.411
G01 X435.383 Y174.680
G01 X433.202 Y175.887
G01 X430.972 Y177.041
G01 X428.711 Y178.119
G01 X426.443 Y179.113
G01 X424.123 Y180.045
G01 X421.783 Y180.926
G01 X419.409 Y181.723
G01 X417.002 Y182.440
G01 X414.601 Y183.105
G01 X412.162 Y183.680
G01 X409.724 Y184.192
G01 X407.251 Y184.621
G01 X404.772 Y184.979
G01 X402.312 Y185.259
G01 X399.818 Y185.468
G01 X397.320 Y185.616
G01 X394.807 Y185.677
G01 X392.329 Y185.650
G01 X389.818 Y185.568
G01 X387.314 Y185.402
G01 X384.845 Y185.158
G01 X382.359 Y184.848
G01 X379.899 Y184.453
G01 X377.444 Y183.988
G01 X374.990 Y183.457
G01 X372.560 Y182.851
G01 X370.174 Y182.160
G01 X367.785 Y181.411
G01 X365.428 Y180.571
G01 X363.093 Y179.675
G01 X360.798 Y178.713
G01 X358.513 Y177.687
G01 X356.275 Y176.571
G01 X354.054 Y175.413
G01 X351.880 Y174.175
G01 X349.756 Y172.864
G01 X347.664 Y171.503
G01 X345.602 Y170.091
G01 X343.603 Y168.594
G01 X341.631 Y167.050
G01 X339.727 Y165.430
G01 X337.857 Y163.775
G01 X336.037 Y162.063
G01 X334.285 Y160.280
G01 X332.564 Y158.458
G01 X330.904 Y156.590
G01 X329.326 Y154.661
G01 X327.786 Y152.695
G01 X326.305 Y150.677
G01 X324.890 Y148.609
G01 X323.533 Y146.514
G01 X322.247 Y144.369
G01 X321.028 Y142.195
G01 X319.864 Y139.983
G01 X319.395 Y139.038
G01 X321.133 Y138.183
G01 X321.991 Y137.753
G01 X323.208 Y139.921
G01 X324.429 Y142.107
G01 X325.724 Y144.239
G01 X327.089 Y146.349
G01 X328.509 Y148.398
G01 X329.998 Y150.399
G01 X331.543 Y152.375
G01 X333.159 Y154.277
G01 X334.835 Y156.130
G01 X336.574 Y157.937
G01 X338.353 Y159.678
G01 X340.195 Y161.375
G01 X342.087 Y163.014
G01 X344.025 Y164.591
G01 X346.024 Y166.083
G01 X348.060 Y167.536
G01 X350.140 Y168.918
G01 X352.269 Y170.231
G01 X354.444 Y171.468
G01 X356.650 Y172.645
G01 X358.902 Y173.737
G01 X361.164 Y174.775
G01 X363.481 Y175.729
G01 X365.814 Y176.627
G01 X368.179 Y177.443
G01 X370.572 Y178.164
G01 X372.968 Y178.837
G01 X375.404 Y179.423
G01 X377.859 Y179.931
G01 X380.308 Y180.358
G01 X382.786 Y180.715
G01 X385.282 Y180.972
G01 X387.764 Y181.174
G01 X390.273 Y181.283
G01 X392.762 Y181.316
G01 X395.262 Y181.273
G01 X397.772 Y181.149
G01 X400.248 Y180.962
G01 X402.727 Y180.673
G01 X405.222 Y180.306
G01 X407.680 Y179.864
G01 X410.109 Y179.359
G01 X412.552 Y178.766
G01 X414.963 Y178.102
G01 X417.334 Y177.348
G01 X419.708 Y176.539
G01 X422.039 Y175.631
G01 X424.349 Y174.674
G01 X426.621 Y173.630
G01 X428.861 Y172.512
G01 X431.046 Y171.329
G01 X433.227 Y170.076
G01 X435.327 Y168.763
G01 X437.421 Y167.376
G01 X439.129 Y166.170
G01 X439.007 Y165.772
G01 X438.589 Y164.234
G01 X437.869 Y164.766
G01 X435.823 Y166.186
G01 X433.732 Y167.571
G01 X431.596 Y168.857
G01 X429.432 Y170.082
G01 X427.211 Y171.241
G01 X424.958 Y172.326
G01 X422.673 Y173.340
G01 X420.358 Y174.287
G01 X418.006 Y175.151
G01 X415.642 Y175.926
G01 X413.250 Y176.642
G01 X410.819 Y177.271
G01 X408.378 Y177.821
G01 X405.928 Y178.296
G01 X403.464 Y178.684
G01 X400.985 Y178.990
G01 X398.492 Y179.217
G01 X395.986 Y179.369
G01 X393.490 Y179.440
G01 X391.003 Y179.433
G01 X388.488 Y179.336
G01 X386.005 Y179.156
G01 X383.523 Y178.897
G01 X381.042 Y178.561
G01 X378.590 Y178.153
G01 X376.129 Y177.663
G01 X373.687 Y177.094
G01 X371.276 Y176.424
G01 X368.888 Y175.692
G01 X366.520 Y174.900
G01 X364.196 Y173.999
G01 X361.887 Y173.040
G01 X359.610 Y172.010
G01 X357.363 Y170.909
G01 X355.160 Y169.721
G01 X352.986 Y168.473
G01 X350.884 Y167.140
G01 X348.790 Y165.768
G01 X346.759 Y164.307
G01 X344.782 Y162.789
G01 X342.847 Y161.201
G01 X340.965 Y159.557
G01 X339.132 Y157.855
G01 X337.369 Y156.080
G01 X335.664 Y154.253
G01 X333.996 Y152.390
G01 X332.414 Y150.466
G01 X330.886 Y148.484
G01 X329.421 Y146.450
G01 X328.034 Y144.374
G01 X326.700 Y142.263
G01 X325.440 Y140.102
G01 X324.252 Y137.913
G01 X323.723 Y136.878
G01 X324.934 Y136.267
G01 X325.410 Y136.041
G01 X326.306 Y137.786
G01 X327.524 Y139.967
G01 X328.804 Y142.117
G01 X330.162 Y144.218
G01 X331.590 Y146.267
G01 X333.089 Y148.270
G01 X334.637 Y150.242
G01 X336.259 Y152.140
G01 X337.944 Y153.990
G01 X339.693 Y155.760
G01 X341.495 Y157.508
G01 X343.352 Y159.168
G01 X345.270 Y160.779
G01 X347.228 Y162.318
G01 X349.266 Y163.791
G01 X351.325 Y165.205
G01 X353.430 Y166.545
G01 X355.584 Y167.815
G01 X357.786 Y169.006
G01 X360.010 Y170.124
G01 X362.289 Y171.165
G01 X364.578 Y172.147
G01 X366.921 Y173.042
G01 X369.294 Y173.853
G01 X371.677 Y174.590
G01 X374.074 Y175.252
G01 X376.507 Y175.823
G01 X378.965 Y176.327
G01 X381.435 Y176.736
G01 X383.903 Y177.071
G01 X386.392 Y177.317
G01 X388.882 Y177.481
G01 X391.394 Y177.550
G01 X393.892 Y177.555
G01 X396.391 Y177.467
G01 X398.876 Y177.308
G01 X401.369 Y177.063
G01 X403.840 Y176.724
G01 X406.303 Y176.317
G01 X408.750 Y175.822
G01 X411.187 Y175.252
G01 X413.606 Y174.587
G01 X415.991 Y173.849
G01 X418.363 Y173.026
G01 X420.677 Y172.133
G01 X422.983 Y171.165
G01 X425.258 Y170.128
G01 X427.492 Y169.002
G01 X429.692 Y167.803
G01 X431.835 Y166.537
G01 X433.940 Y165.191
G01 X436.016 Y163.783
G01 X437.665 Y162.585
G01 X437.449 Y162.183
G01 X436.726 Y160.946
G01 X435.889 Y161.573
G01 X433.837 Y163.022
G01 X431.746 Y164.389
G01 X429.617 Y165.677
G01 X427.428 Y166.899
G01 X425.214 Y168.065
G01 X422.949 Y169.124
G01 X420.661 Y170.132
G01 X418.325 Y171.040
G01 X415.983 Y171.875
G01 X413.605 Y172.634
G01 X411.184 Y173.305
G01 X408.751 Y173.897
G01 X406.309 Y174.414
G01 X403.848 Y174.843
G01 X401.364 Y175.173
G01 X398.895 Y175.428
G01 X396.402 Y175.593
G01 X393.893 Y175.687
G01 X391.385 Y175.688
G01 X388.906 Y175.602
G01 X386.396 Y175.430
G01 X383.915 Y175.178
G01 X381.453 Y174.836
G01 X378.981 Y174.407
G01 X376.533 Y173.908
G01 X374.093 Y173.316
G01 X371.696 Y172.645
G01 X369.309 Y171.897
G01 X366.953 Y171.062
G01 X364.623 Y170.140
G01 X362.325 Y169.144
G01 X360.082 Y168.070
G01 X357.864 Y166.921
G01 X355.674 Y165.707
G01 X353.547 Y164.396
G01 X351.448 Y163.029
G01 X349.400 Y161.596
G01 X347.417 Y160.077
G01 X345.465 Y158.513
G01 X343.587 Y156.876
G01 X341.749 Y155.169
G01 X339.991 Y153.397
G01 X338.293 Y151.573
G01 X336.639 Y149.685
G01 X335.057 Y147.753
G01 X333.541 Y145.774
G01 X332.106 Y143.721
G01 X330.726 Y141.639
G01 X329.427 Y139.511
G01 X328.195 Y137.325
G01 X327.078 Y135.200
G01 X327.179 Y135.148
G01 X328.762 Y134.348
G01 X329.095 Y134.999
G01 X330.273 Y137.196
G01 X331.526 Y139.369
G01 X332.849 Y141.487
G01 X334.254 Y143.561
G01 X335.739 Y145.560
G01 X337.274 Y147.529
G01 X338.897 Y149.433
G01 X340.583 Y151.288
G01 X342.317 Y153.080
G01 X344.113 Y154.823
G01 X345.974 Y156.486
G01 X347.906 Y158.072
G01 X349.869 Y159.610
G01 X351.903 Y161.071
G01 X353.986 Y162.464
G01 X356.105 Y163.771
G01 X358.284 Y165.017
G01 X360.479 Y166.184
G01 X362.745 Y167.256
G01 X365.025 Y168.278
G01 X367.346 Y169.198
G01 X369.700 Y170.041
G01 X372.090 Y170.807
G01 X374.482 Y171.484
G01 X376.914 Y172.080
G01 X379.374 Y172.569
G01 X381.836 Y173.000
G01 X384.307 Y173.330
G01 X386.804 Y173.582
G01 X389.290 Y173.739
G01 X391.782 Y173.824
G01 X394.287 Y173.794
G01 X396.783 Y173.710
G01 X399.270 Y173.514
G01 X401.763 Y173.230
G01 X404.239 Y172.867
G01 X406.697 Y172.420
G01 X409.136 Y171.884
G01 X411.565 Y171.273
G01 X413.942 Y170.560
G01 X416.337 Y169.769
G01 X418.672 Y168.913
G01 X420.982 Y167.950
G01 X423.261 Y166.920
G01 X425.498 Y165.804
G01 X427.701 Y164.616
G01 X429.846 Y163.364
G01 X431.966 Y162.006
G01 X434.034 Y160.598
G01 X435.795 Y159.305
G01 X435.637 Y159.037
G01 X434.828 Y157.685
G01 X434.097 Y158.234
G01 X432.053 Y159.684
G01 X429.979 Y161.072
G01 X427.856 Y162.364
G01 X425.674 Y163.592
G01 X423.457 Y164.747
G01 X421.196 Y165.816
G01 X418.895 Y166.801
G01 X416.553 Y167.706
G01 X414.196 Y168.523
G01 X411.816 Y169.239
G01 X409.400 Y169.887
G01 X406.964 Y170.442
G01 X404.494 Y170.935
G01 X402.041 Y171.305
G01 X399.549 Y171.607
G01 X397.053 Y171.806
G01 X394.562 Y171.921
G01 X392.068 Y171.941
G01 X389.571 Y171.872
G01 X387.070 Y171.716
G01 X384.595 Y171.478
G01 X382.107 Y171.149
G01 X379.635 Y170.731
G01 X377.198 Y170.215
G01 X374.773 Y169.616
G01 X372.358 Y168.936
G01 X369.993 Y168.151
G01 X367.641 Y167.302
G01 X365.311 Y166.362
G01 X363.038 Y165.342
G01 X360.808 Y164.229
G01 X358.606 Y163.048
G01 X356.447 Y161.784
G01 X354.336 Y160.444
G01 X352.267 Y159.027
G01 X350.255 Y157.550
G01 X348.303 Y155.982
G01 X346.406 Y154.358
G01 X344.561 Y152.672
G01 X342.788 Y150.912
G01 X341.083 Y149.073
G01 X339.428 Y147.206
G01 X337.869 Y145.249
G01 X336.363 Y143.263
G01 X334.924 Y141.225
G01 X333.574 Y139.118
G01 X332.281 Y136.978
G01 X331.095 Y134.777
G01 X330.436 Y133.525
G01 X331.409 Y133.043
G01 X332.114 Y132.682
G01 X332.902 Y134.189
G01 X334.120 Y136.374
G01 X335.405 Y138.532
G01 X336.779 Y140.618
G01 X338.219 Y142.648
G01 X339.754 Y144.617
G01 X341.345 Y146.559
G01 X343.006 Y148.422
G01 X344.744 Y150.213
G01 X346.544 Y151.954
G01 X348.410 Y153.612
G01 X350.329 Y155.210
G01 X352.305 Y156.752
G01 X354.343 Y158.203
G01 X356.421 Y159.575
G01 X358.571 Y160.862
G01 X360.752 Y162.091
G01 X362.968 Y163.223
G01 X365.242 Y164.283
G01 X367.532 Y165.253
G01 X369.879 Y166.139
G01 X372.250 Y166.934
G01 X374.646 Y167.636
G01 X377.079 Y168.256
G01 X379.515 Y168.780
G01 X381.970 Y169.230
G01 X384.452 Y169.566
G01 X386.937 Y169.837
G01 X389.429 Y169.998
G01 X391.937 Y170.061
G01 X394.420 Y170.046
G01 X396.928 Y169.939
G01 X399.424 Y169.719
G01 X401.901 Y169.422
G01 X404.360 Y169.046
G01 X406.820 Y168.573
G01 X409.252 Y167.997
G01 X411.671 Y167.344
G01 X414.036 Y166.589
G01 X416.416 Y165.755
G01 X418.727 Y164.840
G01 X421.019 Y163.833
G01 X423.269 Y162.743
G01 X425.475 Y161.566
G01 X427.645 Y160.316
G01 X429.746 Y158.985
G01 X431.806 Y157.576
G01 X433.825 Y156.087
G01 X433.869 Y156.064
G01 X432.887 Y154.434
G01 X432.447 Y154.780
G01 X430.422 Y156.250
G01 X428.342 Y157.670
G01 X426.226 Y158.966
G01 X424.050 Y160.201
G01 X421.837 Y161.364
G01 X419.571 Y162.425
G01 X417.264 Y163.405
G01 X414.937 Y164.296
G01 X412.563 Y165.095
G01 X410.173 Y165.813
G01 X407.760 Y166.436
G01 X405.316 Y166.953
G01 X402.860 Y167.399
G01 X400.367 Y167.733
G01 X397.884 Y167.993
G01 X395.387 Y168.138
G01 X392.893 Y168.200
G01 X390.385 Y168.157
G01 X387.901 Y168.027
G01 X385.401 Y167.799
G01 X382.916 Y167.478
G01 X380.464 Y167.053
G01 X378.023 Y166.540
G01 X375.591 Y165.943
G01 X373.195 Y165.261
G01 X370.816 Y164.473
G01 X368.467 Y163.603
G01 X366.165 Y162.637
G01 X363.887 Y161.590
G01 X361.676 Y160.443
G01 X359.498 Y159.236
G01 X357.351 Y157.930
G01 X355.266 Y156.567
G01 X353.237 Y155.105
G01 X351.252 Y153.568
G01 X349.351 Y151.967
G01 X347.511 Y150.276
G01 X345.717 Y148.519
G01 X343.997 Y146.720
G01 X342.342 Y144.838
G01 X340.778 Y142.895
G01 X339.276 Y140.896
G01 X337.842 Y138.845
G01 X336.501 Y136.726
G01 X335.245 Y134.564
G01 X334.059 Y132.374
G01 X333.794 Y131.848
G01 X335.464 Y131.012
G01 X335.488 Y131.029
G01 X336.643 Y133.235
G01 X337.895 Y135.401
G01 X339.223 Y137.514
G01 X340.640 Y139.589
G01 X342.132 Y141.584
G01 X343.696 Y143.532
G01 X345.343 Y145.410
G01 X347.076 Y147.223
G01 X348.862 Y148.975
G01 X350.714 Y150.643
G01 X352.628 Y152.258
G01 X354.607 Y153.788
G01 X356.648 Y155.225
G01 X358.737 Y156.590
G01 X360.879 Y157.886
G01 X363.079 Y159.076
G01 X365.303 Y160.195
G01 X367.595 Y161.211
G01 X369.910 Y162.145
G01 X372.272 Y162.982
G01 X374.643 Y163.750
G01 X377.051 Y164.394
G01 X379.494 Y164.953
G01 X381.945 Y165.424
G01 X384.428 Y165.792
G01 X386.914 Y166.054
G01 X389.400 Y166.247
G01 X391.912 Y166.313
G01 X394.396 Y166.302
G01 X396.894 Y166.183
G01 X399.386 Y165.965
G01 X401.870 Y165.644
G01 X404.333 Y165.243
G01 X406.787 Y164.729
G01 X409.197 Y164.139
G01 X411.605 Y163.445
G01 X413.988 Y162.653
G01 X416.323 Y161.772
G01 X418.630 Y160.786
G01 X420.881 Y159.748
G01 X423.100 Y158.598
G01 X425.274 Y157.361
G01 X427.400 Y156.033
G01 X429.463 Y154.641
G01 X431.475 Y153.153
G01 X431.899 Y152.833
G01 X430.898 Y151.241
G01 X430.832 Y151.277
G01 X428.835 Y152.785
G01 X426.785 Y154.197
G01 X424.663 Y155.528
G01 X422.501 Y156.786
G01 X420.283 Y157.940
G01 X418.020 Y159.012
G01 X415.705 Y159.987
G01 X413.370 Y160.874
G01 X411.008 Y161.661
G01 X408.619 Y162.351
G01 X406.176 Y162.945
G01 X403.731 Y163.440
G01 X401.263 Y163.850
G01 X398.777 Y164.139
G01 X396.291 Y164.341
G01 X393.789 Y164.429
G01 X391.287 Y164.438
G01 X388.789 Y164.330
G01 X386.303 Y164.123
G01 X383.827 Y163.820
G01 X381.353 Y163.412
G01 X378.916 Y162.912
G01 X376.476 Y162.313
G01 X374.081 Y161.601
G01 X371.716 Y160.803
G01 X369.378 Y159.921
G01 X367.083 Y158.940
G01 X364.827 Y157.860
G01 X362.616 Y156.690
G01 X360.453 Y155.442
G01 X358.335 Y154.113
G01 X356.275 Y152.684
G01 X354.287 Y151.174
G01 X352.348 Y149.594
G01 X350.480 Y147.936
G01 X348.689 Y146.203
G01 X346.970 Y144.391
G01 X345.300 Y142.514
G01 X343.725 Y140.577
G01 X342.240 Y138.575
G01 X340.815 Y136.513
G01 X339.481 Y134.413
G01 X338.240 Y132.243
G01 X337.150 Y130.164
G01 X337.284 Y130.106
G01 X338.825 Y129.314
G01 X339.182 Y130.013
G01 X340.368 Y132.225
G01 X341.647 Y134.363
G01 X343.033 Y136.443
G01 X344.474 Y138.490
G01 X346.021 Y140.450
G01 X347.634 Y142.357
G01 X349.334 Y144.198
G01 X351.104 Y145.958
G01 X352.949 Y147.642
G01 X354.865 Y149.244
G01 X356.856 Y150.769
G01 X358.888 Y152.216
G01 X360.987 Y153.573
G01 X363.137 Y154.857
G01 X365.344 Y156.033
G01 X367.593 Y157.119
G01 X369.880 Y158.104
G01 X372.218 Y159.000
G01 X374.580 Y159.810
G01 X376.983 Y160.507
G01 X379.407 Y161.103
G01 X381.857 Y161.596
G01 X384.334 Y161.985
G01 X386.820 Y162.280
G01 X389.314 Y162.479
G01 X391.811 Y162.563
G01 X394.297 Y162.556
G01 X396.786 Y162.427
G01 X399.296 Y162.200
G01 X401.766 Y161.867
G01 X404.234 Y161.442
G01 X406.669 Y160.917
G01 X409.092 Y160.274
G01 X411.489 Y159.539
G01 X413.837 Y158.718
G01 X416.147 Y157.779
G01 X418.435 Y156.751
G01 X420.679 Y155.642
G01 X422.858 Y154.415
G01 X424.997 Y153.118
G01 X427.064 Y151.742
G01 X429.101 Y150.260
G01 X429.894 Y149.630
G01 X429.112 Y148.392
G01 X428.886 Y148.047
G01 X427.225 Y149.322
G01 X425.170 Y150.767
G01 X423.064 Y152.120
G01 X420.929 Y153.373
G01 X418.714 Y154.536
G01 X416.444 Y155.601
G01 X414.151 Y156.575
G01 X411.806 Y157.459
G01 X409.423 Y158.229
G01 X407.013 Y158.904
G01 X404.588 Y159.462
G01 X402.130 Y159.918
G01 X399.638 Y160.278
G01 X397.156 Y160.521
G01 X394.664 Y160.664
G01 X392.172 Y160.683
G01 X389.669 Y160.611
G01 X387.175 Y160.437
G01 X384.681 Y160.152
G01 X382.213 Y159.758
G01 X379.771 Y159.258
G01 X377.353 Y158.655
G01 X374.955 Y157.949
G01 X372.574 Y157.143
G01 X370.266 Y156.233
G01 X367.968 Y155.223
G01 X365.735 Y154.106
G01 X363.531 Y152.925
G01 X361.401 Y151.618
G01 X359.321 Y150.236
G01 X357.305 Y148.761
G01 X355.339 Y147.217
G01 X353.453 Y145.566
G01 X351.645 Y143.840
G01 X349.894 Y142.054
G01 X348.250 Y140.187
G01 X346.664 Y138.259
G01 X345.176 Y136.238
G01 X343.773 Y134.176
G01 X342.440 Y132.060
G01 X341.215 Y129.883
G01 X340.497 Y128.499
G01 X341.334 Y128.063
G01 X342.187 Y127.640
G01 X342.897 Y129.029
G01 X344.120 Y131.219
G01 X345.455 Y133.321
G01 X346.857 Y135.398
G01 X348.367 Y137.387
G01 X349.960 Y139.304
G01 X351.641 Y141.153
G01 X353.386 Y142.948
G01 X355.223 Y144.647
G01 X357.129 Y146.262
G01 X359.100 Y147.787
G01 X361.140 Y149.226
G01 X363.256 Y150.583
G01 X365.421 Y151.828
G01 X367.633 Y152.989
G01 X369.905 Y154.041
G01 X372.213 Y154.989
G01 X374.571 Y155.846
G01 X376.943 Y156.602
G01 X379.353 Y157.240
G01 X381.813 Y157.772
G01 X384.267 Y158.199
G01 X386.745 Y158.517
G01 X389.242 Y158.710
G01 X391.725 Y158.815
G01 X394.237 Y158.802
G01 X396.727 Y158.679
G01 X399.217 Y158.428
G01 X401.704 Y158.088
G01 X404.147 Y157.638
G01 X406.576 Y157.074
G01 X408.990 Y156.392
G01 X411.376 Y155.617
G01 X413.700 Y154.740
G01 X416.015 Y153.748
G01 X418.254 Y152.675
G01 X420.457 Y151.491
G01 X422.602 Y150.206
G01 X424.696 Y148.832
G01 X426.704 Y147.362
G01 X427.865 Y146.473
G01 X427.291 Y145.593
G01 X426.819 Y144.892
G01 X425.515 Y145.929
G01 X423.478 Y147.394
G01 X421.377 Y148.753
G01 X419.224 Y150.024
G01 X417.012 Y151.196
G01 X414.765 Y152.258
G01 X412.453 Y153.212
G01 X410.109 Y154.066
G01 X407.725 Y154.807
G01 X405.312 Y155.456
G01 X402.852 Y155.987
G01 X400.399 Y156.393
G01 X397.901 Y156.692
G01 X395.411 Y156.875
G01 X392.927 Y156.946
G01 X390.421 Y156.909
G01 X387.932 Y156.742
G01 X385.448 Y156.474
G01 X382.978 Y156.082
G01 X380.531 Y155.582
G01 X378.104 Y154.975
G01 X375.713 Y154.250
G01 X373.336 Y153.422
G01 X371.028 Y152.485
G01 X368.755 Y151.443
G01 X366.542 Y150.291
G01 X364.374 Y149.054
G01 X362.266 Y147.714
G01 X360.212 Y146.269
G01 X358.237 Y144.747
G01 X356.345 Y143.118
G01 X354.504 Y141.421
G01 X352.756 Y139.628
G01 X351.099 Y137.772
G01 X349.536 Y135.819
G01 X348.039 Y133.811
G01 X346.646 Y131.744
G01 X345.341 Y129.603
G01 X344.146 Y127.403
G01 X343.861 Y126.808
G01 X345.495 Y125.981
G01 X345.522 Y125.970
G01 X346.677 Y128.142
G01 X347.952 Y130.293
G01 X349.328 Y132.379
G01 X350.796 Y134.397
G01 X352.359 Y136.350
G01 X354.028 Y138.217
G01 X355.749 Y140.017
G01 X357.592 Y141.713
G01 X359.486 Y143.342
G01 X361.472 Y144.872
G01 X363.517 Y146.303
G01 X365.645 Y147.623
G01 X367.813 Y148.855
G01 X370.047 Y149.986
G01 X372.329 Y150.993
G01 X374.656 Y151.905
G01 X377.022 Y152.710
G01 X379.421 Y153.395
G01 X381.856 Y153.959
G01 X384.310 Y154.415
G01 X386.805 Y154.747
G01 X389.294 Y154.966
G01 X391.778 Y155.068
G01 X394.287 Y155.051
G01 X396.782 Y154.895
G01 X399.273 Y154.654
G01 X401.728 Y154.277
G01 X404.189 Y153.778
G01 X406.612 Y153.177
G01 X409.017 Y152.458
G01 X411.350 Y151.625
G01 X413.673 Y150.680
G01 X415.929 Y149.629
G01 X418.150 Y148.469
G01 X420.310 Y147.211
G01 X422.409 Y145.850
G01 X424.443 Y144.383
G01 X425.770 Y143.340
G01 X425.331 Y142.668
G01 X424.717 Y141.767
G01 X423.613 Y142.643
G01 X421.593 Y144.129
G01 X419.507 Y145.510
G01 X417.348 Y146.771
G01 X415.128 Y147.935
G01 X412.871 Y148.992
G01 X410.570 Y149.930
G01 X408.193 Y150.751
G01 X405.807 Y151.465
G01 X403.370 Y152.058
G01 X400.926 Y152.510
G01 X398.445 Y152.867
G01 X395.958 Y153.091
G01 X393.466 Y153.188
G01 X390.947 Y153.176
G01 X388.463 Y153.016
G01 X385.981 Y152.754
G01 X383.509 Y152.366
G01 X381.057 Y151.868
G01 X378.630 Y151.233
G01 X376.247 Y150.489
G01 X373.911 Y149.609
G01 X371.601 Y148.649
G01 X369.360 Y147.548
G01 X367.165 Y146.361
G01 X365.038 Y145.040
G01 X362.976 Y143.624
G01 X360.983 Y142.120
G01 X359.056 Y140.525
G01 X357.216 Y138.826
G01 X355.480 Y137.042
G01 X353.816 Y135.173
G01 X352.257 Y133.217
G01 X350.795 Y131.197
G01 X349.426 Y129.109
G01 X348.159 Y126.957
G01 X347.210 Y125.127
G01 X347.606 Y124.929
G01 X348.885 Y124.279
G01 X349.382 Y125.246
G01 X350.606 Y127.425
G01 X351.932 Y129.540
G01 X353.364 Y131.595
G01 X354.914 Y133.537
G01 X356.548 Y135.440
G01 X358.298 Y137.231
G01 X360.113 Y138.932
G01 X362.019 Y140.568
G01 X364.013 Y142.065
G01 X366.078 Y143.473
G01 X368.206 Y144.784
G01 X370.413 Y145.973
G01 X372.654 Y147.063
G01 X374.963 Y148.010
G01 X377.316 Y148.860
G01 X379.697 Y149.587
G01 X382.140 Y150.188
G01 X384.587 Y150.666
G01 X387.062 Y151.004
G01 X389.557 Y151.226
G01 X392.064 Y151.317
G01 X394.552 Y151.272
G01 X397.043 Y151.116
G01 X399.527 Y150.829
G01 X401.983 Y150.421
G01 X404.431 Y149.873
G01 X406.839 Y149.224
G01 X409.205 Y148.422
G01 X411.537 Y147.524
G01 X413.814 Y146.492
G01 X416.053 Y145.356
G01 X418.210 Y144.091
G01 X420.315 Y142.742
G01 X422.344 Y141.271
G01 X423.662 Y140.221
G01 X423.190 Y139.572
G01 X422.581 Y138.669
G01 X421.472 Y139.579
G01 X419.447 Y141.051
G01 X417.355 Y142.419
G01 X415.198 Y143.689
G01 X412.981 Y144.816
G01 X410.693 Y145.837
G01 X408.359 Y146.741
G01 X405.991 Y147.506
G01 X403.569 Y148.148
G01 X401.127 Y148.677
G01 X398.665 Y149.051
G01 X396.174 Y149.305
G01 X393.674 Y149.430
G01 X391.185 Y149.416
G01 X388.686 Y149.281
G01 X386.186 Y149.002
G01 X383.723 Y148.593
G01 X381.294 Y148.056
G01 X378.887 Y147.381
G01 X376.517 Y146.594
G01 X374.191 Y145.667
G01 X371.905 Y144.642
G01 X369.692 Y143.483
G01 X367.558 Y142.202
G01 X365.477 Y140.811
G01 X363.466 Y139.331
G01 X361.556 Y137.723
G01 X359.717 Y136.028
G01 X357.987 Y134.218
G01 X356.341 Y132.333
G01 X354.801 Y130.360
G01 X353.359 Y128.324
G01 X352.055 Y126.190
G01 X350.840 Y124.011
G01 X350.570 Y123.444
G01 X352.240 Y122.602
G01 X353.418 Y124.818
G01 X354.716 Y126.951
G01 X356.137 Y129.005
G01 X357.657 Y130.995
G01 X359.301 Y132.879
G01 X361.028 Y134.689
G01 X362.867 Y136.381
G01 X364.793 Y137.970
G01 X366.802 Y139.447
G01 X368.882 Y140.834
G01 X371.052 Y142.078
G01 X373.282 Y143.214
G01 X375.566 Y144.233
G01 X377.907 Y145.095
G01 X380.293 Y145.856
G01 X382.715 Y146.463
G01 X385.168 Y146.942
G01 X387.655 Y147.291
G01 X390.138 Y147.497
G01 X392.629 Y147.568
G01 X395.129 Y147.501
G01 X397.618 Y147.306
G01 X400.106 Y146.950
G01 X402.554 Y146.455
G01 X404.979 Y145.847
G01 X407.360 Y145.090
G01 X409.696 Y144.223
G01 X411.994 Y143.213
G01 X414.212 Y142.080
G01 X416.378 Y140.824
G01 X418.468 Y139.452
G01 X420.480 Y137.961
G01 X421.498 Y137.144
G01 X420.799 Y136.179
G01 X420.047 Y135.102
G01 X419.130 Y135.845
G01 X417.126 Y137.344
G01 X415.030 Y138.708
G01 X412.870 Y139.976
G01 X410.634 Y141.088
G01 X408.337 Y142.066
G01 X405.991 Y142.933
G01 X403.598 Y143.646
G01 X401.160 Y144.212
G01 X398.708 Y144.638
G01 X396.232 Y144.914
G01 X393.713 Y145.058
G01 X391.221 Y145.048
G01 X388.735 Y144.900
G01 X386.263 Y144.591
G01 X383.792 Y144.151
G01 X381.360 Y143.553
G01 X378.983 Y142.824
G01 X376.628 Y141.968
G01 X374.339 Y140.964
G01 X372.110 Y139.813
G01 X369.968 Y138.547
G01 X367.879 Y137.170
G01 X365.883 Y135.655
G01 X363.998 Y134.020
G01 X362.181 Y132.296
G01 X360.486 Y130.465
G01 X358.890 Y128.539
G01 X357.429 Y126.515
G01 X356.083 Y124.406
G01 X354.844 Y122.236
G01 X354.476 Y121.483
G01 X355.968 Y120.733
G01 X356.716 Y120.377
G01 X357.487 Y121.863
G01 X358.760 Y123.996
G01 X360.173 Y126.065
G01 X361.720 Y128.033
G01 X363.365 Y129.905
G01 X365.142 Y131.677
G01 X367.004 Y133.341
G01 X368.981 Y134.854
G01 X371.037 Y136.285
G01 X373.197 Y137.551
G01 X375.402 Y138.694
G01 X377.707 Y139.694
G01 X380.046 Y140.549
G01 X382.453 Y141.255
G01 X384.874 Y141.818
G01 X387.361 Y142.218
G01 X389.838 Y142.472
G01 X392.337 Y142.575
G01 X394.848 Y142.510
G01 X397.323 Y142.287
G01 X399.803 Y141.915
G01 X402.237 Y141.405
G01 X404.643 Y140.735
G01 X407.001 Y139.914
G01 X409.307 Y138.937
G01 X411.551 Y137.829
G01 X413.729 Y136.583
G01 X415.798 Y135.223
G01 X417.795 Y133.716
G01 X418.571 Y133.079
G01 X417.660 Y131.864
G01 X417.071 Y131.075
G01 X415.908 Y132.028
G01 X413.882 Y133.493
G01 X411.775 Y134.844
G01 X409.588 Y136.040
G01 X407.324 Y137.086
G01 X404.985 Y137.988
G01 X402.594 Y138.737
G01 X400.162 Y139.310
G01 X397.701 Y139.727
G01 X395.232 Y139.979
G01 X392.723 Y140.072
G01 X390.224 Y139.994
G01 X387.734 Y139.750
G01 X385.281 Y139.341
G01 X384.062 Y139.079
G01 X382.932 Y138.777
G01 X381.055 Y138.259
G01 X380.450 Y138.052
G01 X378.113 Y137.155
G01 X375.848 Y136.119
G01 X373.638 Y134.931
G01 X371.528 Y133.607
G01 X369.502 Y132.131
G01 X367.586 Y130.536
G01 X365.776 Y128.816
G01 X364.077 Y126.976
G01 X362.507 Y125.033
G01 X361.091 Y122.975
G01 X359.791 Y120.830
G01 X358.935 Y119.261
G01 X359.575 Y118.948
G01 X361.174 Y118.137
G01 X361.497 Y118.770
G01 X362.741 Y120.931
G01 X364.145 Y123.010
G01 X365.673 Y124.979
G01 X367.343 Y126.855
G01 X369.158 Y128.576
G01 X371.060 Y130.187
G01 X373.079 Y131.649
G01 X375.211 Y132.952
G01 X377.431 Y134.106
G01 X378.429 Y134.576
G01 X380.978 Y135.720
G01 X383.182 Y136.399
G01 X385.224 Y136.997
G01 X387.749 Y137.344
G01 X390.690 Y137.522
G01 X393.189 Y137.576
G01 X395.683 Y137.443
G01 X398.156 Y137.133
G01 X400.617 Y136.656
G01 X403.024 Y135.991
G01 X405.377 Y135.178
G01 X407.684 Y134.178
G01 X409.913 Y133.033
G01 X412.029 Y131.734
G01 X414.060 Y130.276
G01 X415.555 Y129.059
G01 X415.195 Y128.610
G01 X414.027 Y127.078
G01 X413.591 Y127.455
G01 X411.615 Y128.986
G01 X409.538 Y130.342
G01 X407.357 Y131.560
G01 X405.083 Y132.614
G01 X402.728 Y133.481
G01 X400.333 Y134.138
G01 X397.885 Y134.652
G01 X395.387 Y134.954
G01 X392.947 Y135.061
G01 X388.609 Y134.732
G01 X385.976 Y134.321
G01 X382.864 Y133.700
G01 X380.404 Y132.659
G01 X377.881 Y131.601
G01 X376.997 Y131.092
G01 X374.857 Y129.819
G01 X372.818 Y128.374
G01 X370.897 Y126.779
G01 X369.080 Y125.057
G01 X367.422 Y123.190
G01 X365.910 Y121.201
G01 X364.553 Y119.095
G01 X363.417 Y117.023
G01 X363.538 Y116.962
G01 X365.649 Y115.907
G01 X365.710 Y116.026
G01 X366.934 Y118.194
G01 X368.320 Y120.282
G01 X369.898 Y122.218
G01 X371.596 Y124.041
G01 X373.473 Y125.704
G01 X375.463 Y127.213
G01 X377.514 Y128.508
G01 X379.094 Y129.345
G01 X381.517 Y130.462
G01 X384.609 Y131.481
G01 X387.727 Y132.213
G01 X390.696 Y132.472
G01 X394.080 Y132.527
G01 X396.337 Y132.335
G01 X398.802 Y131.937
G01 X401.215 Y131.323
G01 X403.587 Y130.500
G01 X405.887 Y129.509
G01 X408.069 Y128.327
G01 X410.161 Y126.946
G01 X412.131 Y125.407
G01 X412.495 Y125.101
G01 X411.231 Y123.514
G01 X410.940 Y123.143
G01 X409.375 Y124.429
G01 X407.312 Y125.850
G01 X405.136 Y127.088
G01 X402.858 Y128.120
G01 X400.501 Y128.937
G01 X398.076 Y129.516
G01 X395.599 Y129.925
G01 X394.373 Y130.012
G01 X391.101 Y130.082
G01 X388.031 Y129.810
G01 X385.686 Y129.566
G01 X383.603 Y129.078
G01 X381.324 Y128.071
G01 X378.383 Y126.128
G01 X376.301 Y124.750
G01 X374.360 Y123.173
G01 X372.560 Y121.432
G01 X370.918 Y119.545
G01 X369.454 Y117.530
G01 X368.193 Y115.370
G01 X367.899 Y114.781
G01 X369.534 Y113.953
G01 X370.121 Y113.670
G01 X371.010 Y115.264
G01 X372.398 Y117.338
G01 X373.993 Y119.276
G01 X375.763 Y121.048
G01 X377.690 Y122.637
G01 X379.756 Y124.024
G01 X379.974 Y124.140
G01 X382.484 Y125.431
G01 X384.663 Y126.343
G01 X387.427 Y126.935
G01 X390.021 Y127.262
G01 X393.892 Y127.537
G01 X395.120 Y127.439
G01 X397.595 Y127.084
G01 X400.025 Y126.451
G01 X402.376 Y125.611
G01 X404.619 Y124.526
G01 X406.756 Y123.232
G01 X408.752 Y121.724
G01 X409.361 Y121.205
G01 X408.286 Y119.887
G01 X407.778 Y119.271
G01 X406.469 Y120.355
G01 X404.403 Y121.780
G01 X402.201 Y122.965
G01 X399.874 Y123.886
G01 X397.477 Y124.536
G01 X395.005 Y124.955
G01 X392.552 Y125.068
G01 X388.839 Y124.692
G01 X385.385 Y123.921
G01 X382.294 Y122.584
G01 X380.639 Y121.635
G01 X378.577 Y120.203
G01 X376.713 Y118.557
G01 X375.038 Y116.687
G01 X373.560 Y114.673
G01 X372.361 Y112.548
G01 X372.408 Y112.523
G01 X374.601 Y111.433
G01 X374.612 Y111.476
G01 X375.866 Y113.634
G01 X377.393 Y115.610
G01 X379.144 Y117.396
G01 X381.103 Y118.944
G01 X383.239 Y120.254
G01 X385.181 Y121.152
G01 X387.820 Y121.988
G01 X389.502 Y122.336
G01 X391.999 Y122.560
G01 X394.476 Y122.485
G01 X396.955 Y122.090
G01 X399.349 Y121.418
G01 X401.661 Y120.427
G01 X403.825 Y119.189
G01 X405.809 Y117.663
G01 X406.171 Y117.356
G01 X404.850 Y115.816
G01 X404.541 Y115.460
G01 X402.961 Y116.729
G01 X400.850 Y118.036
G01 X398.566 Y119.034
G01 X396.164 Y119.716
G01 X393.670 Y120.045
G01 X391.178 Y120.022
G01 X388.702 Y119.636
G01 X386.324 Y118.912
G01 X384.065 Y117.846
G01 X381.967 Y116.488
G01 X380.093 Y114.835
G01 X378.468 Y112.947
G01 X377.111 Y110.840
G01 X376.828 Y110.311
G01 X378.528 Y109.459
G01 X379.054 Y109.195
G01 X380.010 Y110.829
G01 X381.566 Y112.783
G01 X383.422 Y114.447
G01 X385.533 Y115.810
G01 X387.816 Y116.786
G01 X390.254 Y117.383
G01 X392.736 Y117.582
G01 X395.228 Y117.336
G01 X397.641 Y116.721
G01 X399.915 Y115.698
G01 X402.003 Y114.320
G01 X402.907 Y113.568
G01 X402.017 Y112.577
G01 X401.250 Y111.696
G01 X400.231 Y112.545
G01 X398.115 Y113.826
G01 X395.761 Y114.667
G01 X393.286 Y115.058
G01 X390.793 Y114.940
G01 X388.367 Y114.341
G01 X386.115 Y113.279
G01 X384.114 Y111.768
G01 X382.440 Y109.922
G01 X381.310 Y108.078
G01 X381.585 Y107.923
G01 X383.551 Y106.952
G01 X383.680 Y107.244
G01 X385.125 Y109.269
G01 X387.038 Y110.885
G01 X389.262 Y112.008
G01 X391.703 Y112.535
G01 X394.192 Y112.453
G01 X396.588 Y111.782
G01 X398.743 Y110.534
G01 X399.588 Y109.827
G01 X398.635 Y108.781
G01 X397.903 Y107.978
G01 X396.776 Y108.862
G01 X394.499 Y109.851
G01 X392.020 Y110.033
G01 X389.598 Y109.444
G01 X387.511 Y108.097
G01 X385.949 Y106.153
G01 X385.773 Y105.849
G01 X387.668 Y104.888
G01 X388.010 Y104.730
G01 X389.322 Y106.371
G01 X391.539 Y107.461
G01 X394.028 Y107.371
G01 X396.177 Y106.166
G01 X396.195 Y106.149
G01 X394.479 Y104.355
G01 X394.464 Y104.341
G01 X392.176 Y105.033
G01 X390.262 Y103.596
G01 X392.628 Y102.403
G01 X395.332 Y105.242
G01 X398.635 Y108.781
G01 X402.017 Y112.577
G01 X405.506 Y116.576
G01 X408.832 Y120.553
G01 X411.862 Y124.322
G01 X414.623 Y127.835
G01 X418.116 Y132.471
G01 X420.434 Y135.633
G01 X423.190 Y139.572
G01 X425.331 Y142.668
G01 X427.291 Y145.593
G01 X429.498 Y149.026
G01 X431.406 Y152.021
G01 X433.369 Y155.253
G01 X435.223 Y158.366
G01 X437.449 Y162.183
G01 X440.798 Y168.246
G01 X443.592 Y173.592
G01 X447.616 Y181.733
G01 X451.943 Y191.158
G01 X454.321 Y196.931
G01 X458.173 Y206.710
G01 X461.549 Y216.724
G01 X464.744 Y226.949
G01 X466.782 Y234.644
G01 X469.360 Y245.254
G01 X470.715 Y252.049
G01 X472.701 Y263.014
G01 X473.940 Y272.329
G01 X475.180 Y283.680
G01 X475.742 Y292.592
G01 X476.174 Y304.287
G01 X476.179 Y308.713
G01 X475.990 Y320.668
G01 X475.542 Y328.309
G01 X474.497 Y340.519
G01 X474.218 Y342.896
G01 X473.432 Y349.104
G01 X472.441 Y355.696
G01 X471.816 Y359.452
G01 X471.082 Y363.523
G01 X467.307 Y362.824
G01 X463.390 Y361.523
G01 X455.726 Y357.674
G01 X450.310 Y353.567
G01 X447.141 Y350.434
G01 X445.388 Y348.363
G01 X440.349 Y347.574
G01 X434.022 Y345.659
G01 X428.003 Y342.711
G01 X422.427 Y338.692
G01 X418.313 Y334.648
G01 X416.584 Y332.571
G01 X407.441 Y330.824
G01 X400.392 Y327.910
G01 X392.922 Y322.812
G01 X387.453 Y317.142
G01 X378.833 Y315.440
G01 X369.808 Y311.399
G01 X361.675 Y304.979
G01 X356.481 Y298.485
G01 X351.535 Y297.861
G01 X346.449 Y296.505
G01 X337.021 Y291.766
G01 X330.627 Y286.246
G01 X326.687 Y281.225
G01 X321.892 Y280.386
G01 X316.547 Y278.645
G01 X312.473 Y276.663
G01 X312.266 Y273.032
G01 X311.856 Y269.488
G01 X311.252 Y266.040
G01 X310.867 Y264.302
G01 X310.557 Y261.821
G01 X310.230 Y259.342
G01 X310.237 Y259.294
G01 X311.168 Y261.554
G01 X312.123 Y263.858
G01 X313.060 Y266.168
G01 X313.540 Y267.290
G01 X314.536 Y268.096
G01 X316.438 Y269.622
G01 X316.482 Y269.650
G01 X318.630 Y270.928
G01 X320.467 Y272.013
G01 X320.814 Y272.160
G01 X323.107 Y273.119
G01 X323.848 Y273.426
G01 X325.497 Y273.850
G01 X327.923 Y274.470
G01 X328.797 Y274.693
G01 X330.392 Y274.867
G01 X332.215 Y275.062
G01 X332.569 Y275.612
G01 X333.303 Y276.774
G01 X333.984 Y277.671
G01 X335.171 Y279.238
G01 X335.541 Y279.623
G01 X337.263 Y281.427
G01 X337.842 Y282.033
G01 X339.137 Y283.072
G01 X340.741 Y284.350
G01 X341.134 Y284.582
G01 X343.316 Y285.806
G01 X345.471 Y287.028
G01 X345.931 Y287.294
G01 X347.825 Y287.873
G01 X350.218 Y288.615
G01 X352.470 Y289.307
G01 X352.598 Y289.321
G01 X355.094 Y289.579
G01 X357.279 Y289.803
G01 X357.577 Y289.791
G01 X360.086 Y289.697
G01 X360.868 Y289.665
G01 X361.329 Y290.598
G01 X361.651 Y291.171
G01 X362.858 Y293.356
G01 X362.984 Y293.586
G01 X364.248 Y295.431
G01 X364.655 Y296.032
G01 X365.801 Y297.395
G01 X366.708 Y298.476
G01 X367.497 Y299.246
G01 X369.293 Y300.969
G01 X369.734 Y301.398
G01 X371.233 Y302.531
G01 X372.696 Y303.617
G01 X373.283 Y303.961
G01 X375.429 Y305.230
G01 X375.996 Y305.555
G01 X377.677 Y306.327
G01 X378.655 Y306.773
G01 X380.022 Y307.206
G01 X382.392 Y307.964
G01 X383.423 Y308.289
G01 X384.818 Y308.529
G01 X387.280 Y308.946
G01 X387.556 Y309.000
G01 X389.772 Y309.092
G01 X391.721 Y309.165
G01 X392.046 Y309.618
G01 X393.493 Y311.648
G01 X393.868 Y312.167
G01 X395.125 Y313.539
G01 X396.800 Y315.378
G01 X396.833 Y315.427
G01 X398.735 Y316.989
G01 X400.596 Y318.517
G01 X400.657 Y318.563
G01 X402.807 Y319.874
G01 X404.268 Y320.766
G01 X404.987 Y321.058
G01 X407.303 Y322.006
G01 X409.620 Y322.950
G01 X410.150 Y323.173
G01 X412.040 Y323.548
G01 X414.486 Y324.024
G01 X416.451 Y324.408
G01 X416.936 Y324.425
G01 X419.449 Y324.492
G01 X420.902 Y324.540
G01 X421.562 Y325.339
G01 X423.131 Y327.291
G01 X424.706 Y329.213
G01 X426.287 Y331.165
G01 X426.621 Y331.576
G01 X428.243 Y332.715
G01 X430.264 Y334.179
G01 X432.296 Y335.617
G01 X433.487 Y336.490
G01 X434.449 Y336.853
G01 X436.781 Y337.769
G01 X439.083 Y338.689
G01 X440.690 Y339.327
G01 X441.467 Y339.434
G01 X443.930 Y339.830
G01 X446.389 Y340.230
G01 X447.183 Y340.357
G01 X448.883 Y340.366
G01 X450.379 Y340.394
G01 X450.968 Y341.217
G01 X452.439 Y343.230
G01 X453.635 Y344.870
G01 X453.977 Y345.203
G01 X455.749 Y346.958
G01 X457.241 Y348.423
G01 X457.563 Y348.677
G01 X459.566 Y350.169
G01 X460.422 Y350.812
G01 X461.707 Y351.427
G01 X463.952 Y352.529
G01 X466.196 Y353.631
G01 X468.157 Y354.571
G01 X468.482 Y354.646
G01 X469.143 Y354.828
G01 X469.462 Y353.046
G01 X469.913 Y350.586
G01 X470.347 Y348.290
G01 X470.187 Y348.219
G01 X467.913 Y347.179
G01 X465.630 Y346.160
G01 X465.242 Y345.987
G01 X463.554 Y344.800
G01 X461.521 Y343.341
G01 X461.498 Y343.330
G01 X459.853 Y341.479
G01 X458.205 Y339.623
G01 X456.656 Y337.905
G01 X456.571 Y337.722
G01 X455.379 Y335.524
G01 X454.450 Y333.845
G01 X454.294 Y333.304
G01 X453.595 Y330.889
G01 X452.900 Y328.483
G01 X452.519 Y327.174
G01 X452.489 Y326.051
G01 X452.429 Y323.544
G01 X452.339 Y321.047
G01 X452.346 Y320.800
G01 X452.787 Y318.596
G01 X453.284 Y316.146
G01 X453.478 Y315.220
G01 X454.133 Y313.813
G01 X455.171 Y311.534
G01 X456.016 Y309.639
G01 X455.638 Y309.418
G01 X454.176 Y308.531
G01 X453.502 Y308.161
G01 X451.289 Y306.985
G01 X450.208 Y306.398
G01 X449.602 Y307.522
G01 X448.717 Y309.209
G01 X448.496 Y309.771
G01 X447.526 Y312.073
G01 X447.520 Y312.093
G01 X446.862 Y314.470
G01 X446.272 Y316.479
G01 X446.240 Y316.884
G01 X445.986 Y319.368
G01 X445.724 Y321.863
G01 X445.581 Y323.256
G01 X445.648 Y324.354
G01 X445.811 Y326.846
G01 X445.835 Y327.398
G01 X446.261 Y329.297
G01 X446.830 Y331.733
G01 X447.276 Y333.705
G01 X446.797 Y333.618
G01 X444.333 Y333.214
G01 X442.350 Y332.889
G01 X441.883 Y332.711
G01 X439.569 Y331.826
G01 X437.363 Y331.007
G01 X437.242 Y330.910
G01 X435.129 Y329.558
G01 X433.043 Y328.206
G01 X432.423 Y327.812
G01 X431.159 Y326.567
G01 X429.378 Y324.802
G01 X428.991 Y324.431
G01 X427.901 Y322.812
G01 X426.509 Y320.721
G01 X425.696 Y319.520
G01 X425.327 Y318.545
G01 X424.461 Y316.202
G01 X423.603 Y313.859
G01 X423.502 Y313.625
G01 X423.189 Y311.396
G01 X422.831 Y308.925
G01 X422.783 Y308.600
G01 X422.946 Y306.447
G01 X423.114 Y303.946
G01 X423.224 Y302.482
G01 X423.497 Y301.487
G01 X424.166 Y299.081
G01 X424.313 Y298.464
G01 X425.040 Y296.748
G01 X425.214 Y296.288
G01 X426.164 Y294.510
G01 X426.590 Y293.735
G01 X426.208 Y293.510
G01 X425.189 Y292.942
G01 X424.822 Y292.760
G01 X423.251 Y291.917
G01 X422.981 Y291.760
G01 X420.795 Y290.582
G01 X420.726 Y290.548
G01 X419.631 Y292.607
G01 X419.581 Y292.702
G01 X418.600 Y294.992
G01 X418.023 Y296.354
G01 X417.723 Y297.338
G01 X417.025 Y299.657
G01 X417.029 Y299.731
G01 X416.592 Y302.187
G01 X416.317 Y303.713
G01 X416.267 Y304.672
G01 X416.117 Y307.156
G01 X416.108 Y307.413
G01 X416.219 Y309.656
G01 X416.291 Y310.924
G01 X416.485 Y312.130
G01 X416.780 Y314.033
G01 X416.940 Y314.593
G01 X417.575 Y317.006
G01 X417.799 Y317.856
G01 X416.191 Y317.631
G01 X414.174 Y317.347
G01 X413.737 Y317.225
G01 X411.335 Y316.559
G01 X411.067 Y316.487
G01 X409.004 Y315.653
G01 X408.519 Y315.453
G01 X406.790 Y314.464
G01 X404.754 Y313.302
G01 X404.628 Y313.214
G01 X402.702 Y311.644
G01 X401.326 Y310.509
G01 X400.843 Y309.966
G01 X399.185 Y308.101
G01 X398.643 Y307.496
G01 X397.745 Y306.065
G01 X396.424 Y303.961
G01 X396.235 Y303.676
G01 X395.385 Y301.687
G01 X394.691 Y300.043
G01 X394.506 Y299.349
G01 X393.895 Y296.917
G01 X393.655 Y295.950
G01 X393.522 Y294.457
G01 X393.330 Y291.974
G01 X393.291 Y291.574
G01 X393.441 Y289.480
G01 X393.539 Y287.966
G01 X393.738 Y287.006
G01 X394.266 Y284.568
G01 X394.324 Y284.216
G01 X395.071 Y282.194
G01 X395.526 Y280.924
G01 X396.023 Y279.886
G01 X396.150 Y279.638
G01 X397.134 Y277.867
G01 X396.973 Y277.776
G01 X396.048 Y277.283
G01 X395.100 Y276.776
G01 X394.777 Y276.597
G01 X394.038 Y276.193
G01 X392.762 Y275.519
G01 X392.578 Y275.412
G01 X391.280 Y274.715
G01 X390.789 Y275.617
G01 X389.652 Y277.841
G01 X389.522 Y278.106
G01 X388.685 Y280.152
G01 X388.554 Y280.516
G01 X387.942 Y282.528
G01 X387.644 Y283.448
G01 X387.372 Y284.957
G01 X386.953 Y287.429
G01 X386.827 Y288.072
G01 X386.745 Y289.912
G01 X386.647 Y292.402
G01 X386.659 Y292.450
G01 X386.902 Y294.894
G01 X387.144 Y297.310
G01 X387.173 Y297.381
G01 X387.779 Y299.791
G01 X388.430 Y302.213
G01 X388.466 Y302.401
G01 X386.186 Y302.068
G01 X385.781 Y302.007
G01 X383.766 Y301.465
G01 X382.699 Y301.176
G01 X381.421 Y300.668
G01 X379.751 Y299.995
G01 X379.138 Y299.640
G01 X376.964 Y298.397
G01 X376.063 Y297.880
G01 X374.910 Y296.971
G01 X373.687 Y296.032
G01 X373.036 Y295.342
G01 X371.299 Y293.534
G01 X370.448 Y292.645
G01 X369.753 Y291.606
G01 X368.343 Y289.544
G01 X368.145 Y289.268
G01 X367.205 Y287.309
G01 X366.603 Y286.054
G01 X366.272 Y284.999
G01 X365.536 Y282.609
G01 X365.272 Y281.789
G01 X365.062 Y280.164
G01 X364.756 Y277.692
G01 X364.696 Y277.192
G01 X364.768 Y275.192
G01 X364.866 Y273.019
G01 X364.930 Y272.698
G01 X365.388 Y270.245
G01 X365.479 Y269.714
G01 X366.061 Y267.847
G01 X366.343 Y266.975
G01 X366.951 Y265.514
G01 X367.209 Y264.881
G01 X368.079 Y263.290
G01 X368.520 Y262.476
G01 X367.115 Y261.725
G01 X366.758 Y261.524
G01 X364.917 Y260.542
G01 X364.559 Y260.348
G01 X362.712 Y259.363
G01 X362.640 Y259.323
G01 X361.514 Y261.446
G01 X361.487 Y261.466
G01 X360.501 Y263.726
G01 X360.106 Y264.639
G01 X359.653 Y266.077
G01 X358.985 Y268.235
G01 X358.945 Y268.475
G01 X358.475 Y270.927
G01 X358.326 Y271.686
G01 X358.196 Y273.410
G01 X358.022 Y275.541
G01 X358.039 Y275.899
G01 X358.186 Y278.396
G01 X358.262 Y280.124
G01 X358.386 Y280.883
G01 X358.783 Y283.160
G01 X358.579 Y283.145
G01 X356.507 Y282.991
G01 X356.092 Y282.897
G01 X353.663 Y282.372
G01 X352.043 Y282.023
G01 X351.304 Y281.624
G01 X349.079 Y280.441
G01 X346.876 Y279.266
G01 X344.672 Y278.085
G01 X344.561 Y278.021
G01 X342.883 Y276.356
G01 X341.116 Y274.588
G01 X340.628 Y274.088
G01 X339.713 Y272.534
G01 X338.457 Y270.384
G01 X337.285 Y268.384
G01 X337.220 Y268.206
G01 X336.463 Y265.830
G01 X336.120 Y264.755
G01 X335.937 Y263.400
G01 X335.606 Y260.921
G01 X335.511 Y260.266
G01 X335.661 Y258.429
G01 X335.895 Y255.943
G01 X336.045 Y254.261
G01 X336.280 Y253.486
G01 X337.018 Y251.104
G01 X337.375 Y250.016
G01 X337.992 Y248.810
G01 X339.113 Y246.664
G01 X339.036 Y246.631
G01 X336.831 Y245.444
G01 X336.340 Y245.176
G01 X334.631 Y244.260
G01 X334.344 Y244.102
G01 X332.435 Y243.082
G01 X331.645 Y242.647
G01 X331.088 Y244.134
G01 X330.557 Y245.644
G01 X330.324 Y246.510
G01 X329.693 Y248.923
G01 X329.400 Y250.030
G01 X329.188 Y251.369
G01 X328.831 Y253.841
G01 X328.529 Y255.899
G01 X328.521 Y256.317
G01 X328.456 Y258.815
G01 X328.392 Y260.742
G01 X328.438 Y261.316
G01 X328.595 Y263.814
G01 X328.591 Y263.837
G01 X328.842 Y266.005
G01 X328.885 Y266.293
G01 X329.030 Y267.174
G01 X327.495 Y266.703
G01 X327.207 Y266.616
G01 X325.206 Y265.690
G01 X322.945 Y264.641
G01 X322.689 Y264.522
G01 X320.945 Y263.129
G01 X319.012 Y261.568
G01 X317.192 Y260.119
G01 X317.089 Y259.967
G01 X315.702 Y257.901
G01 X314.287 Y255.826
G01 X312.888 Y253.758
G01 X312.819 Y253.646
G01 X312.059 Y251.408
G01 X311.267 Y249.037
G01 X310.999 Y248.211
G01 X309.720 Y249.234
G01 X308.825 Y249.958
G01 X307.475 Y249.959
G01 X304.975 Y249.961
G01 X302.475 Y249.962
G01 X299.975 Y249.964
G01 X297.475 Y249.966
G01 X294.975 Y249.968
G01 X292.475 Y249.969
G01 X289.975 Y249.967
G01 X287.475 Y249.969
G01 X284.975 Y249.971
G01 X282.500 Y249.973
G01 X280.000 Y249.975
G01 X277.500 Y249.977
G01 X275.000 Y249.980
G01 X272.500 Y249.982
G01 X270.000 Y249.982
G01 X267.500 Y249.984
G01 X265.000 Y249.986
G01 X262.500 Y249.987
G01 X260.000 Y249.989
G01 X257.500 Y249.991
G01 X255.000 Y249.992
G01 X252.500 Y249.994
G01 X252.393 Y249.877
G01 X252.281 Y249.770
G01 X252.165 Y249.674
G01 X252.044 Y249.589
G01 X251.921 Y249.514
G01 X251.796 Y249.451
G01 X251.669 Y249.399
G01 X251.542 Y249.357
G01 X251.415 Y249.327
G01 X251.289 Y249.307
G01 X251.164 Y249.299
G01 X251.043 Y249.300
G01 X250.924 Y249.312
G01 X250.809 Y249.333
G01 X250.699 Y249.364
G01 X250.593 Y249.404
G01 X250.494 Y249.453
G01 X250.401 Y249.509
G01 X250.315 Y249.574
G01 X250.236 Y249.645
G01 X250.165 Y249.723
G01 X250.103 Y249.807
G01 X250.049 Y249.896
G01 X250.004 Y249.989
G01 X250.000 Y250.000
G01 X250.021 Y249.941
G01 X250.036 Y249.880
G01 X250.044 Y249.817
G01 X250.047 Y249.753
G01 X250.044 Y249.689
G01 X250.034 Y249.625
G01 X250.018 Y249.561
G01 X249.996 Y249.498
G01 X249.968 Y249.436
G01 X249.934 Y249.376
G01 X249.893 Y249.318
G01 X249.847 Y249.262
G01 X249.796 Y249.210
G01 X249.738 Y249.161
G01 X249.676 Y249.116
G01 X249.609 Y249.075
G01 X249.536 Y249.039
G01 X249.460 Y249.008
G01 X249.379 Y248.982
G01 X249.295 Y248.961
G01 X249.207 Y248.947
G01 X249.116 Y248.939
G01 X249.022 Y248.938
G01 X248.927 Y248.943
G01 X248.829 Y248.955
G01 X248.731 Y248.974
G01 X248.631 Y249.001
G01 X248.531 Y249.035
G01 X248.432 Y249.076
G01 X248.332 Y249.125
G01 X248.235 Y249.181
G01 X248.138 Y249.245
G01 X248.044 Y249.317
G01 X247.953 Y249.396
G01 X247.865 Y249.482
G01 X247.780 Y249.576
G01 X247.700 Y249.677
G01 X247.624 Y249.784
G01 X247.554 Y249.899
G01 X247.500 Y249.998
G01 X245.000 Y250.000
G01 X242.500 Y250.001
G01 X240.000 Y250.003
G01 X237.500 Y250.004
G01 X235.000 Y250.006
G01 X232.500 Y250.007
G01 X230.000 Y250.011
G01 X227.500 Y250.012
G01 X225.000 Y250.013
G01 X222.525 Y250.014
G01 X220.025 Y250.016
G01 X217.525 Y250.017
G01 X215.025 Y250.018
G01 X212.525 Y250.020
G01 X210.025 Y250.021
G01 X207.525 Y250.027
G01 X205.025 Y250.028
G01 X202.525 Y250.030
G01 X200.025 Y250.031
G01 X197.525 Y250.033
G01 X195.025 Y250.034
G01 X192.525 Y250.036
G01 X190.025 Y250.038
G01 X187.525 Y250.039
G01 X186.200 Y250.040
G01 X185.558 Y251.020
G01 X184.173 Y253.098
G01 X182.800 Y255.186
G01 X181.606 Y256.988
G01 X181.325 Y257.184
G01 X179.272 Y258.609
G01 X177.213 Y260.029
G01 X175.172 Y261.457
G01 X173.122 Y262.882
G01 X172.871 Y263.051
G01 X171.060 Y264.302
G01 X169.013 Y265.729
G01 X166.952 Y267.148
G01 X164.902 Y268.568
G01 X162.840 Y269.997
G01 X161.049 Y271.234
G01 X160.818 Y271.449
G01 X159.001 Y273.161
G01 X157.175 Y274.875
G01 X155.362 Y276.582
G01 X153.539 Y278.295
G01 X151.704 Y280.011
G01 X151.707 Y280.021
G01 X149.620 Y281.395
G01 X147.540 Y282.778
G01 X145.464 Y284.158
G01 X143.391 Y285.533
G01 X141.732 Y286.641
G01 X141.280 Y286.866
G01 X139.039 Y287.961
G01 X136.778 Y289.076
G01 X134.543 Y290.183
G01 X132.304 Y291.280
G01 X130.070 Y292.387
G01 X129.549 Y292.639
G01 X127.683 Y293.134
G01 X125.283 Y293.770
G01 X122.861 Y294.420
G01 X120.438 Y295.063
G01 X120.028 Y295.177
G01 X118.454 Y296.507
G01 X116.534 Y298.119
G01 X114.624 Y299.742
G01 X112.719 Y301.364
G01 X110.813 Y302.967
G01 X108.914 Y304.580
G01 X107.001 Y306.210
G01 X105.107 Y307.809
G01 X104.104 Y308.667
G01 X103.196 Y309.424
G01 X101.257 Y311.025
G01 X99.339 Y312.605
G01 X97.404 Y314.198
G01 X95.473 Y315.793
G01 X94.132 Y316.917
G01 X93.386 Y317.016
G01 X90.915 Y317.340
G01 X88.454 Y317.678
G01 X85.964 Y318.009
G01 X83.477 Y318.338
G01 X83.066 Y318.390
G01 X81.111 Y319.092
G01 X78.762 Y319.953
G01 X76.406 Y320.794
G01 X74.055 Y321.651
G01 X71.726 Y322.495
G01 X69.374 Y323.346
G01 X69.351 Y323.356
G01 X67.124 Y324.452
G01 X64.877 Y325.561
G01 X62.647 Y326.646
G01 X60.403 Y327.763
G01 X58.153 Y328.866
G01 X55.904 Y329.971
G01 X53.681 Y331.071
G01 X51.428 Y332.165
G01 X49.184 Y333.281
G01 X47.971 Y333.879
G01 X46.866 Y334.218
G01 X44.495 Y334.961
G01 X42.107 Y335.729
G01 X39.733 Y336.462
G01 X37.342 Y337.222
G01 X34.950 Y337.977
G01 X32.588 Y338.740
G01 X30.193 Y339.487
G01 X29.240 Y339.798
G01 X28.569 Y341.130
G01 X27.474 Y343.382
G01 X26.381 Y345.608
G01 X26.197 Y346.004
G01 X28.232 Y345.736
G01 X30.715 Y345.367
G01 X33.172 Y344.996
G01 X35.638 Y344.580
G01 X38.091 Y344.131
G01 X40.564 Y343.661
G01 X43.001 Y343.168
G01 X45.447 Y342.633
G01 X47.890 Y342.087
G01 X50.321 Y341.511
G01 X52.738 Y340.905
G01 X55.166 Y340.259
G01 X57.568 Y339.614
G01 X59.980 Y338.930
G01 X62.372 Y338.200
G01 X64.760 Y337.462
G01 X67.137 Y336.698
G01 X69.502 Y335.909
G01 X71.855 Y335.095
G01 X74.221 Y334.246
G01 X76.552 Y333.384
G01 X78.896 Y332.489
G01 X81.221 Y331.556
G01 X83.514 Y330.612
G01 X85.820 Y329.637
G01 X88.117 Y328.643
G01 X90.396 Y327.615
G01 X92.660 Y326.553
G01 X94.916 Y325.475
G01 X97.163 Y324.381
G01 X99.397 Y323.257
G01 X101.616 Y322.104
G01 X103.822 Y320.923
G01 X105.993 Y319.728
G01 X108.181 Y318.511
G01 X110.352 Y317.256
G01 X112.512 Y315.979
G01 X114.639 Y314.691
G01 X116.752 Y313.371
G01 X118.879 Y312.022
G01 X120.970 Y310.654
G01 X123.027 Y309.269
G01 X125.096 Y307.848
G01 X127.132 Y306.413
G01 X129.160 Y304.956
G01 X131.180 Y303.479
G01 X133.185 Y301.960
G01 X135.162 Y300.435
G01 X137.109 Y298.895
G01 X139.072 Y297.322
G01 X140.980 Y295.737
G01 X142.904 Y294.113
G01 X144.782 Y292.493
G01 X146.651 Y290.839
G01 X148.516 Y289.155
G01 X150.360 Y287.462
G01 X152.176 Y285.745
G01 X153.968 Y284.005
G01 X155.738 Y282.248
G01 X157.490 Y280.475
G01 X159.223 Y278.681
G01 X160.964 Y276.863
G01 X162.642 Y275.037
G01 X164.330 Y273.178
G01 X165.984 Y271.303
G01 X167.609 Y269.424
G01 X169.227 Y267.514
G01 X170.819 Y265.584
G01 X172.390 Y263.644
G01 X173.942 Y261.684
G01 X175.479 Y259.699
G01 X176.980 Y257.705
G01 X178.451 Y255.695
G01 X179.921 Y253.670
G01 X181.369 Y251.622
G01 X182.776 Y249.565
G01 X184.173 Y247.492
G01 X185.539 Y245.398
G01 X186.880 Y243.292
G01 X188.202 Y241.173
G01 X189.510 Y239.038
G01 X190.784 Y236.890
G01 X192.029 Y234.723
G01 X193.248 Y232.546
G01 X194.448 Y230.351
G01 X195.625 Y228.151
G01 X196.787 Y225.938
G01 X197.910 Y223.706
G01 X199.018 Y221.464
G01 X200.088 Y219.201
G01 X201.135 Y216.936
G01 X202.167 Y214.655
G01 X203.169 Y212.371
G01 X204.149 Y210.071
G01 X205.097 Y207.758
G01 X206.027 Y205.445
G01 X206.923 Y203.108
G01 X207.796 Y200.762
G01 X208.636 Y198.410
G01 X209.465 Y196.057
G01 X210.260 Y193.685
G01 X211.026 Y191.313
G01 X211.769 Y188.929
G01 X212.487 Y186.532
G01 X213.167 Y184.123
G01 X213.829 Y181.713
G01 X214.467 Y179.302
G01 X215.066 Y176.865
G01 X215.647 Y174.443
G01 X216.202 Y172.008
G01 X216.726 Y169.560
G01 X217.230 Y167.118
G01 X217.699 Y164.658
G01 X218.147 Y162.199
G01 X218.558 Y159.745
G01 X218.814 Y158.150
G01 X218.013 Y157.764
G01 X217.044 Y157.283
G01 X216.760 Y158.660
G01 X216.248 Y161.118
G01 X215.701 Y163.556
G01 X215.116 Y165.979
G01 X214.516 Y168.407
G01 X213.886 Y170.822
G01 X213.225 Y173.228
G01 X212.556 Y175.646
G01 X211.839 Y178.043
G01 X211.092 Y180.414
G01 X210.339 Y182.807
G01 X209.539 Y185.164
G01 X208.721 Y187.531
G01 X207.878 Y189.889
G01 X206.997 Y192.221
G01 X206.096 Y194.552
G01 X205.183 Y196.880
G01 X204.217 Y199.182
G01 X203.247 Y201.487
G01 X202.234 Y203.769
G01 X201.204 Y206.043
G01 X200.157 Y208.317
G01 X199.080 Y210.573
G01 X197.974 Y212.813
G01 X196.839 Y215.043
G01 X195.681 Y217.256
G01 X194.499 Y219.458
G01 X193.272 Y221.634
G01 X192.044 Y223.807
G01 X190.791 Y225.968
G01 X189.513 Y228.114
G01 X188.205 Y230.248
G01 X186.868 Y232.359
G01 X185.521 Y234.462
G01 X184.135 Y236.547
G01 X182.732 Y238.614
G01 X181.306 Y240.664
G01 X179.854 Y242.701
G01 X178.394 Y244.722
G01 X176.898 Y246.725
G01 X175.386 Y248.711
G01 X173.853 Y250.680
G01 X172.269 Y252.630
G01 X170.706 Y254.566
G01 X169.084 Y256.481
G01 X167.474 Y258.374
G01 X165.822 Y260.255
G01 X164.150 Y262.109
G01 X162.455 Y263.951
G01 X160.733 Y265.776
G01 X159.007 Y267.578
G01 X157.248 Y269.355
G01 X155.481 Y271.119
G01 X153.700 Y272.856
G01 X151.881 Y274.576
G01 X150.045 Y276.272
G01 X148.194 Y277.959
G01 X146.321 Y279.614
G01 X144.429 Y281.254
G01 X142.536 Y282.857
G01 X140.598 Y284.457
G01 X138.658 Y286.025
G01 X136.694 Y287.577
G01 X134.726 Y289.101
G01 X132.731 Y290.604
G01 X130.709 Y292.094
G01 X128.679 Y293.548
G01 X126.644 Y294.976
G01 X124.577 Y296.384
G01 X122.484 Y297.783
G01 X120.404 Y299.140
G01 X118.294 Y300.483
G01 X116.176 Y301.802
G01 X114.021 Y303.090
G01 X111.885 Y304.354
G01 X109.715 Y305.597
G01 X107.510 Y306.817
G01 X105.321 Y308.009
G01 X103.124 Y309.180
G01 X100.890 Y310.323
G01 X98.669 Y311.433
G01 X96.415 Y312.527
G01 X94.150 Y313.594
G01 X91.881 Y314.649
G01 X89.593 Y315.660
G01 X87.299 Y316.656
G01 X84.993 Y317.620
G01 X82.673 Y318.551
G01 X80.345 Y319.465
G01 X78.027 Y320.334
G01 X75.677 Y321.193
G01 X73.320 Y322.032
G01 X70.946 Y322.833
G01 X68.564 Y323.612
G01 X66.196 Y324.358
G01 X63.789 Y325.073
G01 X61.402 Y325.772
G01 X58.975 Y326.436
G01 X56.569 Y327.085
G01 X54.145 Y327.688
G01 X51.719 Y328.284
G01 X49.275 Y328.831
G01 X46.851 Y329.361
G01 X44.394 Y329.871
G01 X41.949 Y330.343
G01 X39.470 Y330.792
G01 X37.012 Y331.223
G01 X34.558 Y331.592
G01 X32.077 Y331.958
G01 X29.586 Y332.292
G01 X27.115 Y332.606
G01 X24.885 Y332.844
G01 X24.857 Y332.624
G01 X24.694 Y330.111
G01 X24.542 Y327.635
G01 X24.379 Y325.126
G01 X24.328 Y324.016
G01 X25.699 Y323.865
G01 X28.173 Y323.542
G01 X30.644 Y323.210
G01 X33.130 Y322.839
G01 X35.583 Y322.445
G01 X38.050 Y322.013
G01 X40.507 Y321.552
G01 X42.963 Y321.083
G01 X45.409 Y320.587
G01 X47.840 Y320.042
G01 X50.292 Y319.483
G01 X52.706 Y318.887
G01 X55.141 Y318.277
G01 X57.537 Y317.632
G01 X59.949 Y316.956
G01 X62.354 Y316.256
G01 X64.750 Y315.535
G01 X67.133 Y314.774
G01 X69.509 Y313.994
G01 X71.878 Y313.194
G01 X74.234 Y312.358
G01 X76.560 Y311.513
G01 X78.898 Y310.626
G01 X81.231 Y309.724
G01 X83.546 Y308.773
G01 X85.858 Y307.810
G01 X88.159 Y306.817
G01 X90.427 Y305.806
G01 X92.710 Y304.761
G01 X94.961 Y303.699
G01 X97.205 Y302.614
G01 X99.460 Y301.484
G01 X101.662 Y300.350
G01 X103.882 Y299.189
G01 X106.088 Y297.983
G01 X108.267 Y296.768
G01 X110.438 Y295.527
G01 X112.579 Y294.266
G01 X114.738 Y292.974
G01 X116.840 Y291.662
G01 X118.964 Y290.323
G01 X121.057 Y288.960
G01 X123.150 Y287.581
G01 X125.211 Y286.171
G01 X127.247 Y284.744
G01 X129.279 Y283.284
G01 X131.289 Y281.812
G01 X133.294 Y280.301
G01 X135.281 Y278.783
G01 X137.243 Y277.238
G01 X139.184 Y275.669
G01 X141.108 Y274.090
G01 X143.036 Y272.477
G01 X144.922 Y270.844
G01 X146.794 Y269.189
G01 X148.652 Y267.515
G01 X150.499 Y265.815
G01 X152.313 Y264.108
G01 X154.095 Y262.375
G01 X155.872 Y260.618
G01 X157.647 Y258.840
G01 X159.373 Y257.040
G01 X161.104 Y255.227
G01 X162.791 Y253.396
G01 X164.464 Y251.542
G01 X166.126 Y249.667
G01 X167.755 Y247.781
G01 X169.381 Y245.871
G01 X170.957 Y243.943
G01 X172.537 Y242.003
G01 X174.076 Y240.037
G01 X175.603 Y238.057
G01 X177.121 Y236.061
G01 X178.585 Y234.047
G01 X180.049 Y232.021
G01 X181.492 Y229.975
G01 X182.892 Y227.912
G01 X184.278 Y225.832
G01 X185.652 Y223.739
G01 X186.992 Y221.630
G01 X188.301 Y219.502
G01 X189.602 Y217.366
G01 X190.873 Y215.215
G01 X192.115 Y213.046
G01 X193.326 Y210.862
G01 X194.526 Y208.674
G01 X195.696 Y206.465
G01 X196.832 Y204.238
G01 X197.955 Y202.001
G01 X199.057 Y199.758
G01 X200.131 Y197.513
G01 X201.171 Y195.231
G01 X202.195 Y192.958
G01 X203.192 Y190.665
G01 X204.150 Y188.357
G01 X205.095 Y186.040
G01 X206.011 Y183.719
G01 X206.904 Y181.387
G01 X207.751 Y179.023
G01 X208.593 Y176.685
G01 X209.409 Y174.324
G01 X210.189 Y171.941
G01 X210.940 Y169.556
G01 X211.666 Y167.165
G01 X212.371 Y164.761
G01 X213.052 Y162.371
G01 X213.693 Y159.943
G01 X214.310 Y157.523
G01 X214.666 Y156.076
G01 X213.768 Y155.642
G01 X212.300 Y154.900
G01 X212.048 Y155.727
G01 X211.311 Y158.113
G01 X210.547 Y160.484
G01 X209.762 Y162.867
G01 X208.940 Y165.220
G01 X208.093 Y167.566
G01 X207.225 Y169.906
G01 X206.333 Y172.248
G01 X205.414 Y174.566
G01 X204.456 Y176.873
G01 X203.489 Y179.183
G01 X202.496 Y181.482
G01 X201.469 Y183.748
G01 X200.412 Y186.016
G01 X199.344 Y188.275
G01 X198.238 Y190.519
G01 X197.105 Y192.743
G01 X195.967 Y194.966
G01 X194.800 Y197.180
G01 X193.590 Y199.368
G01 X192.363 Y201.544
G01 X191.119 Y203.707
G01 X189.836 Y205.850
G01 X188.536 Y207.989
G01 X187.223 Y210.117
G01 X185.875 Y212.223
G01 X184.518 Y214.314
G01 X183.120 Y216.390
G01 X181.710 Y218.451
G01 X180.261 Y220.492
G01 X178.819 Y222.524
G01 X177.333 Y224.534
G01 X175.825 Y226.528
G01 X174.293 Y228.502
G01 X172.756 Y230.468
G01 X171.164 Y232.406
G01 X169.586 Y234.337
G01 X167.971 Y236.242
G01 X166.337 Y238.135
G01 X164.684 Y240.000
G01 X163.006 Y241.853
G01 X161.300 Y243.685
G01 X159.587 Y245.505
G01 X157.840 Y247.301
G01 X156.080 Y249.073
G01 X154.304 Y250.825
G01 X152.509 Y252.567
G01 X150.692 Y254.275
G01 X148.851 Y255.977
G01 X146.984 Y257.650
G01 X145.111 Y259.299
G01 X143.233 Y260.931
G01 X141.322 Y262.545
G01 X139.400 Y264.136
G01 X137.440 Y265.704
G01 X135.490 Y267.239
G01 X133.502 Y268.768
G01 X131.496 Y270.272
G01 X129.496 Y271.745
G01 X127.452 Y273.203
G01 X125.413 Y274.636
G01 X123.350 Y276.046
G01 X121.267 Y277.442
G01 X119.184 Y278.804
G01 X117.073 Y280.134
G01 X114.940 Y281.456
G01 X112.805 Y282.750
G01 X110.642 Y284.018
G01 X108.478 Y285.267
G01 X106.308 Y286.480
G01 X104.111 Y287.675
G01 X101.910 Y288.845
G01 X99.679 Y289.993
G01 X97.446 Y291.126
G01 X95.203 Y292.213
G01 X92.931 Y293.289
G01 X90.679 Y294.338
G01 X88.394 Y295.357
G01 X86.104 Y296.354
G01 X83.803 Y297.310
G01 X81.475 Y298.264
G01 X79.159 Y299.168
G01 X76.817 Y300.067
G01 X74.490 Y300.930
G01 X72.131 Y301.769
G01 X69.762 Y302.576
G01 X67.388 Y303.367
G01 X65.005 Y304.124
G01 X62.616 Y304.863
G01 X60.217 Y305.566
G01 X57.812 Y306.249
G01 X55.396 Y306.893
G01 X52.973 Y307.516
G01 X50.544 Y308.116
G01 X48.133 Y308.688
G01 X45.685 Y309.222
G01 X43.236 Y309.753
G01 X40.798 Y310.231
G01 X38.329 Y310.690
G01 X35.882 Y311.136
G01 X33.398 Y311.541
G01 X30.930 Y311.911
G01 X28.461 Y312.274
G01 X25.978 Y312.585
G01 X23.946 Y312.836
G01 X23.947 Y312.374
G01 X23.969 Y309.869
G01 X23.995 Y307.378
G01 X23.993 Y304.883
G01 X24.019 Y302.394
G01 X24.033 Y300.655
G01 X24.815 Y300.598
G01 X27.300 Y300.368
G01 X29.784 Y300.130
G01 X32.262 Y299.864
G01 X34.734 Y299.570
G01 X37.219 Y299.221
G01 X39.703 Y298.868
G01 X42.158 Y298.495
G01 X44.626 Y298.071
G01 X47.089 Y297.623
G01 X49.546 Y297.152
G01 X51.994 Y296.639
G01 X54.436 Y296.105
G01 X56.874 Y295.550
G01 X59.278 Y294.963
G01 X61.698 Y294.333
G01 X64.114 Y293.686
G01 X66.527 Y293.022
G01 X68.927 Y292.307
G01 X71.324 Y291.577
G01 X73.689 Y290.822
G01 X76.073 Y290.032
G01 X78.425 Y289.220
G01 X80.797 Y288.375
G01 X83.139 Y287.511
G01 X85.449 Y286.611
G01 X87.778 Y285.685
G01 X90.105 Y284.737
G01 X92.400 Y283.760
G01 X94.690 Y282.750
G01 X96.951 Y281.714
G01 X99.211 Y280.665
G01 X101.465 Y279.573
G01 X103.717 Y278.456
G01 X105.943 Y277.321
G01 X108.141 Y276.155
G01 X110.340 Y274.971
G01 X112.511 Y273.746
G01 X114.684 Y272.508
G01 X116.834 Y271.248
G01 X118.985 Y269.952
G01 X121.114 Y268.627
G01 X123.223 Y267.287
G01 X125.313 Y265.924
G01 X127.383 Y264.527
G01 X129.437 Y263.124
G01 X131.499 Y261.677
G01 X133.522 Y260.209
G01 X135.532 Y258.731
G01 X137.506 Y257.212
G01 X139.496 Y255.688
G01 X141.429 Y254.130
G01 X143.381 Y252.551
G01 X145.304 Y250.945
G01 X147.202 Y249.324
G01 X149.077 Y247.671
G01 X150.930 Y246.008
G01 X152.766 Y244.318
G01 X154.586 Y242.603
G01 X156.395 Y240.866
G01 X158.168 Y239.116
G01 X159.936 Y237.338
G01 X161.674 Y235.549
G01 X163.390 Y233.731
G01 X165.084 Y231.894
G01 X166.760 Y230.037
G01 X168.396 Y228.163
G01 X170.046 Y226.274
G01 X171.639 Y224.356
G01 X173.228 Y222.421
G01 X174.791 Y220.467
G01 X176.328 Y218.497
G01 X177.841 Y216.515
G01 X179.338 Y214.507
G01 X180.813 Y212.492
G01 X182.248 Y210.451
G01 X183.671 Y208.390
G01 X185.074 Y206.323
G01 X186.439 Y204.231
G01 X187.788 Y202.127
G01 X189.119 Y200.010
G01 X190.407 Y197.872
G01 X191.680 Y195.715
G01 X192.924 Y193.551
G01 X194.149 Y191.369
G01 X195.360 Y189.192
G01 X196.527 Y186.979
G01 X197.661 Y184.747
G01 X198.778 Y182.512
G01 X199.872 Y180.274
G01 X200.933 Y178.005
G01 X201.984 Y175.747
G01 X202.994 Y173.456
G01 X203.977 Y171.148
G01 X204.935 Y168.848
G01 X205.868 Y166.523
G01 X206.770 Y164.200
G01 X207.654 Y161.871
G01 X208.499 Y159.513
G01 X209.319 Y157.145
G01 X210.114 Y154.792
G01 X210.391 Y153.946
G01 X208.944 Y153.224
G01 X207.773 Y152.638
G01 X207.389 Y153.761
G01 X206.573 Y156.134
G01 X205.718 Y158.475
G01 X204.848 Y160.830
G01 X203.944 Y163.157
G01 X203.007 Y165.458
G01 X202.036 Y167.766
G01 X201.057 Y170.069
G01 X200.023 Y172.341
G01 X198.986 Y174.614
G01 X197.916 Y176.878
G01 X196.809 Y179.112
G01 X195.679 Y181.340
G01 X194.511 Y183.546
G01 X193.326 Y185.749
G01 X192.131 Y187.946
G01 X190.884 Y190.113
G01 X189.611 Y192.261
G01 X188.330 Y194.412
G01 X187.012 Y196.527
G01 X185.665 Y198.634
G01 X184.299 Y200.727
G01 X182.913 Y202.804
G01 X181.484 Y204.858
G01 X180.037 Y206.896
G01 X178.573 Y208.916
G01 X177.086 Y210.923
G01 X175.555 Y212.905
G01 X174.024 Y214.882
G01 X172.450 Y216.821
G01 X170.871 Y218.754
G01 X169.242 Y220.652
G01 X167.605 Y222.542
G01 X165.957 Y224.419
G01 X164.277 Y226.259
G01 X162.555 Y228.083
G01 X160.839 Y229.896
G01 X159.078 Y231.676
G01 X157.317 Y233.443
G01 X155.530 Y235.183
G01 X153.713 Y236.895
G01 X151.860 Y238.597
G01 X150.023 Y240.264
G01 X148.145 Y241.919
G01 X146.250 Y243.552
G01 X144.336 Y245.149
G01 X142.400 Y246.731
G01 X140.438 Y248.294
G01 X138.475 Y249.824
G01 X136.483 Y251.331
G01 X134.459 Y252.811
G01 X132.428 Y254.273
G01 X130.386 Y255.713
G01 X128.333 Y257.117
G01 X126.242 Y258.506
G01 X124.135 Y259.853
G01 X122.038 Y261.190
G01 X119.898 Y262.492
G01 X117.741 Y263.781
G01 X115.587 Y265.026
G01 X113.413 Y266.251
G01 X111.219 Y267.456
G01 X109.026 Y268.635
G01 X106.784 Y269.777
G01 X104.569 Y270.899
G01 X102.304 Y271.994
G01 X100.061 Y273.049
G01 X97.769 Y274.087
G01 X95.500 Y275.096
G01 X93.204 Y276.081
G01 X90.878 Y277.024
G01 X88.552 Y277.951
G01 X86.220 Y278.844
G01 X83.887 Y279.717
G01 X81.524 Y280.558
G01 X79.154 Y281.358
G01 X76.780 Y282.134
G01 X74.403 Y282.884
G01 X72.020 Y283.607
G01 X69.608 Y284.305
G01 X67.190 Y284.973
G01 X64.788 Y285.587
G01 X62.358 Y286.190
G01 X59.925 Y286.777
G01 X57.482 Y287.310
G01 X55.035 Y287.824
G01 X52.585 Y288.320
G01 X50.123 Y288.757
G01 X47.661 Y289.192
G01 X45.190 Y289.586
G01 X42.740 Y289.952
G01 X40.257 Y290.278
G01 X37.770 Y290.580
G01 X35.277 Y290.856
G01 X32.801 Y291.080
G01 X30.299 Y291.303
G01 X27.812 Y291.471
G01 X25.325 Y291.633
G01 X24.669 Y291.662
G01 X24.745 Y289.833
G01 X24.874 Y287.331
G01 X25.006 Y284.839
G01 X25.067 Y283.403
G01 X26.150 Y283.380
G01 X28.641 Y283.302
G01 X31.125 Y283.175
G01 X33.630 Y283.017
G01 X36.106 Y282.836
G01 X38.603 Y282.626
G01 X41.093 Y282.370
G01 X43.579 Y282.090
G01 X46.063 Y281.788
G01 X48.539 Y281.443
G01 X51.009 Y281.057
G01 X53.476 Y280.652
G01 X55.940 Y280.228
G01 X58.395 Y279.748
G01 X60.824 Y279.254
G01 X63.271 Y278.723
G01 X65.714 Y278.159
G01 X68.127 Y277.567
G01 X70.561 Y276.941
G01 X72.966 Y276.290
G01 X75.368 Y275.612
G01 X77.764 Y274.891
G01 X80.158 Y274.147
G01 X82.525 Y273.383
G01 X84.885 Y272.566
G01 X87.244 Y271.730
G01 X89.601 Y270.860
G01 X91.931 Y269.963
G01 X94.236 Y269.055
G01 X96.562 Y268.085
G01 X98.865 Y267.109
G01 X101.143 Y266.098
G01 X103.421 Y265.051
G01 X105.675 Y263.975
G01 X107.908 Y262.884
G01 X110.143 Y261.751
G01 X112.357 Y260.595
G01 X114.551 Y259.405
G01 X116.752 Y258.195
G01 X118.910 Y256.958
G01 X121.076 Y255.693
G01 X123.201 Y254.392
G01 X125.313 Y253.071
G01 X127.437 Y251.719
G01 X129.501 Y250.353
G01 X131.580 Y248.949
G01 X133.627 Y247.512
G01 X135.668 Y246.068
G01 X137.680 Y244.585
G01 X139.667 Y243.076
G01 X141.654 Y241.546
G01 X143.595 Y239.993
G01 X145.541 Y238.413
G01 X147.446 Y236.804
G01 X149.337 Y235.170
G01 X151.215 Y233.523
G01 X153.061 Y231.841
G01 X154.902 Y230.140
G01 X156.714 Y228.416
G01 X158.501 Y226.678
G01 X160.267 Y224.907
G01 X162.016 Y223.113
G01 X163.724 Y221.297
G01 X165.419 Y219.463
G01 X167.103 Y217.611
G01 X168.734 Y215.720
G01 X170.357 Y213.823
G01 X171.973 Y211.916
G01 X173.543 Y209.974
G01 X175.090 Y208.012
G01 X176.613 Y206.032
G01 X178.118 Y204.030
G01 X179.598 Y202.014
G01 X181.034 Y199.972
