;  Created by Sandify
;  https://sandify.org
;  Version: 0.2.6
;
;  Machine type: Rectangular
;    Min X (mm): 0
;    Max X (mm): 500
;    Min Y (mm): 0
;    Max Y (mm): 500
;  Content type: shape
;  Layer:
;    Shape: FileImport
;    Name: hero_9wave2.thr
;    From file:: hero_9wave2.thr
;    Aspect Ratio: true
;    Comments: 
;    Visible: true
;    Initial width: 10
;    Initial height: 10
;    X offset: 0
;    Y offset: 0
;    Rotate (degrees): 0
;    Reverse path: false
;    Fine tuning:
;      Connect to next layer: line
;      Draw portion of path (%): 100
;      Backtrack at end (%): 0
;      Rotate starting point (%): 0
;  Reverse export path: false
;
; File name: 'Wave2 (E) (C N)'
; File type: gcode
;

G01 X250.000 Y250.000
G01 X250.001 Y250.022
G01 X250.001 Y250.025
G01 X250.005 Y250.043
G01 X250.006 Y250.048
G01 X250.011 Y250.065
G01 X250.013 Y250.070
G01 X250.020 Y250.085
G01 X250.022 Y250.089
G01 X250.031 Y250.103
G01 X250.034 Y250.107
G01 X250.044 Y250.119
G01 X250.047 Y250.122
G01 X250.059 Y250.133
G01 X250.062 Y250.135
G01 X250.075 Y250.144
G01 X250.078 Y250.146
G01 X250.092 Y250.153
G01 X250.096 Y250.154
G01 X250.110 Y250.159
G01 X250.113 Y250.160
G01 X250.128 Y250.163
G01 X250.131 Y250.163
G01 X250.146 Y250.164
G01 X250.149 Y250.164
G01 X250.163 Y250.163
G01 X250.166 Y250.163
G01 X250.179 Y250.160
G01 X250.182 Y250.159
G01 X250.195 Y250.154
G01 X250.197 Y250.153
G01 X250.209 Y250.147
G01 X250.211 Y250.146
G01 X250.221 Y250.138
G01 X250.223 Y250.137
G01 X250.232 Y250.127
G01 X250.233 Y250.127
G01 X250.240 Y250.116
G01 X250.246 Y250.104
G01 X250.250 Y250.092
G01 X250.251 Y250.080
G01 X250.250 Y250.069
G01 X250.247 Y250.059
G01 X250.242 Y250.050
G01 X250.236 Y250.042
G01 X250.228 Y250.037
G01 X250.219 Y250.034
G01 X250.209 Y250.033
G01 X250.198 Y250.034
G01 X250.188 Y250.039
G01 X250.178 Y250.046
G01 X250.171 Y250.053
G01 X250.169 Y250.056
G01 X250.165 Y250.064
G01 X250.161 Y250.069
G01 X250.158 Y250.077
G01 X250.155 Y250.084
G01 X250.154 Y250.093
G01 X250.152 Y250.101
G01 X250.151 Y250.112
G01 X250.151 Y250.121
G01 X250.152 Y250.135
G01 X250.152 Y250.142
G01 X250.157 Y250.161
G01 X250.158 Y250.165
G01 X250.166 Y250.189
G01 X250.179 Y250.213
G01 X250.196 Y250.237
G01 X250.217 Y250.261
G01 X250.242 Y250.283
G01 X250.271 Y250.304
G01 X250.304 Y250.323
G01 X250.341 Y250.339
G01 X250.382 Y250.352
G01 X250.426 Y250.361
G01 X250.473 Y250.365
G01 X250.522 Y250.365
G01 X250.573 Y250.359
G01 X250.574 Y250.359
G01 X250.623 Y250.349
G01 X250.626 Y250.348
G01 X250.675 Y250.333
G01 X250.680 Y250.331
G01 X250.727 Y250.311
G01 X250.733 Y250.308
G01 X250.779 Y250.283
G01 X250.786 Y250.279
G01 X250.830 Y250.250
G01 X250.837 Y250.244
G01 X250.879 Y250.210
G01 X250.886 Y250.203
G01 X250.925 Y250.165
G01 X250.933 Y250.157
G01 X250.968 Y250.114
G01 X250.976 Y250.104
G01 X251.007 Y250.058
G01 X251.014 Y250.047
G01 X251.042 Y249.997
G01 X251.048 Y249.984
G01 X251.071 Y249.931
G01 X251.076 Y249.917
G01 X251.095 Y249.862
G01 X251.099 Y249.847
G01 X251.112 Y249.789
G01 X251.115 Y249.774
G01 X251.123 Y249.714
G01 X251.124 Y249.698
G01 X251.126 Y249.637
G01 X251.126 Y249.620
G01 X251.123 Y249.559
G01 X251.121 Y249.542
G01 X251.112 Y249.481
G01 X251.108 Y249.463
G01 X251.093 Y249.403
G01 X251.088 Y249.386
G01 X251.067 Y249.327
G01 X251.061 Y249.310
G01 X251.034 Y249.253
G01 X251.026 Y249.237
G01 X250.994 Y249.182
G01 X250.984 Y249.167
G01 X250.947 Y249.115
G01 X250.936 Y249.101
G01 X250.894 Y249.053
G01 X250.882 Y249.040
G01 X250.835 Y248.996
G01 X250.822 Y248.985
G01 X250.772 Y248.946
G01 X250.758 Y248.936
G01 X250.704 Y248.902
G01 X250.690 Y248.893
G01 X250.632 Y248.864
G01 X250.618 Y248.858
G01 X250.558 Y248.835
G01 X250.544 Y248.830
G01 X250.482 Y248.813
G01 X250.468 Y248.810
G01 X250.405 Y248.799
G01 X250.392 Y248.797
G01 X250.329 Y248.793
G01 X250.316 Y248.792
G01 X250.253 Y248.795
G01 X250.241 Y248.796
G01 X250.179 Y248.804
G01 X250.169 Y248.806
G01 X250.108 Y248.822
G01 X250.100 Y248.824
G01 X250.041 Y248.846
G01 X250.034 Y248.849
G01 X249.978 Y248.877
G01 X249.973 Y248.879
G01 X249.921 Y248.914
G01 X249.918 Y248.916
G01 X249.869 Y248.956
G01 X249.826 Y249.002
G01 X249.791 Y249.050
G01 X249.763 Y249.101
G01 X249.743 Y249.152
G01 X249.730 Y249.204
G01 X249.726 Y249.255
G01 X249.729 Y249.305
G01 X249.739 Y249.351
G01 X249.756 Y249.393
G01 X249.779 Y249.431
G01 X249.809 Y249.464
G01 X249.843 Y249.490
G01 X249.874 Y249.505
G01 X249.881 Y249.509
G01 X249.908 Y249.516
G01 X249.923 Y249.520
G01 X249.947 Y249.522
G01 X249.967 Y249.524
G01 X249.990 Y249.521
G01 X250.012 Y249.519
G01 X250.036 Y249.511
G01 X250.057 Y249.505
G01 X250.084 Y249.491
G01 X250.101 Y249.483
G01 X250.133 Y249.459
G01 X250.142 Y249.453
G01 X250.181 Y249.414
G01 X250.215 Y249.367
G01 X250.243 Y249.313
G01 X250.265 Y249.252
G01 X250.279 Y249.186
G01 X250.285 Y249.114
G01 X250.282 Y249.037
G01 X250.270 Y248.958
G01 X250.247 Y248.877
G01 X250.214 Y248.795
G01 X250.170 Y248.714
G01 X250.115 Y248.635
G01 X250.051 Y248.560
G01 X249.979 Y248.491
G01 X249.975 Y248.487
G01 X249.896 Y248.427
G01 X249.889 Y248.421
G01 X249.805 Y248.368
G01 X249.795 Y248.363
G01 X249.705 Y248.318
G01 X249.691 Y248.312
G01 X249.597 Y248.276
G01 X249.580 Y248.270
G01 X249.481 Y248.243
G01 X249.463 Y248.239
G01 X249.360 Y248.221
G01 X249.339 Y248.218
G01 X249.235 Y248.210
G01 X249.212 Y248.209
G01 X249.105 Y248.211
G01 X249.081 Y248.213
G01 X248.974 Y248.225
G01 X248.948 Y248.229
G01 X248.842 Y248.251
G01 X248.815 Y248.258
G01 X248.711 Y248.290
G01 X248.684 Y248.300
G01 X248.581 Y248.342
G01 X248.555 Y248.355
G01 X248.456 Y248.407
G01 X248.429 Y248.422
G01 X248.335 Y248.484
G01 X248.310 Y248.502
G01 X248.221 Y248.573
G01 X248.197 Y248.593
G01 X248.115 Y248.672
G01 X248.092 Y248.695
G01 X248.017 Y248.782
G01 X247.997 Y248.807
G01 X247.930 Y248.901
G01 X247.912 Y248.929
G01 X247.854 Y249.029
G01 X247.839 Y249.057
G01 X247.790 Y249.163
G01 X247.777 Y249.192
G01 X247.739 Y249.302
G01 X247.729 Y249.333
G01 X247.701 Y249.445
G01 X247.694 Y249.476
G01 X247.676 Y249.591
G01 X247.673 Y249.622
G01 X247.666 Y249.738
G01 X247.665 Y249.768
G01 X247.669 Y249.884
G01 X247.671 Y249.914
G01 X247.687 Y250.028
G01 X247.691 Y250.056
G01 X247.717 Y250.168
G01 X247.725 Y250.194
G01 X247.761 Y250.303
G01 X247.770 Y250.327
G01 X247.817 Y250.431
G01 X247.828 Y250.453
G01 X247.884 Y250.551
G01 X247.896 Y250.570
G01 X247.962 Y250.661
G01 X247.975 Y250.678
G01 X248.049 Y250.762
G01 X248.062 Y250.776
G01 X248.143 Y250.851
G01 X248.156 Y250.861
G01 X248.245 Y250.927
G01 X248.256 Y250.935
G01 X248.351 Y250.991
G01 X248.360 Y250.996
G01 X248.461 Y251.042
G01 X248.467 Y251.044
G01 X248.573 Y251.078
G01 X248.575 Y251.079
G01 X248.683 Y251.100
G01 X248.789 Y251.109
G01 X248.890 Y251.104
G01 X248.987 Y251.088
G01 X249.077 Y251.061
G01 X249.159 Y251.023
G01 X249.231 Y250.976
G01 X249.293 Y250.922
G01 X249.344 Y250.861
G01 X249.383 Y250.795
G01 X249.410 Y250.726
G01 X249.423 Y250.656
G01 X249.423 Y250.594
G01 X249.424 Y250.585
G01 X249.414 Y250.539
G01 X249.411 Y250.516
G01 X249.396 Y250.479
G01 X249.386 Y250.451
G01 X249.365 Y250.419
G01 X249.348 Y250.391
G01 X249.321 Y250.363
G01 X249.299 Y250.337
G01 X249.263 Y250.311
G01 X249.239 Y250.292
G01 X249.188 Y250.267
G01 X249.170 Y250.257
G01 X249.093 Y250.233
G01 X249.008 Y250.220
G01 X248.918 Y250.221
G01 X248.824 Y250.235
G01 X248.728 Y250.264
G01 X248.632 Y250.308
G01 X248.538 Y250.366
G01 X248.447 Y250.440
G01 X248.362 Y250.527
G01 X248.284 Y250.629
G01 X248.214 Y250.743
G01 X248.156 Y250.870
G01 X248.109 Y251.007
G01 X248.077 Y251.149
G01 X248.076 Y251.154
G01 X248.058 Y251.299
G01 X248.057 Y251.310
G01 X248.055 Y251.455
G01 X248.055 Y251.471
G01 X248.067 Y251.617
G01 X248.069 Y251.637
G01 X248.095 Y251.782
G01 X248.100 Y251.805
G01 X248.141 Y251.949
G01 X248.149 Y251.975
G01 X248.204 Y252.115
G01 X248.216 Y252.143
G01 X248.285 Y252.278
G01 X248.301 Y252.307
G01 X248.383 Y252.437
G01 X248.403 Y252.466
G01 X248.498 Y252.589
G01 X248.522 Y252.617
G01 X248.629 Y252.732
G01 X248.657 Y252.759
G01 X248.776 Y252.864
G01 X248.807 Y252.890
G01 X248.936 Y252.984
G01 X248.971 Y253.008
G01 X249.110 Y253.090
G01 X249.148 Y253.111
G01 X249.294 Y253.181
G01 X249.335 Y253.198
G01 X249.488 Y253.255
G01 X249.531 Y253.269
G01 X249.690 Y253.311
G01 X249.735 Y253.321
G01 X249.897 Y253.348
G01 X249.943 Y253.354
G01 X250.108 Y253.367
G01 X250.155 Y253.368
G01 X250.321 Y253.365
G01 X250.367 Y253.363
G01 X250.532 Y253.344
G01 X250.578 Y253.338
G01 X250.741 Y253.304
G01 X250.785 Y253.293
G01 X250.944 Y253.244
G01 X250.987 Y253.229
G01 X251.141 Y253.166
G01 X251.181 Y253.148
G01 X251.328 Y253.071
G01 X251.366 Y253.049
G01 X251.504 Y252.959
G01 X251.539 Y252.934
G01 X251.667 Y252.832
G01 X251.698 Y252.805
G01 X251.816 Y252.691
G01 X251.843 Y252.663
G01 X251.949 Y252.539
G01 X251.972 Y252.509
G01 X252.064 Y252.377
G01 X252.084 Y252.347
G01 X252.162 Y252.207
G01 X252.177 Y252.177
G01 X252.241 Y252.031
G01 X252.252 Y252.003
G01 X252.301 Y251.852
G01 X252.308 Y251.826
G01 X252.341 Y251.671
G01 X252.345 Y251.648
G01 X252.362 Y251.492
G01 X252.363 Y251.472
G01 X252.363 Y251.315
G01 X252.363 Y251.300
G01 X252.346 Y251.144
G01 X252.345 Y251.134
G01 X252.311 Y250.981
G01 X252.310 Y250.976
G01 X252.259 Y250.828
G01 X252.194 Y250.692
G01 X252.117 Y250.569
G01 X252.029 Y250.461
G01 X251.933 Y250.369
G01 X251.829 Y250.293
G01 X251.721 Y250.235
G01 X251.612 Y250.195
G01 X251.502 Y250.173
G01 X251.394 Y250.168
G01 X251.291 Y250.180
G01 X251.195 Y250.209
G01 X251.112 Y250.251
G01 X251.108 Y250.253
G01 X251.054 Y250.296
G01 X251.032 Y250.311
G01 X250.995 Y250.354
G01 X250.968 Y250.382
G01 X250.943 Y250.426
G01 X250.919 Y250.464
G01 X250.902 Y250.512
G01 X250.885 Y250.554
G01 X250.876 Y250.611
G01 X250.868 Y250.652
G01 X250.870 Y250.723
G01 X250.869 Y250.755
G01 X250.886 Y250.850
G01 X250.888 Y250.859
G01 X250.925 Y250.964
G01 X250.981 Y251.067
G01 X251.056 Y251.165
G01 X251.148 Y251.256
G01 X251.258 Y251.337
G01 X251.383 Y251.407
G01 X251.523 Y251.463
G01 X251.676 Y251.503
G01 X251.840 Y251.527
G01 X252.013 Y251.531
G01 X252.193 Y251.516
G01 X252.377 Y251.479
G01 X252.558 Y251.423
G01 X252.563 Y251.422
G01 X252.737 Y251.347
G01 X252.748 Y251.342
G01 X252.915 Y251.250
G01 X252.931 Y251.240
G01 X253.088 Y251.132
G01 X253.107 Y251.117
G01 X253.254 Y250.992
G01 X253.275 Y250.972
G01 X253.410 Y250.833
G01 X253.433 Y250.808
G01 X253.554 Y250.654
G01 X253.577 Y250.624
G01 X253.684 Y250.458
G01 X253.705 Y250.422
G01 X253.797 Y250.245
G01 X253.816 Y250.205
G01 X253.891 Y250.017
G01 X253.908 Y249.973
G01 X253.966 Y249.778
G01 X253.978 Y249.730
G01 X254.018 Y249.528
G01 X254.026 Y249.477
G01 X254.047 Y249.271
G01 X254.051 Y249.217
G01 X254.052 Y249.008
G01 X254.051 Y248.952
G01 X254.033 Y248.743
G01 X254.026 Y248.687
G01 X253.989 Y248.478
G01 X253.977 Y248.422
G01 X253.920 Y248.217
G01 X253.902 Y248.161
G01 X253.826 Y247.961
G01 X253.803 Y247.906
G01 X253.709 Y247.714
G01 X253.681 Y247.661
G01 X253.569 Y247.478
G01 X253.537 Y247.428
G01 X253.408 Y247.256
G01 X253.371 Y247.209
G01 X253.227 Y247.049
G01 X253.186 Y247.007
G01 X253.028 Y246.861
G01 X252.984 Y246.823
G01 X252.814 Y246.693
G01 X252.766 Y246.659
G01 X252.585 Y246.546
G01 X252.536 Y246.518
G01 X252.346 Y246.422
G01 X252.296 Y246.399
G01 X252.098 Y246.323
G01 X252.048 Y246.305
G01 X251.845 Y246.248
G01 X251.795 Y246.236
G01 X251.589 Y246.198
G01 X251.540 Y246.191
G01 X251.333 Y246.174
G01 X251.286 Y246.172
G01 X251.079 Y246.175
G01 X251.036 Y246.177
G01 X250.832 Y246.200
G01 X250.792 Y246.206
G01 X250.593 Y246.249
G01 X250.558 Y246.258
G01 X250.365 Y246.320
G01 X250.335 Y246.331
G01 X250.151 Y246.412
G01 X250.126 Y246.424
G01 X249.952 Y246.524
G01 X249.934 Y246.535
G01 X249.771 Y246.653
G01 X249.759 Y246.662
G01 X249.610 Y246.797
G01 X249.604 Y246.803
G01 X249.470 Y246.954
G01 X249.358 Y247.114
G01 X249.269 Y247.279
G01 X249.203 Y247.446
G01 X249.160 Y247.613
G01 X249.139 Y247.778
G01 X249.140 Y247.936
G01 X249.163 Y248.085
G01 X249.205 Y248.224
G01 X249.265 Y248.349
G01 X249.341 Y248.458
G01 X249.430 Y248.549
G01 X249.531 Y248.622
G01 X249.617 Y248.661
G01 X249.641 Y248.673
G01 X249.714 Y248.691
G01 X249.757 Y248.703
G01 X249.823 Y248.707
G01 X249.876 Y248.711
G01 X249.940 Y248.702
G01 X249.996 Y248.697
G01 X250.061 Y248.675
G01 X250.113 Y248.660
G01 X250.185 Y248.620
G01 X250.224 Y248.601
G01 X250.309 Y248.533
G01 X250.327 Y248.520
G01 X250.418 Y248.419
G01 X250.496 Y248.300
G01 X250.558 Y248.164
G01 X250.600 Y248.012
G01 X250.623 Y247.848
G01 X250.623 Y247.674
G01 X250.600 Y247.493
G01 X250.553 Y247.307
G01 X250.480 Y247.119
G01 X250.382 Y246.934
G01 X250.258 Y246.753
G01 X250.109 Y246.580
G01 X249.938 Y246.420
G01 X249.936 Y246.418
G01 X249.751 Y246.277
G01 X249.741 Y246.270
G01 X249.541 Y246.149
G01 X249.523 Y246.139
G01 X249.312 Y246.038
G01 X249.286 Y246.027
G01 X249.065 Y245.947
G01 X249.032 Y245.937
G01 X248.802 Y245.879
G01 X248.763 Y245.870
G01 X248.526 Y245.835
G01 X248.482 Y245.830
G01 X248.240 Y245.817
G01 X248.191 Y245.816
G01 X247.947 Y245.827
G01 X247.894 Y245.831
G01 X247.650 Y245.865
G01 X247.594 Y245.875
G01 X247.352 Y245.932
G01 X247.294 Y245.948
G01 X247.056 Y246.029
G01 X246.997 Y246.051
G01 X246.766 Y246.155
G01 X246.708 Y246.183
G01 X246.486 Y246.309
G01 X246.429 Y246.344
G01 X246.218 Y246.490
G01 X246.163 Y246.532
G01 X245.965 Y246.698
G01 X245.913 Y246.745
G01 X245.731 Y246.930
G01 X245.682 Y246.982
G01 X245.517 Y247.184
G01 X245.473 Y247.242
G01 X245.328 Y247.458
G01 X245.289 Y247.520
G01 X245.163 Y247.750
G01 X245.130 Y247.815
G01 X245.026 Y248.055
G01 X244.999 Y248.123
G01 X244.918 Y248.372
G01 X244.898 Y248.442
G01 X244.840 Y248.697
G01 X244.826 Y248.768
G01 X244.793 Y249.027
G01 X244.786 Y249.097
G01 X244.776 Y249.358
G01 X244.776 Y249.427
G01 X244.791 Y249.686
G01 X244.797 Y249.754
G01 X244.836 Y250.009
G01 X244.848 Y250.074
G01 X244.910 Y250.323
G01 X244.928 Y250.384
G01 X245.013 Y250.625
G01 X245.035 Y250.681
G01 X245.143 Y250.911
G01 X245.169 Y250.962
G01 X245.297 Y251.179
G01 X245.326 Y251.224
G01 X245.474 Y251.426
G01 X245.504 Y251.465
G01 X245.670 Y251.650
G01 X245.702 Y251.683
G01 X245.884 Y251.849
G01 X245.915 Y251.875
G01 X246.112 Y252.021
G01 X246.140 Y252.041
G01 X246.350 Y252.165
G01 X246.375 Y252.179
G01 X246.596 Y252.280
G01 X246.615 Y252.288
G01 X246.847 Y252.365
G01 X246.858 Y252.369
G01 X247.098 Y252.420
G01 X247.100 Y252.421
G01 X247.338 Y252.444
G01 X247.568 Y252.441
G01 X247.787 Y252.412
G01 X247.992 Y252.358
G01 X248.180 Y252.283
G01 X248.349 Y252.188
G01 X248.497 Y252.076
G01 X248.621 Y251.950
G01 X248.721 Y251.813
G01 X248.795 Y251.669
G01 X248.842 Y251.520
G01 X248.862 Y251.371
G01 X248.856 Y251.248
G01 X248.856 Y251.224
G01 X248.833 Y251.132
G01 X248.824 Y251.084
G01 X248.790 Y251.010
G01 X248.766 Y250.953
G01 X248.722 Y250.891
G01 X248.685 Y250.835
G01 X248.627 Y250.780
G01 X248.582 Y250.732
G01 X248.504 Y250.682
G01 X248.459 Y250.649
G01 X248.349 Y250.601
G01 X248.319 Y250.586
G01 X248.164 Y250.547
G01 X247.998 Y250.533
G01 X247.823 Y250.546
G01 X247.644 Y250.586
G01 X247.464 Y250.655
G01 X247.285 Y250.753
G01 X247.113 Y250.879
G01 X246.951 Y251.033
G01 X246.801 Y251.214
G01 X246.668 Y251.420
G01 X246.555 Y251.650
G01 X246.464 Y251.901
G01 X246.399 Y252.170
G01 X246.362 Y252.443
G01 X246.361 Y252.454
G01 X246.353 Y252.730
G01 X246.353 Y252.751
G01 X246.372 Y253.027
G01 X246.376 Y253.057
G01 X246.423 Y253.331
G01 X246.431 Y253.368
G01 X246.506 Y253.638
G01 X246.519 Y253.681
G01 X246.621 Y253.944
G01 X246.641 Y253.991
G01 X246.769 Y254.245
G01 X246.796 Y254.295
G01 X246.949 Y254.538
G01 X246.984 Y254.589
G01 X247.161 Y254.819
G01 X247.203 Y254.869
G01 X247.403 Y255.083
G01 X247.452 Y255.132
G01 X247.674 Y255.328
G01 X247.730 Y255.375
G01 X247.970 Y255.550
G01 X248.033 Y255.593
G01 X248.291 Y255.746
G01 X248.359 Y255.784
G01 X248.632 Y255.914
G01 X248.706 Y255.946
G01 X248.991 Y256.051
G01 X249.070 Y256.076
G01 X249.365 Y256.154
G01 X249.446 Y256.173
G01 X249.749 Y256.224
G01 X249.833 Y256.235
G01 X250.139 Y256.258
G01 X250.225 Y256.261
G01 X250.533 Y256.255
G01 X250.618 Y256.251
G01 X250.925 Y256.217
G01 X251.010 Y256.205
G01 X251.312 Y256.142
G01 X251.395 Y256.122
G01 X251.689 Y256.032
G01 X251.769 Y256.005
G01 X252.054 Y255.888
G01 X252.130 Y255.854
G01 X252.402 Y255.712
G01 X252.473 Y255.672
G01 X252.729 Y255.506
G01 X252.795 Y255.460
G01 X253.034 Y255.271
G01 X253.093 Y255.221
G01 X253.311 Y255.012
G01 X253.364 Y254.958
G01 X253.560 Y254.730
G01 X253.605 Y254.675
G01 X253.778 Y254.431
G01 X253.815 Y254.374
G01 X253.963 Y254.116
G01 X253.993 Y254.060
G01 X254.113 Y253.791
G01 X254.136 Y253.736
G01 X254.229 Y253.459
G01 X254.245 Y253.407
G01 X254.309 Y253.124
G01 X254.318 Y253.076
G01 X254.354 Y252.790
G01 X254.357 Y252.748
G01 X254.363 Y252.461
G01 X254.363 Y252.427
G01 X254.339 Y252.142
G01 X254.336 Y252.115
G01 X254.281 Y251.835
G01 X254.277 Y251.818
G01 X254.193 Y251.544
G01 X254.191 Y251.538
G01 X254.078 Y251.279
G01 X253.942 Y251.044
G01 X253.785 Y250.834
G01 X253.612 Y250.652
G01 X253.426 Y250.500
G01 X253.231 Y250.379
G01 X253.031 Y250.289
G01 X252.829 Y250.231
G01 X252.631 Y250.205
G01 X252.439 Y250.209
G01 X252.259 Y250.242
G01 X252.092 Y250.303
G01 X251.958 Y250.383
G01 X251.944 Y250.390
G01 X251.856 Y250.468
G01 X251.816 Y250.500
G01 X251.757 Y250.578
G01 X251.712 Y250.630
G01 X251.672 Y250.710
G01 X251.635 Y250.777
G01 X251.610 Y250.864
G01 X251.586 Y250.937
G01 X251.577 Y251.039
G01 X251.567 Y251.106
G01 X251.577 Y251.234
G01 X251.579 Y251.282
G01 X251.622 Y251.454
G01 X251.623 Y251.458
G01 X251.698 Y251.633
G01 X251.806 Y251.800
G01 X251.944 Y251.957
G01 X252.111 Y252.099
G01 X252.306 Y252.223
G01 X252.526 Y252.325
G01 X252.769 Y252.401
G01 X253.031 Y252.450
G01 X253.309 Y252.467
G01 X253.600 Y252.452
G01 X253.900 Y252.402
G01 X254.203 Y252.317
G01 X254.498 Y252.199
G01 X254.507 Y252.195
G01 X254.787 Y252.048
G01 X254.806 Y252.037
G01 X255.071 Y251.861
G01 X255.097 Y251.843
G01 X255.344 Y251.640
G01 X255.375 Y251.613
G01 X255.602 Y251.385
G01 X255.636 Y251.349
G01 X255.841 Y251.098
G01 X255.875 Y251.053
G01 X256.057 Y250.781
G01 X256.090 Y250.728
G01 X256.246 Y250.437
G01 X256.276 Y250.375
G01 X256.405 Y250.068
G01 X256.431 Y249.999
G01 X256.531 Y249.678
G01 X256.551 Y249.603
G01 X256.621 Y249.271
G01 X256.635 Y249.190
G01 X256.674 Y248.850
G01 X256.681 Y248.764
G01 X256.687 Y248.420
G01 X256.686 Y248.331
G01 X256.661 Y247.986
G01 X256.651 Y247.894
G01 X256.593 Y247.551
G01 X256.575 Y247.459
G01 X256.485 Y247.120
G01 X256.457 Y247.029
G01 X256.336 Y246.699
G01 X256.300 Y246.609
G01 X256.148 Y246.290
G01 X256.104 Y246.203
G01 X255.923 Y245.899
G01 X255.870 Y245.817
G01 X255.662 Y245.530
G01 X255.602 Y245.453
G01 X255.368 Y245.187
G01 X255.301 Y245.116
G01 X255.044 Y244.873
G01 X254.971 Y244.808
G01 X254.693 Y244.591
G01 X254.616 Y244.534
G01 X254.320 Y244.344
G01 X254.239 Y244.295
G01 X253.928 Y244.134
G01 X253.845 Y244.094
G01 X253.521 Y243.963
G01 X253.437 Y243.932
G01 X253.104 Y243.833
G01 X253.020 Y243.811
G01 X252.682 Y243.744
G01 X252.600 Y243.730
G01 X252.258 Y243.696
G01 X252.180 Y243.690
G01 X251.839 Y243.689
G01 X251.765 Y243.691
G01 X251.428 Y243.723
G01 X251.359 Y243.731
G01 X251.029 Y243.795
G01 X250.968 Y243.809
G01 X250.648 Y243.905
G01 X250.594 Y243.923
G01 X250.288 Y244.049
G01 X250.243 Y244.070
G01 X249.953 Y244.225
G01 X249.917 Y244.246
G01 X249.646 Y244.431
G01 X249.619 Y244.450
G01 X249.369 Y244.661
G01 X249.353 Y244.676
G01 X249.127 Y244.914
G01 X249.121 Y244.922
G01 X248.923 Y245.182
G01 X248.762 Y245.452
G01 X248.638 Y245.728
G01 X248.552 Y246.004
G01 X248.502 Y246.278
G01 X248.488 Y246.543
G01 X248.509 Y246.796
G01 X248.561 Y247.032
G01 X248.644 Y247.248
G01 X248.753 Y247.441
G01 X248.885 Y247.606
G01 X249.037 Y247.742
G01 X249.204 Y247.845
G01 X249.205 Y247.846
G01 X249.339 Y247.896
G01 X249.384 Y247.916
G01 X249.498 Y247.935
G01 X249.570 Y247.951
G01 X249.673 Y247.949
G01 X249.758 Y247.951
G01 X249.858 Y247.930
G01 X249.944 Y247.916
G01 X250.047 Y247.873
G01 X250.123 Y247.846
G01 X250.237 Y247.772
G01 X250.290 Y247.741
G01 X250.426 Y247.618
G01 X250.441 Y247.605
G01 X250.573 Y247.438
G01 X250.680 Y247.244
G01 X250.761 Y247.025
G01 X250.810 Y246.785
G01 X250.826 Y246.529
G01 X250.807 Y246.259
G01 X250.750 Y245.981
G01 X250.655 Y245.699
G01 X250.521 Y245.419
G01 X250.347 Y245.144
G01 X250.135 Y244.879
G01 X249.886 Y244.630
G01 X249.606 Y244.405
G01 X249.601 Y244.401
G01 X249.300 Y244.207
G01 X249.282 Y244.196
G01 X248.963 Y244.034
G01 X248.933 Y244.020
G01 X248.597 Y243.890
G01 X248.556 Y243.876
G01 X248.207 Y243.779
G01 X248.155 Y243.767
G01 X247.795 Y243.705
G01 X247.734 Y243.697
G01 X247.367 Y243.670
G01 X247.298 Y243.667
G01 X246.927 Y243.676
G01 X246.851 Y243.680
G01 X246.479 Y243.725
G01 X246.398 Y243.738
G01 X246.029 Y243.818
G01 X245.944 Y243.840
G01 X245.581 Y243.956
G01 X245.495 Y243.987
G01 X245.141 Y244.138
G01 X245.054 Y244.178
G01 X244.714 Y244.363
G01 X244.628 Y244.413
G01 X244.304 Y244.630
G01 X244.221 Y244.690
G01 X243.917 Y244.938
G01 X243.837 Y245.007
G01 X243.556 Y245.283
G01 X243.482 Y245.360
G01 X243.226 Y245.663
G01 X243.159 Y245.748
G01 X242.931 Y246.073
G01 X242.871 Y246.165
G01 X242.674 Y246.511
G01 X242.623 Y246.609
G01 X242.458 Y246.972
G01 X242.416 Y247.074
G01 X242.285 Y247.451
G01 X242.253 Y247.556
G01 X242.158 Y247.943
G01 X242.135 Y248.050
G01 X242.076 Y248.444
G01 X242.064 Y248.551
G01 X242.042 Y248.947
G01 X242.040 Y249.054
G01 X242.055 Y249.449
G01 X242.062 Y249.553
G01 X242.114 Y249.943
G01 X242.130 Y250.043
G01 X242.218 Y250.425
G01 X242.243 Y250.520
G01 X242.365 Y250.889
G01 X242.398 Y250.978
G01 X242.554 Y251.332
G01 X242.593 Y251.413
G01 X242.781 Y251.748
G01 X242.825 Y251.820
G01 X243.042 Y252.133
G01 X243.090 Y252.197
G01 X243.335 Y252.485
G01 X243.384 Y252.539
G01 X243.655 Y252.799
G01 X243.704 Y252.843
G01 X243.997 Y253.074
G01 X244.044 Y253.108
G01 X244.357 Y253.307
G01 X244.399 Y253.332
G01 X244.730 Y253.496
G01 X244.766 Y253.512
G01 X245.111 Y253.641
G01 X245.137 Y253.649
G01 X245.495 Y253.740
G01 X245.509 Y253.743
G01 X245.875 Y253.795
G01 X246.232 Y253.804
G01 X246.574 Y253.775
G01 X246.896 Y253.708
G01 X247.195 Y253.607
G01 X247.466 Y253.475
G01 X247.707 Y253.317
G01 X247.914 Y253.135
G01 X248.085 Y252.936
G01 X248.218 Y252.723
G01 X248.311 Y252.502
G01 X248.365 Y252.278
G01 X248.380 Y252.056
G01 X248.358 Y251.885
G01 X248.355 Y251.841
G01 X248.313 Y251.712
G01 X248.293 Y251.639
G01 X248.235 Y251.535
G01 X248.194 Y251.453
G01 X248.121 Y251.365
G01 X248.063 Y251.288
G01 X247.969 Y251.211
G01 X247.901 Y251.150
G01 X247.776 Y251.080
G01 X247.712 Y251.041
G01 X247.535 Y250.978
G01 X247.500 Y250.964
G01 X247.270 Y250.924
G01 X247.026 Y250.922
G01 X246.773 Y250.959
G01 X246.516 Y251.038
G01 X246.260 Y251.158
G01 X246.011 Y251.320
G01 X245.774 Y251.523
G01 X245.555 Y251.765
G01 X245.357 Y252.044
G01 X245.186 Y252.358
G01 X245.046 Y252.704
G01 X244.941 Y253.078
G01 X244.876 Y253.473
G01 X244.876 Y253.475
G01 X244.852 Y253.873
G01 X244.851 Y253.892
G01 X244.869 Y254.290
G01 X244.871 Y254.323
G01 X244.929 Y254.719
G01 X244.937 Y254.764
G01 X245.035 Y255.154
G01 X245.050 Y255.208
G01 X245.187 Y255.590
G01 X245.211 Y255.651
G01 X245.386 Y256.020
G01 X245.420 Y256.086
G01 X245.632 Y256.440
G01 X245.677 Y256.509
G01 X245.923 Y256.844
G01 X245.979 Y256.914
G01 X246.259 Y257.226
G01 X246.324 Y257.295
G01 X246.636 Y257.582
G01 X246.712 Y257.647
G01 X247.051 Y257.906
G01 X247.137 Y257.967
G01 X247.502 Y258.194
G01 X247.596 Y258.249
G01 X247.983 Y258.443
G01 X248.086 Y258.490
G01 X248.492 Y258.648
G01 X248.601 Y258.686
G01 X249.022 Y258.807
G01 X249.136 Y258.835
G01 X249.568 Y258.917
G01 X249.687 Y258.935
G01 X250.126 Y258.976
G01 X250.247 Y258.984
G01 X250.690 Y258.984
G01 X250.812 Y258.980
G01 X251.253 Y258.940
G01 X251.374 Y258.925
G01 X251.810 Y258.844
G01 X251.929 Y258.818
G01 X252.355 Y258.698
G01 X252.471 Y258.661
G01 X252.884 Y258.502
G01 X252.994 Y258.455
G01 X253.389 Y258.259
G01 X253.494 Y258.203
G01 X253.868 Y257.972
G01 X253.964 Y257.908
G01 X254.313 Y257.643
G01 X254.401 Y257.573
G01 X254.723 Y257.278
G01 X254.801 Y257.202
G01 X255.091 Y256.881
G01 X255.159 Y256.800
G01 X255.417 Y256.455
G01 X255.474 Y256.373
G01 X255.695 Y256.007
G01 X255.742 Y255.924
G01 X255.926 Y255.542
G01 X255.962 Y255.460
G01 X256.107 Y255.065
G01 X256.132 Y254.987
G01 X256.237 Y254.582
G01 X256.253 Y254.509
G01 X256.316 Y254.099
G01 X256.324 Y254.034
G01 X256.345 Y253.622
G01 X256.346 Y253.565
G01 X256.325 Y253.156
G01 X256.322 Y253.110
G01 X256.258 Y252.706
G01 X256.252 Y252.673
G01 X256.146 Y252.278
G01 X256.140 Y252.260
G01 X255.991 Y251.877
G01 X255.990 Y251.874
G01 X255.805 Y251.520
G01 X255.589 Y251.203
G01 X255.349 Y250.923
G01 X255.087 Y250.686
G01 X254.811 Y250.491
G01 X254.525 Y250.341
G01 X254.236 Y250.235
G01 X253.948 Y250.174
G01 X253.668 Y250.157
G01 X253.401 Y250.183
G01 X253.152 Y250.248
G01 X252.927 Y250.351
G01 X252.758 Y250.469
G01 X252.729 Y250.487
G01 X252.618 Y250.601
G01 X252.563 Y250.654
G01 X252.489 Y250.767
G01 X252.432 Y250.846
G01 X252.385 Y250.963
G01 X252.340 Y251.058
G01 X252.314 Y251.187
G01 X252.289 Y251.287
G01 X252.287 Y251.437
G01 X252.281 Y251.525
G01 X252.311 Y251.715
G01 X252.317 Y251.768
G01 X252.398 Y252.010
G01 X252.522 Y252.244
G01 X252.689 Y252.466
G01 X252.899 Y252.670
G01 X253.147 Y252.850
G01 X253.431 Y253.002
G01 X253.749 Y253.120
G01 X254.095 Y253.201
G01 X254.465 Y253.241
G01 X254.853 Y253.236
G01 X255.256 Y253.185
G01 X255.667 Y253.085
G01 X256.079 Y252.935
G01 X256.474 Y252.743
G01 X256.488 Y252.735
G01 X256.860 Y252.503
G01 X256.887 Y252.486
G01 X257.235 Y252.216
G01 X257.270 Y252.187
G01 X257.591 Y251.882
G01 X257.632 Y251.840
G01 X257.922 Y251.504
G01 X257.966 Y251.449
G01 X258.224 Y251.083
G01 X258.267 Y251.016
G01 X258.491 Y250.623
G01 X258.531 Y250.545
G01 X258.717 Y250.128
G01 X258.754 Y250.040
G01 X258.900 Y249.603
G01 X258.930 Y249.505
G01 X259.035 Y249.053
G01 X259.056 Y248.946
G01 X259.120 Y248.482
G01 X259.131 Y248.369
G01 X259.151 Y247.897
G01 X259.152 Y247.779
G01 X259.127 Y247.304
G01 X259.117 Y247.182
G01 X259.047 Y246.709
G01 X259.025 Y246.585
G01 X258.912 Y246.118
G01 X258.877 Y245.993
G01 X258.721 Y245.537
G01 X258.674 Y245.414
G01 X258.476 Y244.972
G01 X258.417 Y244.853
G01 X258.178 Y244.430
G01 X258.108 Y244.316
G01 X257.831 Y243.917
G01 X257.751 Y243.809
G01 X257.437 Y243.436
G01 X257.348 Y243.337
G01 X257.002 Y242.995
G01 X256.904 Y242.904
G01 X256.528 Y242.596
G01 X256.423 Y242.516
G01 X256.021 Y242.245
G01 X255.911 Y242.175
G01 X255.487 Y241.943
G01 X255.373 Y241.885
G01 X254.931 Y241.695
G01 X254.816 Y241.649
G01 X254.360 Y241.501
G01 X254.244 Y241.467
G01 X253.779 Y241.363
G01 X253.665 Y241.342
G01 X253.195 Y241.283
G01 X253.084 Y241.272
G01 X252.614 Y241.258
G01 X252.509 Y241.259
G01 X252.043 Y241.290
G01 X251.944 Y241.299
G01 X251.487 Y241.375
G01 X251.397 Y241.393
G01 X250.953 Y241.512
G01 X250.873 Y241.536
G01 X250.446 Y241.697
G01 X250.378 Y241.726
G01 X249.972 Y241.927
G01 X249.915 Y241.958
G01 X249.534 Y242.199
G01 X249.491 Y242.228
G01 X249.138 Y242.507
G01 X249.108 Y242.532
G01 X248.787 Y242.846
G01 X248.769 Y242.864
G01 X248.483 Y243.212
G01 X248.479 Y243.217
G01 X248.237 Y243.587
G01 X248.046 Y243.967
G01 X247.906 Y244.350
G01 X247.817 Y244.731
G01 X247.776 Y245.103
G01 X247.784 Y245.461
G01 X247.836 Y245.798
G01 X247.930 Y246.110
G01 X248.062 Y246.391
G01 X248.227 Y246.638
G01 X248.422 Y246.845
G01 X248.639 Y247.011
G01 X248.857 Y247.122
G01 X248.874 Y247.132
G01 X249.051 Y247.182
G01 X249.121 Y247.206
G01 X249.273 Y247.220
G01 X249.374 Y247.233
G01 X249.513 Y247.219
G01 X249.626 Y247.213
G01 X249.761 Y247.172
G01 X249.871 Y247.145
G01 X250.011 Y247.072
G01 X250.103 Y247.031
G01 X250.259 Y246.911
G01 X250.316 Y246.872
G01 X250.502 Y246.674
G01 X250.504 Y246.672
G01 X250.663 Y246.433
G01 X250.786 Y246.160
G01 X250.870 Y245.858
G01 X250.911 Y245.530
G01 X250.906 Y245.183
G01 X250.851 Y244.823
G01 X250.746 Y244.455
G01 X250.589 Y244.086
G01 X250.381 Y243.723
G01 X250.120 Y243.371
G01 X249.809 Y243.038
G01 X249.450 Y242.729
G01 X249.055 Y242.456
G01 X249.045 Y242.450
G01 X248.625 Y242.221
G01 X248.598 Y242.207
G01 X248.156 Y242.022
G01 X248.113 Y242.005
G01 X247.653 Y241.865
G01 X247.595 Y241.849
G01 X247.120 Y241.755
G01 X247.048 Y241.743
G01 X246.563 Y241.695
G01 X246.479 Y241.690
G01 X245.987 Y241.689
G01 X245.894 Y241.692
G01 X245.400 Y241.740
G01 X245.299 Y241.753
G01 X244.808 Y241.848
G01 X244.701 Y241.873
G01 X244.216 Y242.015
G01 X244.106 Y242.052
G01 X243.633 Y242.241
G01 X243.521 Y242.291
G01 X243.065 Y242.525
G01 X242.953 Y242.587
G01 X242.517 Y242.866
G01 X242.408 Y242.940
G01 X241.998 Y243.260
G01 X241.893 Y243.347
G01 X241.512 Y243.705
G01 X241.414 Y243.803
G01 X241.066 Y244.197
G01 X240.975 Y244.306
G01 X240.664 Y244.732
G01 X240.583 Y244.850
G01 X240.311 Y245.304
G01 X240.241 Y245.431
G01 X240.012 Y245.908
G01 X239.953 Y246.042
G01 X239.769 Y246.539
G01 X239.723 Y246.677
G01 X239.585 Y247.189
G01 X239.552 Y247.330
G01 X239.462 Y247.851
G01 X239.442 Y247.994
G01 X239.401 Y248.520
G01 X239.395 Y248.662
G01 X239.403 Y249.189
G01 X239.409 Y249.328
G01 X239.466 Y249.849
G01 X239.485 Y249.984
G01 X239.590 Y250.495
G01 X239.620 Y250.624
G01 X239.772 Y251.120
G01 X239.813 Y251.241
G01 X240.009 Y251.718
G01 X240.059 Y251.830
G01 X240.298 Y252.283
G01 X240.356 Y252.384
G01 X240.635 Y252.809
G01 X240.698 Y252.898
G01 X241.015 Y253.291
G01 X241.081 Y253.368
G01 X241.432 Y253.726
G01 X241.499 Y253.790
G01 X241.881 Y254.109
G01 X241.946 Y254.160
G01 X242.355 Y254.437
G01 X242.416 Y254.475
G01 X242.848 Y254.708
G01 X242.902 Y254.735
G01 X243.354 Y254.921
G01 X243.398 Y254.937
G01 X243.866 Y255.074
G01 X243.896 Y255.082
G01 X244.378 Y255.168
G01 X244.390 Y255.170
G01 X244.872 Y255.203
G01 X245.338 Y255.182
G01 X245.780 Y255.111
G01 X246.193 Y254.994
G01 X246.572 Y254.834
G01 X246.912 Y254.637
G01 X247.208 Y254.408
G01 X247.459 Y254.152
G01 X247.660 Y253.877
G01 X247.810 Y253.588
G01 X247.908 Y253.293
G01 X247.955 Y252.998
G01 X247.949 Y252.710
G01 X247.905 Y252.502
G01 X247.894 Y252.434
G01 X247.827 Y252.275
G01 X247.790 Y252.178
G01 X247.705 Y252.050
G01 X247.642 Y251.948
G01 X247.535 Y251.840
G01 X247.453 Y251.749
G01 X247.316 Y251.655
G01 X247.226 Y251.587
G01 X247.043 Y251.505
G01 X246.968 Y251.467
G01 X246.706 Y251.398
G01 X246.683 Y251.391
G01 X246.378 Y251.364
G01 X246.059 Y251.388
G01 X245.732 Y251.465
G01 X245.404 Y251.596
G01 X245.082 Y251.780
G01 X244.774 Y252.018
G01 X244.485 Y252.307
G01 X244.223 Y252.646
G01 X243.993 Y253.031
G01 X243.801 Y253.459
G01 X243.653 Y253.924
G01 X243.553 Y254.422
G01 X243.507 Y254.939
G01 X243.506 Y254.947
G01 X243.514 Y255.464
G01 X243.515 Y255.492
G01 X243.576 Y256.006
G01 X243.583 Y256.052
G01 X243.695 Y256.559
G01 X243.711 Y256.619
G01 X243.874 Y257.115
G01 X243.900 Y257.186
G01 X244.114 Y257.667
G01 X244.152 Y257.746
G01 X244.413 Y258.208
G01 X244.464 Y258.292
G01 X244.772 Y258.730
G01 X244.837 Y258.816
G01 X245.188 Y259.227
G01 X245.266 Y259.313
G01 X245.659 Y259.691
G01 X245.750 Y259.774
G01 X246.180 Y260.117
G01 X246.285 Y260.195
G01 X246.748 Y260.498
G01 X246.865 Y260.569
G01 X247.358 Y260.830
G01 X247.485 Y260.892
G01 X248.004 Y261.107
G01 X248.140 Y261.158
G01 X248.680 Y261.325
G01 X248.824 Y261.365
G01 X249.379 Y261.481
G01 X249.529 Y261.508
G01 X250.095 Y261.573
G01 X250.249 Y261.586
G01 X250.820 Y261.599
G01 X250.976 Y261.598
G01 X251.547 Y261.558
G01 X251.703 Y261.542
G01 X252.268 Y261.450
G01 X252.422 Y261.420
G01 X252.977 Y261.276
G01 X253.127 Y261.232
G01 X253.665 Y261.037
G01 X253.809 Y260.980
G01 X254.327 Y260.737
G01 X254.463 Y260.668
G01 X254.954 Y260.379
G01 X255.082 Y260.299
G01 X255.542 Y259.967
G01 X255.659 Y259.877
G01 X256.084 Y259.506
G01 X256.189 Y259.408
G01 X256.576 Y259.001
G01 X256.668 Y258.897
G01 X257.012 Y258.458
G01 X257.091 Y258.351
G01 X257.390 Y257.884
G01 X257.454 Y257.775
G01 X257.706 Y257.285
G01 X257.757 Y257.177
G01 X257.958 Y256.669
G01 X257.996 Y256.565
G01 X258.145 Y256.044
G01 X258.170 Y255.945
G01 X258.267 Y255.416
G01 X258.281 Y255.325
G01 X258.325 Y254.793
G01 X258.328 Y254.712
G01 X258.318 Y254.182
G01 X258.314 Y254.114
G01 X258.250 Y253.590
G01 X258.241 Y253.537
G01 X258.122 Y253.023
G01 X258.113 Y252.988
G01 X257.939 Y252.489
G01 X257.933 Y252.473
G01 X257.707 Y251.998
G01 X257.440 Y251.567
G01 X257.137 Y251.184
G01 X256.806 Y250.854
G01 X256.454 Y250.578
G01 X256.086 Y250.359
G01 X255.711 Y250.197
G01 X255.336 Y250.093
G01 X254.968 Y250.045
G01 X254.614 Y250.052
G01 X254.280 Y250.112
G01 X253.974 Y250.221
G01 X253.702 Y250.375
G01 X253.516 Y250.531
G01 X253.468 Y250.569
G01 X253.347 Y250.719
G01 X253.277 Y250.798
G01 X253.199 Y250.947
G01 X253.135 Y251.055
G01 X253.087 Y251.211
G01 X253.043 Y251.335
G01 X253.025 Y251.508
G01 X253.006 Y251.631
G01 X253.021 Y251.836
G01 X253.023 Y251.935
G01 X253.088 Y252.197
G01 X253.097 Y252.240
G01 X253.227 Y252.539
G01 X253.413 Y252.824
G01 X253.651 Y253.089
G01 X253.941 Y253.327
G01 X254.278 Y253.530
G01 X254.658 Y253.694
G01 X255.076 Y253.812
G01 X255.526 Y253.880
G01 X256.003 Y253.893
G01 X256.500 Y253.848
G01 X257.008 Y253.742
G01 X257.522 Y253.575
G01 X258.032 Y253.344
G01 X258.034 Y253.343
G01 X258.514 Y253.063
G01 X258.535 Y253.049
G01 X258.984 Y252.720
G01 X259.019 Y252.693
G01 X259.434 Y252.319
G01 X259.478 Y252.276
G01 X259.855 Y251.860
G01 X259.905 Y251.801
G01 X260.242 Y251.347
G01 X260.293 Y251.273
G01 X260.586 Y250.784
G01 X260.636 Y250.695
G01 X260.882 Y250.175
G01 X260.927 Y250.072
G01 X261.124 Y249.527
G01 X261.162 Y249.410
G01 X261.307 Y248.844
G01 X261.335 Y248.716
G01 X261.428 Y248.134
G01 X261.445 Y247.997
G01 X261.482 Y247.404
G01 X261.486 Y247.259
G01 X261.468 Y246.661
G01 X261.458 Y246.511
G01 X261.384 Y245.913
G01 X261.359 Y245.759
G01 X261.229 Y245.168
G01 X261.190 Y245.013
G01 X261.004 Y244.434
G01 X260.950 Y244.280
G01 X260.710 Y243.718
G01 X260.641 Y243.568
G01 X260.350 Y243.028
G01 X260.266 Y242.884
G01 X259.926 Y242.372
G01 X259.829 Y242.235
G01 X259.443 Y241.756
G01 X259.333 Y241.629
G01 X258.904 Y241.188
G01 X258.784 Y241.071
G01 X258.317 Y240.671
G01 X258.187 Y240.567
G01 X257.685 Y240.213
G01 X257.548 Y240.122
G01 X257.018 Y239.817
G01 X256.875 Y239.740
G01 X256.320 Y239.486
G01 X256.174 Y239.425
G01 X255.601 Y239.224
G01 X255.454 Y239.178
G01 X254.868 Y239.033
G01 X254.721 Y239.002
G01 X254.128 Y238.913
G01 X253.985 Y238.896
G01 X253.390 Y238.864
G01 X253.253 Y238.861
G01 X252.661 Y238.886
G01 X252.532 Y238.896
G01 X251.950 Y238.976
G01 X251.831 Y238.997
G01 X251.265 Y239.133
G01 X251.157 Y239.162
G01 X250.611 Y239.352
G01 X250.517 Y239.388
G01 X249.996 Y239.629
G01 X249.916 Y239.669
G01 X249.425 Y239.959
G01 X249.362 Y240.000
G01 X248.905 Y240.337
G01 X248.859 Y240.374
G01 X248.441 Y240.756
G01 X248.410 Y240.786
G01 X248.035 Y241.211
G01 X248.021 Y241.228
G01 X247.693 Y241.693
G01 X247.428 Y242.174
G01 X247.227 Y242.661
G01 X247.090 Y243.148
G01 X247.016 Y243.627
G01 X247.002 Y244.090
G01 X247.046 Y244.530
G01 X247.143 Y244.940
G01 X247.291 Y245.314
G01 X247.482 Y245.646
G01 X247.712 Y245.931
G01 X247.973 Y246.165
G01 X248.259 Y246.344
G01 X248.516 Y246.446
G01 X248.562 Y246.466
G01 X248.774 Y246.505
G01 X248.875 Y246.529
G01 X249.060 Y246.528
G01 X249.190 Y246.533
G01 X249.362 Y246.498
G01 X249.500 Y246.477
G01 X249.669 Y246.408
G01 X249.796 Y246.363
G01 X249.974 Y246.248
G01 X250.071 Y246.192
G01 X250.270 Y246.009
G01 X250.317 Y245.969
G01 X250.529 Y245.697
G01 X250.700 Y245.380
G01 X250.823 Y245.023
G01 X250.895 Y244.634
G01 X250.910 Y244.218
G01 X250.866 Y243.783
G01 X250.759 Y243.337
G01 X250.589 Y242.886
G01 X250.354 Y242.440
G01 X250.055 Y242.005
G01 X249.693 Y241.590
G01 X249.271 Y241.204
G01 X248.791 Y240.852
G01 X248.276 Y240.553
G01 X248.257 Y240.543
G01 X247.715 Y240.299
G01 X247.675 Y240.282
G01 X247.110 Y240.094
G01 X247.050 Y240.077
G01 X246.466 Y239.946
G01 X246.388 Y239.931
G01 X245.790 Y239.858
G01 X245.697 Y239.850
G01 X245.089 Y239.836
G01 X244.983 Y239.837
G01 X244.371 Y239.882
G01 X244.254 Y239.895
G01 X243.644 Y239.999
G01 X243.519 Y240.025
G01 X242.917 Y240.189
G01 X242.785 Y240.229
G01 X242.197 Y240.451
G01 X242.062 Y240.507
G01 X241.493 Y240.785
G01 X241.357 Y240.857
G01 X240.813 Y241.189
G01 X240.679 Y241.277
G01 X240.165 Y241.661
G01 X240.036 Y241.764
G01 X239.556 Y242.197
G01 X239.434 Y242.315
G01 X238.994 Y242.793
G01 X238.882 Y242.924
G01 X238.486 Y243.443
G01 X238.384 Y243.586
G01 X238.037 Y244.141
G01 X237.948 Y244.294
G01 X237.652 Y244.880
G01 X237.577 Y245.042
G01 X237.336 Y245.654
G01 X237.276 Y245.823
G01 X237.093 Y246.454
G01 X237.048 Y246.627
G01 X236.924 Y247.272
G01 X236.896 Y247.448
G01 X236.832 Y248.100
G01 X236.820 Y248.276
G01 X236.817 Y248.930
G01 X236.821 Y249.103
G01 X236.878 Y249.753
G01 X236.898 Y249.921
G01 X237.015 Y250.560
G01 X237.050 Y250.722
G01 X237.225 Y251.343
G01 X237.273 Y251.496
G01 X237.504 Y252.095
G01 X237.564 Y252.237
G01 X237.849 Y252.808
G01 X237.919 Y252.937
G01 X238.254 Y253.474
G01 X238.332 Y253.590
G01 X238.714 Y254.089
G01 X238.797 Y254.190
G01 X239.223 Y254.645
G01 X239.308 Y254.731
G01 X239.772 Y255.139
G01 X239.857 Y255.209
G01 X240.356 Y255.567
G01 X240.436 Y255.620
G01 X240.965 Y255.924
G01 X241.038 Y255.963
G01 X241.592 Y256.211
G01 X241.654 Y256.236
G01 X242.229 Y256.423
G01 X242.276 Y256.437
G01 X242.868 Y256.563
G01 X242.895 Y256.568
G01 X243.500 Y256.629
G01 X243.504 Y256.629
G01 X244.093 Y256.624
G01 X244.656 Y256.556
G01 X245.185 Y256.428
G01 X245.674 Y256.247
G01 X246.116 Y256.017
G01 X246.507 Y255.745
G01 X246.842 Y255.439
G01 X247.117 Y255.105
G01 X247.331 Y254.753
G01 X247.480 Y254.389
G01 X247.566 Y254.022
G01 X247.588 Y253.661
G01 X247.551 Y253.348
G01 X247.548 Y253.313
G01 X247.474 Y253.084
G01 X247.448 Y252.987
G01 X247.350 Y252.810
G01 X247.291 Y252.690
G01 X247.171 Y252.546
G01 X247.082 Y252.429
G01 X246.934 Y252.307
G01 X246.827 Y252.211
G01 X246.636 Y252.106
G01 X246.530 Y252.041
G01 X246.271 Y251.954
G01 X246.198 Y251.925
G01 X245.838 Y251.867
G01 X245.459 Y251.871
G01 X245.068 Y251.938
G01 X244.673 Y252.071
G01 X244.283 Y252.269
G01 X243.906 Y252.533
G01 X243.551 Y252.861
G01 X243.225 Y253.249
G01 X242.936 Y253.695
G01 X242.692 Y254.194
G01 X242.499 Y254.741
G01 X242.363 Y255.330
G01 X242.289 Y255.954
G01 X242.282 Y256.588
G01 X242.283 Y256.605
G01 X242.342 Y257.235
G01 X242.347 Y257.275
G01 X242.470 Y257.897
G01 X242.484 Y257.957
G01 X242.669 Y258.566
G01 X242.695 Y258.642
G01 X242.942 Y259.233
G01 X242.982 Y259.320
G01 X243.288 Y259.888
G01 X243.344 Y259.984
G01 X243.706 Y260.524
G01 X243.778 Y260.624
G01 X244.195 Y261.131
G01 X244.283 Y261.232
G01 X244.750 Y261.701
G01 X244.855 Y261.800
G01 X245.369 Y262.226
G01 X245.490 Y262.320
G01 X246.046 Y262.699
G01 X246.182 Y262.786
G01 X246.776 Y263.114
G01 X246.925 Y263.190
G01 X247.551 Y263.463
G01 X247.712 Y263.527
G01 X248.364 Y263.742
G01 X248.535 Y263.793
G01 X249.208 Y263.947
G01 X249.387 Y263.982
G01 X250.075 Y264.074
G01 X250.259 Y264.093
G01 X250.955 Y264.122
G01 X251.143 Y264.123
G01 X251.839 Y264.088
G01 X252.028 Y264.072
G01 X252.719 Y263.972
G01 X252.907 Y263.939
G01 X253.586 Y263.776
G01 X253.770 Y263.726
G01 X254.431 Y263.501
G01 X254.608 Y263.435
G01 X255.245 Y263.150
G01 X255.413 Y263.069
G01 X256.020 Y262.728
G01 X256.178 Y262.632
G01 X256.748 Y262.238
G01 X256.893 Y262.130
G01 X257.422 Y261.686
G01 X257.554 Y261.568
G01 X258.037 Y261.079
G01 X258.153 Y260.954
G01 X258.585 Y260.425
G01 X258.686 Y260.294
G01 X259.064 Y259.730
G01 X259.147 Y259.596
G01 X259.468 Y259.003
G01 X259.535 Y258.870
G01 X259.795 Y258.253
G01 X259.845 Y258.122
G01 X260.043 Y257.489
G01 X260.078 Y257.364
G01 X260.212 Y256.719
G01 X260.232 Y256.603
G01 X260.302 Y255.953
G01 X260.309 Y255.848
G01 X260.313 Y255.199
G01 X260.311 Y255.108
G01 X260.249 Y254.465
G01 X260.239 Y254.392
G01 X260.112 Y253.762
G01 X260.099 Y253.708
G01 X259.906 Y253.095
G01 X259.895 Y253.063
G01 X259.636 Y252.472
G01 X259.633 Y252.464
G01 X259.318 Y251.918
G01 X258.959 Y251.429
G01 X258.562 Y251.002
G01 X258.137 Y250.641
G01 X257.690 Y250.348
G01 X257.232 Y250.125
G01 X256.771 Y249.971
G01 X256.316 Y249.887
G01 X255.875 Y249.870
G01 X255.456 Y249.917
G01 X255.069 Y250.026
G01 X254.719 Y250.190
G01 X254.428 Y250.397
G01 X254.414 Y250.406
G01 X254.230 Y250.599
G01 X254.161 Y250.665
G01 X254.041 Y250.851
G01 X253.963 Y250.962
G01 X253.888 Y251.149
G01 X253.826 Y251.288
G01 X253.788 Y251.486
G01 X253.752 Y251.636
G01 X253.752 Y251.860
G01 X253.745 Y251.996
G01 X253.794 Y252.268
G01 X253.806 Y252.361
G01 X253.932 Y252.716
G01 X253.934 Y252.721
G01 X254.130 Y253.068
G01 X254.390 Y253.393
G01 X254.713 Y253.687
G01 X255.094 Y253.943
G01 X255.528 Y254.153
G01 X256.010 Y254.310
G01 X256.533 Y254.408
G01 X257.090 Y254.443
G01 X257.672 Y254.408
G01 X258.272 Y254.302
G01 X258.881 Y254.122
G01 X259.489 Y253.866
G01 X260.078 Y253.540
G01 X260.088 Y253.534
G01 X260.638 Y253.150
G01 X260.668 Y253.127
G01 X261.176 Y252.688
G01 X261.221 Y252.647
G01 X261.684 Y252.157
G01 X261.737 Y252.097
G01 X262.152 Y251.560
G01 X262.209 Y251.481
G01 X262.572 Y250.901
G01 X262.628 Y250.803
G01 X262.935 Y250.187
G01 X262.988 Y250.071
G01 X263.236 Y249.423
G01 X263.282 Y249.291
G01 X263.468 Y248.616
G01 X263.503 Y248.470
G01 X263.626 Y247.774
G01 X263.649 Y247.616
G01 X263.706 Y246.906
G01 X263.714 Y246.738
G01 X263.704 Y246.020
G01 X263.696 Y245.845
G01 X263.618 Y245.126
G01 X263.593 Y244.946
G01 X263.449 Y244.234
G01 X263.405 Y244.051
G01 X263.194 Y243.351
G01 X263.133 Y243.169
G01 X262.857 Y242.489
G01 X262.778 Y242.310
G01 X262.439 Y241.656
G01 X262.343 Y241.483
G01 X261.944 Y240.861
G01 X261.831 Y240.696
G01 X261.376 Y240.113
G01 X261.248 Y239.958
G01 X260.741 Y239.419
G01 X260.599 Y239.277
G01 X260.045 Y238.786
G01 X259.891 Y238.659
G01 X259.295 Y238.222
G01 X259.132 Y238.110
G01 X258.500 Y237.731
G01 X258.329 Y237.636
G01 X257.666 Y237.318
G01 X257.491 Y237.240
G01 X256.804 Y236.986
G01 X256.626 Y236.927
G01 X255.923 Y236.739
G01 X255.746 Y236.698
G01 X255.031 Y236.577
G01 X254.858 Y236.554
G01 X254.140 Y236.501
G01 X253.972 Y236.494
G01 X253.258 Y236.510
G01 X253.098 Y236.519
G01 X252.394 Y236.602
G01 X252.246 Y236.625
G01 X251.558 Y236.775
G01 X251.423 Y236.809
G01 X250.759 Y237.023
G01 X250.639 Y237.066
G01 X250.004 Y237.342
G01 X249.902 Y237.391
G01 X249.301 Y237.728
G01 X249.217 Y237.778
G01 X248.657 Y238.171
G01 X248.592 Y238.220
G01 X248.078 Y238.667
G01 X248.033 Y238.709
G01 X247.569 Y239.207
G01 X247.543 Y239.236
G01 X247.133 Y239.783
G01 X247.126 Y239.794
G01 X246.784 Y240.371
G01 X246.519 Y240.961
G01 X246.330 Y241.552
G01 X246.217 Y242.136
G01 X246.178 Y242.704
G01 X246.209 Y243.247
G01 X246.306 Y243.756
G01 X246.463 Y244.224
G01 X246.676 Y244.643
G01 X246.936 Y245.009
G01 X247.237 Y245.314
G01 X247.569 Y245.555
G01 X247.926 Y245.729
G01 X248.212 Y245.806
G01 X248.296 Y245.833
G01 X248.536 Y245.850
G01 X248.672 Y245.866
G01 X248.885 Y245.840
G01 X249.043 Y245.828
G01 X249.245 Y245.763
G01 X249.402 Y245.721
G01 X249.605 Y245.610
G01 X249.738 Y245.545
G01 X249.955 Y245.369
G01 X250.043 Y245.305
G01 X250.290 Y245.025
G01 X250.308 Y245.005
G01 X250.527 Y244.651
G01 X250.691 Y244.248
G01 X250.796 Y243.803
G01 X250.835 Y243.325
G01 X250.805 Y242.822
G01 X250.701 Y242.302
G01 X250.522 Y241.775
G01 X250.267 Y241.250
G01 X249.936 Y240.737
G01 X249.529 Y240.246
G01 X249.050 Y239.784
G01 X248.502 Y239.362
G01 X247.894 Y238.991
G01 X247.889 Y238.989
G01 X247.249 Y238.684
G01 X247.217 Y238.671
G01 X246.549 Y238.434
G01 X246.492 Y238.416
G01 X245.802 Y238.247
G01 X245.722 Y238.231
G01 X245.014 Y238.131
G01 X244.915 Y238.121
G01 X244.195 Y238.091
G01 X244.079 Y238.090
G01 X243.354 Y238.132
G01 X243.224 Y238.143
G01 X242.500 Y238.255
G01 X242.358 Y238.282
G01 X241.642 Y238.464
G01 X241.493 Y238.508
G01 X240.792 Y238.759
G01 X240.637 Y238.821
G01 X239.957 Y239.140
G01 X239.801 Y239.220
G01 X239.149 Y239.604
G01 X238.994 Y239.702
G01 X238.377 Y240.149
G01 X238.226 Y240.265
G01 X237.650 Y240.770
G01 X237.506 Y240.905
G01 X236.976 Y241.464
G01 X236.842 Y241.615
G01 X236.363 Y242.223
G01 X236.242 Y242.389
G01 X235.820 Y243.041
G01 X235.712 Y243.220
G01 X235.351 Y243.910
G01 X235.260 Y244.100
G01 X234.963 Y244.822
G01 X234.889 Y245.020
G01 X234.660 Y245.766
G01 X234.605 Y245.971
G01 X234.445 Y246.735
G01 X234.409 Y246.943
G01 X234.321 Y247.718
G01 X234.304 Y247.926
G01 X234.288 Y248.704
G01 X234.290 Y248.911
G01 X234.345 Y249.685
G01 X234.366 Y249.886
G01 X234.493 Y250.649
G01 X234.532 Y250.843
G01 X234.728 Y251.587
G01 X234.783 Y251.771
G01 X235.046 Y252.489
G01 X235.116 Y252.662
G01 X235.444 Y253.348
G01 X235.526 Y253.506
G01 X235.914 Y254.153
G01 X236.006 Y254.295
G01 X236.451 Y254.898
G01 X236.550 Y255.023
G01 X237.047 Y255.576
G01 X237.150 Y255.683
G01 X237.695 Y256.181
G01 X237.798 Y256.269
G01 X238.384 Y256.708
G01 X238.483 Y256.777
G01 X239.106 Y257.153
G01 X239.198 Y257.205
G01 X239.852 Y257.514
G01 X239.932 Y257.548
G01 X240.611 Y257.788
G01 X240.676 Y257.808
G01 X241.374 Y257.975
G01 X241.418 Y257.983
G01 X242.132 Y258.075
G01 X242.150 Y258.077
G01 X242.862 Y258.090
G01 X243.545 Y258.026
G01 X244.190 Y257.892
G01 X244.789 Y257.691
G01 X245.335 Y257.432
G01 X245.821 Y257.121
G01 X246.242 Y256.767
G01 X246.594 Y256.378
G01 X246.873 Y255.964
G01 X247.078 Y255.534
G01 X247.206 Y255.098
G01 X247.260 Y254.666
G01 X247.239 Y254.247
G01 X247.162 Y253.929
G01 X247.146 Y253.851
G01 X247.037 Y253.613
G01 X246.986 Y253.487
G01 X246.852 Y253.300
G01 X246.763 Y253.163
G01 X246.601 Y253.010
G01 X246.483 Y252.888
G01 X246.281 Y252.760
G01 X246.152 Y252.668
G01 X245.889 Y252.561
G01 X245.778 Y252.510
G01 X245.414 Y252.431
G01 X245.370 Y252.419
G01 X244.935 Y252.399
G01 X244.484 Y252.453
G01 X244.027 Y252.584
G01 X243.572 Y252.792
G01 X243.130 Y253.077
G01 X242.711 Y253.438
G01 X242.324 Y253.870
G01 X241.979 Y254.372
G01 X241.683 Y254.937
G01 X241.446 Y255.559
G01 X241.275 Y256.233
G01 X241.175 Y256.949
G01 X241.152 Y257.699
G01 X241.208 Y258.443
G01 X241.212 Y258.474
G01 X241.343 Y259.208
G01 X241.356 Y259.265
G01 X241.562 Y259.984
G01 X241.587 Y260.061
G01 X241.865 Y260.759
G01 X241.906 Y260.852
G01 X242.255 Y261.524
G01 X242.313 Y261.628
G01 X242.729 Y262.268
G01 X242.806 Y262.379
G01 X243.286 Y262.980
G01 X243.383 Y263.094
G01 X243.922 Y263.652
G01 X244.038 Y263.764
G01 X244.634 Y264.272
G01 X244.769 Y264.380
G01 X245.415 Y264.833
G01 X245.568 Y264.934
G01 X246.258 Y265.327
G01 X246.428 Y265.417
G01 X247.157 Y265.747
G01 X247.341 Y265.823
G01 X248.103 Y266.085
G01 X248.299 Y266.145
G01 X249.087 Y266.337
G01 X249.293 Y266.380
G01 X250.098 Y266.499
G01 X250.312 Y266.523
G01 X251.128 Y266.567
G01 X251.346 Y266.572
G01 X252.165 Y266.541
G01 X252.385 Y266.525
G01 X253.199 Y266.419
G01 X253.418 Y266.383
G01 X254.219 Y266.201
G01 X254.434 Y266.146
G01 X255.215 Y265.891
G01 X255.424 Y265.816
G01 X256.178 Y265.492
G01 X256.377 Y265.398
G01 X257.096 Y265.006
G01 X257.283 Y264.897
G01 X257.961 Y264.441
G01 X258.135 Y264.316
G01 X258.765 Y263.802
G01 X258.922 Y263.665
G01 X259.500 Y263.097
G01 X259.640 Y262.950
G01 X260.158 Y262.334
G01 X260.280 Y262.180
G01 X260.735 Y261.522
G01 X260.838 Y261.363
G01 X261.226 Y260.670
G01 X261.309 Y260.511
G01 X261.627 Y259.789
G01 X261.690 Y259.632
G01 X261.936 Y258.889
G01 X261.981 Y258.738
G01 X262.152 Y257.980
G01 X262.179 Y257.838
G01 X262.274 Y257.073
G01 X262.286 Y256.944
G01 X262.305 Y256.178
G01 X262.304 Y256.065
G01 X262.246 Y255.307
G01 X262.235 Y255.212
G01 X262.100 Y254.467
G01 X262.085 Y254.395
G01 X261.874 Y253.669
G01 X261.858 Y253.621
G01 X261.570 Y252.921
G01 X261.561 Y252.900
G01 X261.201 Y252.239
G01 X260.787 Y251.644
G01 X260.327 Y251.121
G01 X259.830 Y250.674
G01 X259.307 Y250.307
G01 X258.768 Y250.020
G01 X258.223 Y249.816
G01 X257.682 Y249.693
G01 X257.155 Y249.649
G01 X256.653 Y249.682
G01 X256.184 Y249.787
G01 X255.758 Y249.960
G01 X255.382 Y250.193
G01 X255.117 Y250.436
G01 X255.064 Y250.480
G01 X254.895 Y250.708
G01 X254.810 Y250.812
G01 X254.705 Y251.034
G01 X254.626 Y251.182
G01 X254.567 Y251.409
G01 X254.515 Y251.578
G01 X254.500 Y251.825
G01 X254.482 Y251.992
G01 X254.516 Y252.279
G01 X254.526 Y252.413
G01 X254.634 Y252.771
G01 X254.650 Y252.832
G01 X254.852 Y253.237
G01 X255.130 Y253.619
G01 X255.482 Y253.968
G01 X255.903 Y254.274
G01 X256.387 Y254.529
G01 X256.928 Y254.724
G01 X257.518 Y254.853
G01 X258.149 Y254.908
G01 X258.813 Y254.885
G01 X259.499 Y254.778
G01 X260.197 Y254.587
G01 X260.897 Y254.307
G01 X261.588 Y253.940
G01 X262.238 Y253.501
G01 X262.260 Y253.485
G01 X262.860 Y252.982
G01 X262.902 Y252.945
G01 X263.449 Y252.382
G01 X263.503 Y252.322
G01 X263.994 Y251.705
G01 X264.055 Y251.623
G01 X264.485 Y250.955
G01 X264.547 Y250.851
G01 X264.913 Y250.139
G01 X264.972 Y250.014
G01 X265.269 Y249.264
G01 X265.321 Y249.119
G01 X265.547 Y248.338
G01 X265.588 Y248.176
G01 X265.740 Y247.369
G01 X265.767 Y247.192
G01 X265.843 Y246.369
G01 X265.854 Y246.179
G01 X265.852 Y245.346
G01 X265.845 Y245.147
G01 X265.764 Y244.311
G01 X265.738 Y244.106
G01 X265.579 Y243.276
G01 X265.532 Y243.067
G01 X265.296 Y242.252
G01 X265.228 Y242.042
G01 X264.915 Y241.248
G01 X264.827 Y241.042
G01 X264.441 Y240.277
G01 X264.332 Y240.076
G01 X263.876 Y239.348
G01 X263.747 Y239.156
G01 X263.225 Y238.472
G01 X263.079 Y238.291
G01 X262.496 Y237.657
G01 X262.333 Y237.490
G01 X261.694 Y236.912
G01 X261.517 Y236.762
G01 X260.828 Y236.245
G01 X260.639 Y236.113
G01 X259.907 Y235.663
G01 X259.709 Y235.550
G01 X258.941 Y235.170
G01 X258.737 Y235.077
G01 X257.939 Y234.772
G01 X257.732 Y234.700
G01 X256.913 Y234.471
G01 X256.706 Y234.420
G01 X255.874 Y234.269
G01 X255.670 Y234.239
G01 X254.833 Y234.167
G01 X254.635 Y234.157
G01 X253.800 Y234.164
G01 X253.611 Y234.172
G01 X252.787 Y234.259
G01 X252.611 Y234.283
G01 X251.805 Y234.447
G01 X251.643 Y234.485
G01 X250.863 Y234.725
G01 X250.718 Y234.774
G01 X249.971 Y235.086
G01 X249.846 Y235.144
G01 X249.138 Y235.525
G01 X249.034 Y235.586
G01 X248.373 Y236.034
G01 X248.291 Y236.094
G01 X247.681 Y236.605
G01 X247.622 Y236.658
G01 X247.070 Y237.228
G01 X247.033 Y237.269
G01 X246.544 Y237.895
G01 X246.528 Y237.917
G01 X246.110 Y238.591
G01 X245.782 Y239.281
G01 X245.542 Y239.975
G01 X245.391 Y240.662
G01 X245.325 Y241.333
G01 X245.343 Y241.977
G01 X245.438 Y242.583
G01 X245.605 Y243.144
G01 X245.837 Y243.651
G01 X246.126 Y244.095
G01 X246.464 Y244.472
G01 X246.842 Y244.775
G01 X247.248 Y245.001
G01 X247.621 Y245.126
G01 X247.674 Y245.147
G01 X247.977 Y245.187
G01 X248.108 Y245.210
G01 X248.369 Y245.194
G01 X248.539 Y245.192
G01 X248.778 Y245.130
G01 X248.958 Y245.092
G01 X249.190 Y244.982
G01 X249.353 Y244.913
G01 X249.592 Y244.739
G01 X249.714 Y244.659
G01 X249.975 Y244.388
G01 X250.031 Y244.334
G01 X250.296 Y243.945
G01 X250.501 Y243.499
G01 X250.638 Y243.003
G01 X250.700 Y242.466
G01 X250.683 Y241.899
G01 X250.582 Y241.310
G01 X250.395 Y240.711
G01 X250.120 Y240.112
G01 X249.758 Y239.525
G01 X249.309 Y238.960
G01 X248.775 Y238.429
G01 X248.161 Y237.941
G01 X247.472 Y237.506
G01 X246.735 Y237.144
G01 X246.714 Y237.134
G01 X245.944 Y236.851
G01 X245.893 Y236.834
G01 X245.098 Y236.630
G01 X245.019 Y236.613
G01 X244.203 Y236.489
G01 X244.100 Y236.477
G01 X243.271 Y236.434
G01 X243.147 Y236.432
G01 X242.311 Y236.471
G01 X242.170 Y236.482
G01 X241.335 Y236.603
G01 X241.179 Y236.631
G01 X240.353 Y236.833
G01 X240.187 Y236.879
G01 X239.377 Y237.162
G01 X239.204 Y237.228
G01 X238.417 Y237.589
G01 X238.241 Y237.677
G01 X237.487 Y238.113
G01 X237.311 Y238.222
G01 X236.596 Y238.730
G01 X236.424 Y238.860
G01 X235.755 Y239.437
G01 X235.591 Y239.587
G01 X234.975 Y240.227
G01 X234.821 Y240.397
G01 X234.263 Y241.094
G01 X234.123 Y241.281
G01 X233.630 Y242.030
G01 X233.506 Y242.232
G01 X233.083 Y243.026
G01 X232.976 Y243.241
G01 X232.627 Y244.072
G01 X232.540 Y244.298
G01 X232.269 Y245.158
G01 X232.203 Y245.392
G01 X232.011 Y246.273
G01 X231.967 Y246.512
G01 X231.858 Y247.407
G01 X231.836 Y247.646
G01 X231.809 Y248.546
G01 X231.810 Y248.784
G01 X231.866 Y249.680
G01 X231.888 Y249.913
G01 X232.027 Y250.797
G01 X232.069 Y251.022
G01 X232.288 Y251.885
G01 X232.350 Y252.100
G01 X232.647 Y252.934
G01 X232.726 Y253.136
G01 X233.098 Y253.934
G01 X233.192 Y254.119
G01 X233.634 Y254.874
G01 X233.740 Y255.041
G01 X234.248 Y255.745
G01 X234.362 Y255.893
G01 X234.931 Y256.540
G01 X235.051 Y256.668
G01 X235.675 Y257.252
G01 X235.796 Y257.358
G01 X236.469 Y257.875
G01 X236.587 Y257.959
G01 X237.302 Y258.404
G01 X237.413 Y258.467
G01 X238.165 Y258.835
G01 X238.264 Y258.880
G01 X239.044 Y259.168
G01 X239.126 Y259.195
G01 X239.931 Y259.400
G01 X239.990 Y259.413
G01 X240.812 Y259.532
G01 X240.844 Y259.535
G01 X241.676 Y259.565
G01 X242.476 Y259.506
G01 X243.234 Y259.364
G01 X243.941 Y259.144
G01 X244.588 Y258.855
G01 X245.167 Y258.505
G01 X245.673 Y258.104
G01 X246.099 Y257.661
G01 X246.443 Y257.186
G01 X246.701 Y256.692
G01 X246.872 Y256.189
G01 X246.955 Y255.687
G01 X246.954 Y255.200
G01 X246.875 Y254.779
G01 X246.869 Y254.736
G01 X246.748 Y254.430
G01 X246.706 Y254.307
G01 X246.556 Y254.073
G01 X246.469 Y253.923
G01 X246.291 Y253.735
G01 X246.166 Y253.593
G01 X245.949 Y253.438
G01 X245.803 Y253.324
G01 X245.528 Y253.198
G01 X245.389 Y253.126
G01 X245.021 Y253.030
G01 X244.934 Y253.003
G01 X244.447 Y252.961
G01 X243.939 Y253.003
G01 X243.422 Y253.133
G01 X242.906 Y253.351
G01 X242.403 Y253.657
G01 X241.924 Y254.049
G01 X241.480 Y254.525
G01 X241.082 Y255.081
G01 X240.740 Y255.710
G01 X240.462 Y256.405
G01 X240.259 Y257.160
G01 X240.136 Y257.966
G01 X240.101 Y258.811
G01 X240.156 Y259.668
G01 X240.158 Y259.687
G01 X240.302 Y260.532
G01 X240.312 Y260.582
G01 X240.541 Y261.409
G01 X240.565 Y261.485
G01 X240.878 Y262.288
G01 X240.919 Y262.384
G01 X241.312 Y263.157
G01 X241.373 Y263.267
G01 X241.843 Y264.003
G01 X241.925 Y264.123
G01 X242.469 Y264.815
G01 X242.574 Y264.940
G01 X243.186 Y265.582
G01 X243.313 Y265.706
G01 X243.990 Y266.292
G01 X244.139 Y266.413
G01 X244.874 Y266.936
G01 X245.044 Y267.048
G01 X245.831 Y267.504
G01 X246.019 Y267.605
G01 X246.852 Y267.987
G01 X247.057 Y268.074
G01 X247.927 Y268.379
G01 X248.147 Y268.449
G01 X249.047 Y268.673
G01 X249.279 Y268.723
G01 X250.200 Y268.864
G01 X250.442 Y268.894
G01 X251.376 Y268.949
G01 X251.623 Y268.956
G01 X252.561 Y268.926
G01 X252.811 Y268.910
G01 X253.744 Y268.793
G01 X253.993 Y268.754
G01 X254.913 Y268.552
G01 X255.158 Y268.490
G01 X256.056 Y268.204
G01 X256.294 Y268.119
G01 X257.161 Y267.752
G01 X257.389 Y267.647
G01 X258.217 Y267.203
G01 X258.432 Y267.078
G01 X259.213 Y266.560
G01 X259.413 Y266.419
G01 X260.141 Y265.833
G01 X260.323 Y265.677
G01 X260.990 Y265.029
G01 X261.152 Y264.861
G01 X261.753 Y264.158
G01 X261.894 Y263.981
G01 X262.423 Y263.229
G01 X262.543 Y263.047
G01 X262.996 Y262.253
G01 X263.093 Y262.070
G01 X263.465 Y261.243
G01 X263.540 Y261.061
G01 X263.830 Y260.209
G01 X263.883 Y260.033
G01 X264.088 Y259.163
G01 X264.121 Y258.998
G01 X264.239 Y258.119
G01 X264.254 Y257.967
G01 X264.285 Y257.087
G01 X264.285 Y256.952
G01 X264.227 Y256.080
G01 X264.216 Y255.966
G01 X264.071 Y255.109
G01 X264.053 Y255.019
G01 X263.821 Y254.183
G01 X263.801 Y254.120
G01 X263.482 Y253.314
G01 X263.468 Y253.281
G01 X263.062 Y252.511
G01 X263.062 Y252.509
G01 X262.592 Y251.812
G01 X262.068 Y251.197
G01 X261.501 Y250.668
G01 X260.902 Y250.229
G01 X260.283 Y249.883
G01 X259.655 Y249.631
G01 X259.030 Y249.471
G01 X258.420 Y249.403
G01 X257.836 Y249.424
G01 X257.289 Y249.527
G01 X256.789 Y249.708
G01 X256.345 Y249.960
G01 X255.989 Y250.257
G01 X255.966 Y250.274
G01 X255.743 Y250.548
G01 X255.659 Y250.642
G01 X255.519 Y250.902
G01 X255.430 Y251.053
G01 X255.350 Y251.313
G01 X255.285 Y251.497
G01 X255.255 Y251.771
G01 X255.226 Y251.962
G01 X255.251 Y252.271
G01 X255.257 Y252.438
G01 X255.356 Y252.811
G01 X255.378 Y252.912
G01 X255.588 Y253.373
G01 X255.885 Y253.808
G01 X256.266 Y254.208
G01 X256.726 Y254.561
G01 X257.259 Y254.857
G01 X257.858 Y255.086
G01 X258.514 Y255.240
G01 X259.219 Y255.313
G01 X259.960 Y255.296
G01 X260.729 Y255.187
G01 X261.513 Y254.980
G01 X262.300 Y254.674
G01 X263.079 Y254.269
G01 X263.825 Y253.772
G01 X263.837 Y253.764
G01 X264.526 Y253.195
G01 X264.563 Y253.162
G01 X265.190 Y252.525
G01 X265.244 Y252.466
G01 X265.806 Y251.767
G01 X265.870 Y251.682
G01 X266.362 Y250.926
G01 X266.429 Y250.816
G01 X266.848 Y250.009
G01 X266.912 Y249.874
G01 X267.254 Y249.024
G01 X267.311 Y248.867
G01 X267.572 Y247.980
G01 X267.618 Y247.802
G01 X267.794 Y246.887
G01 X267.825 Y246.692
G01 X267.914 Y245.757
G01 X267.927 Y245.547
G01 X267.928 Y244.600
G01 X267.921 Y244.379
G01 X267.833 Y243.429
G01 X267.804 Y243.200
G01 X267.627 Y242.256
G01 X267.575 Y242.022
G01 X267.310 Y241.094
G01 X267.234 Y240.859
G01 X266.882 Y239.955
G01 X266.783 Y239.723
G01 X266.347 Y238.851
G01 X266.225 Y238.625
G01 X265.709 Y237.795
G01 X265.565 Y237.578
G01 X264.974 Y236.797
G01 X264.809 Y236.593
G01 X264.148 Y235.868
G01 X263.964 Y235.680
G01 X263.239 Y235.019
G01 X263.039 Y234.848
G01 X262.256 Y234.257
G01 X262.043 Y234.106
G01 X261.210 Y233.590
G01 X260.986 Y233.460
G01 X260.112 Y233.025
G01 X259.880 Y232.918
G01 X258.972 Y232.566
G01 X258.737 Y232.483
G01 X257.804 Y232.218
G01 X257.568 Y232.159
G01 X256.620 Y231.983
G01 X256.386 Y231.947
G01 X255.431 Y231.861
G01 X255.205 Y231.848
G01 X254.252 Y231.852
G01 X254.035 Y231.860
G01 X253.094 Y231.954
G01 X252.891 Y231.981
G01 X251.970 Y232.163
G01 X251.783 Y232.206
G01 X250.891 Y232.474
G01 X250.723 Y232.530
G01 X249.868 Y232.881
G01 X249.721 Y232.947
G01 X248.911 Y233.377
G01 X248.788 Y233.448
G01 X248.029 Y233.953
G01 X247.931 Y234.024
G01 X247.232 Y234.600
G01 X247.159 Y234.665
G01 X246.524 Y235.308
G01 X246.477 Y235.360
G01 X245.914 Y236.066
G01 X245.890 Y236.098
G01 X245.404 Y236.864
G01 X245.402 Y236.868
G01 X245.015 Y237.656
G01 X244.729 Y238.451
G01 X244.544 Y239.240
G01 X244.457 Y240.011
G01 X244.465 Y240.753
G01 X244.561 Y241.454
G01 X244.740 Y242.103
G01 X244.994 Y242.693
G01 X245.314 Y243.213
G01 X245.690 Y243.656
G01 X246.112 Y244.017
G01 X246.569 Y244.291
G01 X247.035 Y244.468
G01 X247.048 Y244.474
G01 X247.419 Y244.538
G01 X247.539 Y244.564
G01 X247.851 Y244.557
G01 X248.028 Y244.561
G01 X248.307 Y244.501
G01 X248.504 Y244.466
G01 X248.767 Y244.353
G01 X248.954 Y244.282
G01 X249.218 Y244.103
G01 X249.368 Y244.011
G01 X249.648 Y243.737
G01 X249.734 Y243.661
G01 X250.041 Y243.236
G01 X250.281 Y242.746
G01 X250.445 Y242.199
G01 X250.526 Y241.605
G01 X250.518 Y240.974
G01 X250.415 Y240.319
G01 X250.216 Y239.650
G01 X249.918 Y238.981
G01 X249.521 Y238.324
G01 X249.026 Y237.691
G01 X248.435 Y237.095
G01 X247.753 Y236.546
G01 X246.986 Y236.057
G01 X246.150 Y235.642
G01 X246.140 Y235.638
G01 X245.269 Y235.314
G01 X245.224 Y235.299
G01 X244.324 Y235.065
G01 X244.247 Y235.048
G01 X243.324 Y234.905
G01 X243.218 Y234.893
G01 X242.281 Y234.842
G01 X242.150 Y234.840
G01 X241.205 Y234.882
G01 X241.053 Y234.894
G01 X240.110 Y235.029
G01 X239.941 Y235.059
G01 X239.007 Y235.286
G01 X238.826 Y235.336
G01 X237.910 Y235.654
G01 X237.720 Y235.727
G01 X236.832 Y236.133
G01 X236.638 Y236.230
G01 X235.785 Y236.721
G01 X235.591 Y236.842
G01 X234.782 Y237.416
G01 X234.592 Y237.560
G01 X233.835 Y238.211
G01 X233.652 Y238.378
G01 X232.955 Y239.101
G01 X232.784 Y239.290
G01 X232.153 Y240.077
G01 X231.996 Y240.286
G01 X231.439 Y241.133
G01 X231.299 Y241.359
G01 X230.820 Y242.256
G01 X230.701 Y242.498
G01 X230.305 Y243.437
G01 X230.208 Y243.691
G01 X229.900 Y244.664
G01 X229.825 Y244.926
G01 X229.608 Y245.924
G01 X229.558 Y246.192
G01 X229.433 Y247.205
G01 X229.408 Y247.475
G01 X229.377 Y248.493
G01 X229.378 Y248.762
G01 X229.440 Y249.777
G01 X229.465 Y250.040
G01 X229.621 Y251.041
G01 X229.669 Y251.297
G01 X229.916 Y252.275
G01 X229.985 Y252.518
G01 X230.320 Y253.464
G01 X230.410 Y253.693
G01 X230.829 Y254.598
G01 X230.936 Y254.809
G01 X231.435 Y255.665
G01 X231.555 Y255.856
G01 X232.130 Y256.656
G01 X232.260 Y256.825
G01 X232.903 Y257.560
G01 X233.040 Y257.707
G01 X233.746 Y258.371
G01 X233.884 Y258.494
G01 X234.645 Y259.082
G01 X234.781 Y259.180
G01 X235.590 Y259.687
G01 X235.719 Y259.761
G01 X236.569 Y260.182
G01 X236.684 Y260.235
G01 X237.568 Y260.565
G01 X237.665 Y260.598
G01 X238.574 Y260.835
G01 X238.647 Y260.852
G01 X239.576 Y260.992
G01 X239.619 Y260.997
G01 X240.561 Y261.038
G01 X240.568 Y261.038
G01 X241.481 Y260.977
G01 X242.348 Y260.822
G01 X243.157 Y260.579
G01 X243.899 Y260.258
G01 X244.566 Y259.866
G01 X245.150 Y259.416
G01 X245.645 Y258.917
G01 X246.047 Y258.382
G01 X246.352 Y257.824
G01 X246.560 Y257.254
G01 X246.669 Y256.686
G01 X246.681 Y256.132
G01 X246.601 Y255.606
G01 X246.600 Y255.604
G01 X246.466 Y255.229
G01 X246.430 Y255.115
G01 X246.262 Y254.832
G01 X246.177 Y254.674
G01 X245.978 Y254.453
G01 X245.848 Y254.294
G01 X245.611 Y254.114
G01 X245.451 Y253.983
G01 X245.157 Y253.837
G01 X244.996 Y253.749
G01 X244.611 Y253.639
G01 X244.494 Y253.600
G01 X243.955 Y253.541
G01 X243.392 Y253.577
G01 X242.817 Y253.711
G01 X242.243 Y253.944
G01 X241.682 Y254.276
G01 X241.148 Y254.705
G01 X240.652 Y255.228
G01 X240.207 Y255.840
G01 X239.824 Y256.536
G01 X239.513 Y257.306
G01 X239.284 Y258.144
G01 X239.145 Y259.039
G01 X239.105 Y259.979
G01 X239.167 Y260.947
G01 X239.168 Y260.954
G01 X239.329 Y261.906
G01 X239.339 Y261.951
G01 X239.597 Y262.882
G01 X239.621 Y262.957
G01 X239.973 Y263.860
G01 X240.015 Y263.960
G01 X240.458 Y264.828
G01 X240.523 Y264.945
G01 X241.052 Y265.771
G01 X241.141 Y265.900
G01 X241.753 Y266.677
G01 X241.866 Y266.811
G01 X242.556 Y267.532
G01 X242.694 Y267.667
G01 X243.456 Y268.324
G01 X243.619 Y268.455
G01 X244.446 Y269.042
G01 X244.633 Y269.165
G01 X245.518 Y269.675
G01 X245.726 Y269.786
G01 X246.662 Y270.214
G01 X246.890 Y270.309
G01 X247.868 Y270.650
G01 X248.113 Y270.726
G01 X249.124 Y270.976
G01 X249.382 Y271.032
G01 X250.418 Y271.188
G01 X250.686 Y271.220
G01 X251.736 Y271.280
G01 X252.012 Y271.287
G01 X253.067 Y271.251
G01 X253.345 Y271.232
G01 X254.395 Y271.099
G01 X254.673 Y271.054
G01 X255.707 Y270.825
G01 X255.981 Y270.755
G01 X256.990 Y270.431
G01 X257.257 Y270.336
G01 X258.232 Y269.921
G01 X258.487 Y269.802
G01 X259.418 Y269.300
G01 X259.659 Y269.160
G01 X260.538 Y268.576
G01 X260.762 Y268.416
G01 X261.580 Y267.755
G01 X261.784 Y267.579
G01 X262.535 Y266.848
G01 X262.717 Y266.659
G01 X263.393 Y265.865
G01 X263.552 Y265.666
G01 X264.147 Y264.818
G01 X264.281 Y264.613
G01 X264.791 Y263.718
G01 X264.900 Y263.510
G01 X265.320 Y262.578
G01 X265.404 Y262.372
G01 X265.730 Y261.411
G01 X265.791 Y261.212
G01 X266.021 Y260.232
G01 X266.059 Y260.043
G01 X266.192 Y259.053
G01 X266.209 Y258.879
G01 X266.244 Y257.888
G01 X266.244 Y257.733
G01 X266.181 Y256.750
G01 X266.168 Y256.618
G01 X266.006 Y255.652
G01 X265.984 Y255.547
G01 X265.725 Y254.606
G01 X265.701 Y254.531
G01 X265.345 Y253.623
G01 X265.327 Y253.580
G01 X264.874 Y252.712
G01 X264.870 Y252.705
G01 X264.341 Y251.914
G01 X263.750 Y251.214
G01 X263.111 Y250.611
G01 X262.436 Y250.109
G01 X261.737 Y249.712
G01 X261.028 Y249.419
G01 X260.322 Y249.231
G01 X259.631 Y249.145
G01 X258.970 Y249.159
G01 X258.349 Y249.267
G01 X257.780 Y249.462
G01 X257.274 Y249.736
G01 X256.840 Y250.081
G01 X256.567 Y250.400
G01 X256.487 Y250.486
G01 X256.317 Y250.786
G01 X256.221 Y250.940
G01 X256.122 Y251.235
G01 X256.048 Y251.432
G01 X256.008 Y251.738
G01 X255.972 Y251.948
G01 X255.992 Y252.286
G01 X255.995 Y252.476
G01 X256.094 Y252.875
G01 X256.120 Y253.003
G01 X256.341 Y253.508
G01 X256.344 Y253.516
G01 X256.666 Y254.002
G01 X257.082 Y254.447
G01 X257.586 Y254.841
G01 X258.172 Y255.171
G01 X258.832 Y255.427
G01 X259.555 Y255.600
G01 X260.333 Y255.681
G01 X261.153 Y255.664
G01 X262.003 Y255.543
G01 X262.871 Y255.314
G01 X263.743 Y254.974
G01 X264.605 Y254.522
G01 X265.441 Y253.962
G01 X265.444 Y253.960
G01 X266.214 Y253.319
G01 X266.247 Y253.290
G01 X266.948 Y252.573
G01 X267.001 Y252.515
G01 X267.628 Y251.729
G01 X267.693 Y251.641
G01 X268.241 Y250.792
G01 X268.311 Y250.675
G01 X268.776 Y249.771
G01 X268.844 Y249.626
G01 X269.222 Y248.673
G01 X269.283 Y248.503
G01 X269.569 Y247.510
G01 X269.618 Y247.317
G01 X269.810 Y246.293
G01 X269.843 Y246.079
G01 X269.938 Y245.033
G01 X269.951 Y244.803
G01 X269.947 Y243.744
G01 X269.938 Y243.501
G01 X269.834 Y242.439
G01 X269.801 Y242.187
G01 X269.598 Y241.133
G01 X269.539 Y240.875
G01 X269.237 Y239.838
G01 X269.152 Y239.579
G01 X268.753 Y238.569
G01 X268.642 Y238.313
G01 X268.149 Y237.340
G01 X268.013 Y237.091
G01 X267.431 Y236.164
G01 X267.270 Y235.925
G01 X266.603 Y235.054
G01 X266.419 Y234.828
G01 X265.675 Y234.021
G01 X265.470 Y233.812
G01 X264.654 Y233.076
G01 X264.430 Y232.887
G01 X263.551 Y232.229
G01 X263.312 Y232.062
G01 X262.377 Y231.489
G01 X262.126 Y231.346
G01 X261.145 Y230.863
G01 X260.886 Y230.745
G01 X259.867 Y230.356
G01 X259.603 Y230.264
G01 X258.557 Y229.972
G01 X258.293 Y229.907
G01 X257.229 Y229.714
G01 X256.968 Y229.676
G01 X255.897 Y229.584
G01 X255.643 Y229.570
G01 X254.576 Y229.579
G01 X254.333 Y229.589
G01 X253.278 Y229.698
G01 X253.050 Y229.729
G01 X252.018 Y229.937
G01 X251.808 Y229.987
G01 X250.809 Y230.290
G01 X250.620 Y230.355
G01 X249.663 Y230.751
G01 X249.498 Y230.825
G01 X248.590 Y231.310
G01 X248.451 Y231.391
G01 X247.603 Y231.959
G01 X247.491 Y232.040
G01 X246.708 Y232.687
G01 X246.625 Y232.761
G01 X245.915 Y233.483
G01 X245.860 Y233.544
G01 X245.230 Y234.336
G01 X245.201 Y234.375
G01 X244.658 Y235.232
G01 X244.653 Y235.240
G01 X244.218 Y236.127
G01 X243.897 Y237.021
G01 X243.687 Y237.908
G01 X243.587 Y238.776
G01 X243.593 Y239.610
G01 X243.698 Y240.399
G01 X243.896 Y241.131
G01 X244.177 Y241.796
G01 X244.532 Y242.383
G01 X244.950 Y242.886
G01 X245.419 Y243.296
G01 X245.927 Y243.609
G01 X246.461 Y243.820
G01 X246.895 Y243.902
G01 X247.007 Y243.929
G01 X247.368 Y243.926
G01 X247.551 Y243.933
G01 X247.869 Y243.869
G01 X248.081 Y243.835
G01 X248.377 Y243.713
G01 X248.583 Y243.637
G01 X248.874 Y243.445
G01 X249.043 Y243.344
G01 X249.347 Y243.052
G01 X249.451 Y242.961
G01 X249.784 Y242.508
G01 X249.793 Y242.496
G01 X250.061 Y241.958
G01 X250.244 Y241.357
G01 X250.335 Y240.703
G01 X250.327 Y240.009
G01 X250.214 Y239.287
G01 X249.993 Y238.551
G01 X249.663 Y237.815
G01 X249.222 Y237.092
G01 X248.673 Y236.396
G01 X248.018 Y235.740
G01 X247.262 Y235.139
G01 X246.411 Y234.603
G01 X245.473 Y234.146
G01 X244.498 Y233.790
G01 X244.456 Y233.777
G01 X243.450 Y233.523
G01 X243.373 Y233.507
G01 X242.343 Y233.356
G01 X242.233 Y233.343
G01 X241.187 Y233.295
G01 X241.049 Y233.293
G01 X239.997 Y233.348
G01 X239.834 Y233.363
G01 X238.784 Y233.521
G01 X238.602 Y233.555
G01 X237.565 Y233.816
G01 X237.368 Y233.872
G01 X236.352 Y234.234
G01 X236.145 Y234.315
G01 X235.160 Y234.775
G01 X234.948 Y234.883
G01 X234.003 Y235.438
G01 X233.791 Y235.572
G01 X232.896 Y236.218
G01 X232.688 Y236.378
G01 X231.852 Y237.110
G01 X231.652 Y237.296
G01 X230.882 Y238.106
G01 X230.695 Y238.316
G01 X230.000 Y239.199
G01 X229.829 Y239.431
G01 X229.216 Y240.378
G01 X229.064 Y240.630
G01 X228.539 Y241.633
G01 X228.409 Y241.901
G01 X227.977 Y242.951
G01 X227.871 Y243.233
G01 X227.536 Y244.319
G01 X227.457 Y244.611
G01 X227.223 Y245.724
G01 X227.170 Y246.022
G01 X227.040 Y247.151
G01 X227.015 Y247.451
G01 X226.990 Y248.586
G01 X226.992 Y248.884
G01 X227.071 Y250.015
G01 X227.101 Y250.307
G01 X227.283 Y251.422
G01 X227.338 Y251.704
G01 X227.622 Y252.793
G01 X227.701 Y253.063
G01 X228.083 Y254.115
G01 X228.184 Y254.368
G01 X228.660 Y255.374
G01 X228.779 Y255.608
G01 X229.344 Y256.559
G01 X229.479 Y256.771
G01 X230.126 Y257.658
G01 X230.272 Y257.845
G01 X230.996 Y258.660
G01 X231.149 Y258.822
G01 X231.941 Y259.558
G01 X232.097 Y259.694
G01 X232.950 Y260.345
G01 X233.102 Y260.453
G01 X234.008 Y261.013
G01 X234.153 Y261.095
G01 X235.103 Y261.559
G01 X235.233 Y261.617
G01 X236.221 Y261.981
G01 X236.330 Y262.017
G01 X237.346 Y262.276
G01 X237.429 Y262.294
G01 X238.465 Y262.446
G01 X238.515 Y262.451
G01 X239.565 Y262.492
G01 X239.575 Y262.492
G01 X240.595 Y262.420
G01 X241.563 Y262.243
G01 X242.466 Y261.969
G01 X243.295 Y261.608
G01 X244.039 Y261.169
G01 X244.691 Y260.665
G01 X245.245 Y260.108
G01 X245.694 Y259.512
G01 X246.036 Y258.889
G01 X246.269 Y258.254
G01 X246.393 Y257.621
G01 X246.410 Y257.005
G01 X246.323 Y256.418
G01 X246.171 Y255.983
G01 X246.138 Y255.873
G01 X245.948 Y255.549
G01 X245.860 Y255.384
G01 X245.637 Y255.132
G01 X245.499 Y254.961
G01 X245.236 Y254.760
G01 X245.063 Y254.616
G01 X244.740 Y254.454
G01 X244.563 Y254.356
G01 X244.146 Y254.236
G01 X244.010 Y254.191
G01 X243.436 Y254.128
G01 X243.418 Y254.125
G01 X242.800 Y254.166
G01 X242.169 Y254.314
G01 X241.539 Y254.572
G01 X240.925 Y254.939
G01 X240.340 Y255.414
G01 X239.799 Y255.993
G01 X239.314 Y256.670
G01 X238.899 Y257.439
G01 X238.564 Y258.291
G01 X238.320 Y259.215
G01 X238.177 Y260.203
G01 X238.142 Y261.240
G01 X238.223 Y262.314
G01 X238.414 Y263.371
G01 X238.423 Y263.412
G01 X238.721 Y264.443
G01 X238.746 Y264.520
G01 X239.148 Y265.518
G01 X239.194 Y265.621
G01 X239.695 Y266.580
G01 X239.766 Y266.703
G01 X240.363 Y267.614
G01 X240.460 Y267.751
G01 X241.148 Y268.605
G01 X241.273 Y268.749
G01 X242.046 Y269.540
G01 X242.198 Y269.685
G01 X243.051 Y270.404
G01 X243.231 Y270.545
G01 X244.155 Y271.185
G01 X244.360 Y271.317
G01 X245.349 Y271.871
G01 X245.578 Y271.990
G01 X246.621 Y272.453
G01 X246.872 Y272.554
G01 X247.961 Y272.920
G01 X248.230 Y273.001
G01 X249.355 Y273.266
G01 X249.639 Y273.323
G01 X250.789 Y273.484
G01 X251.085 Y273.515
G01 X252.250 Y273.569
G01 X252.553 Y273.574
G01 X253.723 Y273.520
G01 X254.029 Y273.496
G01 X255.192 Y273.335
G01 X255.497 Y273.283
G01 X256.642 Y273.015
G01 X256.943 Y272.934
G01 X258.059 Y272.562
G01 X258.351 Y272.455
G01 X259.428 Y271.982
G01 X259.708 Y271.848
G01 X260.735 Y271.280
G01 X260.999 Y271.122
G01 X261.967 Y270.463
G01 X262.212 Y270.285
G01 X263.112 Y269.541
G01 X263.336 Y269.344
G01 X264.160 Y268.524
G01 X264.359 Y268.313
G01 X265.099 Y267.424
G01 X265.273 Y267.202
G01 X265.923 Y266.253
G01 X266.069 Y266.025
G01 X266.624 Y265.026
G01 X266.743 Y264.795
G01 X267.198 Y263.755
G01 X267.289 Y263.527
G01 X267.640 Y262.457
G01 X267.704 Y262.236
G01 X267.949 Y261.145
G01 X267.989 Y260.936
G01 X268.126 Y259.835
G01 X268.143 Y259.643
G01 X268.171 Y258.542
G01 X268.170 Y258.371
G01 X268.089 Y257.280
G01 X268.073 Y257.134
G01 X267.883 Y256.063
G01 X267.858 Y255.947
G01 X267.561 Y254.905
G01 X267.534 Y254.821
G01 X267.130 Y253.817
G01 X267.109 Y253.770
G01 X266.599 Y252.811
G01 X266.593 Y252.803
G01 X265.999 Y251.929
G01 X265.338 Y251.157
G01 X264.623 Y250.493
G01 X263.869 Y249.941
G01 X263.091 Y249.505
G01 X262.302 Y249.185
G01 X261.517 Y248.980
G01 X260.751 Y248.889
G01 X260.017 Y248.907
G01 X259.330 Y249.029
G01 X258.701 Y249.246
G01 X258.142 Y249.551
G01 X257.663 Y249.933
G01 X257.352 Y250.297
G01 X257.274 Y250.381
G01 X257.083 Y250.721
G01 X256.982 Y250.882
G01 X256.872 Y251.214
G01 X256.793 Y251.424
G01 X256.750 Y251.764
G01 X256.712 Y251.992
G01 X256.736 Y252.364
G01 X256.740 Y252.572
G01 X256.850 Y253.006
G01 X256.880 Y253.149
G01 X257.123 Y253.693
G01 X257.129 Y253.710
G01 X257.486 Y254.239
G01 X257.947 Y254.724
G01 X258.504 Y255.150
G01 X259.151 Y255.505
G01 X259.878 Y255.778
G01 X260.675 Y255.959
G01 X261.530 Y256.037
G01 X262.431 Y256.007
G01 X263.363 Y255.861
G01 X264.313 Y255.596
G01 X265.267 Y255.209
G01 X266.209 Y254.699
G01 X267.123 Y254.068
G01 X267.965 Y253.346
G01 X267.997 Y253.317
G01 X268.760 Y252.513
G01 X268.814 Y252.452
G01 X269.495 Y251.573
G01 X269.562 Y251.479
G01 X270.155 Y250.532
G01 X270.228 Y250.406
G01 X270.727 Y249.398
G01 X270.798 Y249.241
G01 X271.201 Y248.182
G01 X271.264 Y247.997
G01 X271.565 Y246.895
G01 X271.615 Y246.684
G01 X271.810 Y245.549
G01 X271.843 Y245.317
G01 X271.931 Y244.159
G01 X271.941 Y243.908
G01 X271.920 Y242.738
G01 X271.906 Y242.473
G01 X271.774 Y241.302
G01 X271.734 Y241.026
G01 X271.492 Y239.865
G01 X271.424 Y239.584
G01 X271.073 Y238.443
G01 X270.976 Y238.160
G01 X270.519 Y237.051
G01 X270.394 Y236.772
G01 X269.834 Y235.706
G01 X269.680 Y235.434
G01 X269.022 Y234.420
G01 X268.842 Y234.160
G01 X268.092 Y233.208
G01 X267.886 Y232.963
G01 X267.050 Y232.083
G01 X266.822 Y231.857
G01 X265.909 Y231.057
G01 X265.661 Y230.853
G01 X264.678 Y230.140
G01 X264.414 Y229.960
G01 X263.371 Y229.341
G01 X263.094 Y229.188
G01 X262.002 Y228.670
G01 X261.716 Y228.544
G01 X260.584 Y228.130
G01 X260.293 Y228.034
G01 X259.132 Y227.727
G01 X258.841 Y227.660
G01 X257.662 Y227.463
G01 X257.375 Y227.425
G01 X256.190 Y227.340
G01 X255.911 Y227.328
G01 X254.731 Y227.355
G01 X254.465 Y227.369
G01 X253.301 Y227.506
G01 X253.051 Y227.544
G01 X251.914 Y227.789
G01 X251.684 Y227.846
G01 X250.584 Y228.197
G01 X250.378 Y228.270
G01 X249.326 Y228.722
G01 X249.146 Y228.806
G01 X248.150 Y229.355
G01 X248.000 Y229.445
G01 X247.070 Y230.086
G01 X246.949 Y230.176
G01 X246.093 Y230.903
G01 X246.003 Y230.985
G01 X245.229 Y231.793
G01 X245.170 Y231.860
G01 X244.485 Y232.744
G01 X244.455 Y232.786
G01 X243.866 Y233.741
G01 X243.862 Y233.749
G01 X243.394 Y234.733
G01 X243.051 Y235.723
G01 X242.831 Y236.705
G01 X242.732 Y237.663
G01 X242.749 Y238.584
G01 X242.874 Y239.452
G01 X243.101 Y240.257
G01 X243.418 Y240.986
G01 X243.816 Y241.629
G01 X244.282 Y242.177
G01 X244.802 Y242.624
G01 X245.364 Y242.962
G01 X245.953 Y243.189
G01 X246.439 Y243.276
G01 X246.553 Y243.301
G01 X246.956 Y243.295
G01 X247.150 Y243.300
G01 X247.503 Y243.224
G01 X247.730 Y243.186
G01 X248.057 Y243.046
G01 X248.277 Y242.962
G01 X248.597 Y242.746
G01 X248.777 Y242.635
G01 X249.108 Y242.308
G01 X249.217 Y242.210
G01 X249.576 Y241.707
G01 X249.585 Y241.695
G01 X249.869 Y241.102
G01 X250.059 Y240.440
G01 X250.147 Y239.722
G01 X250.125 Y238.962
G01 X249.987 Y238.173
G01 X249.731 Y237.371
G01 X249.355 Y236.570
G01 X248.857 Y235.785
G01 X248.241 Y235.032
G01 X247.509 Y234.325
G01 X246.666 Y233.680
G01 X245.721 Y233.109
G01 X244.682 Y232.625
G01 X243.600 Y232.253
G01 X243.559 Y232.240
G01 X242.445 Y231.981
G01 X242.362 Y231.965
G01 X241.225 Y231.819
G01 X241.107 Y231.808
G01 X239.954 Y231.775
G01 X239.805 Y231.776
G01 X238.647 Y231.858
G01 X238.471 Y231.877
G01 X237.318 Y232.072
G01 X237.121 Y232.112
G01 X235.984 Y232.420
G01 X235.771 Y232.485
G01 X234.659 Y232.904
G01 X234.436 Y232.997
G01 X233.360 Y233.523
G01 X233.131 Y233.644
G01 X232.102 Y234.274
G01 X231.873 Y234.424
G01 X230.900 Y235.153
G01 X230.676 Y235.332
G01 X229.770 Y236.154
G01 X229.555 Y236.361
G01 X228.724 Y237.269
G01 X228.523 Y237.502
G01 X227.776 Y238.487
G01 X227.593 Y238.744
G01 X226.936 Y239.799
G01 X226.775 Y240.077
G01 X226.216 Y241.192
G01 X226.079 Y241.488
G01 X225.624 Y242.652
G01 X225.514 Y242.962
G01 X225.167 Y244.164
G01 X225.085 Y244.484
G01 X224.850 Y245.715
G01 X224.798 Y246.041
G01 X224.677 Y247.287
G01 X224.655 Y247.615
G01 X224.649 Y248.865
G01 X224.657 Y249.191
G01 X224.766 Y250.434
G01 X224.804 Y250.753
G01 X225.026 Y251.976
G01 X225.092 Y252.284
G01 X225.424 Y253.476
G01 X225.516 Y253.770
G01 X225.956 Y254.920
G01 X226.072 Y255.195
G01 X226.614 Y256.293
G01 X226.749 Y256.546
G01 X227.388 Y257.582
G01 X227.540 Y257.811
G01 X228.269 Y258.775
G01 X228.432 Y258.976
G01 X229.243 Y259.860
G01 X229.413 Y260.033
G01 X230.299 Y260.829
G01 X230.470 Y260.973
G01 X231.422 Y261.674
G01 X231.589 Y261.789
G01 X232.597 Y262.388
G01 X232.755 Y262.475
G01 X233.810 Y262.967
G01 X233.951 Y263.028
G01 X235.045 Y263.409
G01 X235.163 Y263.446
G01 X236.286 Y263.713
G01 X236.374 Y263.731
G01 X237.518 Y263.878
G01 X237.569 Y263.883
G01 X238.726 Y263.908
G01 X238.733 Y263.908
G01 X239.851 Y263.811
G01 X240.909 Y263.600
G01 X241.895 Y263.283
G01 X242.797 Y262.872
G01 X243.605 Y262.378
G01 X244.311 Y261.814
G01 X244.907 Y261.194
G01 X245.388 Y260.533
G01 X245.751 Y259.845
G01 X245.994 Y259.146
G01 X246.118 Y258.452
G01 X246.125 Y257.778
G01 X246.018 Y257.139
G01 X245.842 Y256.663
G01 X245.805 Y256.548
G01 X245.588 Y256.194
G01 X245.492 Y256.020
G01 X245.239 Y255.746
G01 X245.088 Y255.566
G01 X244.791 Y255.349
G01 X244.604 Y255.199
G01 X244.241 Y255.027
G01 X244.052 Y254.927
G01 X243.585 Y254.804
G01 X243.444 Y254.760
G01 X242.803 Y254.704
G01 X242.796 Y254.703
G01 X242.121 Y254.763
G01 X241.434 Y254.941
G01 X240.752 Y255.239
G01 X240.089 Y255.657
G01 X239.460 Y256.192
G01 X238.882 Y256.840
G01 X238.368 Y257.594
G01 X237.932 Y258.447
G01 X237.586 Y259.388
G01 X237.342 Y260.408
G01 X237.209 Y261.494
G01 X237.197 Y262.632
G01 X237.311 Y263.809
G01 X237.546 Y264.964
G01 X237.557 Y265.008
G01 X237.909 Y266.133
G01 X237.938 Y266.214
G01 X238.403 Y267.301
G01 X238.455 Y267.412
G01 X239.029 Y268.452
G01 X239.108 Y268.584
G01 X239.786 Y269.570
G01 X239.895 Y269.716
G01 X240.671 Y270.638
G01 X240.809 Y270.792
G01 X241.678 Y271.641
G01 X241.847 Y271.796
G01 X242.800 Y272.565
G01 X242.999 Y272.715
G01 X244.029 Y273.395
G01 X244.255 Y273.535
G01 X245.353 Y274.120
G01 X245.606 Y274.244
G01 X246.762 Y274.728
G01 X247.037 Y274.833
G01 X248.241 Y275.209
G01 X248.536 Y275.291
G01 X249.777 Y275.555
G01 X250.088 Y275.611
G01 X251.354 Y275.760
G01 X251.677 Y275.788
G01 X252.957 Y275.820
G01 X253.288 Y275.818
G01 X254.570 Y275.732
G01 X254.903 Y275.699
G01 X256.175 Y275.495
G01 X256.507 Y275.432
G01 X257.756 Y275.111
G01 X258.083 Y275.017
G01 X259.298 Y274.583
G01 X259.614 Y274.459
G01 X260.784 Y273.916
G01 X261.086 Y273.764
G01 X262.199 Y273.117
G01 X262.484 Y272.940
G01 X263.530 Y272.195
G01 X263.793 Y271.995
G01 X264.763 Y271.159
G01 X265.001 Y270.940
G01 X265.886 Y270.022
G01 X266.098 Y269.788
G01 X266.890 Y268.797
G01 X267.073 Y268.552
G01 X267.765 Y267.497
G01 X267.918 Y267.246
G01 X268.504 Y266.137
G01 X268.627 Y265.885
G01 X269.103 Y264.735
G01 X269.196 Y264.486
G01 X269.557 Y263.304
G01 X269.622 Y263.064
G01 X269.865 Y261.862
G01 X269.904 Y261.636
G01 X270.029 Y260.426
G01 X270.043 Y260.219
G01 X270.049 Y259.011
G01 X270.043 Y258.828
G01 X269.930 Y257.634
G01 X269.910 Y257.479
G01 X269.677 Y256.309
G01 X269.649 Y256.187
G01 X269.299 Y255.050
G01 X269.269 Y254.965
G01 X268.803 Y253.872
G01 X268.782 Y253.826
G01 X268.199 Y252.786
G01 X268.197 Y252.783
G01 X267.528 Y251.843
G01 X266.789 Y251.016
G01 X265.995 Y250.308
G01 X265.161 Y249.724
G01 X264.302 Y249.267
G01 X263.436 Y248.937
G01 X262.577 Y248.733
G01 X261.741 Y248.653
G01 X260.944 Y248.691
G01 X260.200 Y248.841
G01 X259.522 Y249.094
G01 X258.923 Y249.440
G01 X258.414 Y249.869
G01 X258.089 Y250.271
G01 X258.005 Y250.367
G01 X257.806 Y250.743
G01 X257.703 Y250.920
G01 X257.593 Y251.288
G01 X257.514 Y251.515
G01 X257.478 Y251.894
G01 X257.444 Y252.136
G01 X257.483 Y252.550
G01 X257.494 Y252.766
G01 X257.632 Y253.251
G01 X257.666 Y253.391
G01 X257.957 Y253.995
G01 X258.365 Y254.561
G01 X258.884 Y255.075
G01 X259.507 Y255.523
G01 X260.226 Y255.891
G01 X261.031 Y256.166
G01 X261.909 Y256.339
G01 X262.848 Y256.398
G01 X263.833 Y256.337
G01 X264.850 Y256.150
G01 X265.883 Y255.831
G01 X266.916 Y255.379
G01 X267.932 Y254.793
G01 X268.916 Y254.075
G01 X269.816 Y253.261
G01 X269.850 Y253.228
G01 X270.663 Y252.327
G01 X270.721 Y252.258
G01 X271.441 Y251.276
G01 X271.512 Y251.172
G01 X272.134 Y250.118
G01 X272.210 Y249.978
G01 X272.729 Y248.861
G01 X272.803 Y248.688
G01 X273.214 Y247.517
G01 X273.277 Y247.313
G01 X273.576 Y246.098
G01 X273.625 Y245.868
G01 X273.808 Y244.620
G01 X273.837 Y244.365
G01 X273.902 Y243.096
G01 X273.907 Y242.822
G01 X273.851 Y241.542
G01 X273.829 Y241.253
G01 X273.653 Y239.975
G01 X273.602 Y239.676
G01 X273.306 Y238.412
G01 X273.224 Y238.107
G01 X272.809 Y236.869
G01 X272.696 Y236.564
G01 X272.167 Y235.363
G01 X272.023 Y235.062
G01 X271.382 Y233.911
G01 X271.207 Y233.619
G01 X270.461 Y232.528
G01 X270.257 Y232.249
G01 X269.412 Y231.229
G01 X269.182 Y230.968
G01 X268.245 Y230.028
G01 X267.991 Y229.788
G01 X266.971 Y228.938
G01 X266.697 Y228.723
G01 X265.604 Y227.969
G01 X265.312 Y227.781
G01 X264.156 Y227.133
G01 X263.851 Y226.974
G01 X262.644 Y226.436
G01 X262.330 Y226.308
G01 X261.082 Y225.885
G01 X260.765 Y225.788
G01 X259.489 Y225.484
G01 X259.172 Y225.419
G01 X257.879 Y225.235
G01 X257.568 Y225.201
G01 X256.271 Y225.139
G01 X255.970 Y225.135
G01 X254.682 Y225.194
G01 X254.395 Y225.217
G01 X253.127 Y225.397
G01 X252.860 Y225.444
G01 X251.624 Y225.742
G01 X251.379 Y225.810
G01 X250.187 Y226.222
G01 X249.969 Y226.305
G01 X248.831 Y226.827
G01 X248.642 Y226.922
G01 X247.569 Y227.548
G01 X247.411 Y227.647
G01 X246.412 Y228.372
G01 X246.288 Y228.469
G01 X245.372 Y229.287
G01 X245.282 Y229.374
G01 X244.457 Y230.279
G01 X244.399 Y230.347
G01 X243.675 Y231.333
G01 X243.648 Y231.372
G01 X243.030 Y232.433
G01 X242.549 Y233.514
G01 X242.204 Y234.598
G01 X241.994 Y235.669
G01 X241.914 Y236.710
G01 X241.958 Y237.706
G01 X242.120 Y238.643
G01 X242.389 Y239.506
G01 X242.755 Y240.285
G01 X243.205 Y240.967
G01 X243.726 Y241.544
G01 X244.304 Y242.008
G01 X244.923 Y242.353
G01 X245.567 Y242.576
G01 X246.087 Y242.650
G01 X246.220 Y242.675
G01 X246.654 Y242.651
G01 X246.867 Y242.649
G01 X247.249 Y242.552
G01 X247.489 Y242.501
G01 X247.845 Y242.333
G01 X248.073 Y242.236
G01 X248.423 Y241.979
G01 X248.603 Y241.858
G01 X248.964 Y241.474
G01 X249.063 Y241.377
G01 X249.442 Y240.801
G01 X249.727 Y240.141
G01 X249.908 Y239.410
G01 X249.974 Y238.623
G01 X249.920 Y237.792
G01 X249.740 Y236.934
G01 X249.429 Y236.066
G01 X248.987 Y235.203
G01 X248.414 Y234.362
G01 X247.713 Y233.560
G01 X246.887 Y232.812
G01 X245.943 Y232.135
G01 X244.890 Y231.542
G01 X243.737 Y231.048
G01 X242.544 Y230.678
G01 X242.495 Y230.664
G01 X241.271 Y230.418
G01 X241.179 Y230.402
G01 X239.932 Y230.280
G01 X239.801 Y230.272
G01 X238.542 Y230.273
G01 X238.377 Y230.279
G01 X237.116 Y230.406
G01 X236.923 Y230.431
G01 X235.671 Y230.681
G01 X235.457 Y230.732
G01 X234.224 Y231.104
G01 X233.994 Y231.182
G01 X232.793 Y231.673
G01 X232.552 Y231.781
G01 X231.394 Y232.389
G01 X231.149 Y232.529
G01 X230.044 Y233.248
G01 X229.800 Y233.419
G01 X228.761 Y234.245
G01 X228.523 Y234.446
G01 X227.558 Y235.371
G01 X227.332 Y235.602
G01 X226.452 Y236.618
G01 X226.241 Y236.878
G01 X225.456 Y237.976
G01 X225.265 Y238.260
G01 X224.581 Y239.431
G01 X224.415 Y239.737
G01 X223.839 Y240.970
G01 X223.699 Y241.295
G01 X223.238 Y242.577
G01 X223.128 Y242.917
G01 X222.786 Y244.238
G01 X222.708 Y244.588
G01 X222.488 Y245.935
G01 X222.442 Y246.290
G01 X222.347 Y247.651
G01 X222.333 Y248.007
G01 X222.364 Y249.369
G01 X222.383 Y249.721
G01 X222.539 Y251.071
G01 X222.589 Y251.414
G01 X222.868 Y252.740
G01 X222.948 Y253.070
G01 X223.346 Y254.359
G01 X223.454 Y254.672
G01 X223.968 Y255.911
G01 X224.100 Y256.203
G01 X224.724 Y257.382
G01 X224.876 Y257.650
G01 X225.603 Y258.758
G01 X225.772 Y258.998
G01 X226.595 Y260.026
G01 X226.775 Y260.236
G01 X227.685 Y261.173
G01 X227.871 Y261.353
G01 X228.859 Y262.192
G01 X229.045 Y262.340
G01 X230.102 Y263.073
G01 X230.282 Y263.189
G01 X231.398 Y263.810
G01 X231.565 Y263.896
G01 X232.730 Y264.400
G01 X232.878 Y264.458
G01 X234.081 Y264.840
G01 X234.201 Y264.874
G01 X235.434 Y265.129
G01 X235.520 Y265.144
G01 X236.772 Y265.269
G01 X236.817 Y265.272
G01 X238.074 Y265.262
G01 X239.278 Y265.121
G01 X240.413 Y264.859
G01 X241.465 Y264.485
G01 X242.423 Y264.012
G01 X243.276 Y263.452
G01 X244.016 Y262.820
G01 X244.634 Y262.132
G01 X245.126 Y261.404
G01 X245.489 Y260.651
G01 X245.722 Y259.891
G01 X245.826 Y259.140
G01 X245.804 Y258.416
G01 X245.660 Y257.734
G01 X245.452 Y257.245
G01 X245.401 Y257.109
G01 X245.153 Y256.742
G01 X245.037 Y256.555
G01 X244.750 Y256.270
G01 X244.578 Y256.087
G01 X244.238 Y255.861
G01 X244.035 Y255.714
G01 X243.618 Y255.540
G01 X243.422 Y255.449
G01 X242.880 Y255.332
G01 X242.754 Y255.299
G01 X242.045 Y255.271
G01 X241.312 Y255.370
G01 X240.571 Y255.598
G01 X239.839 Y255.957
G01 X239.134 Y256.445
G01 X238.471 Y257.058
G01 X237.867 Y257.793
G01 X237.337 Y258.640
G01 X236.895 Y259.591
G01 X236.555 Y260.636
G01 X236.329 Y261.761
G01 X236.227 Y262.953
G01 X236.258 Y264.198
G01 X236.427 Y265.476
G01 X236.427 Y265.479
G01 X236.727 Y266.727
G01 X236.741 Y266.780
G01 X237.166 Y267.991
G01 X237.202 Y268.083
G01 X237.749 Y269.249
G01 X237.811 Y269.371
G01 X238.474 Y270.483
G01 X238.566 Y270.627
G01 X239.340 Y271.676
G01 X239.465 Y271.834
G01 X240.343 Y272.810
G01 X240.501 Y272.974
G01 X241.477 Y273.868
G01 X241.667 Y274.032
G01 X242.732 Y274.835
G01 X242.955 Y274.992
G01 X244.100 Y275.697
G01 X244.352 Y275.841
G01 X245.568 Y276.440
G01 X245.847 Y276.567
G01 X247.122 Y277.053
G01 X247.425 Y277.157
G01 X248.749 Y277.525
G01 X249.072 Y277.604
G01 X250.431 Y277.849
G01 X250.771 Y277.899
G01 X252.154 Y278.018
G01 X252.505 Y278.038
G01 X253.898 Y278.029
G01 X254.256 Y278.015
G01 X255.647 Y277.878
G01 X256.007 Y277.831
G01 X257.382 Y277.567
G01 X257.739 Y277.486
G01 X259.086 Y277.096
G01 X259.436 Y276.983
G01 X260.741 Y276.471
G01 X261.079 Y276.326
G01 X262.331 Y275.697
G01 X262.652 Y275.523
G01 X263.839 Y274.782
G01 X264.139 Y274.582
G01 X265.250 Y273.737
G01 X265.526 Y273.514
G01 X266.551 Y272.574
G01 X266.800 Y272.331
G01 X267.729 Y271.304
G01 X267.948 Y271.046
G01 X268.774 Y269.943
G01 X268.962 Y269.675
G01 X269.676 Y268.507
G01 X269.832 Y268.234
G01 X270.430 Y267.012
G01 X270.552 Y266.739
G01 X271.029 Y265.475
G01 X271.120 Y265.207
G01 X271.470 Y263.913
G01 X271.531 Y263.657
G01 X271.754 Y262.345
G01 X271.786 Y262.107
G01 X271.880 Y260.789
G01 X271.888 Y260.573
G01 X271.852 Y259.262
G01 X271.841 Y259.073
G01 X271.675 Y257.780
G01 X271.650 Y257.624
G01 X271.356 Y256.361
G01 X271.324 Y256.241
G01 X270.902 Y255.019
G01 X270.872 Y254.940
G01 X270.325 Y253.768
G01 X270.307 Y253.733
G01 X269.641 Y252.632
G01 X268.888 Y251.647
G01 X268.065 Y250.788
G01 X267.186 Y250.059
G01 X266.270 Y249.466
G01 X265.332 Y249.010
G01 X264.392 Y248.693
G01 X263.465 Y248.512
G01 X262.568 Y248.463
G01 X261.719 Y248.540
G01 X260.932 Y248.736
G01 X260.221 Y249.040
G01 X259.600 Y249.442
G01 X259.091 Y249.918
G01 X259.080 Y249.928
G01 X258.767 Y250.361
G01 X258.670 Y250.485
G01 X258.483 Y250.894
G01 X258.379 Y251.097
G01 X258.283 Y251.501
G01 X258.213 Y251.749
G01 X258.196 Y252.170
G01 X258.176 Y252.422
G01 X258.247 Y252.891
G01 X258.270 Y253.102
G01 X258.461 Y253.656
G01 X258.495 Y253.769
G01 X258.848 Y254.408
G01 X259.326 Y255.001
G01 X259.922 Y255.533
G01 X260.628 Y255.987
G01 X261.434 Y256.351
G01 X262.329 Y256.610
G01 X263.298 Y256.754
G01 X264.328 Y256.774
G01 X265.403 Y256.660
G01 X266.507 Y256.408
G01 X267.621 Y256.013
G01 X268.730 Y255.473
G01 X269.815 Y254.788
G01 X270.851 Y253.968
G01 X270.858 Y253.962
G01 X271.801 Y253.042
G01 X271.842 Y252.999
G01 X272.687 Y251.987
G01 X272.751 Y251.904
G01 X273.493 Y250.809
G01 X273.570 Y250.687
G01 X274.203 Y249.517
G01 X274.282 Y249.358
G01 X274.801 Y248.123
G01 X274.875 Y247.929
G01 X275.276 Y246.640
G01 X275.338 Y246.413
G01 X275.615 Y245.081
G01 X275.659 Y244.826
G01 X275.809 Y243.463
G01 X275.831 Y243.184
G01 X275.852 Y241.802
G01 X275.846 Y241.503
G01 X275.737 Y240.115
G01 X275.702 Y239.801
G01 X275.461 Y238.420
G01 X275.394 Y238.097
G01 X275.024 Y236.735
G01 X274.924 Y236.408
G01 X274.427 Y235.079
G01 X274.293 Y234.753
G01 X273.672 Y233.470
G01 X273.505 Y233.150
G01 X272.766 Y231.925
G01 X272.566 Y231.616
G01 X271.716 Y230.461
G01 X271.486 Y230.168
G01 X270.530 Y229.093
G01 X270.273 Y228.821
G01 X269.222 Y227.837
G01 X268.939 Y227.588
G01 X267.802 Y226.705
G01 X267.499 Y226.484
G01 X266.287 Y225.709
G01 X265.966 Y225.518
G01 X264.690 Y224.859
G01 X264.357 Y224.700
G01 X263.030 Y224.163
G01 X262.689 Y224.037
G01 X261.323 Y223.626
G01 X260.980 Y223.534
G01 X259.587 Y223.253
G01 X259.247 Y223.195
G01 X257.841 Y223.045
G01 X257.509 Y223.021
G01 X256.104 Y223.003
G01 X255.784 Y223.009
G01 X254.393 Y223.123
G01 X254.091 Y223.157
G01 X252.727 Y223.400
G01 X252.446 Y223.460
G01 X251.121 Y223.829
G01 X250.867 Y223.909
G01 X249.594 Y224.400
G01 X249.370 Y224.496
G01 X248.159 Y225.104
G01 X247.968 Y225.209
G01 X246.831 Y225.928
G01 X246.675 Y226.035
G01 X245.622 Y226.859
G01 X245.501 Y226.961
G01 X244.542 Y227.883
G01 X244.458 Y227.970
G01 X243.601 Y228.984
G01 X243.551 Y229.047
G01 X242.805 Y230.147
G01 X242.788 Y230.175
G01 X242.171 Y231.335
G01 X241.701 Y232.510
G01 X241.379 Y233.681
G01 X241.201 Y234.832
G01 X241.161 Y235.945
G01 X241.254 Y237.003
G01 X241.470 Y237.992
G01 X241.798 Y238.896
G01 X242.226 Y239.704
G01 X242.740 Y240.405
G01 X243.325 Y240.988
G01 X243.966 Y241.447
G01 X244.644 Y241.775
G01 X245.309 Y241.959
G01 X245.344 Y241.971
G01 X245.878 Y242.011
G01 X246.047 Y242.031
G01 X246.500 Y241.977
G01 X246.736 Y241.959
G01 X247.141 Y241.827
G01 X247.394 Y241.756
G01 X247.776 Y241.542
G01 X248.003 Y241.428
G01 X248.384 Y241.108
G01 X248.548 Y240.981
G01 X248.945 Y240.501
G01 X249.013 Y240.426
G01 X249.384 Y239.774
G01 X249.650 Y239.036
G01 X249.799 Y238.226
G01 X249.822 Y237.361
G01 X249.712 Y236.456
G01 X249.465 Y235.528
G01 X249.076 Y234.595
G01 X248.545 Y233.675
G01 X247.873 Y232.786
G01 X247.065 Y231.945
G01 X246.124 Y231.170
G01 X245.060 Y230.476
G01 X243.881 Y229.880
G01 X242.613 Y229.400
G01 X242.599 Y229.396
G01 X241.293 Y229.050
G01 X241.228 Y229.036
G01 X239.891 Y228.824
G01 X239.781 Y228.811
G01 X238.425 Y228.734
G01 X238.274 Y228.731
G01 X236.909 Y228.789
G01 X236.724 Y228.803
G01 X235.362 Y228.995
G01 X235.149 Y229.033
G01 X233.802 Y229.358
G01 X233.568 Y229.423
G01 X232.248 Y229.880
G01 X231.998 Y229.976
G01 X230.717 Y230.561
G01 X230.458 Y230.690
G01 X229.228 Y231.398
G01 X228.967 Y231.561
G01 X227.800 Y232.388
G01 X227.542 Y232.584
G01 X226.450 Y233.522
G01 X226.200 Y233.752
G01 X225.195 Y234.794
G01 X224.958 Y235.054
G01 X224.049 Y236.191
G01 X223.831 Y236.481
G01 X223.026 Y237.702
G01 X222.832 Y238.018
G01 X222.141 Y239.313
G01 X221.974 Y239.651
G01 X221.402 Y241.008
G01 X221.265 Y241.364
G01 X220.820 Y242.770
G01 X220.715 Y243.140
G01 X220.400 Y244.582
G01 X220.330 Y244.961
G01 X220.148 Y246.426
G01 X220.113 Y246.809
G01 X220.067 Y248.283
G01 X220.067 Y248.665
G01 X220.156 Y250.135
G01 X220.191 Y250.510
G01 X220.415 Y251.961
G01 X220.482 Y252.325
G01 X220.838 Y253.744
G01 X220.937 Y254.092
G01 X221.420 Y255.466
G01 X221.547 Y255.794
G01 X222.153 Y257.110
G01 X222.304 Y257.414
G01 X223.026 Y258.660
G01 X223.198 Y258.936
G01 X224.028 Y260.100
G01 X224.215 Y260.346
G01 X225.145 Y261.419
G01 X225.343 Y261.632
G01 X226.363 Y262.604
G01 X226.564 Y262.783
G01 X227.665 Y263.645
G01 X227.863 Y263.790
G01 X229.034 Y264.536
G01 X229.223 Y264.647
G01 X230.453 Y265.269
G01 X230.625 Y265.348
G01 X231.903 Y265.841
G01 X232.051 Y265.892
G01 X233.367 Y266.251
G01 X233.482 Y266.278
G01 X234.825 Y266.499
G01 X234.900 Y266.508
G01 X236.261 Y266.586
G01 X236.287 Y266.586
G01 X237.625 Y266.519
G01 X238.898 Y266.314
G01 X240.091 Y265.982
G01 X241.189 Y265.535
G01 X242.181 Y264.985
G01 X243.055 Y264.349
G01 X243.803 Y263.642
G01 X244.419 Y262.881
G01 X244.897 Y262.083
G01 X245.234 Y261.267
G01 X245.432 Y260.450
G01 X245.491 Y259.651
G01 X245.416 Y258.888
G01 X245.227 Y258.234
G01 X245.213 Y258.176
G01 X244.968 Y257.701
G01 X244.891 Y257.532
G01 X244.604 Y257.171
G01 X244.458 Y256.972
G01 X244.125 Y256.689
G01 X243.929 Y256.508
G01 X243.531 Y256.286
G01 X243.315 Y256.154
G01 X242.817 Y255.988
G01 X242.632 Y255.918
G01 X241.972 Y255.824
G01 X241.895 Y255.810
G01 X241.123 Y255.835
G01 X240.331 Y255.999
G01 X239.539 Y256.303
G01 X238.765 Y256.747
G01 X238.026 Y257.328
G01 X237.341 Y258.043
G01 X236.726 Y258.885
G01 X236.197 Y259.844
G01 X235.770 Y260.911
G01 X235.458 Y262.072
G01 X235.274 Y263.315
G01 X235.227 Y264.622
G01 X235.327 Y265.979
G01 X235.574 Y267.346
G01 X235.579 Y267.367
G01 X235.964 Y268.699
G01 X235.987 Y268.769
G01 X236.507 Y270.056
G01 X236.555 Y270.165
G01 X237.203 Y271.398
G01 X237.282 Y271.536
G01 X238.052 Y272.707
G01 X238.164 Y272.865
G01 X239.052 Y273.963
G01 X239.199 Y274.133
G01 X240.196 Y275.147
G01 X240.379 Y275.321
G01 X241.477 Y276.243
G01 X241.695 Y276.414
G01 X242.885 Y277.233
G01 X243.136 Y277.394
G01 X244.408 Y278.104
G01 X244.690 Y278.249
G01 X246.032 Y278.841
G01 X246.343 Y278.966
G01 X247.744 Y279.432
G01 X248.078 Y279.532
G01 X249.525 Y279.869
G01 X249.879 Y279.940
G01 X251.359 Y280.142
G01 X251.729 Y280.181
G01 X253.227 Y280.247
G01 X253.607 Y280.252
G01 X255.111 Y280.179
G01 X255.496 Y280.148
G01 X256.991 Y279.937
G01 X257.376 Y279.871
G01 X258.848 Y279.523
G01 X259.227 Y279.421
G01 X260.662 Y278.939
G01 X261.031 Y278.803
G01 X262.416 Y278.192
G01 X262.770 Y278.022
G01 X264.091 Y277.288
G01 X264.426 Y277.088
G01 X265.671 Y276.237
G01 X265.982 Y276.010
G01 X267.140 Y275.051
G01 X267.423 Y274.801
G01 X268.484 Y273.743
G01 X268.737 Y273.474
G01 X269.691 Y272.327
G01 X269.911 Y272.045
G01 X270.749 Y270.822
G01 X270.935 Y270.531
G01 X271.650 Y269.242
G01 X271.801 Y268.949
G01 X272.388 Y267.607
G01 X272.504 Y267.317
G01 X272.958 Y265.936
G01 X273.041 Y265.654
G01 X273.358 Y264.247
G01 X273.409 Y263.980
G01 X273.588 Y262.560
G01 X273.610 Y262.314
G01 X273.649 Y260.893
G01 X273.648 Y260.674
G01 X273.547 Y259.266
G01 X273.527 Y259.080
G01 X273.287 Y257.697
G01 X273.255 Y257.547
G01 X272.877 Y256.202
G01 X272.843 Y256.094
G01 X272.328 Y254.797
G01 X272.301 Y254.734
G01 X271.650 Y253.496
G01 X271.642 Y253.482
G01 X270.882 Y252.349
G01 X270.035 Y251.346
G01 X269.120 Y250.481
G01 X268.154 Y249.759
G01 X267.156 Y249.184
G01 X266.143 Y248.758
G01 X265.135 Y248.480
G01 X264.151 Y248.347
G01 X263.207 Y248.353
G01 X262.321 Y248.492
G01 X261.509 Y248.753
G01 X260.786 Y249.127
G01 X260.165 Y249.598
G01 X259.717 Y250.093
G01 X259.657 Y250.155
G01 X259.383 Y250.612
G01 X259.273 Y250.779
G01 X259.115 Y251.219
G01 X259.019 Y251.455
G01 X258.953 Y251.900
G01 X258.902 Y252.166
G01 X258.924 Y252.641
G01 X258.925 Y252.892
G01 X259.054 Y253.433
G01 X259.089 Y253.615
G01 X259.376 Y254.273
G01 X259.393 Y254.318
G01 X259.833 Y254.981
G01 X260.405 Y255.586
G01 X261.099 Y256.118
G01 X261.907 Y256.560
G01 X262.816 Y256.898
G01 X263.814 Y257.118
G01 X264.886 Y257.209
G01 X266.014 Y257.161
G01 X267.183 Y256.968
G01 X268.374 Y256.623
G01 X269.568 Y256.123
G01 X270.747 Y255.468
G01 X271.890 Y254.659
G01 X272.959 Y253.719
G01 X272.980 Y253.699
G01 X273.945 Y252.657
G01 X273.999 Y252.594
G01 X274.855 Y251.458
G01 X274.929 Y251.353
G01 X275.670 Y250.132
G01 X275.752 Y249.986
G01 X276.374 Y248.690
G01 X276.456 Y248.504
G01 X276.952 Y247.144
G01 X277.025 Y246.921
G01 X277.390 Y245.509
G01 X277.447 Y245.253
G01 X277.678 Y243.801
G01 X277.714 Y243.517
G01 X277.806 Y242.038
G01 X277.816 Y241.730
G01 X277.768 Y240.237
G01 X277.748 Y239.910
G01 X277.559 Y238.418
G01 X277.506 Y238.078
G01 X277.177 Y236.600
G01 X277.088 Y236.252
G01 X276.622 Y234.802
G01 X276.497 Y234.453
G01 X275.895 Y233.045
G01 X275.734 Y232.699
G01 X275.002 Y231.347
G01 X274.806 Y231.011
G01 X273.950 Y229.727
G01 X273.720 Y229.405
G01 X272.748 Y228.202
G01 X272.487 Y227.899
G01 X271.406 Y226.789
G01 X271.117 Y226.510
G01 X269.938 Y225.503
G01 X269.624 Y225.251
G01 X268.359 Y224.356
G01 X268.025 Y224.135
G01 X266.684 Y223.361
G01 X266.334 Y223.174
G01 X264.931 Y222.528
G01 X264.570 Y222.375
G01 X263.118 Y221.863
G01 X262.752 Y221.746
G01 X261.265 Y221.372
G01 X260.899 Y221.292
G01 X259.390 Y221.058
G01 X259.030 Y221.014
G01 X257.515 Y220.922
G01 X257.165 Y220.912
G01 X255.658 Y220.962
G01 X255.324 Y220.984
G01 X253.838 Y221.175
G01 X253.526 Y221.225
G01 X252.076 Y221.554
G01 X251.790 Y221.629
G01 X250.389 Y222.091
G01 X250.133 Y222.185
G01 X248.793 Y222.776
G01 X248.570 Y222.883
G01 X247.304 Y223.598
G01 X247.118 Y223.711
G01 X245.936 Y224.542
G01 X245.788 Y224.653
G01 X244.702 Y225.593
G01 X244.593 Y225.694
G01 X243.612 Y226.736
G01 X243.542 Y226.817
G01 X242.675 Y227.954
G01 X242.641 Y228.003
G01 X241.897 Y229.230
G01 X241.895 Y229.234
G01 X241.308 Y230.490
G01 X240.880 Y231.753
G01 X240.608 Y233.003
G01 X240.488 Y234.221
G01 X240.515 Y235.390
G01 X240.678 Y236.492
G01 X240.968 Y237.511
G01 X241.373 Y238.434
G01 X241.877 Y239.246
G01 X242.466 Y239.938
G01 X243.123 Y240.500
G01 X243.831 Y240.925
G01 X244.570 Y241.208
G01 X245.213 Y241.323
G01 X245.322 Y241.348
G01 X245.853 Y241.338
G01 X246.069 Y241.343
G01 X246.531 Y241.242
G01 X246.791 Y241.197
G01 X247.215 Y241.012
G01 X247.470 Y240.913
G01 X247.880 Y240.630
G01 X248.088 Y240.499
G01 X248.506 Y240.077
G01 X248.629 Y239.962
G01 X249.072 Y239.321
G01 X249.077 Y239.315
G01 X249.418 Y238.570
G01 X249.639 Y237.740
G01 X249.729 Y236.843
G01 X249.681 Y235.894
G01 X249.487 Y234.911
G01 X249.143 Y233.914
G01 X248.647 Y232.922
G01 X247.999 Y231.953
G01 X247.202 Y231.027
G01 X246.260 Y230.162
G01 X245.182 Y229.377
G01 X243.975 Y228.688
G01 X242.652 Y228.112
G01 X241.264 Y227.673
G01 X241.226 Y227.662
G01 X239.802 Y227.368
G01 X239.711 Y227.353
G01 X238.261 Y227.203
G01 X238.124 Y227.194
G01 X236.660 Y227.189
G01 X236.482 Y227.195
G01 X235.015 Y227.335
G01 X234.804 Y227.362
G01 X233.348 Y227.646
G01 X233.110 Y227.701
G01 X231.676 Y228.127
G01 X231.418 Y228.213
G01 X230.020 Y228.778
G01 X229.749 Y228.898
G01 X228.401 Y229.598
G01 X228.123 Y229.754
G01 X226.837 Y230.584
G01 X226.560 Y230.777
G01 X225.348 Y231.730
G01 X225.077 Y231.958
G01 X223.952 Y233.027
G01 X223.693 Y233.290
G01 X222.666 Y234.465
G01 X222.425 Y234.760
G01 X221.507 Y236.031
G01 X221.288 Y236.355
G01 X220.487 Y237.711
G01 X220.295 Y238.061
G01 X219.620 Y239.490
G01 X219.458 Y239.861
G01 X218.916 Y241.349
G01 X218.788 Y241.737
G01 X218.383 Y243.271
G01 X218.291 Y243.671
G01 X218.028 Y245.237
G01 X217.973 Y245.644
G01 X217.856 Y247.225
G01 X217.838 Y247.634
G01 X217.866 Y249.217
G01 X217.885 Y249.621
G01 X218.058 Y251.192
G01 X218.114 Y251.587
G01 X218.430 Y253.130
G01 X218.521 Y253.510
G01 X218.976 Y255.010
G01 X219.098 Y255.371
G01 X219.688 Y256.816
G01 X219.838 Y257.153
G01 X220.555 Y258.528
G01 X220.729 Y258.837
G01 X221.567 Y260.131
G01 X221.760 Y260.408
G01 X222.710 Y261.609
G01 X222.915 Y261.853
G01 X223.967 Y262.949
G01 X224.180 Y263.157
G01 X225.324 Y264.141
G01 X225.536 Y264.312
G01 X226.761 Y265.173
G01 X226.967 Y265.308
G01 X228.260 Y266.040
G01 X228.451 Y266.140
G01 X229.802 Y266.736
G01 X229.971 Y266.804
G01 X231.367 Y267.259
G01 X231.505 Y267.298
G01 X232.936 Y267.607
G01 X233.034 Y267.624
G01 X234.490 Y267.781
G01 X234.539 Y267.785
G01 X236.001 Y267.786
G01 X237.400 Y267.636
G01 X238.721 Y267.344
G01 X239.948 Y266.923
G01 X241.066 Y266.385
G01 X242.064 Y265.747
G01 X242.930 Y265.025
G01 X243.657 Y264.236
G01 X244.239 Y263.399
G01 X244.672 Y262.534
G01 X244.954 Y261.659
G01 X245.087 Y260.795
G01 X245.074 Y259.959
G01 X244.921 Y259.171
G01 X244.682 Y258.580
G01 X244.635 Y258.449
G01 X244.346 Y258.007
G01 X244.227 Y257.808
G01 X243.891 Y257.466
G01 X243.709 Y257.265
G01 X243.314 Y256.996
G01 X243.093 Y256.832
G01 X242.610 Y256.625
G01 X242.396 Y256.522
G01 X241.774 Y256.383
G01 X241.634 Y256.345
G01 X240.826 Y256.308
G01 X239.988 Y256.418
G01 X239.141 Y256.676
G01 X238.305 Y257.085
G01 X237.498 Y257.643
G01 X236.739 Y258.346
G01 X236.048 Y259.187
G01 X235.443 Y260.159
G01 X234.938 Y261.252
G01 X234.551 Y262.451
G01 X234.295 Y263.745
G01 X234.182 Y265.115
G01 X234.221 Y266.546
G01 X234.420 Y268.019
G01 X234.773 Y269.465
G01 X234.786 Y269.514
G01 X235.284 Y270.917
G01 X235.322 Y271.012
G01 X235.959 Y272.362
G01 X236.027 Y272.494
G01 X236.800 Y273.780
G01 X236.902 Y273.937
G01 X237.802 Y275.149
G01 X237.941 Y275.324
G01 X238.962 Y276.451
G01 X239.139 Y276.634
G01 X240.272 Y277.666
G01 X240.487 Y277.849
G01 X241.723 Y278.776
G01 X241.975 Y278.952
G01 X243.303 Y279.764
G01 X243.589 Y279.927
G01 X244.998 Y280.615
G01 X245.316 Y280.758
G01 X246.793 Y281.316
G01 X247.138 Y281.434
G01 X248.671 Y281.855
G01 X249.039 Y281.944
G01 X250.613 Y282.223
G01 X251.000 Y282.279
G01 X252.600 Y282.413
G01 X253.001 Y282.434
G01 X254.613 Y282.419
G01 X255.021 Y282.403
G01 X256.630 Y282.240
G01 X257.041 Y282.185
G01 X258.632 Y281.875
G01 X259.039 Y281.782
G01 X260.597 Y281.327
G01 X260.996 Y281.196
G01 X262.505 Y280.600
G01 X262.890 Y280.434
G01 X264.338 Y279.702
G01 X264.703 Y279.503
G01 X266.075 Y278.643
G01 X266.417 Y278.413
G01 X267.701 Y277.433
G01 X268.016 Y277.177
G01 X269.200 Y276.087
G01 X269.483 Y275.809
G01 X270.556 Y274.619
G01 X270.806 Y274.324
G01 X271.759 Y273.046
G01 X271.972 Y272.740
G01 X272.797 Y271.387
G01 X272.974 Y271.075
G01 X273.663 Y269.659
G01 X273.803 Y269.349
G01 X274.351 Y267.884
G01 X274.454 Y267.581
G01 X274.858 Y266.082
G01 X274.926 Y265.792
G01 X275.183 Y264.273
G01 X275.219 Y264.003
G01 X275.326 Y262.478
G01 X275.335 Y262.234
G01 X275.291 Y260.716
G01 X275.278 Y260.504
G01 X275.085 Y259.008
G01 X275.057 Y258.834
G01 X274.715 Y257.371
G01 X274.680 Y257.240
G01 X274.191 Y255.824
G01 X274.159 Y255.740
G01 X273.524 Y254.383
G01 X273.507 Y254.350
G01 X272.740 Y253.082
G01 X271.873 Y251.949
G01 X270.926 Y250.959
G01 X269.915 Y250.120
