;  Created by Sandify
;  https://sandify.org
;  Version: 0.2.6
;
;  Machine type: Rectangular
;    Min X (mm): 0
;    Max X (mm): 500
;    Min Y (mm): 0
;    Max Y (mm): 500
;  Content type: shape
;  Layer:
;    Shape: FileImport
;    Name: SpiralBezier.thr
;    From file:: SpiralBezier.thr
;    Aspect Ratio: true
;    Comments: 
;    Visible: true
;    Initial width: 10
;    Initial height: 10
;    X offset: 0
;    Y offset: 0
;    Rotate (degrees): 0
;    Reverse path: false
;    Fine tuning:
;      Connect to next layer: line
;      Draw portion of path (%): 100
;      Backtrack at end (%): 0
;      Rotate starting point (%): 0
;  Reverse export path: false
;
; File name: 'SpiralBezier (E) (C N)'
; File type: gcode
;

G01 X250.000 Y250.000
G01 X250.004 Y250.199
G01 X250.016 Y250.398
G01 X249.997 Y250.376
G01 X249.979 Y250.353
G01 X249.964 Y250.330
G01 X249.952 Y250.306
G01 X249.941 Y250.281
G01 X249.933 Y250.257
G01 X249.927 Y250.232
G01 X249.924 Y250.208
G01 X249.922 Y250.183
G01 X249.923 Y250.159
G01 X249.926 Y250.136
G01 X249.931 Y250.113
G01 X249.938 Y250.091
G01 X249.947 Y250.071
G01 X249.957 Y250.051
G01 X249.970 Y250.033
G01 X249.984 Y250.016
G01 X250.000 Y250.000
G01 X249.993 Y250.007
G01 X249.986 Y250.015
G01 X249.980 Y250.024
G01 X249.975 Y250.033
G01 X249.971 Y250.042
G01 X249.968 Y250.052
G01 X249.966 Y250.063
G01 X249.964 Y250.074
G01 X249.964 Y250.085
G01 X249.965 Y250.096
G01 X249.966 Y250.108
G01 X249.969 Y250.119
G01 X249.973 Y250.130
G01 X249.978 Y250.142
G01 X249.983 Y250.153
G01 X249.990 Y250.164
G01 X249.998 Y250.174
G01 X250.007 Y250.184
G01 X250.017 Y250.194
G01 X250.028 Y250.203
G01 X250.040 Y250.211
G01 X250.053 Y250.219
G01 X250.066 Y250.226
G01 X250.081 Y250.232
G01 X250.096 Y250.238
G01 X250.112 Y250.242
G01 X250.128 Y250.245
G01 X250.145 Y250.247
G01 X250.163 Y250.249
G01 X250.181 Y250.249
G01 X250.199 Y250.247
G01 X250.218 Y250.245
G01 X250.237 Y250.241
G01 X250.248 Y250.238
G01 X255.777 Y255.551
G01 X256.350 Y255.528
G01 X256.934 Y255.463
G01 X257.527 Y255.352
G01 X258.124 Y255.196
G01 X258.723 Y254.994
G01 X259.321 Y254.745
G01 X259.325 Y254.743
G01 X260.213 Y254.579
G01 X261.100 Y254.340
G01 X250.311 Y250.122
G01 X250.279 Y250.125
G01 X250.248 Y250.126
G01 X250.218 Y250.125
G01 X250.188 Y250.120
G01 X250.160 Y250.114
G01 X250.132 Y250.104
G01 X250.106 Y250.093
G01 X250.082 Y250.079
G01 X250.059 Y250.062
G01 X250.038 Y250.044
G01 X250.019 Y250.024
G01 X250.002 Y250.003
G01 X250.000 Y250.000
G01 X250.019 Y250.025
G01 X250.041 Y250.048
G01 X250.065 Y250.069
G01 X250.091 Y250.088
G01 X250.119 Y250.105
G01 X250.148 Y250.118
G01 X250.180 Y250.129
G01 X250.212 Y250.138
G01 X250.246 Y250.143
G01 X250.281 Y250.145
G01 X250.317 Y250.144
G01 X250.353 Y250.140
G01 X250.389 Y250.133
G01 X250.426 Y250.123
G01 X250.462 Y250.109
G01 X250.498 Y250.092
G01 X250.533 Y250.071
G01 X250.567 Y250.048
G01 X250.601 Y250.021
G01 X250.633 Y249.991
G01 X250.663 Y249.958
G01 X250.692 Y249.922
G01 X250.718 Y249.883
G01 X250.742 Y249.841
G01 X250.747 Y249.833
G01 X267.385 Y246.110
G01 X267.587 Y245.147
G01 X267.735 Y244.156
G01 X267.827 Y243.139
G01 X267.861 Y242.099
G01 X267.835 Y241.039
G01 X267.790 Y240.392
G01 X267.899 Y239.166
G01 X267.925 Y238.486
G01 X250.160 Y249.897
G01 X250.159 Y249.909
G01 X250.157 Y249.920
G01 X250.154 Y249.930
G01 X250.151 Y249.941
G01 X250.147 Y249.950
G01 X250.143 Y249.960
G01 X250.138 Y249.968
G01 X250.132 Y249.976
G01 X250.126 Y249.984
G01 X250.120 Y249.990
G01 X250.114 Y249.996
G01 X250.107 Y250.002
G01 X250.099 Y250.007
G01 X250.092 Y250.011
G01 X250.085 Y250.014
G01 X250.077 Y250.017
G01 X250.069 Y250.019
G01 X250.062 Y250.020
G01 X250.054 Y250.021
G01 X250.047 Y250.020
G01 X250.040 Y250.020
G01 X250.032 Y250.018
G01 X250.026 Y250.016
G01 X250.019 Y250.013
G01 X250.013 Y250.010
G01 X250.007 Y250.006
G01 X250.002 Y250.002
G01 X250.000 Y250.000
G01 X250.016 Y250.014
G01 X250.033 Y250.026
G01 X250.051 Y250.037
G01 X250.070 Y250.045
G01 X250.090 Y250.052
G01 X250.111 Y250.058
G01 X250.133 Y250.061
G01 X250.155 Y250.062
G01 X250.178 Y250.061
G01 X250.201 Y250.058
G01 X250.224 Y250.053
G01 X250.246 Y250.045
G01 X250.269 Y250.036
G01 X250.291 Y250.025
G01 X250.313 Y250.011
G01 X250.334 Y249.995
G01 X250.354 Y249.978
G01 X250.373 Y249.958
G01 X250.392 Y249.936
G01 X250.408 Y249.913
G01 X250.424 Y249.888
G01 X250.438 Y249.861
G01 X250.450 Y249.832
G01 X250.460 Y249.802
G01 X250.469 Y249.770
G01 X250.475 Y249.738
G01 X250.479 Y249.704
G01 X250.482 Y249.669
G01 X250.481 Y249.633
G01 X250.479 Y249.596
G01 X250.474 Y249.563
G01 X266.934 Y234.386
G01 X266.490 Y233.225
G01 X265.972 Y232.072
G01 X265.379 Y230.930
G01 X264.713 Y229.803
G01 X264.008 Y228.749
G01 X250.084 Y249.872
G01 X250.088 Y249.880
G01 X250.090 Y249.888
G01 X250.093 Y249.897
G01 X250.094 Y249.905
G01 X250.095 Y249.912
G01 X250.096 Y249.920
G01 X250.096 Y249.928
G01 X250.096 Y249.935
G01 X250.095 Y249.943
G01 X250.093 Y249.949
G01 X250.091 Y249.956
G01 X250.089 Y249.962
G01 X250.086 Y249.969
G01 X250.083 Y249.974
G01 X250.080 Y249.979
G01 X250.076 Y249.984
G01 X250.072 Y249.989
G01 X250.068 Y249.993
G01 X250.064 Y249.996
G01 X250.059 Y250.000
G01 X250.054 Y250.002
G01 X250.049 Y250.005
G01 X250.044 Y250.006
G01 X250.039 Y250.008
G01 X250.034 Y250.008
G01 X250.029 Y250.009
G01 X250.025 Y250.009
G01 X250.020 Y250.008
G01 X250.015 Y250.007
G01 X250.011 Y250.006
G01 X250.006 Y250.004
G01 X250.002 Y250.001
G01 X250.000 Y250.000
G01 X250.015 Y250.009
G01 X250.031 Y250.017
G01 X250.047 Y250.023
G01 X250.064 Y250.028
G01 X250.082 Y250.031
G01 X250.100 Y250.033
G01 X250.119 Y250.032
G01 X250.137 Y250.030
G01 X250.156 Y250.026
G01 X250.174 Y250.021
G01 X250.193 Y250.013
G01 X250.211 Y250.004
G01 X250.228 Y249.993
G01 X250.245 Y249.981
G01 X250.261 Y249.967
G01 X250.276 Y249.951
G01 X250.291 Y249.933
G01 X250.304 Y249.914
G01 X250.316 Y249.894
G01 X250.327 Y249.872
G01 X250.336 Y249.849
G01 X250.344 Y249.825
G01 X250.350 Y249.800
G01 X250.355 Y249.773
G01 X250.358 Y249.746
G01 X250.358 Y249.718
G01 X250.357 Y249.689
G01 X250.354 Y249.660
G01 X250.349 Y249.630
G01 X250.342 Y249.600
G01 X250.333 Y249.570
G01 X250.321 Y249.540
G01 X250.308 Y249.509
G01 X250.292 Y249.480
G01 X250.274 Y249.450
G01 X250.254 Y249.421
G01 X250.252 Y249.419
G01 X260.824 Y225.074
G01 X259.760 Y224.116
G01 X258.628 Y223.203
G01 X257.429 Y222.341
G01 X256.167 Y221.532
G01 X256.103 Y221.494
G01 X250.031 Y249.856
G01 X250.036 Y249.865
G01 X250.040 Y249.875
G01 X250.043 Y249.885
G01 X250.045 Y249.895
G01 X250.047 Y249.905
G01 X250.047 Y249.915
G01 X250.047 Y249.924
G01 X250.046 Y249.934
G01 X250.044 Y249.943
G01 X250.041 Y249.951
G01 X250.038 Y249.959
G01 X250.034 Y249.967
G01 X250.029 Y249.974
G01 X250.024 Y249.981
G01 X250.018 Y249.987
G01 X250.012 Y249.992
G01 X250.005 Y249.997
G01 X250.000 Y250.000
G01 X250.046 Y249.972
G01 X250.090 Y249.939
G01 X250.131 Y249.903
G01 X250.167 Y249.862
G01 X250.201 Y249.817
G01 X250.230 Y249.769
G01 X250.254 Y249.718
G01 X250.275 Y249.664
G01 X250.290 Y249.607
G01 X250.300 Y249.548
G01 X250.306 Y249.487
G01 X250.306 Y249.425
G01 X250.300 Y249.362
G01 X250.289 Y249.298
G01 X250.272 Y249.233
G01 X250.250 Y249.169
G01 X250.222 Y249.105
G01 X250.188 Y249.042
G01 X250.149 Y248.980
G01 X250.104 Y248.920
G01 X250.060 Y248.869
G01 X251.623 Y219.318
G01 X250.117 Y218.788
G01 X248.563 Y218.332
G01 X246.965 Y217.954
G01 X246.125 Y217.791
G01 X249.983 Y249.861
G01 X249.991 Y249.868
G01 X249.997 Y249.877
G01 X250.003 Y249.885
G01 X250.008 Y249.894
G01 X250.012 Y249.903
G01 X250.016 Y249.912
G01 X250.018 Y249.921
G01 X250.020 Y249.930
G01 X250.020 Y249.939
G01 X250.020 Y249.948
G01 X250.019 Y249.957
G01 X250.018 Y249.965
G01 X250.015 Y249.973
G01 X250.012 Y249.981
G01 X250.008 Y249.989
G01 X250.003 Y249.996
G01 X250.000 Y250.000
G01 X250.033 Y249.956
G01 X250.062 Y249.909
G01 X250.087 Y249.859
G01 X250.106 Y249.806
G01 X250.121 Y249.751
G01 X250.130 Y249.695
G01 X250.134 Y249.637
G01 X250.133 Y249.578
G01 X250.126 Y249.519
G01 X250.113 Y249.459
G01 X250.095 Y249.399
G01 X250.072 Y249.340
G01 X250.043 Y249.283
G01 X250.008 Y249.226
G01 X249.968 Y249.171
G01 X249.922 Y249.119
G01 X249.871 Y249.069
G01 X249.816 Y249.022
G01 X249.755 Y248.979
G01 X249.716 Y248.954
G01 X241.131 Y217.297
G01 X239.387 Y217.307
G01 X237.622 Y217.411
G01 X235.842 Y217.610
G01 X235.570 Y217.649
G01 X249.953 Y249.895
G01 X249.961 Y249.900
G01 X249.969 Y249.906
G01 X249.976 Y249.912
G01 X249.982 Y249.919
G01 X249.987 Y249.926
G01 X249.992 Y249.934
G01 X249.996 Y249.942
G01 X249.999 Y249.950
G01 X250.001 Y249.958
G01 X250.002 Y249.966
G01 X250.003 Y249.975
G01 X250.003 Y249.983
G01 X250.002 Y249.991
G01 X250.000 Y249.999
G01 X250.000 Y250.000
G01 X250.014 Y249.941
G01 X250.021 Y249.880
G01 X250.023 Y249.819
G01 X250.019 Y249.757
G01 X250.009 Y249.695
G01 X249.993 Y249.634
G01 X249.971 Y249.574
G01 X249.943 Y249.516
G01 X249.909 Y249.459
G01 X249.869 Y249.405
G01 X249.824 Y249.353
G01 X249.774 Y249.304
G01 X249.718 Y249.259
G01 X249.658 Y249.218
G01 X249.593 Y249.181
G01 X249.523 Y249.149
G01 X249.458 Y249.125
G01 X230.658 Y218.738
G01 X228.871 Y219.323
G01 X227.094 Y220.009
G01 X225.539 Y220.699
G01 X249.930 Y249.916
G01 X249.938 Y249.917
G01 X249.945 Y249.919
G01 X249.952 Y249.922
G01 X249.959 Y249.925
G01 X249.965 Y249.928
G01 X249.971 Y249.932
G01 X249.977 Y249.936
G01 X249.981 Y249.941
G01 X249.986 Y249.946
G01 X249.990 Y249.951
G01 X249.993 Y249.956
G01 X249.996 Y249.962
G01 X249.998 Y249.968
G01 X250.000 Y249.974
G01 X250.001 Y249.979
G01 X250.001 Y249.985
G01 X250.001 Y249.991
G01 X250.001 Y249.997
G01 X250.000 Y250.000
G01 X250.007 Y249.954
G01 X250.010 Y249.908
G01 X250.009 Y249.861
G01 X250.003 Y249.815
G01 X249.992 Y249.768
G01 X249.977 Y249.723
G01 X249.957 Y249.678
G01 X249.933 Y249.635
G01 X249.904 Y249.594
G01 X249.872 Y249.555
G01 X249.835 Y249.518
G01 X249.794 Y249.483
G01 X249.750 Y249.452
G01 X249.702 Y249.423
G01 X249.651 Y249.399
G01 X249.597 Y249.378
G01 X249.540 Y249.361
G01 X249.480 Y249.348
G01 X249.418 Y249.339
G01 X249.354 Y249.335
G01 X249.288 Y249.336
G01 X249.287 Y249.336
G01 X221.138 Y223.148
G01 X219.482 Y224.282
G01 X217.869 Y225.514
G01 X216.808 Y226.400
G01 X249.916 Y249.940
G01 X249.922 Y249.939
G01 X249.929 Y249.938
G01 X249.935 Y249.938
G01 X249.942 Y249.938
G01 X249.948 Y249.939
G01 X249.954 Y249.940
G01 X249.959 Y249.942
G01 X249.965 Y249.944
G01 X249.970 Y249.946
G01 X249.975 Y249.949
G01 X249.979 Y249.952
G01 X249.983 Y249.955
G01 X249.987 Y249.959
G01 X249.990 Y249.963
G01 X249.993 Y249.967
G01 X249.995 Y249.971
G01 X249.997 Y249.976
G01 X249.999 Y249.980
G01 X250.000 Y249.985
G01 X250.000 Y249.990
G01 X250.000 Y249.994
G01 X250.000 Y249.999
G01 X250.000 Y250.000
G01 X250.003 Y249.963
G01 X250.003 Y249.925
G01 X249.999 Y249.888
G01 X249.992 Y249.851
G01 X249.980 Y249.814
G01 X249.965 Y249.779
G01 X249.947 Y249.744
G01 X249.925 Y249.711
G01 X249.900 Y249.679
G01 X249.872 Y249.649
G01 X249.840 Y249.622
G01 X249.805 Y249.596
G01 X249.768 Y249.574
G01 X249.728 Y249.554
G01 X249.685 Y249.537
G01 X249.640 Y249.523
G01 X249.594 Y249.512
G01 X249.545 Y249.505
G01 X249.494 Y249.502
G01 X249.443 Y249.503
G01 X249.390 Y249.507
G01 X249.336 Y249.516
G01 X249.282 Y249.528
G01 X249.228 Y249.545
G01 X249.191 Y249.559
G01 X213.212 Y229.929
G01 X211.832 Y231.546
G01 X210.523 Y233.250
G01 X209.890 Y234.144
G01 X249.909 Y249.964
G01 X249.915 Y249.962
G01 X249.922 Y249.960
G01 X249.929 Y249.959
G01 X249.935 Y249.958
G01 X249.941 Y249.958
G01 X249.947 Y249.958
G01 X249.953 Y249.959
G01 X249.959 Y249.961
G01 X249.965 Y249.962
G01 X249.970 Y249.965
G01 X249.975 Y249.967
G01 X249.979 Y249.970
G01 X249.984 Y249.974
G01 X249.987 Y249.977
G01 X249.991 Y249.981
G01 X249.994 Y249.986
G01 X249.996 Y249.990
G01 X249.998 Y249.995
G01 X250.000 Y250.000
G01 X249.988 Y249.961
G01 X249.971 Y249.923
G01 X249.951 Y249.887
G01 X249.928 Y249.853
G01 X249.901 Y249.821
G01 X249.871 Y249.792
G01 X249.837 Y249.765
G01 X249.801 Y249.740
G01 X249.762 Y249.719
G01 X249.721 Y249.702
G01 X249.677 Y249.687
G01 X249.631 Y249.676
G01 X249.584 Y249.669
G01 X249.535 Y249.666
G01 X249.485 Y249.667
G01 X249.434 Y249.673
G01 X249.382 Y249.682
G01 X249.330 Y249.696
G01 X249.278 Y249.714
G01 X249.226 Y249.737
G01 X249.175 Y249.764
G01 X249.160 Y249.773
G01 X207.284 Y238.455
G01 X206.291 Y240.460
G01 X205.394 Y242.536
G01 X205.092 Y243.310
G01 X249.908 Y249.986
G01 X249.911 Y249.982
G01 X249.915 Y249.979
G01 X249.918 Y249.975
G01 X249.922 Y249.972
G01 X249.925 Y249.969
G01 X249.929 Y249.966
G01 X249.933 Y249.964
G01 X249.937 Y249.962
G01 X249.941 Y249.960
G01 X249.945 Y249.959
G01 X249.949 Y249.958
G01 X249.952 Y249.957
G01 X249.956 Y249.956
G01 X249.960 Y249.956
G01 X249.964 Y249.956
G01 X249.967 Y249.956
G01 X249.971 Y249.956
G01 X249.974 Y249.957
G01 X249.978 Y249.958
G01 X249.981 Y249.959
G01 X249.984 Y249.960
G01 X249.986 Y249.962
G01 X249.989 Y249.963
G01 X249.991 Y249.965
G01 X249.993 Y249.967
G01 X249.995 Y249.969
G01 X249.997 Y249.971
G01 X249.999 Y249.974
G01 X250.000 Y249.976
G01 X250.001 Y249.978
G01 X250.002 Y249.981
G01 X250.002 Y249.983
G01 X250.003 Y249.986
G01 X250.003 Y249.988
G01 X250.003 Y249.991
G01 X250.003 Y249.993
G01 X250.002 Y249.995
G01 X250.001 Y249.998
G01 X250.000 Y250.000
G01 X250.004 Y249.992
G01 X250.007 Y249.983
G01 X250.009 Y249.975
G01 X250.011 Y249.966
G01 X250.011 Y249.956
G01 X250.011 Y249.947
G01 X250.010 Y249.938
G01 X250.008 Y249.928
G01 X250.005 Y249.919
G01 X250.001 Y249.910
G01 X249.996 Y249.901
G01 X249.990 Y249.892
G01 X249.984 Y249.884
G01 X249.976 Y249.876
G01 X249.968 Y249.869
G01 X249.959 Y249.862
G01 X249.950 Y249.855
G01 X249.939 Y249.850
G01 X249.928 Y249.845
G01 X249.916 Y249.840
G01 X249.904 Y249.837
G01 X249.891 Y249.834
G01 X249.878 Y249.832
G01 X249.864 Y249.832
G01 X249.850 Y249.832
G01 X249.836 Y249.833
G01 X249.821 Y249.835
G01 X249.806 Y249.838
G01 X249.791 Y249.843
G01 X249.776 Y249.848
G01 X249.762 Y249.854
G01 X249.747 Y249.862
G01 X249.732 Y249.871
G01 X249.718 Y249.880
G01 X249.704 Y249.891
G01 X249.690 Y249.903
G01 X249.677 Y249.916
G01 X249.665 Y249.930
G01 X249.653 Y249.945
G01 X249.642 Y249.962
G01 X249.631 Y249.979
G01 X249.628 Y249.985
G01 X203.568 Y248.111
G01 X203.043 Y250.395
G01 X202.631 Y252.727
G01 X202.548 Y253.307
G01 X249.913 Y250.006
G01 X249.915 Y250.010
G01 X249.917 Y250.014
G01 X249.919 Y250.018
G01 X249.922 Y250.021
G01 X249.924 Y250.025
G01 X249.927 Y250.028
G01 X249.930 Y250.031
G01 X249.933 Y250.033
G01 X249.936 Y250.036
G01 X249.940 Y250.038
G01 X249.943 Y250.040
G01 X249.946 Y250.042
G01 X249.950 Y250.043
G01 X249.953 Y250.044
G01 X249.956 Y250.045
G01 X249.960 Y250.046
G01 X249.963 Y250.047
G01 X249.966 Y250.047
G01 X249.970 Y250.047
G01 X249.973 Y250.047
G01 X249.976 Y250.047
G01 X249.979 Y250.047
G01 X249.982 Y250.046
G01 X249.985 Y250.046
G01 X249.987 Y250.045
G01 X249.990 Y250.044
G01 X249.992 Y250.042
G01 X249.995 Y250.041
G01 X249.997 Y250.040
G01 X249.999 Y250.038
G01 X250.001 Y250.037
G01 X250.002 Y250.035
G01 X250.004 Y250.033
G01 X250.005 Y250.031
G01 X250.006 Y250.029
G01 X250.007 Y250.027
G01 X250.008 Y250.025
G01 X250.009 Y250.023
G01 X250.009 Y250.021
G01 X250.010 Y250.019
G01 X250.010 Y250.017
G01 X250.010 Y250.016
G01 X250.010 Y250.014
G01 X250.009 Y250.012
G01 X250.009 Y250.010
G01 X250.008 Y250.009
G01 X250.007 Y250.007
G01 X250.006 Y250.006
G01 X250.005 Y250.004
G01 X250.004 Y250.003
G01 X250.003 Y250.002
G01 X250.002 Y250.001
G01 X250.000 Y250.000
G01 X250.006 Y250.003
G01 X250.012 Y250.007
G01 X250.017 Y250.012
G01 X250.022 Y250.017
G01 X250.026 Y250.022
G01 X250.030 Y250.029
G01 X250.033 Y250.035
G01 X250.036 Y250.042
G01 X250.038 Y250.049
G01 X250.040 Y250.056
G01 X250.041 Y250.064
G01 X250.041 Y250.072
G01 X250.040 Y250.080
G01 X250.039 Y250.088
G01 X250.037 Y250.097
G01 X250.035 Y250.105
G01 X250.032 Y250.113
G01 X250.027 Y250.121
G01 X250.023 Y250.129
G01 X250.017 Y250.137
G01 X250.011 Y250.145
G01 X250.004 Y250.152
G01 X249.996 Y250.159
G01 X249.988 Y250.165
G01 X249.979 Y250.171
G01 X249.970 Y250.177
G01 X249.959 Y250.182
G01 X249.949 Y250.186
G01 X249.938 Y250.190
G01 X249.926 Y250.193
G01 X249.914 Y250.196
G01 X249.901 Y250.197
G01 X249.888 Y250.198
G01 X249.875 Y250.199
G01 X249.861 Y250.198
G01 X249.847 Y250.196
G01 X249.834 Y250.194
G01 X249.819 Y250.190
G01 X249.805 Y250.186
G01 X249.791 Y250.181
G01 X249.777 Y250.175
G01 X249.763 Y250.167
G01 X249.749 Y250.159
G01 X249.736 Y250.150
G01 X249.723 Y250.140
G01 X249.710 Y250.129
G01 X249.697 Y250.117
G01 X249.686 Y250.104
G01 X249.674 Y250.091
G01 X249.663 Y250.076
G01 X249.653 Y250.061
G01 X202.131 Y258.326
G01 X202.121 Y260.772
G01 X202.236 Y263.238
G01 X202.263 Y263.594
G01 X249.912 Y250.025
G01 X249.916 Y250.029
G01 X249.919 Y250.032
G01 X249.923 Y250.035
G01 X249.927 Y250.037
G01 X249.931 Y250.040
G01 X249.935 Y250.042
G01 X249.939 Y250.044
G01 X249.943 Y250.045
G01 X249.947 Y250.046
G01 X249.951 Y250.047
G01 X249.955 Y250.048
G01 X249.959 Y250.048
G01 X249.963 Y250.048
G01 X249.967 Y250.048
G01 X249.970 Y250.048
G01 X249.974 Y250.047
G01 X249.977 Y250.046
G01 X249.981 Y250.045
G01 X249.984 Y250.044
G01 X249.986 Y250.042
G01 X249.989 Y250.040
G01 X249.992 Y250.039
G01 X249.994 Y250.037
G01 X249.996 Y250.034
G01 X249.998 Y250.032
G01 X249.999 Y250.030
G01 X250.001 Y250.028
G01 X250.002 Y250.025
G01 X250.003 Y250.023
G01 X250.004 Y250.020
G01 X250.004 Y250.018
G01 X250.004 Y250.015
G01 X250.004 Y250.013
G01 X250.004 Y250.010
G01 X250.004 Y250.008
G01 X250.003 Y250.006
G01 X250.002 Y250.003
G01 X250.001 Y250.001
G01 X250.000 Y250.000
G01 X250.011 Y250.017
G01 X250.019 Y250.035
G01 X250.027 Y250.054
G01 X250.032 Y250.074
G01 X250.035 Y250.094
G01 X250.037 Y250.115
G01 X250.036 Y250.136
G01 X250.034 Y250.158
G01 X250.029 Y250.179
G01 X250.023 Y250.200
G01 X250.014 Y250.221
G01 X250.003 Y250.242
G01 X249.991 Y250.262
G01 X249.976 Y250.281
G01 X249.960 Y250.299
G01 X249.942 Y250.317
G01 X249.922 Y250.333
G01 X249.900 Y250.348
G01 X249.876 Y250.362
G01 X249.851 Y250.374
G01 X249.825 Y250.385
G01 X249.797 Y250.394
G01 X249.768 Y250.401
G01 X249.737 Y250.406
G01 X249.706 Y250.409
G01 X249.674 Y250.410
G01 X249.641 Y250.408
G01 X249.607 Y250.404
G01 X249.573 Y250.398
G01 X249.538 Y250.390
G01 X249.504 Y250.379
G01 X249.469 Y250.366
G01 X249.435 Y250.350
G01 X249.401 Y250.331
G01 X249.367 Y250.310
G01 X249.334 Y250.287
G01 X249.314 Y250.271
G01 X202.921 Y268.585
G01 X203.444 Y271.074
G01 X204.100 Y273.556
G01 X204.139 Y273.690
G01 X249.923 Y250.040
G01 X249.928 Y250.042
G01 X249.932 Y250.044
G01 X249.936 Y250.046
G01 X249.941 Y250.047
G01 X249.945 Y250.048
G01 X249.950 Y250.049
G01 X249.954 Y250.049
G01 X249.958 Y250.049
G01 X249.962 Y250.049
G01 X249.966 Y250.049
G01 X249.970 Y250.048
G01 X249.974 Y250.047
G01 X249.977 Y250.046
G01 X249.981 Y250.045
G01 X249.984 Y250.043
G01 X249.987 Y250.041
G01 X249.990 Y250.039
G01 X249.992 Y250.037
G01 X249.994 Y250.035
G01 X249.996 Y250.032
G01 X249.998 Y250.030
G01 X250.000 Y250.027
G01 X250.001 Y250.024
G01 X250.002 Y250.021
G01 X250.002 Y250.019
G01 X250.003 Y250.016
G01 X250.003 Y250.013
G01 X250.003 Y250.010
G01 X250.003 Y250.007
G01 X250.002 Y250.005
G01 X250.001 Y250.002
G01 X250.000 Y250.000
G01 X250.010 Y250.021
G01 X250.017 Y250.043
G01 X250.022 Y250.066
G01 X250.026 Y250.090
G01 X250.026 Y250.114
G01 X250.025 Y250.138
G01 X250.021 Y250.162
G01 X250.015 Y250.186
G01 X250.007 Y250.210
G01 X249.996 Y250.233
G01 X249.983 Y250.256
G01 X249.968 Y250.278
G01 X249.950 Y250.299
G01 X249.931 Y250.319
G01 X249.909 Y250.338
G01 X249.885 Y250.355
G01 X249.860 Y250.371
G01 X249.832 Y250.385
G01 X249.803 Y250.397
G01 X249.773 Y250.408
G01 X249.741 Y250.416
G01 X249.707 Y250.422
G01 X249.673 Y250.425
G01 X249.637 Y250.426
G01 X249.601 Y250.425
G01 X249.564 Y250.421
G01 X249.526 Y250.415
G01 X249.488 Y250.405
G01 X249.450 Y250.393
G01 X249.412 Y250.379
G01 X205.797 Y278.441
G01 X206.849 Y280.860
G01 X208.001 Y283.184
G01 X249.936 Y250.051
G01 X249.941 Y250.052
G01 X249.946 Y250.052
G01 X249.950 Y250.053
G01 X249.955 Y250.053
G01 X249.960 Y250.052
G01 X249.964 Y250.052
G01 X249.968 Y250.051
G01 X249.972 Y250.050
G01 X249.976 Y250.048
G01 X249.980 Y250.046
G01 X249.983 Y250.044
G01 X249.986 Y250.042
G01 X249.989 Y250.040
G01 X249.992 Y250.037
G01 X249.994 Y250.035
G01 X249.996 Y250.032
G01 X249.998 Y250.029
G01 X250.000 Y250.026
G01 X250.001 Y250.023
G01 X250.002 Y250.020
G01 X250.002 Y250.016
G01 X250.002 Y250.013
G01 X250.002 Y250.010
G01 X250.002 Y250.007
G01 X250.001 Y250.004
G01 X250.000 Y250.001
G01 X250.000 Y250.000
G01 X250.010 Y250.028
G01 X250.017 Y250.057
G01 X250.021 Y250.086
G01 X250.023 Y250.116
G01 X250.021 Y250.146
G01 X250.017 Y250.177
G01 X250.010 Y250.207
G01 X250.000 Y250.237
G01 X249.987 Y250.266
G01 X249.971 Y250.295
G01 X249.952 Y250.322
G01 X249.930 Y250.348
G01 X249.906 Y250.373
G01 X249.879 Y250.396
G01 X249.850 Y250.418
G01 X249.818 Y250.437
G01 X249.784 Y250.455
G01 X249.748 Y250.470
G01 X249.710 Y250.482
G01 X249.670 Y250.492
G01 X249.629 Y250.499
G01 X249.586 Y250.503
G01 X249.542 Y250.504
G01 X249.497 Y250.502
G01 X249.475 Y250.499
G01 X210.555 Y287.519
G01 X212.107 Y289.763
G01 X213.619 Y291.738
G01 X249.949 Y250.058
G01 X249.954 Y250.058
G01 X249.959 Y250.058
G01 X249.964 Y250.057
G01 X249.968 Y250.055
G01 X249.972 Y250.054
G01 X249.977 Y250.052
G01 X249.980 Y250.050
G01 X249.984 Y250.048
G01 X249.987 Y250.045
G01 X249.990 Y250.043
G01 X249.993 Y250.040
G01 X249.995 Y250.037
G01 X249.997 Y250.034
G01 X249.999 Y250.030
G01 X250.001 Y250.027
G01 X250.002 Y250.024
G01 X250.002 Y250.020
G01 X250.003 Y250.017
G01 X250.003 Y250.013
G01 X250.003 Y250.010
G01 X250.002 Y250.006
G01 X250.001 Y250.003
G01 X250.000 Y250.000
G01 X250.020 Y250.053
G01 X250.035 Y250.108
G01 X250.045 Y250.164
G01 X250.049 Y250.222
G01 X250.047 Y250.280
G01 X250.040 Y250.338
G01 X250.027 Y250.396
G01 X250.009 Y250.454
G01 X249.985 Y250.510
G01 X249.955 Y250.565
G01 X249.921 Y250.619
G01 X249.880 Y250.670
G01 X249.835 Y250.719
G01 X249.784 Y250.764
G01 X249.729 Y250.806
G01 X249.669 Y250.845
G01 X249.605 Y250.879
G01 X249.537 Y250.910
G01 X249.464 Y250.935
G01 X249.388 Y250.955
G01 X249.309 Y250.970
G01 X249.294 Y250.973
G01 X216.943 Y295.513
G01 X218.949 Y297.489
G01 X220.724 Y299.082
G01 X249.959 Y250.069
G01 X249.965 Y250.067
G01 X249.970 Y250.064
G01 X249.975 Y250.061
G01 X249.979 Y250.058
G01 X249.983 Y250.055
G01 X249.987 Y250.052
G01 X249.991 Y250.048
G01 X249.994 Y250.044
G01 X249.996 Y250.040
G01 X249.998 Y250.035
G01 X250.000 Y250.031
G01 X250.001 Y250.026
G01 X250.002 Y250.022
G01 X250.003 Y250.017
G01 X250.003 Y250.013
G01 X250.002 Y250.008
G01 X250.001 Y250.004
G01 X250.000 Y250.000
G01 X250.020 Y250.068
G01 X250.034 Y250.137
G01 X250.041 Y250.208
G01 X250.041 Y250.279
G01 X250.034 Y250.351
G01 X250.020 Y250.423
G01 X249.999 Y250.494
G01 X249.972 Y250.564
G01 X249.937 Y250.632
G01 X249.895 Y250.698
G01 X249.847 Y250.761
G01 X249.793 Y250.821
G01 X249.732 Y250.877
G01 X249.666 Y250.930
G01 X249.594 Y250.977
G01 X249.516 Y251.020
G01 X249.502 Y251.027
G01 X224.679 Y302.188
G01 X227.079 Y303.817
G01 X229.029 Y305.016
G01 X249.973 Y250.071
G01 X249.978 Y250.067
G01 X249.983 Y250.062
G01 X249.987 Y250.058
G01 X249.991 Y250.053
G01 X249.994 Y250.048
G01 X249.997 Y250.042
G01 X249.999 Y250.037
G01 X250.001 Y250.031
G01 X250.002 Y250.026
G01 X250.003 Y250.020
G01 X250.003 Y250.015
G01 X250.002 Y250.009
G01 X250.001 Y250.004
G01 X250.000 Y250.000
G01 X250.039 Y250.146
G01 X250.063 Y250.295
G01 X250.072 Y250.447
G01 X250.067 Y250.600
G01 X250.047 Y250.753
G01 X250.012 Y250.905
G01 X249.962 Y251.055
G01 X249.898 Y251.202
G01 X249.819 Y251.346
G01 X249.726 Y251.483
G01 X249.619 Y251.615
G01 X249.499 Y251.738
G01 X233.469 Y307.375
G01 X236.192 Y308.593
G01 X238.233 Y309.400
G01 X249.986 Y250.070
G01 X249.990 Y250.066
G01 X249.994 Y250.061
G01 X249.997 Y250.056
G01 X250.000 Y250.050
G01 X250.002 Y250.045
G01 X250.004 Y250.040
G01 X250.005 Y250.034
G01 X250.006 Y250.029
G01 X250.006 Y250.023
G01 X250.005 Y250.018
G01 X250.005 Y250.013
G01 X250.003 Y250.007
G01 X250.001 Y250.002
G01 X250.000 Y250.000
G01 X250.059 Y250.132
G01 X250.105 Y250.270
G01 X250.137 Y250.413
G01 X250.155 Y250.558
G01 X250.160 Y250.707
G01 X250.150 Y250.856
G01 X250.126 Y251.006
G01 X250.087 Y251.156
G01 X250.034 Y251.304
G01 X249.967 Y251.449
G01 X249.885 Y251.590
G01 X249.804 Y251.707
G01 X243.010 Y310.965
G01 X245.978 Y311.722
G01 X248.039 Y312.155
G01 X249.998 Y250.074
G01 X250.001 Y250.068
G01 X250.004 Y250.062
G01 X250.007 Y250.057
G01 X250.008 Y250.051
G01 X250.010 Y250.045
G01 X250.010 Y250.039
G01 X250.011 Y250.033
G01 X250.010 Y250.027
G01 X250.009 Y250.022
G01 X250.008 Y250.016
G01 X250.006 Y250.011
G01 X250.004 Y250.006
G01 X250.001 Y250.001
G01 X250.000 Y250.000
G01 X250.076 Y250.119
G01 X250.140 Y250.244
G01 X250.191 Y250.376
G01 X250.230 Y250.514
G01 X250.256 Y250.655
G01 X250.268 Y250.801
G01 X250.267 Y250.948
G01 X250.252 Y251.097
G01 X250.222 Y251.247
G01 X250.178 Y251.396
G01 X250.121 Y251.543
G01 X250.078 Y251.633
G01 X253.008 Y312.903
G01 X256.138 Y313.166
G01 X258.155 Y313.252
G01 X257.741 Y313.783
G01 X254.196 Y290.759
G01 X250.213 Y252.454
G01 X250.023 Y250.475
G01 X250.093 Y250.959
G01 X250.161 Y251.255
G01 X250.966 Y255.422
G01 X252.179 Y259.503
G01 X252.538 Y260.488
G01 X263.432 Y307.502
G01 X263.794 Y313.718
G01 X263.180 Y313.186
G01 X266.387 Y312.935
G01 X268.308 Y312.708
G01 X269.974 Y312.713
G01 X270.642 Y309.446
G01 X267.265 Y294.976
G01 X254.855 Y262.415
G01 X252.089 Y256.226
G01 X251.206 Y253.828
G01 X250.771 Y252.944
G01 X250.426 Y252.028
G01 X250.418 Y252.002
G01 X250.638 Y252.452
G01 X250.787 Y252.704
G01 X251.422 Y254.122
G01 X252.197 Y255.480
G01 X253.107 Y256.769
G01 X253.862 Y257.668
G01 X263.174 Y273.500
G01 X274.719 Y297.440
G01 X277.003 Y307.151
G01 X276.059 Y310.937
G01 X273.689 Y311.909
G01 X273.258 Y311.849
G01 X276.459 Y311.082
G01 X278.243 Y310.579
G01 X281.268 Y309.284
G01 X281.396 Y309.225
G01 X282.968 Y305.750
G01 X281.973 Y298.820
G01 X274.905 Y284.623
G01 X261.664 Y266.044
G01 X255.987 Y259.148
G01 X255.016 Y257.817
G01 X253.964 Y256.901
G01 X253.016 Y255.903
G01 X252.176 Y254.831
G01 X251.451 Y253.694
G01 X251.259 Y253.349
G01 X251.616 Y253.731
G01 X251.827 Y253.927
G01 X252.572 Y254.888
G01 X253.416 Y255.782
G01 X254.352 Y256.604
G01 X255.375 Y257.345
G01 X256.166 Y257.827
G01 X261.460 Y263.163
G01 X265.003 Y266.210
G01 X279.144 Y281.864
G01 X286.875 Y294.337
G01 X288.447 Y301.136
G01 X288.534 Y301.616
G01 X287.375 Y305.556
G01 X287.219 Y306.021
G01 X284.609 Y308.088
G01 X283.731 Y308.738
G01 X283.001 Y308.969
G01 X286.114 Y307.693
G01 X287.728 Y306.957
G01 X290.353 Y304.868
G01 X291.810 Y303.615
G01 X293.178 Y300.092
G01 X293.538 Y299.044
G01 X292.746 Y293.637
G01 X292.539 Y292.588
G01 X287.242 Y283.794
G01 X286.744 Y283.056
G01 X274.071 Y270.452
G01 X263.153 Y261.882
G01 X260.023 Y259.990
G01 X257.116 Y257.825
G01 X255.735 Y256.631
G01 X254.852 Y256.201
G01 X254.027 Y255.702
G01 X253.264 Y255.139
G01 X252.566 Y254.516
G01 X252.478 Y254.429
G01 X252.952 Y254.716
G01 X253.205 Y254.847
G01 X253.940 Y255.366
G01 X254.732 Y255.823
G01 X255.577 Y256.214
G01 X256.471 Y256.534
G01 X256.719 Y256.607
G01 X259.092 Y258.103
G01 X261.624 Y259.378
G01 X263.214 Y260.032
G01 X273.817 Y266.305
G01 X274.197 Y266.504
G01 X287.680 Y276.612
G01 X295.127 Y285.314
G01 X295.443 Y285.723
G01 X297.577 Y291.334
G01 X297.990 Y292.619
G01 X297.606 Y296.652
G01 X297.373 Y298.283
G01 X295.480 Y301.149
G01 X293.867 Y303.359
G01 X292.189 Y304.649
G01 X295.137 Y302.885
G01 X296.559 Y301.959
G01 X298.696 Y299.252
G01 X300.681 Y296.461
G01 X300.970 Y296.028
G01 X301.762 Y292.323
G01 X302.145 Y289.967
G01 X300.858 Y285.158
G01 X300.260 Y283.334
G01 X295.058 Y276.797
G01 X294.090 Y275.709
G01 X282.138 Y267.329
G01 X269.234 Y261.014
G01 X264.604 Y259.343
G01 X261.220 Y257.785
G01 X259.630 Y257.407
G01 X258.107 Y256.894
G01 X256.660 Y256.252
G01 X255.872 Y255.830
G01 X255.142 Y255.633
G01 X254.447 Y255.380
G01 X253.996 Y255.176
G01 X254.562 Y255.346
G01 X254.841 Y255.411
G01 X255.650 Y255.723
G01 X256.500 Y255.968
G01 X257.387 Y256.142
G01 X258.305 Y256.243
G01 X258.674 Y256.261
G01 X260.836 Y257.040
G01 X263.091 Y257.618
G01 X265.424 Y257.990
G01 X265.780 Y258.027
G01 X273.509 Y260.541
G01 X276.504 Y261.298
G01 X290.303 Y267.287
G01 X300.070 Y274.451
G01 X300.181 Y274.542
G01 X303.660 Y279.590
G01 X304.606 Y281.143
G01 X305.371 Y285.288
G01 X305.676 Y287.664
G01 X304.764 Y291.103
G01 X303.646 Y294.542
G01 X303.479 Y295.005
G01 X301.504 Y297.852
G01 X300.631 Y299.020
G01 X303.342 Y296.799
G01 X304.558 Y295.726
G01 X306.168 Y292.563
G01 X307.600 Y289.354
G01 X308.372 Y287.413
G01 X308.568 Y283.604
G01 X308.535 Y279.867
G01 X308.529 Y279.726
G01 X306.649 Y275.355
G01 X305.623 Y273.307
G01 X300.155 Y268.178
G01 X298.787 Y267.034
G01 X286.835 Y261.463
G01 X274.941 Y258.310
G01 X269.619 Y257.625
G01 X265.139 Y256.635
G01 X263.160 Y256.555
G01 X261.229 Y256.299
G01 X259.633 Y255.946
G01 X258.704 Y255.981
G01 X257.795 Y255.940
G01 X256.914 Y255.826
G01 X256.063 Y255.641
G01 X255.728 Y255.546
G01 X256.361 Y255.580
G01 X256.648 Y255.580
G01 X257.504 Y255.695
G01 X258.386 Y255.739
G01 X259.290 Y255.708
G01 X260.208 Y255.602
G01 X260.571 Y255.540
G01 X262.381 Y255.733
G01 X264.232 Y255.759
G01 X266.111 Y255.616
G01 X266.113 Y255.616
G01 X270.554 Y256.051
G01 X274.465 Y256.084
G01 X286.905 Y257.880
G01 X298.870 Y261.823
G01 X305.314 Y266.293
G01 X306.831 Y267.479
G01 X309.399 Y271.512
G01 X310.704 Y273.866
G01 X311.237 Y277.617
G01 X311.545 Y281.476
G01 X311.553 Y281.652
G01 X310.690 Y285.076
G01 X309.638 Y288.491
G01 X308.478 Y291.677
G01 X308.163 Y292.231
G01 X310.574 Y289.594
G01 X311.577 Y288.414
G01 X312.597 Y284.905
G01 X313.423 Y281.390
G01 X314.057 Y277.879
G01 X314.123 Y277.436
G01 X313.634 Y273.605
G01 X312.928 Y269.889
G01 X312.694 Y268.877
G01 X310.102 Y264.923
G01 X308.356 Y262.595
G01 X302.156 Y258.603
G01 X300.822 Y257.846
G01 X289.027 Y254.822
G01 X276.872 Y254.106
G01 X271.822 Y254.439
G01 X268.745 Y254.405
G01 X266.482 Y254.737
G01 X264.235 Y254.860
G01 X263.364 Y254.851
G01 X262.147 Y255.097
G01 X260.941 Y255.236
G01 X259.752 Y255.270
G01 X259.559 Y255.266
G01 X258.773 Y255.411
G01 X257.998 Y255.492
G01 X257.589 Y255.510
G01 X258.259 Y255.398
G01 X258.540 Y255.336
G01 X259.415 Y255.258
G01 X260.300 Y255.107
G01 X261.193 Y254.880
G01 X262.086 Y254.578
G01 X262.364 Y254.468
G01 X264.036 Y254.306
G01 X265.717 Y253.989
G01 X267.398 Y253.518
G01 X267.785 Y253.386
G01 X271.596 Y253.023
G01 X275.405 Y252.292
G01 X276.014 Y252.141
G01 X287.205 Y251.464
G01 X299.007 Y252.787
G01 X306.759 Y256.033
G01 X307.798 Y256.534
G01 X311.283 Y259.994
G01 X313.399 Y262.389
G01 X314.750 Y265.988
G01 X315.897 Y269.747
G01 X316.138 Y270.666
G01 X316.068 Y274.262
G01 X315.801 Y277.900
G01 X315.334 Y281.569
G01 X315.101 Y282.982
G01 X314.652 Y284.445
G01 X316.706 Y281.440
G01 X317.496 Y280.192
G01 X317.900 Y276.455
G01 X318.102 Y272.753
G01 X318.107 Y269.095
G01 X318.009 Y266.799
G01 X316.868 Y263.073
G01 X315.530 Y259.501
G01 X315.056 Y258.379
G01 X311.948 Y254.904
G01 X309.541 Y252.549
G01 X302.805 Y249.667
G01 X301.126 Y249.060
G01 X289.984 Y248.263
G01 X279.497 Y249.543
G01 X274.409 Y250.821
G01 X271.816 Y251.277
G01 X269.664 Y252.123
G01 X267.486 Y252.761
G01 X265.298 Y253.192
G01 X265.006 Y253.234
G01 X263.883 Y253.713
G01 X262.752 Y254.091
G01 X261.619 Y254.367
G01 X261.370 Y254.415
G01 X260.597 Y254.725
G01 X259.823 Y254.972
G01 X259.492 Y255.057
G01 X260.171 Y254.794
G01 X260.435 Y254.676
G01 X261.397 Y254.449
G01 X262.359 Y254.138
G01 X263.317 Y253.743
G01 X264.264 Y253.263
G01 X265.195 Y252.699
G01 X265.741 Y252.322
G01 X267.805 Y251.739
G01 X269.846 Y250.959
G01 X271.848 Y249.982
G01 X272.319 Y249.720
G01 X277.358 Y248.312
G01 X281.172 Y246.891
G01 X292.323 Y244.812
G01 X302.829 Y245.245
G01 X308.977 Y247.599
G01 X310.355 Y248.216
G01 X313.569 Y251.242
G01 X316.068 Y253.936
G01 X317.577 Y257.367
G01 X318.903 Y260.956
G01 X319.708 Y263.525
G01 X320.020 Y267.189
G01 X320.137 Y270.915
G01 X320.055 Y274.694
G01 X319.991 Y275.836
G01 X321.640 Y272.517
G01 X322.223 Y271.236
G01 X321.999 Y267.382
G01 X321.574 Y263.602
G01 X320.955 Y259.906
G01 X320.148 Y256.304
G01 X320.032 Y255.855
G01 X318.219 Y252.343
G01 X316.234 Y249.022
G01 X315.270 Y247.564
G01 X311.580 Y244.667
G01 X309.062 Y242.938
G01 X302.057 Y241.166
G01 X300.878 Y240.935
G01 X291.012 Y241.699
G01 X281.239 Y244.522
G01 X276.211 Y246.719
G01 X274.206 Y247.442
G01 X271.964 Y248.764
G01 X269.656 Y249.860
G01 X268.034 Y250.482
G01 X266.938 Y251.287
G01 X265.809 Y251.985
G01 X264.654 Y252.576
G01 X263.483 Y253.059
G01 X263.076 Y253.200
G01 X262.342 Y253.671
G01 X261.595 Y254.078
G01 X261.358 Y254.193
G01 X262.016 Y253.777
G01 X262.253 Y253.611
G01 X263.171 Y253.188
G01 X264.075 Y252.684
G01 X264.959 Y252.098
G01 X265.818 Y251.431
G01 X266.646 Y250.685
G01 X267.021 Y250.309
G01 X268.841 Y249.417
G01 X270.611 Y248.348
G01 X272.316 Y247.103
G01 X272.988 Y246.549
G01 X276.904 Y244.599
G01 X279.842 Y242.818
G01 X289.488 Y238.894
G01 X299.431 Y237.064
G01 X306.906 Y238.057
G01 X307.938 Y238.249
G01 X312.000 Y240.565
G01 X314.697 Y242.345
G01 X317.059 Y245.386
G01 X319.273 Y248.642
G01 X320.350 Y250.399
G01 X321.522 Y253.920
G01 X322.514 Y257.557
G01 X323.319 Y261.301
G01 X323.928 Y265.141
G01 X324.102 Y266.583
G01 X325.308 Y263.010
G01 X325.693 Y261.728
G01 X324.832 Y257.858
G01 X323.778 Y254.102
G01 X322.538 Y250.468
G01 X321.123 Y246.966
G01 X319.933 Y244.391
G01 X317.392 Y241.249
G01 X314.717 Y238.343
G01 X313.203 Y236.855
G01 X308.699 Y234.752
G01 X305.759 Y233.609
G01 X297.148 Y233.587
G01 X296.814 Y233.602
G01 X287.803 Y236.385
G01 X279.644 Y240.639
G01 X276.214 Y243.117
G01 X273.159 Y244.945
G01 X271.638 Y246.379
G01 X270.036 Y247.650
G01 X268.366 Y248.756
G01 X267.559 Y249.217
G01 X266.809 Y250.076
G01 X266.018 Y250.860
G01 X265.192 Y251.566
G01 X264.338 Y252.193
G01 X263.460 Y252.741
G01 X263.111 Y252.934
G01 X263.720 Y252.370
G01 X263.923 Y252.165
G01 X264.768 Y251.560
G01 X265.586 Y250.876
G01 X266.370 Y250.115
G01 X267.115 Y249.280
G01 X267.816 Y248.372
G01 X268.025 Y248.073
G01 X269.601 Y246.926
G01 X271.104 Y245.619
G01 X272.521 Y244.159
G01 X273.225 Y243.336
G01 X276.469 Y240.978
G01 X279.302 Y238.505
G01 X287.048 Y233.612
G01 X295.771 Y230.162
G01 X303.935 Y229.472
G01 X308.730 Y230.890
G01 X311.789 Y232.019
G01 X314.826 Y234.541
G01 X317.760 Y237.318
G01 X318.948 Y238.552
G01 X320.855 Y241.783
G01 X322.607 Y245.174
G01 X324.194 Y248.718
G01 X325.604 Y252.406
G01 X326.708 Y255.819
G01 X326.934 Y256.865
G01 X327.666 Y253.102
G01 X327.867 Y251.846
G01 X326.398 Y248.061
G01 X324.748 Y244.423
G01 X322.929 Y240.943
G01 X320.951 Y237.628
G01 X318.828 Y234.484
G01 X318.330 Y233.799
G01 X315.258 Y231.102
G01 X312.090 Y228.665
G01 X310.633 Y227.651
G01 X305.877 Y226.229
G01 X303.326 Y225.633
G01 X295.379 Y226.573
G01 X287.108 Y230.319
G01 X279.909 Y235.497
G01 X276.645 Y238.659
G01 X274.344 Y240.565
G01 X272.860 Y242.408
G01 X271.259 Y244.081
G01 X269.631 Y245.514
G01 X268.866 Y246.654
G01 X268.038 Y247.706
G01 X267.155 Y248.670
G01 X266.223 Y249.541
G01 X265.941 Y249.779
G01 X265.359 Y250.541
G01 X264.742 Y251.246
G01 X264.681 Y251.310
G01 X265.216 Y250.608
G01 X265.379 Y250.373
G01 X266.125 Y249.600
G01 X266.831 Y248.754
G01 X267.491 Y247.838
G01 X268.099 Y246.854
G01 X268.652 Y245.806
G01 X268.727 Y245.649
G01 X270.054 Y244.290
G01 X271.290 Y242.791
G01 X272.422 Y241.159
G01 X273.048 Y240.120
G01 X275.683 Y237.465
G01 X278.106 Y234.531
G01 X278.219 Y234.380
G01 X285.030 Y228.356
G01 X293.054 Y223.678
G01 X301.003 Y221.896
G01 X305.972 Y222.649
G01 X308.576 Y223.208
G01 X312.006 Y225.241
G01 X315.373 Y227.549
G01 X316.931 Y228.730
G01 X319.364 Y231.651
G01 X321.668 Y234.761
G01 X323.830 Y238.053
G01 X325.838 Y241.521
G01 X327.681 Y245.158
G01 X328.460 Y246.864
G01 X328.698 Y242.974
G01 X328.732 Y241.769
G01 X326.679 Y238.156
G01 X324.465 Y234.724
G01 X322.102 Y231.480
G01 X319.604 Y228.430
G01 X316.984 Y225.580
G01 X315.164 Y223.781
G01 X311.590 Y221.633
G01 X307.967 Y219.770
G01 X306.221 Y218.979
G01 X301.000 Y218.500
G01 X298.456 Y218.424
G01 X290.591 Y221.069
G01 X282.908 Y226.674
G01 X277.894 Y232.218
G01 X276.566 Y233.520
G01 X274.822 Y236.241
G01 X272.881 Y238.747
G01 X271.854 Y239.904
G01 X270.968 Y241.535
G01 X269.978 Y243.054
G01 X268.957 Y244.378
G01 X268.490 Y245.490
G01 X267.961 Y246.543
G01 X267.375 Y247.533
G01 X266.737 Y248.456
G01 X266.052 Y249.311
G01 X266.010 Y249.360
G01 X266.445 Y248.532
G01 X266.567 Y248.277
G01 X267.190 Y247.354
G01 X267.761 Y246.366
G01 X268.274 Y245.316
G01 X268.726 Y244.208
G01 X269.102 Y243.075
G01 X270.175 Y241.544
G01 X271.140 Y239.893
G01 X271.989 Y238.128
G01 X272.469 Y236.937
G01 X274.544 Y234.070
G01 X276.385 Y230.972
G01 X276.646 Y230.477
G01 X282.029 Y224.024
G01 X282.405 Y223.524
G01 X289.595 Y217.778
G01 X297.198 Y214.971
G01 X302.195 Y215.099
G01 X304.945 Y215.340
G01 X308.628 Y216.921
G01 X312.284 Y218.784
G01 X314.176 Y219.869
G01 X317.060 Y222.445
G01 X319.842 Y225.233
G01 X322.508 Y228.229
G01 X325.045 Y231.428
G01 X327.439 Y234.824
G01 X328.677 Y236.752
G01 X328.409 Y232.803
G01 X328.295 Y231.668
G01 X325.704 Y228.307
G01 X322.974 Y225.154
G01 X320.122 Y222.215
G01 X317.160 Y219.496
G01 X314.105 Y216.998
G01 X311.209 Y214.889
G01 X307.335 Y213.259
G01 X303.454 Y211.922
G01 X302.106 Y211.525
G01 X296.882 Y211.690
G01 X294.278 Y211.934
G01 X286.876 Y215.578
G01 X280.891 Y221.272
G01 X276.281 Y227.861
G01 X275.689 Y228.618
G01 X274.173 Y231.812
G01 X272.411 Y234.800
G01 X272.032 Y235.369
G01 X271.411 Y237.249
G01 X270.661 Y239.032
G01 X269.791 Y240.708
G01 X269.160 Y241.746
G01 X268.856 Y242.952
G01 X268.482 Y244.108
G01 X268.041 Y245.210
G01 X267.539 Y246.254
G01 X267.044 Y247.130
G01 X267.360 Y246.193
G01 X267.438 Y245.926
G01 X267.917 Y244.875
G01 X268.333 Y243.768
G01 X268.682 Y242.608
G01 X268.960 Y241.400
G01 X269.129 Y240.396
G01 X269.943 Y238.729
G01 X270.636 Y236.962
G01 X271.200 Y235.101
G01 X271.500 Y233.823
G01 X273.051 Y230.814
G01 X274.354 Y227.619
G01 X274.627 Y226.828
G01 X278.654 Y220.257
G01 X279.254 Y219.143
G01 X284.800 Y213.066
G01 X291.929 Y208.961
G01 X297.044 Y208.272
G01 X299.744 Y208.076
G01 X303.679 Y209.091
G01 X307.629 Y210.394
G01 X309.768 Y211.221
G01 X313.061 Y213.351
G01 X316.286 Y215.712
G01 X319.427 Y218.304
G01 X322.470 Y221.122
G01 X325.399 Y224.165
G01 X327.604 Y226.699
G01 X326.827 Y222.756
G01 X326.586 Y221.707
G01 X323.489 Y218.672
G01 X320.282 Y215.872
G01 X316.981 Y213.308
G01 X313.602 Y210.985
G01 X310.160 Y208.903
G01 X306.670 Y207.062
G01 X305.499 Y206.502
G01 X301.296 Y205.565
G01 X297.139 Y204.932
G01 X295.775 Y204.788
G01 X290.291 Y206.095
G01 X288.026 Y206.781
G01 X281.933 Y211.358
G01 X276.900 Y218.125
G01 X273.857 Y224.394
G01 X273.462 Y225.107
G01 X272.489 Y228.372
G01 X271.257 Y231.476
G01 X270.872 Y232.304
G01 X270.542 Y234.249
G01 X270.073 Y236.117
G01 X269.474 Y237.900
G01 X269.008 Y239.030
G01 X268.879 Y240.307
G01 X268.672 Y241.544
G01 X268.391 Y242.737
G01 X268.039 Y243.880
G01 X267.744 Y244.672
G01 X267.921 Y243.645
G01 X267.958 Y243.376
G01 X268.274 Y242.220
G01 X268.520 Y241.018
G01 X268.689 Y239.774
G01 X268.780 Y238.492
G01 X268.795 Y237.656
G01 X269.345 Y235.890
G01 X269.763 Y234.042
G01 X270.045 Y232.120
G01 X270.152 Y230.816
G01 X271.211 Y227.724
G01 X272.010 Y224.488
G01 X272.202 Y223.462
G01 X275.048 Y216.885
G01 X275.649 Y215.236
G01 X280.265 Y208.502
G01 X286.096 Y203.881
G01 X291.235 Y202.333
G01 X293.759 Y201.737
G01 X297.865 Y202.153
G01 X302.031 Y202.860
G01 X304.322 Y203.370
G01 X307.947 Y205.003
G01 X311.539 Y206.881
G01 X315.083 Y209.007
G01 X318.563 Y211.378
G01 X321.963 Y213.994
G01 X325.268 Y216.853
G01 X325.279 Y216.863
G01 X323.999 Y212.991
G01 X323.651 Y212.038
G01 X320.108 Y209.392
G01 X316.487 Y206.999
G01 X312.804 Y204.862
G01 X309.074 Y202.980
G01 X305.315 Y201.353
G01 X301.541 Y199.978
G01 X299.470 Y199.330
G01 X295.096 Y199.030
G01 X290.816 Y199.033
G01 X289.458 Y199.097
G01 X284.104 Y201.238
G01 X282.688 Y201.895
G01 X277.267 Y207.188
G01 X273.241 Y214.530
G01 X271.273 Y220.770
G01 X270.849 Y221.892
G01 X270.382 Y225.167
G01 X269.648 Y228.325
G01 X269.341 Y229.363
G01 X269.296 Y231.338
G01 X269.106 Y233.255
G01 X268.777 Y235.107
G01 X268.489 Y236.279
G01 X268.543 Y237.602
G01 X268.513 Y238.897
G01 X268.402 Y240.157
G01 X268.214 Y241.379
G01 X268.076 Y242.043
G01 X268.100 Y240.948
G01 X268.097 Y240.683
G01 X268.237 Y239.448
G01 X268.299 Y238.177
G01 X268.278 Y236.876
G01 X268.172 Y235.549
G01 X268.091 Y234.905
G01 X268.374 Y233.073
G01 X268.518 Y231.178
G01 X268.519 Y229.231
G01 X268.440 Y227.952
G01 X269.033 Y224.830
G01 X269.359 Y221.603
G01 X269.410 Y220.404
G01 X271.006 Y214.263
G01 X271.276 Y212.914
G01 X274.784 Y205.344
G01 X279.847 Y199.735
G01 X284.987 Y197.168
G01 X286.446 Y196.535
G01 X290.695 Y196.180
G01 X295.062 Y196.119
G01 X296.526 Y196.165
G01 X300.404 Y197.157
G01 X304.295 Y198.404
G01 X308.181 Y199.907
G01 X312.047 Y201.671
G01 X315.877 Y203.696
G01 X319.653 Y205.984
G01 X321.759 Y207.393
G01 X319.989 Y203.653
G01 X319.555 Y202.805
G01 X315.623 Y200.602
G01 X311.646 Y198.669
G01 X307.641 Y197.005
G01 X303.624 Y195.606
G01 X299.613 Y194.471
G01 X295.622 Y193.595
G01 X292.660 Y193.106
G01 X288.235 Y193.422
G01 X283.948 Y194.029
G01 X283.298 Y194.148
G01 X278.203 Y196.936
G01 X276.896 Y197.746
G01 X272.211 Y203.650
G01 X269.226 Y211.414
G01 X268.218 Y217.535
G01 X267.888 Y218.999
G01 X267.893 Y222.233
G01 X267.627 Y225.388
G01 X267.453 Y226.585
G01 X267.686 Y228.555
G01 X267.770 Y230.488
G01 X267.710 Y232.375
G01 X267.599 Y233.541
G01 X267.841 Y234.885
G01 X267.995 Y236.213
G01 X268.063 Y237.518
G01 X268.047 Y238.796
G01 X268.018 Y239.302
G01 X267.879 Y238.161
G01 X267.838 Y237.907
G01 X267.792 Y236.619
G01 X267.661 Y235.307
G01 X267.443 Y233.977
G01 X267.135 Y232.634
G01 X267.014 Y232.192
G01 X267.031 Y230.326
G01 X266.903 Y228.418
G01 X266.627 Y226.478
G01 X266.382 Y225.269
G01 X266.533 Y222.164
G01 X266.415 Y218.991
G01 X266.289 Y217.683
G01 X267.006 Y211.690
G01 X267.105 Y210.043
G01 X269.563 Y202.126
G01 X273.862 Y195.959
G01 X278.702 Y192.773
G01 X280.049 Y191.987
G01 X284.264 Y191.116
G01 X288.634 Y190.526
G01 X290.137 Y190.392
G01 X294.177 Y190.877
G01 X298.262 Y191.619
G01 X302.378 Y192.622
G01 X306.509 Y193.893
G01 X310.638 Y195.433
G01 X314.749 Y197.248
G01 X317.114 Y198.423
G01 X314.874 Y194.876
G01 X314.375 Y194.136
G01 X310.115 Y192.425
G01 X305.846 Y190.994
G01 X301.585 Y189.839
G01 X297.348 Y188.957
G01 X293.151 Y188.343
G01 X289.011 Y187.989
G01 X285.215 Y187.887
G01 X280.794 Y188.877
G01 X276.557 Y190.144
G01 X276.031 Y190.325
G01 X271.182 Y194.105
G01 X270.229 Y194.932
G01 X266.514 Y201.631
G01 X264.913 Y208.793
G01 X264.764 Y214.719
G01 X264.615 Y216.454
G01 X265.060 Y219.600
G01 X265.235 Y222.704
G01 X265.228 Y224.006
G01 X265.731 Y225.939
G01 X266.082 Y227.855
G01 X266.285 Y229.746
G01 X266.338 Y230.864
G01 X266.770 Y232.205
G01 X267.112 Y233.541
G01 X267.364 Y234.867
G01 X267.529 Y236.176
G01 X267.557 Y236.507
G01 X267.246 Y235.346
G01 X267.174 Y235.109
G01 X266.934 Y233.795
G01 X266.605 Y232.470
G01 X266.186 Y231.139
G01 X265.675 Y229.809
G01 X265.570 Y229.564
G01 X265.323 Y227.698
G01 X264.928 Y225.810
G01 X264.383 Y223.909
G01 X263.996 Y222.803
G01 X263.730 Y219.759
G01 X263.196 Y216.681
G01 X262.875 Y215.320
G01 X262.801 Y209.539
G01 X262.663 Y207.674
G01 X264.065 Y199.552
G01 X267.557 Y192.934
G01 X272.039 Y189.166
G01 X273.247 Y188.254
G01 X277.374 Y186.876
G01 X281.689 Y185.759
G01 X283.186 Y185.444
G01 X287.320 Y185.410
G01 X291.534 Y185.629
G01 X295.814 Y186.111
G01 X300.144 Y186.862
G01 X304.508 Y187.887
G01 X308.889 Y189.192
G01 X311.428 Y190.078
G01 X308.746 Y186.778
G01 X308.202 Y186.148
G01 X303.680 Y184.966
G01 X299.186 Y184.071
G01 X294.736 Y183.455
G01 X290.347 Y183.114
G01 X286.035 Y183.038
G01 X281.815 Y183.221
G01 X277.702 Y183.651
G01 X277.281 Y183.710
G01 X272.955 Y185.381
G01 X268.861 Y187.309
G01 X268.498 Y187.498
G01 X264.033 Y192.321
G01 X263.457 Y193.010
G01 X261.019 Y199.411
G01 X260.356 Y206.679
G01 X260.979 Y212.348
G01 X261.071 Y214.280
G01 X261.924 Y217.297
G01 X262.510 Y220.306
G01 X262.688 Y221.662
G01 X263.449 Y223.528
G01 X264.059 Y225.397
G01 X264.520 Y227.259
G01 X264.714 Y228.297
G01 X265.336 Y229.610
G01 X265.867 Y230.930
G01 X266.306 Y232.251
G01 X266.654 Y233.569
G01 X266.689 Y233.720
G01 X266.202 Y232.563
G01 X266.103 Y232.348
G01 X265.666 Y231.036
G01 X265.139 Y229.725
G01 X264.519 Y228.422
G01 X263.807 Y227.132
G01 X263.770 Y227.070
G01 X263.264 Y225.236
G01 X262.609 Y223.398
G01 X261.805 Y221.568
G01 X261.309 Y220.589
G01 X260.650 Y217.644
G01 X259.728 Y214.700
G01 X259.210 Y213.339
G01 X258.420 Y207.822
G01 X258.004 Y205.817
G01 X258.205 Y198.542
G01 X260.620 Y191.331
G01 X264.714 Y186.634
G01 X265.542 Y185.777
G01 X269.525 Y183.729
G01 X273.745 Y181.924
G01 X274.286 Y181.718
G01 X278.404 Y181.056
G01 X282.645 Y180.639
G01 X286.992 Y180.476
G01 X291.432 Y180.577
G01 X295.948 Y180.951
G01 X300.524 Y181.605
G01 X304.798 Y182.465
G01 X301.706 Y179.464
G01 X301.135 Y178.941
G01 X296.421 Y178.319
G01 X291.771 Y177.983
G01 X287.203 Y177.927
G01 X282.732 Y178.141
G01 X278.374 Y178.616
G01 X274.143 Y179.340
G01 X270.054 Y180.303
G01 X269.000 Y180.595
G01 X264.879 Y182.872
G01 X261.362 Y185.147
G01 X257.433 Y190.533
G01 X256.990 Y191.207
G01 X255.351 Y197.826
G01 X255.608 Y205.081
G01 X256.925 Y210.440
G01 X257.294 Y212.497
G01 X258.524 Y215.348
G01 X259.492 Y218.223
G01 X259.860 Y219.586
G01 X260.866 Y221.356
G01 X261.724 Y223.149
G01 X262.433 Y224.954
G01 X262.741 Y225.888
G01 X263.550 Y227.147
G01 X264.267 Y228.426
G01 X264.892 Y229.719
G01 X265.418 Y230.999
G01 X264.755 Y229.871
G01 X264.634 Y229.680
G01 X264.002 Y228.397
G01 X263.277 Y227.129
G01 X262.462 Y225.881
G01 X261.630 Y224.756
G01 X260.873 Y222.983
G01 X259.969 Y221.227
G01 X258.918 Y219.497
G01 X258.347 Y218.658
G01 X257.321 Y215.851
G01 X256.039 Y213.075
G01 X255.332 Y211.759
G01 X253.897 Y206.552
G01 X253.181 Y204.480
G01 X252.477 Y197.273
G01 X253.717 Y190.584
G01 X257.291 Y184.922
G01 X257.737 Y184.285
G01 X261.477 Y181.619
G01 X265.495 Y179.170
G01 X265.837 Y178.980
G01 X269.877 Y177.753
G01 X274.075 Y176.757
G01 X278.417 Y176.004
G01 X282.888 Y175.505
G01 X287.475 Y175.272
G01 X292.162 Y175.314
G01 X296.933 Y175.640
G01 X297.326 Y175.680
G01 X293.864 Y173.023
G01 X293.283 Y172.603
G01 X288.451 Y172.551
G01 X283.721 Y172.782
G01 X279.108 Y173.285
G01 X274.627 Y174.050
G01 X270.293 Y175.066
G01 X266.120 Y176.318
G01 X262.119 Y177.794
G01 X261.187 Y178.180
G01 X257.307 Y180.947
G01 X254.066 Y183.613
G01 X250.731 Y189.505
G01 X250.414 Y190.135
G01 X249.577 Y196.872
G01 X250.723 Y204.007
G01 X252.661 Y209.009
G01 X253.326 Y211.123
G01 X254.899 Y213.774
G01 X256.221 Y216.480
G01 X256.772 Y217.809
G01 X258.009 Y219.458
G01 X259.101 Y221.147
G01 X260.047 Y222.866
G01 X260.440 Y223.679
G01 X261.428 Y224.861
G01 X262.327 Y226.076
G01 X263.135 Y227.316
G01 X263.756 Y228.398
G01 X262.921 Y227.325
G01 X262.784 Y227.160
G01 X261.959 Y225.933
G01 X261.045 Y224.734
G01 X260.040 Y223.568
G01 X259.174 Y222.663
G01 X258.178 Y220.982
G01 X257.038 Y219.336
G01 X255.755 Y217.734
G01 X255.142 Y217.042
G01 X253.776 Y214.405
G01 X252.163 Y211.828
G01 X251.284 Y210.595
G01 X249.269 Y205.739
G01 X248.248 Y203.667
G01 X246.673 Y196.633
G01 X247.114 Y189.873
G01 X250.075 Y183.745
G01 X250.395 Y183.156
G01 X253.851 Y180.046
G01 X257.612 Y177.123
G01 X257.892 Y176.922
G01 X261.817 Y175.194
G01 X265.928 Y173.681
G01 X270.216 Y172.397
G01 X274.667 Y171.355
G01 X279.267 Y170.567
G01 X284.002 Y170.047
G01 X288.857 Y169.805
G01 X289.126 Y169.800
G01 X285.336 Y167.528
G01 X284.760 Y167.205
G01 X279.877 Y167.743
G01 X275.132 Y168.557
G01 X270.541 Y169.632
G01 X266.117 Y170.957
G01 X261.873 Y172.517
G01 X257.822 Y174.297
G01 X253.975 Y176.283
G01 X252.566 Y177.090
G01 X249.033 Y180.482
G01 X246.287 Y183.505
G01 X243.802 Y189.783
G01 X243.759 Y196.545
G01 X245.754 Y203.457
G01 X248.242 Y208.065
G01 X249.208 Y210.173
G01 X251.093 Y212.595
G01 X252.738 Y215.101
G01 X253.459 Y216.360
G01 X254.908 Y217.862
G01 X256.219 Y219.422
G01 X257.389 Y221.030
G01 X257.835 Y221.713
G01 X258.994 Y222.796
G01 X260.066 Y223.922
G01 X261.050 Y225.087
G01 X261.722 Y225.972
G01 X260.721 Y224.977
G01 X260.574 Y224.839
G01 X259.565 Y223.694
G01 X258.469 Y222.589
G01 X257.287 Y221.529
G01 X256.429 Y220.833
G01 X255.207 Y219.270
G01 X253.847 Y217.760
G01 X252.351 Y216.312
G01 X251.729 Y215.765
G01 X250.051 Y213.329
G01 X248.137 Y210.981
G01 X247.108 Y209.860
G01 X244.575 Y205.391
G01 X243.255 Y203.380
G01 X240.856 Y196.615
G01 X240.510 Y189.875
G01 X242.643 Y183.470
G01 X245.705 Y179.742
G01 X248.575 Y176.697
G01 X252.242 Y174.405
G01 X256.130 Y172.301
G01 X260.230 Y170.402
G01 X264.530 Y168.724
G01 X269.019 Y167.282
G01 X273.682 Y166.090
G01 X278.508 Y165.162
G01 X280.313 Y164.890
G01 X276.241 Y163.038
G01 X275.685 Y162.804
G01 X270.824 Y163.926
G01 X266.137 Y165.309
G01 X261.637 Y166.940
G01 X257.337 Y168.802
G01 X253.248 Y170.881
G01 X249.380 Y173.160
G01 X245.745 Y175.622
G01 X244.550 Y176.508
G01 X241.378 Y180.321
G01 X238.993 Y183.621
G01 X237.224 Y190.136
G01 X237.957 Y196.834
G01 X240.751 Y203.431
G01 X243.725 Y207.611
G01 X244.985 Y209.657
G01 X247.147 Y211.824
G01 X249.084 Y214.102
G01 X249.956 Y215.262
G01 X251.599 Y216.595
G01 X253.111 Y218.003
G01 X254.489 Y219.475
G01 X254.958 Y220.026
G01 X256.275 Y220.988
G01 X257.510 Y222.005
G01 X258.661 Y223.072
G01 X259.343 Y223.768
G01 X258.186 Y222.873
G01 X258.033 Y222.763
G01 X256.851 Y221.724
G01 X255.586 Y220.737
G01 X254.241 Y219.807
G01 X253.427 Y219.298
G01 X251.996 Y217.880
G01 X250.435 Y216.531
G01 X248.745 Y215.261
G01 X248.146 Y214.851
G01 X246.185 Y212.643
G01 X244.002 Y210.549
G01 X242.848 Y209.564
G01 X239.857 Y205.511
G01 X238.254 Y203.614
G01 X235.085 Y197.206
G01 X233.974 Y190.574
G01 X235.384 Y183.972
G01 X238.052 Y179.875
G01 X240.557 Y176.545
G01 X243.986 Y173.805
G01 X247.662 Y171.229
G01 X251.576 Y168.837
G01 X255.719 Y166.645
G01 X260.080 Y164.669
G01 X264.649 Y162.927
G01 X269.411 Y161.433
G01 X271.006 Y161.001
G01 X266.703 Y159.597
G01 X266.177 Y159.442
G01 X261.408 Y161.141
G01 X256.846 Y163.085
G01 X252.502 Y165.257
G01 X248.388 Y167.639
G01 X244.513 Y170.216
G01 X240.887 Y172.968
G01 X237.518 Y175.878
G01 X236.552 Y176.785
G01 X233.785 Y180.980
G01 X231.787 Y184.506
G01 X230.746 Y191.176
G01 X232.230 Y197.724
G01 X235.765 Y203.924
G01 X239.161 Y207.650
G01 X240.699 Y209.581
G01 X243.105 Y211.472
G01 X245.302 Y213.497
G01 X246.302 Y214.535
G01 X248.117 Y215.679
G01 X249.811 Y216.913
G01 X251.379 Y218.228
G01 X251.841 Y218.652
G01 X253.302 Y219.473
G01 X254.687 Y220.360
G01 X255.994 Y221.308
G01 X256.649 Y221.830
G01 X255.347 Y221.057
G01 X255.195 Y220.973
G01 X253.863 Y219.993
G01 X252.446 Y219.075
G01 X250.948 Y218.226
G01 X249.373 Y217.451
G01 X248.669 Y217.140
G01 X246.926 Y215.771
G01 X245.046 Y214.496
G01 X243.139 Y213.385
G01 X240.743 Y211.219
G01 X238.120 Y209.207
G01 X237.540 Y208.805
G01 X233.835 Y204.707
G01 X232.599 Y203.491
G01 X229.042 Y197.561
G01 X227.513 Y191.171
G01 X228.588 Y184.514
G01 X228.734 Y183.820
G01 X231.176 Y179.756
G01 X233.968 Y175.781
G01 X234.687 Y174.846
G01 X238.030 Y171.812
G01 X241.634 Y168.932
G01 X245.493 Y166.222
G01 X249.598 Y163.701
G01 X253.940 Y161.388
G01 X258.507 Y159.298
G01 X261.329 Y158.167
G01 X256.845 Y157.235
G01 X256.359 Y157.148
G01 X251.748 Y159.422
G01 X247.375 Y161.919
G01 X243.251 Y164.621
G01 X239.386 Y167.509
G01 X235.787 Y170.566
G01 X232.461 Y173.770
G01 X229.414 Y177.104
G01 X228.210 Y178.550
G01 X226.001 Y183.238
G01 X224.581 Y186.860
G01 X224.569 Y193.651
G01 X227.096 Y200.005
G01 X231.639 Y205.757
G01 X235.150 Y208.584
G01 X237.510 Y210.796
G01 X239.971 Y212.198
G01 X242.262 Y213.743
G01 X243.942 Y215.050
G01 X245.798 Y215.880
G01 X247.558 Y216.806
G01 X249.216 Y217.819
G01 X250.177 Y218.477
G01 X251.689 Y219.149
G01 X253.136 Y219.892
G01 X253.677 Y220.197
G01 X252.246 Y219.565
G01 X252.098 Y219.505
G01 X250.614 Y218.674
G01 X249.054 Y217.916
G01 X247.421 Y217.238
G01 X245.719 Y216.645
G01 X245.166 Y216.476
G01 X243.246 Y215.311
G01 X241.201 Y214.258
G01 X239.236 Y213.404
G01 X236.605 Y211.540
G01 X233.767 Y209.852
G01 X233.147 Y209.522
G01 X229.064 Y205.942
G01 X227.636 Y204.833
G01 X223.441 Y199.367
G01 X221.220 Y193.204
G01 X221.581 Y186.350
G01 X221.640 Y185.758
G01 X223.656 Y181.396
G01 X226.035 Y177.084
G01 X226.610 Y176.139
G01 X229.635 Y172.701
G01 X232.943 Y169.387
G01 X236.529 Y166.218
G01 X240.385 Y163.212
G01 X244.504 Y160.388
G01 X248.878 Y157.766
G01 X251.401 Y156.409
G01 X246.790 Y155.965
G01 X246.352 Y155.935
G01 X241.963 Y158.752
G01 X237.841 Y161.766
G01 X233.995 Y164.960
G01 X230.432 Y168.312
G01 X227.158 Y171.803
G01 X224.178 Y175.413
G01 X221.494 Y179.121
G01 X220.569 Y180.527
G01 X218.856 Y185.494
G01 X217.842 Y189.214
G01 X218.562 Y195.963
G01 X221.768 Y201.978
G01 X226.921 Y207.157
G01 X230.700 Y209.534
G01 X233.321 Y211.470
G01 X235.940 Y212.584
G01 X238.408 Y213.857
G01 X240.198 Y214.938
G01 X242.172 Y215.561
G01 X244.060 Y216.291
G01 X245.857 Y217.120
G01 X246.788 Y217.607
G01 X248.413 Y218.114
G01 X249.979 Y218.700
G01 X250.465 Y218.902
G01 X248.922 Y218.429
G01 X248.784 Y218.391
G01 X247.167 Y217.727
G01 X245.483 Y217.148
G01 X243.735 Y216.657
G01 X241.929 Y216.261
G01 X241.547 Y216.191
G01 X239.475 Y215.250
G01 X237.292 Y214.434
G01 X235.306 Y213.833
G01 X232.476 Y212.288
G01 X229.461 Y210.939
G01 X228.820 Y210.687
G01 X224.421 Y207.642
G01 X222.823 Y206.671
G01 X218.055 Y201.729
G01 X215.181 Y195.861
G01 X214.704 Y189.152
G01 X216.130 Y184.392
G01 X217.929 Y179.666
G01 X220.481 Y175.822
G01 X223.336 Y172.065
G01 X226.491 Y168.415
G01 X229.941 Y164.893
G01 X233.681 Y161.519
G01 X237.706 Y158.313
G01 X241.343 Y155.736
G01 X236.660 Y155.791
G01 X236.274 Y155.805
G01 X232.168 Y159.137
G01 X228.354 Y162.638
G01 X224.840 Y166.289
G01 X221.630 Y170.068
G01 X218.728 Y173.954
G01 X216.137 Y177.927
G01 X213.858 Y181.965
G01 X213.191 Y183.274
G01 X212.003 Y188.466
G01 X211.397 Y192.234
G01 X212.831 Y198.865
G01 X216.664 Y204.477
G01 X222.349 Y209.030
G01 X226.343 Y210.943
G01 X229.185 Y212.576
G01 X231.930 Y213.389
G01 X234.542 Y214.377
G01 X236.406 Y215.225
G01 X238.474 Y215.628
G01 X240.468 Y216.149
G01 X242.383 Y216.780
G01 X243.257 Y217.113
G01 X244.974 Y217.440
G01 X246.643 Y217.855
G01 X247.059 Y217.974
G01 X245.422 Y217.673
G01 X245.296 Y217.654
G01 X243.568 Y217.174
G01 X241.781 Y216.788
G01 X239.942 Y216.500
G01 X238.055 Y216.314
G01 X237.857 Y216.300
G01 X235.660 Y215.598
G01 X233.366 Y215.032
G01 X231.392 Y214.673
G01 X228.400 Y213.462
G01 X225.247 Y212.464
G01 X224.600 Y212.291
G01 X219.947 Y209.792
G01 X218.204 Y208.986
G01 X212.934 Y204.617
G01 X209.452 Y199.107
G01 X208.268 Y192.484
G01 X209.198 Y187.532
G01 X210.479 Y182.668
G01 X212.629 Y178.512
G01 X215.095 Y174.410
G01 X217.876 Y170.383
G01 X220.970 Y166.454
G01 X224.374 Y162.641
G01 X228.085 Y158.968
G01 X231.273 Y156.141
G01 X226.571 Y156.699
G01 X226.241 Y156.748
G01 X222.474 Y160.560
G01 X219.021 Y164.511
G01 X215.888 Y168.579
G01 X213.077 Y172.743
G01 X210.590 Y176.981
G01 X208.427 Y181.271
G01 X206.587 Y185.592
G01 X206.148 Y186.752
G01 X205.506 Y192.113
G01 X205.302 Y195.882
G01 X207.426 Y202.322
G01 X211.830 Y207.473
G01 X217.967 Y211.356
G01 X222.125 Y212.798
G01 X225.144 Y214.104
G01 X227.981 Y214.608
G01 X230.705 Y215.300
G01 X232.610 Y215.915
G01 X234.747 Y216.090
G01 X236.824 Y216.390
G01 X238.834 Y216.809
G01 X239.627 Y217.012
G01 X241.416 Y217.147
G01 X243.167 Y217.378
G01 X243.502 Y217.433
G01 X241.793 Y217.317
G01 X241.682 Y217.313
G01 X239.864 Y217.031
G01 X237.998 Y216.851
G01 X236.092 Y216.775
G01 X234.149 Y216.809
G01 X234.139 Y216.810
G01 X231.844 Y216.357
G01 X229.468 Y216.053
G01 X227.537 Y215.923
G01 X224.420 Y215.055
G01 X221.167 Y214.416
G01 X220.531 Y214.321
G01 X215.682 Y212.374
G01 X213.822 Y211.754
G01 X208.122 Y207.998
G01 X204.083 Y202.904
G01 X202.213 Y196.438
G01 X202.628 Y191.346
G01 X203.387 Y186.405
G01 X205.103 Y181.982
G01 X207.145 Y177.579
G01 X209.513 Y173.218
G01 X212.209 Y168.921
G01 X215.232 Y164.709
G01 X218.580 Y160.604
G01 X221.303 Y157.608
G01 X216.637 Y158.669
G01 X216.364 Y158.739
G01 X212.987 Y162.992
G01 X209.944 Y167.351
G01 X207.236 Y171.792
G01 X204.865 Y176.295
G01 X202.829 Y180.837
G01 X201.127 Y185.395
G01 X199.754 Y189.948
G01 X199.504 Y190.915
G01 X199.425 Y196.389
G01 X199.612 Y200.113
G01 X202.394 Y206.294
G01 X207.310 Y210.933
G01 X213.817 Y214.113
G01 X218.088 Y215.080
G01 X221.239 Y216.045
G01 X224.135 Y216.234
G01 X226.940 Y216.622
G01 X228.852 Y217.009
G01 X231.034 Y216.948
G01 X233.169 Y217.018
G01 X235.250 Y217.216
G01 X235.945 Y217.312
G01 X237.784 Y217.247
G01 X239.595 Y217.283
G01 X239.842 Y217.296
G01 X238.082 Y217.375
G01 X237.988 Y217.382
G01 X236.104 Y217.308
G01 X234.184 Y217.343
G01 X232.235 Y217.489
G01 X230.438 Y217.721
G01 X228.073 Y217.529
G01 X225.644 Y217.493
G01 X223.783 Y217.574
G01 X220.579 Y217.057
G01 X217.264 Y216.782
G01 X216.653 Y216.758
G01 X211.666 Y215.366
G01 X209.718 Y214.947
G01 X203.663 Y211.838
G01 X199.120 Y207.207
G01 X196.591 Y200.968
G01 X196.476 Y195.788
G01 X196.718 Y190.830
G01 X197.974 Y186.187
G01 X199.561 Y181.530
G01 X201.484 Y176.881
G01 X203.745 Y172.260
G01 X206.346 Y167.691
G01 X209.287 Y163.195
G01 X211.543 Y160.110
G01 X206.965 Y161.666
G01 X206.749 Y161.746
G01 X203.809 Y166.395
G01 X201.217 Y171.115
G01 X198.974 Y175.882
G01 X197.077 Y180.674
G01 X195.523 Y185.468
G01 X194.308 Y190.243
G01 X193.426 Y194.976
G01 X193.318 Y195.713
G01 X193.813 Y201.242
G01 X194.375 Y204.878
G01 X197.778 Y210.738
G01 X203.142 Y214.822
G01 X209.936 Y217.275
G01 X214.272 Y217.768
G01 X217.512 Y218.382
G01 X220.433 Y218.254
G01 X223.285 Y218.333
G01 X225.176 Y218.502
G01 X227.376 Y218.199
G01 X229.544 Y218.035
G01 X231.673 Y218.005
G01 X232.256 Y218.019
G01 X234.122 Y217.748
G01 X235.972 Y217.581
G01 X236.127 Y217.572
G01 X234.338 Y217.853
G01 X234.263 Y217.867
G01 X232.337 Y218.010
G01 X230.387 Y218.266
G01 X228.422 Y218.639
G01 X226.798 Y219.033
G01 X224.336 Y219.038
G01 X221.820 Y219.213
G01 X219.263 Y219.563
G01 X218.641 Y219.674
G01 X215.131 Y219.444
G01 X211.712 Y219.481
G01 X206.136 Y218.427
G01 X204.901 Y218.262
G01 X198.844 Y215.652
G01 X194.132 Y211.372
G01 X191.203 Y204.928
G01 X191.054 Y204.556
G01 X190.724 Y199.476
G01 X190.756 Y194.259
G01 X190.796 Y193.422
G01 X191.752 Y188.592
G01 X193.044 Y183.723
G01 X194.678 Y178.839
G01 X196.659 Y173.961
G01 X198.988 Y169.111
G01 X201.669 Y164.312
G01 X202.096 Y163.606
G01 X197.657 Y165.646
G01 X197.496 Y165.725
G01 X195.040 Y170.732
G01 X192.944 Y175.772
G01 X191.206 Y180.821
G01 X189.822 Y185.857
G01 X188.786 Y190.857
G01 X188.091 Y195.799
G01 X187.728 Y200.663
G01 X187.687 Y201.896
G01 X188.887 Y207.439
G01 X189.634 Y210.127
G01 X193.615 Y215.607
G01 X199.362 Y219.102
G01 X206.361 Y220.813
G01 X210.714 Y220.836
G01 X213.999 Y221.095
G01 X216.913 Y220.652
G01 X219.780 Y220.421
G01 X221.624 Y220.383
G01 X223.816 Y219.839
G01 X225.992 Y219.436
G01 X228.143 Y219.172
G01 X228.605 Y219.133
G01 X230.476 Y218.651
G01 X232.342 Y218.277
G01 X232.404 Y218.266
G01 X230.610 Y218.753
G01 X230.555 Y218.769
G01 X228.611 Y219.134
G01 X226.658 Y219.616
G01 X224.702 Y220.217
G01 X223.261 Y220.737
G01 X220.781 Y221.017
G01 X218.267 Y221.473
G01 X215.730 Y222.107
G01 X215.227 Y222.254
G01 X211.703 Y222.406
G01 X208.327 Y222.807
G01 X202.719 Y222.357
G01 X201.439 Y222.322
G01 X195.157 Y220.368
G01 X190.039 Y216.601
G01 X186.416 Y210.375
G01 X186.285 Y210.126
G01 X185.431 Y205.037
G01 X184.930 Y199.773
G01 X184.889 Y199.037
G01 X185.347 Y194.069
G01 X186.141 Y189.028
G01 X187.279 Y183.934
G01 X188.767 Y178.810
G01 X190.612 Y173.677
G01 X192.817 Y168.560
G01 X193.057 Y168.051
G01 X188.807 Y170.557
G01 X188.698 Y170.625
G01 X186.754 Y175.927
G01 X185.179 Y181.224
G01 X183.966 Y186.491
G01 X183.109 Y191.708
G01 X182.600 Y196.850
G01 X182.428 Y201.898
G01 X182.584 Y206.831
G01 X182.653 Y207.793
G01 X184.433 Y213.261
G01 X185.426 Y215.806
G01 X189.938 Y220.855
G01 X196.001 Y223.732
G01 X203.125 Y224.696
G01 X207.449 Y224.257
G01 X210.737 Y224.163
G01 X213.612 Y223.408
G01 X216.462 Y222.869
G01 X218.234 Y222.640
G01 X220.394 Y221.854
G01 X222.551 Y221.213
G01 X224.699 Y220.713
G01 X225.038 Y220.647
G01 X226.890 Y219.953
G01 X228.721 Y219.377
G01 X226.946 Y220.071
G01 X226.909 Y220.086
G01 X224.974 Y220.675
G01 X223.043 Y221.383
G01 X221.122 Y222.212
G01 X219.869 Y222.822
G01 X217.401 Y223.377
G01 X214.918 Y224.111
G01 X212.432 Y225.027
G01 X212.048 Y225.185
G01 X208.549 Y225.714
G01 X205.255 Y226.466
G01 X199.671 Y226.606
G01 X198.367 Y226.709
G01 X191.931 Y225.420
G01 X186.467 Y222.198
G01 X182.168 Y216.259
G01 X182.081 Y216.127
G01 X180.702 Y211.082
G01 X179.663 Y205.824
G01 X179.565 Y205.199
G01 X179.513 Y200.145
G01 X179.792 Y194.982
G01 X180.415 Y189.731
G01 X181.388 Y184.413
G01 X182.721 Y179.050
G01 X184.419 Y173.664
G01 X184.516 Y173.387
G01 X180.501 Y176.338
G01 X180.439 Y176.386
G01 X179.037 Y181.928
G01 X178.007 Y187.425
G01 X177.340 Y192.855
G01 X177.026 Y198.195
G01 X177.056 Y203.424
G01 X177.417 Y208.522
G01 X178.097 Y213.468
G01 X178.216 Y214.146
G01 X180.569 Y219.481
G01 X181.784 Y221.859
G01 X186.776 Y226.430
G01 X193.087 Y228.671
G01 X200.257 Y228.888
G01 X204.507 Y227.998
G01 X207.759 Y227.560
G01 X210.563 Y226.499
G01 X213.366 Y225.657
G01 X215.047 Y225.254
G01 X217.147 Y224.231
G01 X219.262 Y223.353
G01 X221.382 Y222.619
G01 X221.598 Y222.552
G01 X223.407 Y221.647
G01 X225.125 Y220.897
G01 X223.392 Y221.798
G01 X223.373 Y221.808
G01 X221.472 Y222.620
G01 X219.587 Y223.553
G01 X217.727 Y224.605
G01 X216.662 Y225.270
G01 X214.235 Y226.098
G01 X211.813 Y227.107
G01 X209.406 Y228.298
G01 X209.138 Y228.442
G01 X205.701 Y229.341
G01 X202.525 Y230.425
G01 X197.020 Y231.141
G01 X195.712 Y231.382
G01 X189.193 Y230.762
G01 X183.442 Y228.110
G01 X178.870 Y223.154
G01 X176.826 Y218.199
G01 X175.105 Y212.981
G01 X175.016 Y212.672
G01 X174.391 Y207.610
G01 X174.087 Y202.399
G01 X174.119 Y197.061
G01 X174.498 Y191.614
G01 X175.234 Y186.082
G01 X176.336 Y180.486
G01 X176.555 Y179.552
G01 X172.818 Y182.921
G01 X172.797 Y182.941
G01 X171.960 Y188.665
G01 X171.493 Y194.306
G01 X171.386 Y199.840
G01 X171.627 Y205.247
G01 X172.203 Y210.505
G01 X173.099 Y215.596
G01 X174.301 Y220.501
G01 X174.412 Y220.890
G01 X177.323 Y226.035
G01 X178.734 Y228.229
G01 X184.152 Y232.283
G01 X189.738 Y233.794
G01 X196.674 Y233.549
G01 X201.188 Y232.275
G01 X203.796 Y231.720
G01 X206.704 Y230.362
G01 X209.628 Y229.243
G01 X210.628 Y228.915
G01 X212.773 Y227.647
G01 X214.946 Y226.537
G01 X216.715 Y225.756
G01 X218.485 Y224.587
G01 X220.288 Y223.533
G01 X221.660 Y222.816
G01 X219.992 Y223.919
G01 X219.990 Y223.921
G01 X218.147 Y224.953
G01 X216.334 Y226.105
G01 X214.559 Y227.375
G01 X213.677 Y228.063
G01 X211.320 Y229.158
G01 X208.986 Y230.433
G01 X206.687 Y231.889
G01 X206.528 Y231.997
G01 X203.189 Y233.255
G01 X200.163 Y234.652
G01 X194.789 Y235.922
G01 X193.497 Y236.301
G01 X186.962 Y236.345
G01 X180.986 Y234.282
G01 X175.946 Y229.797
G01 X173.392 Y225.002
G01 X171.139 Y219.910
G01 X171.062 Y219.718
G01 X169.921 Y214.681
G01 X169.090 Y209.461
G01 X168.585 Y204.078
G01 X168.420 Y198.552
G01 X168.607 Y192.902
G01 X169.158 Y187.151
G01 X169.246 Y186.476
G01 X165.841 Y190.218
G01 X165.585 Y196.066
G01 X165.695 Y201.791
G01 X166.156 Y207.371
G01 X166.956 Y212.787
G01 X168.078 Y218.018
G01 X169.507 Y223.047
G01 X171.224 Y227.857
G01 X171.267 Y227.963
G01 X174.718 Y232.863
G01 X176.297 Y234.858
G01 X182.085 Y238.360
G01 X187.783 Y239.306
G01 X194.644 Y238.361
G01 X198.999 Y236.633
G01 X201.531 Y235.815
G01 X204.305 Y234.155
G01 X207.121 Y232.730
G01 X208.030 Y232.323
G01 X210.065 Y230.822
G01 X212.144 Y229.476
G01 X213.755 Y228.553
G01 X215.431 Y227.183
G01 X217.152 Y225.924
G01 X218.369 Y225.118
G01 X216.801 Y226.406
G01 X215.040 Y227.652
G01 X213.323 Y229.016
G01 X211.658 Y230.494
G01 X210.949 Y231.175
G01 X208.689 Y232.529
G01 X206.471 Y234.060
G01 X204.308 Y235.769
G01 X204.246 Y235.821
G01 X201.039 Y237.423
G01 X198.193 Y239.109
G01 X192.997 Y240.911
G01 X191.739 Y241.424
G01 X185.256 Y242.122
G01 X179.114 Y240.659
G01 X173.660 Y236.684
G01 X170.559 Y232.087
G01 X168.123 Y227.884
G01 X166.418 Y222.959
G01 X165.007 Y217.815
G01 X163.906 Y212.471
G01 X163.131 Y206.943
G01 X162.698 Y201.253
G01 X162.621 Y195.419
G01 X162.654 Y194.085
G01 X159.631 Y198.140
G01 X159.967 Y204.051
G01 X160.659 Y209.801
G01 X161.691 Y215.370
G01 X163.048 Y220.737
G01 X164.711 Y225.886
G01 X166.664 Y230.798
G01 X168.802 Y235.299
G01 X172.769 Y239.901
G01 X174.488 Y241.686
G01 X180.587 Y244.609
G01 X186.340 Y244.988
G01 X193.059 Y243.363
G01 X197.215 Y241.204
G01 X199.643 Y240.137
G01 X202.256 Y238.189
G01 X204.934 Y236.474
G01 X205.747 Y236.004
G01 X207.648 Y234.281
G01 X209.609 Y232.709
G01 X211.055 Y231.670
G01 X212.614 Y230.107
G01 X214.231 Y228.653
G01 X215.292 Y227.781
G01 X213.845 Y229.241
G01 X212.190 Y230.693
G01 X210.592 Y232.258
G01 X209.058 Y233.934
G01 X208.510 Y234.580
G01 X206.373 Y236.182
G01 X204.297 Y237.957
G01 X202.317 Y239.879
G01 X199.273 Y241.811
G01 X196.633 Y243.760
G01 X191.662 Y246.067
G01 X190.455 Y246.707
G01 X184.085 Y248.043
G01 X177.839 Y247.187
G01 X172.024 Y243.755
G01 X168.449 Y239.420
G01 X165.645 Y235.512
G01 X163.442 Y230.719
G01 X161.514 Y225.676
G01 X159.879 Y220.399
G01 X158.555 Y214.906
G01 X157.561 Y209.214
G01 X156.911 Y203.343
G01 X156.834 Y202.298
G01 X154.218 Y206.625
G01 X155.150 Y212.540
G01 X156.425 Y218.257
G01 X158.025 Y223.755
G01 X159.932 Y229.018
G01 X162.126 Y234.029
G01 X164.587 Y238.773
G01 X167.033 Y242.832
G01 X171.487 Y247.086
G01 X173.318 Y248.654
G01 X179.668 Y250.977
G01 X185.421 Y250.792
G01 X191.933 Y248.513
G01 X195.854 Y245.948
G01 X198.152 Y244.648
G01 X200.577 Y242.432
G01 X203.090 Y240.441
G01 X203.804 Y239.925
G01 X205.462 Y237.970
G01 X207.197 Y236.152
G01 X209.001 Y234.475
G01 X209.900 Y233.711
G01 X211.315 Y232.027
G01 X212.466 Y230.782
G01 X211.158 Y232.400
G01 X209.631 Y234.047
G01 X208.173 Y235.801
G01 X206.792 Y237.661
G01 X206.388 Y238.248
G01 X204.399 Y240.084
G01 X202.490 Y242.087
G01 X200.761 Y244.139
G01 X197.911 Y246.380
G01 X195.500 Y248.565
G01 X190.795 Y251.348
G01 X189.654 Y252.107
G01 X183.458 Y254.058
G01 X177.166 Y253.809
G01 X171.048 Y250.947
G01 X167.023 Y246.921
G01 X163.891 Y243.337
G01 X161.204 Y238.724
G01 X158.769 Y233.832
G01 X156.609 Y228.675
G01 X154.741 Y223.270
G01 X153.187 Y217.631
G01 X151.964 Y211.778
G01 X151.835 Y211.033
G01 X149.646 Y215.590
G01 X151.172 Y221.449
G01 X153.024 Y227.074
G01 X155.182 Y232.446
G01 X157.626 Y237.550
G01 X160.335 Y242.370
G01 X163.287 Y246.894
G01 X165.969 Y250.497
G01 X170.875 Y254.356
G01 X172.792 Y255.702
G01 X179.332 Y257.409
G01 X185.031 Y256.671
G01 X191.277 Y253.769
G01 X194.928 Y250.826
G01 X197.074 Y249.312
G01 X199.287 Y246.848
G01 X201.609 Y244.598
G01 X202.224 Y244.053
G01 X203.703 Y241.914
G01 X205.275 Y239.904
G01 X206.930 Y238.029
G01 X207.666 Y237.263
G01 X208.932 Y235.411
G01 X209.926 Y234.092
G01 X208.772 Y235.854
G01 X207.393 Y237.681
G01 X206.096 Y239.611
G01 X204.888 Y241.638
G01 X204.608 Y242.146
G01 X202.791 Y244.201
G01 X201.070 Y246.415
G01 X199.597 Y248.564
G01 X196.969 Y251.093
G01 X194.804 Y253.484
G01 X190.404 Y256.710
G01 X189.343 Y257.578
G01 X183.376 Y260.118
G01 X177.098 Y260.472
G01 X170.734 Y258.201
G01 X166.289 Y254.525
G01 X162.868 Y251.291
G01 X159.716 Y246.904
G01 X156.792 Y242.212
G01 X154.119 Y237.226
G01 X151.718 Y231.960
G01 X149.610 Y226.428
G01 X147.816 Y220.649
G01 X147.695 Y220.205
G01 X145.948 Y224.948
G01 X148.061 Y230.693
G01 X150.479 Y236.169
G01 X153.180 Y241.360
G01 X156.144 Y246.252
G01 X159.346 Y250.831
G01 X162.764 Y255.088
G01 X165.612 Y258.228
G01 X170.934 Y261.649
G01 X172.908 Y262.773
G01 X179.579 Y263.855
G01 X185.172 Y262.577
G01 X191.097 Y259.087
G01 X194.446 Y255.797
G01 X196.422 Y254.089
G01 X198.400 Y251.398
G01 X200.507 Y248.911
G01 X201.024 Y248.352
G01 X202.307 Y246.046
G01 X203.696 Y243.861
G01 X205.182 Y241.803
G01 X205.767 Y241.060
G01 X206.866 Y239.054
G01 X207.701 Y237.681
G01 X206.716 Y239.569
G01 X205.505 Y241.563
G01 X204.387 Y243.651
G01 X203.368 Y245.829
G01 X203.192 Y246.240
G01 X201.568 Y248.495
G01 X200.056 Y250.901
G01 X198.838 Y253.116
G01 X196.457 Y255.909
G01 X194.554 Y258.477
G01 X190.495 Y262.112
G01 X189.524 Y263.077
G01 X183.840 Y266.175
G01 X177.631 Y267.121
G01 X171.079 Y265.457
G01 X166.248 Y262.171
G01 X162.579 Y259.306
G01 X158.985 Y255.190
G01 X155.592 Y250.743
G01 X152.424 Y245.976
G01 X149.504 Y240.900
G01 X146.855 Y235.529
G01 X144.499 Y229.877
G01 X144.442 Y229.727
G01 X143.150 Y234.613
G01 X145.835 Y240.186
G01 X148.802 Y245.458
G01 X152.028 Y250.415
G01 X155.488 Y255.045
G01 X159.158 Y259.336
G01 X163.014 Y263.280
G01 X165.960 Y265.960
G01 X171.655 Y268.904
G01 X173.662 Y269.809
G01 X180.403 Y270.262
G01 X185.842 Y268.462
G01 X191.394 Y264.425
G01 X194.415 Y260.820
G01 X196.203 Y258.940
G01 X197.926 Y256.046
G01 X199.798 Y253.343
G01 X200.220 Y252.786
G01 X201.291 Y250.332
G01 X202.481 Y247.990
G01 X203.780 Y245.766
G01 X204.225 Y245.067
G01 X205.142 Y242.924
G01 X205.820 Y241.515
G01 X205.015 Y243.512
G01 X203.989 Y245.656
G01 X203.066 Y247.884
G01 X202.253 Y250.193
G01 X202.157 Y250.494
G01 X200.746 Y252.930
G01 X199.462 Y255.505
G01 X198.494 Y257.758
G01 X196.261 Y260.814
G01 X194.211 Y264.107
G01 X193.998 Y264.481
G01 X189.854 Y268.746
G01 X189.433 Y269.222
G01 X184.078 Y272.515
G01 X178.004 Y273.720
G01 X170.630 Y272.090
G01 X165.801 Y269.038
G01 X161.090 Y265.562
G01 X160.436 Y265.037
G01 X156.548 Y261.008
G01 X152.847 Y256.633
G01 X149.359 Y251.921
G01 X146.107 Y246.882
G01 X143.115 Y241.528
G01 X142.098 Y239.511
G01 X141.267 Y244.495
G01 X144.507 Y249.842
G01 X148.002 Y254.858
G01 X151.726 Y259.531
G01 X155.656 Y263.850
G01 X159.764 Y267.809
G01 X164.026 Y271.399
G01 X167.005 Y273.632
G01 X173.029 Y276.063
G01 X175.042 Y276.755
G01 X181.795 Y276.580
G01 X187.033 Y274.281
G01 X192.168 Y269.740
G01 X194.835 Y265.854
G01 X196.422 Y263.825
G01 X197.872 Y260.753
G01 X199.490 Y257.858
G01 X199.823 Y257.316
G01 X200.668 Y254.735
G01 X201.643 Y252.255
G01 X202.739 Y249.883
G01 X203.062 Y249.248
G01 X203.781 Y246.986
G01 X204.304 Y245.558
G01 X203.690 Y247.646
G01 X202.864 Y249.920
G01 X202.152 Y252.269
G01 X201.558 Y254.688
G01 X201.519 Y254.870
G01 X200.337 Y257.465
G01 X199.296 Y260.188
G01 X198.573 Y262.449
G01 X196.635 Y265.727
G01 X194.900 Y269.223
G01 X194.746 Y269.567
G01 X191.034 Y274.199
G01 X190.660 Y274.714
G01 X185.647 Y278.492
G01 X179.717 Y280.255
G01 X172.219 Y279.311
G01 X167.067 Y276.684
G01 X161.994 Y273.620
G01 X161.391 Y273.222
G01 X157.098 Y269.532
G01 X152.961 Y265.474
G01 X149.007 Y261.057
G01 X145.261 Y256.288
G01 X141.747 Y251.177
G01 X140.675 Y249.470
G01 X140.309 Y254.509
G01 X144.066 Y259.578
G01 X148.048 Y264.290
G01 X152.230 Y268.635
G01 X156.584 Y272.606
G01 X161.084 Y276.197
G01 X165.703 Y279.403
G01 X167.987 Y280.823
G01 X174.195 Y282.819
G01 X177.035 Y283.556
G01 X183.742 Y282.762
G01 X188.736 Y279.988
G01 X193.412 Y274.990
G01 X195.704 Y270.858
G01 X197.080 Y268.704
G01 X198.243 Y265.481
G01 X199.589 Y262.419
G01 X199.842 Y261.903
G01 X200.448 Y259.218
G01 X201.194 Y256.621
G01 X202.073 Y254.120
G01 X202.291 Y253.564
G01 X202.801 Y251.203
G01 X203.174 Y249.773
G01 X202.758 Y251.933
G01 X202.146 Y254.317
G01 X201.656 Y256.767
G01 X201.293 Y259.274
G01 X201.286 Y259.330
G01 X200.349 Y262.062
G01 X199.566 Y264.908
G01 X199.077 Y267.152
G01 X197.451 Y270.622
G01 X196.049 Y274.291
G01 X195.947 Y274.595
G01 X192.692 Y279.552
G01 X192.369 Y280.098
G01 X187.738 Y284.321
G01 X182.001 Y286.621
G01 X174.444 Y286.367
G01 X169.008 Y284.196
G01 X163.612 Y281.575
G01 X163.079 Y281.290
G01 X158.413 Y277.975
G01 X153.871 Y274.276
G01 X149.480 Y270.196
G01 X145.265 Y265.742
G01 X141.254 Y260.922
G01 X140.177 Y259.516
G01 X140.275 Y264.567
G01 X144.534 Y269.308
G01 X148.987 Y273.669
G01 X153.605 Y277.640
G01 X158.361 Y281.218
G01 X163.229 Y284.399
G01 X168.180 Y287.179
G01 X170.348 Y288.262
G01 X176.795 Y289.699
G01 X179.621 Y290.162
G01 X186.226 Y288.759
G01 X190.937 Y285.540
G01 X195.119 Y280.135
G01 X197.018 Y275.794
G01 X198.175 Y273.537
G01 X199.037 Y270.191
G01 X200.099 Y266.989
G01 X200.278 Y266.510
G01 X200.636 Y263.742
G01 X201.143 Y261.050
G01 X201.793 Y258.441
G01 X201.925 Y257.979
G01 X202.215 Y255.538
G01 X202.443 Y254.121
G01 X202.232 Y256.332
G01 X201.777 Y258.819
G01 X201.452 Y261.366
G01 X201.264 Y263.965
G01 X201.217 Y265.553
G01 X200.461 Y268.518
G01 X199.882 Y271.594
G01 X199.652 Y273.249
G01 X198.194 Y277.082
G01 X197.126 Y280.620
G01 X193.987 Y286.129
G01 X189.683 Y290.447
G01 X184.109 Y292.957
G01 X176.502 Y293.088
G01 X170.941 Y291.275
G01 X165.390 Y289.016
G01 X163.932 Y288.346
G01 X158.958 Y285.316
G01 X154.082 Y281.888
G01 X149.330 Y278.064
G01 X144.731 Y273.848
G01 X140.600 Y269.566
G01 X141.157 Y274.585
G01 X145.887 Y278.953
G01 X150.774 Y282.918
G01 X155.792 Y286.476
G01 X160.912 Y289.624
G01 X166.107 Y292.361
G01 X171.348 Y294.687
G01 X173.358 Y295.468
G01 X179.886 Y296.392
G01 X182.019 Y296.581
G01 X188.550 Y294.889
G01 X193.032 Y291.539
G01 X196.805 Y286.099
G01 X198.575 Y281.327
G01 X199.346 Y279.559
G01 X200.028 Y275.962
G01 X200.893 Y272.649
G01 X201.064 Y269.719
G01 X201.402 Y266.862
G01 X201.854 Y264.303
G01 X201.889 Y261.757
G01 X202.055 Y259.250
G01 X202.124 Y258.562
G01 X202.121 Y260.806
G01 X201.902 Y263.366
G01 X201.820 Y265.974
G01 X201.880 Y268.621
G01 X201.974 Y270.080
G01 X201.497 Y273.138
G01 X201.207 Y276.289
G01 X201.135 Y277.885
G01 X200.037 Y281.859
G01 X199.308 Y285.452
G01 X196.697 Y291.221
G01 X192.811 Y295.910
G01 X187.491 Y298.910
G01 X179.922 Y299.726
G01 X174.154 Y298.405
G01 X168.355 Y296.633
G01 X166.949 Y296.135
G01 X161.666 Y293.542
G01 X156.445 Y290.538
G01 X151.313 Y287.124
G01 X146.299 Y283.300
G01 X141.934 Y279.534
G01 X142.942 Y284.482
G01 X148.104 Y288.433
G01 X153.389 Y291.964
G01 X158.767 Y295.072
G01 X164.209 Y297.757
G01 X169.687 Y300.021
G01 X175.174 Y301.867
G01 X176.988 Y302.387
G01 X183.655 Y302.721
G01 X185.727 Y302.718
G01 X192.079 Y300.447
G01 X196.235 Y296.709
G01 X199.489 Y290.953
G01 X200.814 Y286.028
G01 X201.412 Y284.213
G01 X201.762 Y280.541
G01 X202.310 Y277.194
G01 X202.210 Y274.225
G01 X202.284 Y271.312
G01 X202.490 Y268.797
G01 X202.286 Y266.219
G01 X202.219 Y263.666
G01 X202.223 Y263.057
G01 X202.431 Y265.312
G01 X202.455 Y267.924
G01 X202.622 Y270.569
G01 X202.936 Y273.240
G01 X203.145 Y274.559
G01 X202.953 Y277.683
G01 X202.959 Y280.883
G01 X203.032 Y282.405
G01 X202.304 Y286.487
G01 X201.913 Y290.102
G01 X199.844 Y296.080
G01 X196.405 Y301.095
G01 X191.379 Y304.558
G01 X183.907 Y306.047
G01 X177.977 Y305.237
G01 X171.974 Y303.974
G01 X170.640 Y303.632
G01 X165.089 Y301.503
G01 X159.562 Y298.953
G01 X154.089 Y295.982
G01 X148.696 Y292.587
G01 X144.160 Y289.341
G01 X145.606 Y294.178
G01 X151.162 Y297.674
G01 X156.802 Y300.734
G01 X162.496 Y303.360
G01 X168.216 Y305.554
G01 X173.933 Y307.321
G01 X179.620 Y308.665
G01 X181.209 Y308.967
G01 X187.961 Y308.699
G01 X189.953 Y308.518
G01 X196.077 Y305.691
G01 X199.877 Y301.599
G01 X202.591 Y295.580
G01 X203.462 Y290.541
G01 X203.887 Y288.699
G01 X203.900 Y284.981
G01 X204.134 Y281.631
G01 X203.760 Y278.647
G01 X203.566 Y275.703
G01 X203.539 Y273.256
G01 X203.094 Y270.666
G01 X202.789 Y268.089
G01 X202.744 Y267.565
G01 X203.162 Y269.812
G01 X203.434 Y272.451
G01 X203.854 Y275.110
G01 X204.425 Y277.781
G01 X204.723 Y278.952
G01 X204.823 Y282.116
G01 X205.129 Y285.338
G01 X205.330 Y286.772
G01 X204.979 Y290.928
G01 X204.920 Y294.534
G01 X203.405 Y300.668
G01 X200.436 Y305.965
G01 X195.741 Y309.860
G01 X188.426 Y312.006
G01 X182.379 Y311.720
G01 X176.218 Y310.984
G01 X174.973 Y310.781
G01 X169.196 Y309.139
G01 X163.405 Y307.070
G01 X157.631 Y304.571
G01 X151.900 Y301.639
G01 X147.253 Y298.909
G01 X149.122 Y303.598
G01 X155.028 Y306.603
G01 X160.978 Y309.163
G01 X166.944 Y311.279
G01 X172.895 Y312.958
G01 X178.805 Y314.206
G01 X184.644 Y315.032
G01 X185.983 Y315.164
G01 X192.766 Y314.285
G01 X194.664 Y313.941
G01 X200.515 Y310.585
G01 X203.931 Y306.176
G01 X206.089 Y299.944
G01 X206.501 Y294.833
G01 X206.754 Y292.980
G01 X206.428 Y289.247
G01 X206.356 Y285.923
G01 X205.706 Y282.949
G01 X205.242 Y280.000
G01 X204.997 Y277.640
G01 X204.309 Y275.062
G01 X203.764 Y272.484
G01 X203.685 Y272.046
G01 X204.312 Y274.265
G01 X204.836 Y276.908
G01 X205.510 Y279.557
G01 X206.337 Y282.203
G01 X206.699 Y283.224
G01 X207.094 Y286.400
G01 X207.701 Y289.615
G01 X208.014 Y290.953
G01 X208.044 Y295.149
G01 X208.310 Y298.715
G01 X207.355 Y304.953
G01 X204.874 Y310.488
G01 X200.544 Y314.779
G01 X193.442 Y317.561
G01 X187.324 Y317.811
G01 X181.053 Y317.615
G01 X179.911 Y317.531
G01 X173.951 Y316.394
G01 X167.941 Y314.830
G01 X161.908 Y312.830
G01 X155.881 Y310.389
G01 X151.180 Y308.165
G01 X153.455 Y312.670
G01 X159.665 Y315.155
G01 X165.880 Y317.186
G01 X172.069 Y318.769
G01 X178.204 Y319.913
G01 X184.257 Y320.627
G01 X190.201 Y320.922
G01 X191.274 Y320.932
G01 X198.033 Y319.441
G01 X199.824 Y318.950
G01 X205.358 Y315.095
G01 X208.369 Y310.406
G01 X209.959 Y304.013
G01 X209.910 Y298.871
G01 X209.994 Y297.024
G01 X209.329 Y293.307
G01 X208.959 Y290.037
G01 X208.036 Y287.098
G01 X207.300 Y284.167
G01 X206.857 Y281.913
G01 X205.926 Y279.369
G01 X205.139 Y276.812
G01 X205.043 Y276.462
G01 X205.875 Y278.632
G01 X206.650 Y281.255
G01 X207.578 Y283.870
G01 X208.660 Y286.468
G01 X209.060 Y287.339
G01 X209.752 Y290.500
G01 X210.657 Y293.681
G01 X211.067 Y294.915
G01 X211.479 Y299.116
G01 X212.058 Y302.613
G01 X211.666 Y308.905
G01 X209.687 Y314.631
G01 X205.752 Y319.282
G01 X198.916 Y322.675
G01 X192.775 Y323.465
G01 X186.440 Y323.819
G01 X185.412 Y323.835
G01 X179.317 Y323.218
G01 X173.132 Y322.176
G01 X166.886 Y320.696
G01 X160.607 Y318.772
G01 X155.906 Y317.038
G01 X158.566 Y321.328
G01 X165.032 Y323.265
G01 X171.462 Y324.745
G01 X177.826 Y325.778
G01 X184.095 Y326.372
G01 X190.243 Y326.541
G01 X196.243 Y326.297
G01 X197.039 Y326.234
G01 X203.721 Y324.132
G01 X205.394 Y323.512
G01 X210.572 Y319.190
G01 X213.157 Y314.260
G01 X214.173 Y307.759
G01 X213.665 Y302.625
G01 X213.584 Y300.801
G01 X212.583 Y297.129
G01 X211.928 Y293.938
G01 X210.734 Y291.060
G01 X209.728 Y288.172
G01 X209.105 Y286.038
G01 X207.934 Y283.551
G01 X206.907 Y281.037
G01 X206.808 Y280.773
G01 X207.841 Y282.877
G01 X208.866 Y285.457
G01 X210.045 Y288.013
G01 X211.377 Y290.538
G01 X211.792 Y291.263
G01 X212.777 Y294.382
G01 X213.979 Y297.502
G01 X214.467 Y298.626
G01 X215.259 Y302.799
G01 X216.139 Y306.200
G01 X216.306 Y312.496
G01 X214.840 Y318.367
G01 X211.326 Y323.339
G01 X204.806 Y327.313
G01 X198.690 Y328.646
G01 X192.340 Y329.556
G01 X191.435 Y329.648
G01 X185.249 Y329.564
G01 X178.936 Y329.057
G01 X172.523 Y328.116
G01 X166.037 Y326.730
G01 X161.388 Y325.465
G01 X164.409 Y329.507
G01 X171.082 Y330.876
G01 X177.677 Y331.788
G01 X184.165 Y332.255
G01 X190.519 Y332.289
G01 X196.712 Y331.906
G01 X202.720 Y331.120
G01 X203.236 Y331.033
G01 X209.786 Y328.327
G01 X211.333 Y327.596
G01 X216.118 Y322.844
G01 X218.263 Y317.712
G01 X218.703 Y311.155
G01 X217.740 Y306.069
G01 X217.500 Y304.282
G01 X216.169 Y300.685
G01 X215.242 Y297.597
G01 X213.783 Y294.803
G01 X212.512 Y291.982
G01 X211.727 Y289.982
G01 X210.321 Y287.573
G01 X209.058 Y285.124
G01 X208.971 Y284.942
G01 X210.196 Y286.963
G01 X211.468 Y289.475
G01 X212.893 Y291.950
G01 X214.468 Y294.379
G01 X214.875 Y294.964
G01 X216.150 Y298.015
G01 X217.641 Y301.046
G01 X218.191 Y302.059
G01 X219.359 Y306.169
G01 X220.526 Y309.450
G01 X221.245 Y315.700
G01 X220.298 Y321.671
G01 X217.228 Y326.924
G01 X211.070 Y331.446
G01 X205.026 Y333.319
G01 X198.709 Y334.785
G01 X197.931 Y334.933
G01 X191.702 Y335.387
G01 X185.308 Y335.427
G01 X178.775 Y335.038
G01 X172.131 Y334.206
G01 X167.578 Y333.385
G01 X170.936 Y337.151
G01 X177.764 Y337.935
G01 X184.473 Y338.266
G01 X191.034 Y338.158
G01 X197.422 Y337.627
G01 X203.611 Y336.688
G01 X209.577 Y335.362
G01 X209.817 Y335.300
G01 X216.183 Y332.001
G01 X217.598 Y331.177
G01 X221.959 Y326.032
G01 X223.650 Y320.739
G01 X223.517 Y314.175
G01 X222.108 Y309.176
G01 X221.717 Y307.440
G01 X220.063 Y303.946
G01 X218.879 Y300.984
G01 X217.162 Y298.297
G01 X215.631 Y295.567
G01 X214.706 Y293.711
G01 X213.071 Y291.402
G01 X211.577 Y289.040
G01 X211.515 Y288.935
G01 X212.925 Y290.855
G01 X214.438 Y293.277
G01 X216.100 Y295.648
G01 X217.911 Y297.959
G01 X218.290 Y298.412
G01 X219.847 Y301.369
G01 X221.619 Y304.287
G01 X222.216 Y305.185
G01 X223.751 Y309.202
G01 X225.187 Y312.339
G01 X226.449 Y318.497
G01 X226.021 Y324.520
G01 X223.414 Y330.014
G01 X217.662 Y335.048
G01 X211.736 Y337.454
G01 X205.500 Y339.473
G01 X204.852 Y339.655
G01 X198.626 Y340.650
G01 X192.199 Y341.242
G01 X185.595 Y341.414
G01 X178.840 Y341.150
G01 X174.426 Y340.743
G01 X178.093 Y344.208
G01 X185.024 Y344.395
G01 X191.795 Y344.136
G01 X198.379 Y343.448
G01 X204.751 Y342.349
G01 X210.886 Y340.859
G01 X216.736 Y339.007
G01 X222.865 Y335.131
G01 X224.144 Y334.232
G01 X228.052 Y328.735
G01 X229.283 Y323.321
G01 X228.583 Y316.800
G01 X226.737 Y311.924
G01 X226.204 Y310.253
G01 X224.237 Y306.890
G01 X222.814 Y304.073
G01 X220.849 Y301.516
G01 X219.067 Y298.900
G01 X218.021 Y297.195
G01 X216.166 Y295.007
G01 X214.448 Y292.752
G01 X214.423 Y292.718
G01 X216.008 Y294.520
G01 X217.754 Y296.831
G01 X219.645 Y299.076
G01 X221.681 Y301.247
G01 X222.012 Y301.579
G01 X223.842 Y304.417
G01 X225.886 Y307.197
G01 X226.512 Y307.982
G01 X228.405 Y311.873
G01 X230.093 Y314.846
G01 X231.881 Y320.866
G01 X231.972 Y326.898
G01 X229.843 Y332.590
G01 X224.535 Y338.095
G01 X218.773 Y341.025
G01 X212.665 Y343.591
G01 X212.147 Y343.785
G01 X205.972 Y345.320
G01 X199.559 Y346.466
G01 X192.932 Y347.204
G01 X186.115 Y347.516
G01 X181.876 Y347.490
G01 X185.823 Y350.630
G01 X192.805 Y350.212
G01 X199.586 Y349.360
G01 X206.141 Y348.092
G01 X212.447 Y346.430
G01 X218.480 Y344.393
G01 X223.943 Y342.132
G01 X229.786 Y337.699
G01 X230.928 Y336.742
G01 X234.357 Y330.935
G01 X235.122 Y325.441
G01 X233.866 Y319.011
G01 X231.599 Y314.295
G01 X230.932 Y312.699
G01 X228.624 Y309.610
G01 X226.571 Y306.451
G01 X226.067 Y305.599
G01 X223.879 Y303.313
G01 X221.857 Y300.949
G01 X220.389 Y299.047
G01 X218.371 Y297.011
G01 X217.676 Y296.258
G01 X219.423 Y297.929
G01 X221.392 Y300.107
G01 X223.502 Y302.205
G01 X225.750 Y304.216
G01 X226.016 Y304.440
G01 X228.109 Y307.135
G01 X230.410 Y309.753
G01 X231.052 Y310.428
G01 X233.290 Y314.164
G01 X235.209 Y316.953
G01 X237.506 Y322.792
G01 X238.111 Y328.788
G01 X236.470 Y334.637
G01 X231.641 Y340.572
G01 X226.077 Y344.051
G01 X220.595 Y346.966
G01 X214.556 Y349.088
G01 X208.241 Y350.842
G01 X201.672 Y352.206
G01 X194.872 Y353.160
G01 X189.870 Y353.580
G01 X194.068 Y356.376
G01 X201.047 Y355.351
G01 X207.786 Y353.906
G01 X214.263 Y352.063
G01 X220.453 Y349.843
G01 X226.337 Y347.271
G01 X231.388 Y344.657
G01 X236.897 Y339.691
G01 X237.901 Y338.695
G01 X240.832 Y332.621
G01 X241.130 Y327.086
G01 X239.332 Y320.793
G01 X236.659 Y316.270
G01 X235.869 Y314.760
G01 X233.285 Y311.856
G01 X230.950 Y308.860
G01 X230.413 Y308.108
G01 X228.011 Y305.993
G01 X225.769 Y303.785
G01 X224.192 Y302.072
G01 X221.977 Y300.191
G01 X221.249 Y299.528
G01 X223.147 Y301.052
G01 X225.327 Y303.077
G01 X227.642 Y305.009
G01 X230.088 Y306.841
G01 X230.275 Y306.972
G01 X232.618 Y309.502
G01 X235.162 Y311.935
G01 X235.804 Y312.504
G01 X238.372 Y316.055
G01 X240.503 Y318.645
G01 X243.287 Y324.262
G01 X244.395 Y330.180
G01 X243.251 Y336.142
G01 X238.933 Y342.463
G01 X233.624 Y346.435
G01 X228.450 Y349.771
G01 X222.556 Y352.414
G01 X216.354 Y354.710
G01 X209.863 Y356.636
G01 X203.106 Y358.167
G01 X198.348 Y358.976
G01 X202.764 Y361.411
G01 X209.688 Y359.781
G01 X216.335 Y357.748
G01 X222.683 Y355.337
G01 X228.710 Y352.572
G01 X234.398 Y349.480
G01 X239.019 Y346.568
G01 X244.150 Y341.097
G01 X245.019 Y340.078
G01 X247.433 Y333.781
G01 X247.267 Y328.245
G01 X244.944 Y322.132
G01 X241.885 Y317.836
G01 X240.984 Y316.421
G01 X238.140 Y313.725
G01 X235.538 Y310.915
G01 X234.981 Y310.262
G01 X232.380 Y308.336
G01 X229.930 Y306.302
G01 X228.268 Y304.781
G01 X225.868 Y303.073
G01 X225.117 Y302.499
G01 X227.153 Y303.865
G01 X229.531 Y305.718
G01 X232.036 Y307.466
G01 X234.664 Y309.100
G01 X234.759 Y309.155
G01 X237.337 Y311.497
G01 X240.109 Y313.725
G01 X240.738 Y314.194
G01 X243.619 Y317.534
G01 X245.939 Y319.910
G01 X249.185 Y325.267
G01 X250.786 Y331.065
G01 X250.142 Y337.099
G01 X246.361 Y343.759
G01 X241.348 Y348.202
G01 X236.512 Y351.925
G01 X230.808 Y355.077
G01 X224.764 Y357.905
G01 X218.398 Y360.384
G01 X211.731 Y362.488
G01 X207.246 Y363.645
G01 X211.849 Y365.704
G01 X218.666 Y363.475
G01 X225.170 Y360.864
G01 X231.341 Y357.898
G01 X237.158 Y354.604
G01 X242.606 Y351.009
G01 X246.787 Y347.856
G01 X251.495 Y341.912
G01 X252.233 Y340.885
G01 X254.119 Y334.410
G01 X253.493 Y328.912
G01 X250.667 Y323.021
G01 X247.243 Y318.981
G01 X246.241 Y317.669
G01 X243.156 Y315.202
G01 X240.304 Y312.600
G01 X239.740 Y312.044
G01 X236.955 Y310.324
G01 X234.314 Y308.482
G01 X232.587 Y307.154
G01 X230.017 Y305.634
G01 X229.253 Y305.147
G01 X231.413 Y306.344
G01 X233.974 Y308.007
G01 X236.653 Y309.554
G01 X239.438 Y310.971
G01 X242.235 Y313.105
G01 X245.216 Y315.109
G01 X245.820 Y315.484
G01 X248.995 Y318.587
G01 X251.482 Y320.738
G01 X255.164 Y325.799
G01 X257.241 Y331.439
G01 X257.098 Y337.503
G01 X253.878 Y344.454
G01 X249.199 Y349.344
G01 X244.727 Y353.418
G01 X239.255 Y357.061
G01 X233.413 Y360.407
G01 X227.219 Y363.428
G01 X220.690 Y366.097
G01 X216.501 Y367.559
G01 X221.257 Y369.231
G01 X227.914 Y366.429
G01 X234.225 Y363.269
G01 X240.171 Y359.782
G01 X245.736 Y355.993
G01 X250.905 Y351.932
G01 X254.064 Y349.146
G01 X258.389 Y342.903
G01 X259.498 Y341.114
G01 X260.845 Y334.506
G01 X259.768 Y329.082
G01 X256.464 Y323.453
G01 X252.698 Y319.697
G01 X251.607 Y318.494
G01 X248.301 Y316.275
G01 X245.216 Y313.903
G01 X244.659 Y313.438
G01 X241.708 Y311.940
G01 X238.890 Y310.308
G01 X237.119 Y309.170
G01 X234.397 Y307.854
G01 X233.629 Y307.452
G01 X235.896 Y308.469
G01 X238.624 Y309.927
G01 X241.460 Y311.256
G01 X244.281 Y312.404
G01 X247.278 Y314.313
G01 X250.449 Y316.075
G01 X251.018 Y316.365
G01 X254.465 Y319.208
G01 X257.097 Y321.124
G01 X261.185 Y325.856
G01 X263.720 Y331.300
G01 X264.075 Y337.352
G01 X261.433 Y344.547
G01 X257.127 Y349.855
G01 X253.041 Y354.243
G01 X247.841 Y358.358
G01 X242.244 Y362.204
G01 X236.266 Y365.752
G01 X229.922 Y368.973
G01 X226.045 Y370.697
G01 X230.922 Y371.974
G01 X237.374 Y368.598
G01 X243.447 Y364.892
G01 X249.125 Y360.887
G01 X254.395 Y356.611
G01 X259.243 Y352.095
G01 X262.003 Y349.221
G01 X265.841 Y342.574
G01 X266.767 Y340.764
G01 X267.571 Y334.069
G01 X266.052 Y328.756
G01 X262.297 Y323.424
G01 X258.215 Y319.979
G01 X257.047 Y318.890
G01 X253.541 Y316.938
G01 X250.244 Y314.813
G01 X249.703 Y314.434
G01 X246.605 Y313.172
G01 X243.630 Y311.763
G01 X241.834 Y310.812
G01 X238.976 Y309.715
G01 X238.212 Y309.393
G01 X240.572 Y310.222
G01 X243.448 Y311.460
G01 X246.423 Y312.558
G01 X249.256 Y313.444
G01 X252.434 Y315.111
G01 X255.773 Y316.614
G01 X256.297 Y316.829
G01 X259.994 Y319.389
G01 X262.747 Y321.063
G01 X267.211 Y325.437
G01 X270.182 Y330.649
G01 X271.028 Y336.650
G01 X268.979 Y344.039
G01 X265.080 Y349.735
G01 X261.399 Y354.399
G01 X256.509 Y358.962
G01 X251.199 Y363.287
G01 X245.479 Y367.343
G01 X239.365 Y371.101
G01 X235.814 Y373.043
G01 X240.778 Y373.918
G01 X246.976 Y369.988
G01 X252.766 Y365.758
G01 X258.134 Y361.259
G01 X263.068 Y356.522
G01 X267.558 Y351.579
G01 X269.930 Y348.663
G01 X273.247 Y341.652
G01 X273.995 Y339.841
G01 X274.253 Y333.103
G01 X272.308 Y327.935
G01 X268.130 Y322.934
G01 X263.759 Y319.825
G01 X262.527 Y318.852
G01 X258.843 Y317.182
G01 X255.355 Y315.322
G01 X254.842 Y315.023
G01 X251.616 Y314.009
G01 X248.501 Y312.838
G01 X246.700 Y312.068
G01 X243.723 Y311.200
G01 X242.973 Y310.954
G01 X245.409 Y311.589
G01 X248.414 Y312.593
G01 X251.508 Y313.449
G01 X254.328 Y314.081
G01 X257.666 Y315.490
G01 X261.152 Y316.721
G01 X261.624 Y316.870
G01 X265.545 Y319.129
G01 X268.398 Y320.555
G01 X273.203 Y324.545
G01 X276.587 Y329.493
G01 X277.916 Y335.403
G01 X276.470 Y342.935
G01 X273.008 Y348.986
G01 X269.748 Y353.888
G01 X265.205 Y358.873
G01 X260.219 Y363.653
G01 X254.800 Y368.195
G01 X248.959 Y372.469
G01 X245.741 Y374.587
G01 X250.759 Y375.058
G01 X256.658 Y370.595
G01 X262.122 Y365.865
G01 X267.139 Y360.900
G01 X271.699 Y355.732
G01 X275.796 Y350.393
G01 X277.794 Y347.480
G01 X280.560 Y340.148
G01 X281.137 Y338.352
G01 X281.026 Y332.349
G01 X278.961 Y327.319
G01 X274.727 Y322.622
G01 X269.921 Y319.516
G01 X269.134 Y318.954
G01 X265.188 Y317.413
G01 X261.519 Y315.696
G01 X258.115 Y314.847
G01 X254.821 Y313.825
G01 X253.485 Y313.351
G01 X250.368 Y312.737
G01 X247.876 Y312.124
G01 X250.372 Y312.558
G01 X253.488 Y313.318
G01 X256.679 Y313.921
G01 X259.465 Y314.307
G01 X262.942 Y315.446
G01 X266.552 Y316.394
G01 X266.964 Y316.488
G01 X271.085 Y318.428
G01 X274.014 Y319.603
G01 X279.125 Y323.185
G01 X282.896 Y327.838
G01 X284.696 Y333.619
G01 X283.858 Y341.246
G01 X280.864 Y347.616
G01 X278.035 Y352.717
G01 X273.873 Y358.095
G01 X269.247 Y363.302
G01 X264.167 Y368.305
G01 X258.641 Y373.073
G01 X255.759 Y375.325
G01 X260.799 Y375.390
G01 X266.356 Y370.422
G01 X271.453 Y365.220
G01 X276.081 Y359.819
G01 X280.233 Y354.251
G01 X283.904 Y348.550
G01 X285.547 Y345.682
G01 X287.735 Y338.073
G01 X288.150 Y336.308
G01 X287.559 Y330.333
G01 X285.097 Y325.488
G01 X280.501 Y321.153
G01 X275.439 Y318.438
G01 X274.631 Y317.955
G01 X270.543 Y316.731
G01 X266.778 Y315.333
G01 X263.281 Y314.757
G01 X259.882 Y313.998
G01 X258.580 Y313.653
G01 X255.386 Y313.291
G01 X252.890 Y312.890
G01 X255.428 Y313.120
G01 X258.634 Y313.626
G01 X261.902 Y313.967
G01 X264.633 Y314.121
G01 X268.225 Y314.978
G01 X271.936 Y315.632
G01 X272.283 Y315.682
G01 X276.576 Y317.288
G01 X279.560 Y318.212
G01 X284.941 Y321.364
G01 X289.071 Y325.695
G01 X291.327 Y331.312
G01 X291.100 Y338.984
G01 X288.598 Y345.635
G01 X286.209 Y350.896
G01 X282.458 Y356.635
G01 X278.228 Y362.240
G01 X273.524 Y367.676
G01 X268.352 Y372.912
G01 X265.804 Y375.255
G01 X270.832 Y374.919
G01 X276.006 Y369.473
G01 X280.699 Y363.832
G01 X284.903 Y358.027
G01 X288.615 Y352.095
G01 X291.832 Y346.068
G01 X293.142 Y343.282
G01 X294.730 Y335.443
G01 X294.992 Y333.723
G01 X293.928 Y327.815
G01 X291.089 Y323.184
G01 X286.162 Y319.237
G01 X280.877 Y316.930
G01 X280.056 Y316.526
G01 X275.853 Y315.629
G01 X272.019 Y314.551
G01 X268.453 Y314.256
G01 X264.969 Y313.769
G01 X263.713 Y313.544
G01 X260.463 Y313.440
G01 X257.980 Y313.247
G01 X260.543 Y313.270
G01 X263.817 Y313.514
G01 X267.140 Y313.587
G01 X269.799 Y313.521
G01 X273.483 Y314.086
G01 X277.269 Y314.439
G01 X277.548 Y314.456
G01 X281.986 Y315.716
G01 X285.002 Y316.388
G01 X290.616 Y319.095
G01 X295.077 Y323.078
G01 X297.770 Y328.496
G01 X298.152 Y336.165
G01 X296.165 Y343.057
G01 X294.221 Y348.439
G01 X290.910 Y354.507
G01 X287.106 Y360.477
G01 X282.811 Y366.315
G01 X278.030 Y371.989
G01 X275.811 Y374.385
G01 X280.796 Y373.651
G01 X285.549 Y367.761
G01 X289.802 Y361.713
G01 X293.550 Y355.542
G01 X296.793 Y349.281
G01 X299.531 Y342.967
G01 X300.534 Y340.297
G01 X301.503 Y332.276
G01 X301.622 Y330.616
G01 X300.095 Y324.809
G01 X296.899 Y320.421
G01 X291.676 Y316.883
G01 X286.202 Y315.000
G01 X285.376 Y314.674
G01 X281.084 Y314.112
G01 X277.209 Y313.354
G01 X273.595 Y313.345
G01 X270.049 Y313.138
G01 X268.850 Y313.022
G01 X265.565 Y313.181
G01 X263.112 Y313.189
G01 X265.683 Y313.004
G01 X269.004 Y312.980
G01 X272.359 Y312.780
G01 X274.928 Y312.508
G01 X278.681 Y312.775
G01 X282.518 Y312.821
G01 X282.725 Y312.817
G01 X287.280 Y313.720
G01 X290.308 Y314.143
G01 X296.117 Y316.390
G01 X300.877 Y320.003
G01 X303.988 Y325.189
G01 X304.973 Y332.807
G01 X303.520 Y339.900
G01 X302.022 Y345.365
G01 X299.176 Y351.725
G01 X295.827 Y358.026
G01 X291.973 Y364.234
G01 X287.618 Y370.314
G01 X285.717 Y372.725
G01 X290.627 Y371.600
G01 X294.925 Y365.301
G01 X298.706 Y358.884
G01 X301.970 Y352.383
G01 X304.718 Y345.834
G01 X306.954 Y339.271
G01 X307.679 Y336.748
G01 X308.015 Y328.596
G01 X308.003 Y327.005
G01 X306.025 Y321.336
G01 X302.495 Y317.216
G01 X297.012 Y314.106
G01 X291.382 Y312.660
G01 X290.559 Y312.409
G01 X286.205 Y312.189
G01 X282.315 Y311.748
G01 X278.677 Y312.029
G01 X275.092 Y312.106
G01 X273.958 Y312.088
G01 X270.659 Y312.513
G01 X268.252 Y312.715
G01 X270.814 Y312.322
G01 X274.159 Y312.027
G01 X277.524 Y311.551
G01 X279.989 Y311.088
G01 X283.830 Y311.131
G01 X287.744 Y310.941
G01 X289.186 Y310.812
G01 X294.042 Y311.497
G01 X296.553 Y311.715
G01 X303.049 Y314.069
G01 X307.525 Y317.608
G01 X310.491 Y322.813
G01 X311.525 Y330.566
G01 X310.324 Y337.591
G01 X308.575 Y344.683
G01 X308.438 Y345.157
G01 X305.808 Y351.755
G01 X302.666 Y358.316
G01 X299.010 Y364.804
G01 X295.460 Y370.291
G01 X300.267 Y368.784
G01 X304.077 Y362.114
G01 X307.358 Y355.366
G01 X310.112 Y348.576
G01 X312.343 Y341.779
G01 X314.058 Y335.009
G01 X314.537 Y332.659
G01 X314.228 Y324.424
G01 X314.098 Y322.913
G01 X311.684 Y317.416
G01 X307.844 Y313.587
G01 X302.136 Y310.922
G01 X296.386 Y309.922
G01 X295.573 Y309.743
G01 X291.184 Y309.869
G01 X287.305 Y309.741
G01 X283.667 Y310.314
G01 X280.065 Y310.678
G01 X279.003 Y310.746
G01 X275.712 Y311.439
G01 X273.365 Y311.826
G01 X275.902 Y311.228
G01 X279.249 Y310.658
G01 X282.601 Y309.906
G01 X284.950 Y309.268
G01 X288.815 Y309.001
G01 X292.736 Y308.493
G01 X294.093 Y308.262
G01 X299.017 Y308.559
G01 X301.505 Y308.578
G01 X308.163 Y310.411
G01 X312.899 Y313.586
G01 X316.260 Y318.543
G01 X317.895 Y326.195
G01 X317.237 Y333.356
G01 X316.033 Y340.626
G01 X315.957 Y340.996
G01 X313.832 Y347.832
G01 X311.190 Y354.670
G01 X308.025 Y361.474
G01 X304.983 Y367.101
G01 X309.658 Y365.224
G01 X312.951 Y358.223
G01 X315.706 Y351.186
G01 X317.928 Y344.148
G01 X319.624 Y337.145
G01 X320.803 Y330.210
G01 X321.068 Y328.054
G01 X320.108 Y319.790
G01 X319.873 Y318.366
G01 X317.040 Y313.072
G01 X312.915 Y309.556
G01 X307.020 Y307.349
G01 X301.185 Y306.802
G01 X300.387 Y306.692
G01 X295.992 Y307.166
G01 X292.148 Y307.343
G01 X288.533 Y308.209
G01 X284.937 Y308.860
G01 X283.953 Y309.003
G01 X280.692 Y309.963
G01 X278.419 Y310.527
G01 X280.914 Y309.725
G01 X284.240 Y308.881
G01 X287.557 Y307.853
G01 X289.778 Y307.057
G01 X293.643 Y306.477
G01 X297.545 Y305.653
G01 X298.811 Y305.333
G01 X303.772 Y305.239
G01 X306.222 Y305.064
G01 X312.998 Y306.368
G01 X317.965 Y309.162
G01 X321.698 Y313.844
G01 X323.921 Y321.350
G01 X323.817 Y328.603
G01 X323.171 Y336.009
G01 X323.139 Y336.270
G01 X321.537 Y343.303
G01 X319.416 Y350.377
G01 X316.766 Y357.460
G01 X314.228 Y363.180
G01 X318.743 Y360.947
G01 X321.494 Y353.656
G01 X323.702 Y346.372
G01 X325.373 Y339.129
G01 X326.519 Y331.963
G01 X327.151 Y324.908
G01 X327.237 Y322.964
G01 X325.622 Y314.720
G01 X325.296 Y313.391
G01 X322.063 Y308.331
G01 X317.681 Y305.147
G01 X311.635 Y303.407
G01 X305.752 Y303.318
G01 X304.975 Y303.272
G01 X300.600 Y304.093
G01 X296.815 Y304.569
G01 X293.247 Y305.724
G01 X289.679 Y306.664
G01 X288.778 Y306.868
G01 X285.568 Y308.094
G01 X283.381 Y308.823
G01 X285.818 Y307.822
G01 X289.101 Y306.705
G01 X292.361 Y305.404
G01 X294.444 Y304.467
G01 X298.285 Y303.576
G01 X302.142 Y302.435
G01 X303.312 Y302.040
G01 X308.279 Y301.553
G01 X310.676 Y301.192
G01 X317.529 Y301.963
G01 X322.694 Y304.364
G01 X326.776 Y308.743
G01 X329.571 Y316.059
G01 X330.027 Y323.361
G01 X329.950 Y330.859
G01 X329.943 Y331.008
G01 X328.880 Y338.196
G01 X327.297 Y345.467
G01 X325.183 Y352.787
G01 X323.142 Y358.556
G01 X327.471 Y355.983
G01 X329.670 Y348.459
G01 X331.323 Y340.984
G01 X332.443 Y333.591
G01 X333.041 Y326.317
G01 X333.131 Y319.192
G01 X333.107 Y318.283
G01 X331.132 Y310.243
G01 X330.677 Y308.713
G01 X326.726 Y303.220
G01 X322.114 Y300.384
G01 X315.955 Y299.119
G01 X310.059 Y299.488
G01 X309.309 Y299.502
G01 X304.981 Y300.669
G01 X301.278 Y301.432
G01 X297.778 Y302.874
G01 X294.262 Y304.099
G01 X293.445 Y304.352
G01 X290.308 Y305.840
G01 X288.219 Y306.724
G01 X290.582 Y305.529
G01 X293.801 Y304.143
G01 X296.980 Y302.573
G01 X298.920 Y301.512
G01 X302.710 Y300.311
G01 X306.498 Y298.860
G01 X307.570 Y298.402
G01 X312.512 Y297.523
G01 X314.843 Y296.985
G01 X321.731 Y297.222
G01 X327.061 Y299.217
G01 X331.466 Y303.270
G01 X334.813 Y310.353
G01 X335.834 Y317.662
G01 X336.332 Y325.208
G01 X336.333 Y325.243
G01 X335.819 Y332.545
G01 X334.788 Y339.970
G01 X333.228 Y347.485
G01 X331.674 Y353.261
G01 X335.793 Y350.364
G01 X337.411 Y342.638
G01 X338.485 Y335.004
G01 X339.029 Y327.495
G01 X339.057 Y320.146
G01 X338.588 Y312.986
G01 X338.517 Y312.307
G01 X335.907 Y304.369
G01 X335.362 Y302.944
G01 X331.003 Y297.768
G01 X326.190 Y295.294
G01 X319.957 Y294.507
G01 X314.081 Y295.334
G01 X313.363 Y295.404
G01 X309.109 Y296.911
G01 X305.509 Y297.951
G01 X302.100 Y299.674
G01 X298.658 Y301.180
G01 X297.928 Y301.471
G01 X294.884 Y303.214
G01 X292.902 Y304.241
G01 X295.176 Y302.860
G01 X298.309 Y301.209
G01 X301.387 Y299.376
G01 X303.177 Y298.208
G01 X306.894 Y296.703
G01 X310.587 Y294.946
G01 X311.558 Y294.439
G01 X316.446 Y293.172
G01 X318.697 Y292.464
G01 X325.579 Y292.171
G01 X331.043 Y293.751
G01 X335.742 Y297.456
G01 X339.620 Y304.268
G01 X341.205 Y311.539
G01 X342.274 Y319.010
G01 X342.317 Y326.383
G01 X341.850 Y333.920
G01 X340.857 Y341.588
G01 X339.776 Y347.330
G01 X343.662 Y344.128
G01 X344.685 Y336.246
G01 X345.169 Y328.499
G01 X345.129 Y320.919
G01 X344.584 Y313.539
G01 X343.553 Y306.389
G01 X343.470 Y305.938
G01 X340.233 Y298.152
G01 X339.611 Y296.836
G01 X334.873 Y292.005
G01 X329.888 Y289.905
G01 X323.616 Y289.599
G01 X317.797 Y290.880
G01 X317.114 Y291.000
G01 X312.961 Y292.841
G01 X309.482 Y294.144
G01 X306.186 Y296.141
G01 X302.841 Y297.922
G01 X302.197 Y298.238
G01 X299.266 Y300.230
G01 X297.400 Y301.389
G01 X299.571 Y299.829
G01 X302.597 Y297.920
G01 X305.553 Y295.833
G01 X307.190 Y294.575
G01 X310.809 Y292.770
G01 X314.384 Y290.715
G01 X315.255 Y290.172
G01 X320.057 Y288.522
G01 X322.218 Y287.655
G01 X329.053 Y286.837
G01 X334.619 Y287.996
G01 X339.583 Y291.335
G01 X343.966 Y297.836
G01 X346.113 Y305.027
G01 X347.734 Y312.346
G01 X348.339 Y319.748
G01 X348.443 Y327.353
G01 X348.029 Y335.130
G01 X347.403 Y340.800
G01 X351.036 Y337.314
G01 X351.453 Y329.322
G01 X351.338 Y321.508
G01 X350.711 Y313.902
G01 X349.591 Y306.537
G01 X348.000 Y299.440
G01 X347.941 Y299.214
G01 X344.087 Y291.628
G01 X343.403 Y290.425
G01 X338.314 Y285.964
G01 X333.187 Y284.248
G01 X326.914 Y284.420
G01 X321.186 Y286.148
G01 X320.541 Y286.313
G01 X316.513 Y288.480
G01 X313.175 Y290.032
G01 X310.014 Y292.294
G01 X306.785 Y294.344
G01 X306.227 Y294.673
G01 X303.429 Y296.906
G01 X301.686 Y298.183
G01 X303.741 Y296.452
G01 X306.639 Y294.294
G01 X309.453 Y291.962
G01 X310.935 Y290.631
G01 X314.432 Y288.535
G01 X317.867 Y286.192
G01 X318.637 Y285.625
G01 X323.326 Y283.599
G01 X325.385 Y282.585
G01 X332.135 Y281.249
G01 X337.769 Y281.984
G01 X342.970 Y284.939
G01 X347.830 Y291.095
G01 X350.532 Y298.163
G01 X352.686 Y305.290
G01 X353.853 Y312.678
G01 X354.533 Y320.309
G01 X354.705 Y328.150
G01 X354.515 Y333.713
G01 X357.874 Y329.964
G01 X357.679 Y321.910
G01 X356.962 Y314.075
G01 X355.746 Y306.489
G01 X354.054 Y299.182
G01 X351.909 Y292.182
G01 X351.906 Y292.174
G01 X347.452 Y284.835
G01 X346.719 Y283.744
G01 X341.310 Y279.677
G01 X336.070 Y278.352
G01 X329.832 Y278.998
G01 X324.228 Y281.165
G01 X323.625 Y281.369
G01 X319.747 Y283.852
G01 X316.565 Y285.638
G01 X313.559 Y288.154
G01 X310.468 Y290.463
G01 X309.993 Y290.795
G01 X307.346 Y293.258
G01 X305.733 Y294.641
G01 X307.659 Y292.750
G01 X310.410 Y290.352
G01 X313.062 Y287.786
G01 X314.388 Y286.398
G01 X317.742 Y284.021
G01 X321.014 Y281.401
G01 X321.687 Y280.822
G01 X326.233 Y278.431
G01 X328.182 Y277.280
G01 X334.807 Y275.438
G01 X340.477 Y275.747
G01 X345.884 Y278.305
G01 X351.193 Y284.082
G01 X354.441 Y290.985
G01 X357.104 Y297.883
G01 X358.832 Y305.215
G01 X360.088 Y312.827
G01 X360.850 Y320.689
G01 X361.073 Y326.112
G01 X364.143 Y322.122
G01 X363.331 Y314.053
G01 X362.012 Y306.243
G01 X360.211 Y298.723
G01 X357.951 Y291.519
G01 X355.347 Y284.855
G01 X350.311 Y277.809
G01 X349.542 Y276.832
G01 X343.844 Y273.179
G01 X338.523 Y272.250
G01 X332.354 Y273.362
G01 X326.906 Y275.957
