;  Created by Sandify
;  https://sandify.org
;  Version: 0.2.6
;
;  Machine type: Rectangular
;    Min X (mm): 0
;    Max X (mm): 500
;    Min Y (mm): 0
;    Max Y (mm): 500
;  Content type: shape
;  Layer:
;    Shape: FileImport
;    Name: WinterbourneBassett 6-1-1997.thr
;    From file:: WinterbourneBassett 6-1-1997.thr
;    Aspect Ratio: true
;    Comments: 
;    Visible: true
;    Initial width: 10
;    Initial height: 10
;    X offset: 0
;    Y offset: 0
;    Rotate (degrees): 0
;    Reverse path: false
;    Fine tuning:
;      Connect to next layer: line
;      Draw portion of path (%): 100
;      Backtrack at end (%): 0
;      Rotate starting point (%): 0
;  Reverse export path: false
;
; File name: 'WinterbourneBassett (C C)'
; File type: gcode
;

G01 X250.000 Y250.000
G01 X250.144 Y252.924
G01 X250.574 Y255.827
G01 X251.289 Y258.687
G01 X252.284 Y261.485
G01 X253.557 Y264.199
G01 X255.099 Y266.808
G01 X256.904 Y269.294
G01 X258.962 Y271.637
G01 X261.265 Y273.817
G01 X263.800 Y275.818
G01 X266.555 Y277.620
G01 X269.517 Y279.209
G01 X272.670 Y280.567
G01 X276.000 Y281.681
G01 X279.489 Y282.536
G01 X283.120 Y283.120
G01 X286.875 Y283.421
G01 X290.733 Y283.429
G01 X294.676 Y283.134
G01 X298.682 Y282.528
G01 X302.730 Y281.605
G01 X306.799 Y280.360
G01 X310.867 Y278.788
G01 X314.911 Y276.887
G01 X318.908 Y274.656
G01 X322.836 Y272.095
G01 X326.672 Y269.205
G01 X330.393 Y265.991
G01 X333.977 Y262.457
G01 X337.400 Y258.608
G01 X340.641 Y254.453
G01 X343.678 Y250.000
G01 X346.489 Y245.260
G01 X349.054 Y240.244
G01 X351.352 Y234.966
G01 X353.363 Y229.440
G01 X355.069 Y223.681
G01 X356.453 Y217.708
G01 X357.496 Y211.537
G01 X358.184 Y205.189
G01 X358.502 Y198.683
G01 X358.435 Y192.041
G01 X357.971 Y185.285
G01 X357.100 Y178.438
G01 X355.811 Y171.526
G01 X354.095 Y164.571
G01 X351.947 Y157.600
G01 X349.361 Y150.639
G01 X346.332 Y143.714
G01 X342.858 Y136.853
G01 X338.938 Y130.081
G01 X334.573 Y123.428
G01 X329.765 Y116.920
G01 X324.519 Y110.584
G01 X318.840 Y104.449
G01 X312.736 Y98.542
G01 X306.215 Y92.890
G01 X299.288 Y87.519
G01 X291.967 Y82.457
G01 X284.267 Y77.728
G01 X276.202 Y73.359
G01 X267.790 Y69.372
G01 X259.050 Y65.793
G01 X250.000 Y62.644
G01 X240.663 Y59.945
G01 X231.062 Y57.719
G01 X221.220 Y55.984
G01 X211.164 Y54.759
G01 X200.920 Y54.060
G01 X190.515 Y53.903
G01 X179.978 Y54.301
G01 X169.340 Y55.268
G01 X158.630 Y56.814
G01 X147.881 Y58.949
G01 X137.124 Y61.679
G01 X126.394 Y65.010
G01 X115.722 Y68.946
G01 X105.142 Y73.490
G01 X94.690 Y78.642
G01 X84.399 Y84.399
G01 X74.303 Y90.758
G01 X64.439 Y97.714
G01 X54.838 Y105.258
G01 X45.537 Y113.382
G01 X36.569 Y122.074
G01 X33.094 Y125.696
G01 X39.454 Y115.202
G01 X46.322 Y105.034
G01 X53.680 Y95.214
G01 X61.512 Y85.768
G01 X69.797 Y76.717
G01 X78.517 Y68.083
G01 X87.650 Y59.888
G01 X97.174 Y52.151
G01 X107.066 Y44.891
G01 X117.302 Y38.124
G01 X124.998 Y33.495
G01 X124.830 Y35.587
G01 X125.030 Y35.239
G01 X126.262 Y33.087
G01 X126.560 Y32.600
G01 X128.238 Y31.656
G01 X129.506 Y30.954
G01 X128.985 Y31.870
G01 X127.742 Y34.028
G01 X126.493 Y36.182
G01 X125.251 Y38.354
G01 X124.607 Y39.433
G01 X124.565 Y40.652
G01 X124.521 Y43.073
G01 X124.557 Y42.992
G01 X125.812 Y40.840
G01 X127.050 Y38.662
G01 X128.296 Y36.503
G01 X129.548 Y34.361
G01 X130.805 Y32.181
G01 X132.046 Y30.030
G01 X132.430 Y29.371
G01 X133.911 Y28.588
G01 X135.286 Y27.872
G01 X134.818 Y28.706
G01 X133.563 Y30.863
G01 X132.315 Y33.038
G01 X131.061 Y35.207
G01 X129.824 Y37.360
G01 X128.561 Y39.520
G01 X127.327 Y41.687
G01 X126.068 Y43.861
G01 X124.825 Y46.021
G01 X124.521 Y46.530
G01 X124.566 Y48.414
G01 X124.612 Y49.829
G01 X125.170 Y48.892
G01 X126.402 Y46.727
G01 X127.664 Y44.567
G01 X128.909 Y42.383
G01 X130.141 Y40.228
G01 X131.402 Y38.079
G01 X132.647 Y35.903
G01 X133.899 Y33.745
G01 X135.146 Y31.582
G01 X136.411 Y29.402
G01 X137.660 Y27.250
G01 X138.116 Y26.433
G01 X139.594 Y25.700
G01 X140.919 Y25.052
G01 X140.408 Y25.941
G01 X139.166 Y28.089
G01 X137.909 Y30.263
G01 X136.669 Y32.421
G01 X135.403 Y34.585
G01 X134.165 Y36.755
G01 X132.924 Y38.919
G01 X131.657 Y41.091
G01 X130.408 Y43.246
G01 X129.167 Y45.420
G01 X127.910 Y47.567
G01 X126.662 Y49.733
G01 X125.410 Y51.896
G01 X124.783 Y53.003
G01 X124.890 Y54.298
G01 X125.026 Y56.053
G01 X125.400 Y55.396
G01 X126.650 Y53.214
G01 X127.891 Y51.061
G01 X129.148 Y48.894
G01 X130.402 Y46.723
G01 X131.666 Y44.570
G01 X132.893 Y42.402
G01 X134.150 Y40.241
G01 X135.403 Y38.075
G01 X136.652 Y35.903
G01 X137.910 Y33.749
G01 X139.151 Y31.567
G01 X140.400 Y29.401
G01 X141.656 Y27.252
G01 X142.906 Y25.096
G01 X143.672 Y23.738
G01 X144.578 Y23.315
G01 X146.417 Y22.468
G01 X146.145 Y22.895
G01 X144.900 Y25.068
G01 X143.651 Y27.234
G01 X142.397 Y29.393
G01 X141.172 Y31.558
G01 X139.921 Y33.727
G01 X138.667 Y35.891
G01 X137.408 Y38.049
G01 X136.158 Y40.224
G01 X134.926 Y42.383
G01 X133.670 Y44.548
G01 X132.411 Y46.709
G01 X131.161 Y48.887
G01 X129.916 Y51.029
G01 X128.661 Y53.200
G01 X127.403 Y55.368
G01 X126.163 Y57.521
G01 X125.338 Y58.979
G01 X125.430 Y59.785
G01 X125.690 Y61.829
G01 X125.919 Y61.438
G01 X127.169 Y59.252
G01 X128.412 Y57.097
G01 X129.672 Y54.926
G01 X130.910 Y52.765
G01 X132.178 Y50.609
G01 X133.412 Y48.440
G01 X134.676 Y46.277
G01 X135.916 Y44.121
G01 X137.175 Y41.948
G01 X138.410 Y39.782
G01 X139.674 Y37.621
G01 X140.914 Y35.466
G01 X142.172 Y33.294
G01 X143.405 Y31.127
G01 X144.667 Y28.965
G01 X145.903 Y26.807
G01 X147.157 Y24.631
G01 X148.417 Y22.472
G01 X149.109 Y21.262
G01 X150.117 Y20.820
G01 X151.769 Y20.107
G01 X151.432 Y20.714
G01 X150.171 Y22.870
G01 X148.917 Y25.042
G01 X147.681 Y27.196
G01 X146.429 Y29.376
G01 X145.163 Y31.527
G01 X143.926 Y33.683
G01 X142.676 Y35.865
G01 X141.432 Y38.009
G01 X140.176 Y40.179
G01 X138.929 Y42.367
G01 X137.688 Y44.515
G01 X136.436 Y46.692
G01 X135.170 Y48.843
G01 X133.934 Y50.999
G01 X132.689 Y53.184
G01 X131.429 Y55.345
G01 X130.167 Y57.501
G01 X128.937 Y59.664
G01 X127.685 Y61.836
G01 X126.432 Y64.006
G01 X126.102 Y64.556
G01 X126.393 Y66.348
G01 X126.561 Y67.229
G01 X127.364 Y65.848
G01 X128.597 Y63.688
G01 X129.862 Y61.535
G01 X131.112 Y59.358
G01 X132.354 Y57.211
G01 X133.602 Y55.027
G01 X134.861 Y52.861
G01 X136.099 Y50.702
G01 X137.355 Y48.527
G01 X138.602 Y46.381
G01 X139.866 Y44.218
G01 X141.096 Y42.040
G01 X142.368 Y39.889
G01 X143.605 Y37.720
G01 X144.851 Y35.568
G01 X146.104 Y33.377
G01 X147.354 Y31.234
G01 X148.591 Y29.062
G01 X149.856 Y26.895
G01 X151.096 Y24.730
G01 X152.365 Y22.572
G01 X153.597 Y20.392
G01 X154.420 Y18.993
G01 X155.159 Y18.688
G01 X157.036 Y17.927
G01 X156.800 Y18.345
G01 X155.530 Y20.509
G01 X154.289 Y22.677
G01 X153.044 Y24.838
G01 X151.796 Y26.990
G01 X150.532 Y29.168
G01 X149.287 Y31.328
G01 X148.049 Y33.504
G01 X146.777 Y35.660
G01 X145.535 Y37.823
G01 X144.301 Y40.001
G01 X143.033 Y42.161
G01 X141.796 Y44.327
G01 X140.556 Y46.487
G01 X139.294 Y48.652
G01 X138.031 Y50.813
G01 X136.799 Y52.980
G01 X135.546 Y55.154
G01 X134.292 Y57.323
G01 X133.057 Y59.477
G01 X131.801 Y61.640
G01 X130.544 Y63.799
G01 X129.300 Y65.977
G01 X128.042 Y68.131
G01 X127.052 Y69.827
G01 X127.176 Y70.317
G01 X127.604 Y72.358
G01 X127.807 Y72.006
G01 X129.052 Y69.832
G01 X130.310 Y67.676
G01 X131.555 Y65.497
G01 X132.813 Y63.336
G01 X134.071 Y61.172
G01 X135.309 Y59.016
G01 X136.566 Y56.845
G01 X137.803 Y54.681
G01 X139.071 Y52.524
G01 X140.306 Y50.350
G01 X141.552 Y48.194
G01 X142.817 Y46.021
G01 X144.061 Y43.853
G01 X145.314 Y41.702
G01 X146.555 Y39.522
G01 X147.804 Y37.358
G01 X149.063 Y35.210
G01 X150.308 Y33.032
G01 X151.562 Y30.870
G01 X152.813 Y28.700
G01 X154.049 Y26.556
G01 X155.304 Y24.393
G01 X156.555 Y22.223
G01 X157.804 Y20.044
G01 X159.058 Y17.879
G01 X159.618 Y16.910
G01 X160.831 Y16.443
G01 X162.187 Y15.930
G01 X161.654 Y16.852
G01 X160.408 Y19.017
G01 X159.158 Y21.172
G01 X157.914 Y23.342
G01 X156.644 Y25.513
G01 X155.394 Y27.666
G01 X154.150 Y29.835
G01 X152.904 Y31.995
G01 X151.666 Y34.170
G01 X150.394 Y36.325
G01 X149.153 Y38.486
G01 X147.920 Y40.663
G01 X146.654 Y42.820
G01 X145.418 Y44.984
G01 X144.161 Y47.152
G01 X142.903 Y49.314
G01 X141.656 Y51.492
G01 X140.396 Y53.644
G01 X139.149 Y55.812
G01 X137.900 Y57.976
G01 X136.652 Y60.136
G01 X135.416 Y62.313
G01 X134.167 Y64.465
G01 X132.900 Y66.625
G01 X131.664 Y68.792
G01 X130.411 Y70.968
G01 X129.176 Y73.129
G01 X128.183 Y74.816
G01 X128.340 Y75.377
G01 X128.818 Y77.208
G01 X129.111 Y76.668
G01 X130.367 Y74.496
G01 X131.606 Y72.334
G01 X132.878 Y70.179
G01 X134.118 Y68.012
G01 X135.360 Y65.842
G01 X136.615 Y63.690
G01 X137.857 Y61.513
G01 X139.113 Y59.353
G01 X140.369 Y57.189
G01 X141.605 Y55.031
G01 X142.861 Y52.857
G01 X144.109 Y50.711
G01 X145.365 Y48.526
G01 X146.611 Y46.368
G01 X147.857 Y44.204
G01 X149.102 Y42.034
G01 X150.358 Y39.879
G01 X151.611 Y37.717
G01 X152.863 Y35.549
G01 X154.114 Y33.372
G01 X155.352 Y31.221
G01 X156.609 Y29.052
G01 X157.864 Y26.875
G01 X159.103 Y24.722
G01 X160.363 Y22.551
G01 X161.606 Y20.403
G01 X162.868 Y18.238
G01 X164.104 Y16.072
G01 X164.720 Y14.995
G01 X165.920 Y14.563
G01 X167.240 Y14.096
G01 X166.704 Y15.054
G01 X165.443 Y17.206
G01 X164.188 Y19.372
G01 X162.939 Y21.552
G01 X161.700 Y23.691
G01 X160.454 Y25.876
G01 X159.197 Y28.030
G01 X157.947 Y30.198
G01 X156.695 Y32.357
G01 X155.451 Y34.532
G01 X154.206 Y36.698
G01 X152.959 Y38.857
G01 X151.690 Y41.019
G01 X150.452 Y43.186
G01 X149.193 Y45.356
G01 X147.954 Y47.510
G01 X146.694 Y49.668
G01 X145.445 Y51.842
G01 X144.197 Y54.010
G01 X142.949 Y56.172
G01 X141.701 Y58.330
G01 X140.466 Y60.504
G01 X139.200 Y62.664
G01 X137.967 Y64.829
G01 X136.702 Y66.980
G01 X135.452 Y69.150
G01 X134.203 Y71.316
G01 X132.955 Y73.479
G01 X131.708 Y75.640
G01 X130.445 Y77.811
G01 X129.459 Y79.539
G01 X129.585 Y79.971
G01 X130.135 Y81.819
G01 X130.443 Y81.324
G01 X131.676 Y79.147
G01 X132.926 Y76.989
G01 X134.177 Y74.829
G01 X135.430 Y72.666
G01 X136.684 Y70.500
G01 X137.922 Y68.343
G01 X139.179 Y66.170
G01 X140.420 Y64.005
G01 X141.693 Y61.846
G01 X142.936 Y59.672
G01 X144.173 Y57.525
G01 X145.418 Y55.340
G01 X146.675 Y53.172
G01 X147.925 Y51.030
G01 X149.184 Y48.851
G01 X150.434 Y46.697
G01 X151.673 Y44.514
G01 X152.933 Y42.369
G01 X154.183 Y40.194
G01 X155.421 Y38.044
G01 X156.679 Y35.877
G01 X157.915 Y33.712
G01 X159.171 Y31.529
G01 X160.414 Y29.369
G01 X161.686 Y27.216
G01 X162.925 Y25.039
G01 X164.171 Y22.876
G01 X165.423 Y20.728
G01 X166.663 Y18.546
G01 X167.917 Y16.402
G01 X169.160 Y14.224
G01 X169.745 Y13.232
G01 X171.048 Y12.794
G01 X172.211 Y12.410
G01 X171.592 Y13.483
G01 X170.336 Y15.671
G01 X169.093 Y17.818
G01 X167.831 Y19.986
G01 X166.598 Y22.160
G01 X165.331 Y24.309
G01 X164.102 Y26.487
G01 X162.840 Y28.642
G01 X161.586 Y30.810
G01 X160.330 Y32.970
G01 X159.083 Y35.144
G01 X157.835 Y37.311
G01 X156.586 Y39.469
G01 X155.347 Y41.642
G01 X154.097 Y43.785
G01 X152.837 Y45.952
G01 X151.589 Y48.136
G01 X150.350 Y50.280
G01 X149.102 Y52.450
G01 X147.855 Y54.614
G01 X146.590 Y56.782
G01 X145.358 Y58.956
G01 X144.095 Y61.114
G01 X142.846 Y63.288
G01 X141.586 Y65.436
G01 X140.340 Y67.601
G01 X139.096 Y69.763
G01 X137.836 Y71.931
G01 X136.610 Y74.106
G01 X135.354 Y76.269
G01 X134.100 Y78.428
G01 X132.848 Y80.586
G01 X131.613 Y82.762
G01 X130.861 Y84.035
G01 X131.168 Y84.985
G01 X131.603 Y86.212
G01 X132.197 Y85.200
G01 X133.449 Y83.030
G01 X134.687 Y80.870
G01 X135.945 Y78.696
G01 X137.188 Y76.531
G01 X138.434 Y74.363
G01 X139.696 Y72.213
G01 X140.947 Y70.039
G01 X142.182 Y67.871
G01 X143.432 Y65.720
G01 X144.702 Y63.555
G01 X145.925 Y61.383
G01 X147.181 Y59.218
G01 X148.438 Y57.047
G01 X149.689 Y54.902
G01 X150.930 Y52.729
G01 X152.183 Y50.572
G01 X153.438 Y48.409
G01 X154.693 Y46.238
G01 X155.928 Y44.070
G01 X157.194 Y41.907
G01 X158.440 Y39.746
G01 X159.686 Y37.577
G01 X160.941 Y35.423
G01 X162.186 Y33.237
G01 X163.427 Y31.097
G01 X164.680 Y28.917
G01 X165.941 Y26.751
G01 X167.178 Y24.584
G01 X168.421 Y22.430
G01 X169.685 Y20.259
G01 X170.932 Y18.109
G01 X172.168 Y15.926
G01 X173.441 Y13.771
G01 X174.663 Y11.622
G01 X177.122 Y10.858
G01 X177.081 Y10.897
G01 X175.846 Y13.058
G01 X174.583 Y15.215
G01 X173.348 Y17.378
G01 X172.096 Y19.562
G01 X170.833 Y21.712
G01 X169.600 Y23.868
G01 X168.350 Y26.045
G01 X167.099 Y28.212
G01 X165.846 Y30.370
G01 X164.602 Y32.542
G01 X163.357 Y34.705
G01 X162.090 Y36.868
G01 X160.854 Y39.037
G01 X159.597 Y41.206
G01 X158.341 Y43.367
G01 X157.084 Y45.521
G01 X155.839 Y47.689
G01 X154.595 Y49.850
G01 X153.352 Y52.004
G01 X152.102 Y54.184
G01 X150.853 Y56.356
G01 X149.595 Y58.501
G01 X148.361 Y60.683
G01 X147.100 Y62.848
G01 X145.859 Y64.998
G01 X144.614 Y67.174
G01 X143.341 Y69.335
G01 X142.102 Y71.502
G01 X140.865 Y73.665
G01 X139.600 Y75.814
G01 X138.351 Y77.982
G01 X137.106 Y80.146
G01 X135.846 Y82.319
G01 X134.607 Y84.478
G01 X133.354 Y86.647
G01 X132.359 Y88.350
G01 X132.556 Y88.857
G01 X133.161 Y90.427
G01 X133.576 Y89.753
G01 X134.819 Y87.568
G01 X136.065 Y85.413
G01 X137.313 Y83.257
G01 X138.565 Y81.098
G01 X139.807 Y78.916
G01 X141.066 Y76.752
G01 X142.311 Y74.595
G01 X143.560 Y72.434
G01 X144.811 Y70.269
G01 X146.066 Y68.099
G01 X147.305 Y65.935
G01 X148.548 Y63.766
G01 X149.805 Y61.613
G01 X151.064 Y59.454
G01 X152.315 Y57.267
G01 X153.559 Y55.106
G01 X154.806 Y52.938
G01 X156.066 Y50.785
G01 X157.307 Y48.635
G01 X158.559 Y46.446
G01 X159.812 Y44.303
G01 X161.056 Y42.129
G01 X162.311 Y39.970
G01 X163.566 Y37.803
G01 X164.801 Y35.636
G01 X166.066 Y33.474
G01 X167.309 Y31.312
G01 X168.551 Y29.140
G01 X169.801 Y26.982
G01 X171.050 Y24.814
G01 X172.306 Y22.659
G01 X173.552 Y20.471
G01 X174.813 Y18.320
G01 X176.047 Y16.166
G01 X177.303 Y13.993
G01 X178.563 Y11.833
G01 X179.517 Y10.141
G01 X180.093 Y9.973
G01 X181.919 Y9.449
G01 X181.627 Y9.973
G01 X180.385 Y12.127
G01 X179.123 Y14.301
G01 X177.883 Y16.456
G01 X176.624 Y18.632
G01 X175.386 Y20.789
G01 X174.123 Y22.943
G01 X172.890 Y25.102
G01 X171.641 Y27.283
G01 X170.382 Y29.430
G01 X169.141 Y31.614
G01 X167.890 Y33.765
G01 X166.627 Y35.938
G01 X165.385 Y38.094
G01 X164.132 Y40.273
G01 X162.880 Y42.443
G01 X161.629 Y44.604
G01 X160.379 Y46.757
G01 X159.141 Y48.925
G01 X157.884 Y51.095
G01 X156.629 Y53.257
G01 X155.377 Y55.412
G01 X154.137 Y57.582
G01 X152.900 Y59.746
G01 X151.647 Y61.913
G01 X150.397 Y64.074
G01 X149.131 Y66.239
G01 X147.887 Y68.389
G01 X146.640 Y70.565
G01 X145.397 Y72.737
G01 X144.145 Y74.883
G01 X142.892 Y77.056
G01 X141.643 Y79.226
G01 X140.397 Y81.393
G01 X139.156 Y83.556
G01 X137.888 Y85.707
G01 X136.639 Y87.877
G01 X135.394 Y90.045
G01 X134.152 Y92.211
G01 X133.990 Y92.485
G01 X134.831 Y94.475
G01 X134.846 Y94.464
G01 X136.089 Y92.285
G01 X137.336 Y90.136
G01 X138.603 Y87.975
G01 X139.844 Y85.802
G01 X141.091 Y83.627
G01 X142.339 Y81.480
G01 X143.594 Y79.298
G01 X144.850 Y77.145
G01 X146.081 Y74.976
G01 X147.345 Y72.814
G01 X148.596 Y70.658
G01 X149.838 Y68.475
G01 X151.079 Y66.318
G01 X152.341 Y64.146
G01 X153.600 Y62.000
G01 X154.832 Y59.834
G01 X156.096 Y57.675
G01 X157.334 Y55.496
G01 X158.586 Y53.332
G01 X159.839 Y51.161
G01 X161.086 Y49.014
G01 X162.324 Y46.836
G01 X163.574 Y44.673
G01 X164.835 Y42.524
G01 X166.089 Y40.344
G01 X167.331 Y38.186
G01 X168.574 Y36.019
G01 X169.827 Y33.866
G01 X171.080 Y31.703
G01 X172.332 Y29.531
G01 X173.593 Y27.372
G01 X174.831 Y25.210
G01 X176.091 Y23.031
G01 X177.334 Y20.872
G01 X178.576 Y18.702
G01 X179.823 Y16.544
G01 X181.068 Y14.376
G01 X182.342 Y12.213
G01 X183.589 Y10.046
G01 X184.304 Y8.786
G01 X185.317 Y8.513
G01 X186.671 Y8.154
G01 X186.120 Y9.101
G01 X184.878 Y11.273
G01 X183.634 Y13.433
G01 X182.370 Y15.612
G01 X181.128 Y17.772
G01 X179.884 Y19.922
G01 X178.623 Y22.091
G01 X177.390 Y24.265
G01 X176.127 Y26.413
G01 X174.879 Y28.597
G01 X173.623 Y30.747
G01 X172.374 Y32.911
G01 X171.135 Y35.088
G01 X169.866 Y37.240
G01 X168.628 Y39.398
G01 X167.380 Y41.578
G01 X166.123 Y43.726
G01 X164.887 Y45.912
G01 X163.624 Y48.074
G01 X162.382 Y50.219
G01 X161.133 Y52.387
G01 X159.886 Y54.548
G01 X158.634 Y56.733
G01 X157.374 Y58.888
G01 X156.129 Y61.059
G01 X154.887 Y63.223
G01 X153.630 Y65.390
G01 X152.377 Y67.551
G01 X151.128 Y69.706
G01 X149.895 Y71.877
G01 X148.637 Y74.031
G01 X147.395 Y76.202
G01 X146.128 Y78.358
G01 X144.879 Y80.530
G01 X143.635 Y82.699
G01 X142.396 Y84.864
G01 X141.131 Y87.017
G01 X139.886 Y89.187
G01 X138.645 Y91.355
G01 X137.380 Y93.512
G01 X136.134 Y95.688
G01 X135.711 Y96.437
G01 X136.378 Y97.905
G01 X136.601 Y98.362
G01 X137.589 Y96.635
G01 X138.842 Y94.463
G01 X140.084 Y92.301
G01 X141.333 Y90.137
G01 X142.586 Y87.970
G01 X143.830 Y85.811
G01 X145.095 Y83.639
G01 X146.332 Y81.484
G01 X147.592 Y79.315
G01 X148.839 Y77.151
G01 X150.092 Y74.983
G01 X151.333 Y72.820
G01 X152.578 Y70.652
G01 X153.840 Y68.500
G01 X155.076 Y66.329
G01 X156.329 Y64.174
G01 X157.585 Y62.013
G01 X158.845 Y59.845
G01 X160.091 Y57.678
G01 X161.340 Y55.505
G01 X162.583 Y53.355
G01 X163.839 Y51.166
G01 X165.088 Y49.000
G01 X166.329 Y46.857
G01 X167.583 Y44.673
G01 X168.829 Y42.513
G01 X170.085 Y40.366
G01 X171.333 Y38.187
G01 X172.571 Y36.029
G01 X173.831 Y33.853
G01 X175.078 Y31.699
G01 X176.326 Y29.534
G01 X177.574 Y27.359
G01 X178.829 Y25.197
G01 X180.092 Y23.048
G01 X181.324 Y20.871
G01 X182.584 Y18.699
G01 X183.827 Y16.547
G01 X185.068 Y14.383
G01 X186.337 Y12.225
G01 X187.580 Y10.061
G01 X188.820 Y7.885
G01 X189.020 Y7.551
G01 X191.010 Y7.059
G01 X191.350 Y6.977
G01 X190.266 Y8.838
G01 X189.024 Y11.006
G01 X187.780 Y13.162
G01 X186.516 Y15.336
G01 X185.274 Y17.491
G01 X184.037 Y19.659
G01 X182.776 Y21.822
G01 X181.521 Y23.997
G01 X180.288 Y26.154
G01 X179.040 Y28.331
G01 X177.785 Y30.473
G01 X176.524 Y32.659
G01 X175.285 Y34.828
G01 X174.026 Y36.993
G01 X172.790 Y39.142
G01 X171.542 Y41.311
G01 X170.276 Y43.479
G01 X169.033 Y45.629
G01 X167.781 Y47.802
G01 X166.531 Y49.966
G01 X165.285 Y52.121
G01 X164.032 Y54.300
G01 X162.783 Y56.470
G01 X161.537 Y58.632
G01 X160.277 Y60.796
G01 X159.039 Y62.944
G01 X157.779 Y65.125
G01 X156.543 Y67.290
G01 X155.282 Y69.435
G01 X154.037 Y71.597
G01 X152.791 Y73.784
G01 X151.539 Y75.944
G01 X150.292 Y78.099
G01 X149.033 Y80.259
G01 X147.793 Y82.436
G01 X146.530 Y84.598
G01 X145.302 Y86.767
G01 X144.034 Y88.932
G01 X142.788 Y91.084
G01 X141.546 Y93.264
G01 X140.296 Y95.422
G01 X139.037 Y97.590
G01 X137.799 Y99.745
G01 X137.514 Y100.239
G01 X138.404 Y102.010
G01 X138.434 Y102.081
G01 X139.639 Y99.999
G01 X140.895 Y97.851
G01 X142.142 Y95.682
G01 X143.381 Y93.521
G01 X144.642 Y91.347
G01 X145.878 Y89.191
G01 X147.137 Y87.021
G01 X148.385 Y84.859
G01 X149.641 Y82.692
G01 X150.885 Y80.531
G01 X152.136 Y78.365
G01 X153.376 Y76.204
G01 X154.622 Y74.037
G01 X155.885 Y71.886
G01 X157.142 Y69.708
G01 X158.387 Y67.532
G01 X159.630 Y65.381
G01 X160.878 Y63.223
G01 X162.131 Y61.058
G01 X163.388 Y58.885
G01 X164.631 Y56.713
G01 X165.888 Y54.556
G01 X167.129 Y52.399
G01 X168.373 Y50.233
G01 X169.621 Y48.059
G01 X170.882 Y45.898
G01 X172.125 Y43.736
G01 X173.370 Y41.565
G01 X174.626 Y39.407
G01 X175.884 Y37.240
G01 X177.123 Y35.069
G01 X178.371 Y32.912
G01 X179.619 Y30.744
G01 X180.877 Y28.589
G01 X182.134 Y26.423
G01 X183.369 Y24.253
G01 X184.634 Y22.088
G01 X185.875 Y19.919
G01 X187.122 Y17.761
G01 X188.368 Y15.592
G01 X189.618 Y13.434
G01 X190.867 Y11.264
G01 X192.119 Y9.106
G01 X193.368 Y6.935
G01 X193.661 Y6.431
G01 X195.538 Y6.004
G01 X195.978 Y5.907
G01 X194.944 Y7.676
G01 X193.690 Y9.838
G01 X192.439 Y12.012
G01 X191.186 Y14.173
G01 X189.938 Y16.346
G01 X188.689 Y18.507
G01 X187.444 Y20.679
G01 X186.199 Y22.840
G01 X184.954 Y24.988
G01 X183.693 Y27.156
G01 X182.461 Y29.329
G01 X181.209 Y31.498
G01 X179.957 Y33.656
G01 X178.693 Y35.834
G01 X177.452 Y37.994
G01 X176.192 Y40.152
G01 X174.963 Y42.315
G01 X173.695 Y44.483
G01 X172.451 Y46.634
G01 X171.198 Y48.807
G01 X169.949 Y50.970
G01 X168.703 Y53.125
G01 X167.452 Y55.302
G01 X166.204 Y57.470
G01 X164.962 Y59.630
G01 X163.704 Y61.791
G01 X162.463 Y63.966
G01 X161.197 Y66.120
G01 X159.948 Y68.290
G01 X158.704 Y70.453
G01 X157.449 Y72.618
G01 X156.199 Y74.778
G01 X154.967 Y76.953
G01 X153.713 Y79.110
G01 X152.447 Y81.271
G01 X151.218 Y83.439
G01 X149.950 Y85.601
G01 X148.718 Y87.770
G01 X147.463 Y89.925
G01 X146.213 Y92.107
G01 X144.956 Y94.265
G01 X143.707 Y96.420
G01 X142.449 Y98.585
G01 X141.199 Y100.747
G01 X139.956 Y102.909
G01 X139.391 Y103.897
G01 X140.046 Y105.094
G01 X140.367 Y105.698
G01 X141.281 Y104.103
G01 X142.526 Y101.946
G01 X143.778 Y99.788
G01 X145.024 Y97.608
G01 X146.276 Y95.456
G01 X147.522 Y93.281
G01 X148.761 Y91.113
G01 X150.020 Y88.962
G01 X151.274 Y86.786
G01 X152.519 Y84.616
G01 X153.784 Y82.463
G01 X155.027 Y80.293
G01 X156.259 Y78.126
G01 X157.528 Y75.967
G01 X158.758 Y73.798
G01 X160.022 Y71.635
G01 X161.276 Y69.475
G01 X162.517 Y67.317
G01 X163.764 Y65.151
G01 X165.017 Y62.978
G01 X166.267 Y60.828
G01 X167.512 Y58.647
G01 X168.772 Y56.481
G01 X170.018 Y54.314
G01 X171.277 Y52.162
G01 X172.512 Y49.985
G01 X173.760 Y47.822
G01 X175.019 Y45.673
G01 X176.253 Y43.498
G01 X177.519 Y41.330
G01 X178.776 Y39.181
G01 X180.005 Y37.006
G01 X181.265 Y34.837
G01 X182.514 Y32.688
G01 X183.763 Y30.527
G01 X185.014 Y28.356
G01 X186.272 Y26.196
G01 X187.508 Y24.032
G01 X188.767 Y21.849
G01 X190.010 Y19.685
G01 X191.258 Y17.532
G01 X192.505 Y15.367
G01 X193.756 Y13.213
G01 X195.006 Y11.047
G01 X196.253 Y8.867
G01 X197.504 Y6.699
G01 X198.250 Y5.415
G01 X199.229 Y5.210
G01 X200.527 Y4.944
G01 X199.943 Y5.956
G01 X198.698 Y8.131
G01 X197.451 Y10.292
G01 X196.178 Y12.446
G01 X194.937 Y14.630
G01 X193.690 Y16.776
G01 X192.448 Y18.935
G01 X191.187 Y21.110
G01 X189.949 Y23.267
G01 X188.696 Y25.443
G01 X187.442 Y27.606
G01 X186.189 Y29.758
G01 X184.945 Y31.922
G01 X183.687 Y34.105
G01 X182.453 Y36.270
G01 X181.199 Y38.431
G01 X179.948 Y40.581
G01 X178.686 Y42.751
G01 X177.457 Y44.928
G01 X176.202 Y47.078
G01 X174.939 Y49.249
G01 X173.700 Y51.403
G01 X172.454 Y53.578
G01 X171.194 Y55.752
G01 X169.958 Y57.909
G01 X168.689 Y60.073
G01 X167.455 Y62.244
G01 X166.197 Y64.392
G01 X164.955 Y66.555
G01 X163.700 Y68.719
G01 X162.464 Y70.897
G01 X161.205 Y73.055
G01 X159.964 Y75.229
G01 X158.701 Y77.383
G01 X157.457 Y79.552
G01 X156.204 Y81.726
G01 X154.946 Y83.872
G01 X153.708 Y86.034
G01 X152.461 Y88.201
G01 X151.206 Y90.374
G01 X149.960 Y92.543
G01 X148.692 Y94.697
G01 X147.462 Y96.858
G01 X146.209 Y99.038
G01 X144.951 Y101.194
G01 X143.700 Y103.349
G01 X142.458 Y105.533
G01 X141.348 Y107.433
G01 X141.486 Y107.673
G01 X142.362 Y109.144
G01 X142.759 Y108.464
G01 X144.000 Y106.288
G01 X145.265 Y104.131
G01 X146.510 Y101.962
G01 X147.764 Y99.791
G01 X149.011 Y97.628
G01 X150.252 Y95.472
G01 X151.501 Y93.313
G01 X152.760 Y91.150
G01 X154.010 Y88.992
G01 X155.257 Y86.809
G01 X156.508 Y84.651
G01 X157.767 Y82.488
G01 X159.018 Y80.329
G01 X160.248 Y78.151
G01 X161.497 Y75.988
G01 X162.754 Y73.819
G01 X164.011 Y71.674
G01 X165.265 Y69.500
G01 X166.508 Y67.326
G01 X167.749 Y65.176
G01 X169.015 Y63.009
G01 X170.250 Y60.850
G01 X171.510 Y58.674
G01 X172.765 Y56.521
G01 X173.998 Y54.343
G01 X175.244 Y52.179
G01 X176.504 Y50.028
G01 X177.740 Y47.852
G01 X179.008 Y45.682
G01 X180.248 Y43.539
G01 X181.504 Y41.356
G01 X182.750 Y39.192
G01 X184.006 Y37.041
G01 X185.236 Y34.862
G01 X186.503 Y32.713
G01 X187.744 Y30.534
G01 X188.994 Y28.368
G01 X190.251 Y26.214
G01 X191.508 Y24.048
G01 X192.744 Y21.876
G01 X193.985 Y19.715
G01 X195.255 Y17.560
G01 X196.501 Y15.398
G01 X197.746 Y13.222
G01 X198.995 Y11.058
G01 X200.247 Y8.905
G01 X201.496 Y6.738
G01 X202.744 Y4.558
G01 X202.783 Y4.499
G01 X205.019 Y4.080
G01 X204.964 Y4.192
G01 X203.697 Y6.361
G01 X202.457 Y8.536
G01 X201.215 Y10.697
G01 X199.947 Y12.850
G01 X198.706 Y15.008
G01 X197.470 Y17.177
G01 X196.209 Y19.339
G01 X194.954 Y21.512
G01 X193.700 Y23.672
G01 X192.451 Y25.844
G01 X191.204 Y28.004
G01 X189.964 Y30.176
G01 X188.704 Y32.341
G01 X187.467 Y34.489
G01 X186.217 Y36.655
G01 X184.957 Y38.841
G01 X183.713 Y40.984
G01 X182.458 Y43.148
G01 X181.215 Y45.324
G01 X179.977 Y47.490
G01 X178.722 Y49.652
G01 X177.471 Y51.804
G01 X176.215 Y53.977
G01 X174.963 Y56.140
G01 X173.718 Y58.295
G01 X172.468 Y60.470
G01 X171.224 Y62.637
G01 X169.968 Y64.803
G01 X168.719 Y66.961
G01 X167.468 Y69.141
G01 X166.215 Y71.291
G01 X164.979 Y73.456
G01 X163.716 Y75.630
G01 X162.478 Y77.789
G01 X161.231 Y79.950
G01 X159.975 Y82.114
G01 X158.727 Y84.271
G01 X157.472 Y86.432
G01 X156.221 Y88.619
G01 X154.968 Y90.779
G01 X153.722 Y92.935
G01 X152.471 Y95.096
G01 X151.213 Y97.263
G01 X149.964 Y99.426
G01 X148.725 Y101.587
G01 X147.480 Y103.755
G01 X146.230 Y105.931
G01 X144.975 Y108.086
G01 X143.715 Y110.250
G01 X143.394 Y110.841
G01 X144.395 Y112.404
G01 X144.442 Y112.494
G01 X145.642 Y110.394
G01 X146.892 Y108.230
G01 X148.137 Y106.075
G01 X149.392 Y103.918
G01 X150.643 Y101.738
G01 X151.889 Y99.566
G01 X153.144 Y97.421
G01 X154.395 Y95.251
G01 X155.641 Y93.086
G01 X156.896 Y90.917
G01 X158.145 Y88.753
G01 X159.387 Y86.592
G01 X160.638 Y84.426
G01 X161.882 Y82.262
G01 X163.135 Y80.092
G01 X164.379 Y77.925
G01 X165.643 Y75.772
G01 X166.888 Y73.599
G01 X168.133 Y71.449
G01 X169.375 Y69.268
G01 X170.636 Y67.102
G01 X171.885 Y64.936
G01 X173.133 Y62.791
G01 X174.378 Y60.615
G01 X175.638 Y58.453
G01 X176.886 Y56.289
G01 X178.120 Y54.122
G01 X179.388 Y51.962
G01 X180.641 Y49.799
G01 X181.879 Y47.633
G01 X183.129 Y45.480
G01 X184.384 Y43.316
G01 X185.621 Y41.147
G01 X186.884 Y38.961
G01 X188.121 Y36.824
G01 X189.376 Y34.645
G01 X190.618 Y32.485
G01 X191.884 Y30.307
G01 X193.115 Y28.152
G01 X194.369 Y25.979
G01 X195.630 Y23.818
G01 X196.869 Y21.650
G01 X198.113 Y19.493
G01 X199.386 Y17.342
G01 X200.630 Y15.158
G01 X201.884 Y13.010
G01 X203.136 Y10.848
G01 X204.362 Y8.677
G01 X205.615 Y6.512
G01 X206.870 Y4.358
G01 X207.259 Y3.681
G01 X208.935 Y3.396
G01 X209.478 Y3.306
G01 X208.499 Y5.015
G01 X207.237 Y7.161
G01 X205.982 Y9.342
G01 X204.749 Y11.505
G01 X203.490 Y13.658
G01 X202.235 Y15.822
G01 X200.985 Y17.996
G01 X199.734 Y20.157
G01 X198.489 Y22.330
G01 X197.244 Y24.489
G01 X196.005 Y26.659
G01 X194.746 Y28.822
G01 X193.488 Y30.973
G01 X192.238 Y33.136
G01 X190.997 Y35.310
G01 X189.737 Y37.479
G01 X188.502 Y39.630
G01 X187.256 Y41.799
G01 X185.993 Y43.963
G01 X184.741 Y46.140
G01 X183.495 Y48.307
G01 X182.253 Y50.462
G01 X180.996 Y52.614
G01 X179.753 Y54.779
G01 X178.505 Y56.965
G01 X177.255 Y59.117
G01 X176.000 Y61.290
G01 X174.753 Y63.454
G01 X173.495 Y65.617
G01 X172.243 Y67.771
G01 X171.009 Y69.939
G01 X169.748 Y72.115
G01 X168.512 Y74.275
G01 X167.250 Y76.443
G01 X165.996 Y78.604
G01 X164.752 Y80.758
G01 X163.511 Y82.935
G01 X162.251 Y85.093
G01 X161.000 Y87.245
G01 X159.755 Y89.421
G01 X158.508 Y91.571
G01 X157.251 Y93.755
G01 X156.008 Y95.903
G01 X154.757 Y98.088
G01 X153.504 Y100.247
G01 X152.261 Y102.403
G01 X151.013 Y104.566
G01 X149.761 Y106.735
G01 X148.521 Y108.903
G01 X147.262 Y111.059
G01 X145.999 Y113.224
G01 X145.506 Y114.105
G01 X146.324 Y115.336
G01 X146.585 Y115.703
G01 X147.588 Y113.935
G01 X148.858 Y111.778
G01 X150.097 Y109.619
G01 X151.361 Y107.450
G01 X152.594 Y105.276
G01 X153.852 Y103.121
G01 X155.093 Y100.951
G01 X156.344 Y98.778
G01 X157.605 Y96.631
G01 X158.848 Y94.467
G01 X160.102 Y92.299
G01 X161.351 Y90.134
G01 X162.594 Y87.972
G01 X163.848 Y85.804
G01 X165.095 Y83.639
G01 X166.352 Y81.467
G01 X167.585 Y79.304
G01 X168.856 Y77.149
G01 X170.090 Y74.979
G01 X171.344 Y72.825
G01 X172.596 Y70.639
G01 X173.831 Y68.483
G01 X175.093 Y66.311
G01 X176.353 Y64.161
G01 X177.593 Y61.986
G01 X178.850 Y59.824
G01 X180.094 Y57.660
G01 X181.345 Y55.486
G01 X182.591 Y53.332
G01 X183.842 Y51.167
G01 X185.080 Y48.999
G01 X186.330 Y46.844
G01 X187.585 Y44.677
G01 X188.824 Y42.505
G01 X190.095 Y40.340
G01 X191.329 Y38.175
G01 X192.593 Y36.017
G01 X193.839 Y33.852
G01 X195.093 Y31.699
G01 X196.328 Y29.539
G01 X197.587 Y27.361
G01 X198.831 Y25.200
G01 X200.076 Y23.026
G01 X201.327 Y20.862
G01 X202.584 Y18.710
G01 X203.840 Y16.545
G01 X205.073 Y14.370
G01 X206.333 Y12.201
G01 X207.572 Y10.047
G01 X208.834 Y7.875
G01 X210.074 Y5.716
G01 X211.336 Y3.539
G01 X211.675 Y2.955
G01 X213.455 Y2.686
G01 X213.875 Y2.624
G01 X212.832 Y4.422
G01 X211.566 Y6.591
G01 X210.325 Y8.766
G01 X209.083 Y10.926
G01 X207.838 Y13.072
G01 X206.579 Y15.257
G01 X205.337 Y17.399
G01 X204.081 Y19.581
G01 X202.826 Y21.749
G01 X201.571 Y23.903
G01 X200.323 Y26.069
G01 X199.075 Y28.222
G01 X197.835 Y30.385
G01 X196.581 Y32.566
G01 X195.330 Y34.734
G01 X194.081 Y36.889
G01 X192.843 Y39.057
G01 X191.586 Y41.218
G01 X190.341 Y43.391
G01 X189.080 Y45.559
G01 X187.843 Y47.709
G01 X186.579 Y49.884
G01 X185.341 Y52.042
G01 X184.088 Y54.196
G01 X182.830 Y56.370
G01 X181.579 Y58.533
G01 X180.335 Y60.686
G01 X179.088 Y62.860
G01 X177.830 Y65.031
G01 X176.580 Y67.193
G01 X175.338 Y69.345
G01 X174.096 Y71.520
G01 X172.845 Y73.693
G01 X171.576 Y75.843
G01 X170.327 Y78.008
G01 X169.098 Y80.187
G01 X167.851 Y82.345
G01 X166.597 Y84.503
G01 X165.337 Y86.663
G01 X164.099 Y88.839
G01 X162.844 Y90.995
G01 X161.597 Y93.176
G01 X160.348 Y95.329
G01 X159.095 Y97.487
G01 X157.838 Y99.649
G01 X156.606 Y101.828
G01 X155.357 Y103.991
G01 X154.092 Y106.139
G01 X152.837 Y108.315
G01 X151.595 Y110.488
G01 X150.351 Y112.639
G01 X149.090 Y114.808
G01 X147.841 Y116.977
G01 X147.665 Y117.270
G01 X148.786 Y118.805
G01 X148.908 Y118.584
G01 X150.176 Y116.431
G01 X151.399 Y114.256
G01 X152.664 Y112.090
G01 X153.912 Y109.942
G01 X155.159 Y107.771
G01 X156.404 Y105.606
G01 X157.662 Y103.438
G01 X158.917 Y101.275
G01 X160.169 Y99.117
G01 X161.405 Y96.942
G01 X162.666 Y94.783
G01 X163.911 Y92.605
G01 X165.164 Y90.453
G01 X166.401 Y88.280
G01 X167.660 Y86.123
G01 X168.913 Y83.968
G01 X170.150 Y81.790
G01 X171.408 Y79.628
G01 X172.660 Y77.466
G01 X173.904 Y75.304
G01 X175.158 Y73.133
G01 X176.404 Y70.961
G01 X177.650 Y68.811
G01 X178.905 Y66.651
G01 X180.151 Y64.489
G01 X181.404 Y62.318
G01 X182.647 Y60.143
G01 X183.905 Y57.982
G01 X185.152 Y55.817
G01 X186.413 Y53.665
G01 X187.654 Y51.485
G01 X188.888 Y49.324
G01 X190.155 Y47.169
G01 X191.407 Y45.009
G01 X192.644 Y42.844
G01 X193.906 Y40.660
G01 X195.137 Y38.500
G01 X196.398 Y36.346
G01 X197.642 Y34.185
G01 X198.889 Y32.012
G01 X200.144 Y29.850
G01 X201.401 Y27.675
G01 X202.644 Y25.516
G01 X203.892 Y23.368
G01 X205.142 Y21.206
G01 X206.392 Y19.031
G01 X207.647 Y16.866
G01 X208.902 Y14.687
G01 X210.142 Y12.547
G01 X211.400 Y10.364
G01 X212.636 Y8.195
G01 X213.899 Y6.032
G01 X215.139 Y3.882
G01 X216.053 Y2.315
G01 X216.772 Y2.218
G01 X218.209 Y2.030
G01 X217.697 Y2.928
G01 X216.434 Y5.090
G01 X215.196 Y7.257
G01 X213.936 Y9.438
G01 X212.699 Y11.601
G01 X211.436 Y13.752
G01 X210.200 Y15.909
G01 X208.945 Y18.081
G01 X207.690 Y20.238
G01 X206.440 Y22.406
G01 X205.195 Y24.585
G01 X203.952 Y26.749
G01 X202.689 Y28.905
G01 X201.433 Y31.072
G01 X200.201 Y33.222
G01 X198.934 Y35.392
G01 X197.698 Y37.569
G01 X196.444 Y39.738
G01 X195.195 Y41.896
G01 X193.956 Y44.065
G01 X192.702 Y46.227
G01 X191.453 Y48.378
G01 X190.197 Y50.548
G01 X188.947 Y52.706
G01 X187.691 Y54.883
G01 X186.442 Y57.049
G01 X185.200 Y59.204
G01 X183.954 Y61.379
G01 X182.690 Y63.526
G01 X181.451 Y65.711
G01 X180.194 Y67.869
G01 X178.945 Y70.018
G01 X177.697 Y72.188
G01 X176.440 Y74.356
G01 X175.194 Y76.516
G01 X173.951 Y78.697
G01 X172.708 Y80.847
G01 X171.452 Y83.028
G01 X170.197 Y85.178
G01 X168.948 Y87.351
G01 X167.710 Y89.518
G01 X166.457 Y91.663
G01 X165.211 Y93.833
G01 X163.961 Y96.005
G01 X162.697 Y98.159
G01 X161.457 Y100.329
G01 X160.215 Y102.503
G01 X158.959 Y104.660
G01 X157.700 Y106.822
G01 X156.454 Y108.981
G01 X155.207 Y111.146
G01 X153.959 Y113.318
G01 X152.697 Y115.477
G01 X151.462 Y117.655
G01 X150.212 Y119.821
G01 X149.920 Y120.329
G01 X151.053 Y121.824
G01 X151.063 Y121.784
G01 X152.309 Y119.612
G01 X153.571 Y117.469
G01 X154.816 Y115.283
G01 X156.077 Y113.126
G01 X157.309 Y110.965
G01 X158.569 Y108.791
G01 X159.814 Y106.632
G01 X161.073 Y104.469
G01 X162.303 Y102.298
G01 X163.559 Y100.144
G01 X164.815 Y97.963
G01 X166.067 Y95.815
G01 X167.319 Y93.639
G01 X168.565 Y91.496
G01 X169.811 Y89.324
G01 X171.053 Y87.153
G01 X172.318 Y84.996
G01 X173.568 Y82.818
G01 X174.806 Y80.670
G01 X176.063 Y78.483
G01 X177.306 Y76.325
G01 X178.559 Y74.158
G01 X179.815 Y72.013
G01 X181.053 Y69.842
G01 X182.310 Y67.686
G01 X183.549 Y65.502
G01 X184.814 Y63.356
G01 X186.061 Y61.182
G01 X187.305 Y59.028
G01 X188.557 Y56.863
G01 X189.816 Y54.687
G01 X191.051 Y52.536
G01 X192.312 Y50.368
G01 X193.560 Y48.194
G01 X194.800 Y46.038
G01 X196.045 Y43.869
G01 X197.302 Y41.713
G01 X198.563 Y39.545
G01 X199.808 Y37.369
G01 X201.063 Y35.204
G01 X202.305 Y33.056
G01 X203.544 Y30.870
G01 X204.797 Y28.720
G01 X206.052 Y26.556
G01 X207.308 Y24.379
G01 X208.549 Y22.216
G01 X209.794 Y20.064
G01 X211.040 Y17.897
G01 X212.313 Y15.737
G01 X213.539 Y13.570
G01 X214.792 Y11.409
G01 X216.044 Y9.233
G01 X217.298 Y7.066
G01 X218.554 Y4.909
G01 X219.807 Y2.737
G01 X220.368 Y1.762
G01 X221.684 Y1.609
G01 X222.504 Y1.517
G01 X221.664 Y2.970
G01 X220.422 Y5.130
G01 X219.157 Y7.302
G01 X217.914 Y9.456
G01 X216.672 Y11.618
G01 X215.410 Y13.794
G01 X214.170 Y15.952
G01 X212.911 Y18.122
G01 X211.675 Y20.275
G01 X210.421 Y22.441
G01 X209.172 Y24.618
G01 X207.925 Y26.781
G01 X206.679 Y28.930
G01 X205.424 Y31.118
G01 X204.166 Y33.268
G01 X202.917 Y35.430
G01 X201.676 Y37.603
G01 X200.419 Y39.767
G01 X199.166 Y41.919
G01 X197.923 Y44.083
G01 X196.672 Y46.264
G01 X195.426 Y48.432
G01 X194.187 Y50.589
G01 X192.914 Y52.744
G01 X191.674 Y54.907
G01 X190.430 Y57.088
G01 X189.166 Y59.240
G01 X187.918 Y61.405
G01 X186.679 Y63.559
G01 X185.419 Y65.740
G01 X184.187 Y67.903
G01 X182.929 Y70.069
G01 X181.680 Y72.226
G01 X180.433 Y74.404
G01 X179.169 Y76.555
G01 X177.926 Y78.722
G01 X176.677 Y80.886
G01 X175.423 Y83.050
G01 X174.181 Y85.205
G01 X172.928 Y87.390
G01 X171.677 Y89.546
G01 X170.423 Y91.701
G01 X169.177 Y93.881
G01 X167.933 Y96.031
G01 X166.683 Y98.214
G01 X165.434 Y100.368
G01 X164.184 Y102.526
G01 X162.933 Y104.687
G01 X161.682 Y106.853
G01 X160.430 Y109.023
G01 X159.193 Y111.189
G01 X157.928 Y113.349
G01 X156.692 Y115.527
G01 X155.442 Y117.691
G01 X154.179 Y119.843
G01 X152.945 Y122.013
G01 X152.209 Y123.268
G01 X152.875 Y124.080
G01 X153.377 Y124.704
G01 X154.230 Y123.235
G01 X155.474 Y121.063
G01 X156.733 Y118.889
G01 X157.981 Y116.732
G01 X159.231 Y114.582
G01 X160.481 Y112.408
G01 X161.732 Y110.240
G01 X162.985 Y108.077
G01 X164.237 Y105.918
G01 X165.478 Y103.741
G01 X166.730 Y101.589
G01 X167.970 Y99.419
G01 X169.236 Y97.264
G01 X170.473 Y95.097
G01 X171.724 Y92.923
G01 X172.985 Y90.772
G01 X174.231 Y88.600
G01 X175.475 Y86.427
G01 X176.725 Y84.277
G01 X177.978 Y82.095
G01 X179.219 Y79.942
G01 X180.472 Y77.780
G01 X181.719 Y75.617
G01 X182.977 Y73.443
G01 X184.238 Y71.291
G01 X185.482 Y69.112
G01 X186.727 Y66.952
G01 X187.981 Y64.782
G01 X189.235 Y62.632
G01 X190.471 Y60.453
G01 X191.722 Y58.287
G01 X192.970 Y56.139
G01 X194.226 Y53.980
G01 X195.469 Y51.815
G01 X196.719 Y49.638
G01 X197.963 Y47.479
G01 X199.212 Y45.307
G01 X200.473 Y43.147
G01 X201.718 Y40.979
G01 X202.975 Y38.823
G01 X204.214 Y36.658
G01 X205.457 Y34.480
G01 X206.714 Y32.337
G01 X207.969 Y30.157
G01 X209.209 Y27.991
G01 X210.479 Y25.832
G01 X211.706 Y23.667
G01 X212.960 Y21.508
G01 X214.216 Y19.334
G01 X215.476 Y17.171
G01 X216.717 Y15.020
G01 X217.957 Y12.855
G01 X219.220 Y10.671
G01 X220.465 Y8.525
G01 X221.708 Y6.362
G01 X222.973 Y4.181
G01 X224.214 Y2.012
G01 X224.642 Y1.289
G01 X226.259 Y1.130
G01 X226.757 Y1.083
G01 X225.771 Y2.810
G01 X224.522 Y4.971
G01 X223.249 Y7.144
G01 X222.000 Y9.298
G01 X220.751 Y11.461
G01 X219.505 Y13.634
G01 X218.258 Y15.791
G01 X217.014 Y17.958
G01 X215.775 Y20.134
G01 X214.513 Y22.299
G01 X213.252 Y24.449
G01 X212.019 Y26.606
G01 X210.770 Y28.776
G01 X209.523 Y30.933
G01 X208.263 Y33.104
G01 X207.010 Y35.286
G01 X205.756 Y37.431
G01 X204.517 Y39.610
G01 X203.262 Y41.781
G01 X202.011 Y43.939
G01 X200.766 Y46.084
G01 X199.519 Y48.270
G01 X198.271 Y50.420
G01 X197.017 Y52.586
G01 X195.770 Y54.741
G01 X194.517 Y56.913
G01 X193.273 Y59.074
G01 X192.026 Y61.253
G01 X190.761 Y63.403
G01 X189.513 Y65.565
G01 X188.264 Y67.747
G01 X187.017 Y69.895
G01 X185.771 Y72.062
G01 X184.518 Y74.226
G01 X183.268 Y76.410
G01 X182.020 Y78.561
G01 X180.776 Y80.733
G01 X179.528 Y82.903
G01 X178.266 Y85.048
G01 X177.026 Y87.207
G01 X175.778 Y89.396
G01 X174.533 Y91.555
G01 X173.285 Y93.713
G01 X172.021 Y95.879
G01 X170.770 Y98.039
G01 X169.519 Y100.201
G01 X168.268 Y102.364
G01 X167.017 Y104.530
G01 X165.780 Y106.690
G01 X164.531 Y108.862
G01 X163.282 Y111.038
G01 X162.036 Y113.188
G01 X160.778 Y115.353
G01 X159.522 Y117.524
G01 X158.282 Y119.692
G01 X157.030 Y121.846
G01 X155.781 Y124.009
G01 X154.568 Y126.121
G01 X154.614 Y126.181
G01 X155.768 Y127.501
G01 X156.138 Y126.840
G01 X157.392 Y124.680
G01 X158.649 Y122.528
G01 X159.894 Y120.364
G01 X161.142 Y118.177
G01 X162.395 Y116.025
G01 X163.636 Y113.858
G01 X164.893 Y111.687
G01 X166.139 Y109.528
G01 X167.387 Y107.374
G01 X168.650 Y105.214
G01 X169.887 Y103.043
G01 X171.141 Y100.866
G01 X172.391 Y98.721
G01 X173.645 Y96.547
G01 X174.883 Y94.381
G01 X176.137 Y92.207
G01 X177.399 Y90.056
G01 X178.632 Y87.889
G01 X179.890 Y85.736
G01 X181.134 Y83.559
G01 X182.385 Y81.403
G01 X183.648 Y79.238
G01 X184.890 Y77.077
G01 X186.144 Y74.906
G01 X187.392 Y72.731
G01 X188.642 Y70.576
G01 X189.884 Y68.417
G01 X191.138 Y66.248
G01 X192.383 Y64.073
G01 X193.626 Y61.917
G01 X194.879 Y59.749
G01 X196.128 Y57.600
G01 X197.379 Y55.414
G01 X198.632 Y53.271
G01 X199.886 Y51.091
G01 X201.134 Y48.928
G01 X202.388 Y46.752
G01 X203.634 Y44.593
G01 X204.891 Y42.445
G01 X206.127 Y40.265
G01 X207.379 Y38.119
G01 X208.630 Y35.936
G01 X209.873 Y33.792
G01 X211.137 Y31.606
G01 X212.391 Y29.459
G01 X213.621 Y27.276
G01 X214.884 Y25.125
G01 X216.126 Y22.963
G01 X217.370 Y20.786
G01 X218.618 Y18.618
G01 X219.870 Y16.461
G01 X221.122 Y14.287
G01 X222.377 Y12.124
G01 X223.634 Y9.969
G01 X224.865 Y7.801
G01 X226.122 Y5.639
G01 X227.379 Y3.486
G01 X228.634 Y1.316
G01 X228.873 Y0.894
G01 X230.867 Y0.733
G01 X230.967 Y0.726
G01 X229.757 Y2.802
G01 X228.503 Y4.966
G01 X227.273 Y7.136
G01 X226.017 Y9.292
G01 X224.762 Y11.456
G01 X223.509 Y13.630
G01 X222.256 Y15.788
G01 X221.006 Y17.954
G01 X219.759 Y20.131
G01 X218.513 Y22.292
G01 X217.268 Y24.438
G01 X216.009 Y26.621
G01 X214.776 Y28.787
G01 X213.522 Y30.941
G01 X212.276 Y33.106
G01 X211.011 Y35.261
G01 X209.776 Y37.422
G01 X208.529 Y39.598
G01 X207.266 Y41.765
G01 X206.009 Y43.918
G01 X204.762 Y46.083
G01 X203.527 Y48.258
G01 X202.279 Y50.426
G01 X201.018 Y52.586
G01 X199.770 Y54.758
G01 X198.531 Y56.917
G01 X197.280 Y59.070
G01 X196.026 Y61.240
G01 X194.763 Y63.404
G01 X193.535 Y65.575
G01 X192.280 Y67.747
G01 X191.036 Y69.907
G01 X189.767 Y72.068
G01 X188.536 Y74.237
G01 X187.272 Y76.384
G01 X186.030 Y78.545
G01 X184.774 Y80.732
G01 X183.523 Y82.887
G01 X182.277 Y85.062
G01 X181.019 Y87.212
G01 X179.785 Y89.376
G01 X178.533 Y91.546
G01 X177.280 Y93.715
G01 X176.027 Y95.884
G01 X174.788 Y98.045
G01 X173.524 Y100.191
G01 X172.271 Y102.361
G01 X171.035 Y104.525
G01 X169.785 Y106.698
G01 X168.525 Y108.852
G01 X167.281 Y111.031
G01 X166.026 Y113.191
G01 X164.788 Y115.347
G01 X163.540 Y117.516
G01 X162.282 Y119.670
G01 X161.041 Y121.850
G01 X159.791 Y124.016
G01 X158.531 Y126.170
G01 X157.275 Y128.331
G01 X156.989 Y128.864
G01 X158.205 Y130.200
G01 X158.250 Y130.134
G01 X159.502 Y127.970
G01 X160.744 Y125.794
G01 X162.006 Y123.646
G01 X163.245 Y121.463
G01 X164.503 Y119.306
G01 X165.751 Y117.134
G01 X166.991 Y114.975
G01 X168.248 Y112.812
G01 X169.494 Y110.660
G01 X170.746 Y108.481
G01 X171.986 Y106.313
G01 X173.255 Y104.160
G01 X174.500 Y101.995
G01 X175.747 Y99.830
G01 X176.994 Y97.665
G01 X178.243 Y95.501
G01 X179.491 Y93.336
G01 X180.739 Y91.169
G01 X181.987 Y89.002
G01 X183.233 Y86.832
G01 X184.503 Y84.677
G01 X185.744 Y82.502
G01 X186.992 Y80.348
G01 X188.235 Y78.190
G01 X189.492 Y76.022
G01 X190.743 Y73.850
G01 X191.997 Y71.697
G01 X193.237 Y69.516
G01 X194.478 Y67.352
G01 X195.737 Y65.202
G01 X196.987 Y63.046
G01 X198.247 Y60.878
G01 X199.499 Y58.704
G01 X200.746 Y56.547
G01 X201.982 Y54.382
G01 X203.227 Y52.205
G01 X204.485 Y50.040
G01 X205.736 Y47.890
G01 X206.993 Y45.728
G01 X208.236 Y43.557
G01 X209.490 Y41.397
G01 X210.729 Y39.227
G01 X211.977 Y37.068
G01 X213.229 Y34.895
G01 X214.490 Y32.733
G01 X215.733 Y30.559
G01 X216.982 Y28.396
G01 X218.238 Y26.243
G01 X219.473 Y24.078
G01 X220.736 Y21.920
G01 X221.978 Y19.749
G01 X223.223 Y17.587
G01 X224.469 Y15.410
G01 X225.741 Y13.240
G01 X226.991 Y11.080
G01 X228.219 Y8.932
G01 X229.469 Y6.765
G01 X230.720 Y4.606
G01 X231.968 Y2.431
G01 X233.061 Y0.575
G01 X233.435 Y0.549
G01 X235.132 Y0.443
G01 X234.724 Y1.143
G01 X233.469 Y3.303
G01 X232.214 Y5.471
G01 X230.959 Y7.647
G01 X229.726 Y9.804
G01 X228.470 Y11.972
G01 X227.215 Y14.148
G01 X225.961 Y16.308
G01 X224.732 Y18.475
G01 X223.480 Y20.628
G01 X222.233 Y22.790
G01 X220.967 Y24.965
G01 X219.726 Y27.122
G01 X218.468 Y29.291
G01 X217.213 Y31.446
G01 X215.965 Y33.610
G01 X214.725 Y35.785
G01 X213.467 Y37.949
G01 X212.215 Y40.099
G01 X210.976 Y42.284
G01 X209.718 Y44.435
G01 X208.470 Y46.596
G01 X207.234 Y48.769
G01 X205.985 Y50.933
G01 X204.723 Y53.088
G01 X203.475 Y55.255
G01 X202.216 Y57.415
G01 X200.972 Y59.586
G01 X199.718 Y61.749
G01 X198.481 Y63.925
G01 X197.228 Y66.071
G01 X195.975 Y68.234
G01 X194.740 Y70.410
G01 X193.481 Y72.585
G01 X192.234 Y74.750
G01 X190.982 Y76.910
G01 X189.725 Y79.066
G01 X188.490 Y81.235
G01 X187.235 Y83.406
G01 X185.994 Y85.568
G01 X184.735 Y87.733
G01 X183.491 Y89.889
G01 X182.229 Y92.050
G01 X180.994 Y94.225
G01 X179.733 Y96.383
G01 X178.487 Y98.533
G01 X177.239 Y100.713
G01 X175.982 Y102.869
G01 X174.738 Y105.049
G01 X173.486 Y107.208
G01 X172.237 Y109.368
G01 X170.991 Y111.530
G01 X169.736 Y113.702
G01 X168.499 Y115.870
G01 X167.240 Y118.028
G01 X165.986 Y120.190
G01 X164.738 Y122.357
G01 X163.495 Y124.530
G01 X162.244 Y126.688
G01 X160.999 Y128.854
G01 X159.745 Y131.006
G01 X159.454 Y131.511
G01 X160.696 Y132.796
G01 X160.775 Y132.705
G01 X162.022 Y130.522
G01 X163.265 Y128.355
G01 X164.515 Y126.195
G01 X165.772 Y124.042
G01 X167.021 Y121.873
G01 X168.277 Y119.709
G01 X169.512 Y117.536
G01 X170.765 Y115.388
G01 X172.025 Y113.214
G01 X173.262 Y111.058
G01 X174.518 Y108.896
G01 X175.766 Y106.713
G01 X177.015 Y104.561
G01 X178.256 Y102.386
G01 X179.510 Y100.234
G01 X180.756 Y98.059
G01 X182.015 Y95.906
G01 X183.264 Y93.728
G01 X184.508 Y91.579
G01 X185.759 Y89.397
G01 X187.018 Y87.236
G01 X188.260 Y85.078
G01 X189.517 Y82.910
G01 X190.754 Y80.745
G01 X192.014 Y78.592
G01 X193.262 Y76.412
G01 X194.514 Y74.251
G01 X195.761 Y72.084
G01 X197.009 Y69.935
G01 X198.262 Y67.751
G01 X199.497 Y65.590
G01 X200.768 Y63.437
G01 X202.005 Y61.257
G01 X203.265 Y59.113
G01 X204.509 Y56.937
G01 X205.748 Y54.778
G01 X206.996 Y52.605
G01 X208.257 Y50.444
G01 X209.506 Y48.274
G01 X210.746 Y46.120
G01 X212.013 Y43.947
G01 X213.250 Y41.793
G01 X214.513 Y39.622
G01 X215.765 Y37.465
G01 X217.000 Y35.296
G01 X218.243 Y33.138
G01 X219.511 Y30.962
G01 X220.742 Y28.802
G01 X222.001 Y26.648
G01 X223.263 Y24.479
G01 X224.504 Y22.298
G01 X225.752 Y20.151
G01 X227.001 Y17.987
G01 X228.250 Y15.808
G01 X229.504 Y13.662
G01 X230.755 Y11.475
G01 X232.010 Y9.321
G01 X233.240 Y7.153
G01 X234.493 Y4.990
G01 X235.746 Y2.836
G01 X236.996 Y0.664
G01 X237.204 Y0.328
G01 X239.251 Y0.231
G01 X239.229 Y0.282
G01 X237.982 Y2.442
G01 X236.734 Y4.608
G01 X235.484 Y6.758
G01 X234.235 Y8.940
G01 X232.984 Y11.105
G01 X231.733 Y13.254
G01 X230.485 Y15.435
G01 X229.237 Y17.601
G01 X227.966 Y19.752
G01 X226.721 Y21.910
G01 X225.480 Y24.077
G01 X224.222 Y26.255
G01 X222.988 Y28.415
G01 X221.737 Y30.588
G01 X220.468 Y32.748
G01 X219.227 Y34.915
G01 X217.970 Y37.071
G01 X216.720 Y39.236
G01 X215.476 Y41.387
G01 X214.224 Y43.577
G01 X212.975 Y45.728
G01 X211.736 Y47.890
G01 X210.489 Y50.067
G01 X209.229 Y52.234
G01 X207.978 Y54.388
G01 X206.740 Y56.553
G01 X205.472 Y58.714
G01 X204.239 Y60.883
G01 X202.978 Y63.048
G01 X201.727 Y65.201
G01 X200.475 Y67.371
G01 X199.235 Y69.529
G01 X197.995 Y71.705
G01 X196.731 Y73.879
G01 X195.481 Y76.043
G01 X194.244 Y78.196
G01 X192.986 Y80.349
G01 X191.733 Y82.521
G01 X190.478 Y84.689
G01 X189.239 Y86.847
G01 X187.981 Y89.008
G01 X186.733 Y91.188
G01 X185.491 Y93.336
G01 X184.245 Y95.512
G01 X182.989 Y97.662
G01 X181.746 Y99.834
G01 X180.491 Y102.011
G01 X179.243 Y104.158
G01 X177.995 Y106.335
G01 X176.740 Y108.489
G01 X175.501 Y110.666
G01 X174.241 Y112.830
G01 X173.001 Y114.989
G01 X171.753 Y117.157
G01 X170.485 Y119.315
G01 X169.250 Y121.489
G01 X167.995 Y123.655
G01 X166.735 Y125.804
G01 X165.495 Y127.980
G01 X164.249 Y130.141
G01 X162.984 Y132.297
G01 X161.984 Y134.078
G01 X162.272 Y134.361
G01 X163.260 Y135.307
G01 X163.819 Y134.324
G01 X165.073 Y132.166
G01 X166.321 Y129.994
G01 X167.577 Y127.828
G01 X168.830 Y125.677
G01 X170.077 Y123.509
G01 X171.332 Y121.345
G01 X172.569 Y119.172
G01 X173.826 Y117.023
G01 X175.076 Y114.854
G01 X176.334 Y112.687
G01 X177.572 Y110.507
G01 X178.828 Y108.350
G01 X180.074 Y106.200
G01 X181.328 Y104.021
G01 X182.572 Y101.847
G01 X183.830 Y99.696
G01 X185.066 Y97.526
G01 X186.329 Y95.371
G01 X187.569 Y93.196
G01 X188.820 Y91.042
G01 X190.071 Y88.885
G01 X191.313 Y86.700
G01 X192.564 Y84.535
G01 X193.821 Y82.389
G01 X195.068 Y80.215
G01 X196.321 Y78.059
G01 X197.570 Y75.898
G01 X198.815 Y73.731
G01 X200.074 Y71.553
G01 X201.316 Y69.397
G01 X202.569 Y67.229
G01 X203.817 Y65.054
G01 X205.063 Y62.896
G01 X206.319 Y60.725
G01 X207.573 Y58.570
G01 X208.817 Y56.407
G01 X210.069 Y54.231
G01 X211.316 Y52.070
G01 X212.556 Y49.924
G01 X213.823 Y47.760
G01 X215.057 Y45.590
G01 X216.323 Y43.427
G01 X217.553 Y41.257
G01 X218.813 Y39.093
G01 X220.057 Y36.918
G01 X221.310 Y34.754
G01 X222.570 Y32.599
G01 X223.812 Y30.431
G01 X225.061 Y28.273
G01 X226.311 Y26.100
G01 X227.567 Y23.935
G01 X228.805 Y21.782
G01 X230.066 Y19.611
G01 X231.308 Y17.450
G01 X232.549 Y15.273
G01 X233.818 Y13.127
G01 X235.063 Y10.966
G01 X236.307 Y8.788
G01 X237.551 Y6.618
G01 X238.794 Y4.456
G01 X240.060 Y2.299
G01 X241.300 Y0.151
G01 X243.324 Y0.089
G01 X243.110 Y0.495
G01 X241.858 Y2.659
G01 X240.604 Y4.830
G01 X239.347 Y6.983
G01 X238.090 Y9.144
G01 X236.857 Y11.312
G01 X235.601 Y13.488
G01 X234.344 Y15.647
G01 X233.112 Y17.813
G01 X231.857 Y19.964
G01 X230.605 Y22.124
G01 X229.357 Y24.292
G01 X228.112 Y26.469
G01 X226.848 Y28.632
G01 X225.609 Y30.778
G01 X224.356 Y32.960
G01 X223.108 Y35.126
G01 X221.863 Y37.278
G01 X220.605 Y39.442
G01 X219.356 Y41.616
G01 X218.113 Y43.776
G01 X216.859 Y45.949
G01 X215.612 Y48.108
G01 X214.357 Y50.281
G01 X213.109 Y52.440
G01 X211.849 Y54.589
G01 X210.608 Y56.774
G01 X209.352 Y58.926
G01 X208.111 Y61.088
G01 X206.867 Y63.267
G01 X205.609 Y65.413
G01 X204.356 Y67.599
G01 X203.108 Y69.750
G01 X201.861 Y71.917
G01 X200.609 Y74.077
G01 X199.359 Y76.255
G01 X198.117 Y78.397
G01 X196.861 Y80.562
G01 X195.610 Y82.746
G01 X194.367 Y84.896
G01 X193.115 Y87.070
G01 X191.862 Y89.240
G01 X190.611 Y91.405
G01 X189.360 Y93.567
G01 X188.111 Y95.726
G01 X186.864 Y97.882
G01 X185.615 Y100.065
G01 X184.374 Y102.216
G01 X183.108 Y104.379
G01 X181.861 Y106.534
G01 X180.616 Y108.718
G01 X179.365 Y110.879
G01 X178.121 Y113.041
G01 X176.870 Y115.211
G01 X175.614 Y117.360
G01 X174.377 Y119.532
G01 X173.123 Y121.693
G01 X171.877 Y123.858
G01 X170.627 Y126.033
G01 X169.373 Y128.192
G01 X168.128 Y130.356
G01 X166.866 Y132.513
G01 X165.614 Y134.677
G01 X164.554 Y136.523
G01 X164.809 Y136.768
G01 X165.864 Y137.727
G01 X166.388 Y136.807
G01 X167.652 Y134.654
G01 X168.886 Y132.474
G01 X170.144 Y130.321
G01 X171.399 Y128.152
G01 X172.651 Y125.996
G01 X173.888 Y123.830
G01 X175.146 Y121.659
G01 X176.401 Y119.498
G01 X177.639 Y117.325
G01 X178.897 Y115.175
G01 X180.137 Y113.011
G01 X181.399 Y110.840
G01 X182.639 Y108.683
G01 X183.889 Y106.496
G01 X185.142 Y104.337
G01 X186.384 Y102.183
G01 X187.646 Y100.020
G01 X188.888 Y97.839
G01 X190.127 Y95.683
G01 X191.384 Y93.518
G01 X192.628 Y91.355
G01 X193.889 Y89.183
G01 X195.143 Y87.035
G01 X196.389 Y84.859
G01 X197.642 Y82.702
G01 X198.894 Y80.539
G01 X200.126 Y78.375
G01 X201.374 Y76.199
G01 X202.624 Y74.041
G01 X203.888 Y71.872
G01 X205.136 Y69.724
G01 X206.372 Y67.544
G01 X207.626 Y65.375
G01 X208.878 Y63.223
G01 X210.123 Y61.062
G01 X211.378 Y58.889
G01 X212.628 Y56.730
G01 X213.869 Y54.562
G01 X215.123 Y52.404
G01 X216.385 Y50.233
G01 X217.620 Y48.080
G01 X218.882 Y45.909
G01 X220.134 Y43.751
G01 X221.371 Y41.582
G01 X222.618 Y39.423
G01 X223.870 Y37.249
G01 X225.130 Y35.084
G01 X226.376 Y32.932
G01 X227.625 Y30.764
G01 X228.878 Y28.580
G01 X230.116 Y26.433
G01 X231.378 Y24.267
G01 X232.621 Y22.087
G01 X233.868 Y19.940
G01 X235.116 Y17.777
G01 X236.364 Y15.596
G01 X237.615 Y13.449
G01 X238.866 Y11.285
G01 X240.116 Y9.103
G01 X241.366 Y6.953
G01 X242.615 Y4.786
G01 X243.862 Y2.626
G01 X245.131 Y0.447
G01 X245.348 Y0.043
G01 X247.348 Y0.014
G01 X247.673 Y0.011
G01 X246.599 Y1.898
G01 X245.349 Y4.044
G01 X244.098 Y6.221
G01 X242.844 Y8.381
G01 X241.614 Y10.547
G01 X240.359 Y12.721
G01 X239.104 Y14.877
G01 X237.850 Y17.042
G01 X236.598 Y19.214
G01 X235.346 Y21.369
G01 X234.097 Y23.533
G01 X232.851 Y25.705
G01 X231.608 Y27.860
G01 X230.347 Y30.026
G01 X229.113 Y32.199
G01 X227.861 Y34.358
G01 X226.616 Y36.527
G01 X225.354 Y38.682
G01 X224.100 Y40.848
G01 X222.855 Y43.022
G01 X221.615 Y45.182
G01 X220.362 Y47.331
G01 X219.103 Y49.517
G01 X217.869 Y51.661
G01 X216.606 Y53.822
G01 X215.356 Y55.994
G01 X214.116 Y58.152
G01 X212.871 Y60.325
G01 X211.617 Y62.488
G01 X210.361 Y64.667
G01 X209.110 Y66.808
G01 X207.864 Y68.989
G01 X206.607 Y71.138
G01 X205.369 Y73.299
G01 X204.114 Y75.481
G01 X202.868 Y77.628
G01 X201.608 Y79.796
G01 X200.370 Y81.976
G01 X199.107 Y84.132
G01 X197.868 Y86.301
G01 X196.612 Y88.469
G01 X195.374 Y90.627
G01 X194.121 Y92.785
G01 X192.878 Y94.963
G01 X191.615 Y97.119
G01 X190.364 Y99.296
G01 X189.123 Y101.439
G01 X187.867 Y103.616
G01 X186.616 Y105.790
G01 X185.362 Y107.939
G01 X184.124 Y110.110
G01 X182.869 Y112.264
G01 X181.619 Y114.446
G01 X180.379 Y116.600
G01 X179.122 Y118.767
G01 X177.874 Y120.936
G01 X176.623 Y123.085
G01 X175.382 Y125.265
G01 X174.126 Y127.434
G01 X172.868 Y129.586
G01 X171.620 Y131.741
G01 X170.372 Y133.909
G01 X169.124 Y136.091
G01 X167.885 Y138.250
G01 X167.385 Y139.087
G01 X168.555 Y140.086
G01 X168.941 Y140.423
G01 X169.923 Y138.685
G01 X171.172 Y136.517
G01 X172.422 Y134.362
G01 X173.670 Y132.191
G01 X174.919 Y130.033
G01 X176.180 Y127.878
G01 X177.427 Y125.712
G01 X178.685 Y123.549
G01 X179.917 Y121.379
G01 X181.172 Y119.204
G01 X182.411 Y117.043
G01 X183.673 Y114.876
G01 X184.917 Y112.721
G01 X186.169 Y110.566
G01 X187.419 Y108.386
G01 X188.672 Y106.234
G01 X189.923 Y104.057
G01 X191.174 Y101.906
G01 X192.422 Y99.728
G01 X193.668 Y97.576
G01 X194.910 Y95.397
G01 X196.163 Y93.237
G01 X197.420 Y91.072
G01 X198.663 Y88.907
G01 X199.907 Y86.737
G01 X201.159 Y84.585
G01 X202.410 Y82.427
G01 X203.661 Y80.262
G01 X204.911 Y78.090
G01 X206.164 Y75.935
G01 X207.414 Y73.773
G01 X208.661 Y71.602
G01 X209.902 Y69.423
G01 X211.163 Y67.256
G01 X212.422 Y65.105
G01 X213.656 Y62.948
G01 X214.920 Y60.774
G01 X216.161 Y58.619
G01 X217.412 Y56.449
G01 X218.657 Y54.294
G01 X219.910 Y52.125
G01 X221.153 Y49.944
G01 X222.411 Y47.799
G01 X223.652 Y45.616
G01 X224.906 Y43.469
G01 X226.164 Y41.282
G01 X227.413 Y39.131
G01 X228.667 Y36.965
G01 X229.906 Y34.811
G01 X231.150 Y32.641
G01 X232.399 Y30.479
G01 X233.652 Y28.302
G01 X234.909 Y26.133
G01 X236.148 Y23.974
G01 X237.413 Y21.822
G01 X238.656 Y19.654
G01 X239.901 Y17.494
G01 X241.147 Y15.317
G01 X242.393 Y13.147
G01 X243.663 Y10.984
G01 X244.909 Y8.829
G01 X246.153 Y6.655
G01 X247.396 Y4.489
G01 X248.661 Y2.329
G01 X249.998 Y0.000
G01 X249.998 Y2.500
G01 X249.998 Y5.000
G01 X249.998 Y7.500
G01 X249.998 Y10.000
G01 X249.998 Y12.500
G01 X249.998 Y15.000
G01 X249.998 Y17.500
G01 X249.998 Y20.000
G01 X249.998 Y22.500
G01 X249.998 Y25.000
G01 X249.998 Y27.500
G01 X249.998 Y30.000
G01 X249.998 Y32.500
G01 X249.998 Y35.000
G01 X249.998 Y37.500
G01 X249.998 Y40.000
G01 X249.998 Y42.500
G01 X249.998 Y45.000
G01 X249.999 Y47.500
G01 X249.999 Y50.000
G01 X249.999 Y52.500
G01 X249.999 Y55.000
G01 X249.999 Y57.500
G01 X249.999 Y60.000
G01 X249.999 Y62.500
G01 X249.999 Y65.000
G01 X249.999 Y67.500
G01 X249.999 Y70.000
G01 X249.999 Y72.500
G01 X249.999 Y75.000
G01 X249.999 Y77.500
G01 X249.999 Y80.000
G01 X249.999 Y82.500
G01 X249.999 Y85.000
G01 X249.999 Y87.500
G01 X249.999 Y90.000
G01 X249.999 Y92.500
G01 X249.999 Y95.000
G01 X249.999 Y97.500
G01 X249.999 Y100.000
G01 X249.999 Y102.500
G01 X249.999 Y105.000
G01 X249.999 Y107.500
G01 X249.999 Y110.000
G01 X249.999 Y112.500
G01 X249.999 Y115.000
G01 X249.999 Y117.500
G01 X249.999 Y120.000
G01 X249.999 Y122.500
G01 X249.999 Y125.000
G01 X249.999 Y127.500
G01 X249.999 Y130.000
G01 X249.999 Y132.500
G01 X249.999 Y135.000
G01 X249.999 Y137.500
G01 X249.999 Y140.000
G01 X249.999 Y142.500
G01 X249.999 Y144.975
G01 X249.999 Y147.475
G01 X249.999 Y149.975
G01 X249.999 Y152.475
G01 X249.999 Y154.975
G01 X249.999 Y157.475
G01 X249.999 Y159.975
G01 X249.999 Y162.475
G01 X249.999 Y164.975
G01 X249.999 Y167.475
G01 X249.999 Y169.975
G01 X249.999 Y170.125
G01 X252.374 Y170.060
G01 X253.071 Y170.059
G01 X253.042 Y168.257
G01 X252.991 Y165.753
G01 X252.950 Y163.250
G01 X252.900 Y160.772
G01 X252.853 Y158.269
G01 X252.808 Y155.767
G01 X252.767 Y153.265
G01 X252.719 Y150.762
G01 X252.676 Y148.260
G01 X252.637 Y145.758
G01 X252.583 Y143.256
G01 X252.544 Y140.780
G01 X252.491 Y138.278
G01 X252.455 Y135.776
G01 X252.404 Y133.275
G01 X252.360 Y130.773
G01 X252.312 Y128.272
G01 X252.273 Y125.771
G01 X252.230 Y123.270
G01 X252.183 Y120.768
G01 X252.133 Y118.267
G01 X252.093 Y115.766
G01 X252.050 Y113.265
G01 X252.004 Y110.764
G01 X251.955 Y108.263
G01 X251.903 Y105.788
G01 X251.862 Y103.287
G01 X251.819 Y100.786
G01 X251.774 Y98.285
G01 X251.726 Y95.785
G01 X251.691 Y93.284
G01 X251.639 Y90.783
G01 X251.600 Y88.283
G01 X251.542 Y85.782
G01 X251.499 Y83.282
G01 X251.454 Y80.781
G01 X251.407 Y78.281
G01 X251.375 Y75.780
G01 X251.324 Y73.280
G01 X251.271 Y70.780
G01 X251.234 Y68.279
G01 X251.196 Y65.779
G01 X251.138 Y63.278
G01 X251.096 Y60.778
G01 X251.053 Y58.278
G01 X251.009 Y55.778
G01 X250.963 Y53.277
G01 X250.915 Y50.777
G01 X250.866 Y48.302
G01 X250.836 Y45.802
G01 X250.784 Y43.301
G01 X250.731 Y40.801
G01 X250.697 Y38.301
G01 X250.641 Y35.801
G01 X250.605 Y33.301
G01 X250.546 Y30.801
G01 X250.508 Y28.301
G01 X250.469 Y25.800
G01 X250.429 Y23.300
G01 X250.365 Y20.800
G01 X250.323 Y18.300
G01 X250.279 Y15.800
G01 X250.235 Y13.300
G01 X250.190 Y10.800
G01 X250.143 Y8.300
G01 X250.096 Y5.800
G01 X250.096 Y5.375
G01 X250.194 Y5.350
G01 X250.265 Y7.325
G01 X250.358 Y9.825
G01 X250.450 Y12.325
G01 X250.539 Y14.801
G01 X250.627 Y17.301
G01 X250.712 Y19.801
G01 X250.795 Y22.301
G01 X250.899 Y24.802
G01 X250.978 Y27.302
G01 X251.077 Y29.803
G01 X251.174 Y32.303
G01 X251.247 Y34.804
G01 X251.338 Y37.304
G01 X251.428 Y39.805
G01 X251.536 Y42.281
G01 X251.620 Y44.781
G01 X251.701 Y47.282
G01 X251.801 Y49.783
G01 X251.897 Y52.284
G01 X251.970 Y54.785
G01 X252.061 Y57.286
G01 X252.167 Y59.787
G01 X252.251 Y62.288
G01 X252.333 Y64.765
G01 X252.429 Y67.266
G01 X252.522 Y69.768
G01 X252.612 Y72.269
G01 X252.697 Y74.771
G01 X252.797 Y77.273
G01 X252.876 Y79.774
G01 X252.968 Y82.251
G01 X253.056 Y84.753
G01 X253.156 Y87.256
G01 X253.236 Y89.758
G01 X253.328 Y92.260
G01 X253.430 Y94.763
G01 X253.513 Y97.240
G01 X253.606 Y99.743
G01 X253.694 Y102.246
G01 X253.791 Y104.749
G01 X253.868 Y107.252
G01 X253.970 Y109.731
G01 X254.050 Y112.235
G01 X254.139 Y114.738
G01 X254.235 Y117.243
G01 X254.326 Y119.722
G01 X254.422 Y122.226
G01 X254.511 Y124.731
G01 X254.593 Y127.236
G01 X254.693 Y129.716
G01 X254.772 Y132.222
G01 X254.867 Y134.728
G01 X254.954 Y137.209
G01 X255.043 Y139.715
G01 X255.133 Y142.222
G01 X255.226 Y144.705
G01 X255.318 Y147.212
G01 X255.410 Y149.721
G01 X255.501 Y152.205
G01 X255.589 Y154.714
G01 X255.677 Y157.198
G01 X255.768 Y159.709
G01 X255.856 Y162.195
G01 X255.945 Y164.707
G01 X256.038 Y167.195
G01 X256.129 Y169.709
G01 X256.142 Y169.960
G01 X258.327 Y169.831
G01 X259.201 Y169.776
G01 X259.113 Y168.156
G01 X258.982 Y165.652
G01 X258.843 Y163.174
G01 X258.709 Y160.674
G01 X258.573 Y158.174
G01 X258.445 Y155.677
G01 X258.307 Y153.181
G01 X258.171 Y150.686
G01 X258.038 Y148.192
G01 X257.899 Y145.699
G01 X257.766 Y143.207
G01 X257.630 Y140.691
G01 X257.490 Y138.201
G01 X257.358 Y135.712
G01 X257.225 Y133.223
G01 X257.093 Y130.711
G01 X256.948 Y128.223
G01 X256.817 Y125.712
G01 X256.686 Y123.226
G01 X256.545 Y120.741
G01 X256.408 Y118.231
G01 X256.273 Y115.746
G01 X256.144 Y113.238
G01 X256.004 Y110.754
G01 X255.871 Y108.247
G01 X255.728 Y105.764
G01 X255.593 Y103.257
G01 X255.464 Y100.750
G01 X255.327 Y98.268
G01 X255.199 Y95.763
G01 X255.063 Y93.282
G01 X254.920 Y90.776
G01 X254.787 Y88.271
G01 X254.647 Y85.791
G01 X254.518 Y83.286
G01 X254.382 Y80.782
G01 X254.241 Y78.302
G01 X254.111 Y75.798
G01 X253.975 Y73.295
G01 X253.834 Y70.816
G01 X253.706 Y68.313
G01 X253.572 Y65.810
G01 X253.434 Y63.332
G01 X253.291 Y60.829
G01 X253.161 Y58.326
G01 X253.028 Y55.824
G01 X252.890 Y53.346
G01 X252.747 Y50.844
G01 X252.620 Y48.342
G01 X252.489 Y45.840
G01 X252.355 Y43.338
G01 X252.215 Y40.862
G01 X252.073 Y38.360
G01 X251.947 Y35.859
G01 X251.818 Y33.358
G01 X251.664 Y30.881
G01 X251.528 Y28.380
G01 X251.410 Y25.879
G01 X251.267 Y23.379
G01 X251.121 Y20.878
G01 X250.994 Y18.377
G01 X250.864 Y15.902
G01 X250.732 Y13.401
G01 X250.596 Y10.901
G01 X250.457 Y8.400
G01 X250.316 Y5.900
G01 X250.292 Y5.325
G01 X250.390 Y5.300
G01 X250.508 Y7.101
G01 X250.695 Y9.601
G01 X250.879 Y12.077
G01 X251.058 Y14.577
G01 X251.233 Y17.078
G01 X251.427 Y19.579
G01 X251.594 Y22.056
G01 X251.779 Y24.557
G01 X251.960 Y27.059
G01 X252.137 Y29.535
G01 X252.309 Y32.037
G01 X252.498 Y34.539
G01 X252.682 Y37.017
G01 X252.861 Y39.519
G01 X253.036 Y41.997
G01 X253.225 Y44.500
G01 X253.409 Y47.004
G01 X253.588 Y49.482
G01 X253.761 Y51.986
G01 X253.949 Y54.465
G01 X254.130 Y56.969
G01 X254.306 Y59.449
G01 X254.475 Y61.953
G01 X254.657 Y64.458
G01 X254.851 Y66.939
G01 X255.019 Y69.445
G01 X255.200 Y71.926
G01 X255.390 Y74.433
G01 X255.557 Y76.914
G01 X255.750 Y79.397
G01 X255.918 Y81.904
G01 X256.113 Y84.388
G01 X256.281 Y86.896
G01 X256.459 Y89.380
G01 X256.644 Y91.865
G01 X256.820 Y94.374
G01 X257.002 Y96.860
G01 X257.191 Y99.346
G01 X257.368 Y101.858
G01 X257.551 Y104.346
G01 X257.723 Y106.833
G01 X257.913 Y109.322
G01 X258.092 Y111.812
G01 X258.273 Y114.302
G01 X258.454 Y116.818
G01 X258.624 Y119.309
G01 X258.807 Y121.802
G01 X258.990 Y124.296
G01 X259.170 Y126.791
G01 X259.351 Y129.262
G01 X259.538 Y131.759
G01 X259.710 Y134.257
G01 X259.888 Y136.756
G01 X260.071 Y139.257
G01 X260.250 Y141.734
G01 X260.429 Y144.238
G01 X260.612 Y146.719
G01 X260.793 Y149.226
G01 X260.974 Y151.711
G01 X261.153 Y154.197
G01 X261.336 Y156.686
G01 X261.519 Y159.203
G01 X261.697 Y161.696
G01 X261.876 Y164.168
G01 X262.057 Y166.668
G01 X262.240 Y169.172
G01 X262.264 Y169.504
G01 X264.446 Y169.282
G01 X265.315 Y169.188
G01 X265.171 Y167.559
G01 X264.944 Y165.080
G01 X264.718 Y162.580
G01 X264.491 Y160.085
G01 X264.268 Y157.595
G01 X264.040 Y155.108
G01 X263.811 Y152.625
G01 X263.593 Y150.146
G01 X263.360 Y147.643
G01 X263.143 Y145.145
G01 X262.908 Y142.673
G01 X262.684 Y140.180
G01 X262.460 Y137.689
G01 X262.237 Y135.200
G01 X262.016 Y132.714
G01 X261.787 Y130.229
G01 X261.564 Y127.721
G01 X261.333 Y125.239
G01 X261.110 Y122.759
G01 X260.884 Y120.256
G01 X260.666 Y117.779
G01 X260.434 Y115.278
G01 X260.213 Y112.780
G01 X259.990 Y110.307
G01 X259.754 Y107.809
G01 X259.533 Y105.314
G01 X259.313 Y102.819
G01 X259.079 Y100.350
G01 X258.864 Y97.858
G01 X258.636 Y95.366
G01 X258.413 Y92.875
G01 X258.178 Y90.384
G01 X257.948 Y87.895
G01 X257.724 Y85.406
G01 X257.506 Y82.919
G01 X257.278 Y80.431
G01 X257.057 Y77.945
G01 X256.828 Y75.433
G01 X256.606 Y72.948
G01 X256.375 Y70.463
G01 X256.153 Y67.979
G01 X255.923 Y65.495
G01 X255.704 Y62.987
G01 X255.477 Y60.504
G01 X255.260 Y58.022
G01 X255.017 Y55.540
G01 X254.805 Y53.034
G01 X254.567 Y50.552
G01 X254.341 Y48.047
G01 X254.129 Y45.567
G01 X253.910 Y43.087
G01 X253.685 Y40.582
G01 X253.453 Y38.103
G01 X253.215 Y35.599
G01 X252.992 Y33.121
G01 X252.762 Y30.642
G01 X252.550 Y28.140
G01 X252.332 Y25.662
G01 X252.108 Y23.160
G01 X251.879 Y20.683
G01 X251.644 Y18.181
G01 X251.427 Y15.704
G01 X251.206 Y13.203
G01 X250.979 Y10.727
G01 X250.748 Y8.226
G01 X250.511 Y5.726
G01 X250.488 Y5.275
G01 X250.561 Y5.251
G01 X250.775 Y7.176
G01 X251.056 Y9.652
G01 X251.330 Y12.129
G01 X251.599 Y14.630
G01 X251.861 Y17.107
G01 X252.141 Y19.585
G01 X252.391 Y22.088
G01 X252.681 Y24.566
G01 X252.942 Y27.044
G01 X253.218 Y29.523
G01 X253.486 Y32.028
G01 X253.748 Y34.508
G01 X254.025 Y36.988
G01 X254.294 Y39.469
G01 X254.555 Y41.950
G01 X254.830 Y44.432
G01 X255.096 Y46.939
G01 X255.375 Y49.422
G01 X255.646 Y51.905
G01 X255.908 Y54.389
G01 X256.181 Y56.874
G01 X256.464 Y59.360
G01 X256.719 Y61.845
G01 X257.002 Y64.332
G01 X257.256 Y66.819
G01 X257.539 Y69.282
G01 X257.810 Y71.771
G01 X258.071 Y74.260
G01 X258.338 Y76.751
G01 X258.612 Y79.242
G01 X258.893 Y81.710
G01 X259.160 Y84.203
G01 X259.432 Y86.697
G01 X259.693 Y89.167
G01 X259.971 Y91.664
G01 X260.238 Y94.136
G01 X260.505 Y96.634
G01 X260.776 Y99.109
G01 X261.045 Y101.610
G01 X261.315 Y104.088
G01 X261.585 Y106.567
G01 X261.867 Y109.049
G01 X262.132 Y111.530
G01 X262.408 Y114.015
G01 X262.666 Y116.500
G01 X262.946 Y118.988
G01 X263.206 Y121.477
G01 X263.485 Y123.969
G01 X263.756 Y126.463
G01 X264.020 Y128.934
G01 X264.296 Y131.434
G01 X264.563 Y133.910
G01 X264.829 Y136.389
G01 X265.105 Y138.872
G01 X265.376 Y141.358
G01 X265.641 Y143.846
G01 X265.910 Y146.339
G01 X266.184 Y148.811
G01 X266.452 Y151.312
G01 X266.722 Y153.792
G01 X266.996 Y156.279
G01 X267.261 Y158.769
G01 X267.539 Y161.241
G01 X267.813 Y163.720
G01 X268.079 Y166.203
G01 X268.351 Y168.695
G01 X268.351 Y168.772
G01 X270.804 Y168.385
G01 X271.381 Y168.276
G01 X271.137 Y166.380
G01 X270.822 Y163.907
G01 X270.507 Y161.418
G01 X270.200 Y158.939
G01 X269.877 Y156.464
G01 X269.565 Y153.973
G01 X269.252 Y151.488
G01 X268.940 Y149.011
G01 X268.623 Y146.538
G01 X268.303 Y144.070
G01 X267.985 Y141.582
G01 X267.680 Y139.100
G01 X267.355 Y136.621
G01 X267.047 Y134.147
G01 X266.725 Y131.651
G01 X266.409 Y129.184
G01 X266.094 Y126.696
G01 X265.780 Y124.211
G01 X265.466 Y121.729
G01 X265.155 Y119.250
G01 X264.835 Y116.773
G01 X264.520 Y114.300
G01 X264.211 Y111.829
G01 X263.899 Y109.335
G01 X263.580 Y106.868
G01 X263.258 Y104.377
G01 X262.945 Y101.915
G01 X262.631 Y99.429
G01 X262.316 Y96.945
G01 X261.999 Y94.462
G01 X261.682 Y91.981
G01 X261.365 Y89.502
G01 X261.065 Y87.025
G01 X260.735 Y84.548
G01 X260.424 Y82.073
G01 X260.117 Y79.575
G01 X259.795 Y77.102
G01 X259.478 Y74.631
G01 X259.167 Y72.136
G01 X258.860 Y69.668
G01 X258.543 Y67.174
G01 X258.212 Y64.707
G01 X257.909 Y62.216
G01 X257.594 Y59.751
G01 X257.268 Y57.262
G01 X256.971 Y54.774
G01 X256.643 Y52.312
G01 X256.326 Y49.825
G01 X256.019 Y47.339
G01 X255.703 Y44.854
G01 X255.377 Y42.395
G01 X255.063 Y39.911
G01 X254.761 Y37.428
G01 X254.451 Y34.946
G01 X254.132 Y32.464
G01 X253.805 Y29.983
G01 X253.492 Y27.502
G01 X253.171 Y25.022
G01 X252.864 Y22.543
G01 X252.551 Y20.064
G01 X252.230 Y17.586
G01 X251.924 Y15.108
G01 X251.612 Y12.630
G01 X251.293 Y10.153
G01 X250.968 Y7.677
G01 X250.659 Y5.226
G01 X250.684 Y5.201
G01 X250.757 Y5.201
G01 X251.113 Y7.603
G01 X251.462 Y10.079
G01 X251.827 Y12.557
G01 X252.184 Y15.010
G01 X252.556 Y17.489
G01 X252.897 Y19.968
G01 X253.275 Y22.449
G01 X253.623 Y24.904
G01 X253.984 Y27.386
G01 X254.336 Y29.868
G01 X254.701 Y32.326
G01 X255.056 Y34.809
G01 X255.424 Y37.294
G01 X255.782 Y39.754
G01 X256.150 Y42.241
G01 X256.509 Y44.703
G01 X256.856 Y47.191
G01 X257.214 Y49.655
G01 X257.581 Y52.120
G01 X257.936 Y54.611
G01 X258.299 Y57.078
G01 X258.670 Y59.547
G01 X259.029 Y62.017
G01 X259.375 Y64.487
G01 X259.746 Y66.959
G01 X260.103 Y69.432
G01 X260.465 Y71.907
G01 X260.813 Y74.383
G01 X261.182 Y76.861
G01 X261.536 Y79.339
G01 X261.892 Y81.820
G01 X262.268 Y84.278
G01 X262.626 Y86.763
G01 X262.986 Y89.224
G01 X263.342 Y91.711
G01 X263.700 Y94.176
G01 X264.055 Y96.643
G01 X264.420 Y99.138
G01 X264.783 Y101.610
G01 X265.141 Y104.083
G01 X265.493 Y106.559
G01 X265.856 Y109.014
G01 X266.222 Y111.497
G01 X266.579 Y113.982
G01 X266.944 Y116.446
G01 X267.297 Y118.911
G01 X267.652 Y121.381
G01 X268.020 Y123.856
G01 X268.373 Y126.332
G01 X268.736 Y128.815
G01 X269.098 Y131.276
G01 X269.461 Y133.768
G01 X269.820 Y136.239
G01 X270.170 Y138.713
G01 X270.535 Y141.170
G01 X270.892 Y143.658
G01 X271.261 Y146.128
G01 X271.611 Y148.602
G01 X271.973 Y151.086
G01 X272.338 Y153.553
G01 X272.697 Y156.027
G01 X273.049 Y158.509
G01 X273.414 Y160.978
G01 X273.774 Y163.456
G01 X274.132 Y165.919
G01 X274.393 Y167.714
G01 X275.112 Y167.565
G01 X277.394 Y167.083
G01 X277.367 Y166.916
G01 X276.961 Y164.448
G01 X276.558 Y161.995
G01 X276.152 Y159.529
G01 X275.753 Y157.052
G01 X275.341 Y154.583
G01 X274.938 Y152.127
G01 X274.534 Y149.656
G01 X274.125 Y147.193
G01 X273.731 Y144.716
G01 X273.327 Y142.246
G01 X272.916 Y139.782
G01 X272.511 Y137.327
G01 X272.108 Y134.853
G01 X271.705 Y132.386
G01 X271.304 Y129.925
G01 X270.898 Y127.444
G01 X270.493 Y124.994
G01 X270.088 Y122.523
G01 X269.678 Y120.057
G01 X269.279 Y117.596
G01 X268.870 Y115.114
G01 X268.471 Y112.662
G01 X268.064 Y110.187
G01 X267.661 Y107.717
G01 X267.262 Y105.251
G01 X266.854 Y102.787
G01 X266.439 Y100.325
G01 X266.050 Y97.844
G01 X265.637 Y95.389
G01 X265.237 Y92.912
G01 X264.830 Y90.463
G01 X264.423 Y87.991
G01 X264.013 Y85.521
G01 X263.618 Y83.055
G01 X263.206 Y80.589
G01 X262.810 Y78.127
G01 X262.399 Y75.640
G01 X262.005 Y73.182
G01 X261.596 Y70.725
G01 X261.191 Y68.244
G01 X260.787 Y65.791
G01 X260.389 Y63.314
G01 X259.977 Y60.838
G01 X259.568 Y58.389
G01 X259.166 Y55.916
G01 X258.771 Y53.446
G01 X258.362 Y50.976
G01 X257.962 Y48.507
G01 X257.548 Y46.040
G01 X257.144 Y43.574
G01 X256.748 Y41.109
G01 X256.341 Y38.645
G01 X255.923 Y36.182
G01 X255.536 Y33.721
G01 X255.118 Y31.260
G01 X254.711 Y28.775
G01 X254.316 Y26.317
G01 X253.911 Y23.859
G01 X253.497 Y21.377
G01 X253.095 Y18.921
G01 X252.708 Y16.441
G01 X252.288 Y13.986
G01 X251.882 Y11.507
G01 X251.492 Y9.055
G01 X251.069 Y6.577
G01 X250.855 Y5.176
G01 X250.929 Y5.152
G01 X251.120 Y6.103
G01 X251.568 Y8.555
G01 X252.006 Y11.008
G01 X252.458 Y13.488
G01 X252.901 Y15.943
G01 X253.357 Y18.399
G01 X253.802 Y20.857
G01 X254.261 Y23.315
G01 X254.708 Y25.774
G01 X255.144 Y28.235
G01 X255.592 Y30.696
G01 X256.050 Y33.159
G01 X256.497 Y35.598
G01 X256.952 Y38.064
G01 X257.396 Y40.531
G01 X257.848 Y42.999
G01 X258.288 Y45.443
G01 X258.754 Y47.915
G01 X259.188 Y50.361
G01 X259.648 Y52.836
G01 X260.094 Y55.286
G01 X260.545 Y57.739
G01 X260.982 Y60.192
G01 X261.441 Y62.649
G01 X261.884 Y65.132
G01 X262.330 Y67.591
G01 X262.780 Y70.028
G01 X263.230 Y72.492
G01 X263.680 Y74.959
G01 X264.129 Y77.427
G01 X264.580 Y79.874
G01 X265.029 Y82.322
G01 X265.474 Y84.798
G01 X265.934 Y87.253
G01 X266.373 Y89.709
G01 X266.824 Y92.169
G01 X267.269 Y94.632
G01 X267.722 Y97.099
G01 X268.171 Y99.543
G01 X268.624 Y102.017
G01 X269.070 Y104.469
G01 X269.520 Y106.925
G01 X269.972 Y109.386
G01 X270.412 Y111.850
G01 X270.870 Y114.295
G01 X271.309 Y116.768
G01 X271.762 Y119.223
G01 X272.210 Y121.683
G01 X272.653 Y124.148
G01 X273.106 Y126.594
G01 X273.562 Y129.049
G01 X274.006 Y131.507
G01 X274.462 Y133.976
G01 X274.908 Y136.424
G01 X275.356 Y138.907
G01 X275.806 Y141.348
G01 X276.253 Y143.822
G01 X276.693 Y146.280
G01 X277.147 Y148.725
G01 X277.603 Y151.183
G01 X278.050 Y153.650
G01 X278.500 Y156.105
G01 X278.944 Y158.572
G01 X279.394 Y161.030
G01 X279.848 Y163.479
G01 X280.293 Y165.942
G01 X280.366 Y166.394
G01 X282.346 Y165.880
G01 X283.322 Y165.616
G01 X283.036 Y164.163
G01 X282.549 Y161.708
G01 X282.052 Y159.244
G01 X281.559 Y156.798
G01 X281.073 Y154.345
G01 X280.570 Y151.903
G01 X280.080 Y149.453
G01 X279.587 Y146.990
G01 X279.095 Y144.540
G01 X278.599 Y142.101
G01 X278.106 Y139.648
G01 X277.614 Y137.206
G01 X277.118 Y134.747
G01 X276.628 Y132.300
G01 X276.134 Y129.860
G01 X275.643 Y127.403
G01 X275.139 Y124.952
G01 X274.655 Y122.487
G01 X274.156 Y120.051
G01 X273.668 Y117.599
G01 X273.174 Y115.152
G01 X272.680 Y112.685
G01 X272.179 Y110.249
G01 X271.695 Y107.795
G01 X271.196 Y105.345
G01 X270.713 Y102.901
G01 X270.222 Y100.436
G01 X269.717 Y97.998
G01 X269.235 Y95.543
G01 X268.728 Y93.089
G01 X268.245 Y90.641
G01 X267.755 Y88.196
G01 X267.261 Y85.729
G01 X266.759 Y83.290
G01 X266.272 Y80.831
G01 X265.781 Y78.374
G01 X265.285 Y75.945
G01 X264.789 Y73.493
G01 X264.294 Y71.020
G01 X263.795 Y68.574
G01 X263.316 Y66.132
G01 X262.818 Y63.690
G01 X262.324 Y61.227
G01 X261.830 Y58.791
G01 X261.341 Y56.332
G01 X260.836 Y53.874
G01 X260.354 Y51.420
G01 X259.857 Y48.967
G01 X259.365 Y46.515
G01 X258.880 Y44.066
G01 X258.380 Y41.618
G01 X257.887 Y39.172
G01 X257.381 Y36.728
G01 X256.904 Y34.260
G01 X256.415 Y31.819
G01 X255.912 Y29.379
G01 X255.420 Y26.916
G01 X254.915 Y24.479
G01 X254.422 Y22.018
G01 X253.939 Y19.559
G01 X253.445 Y17.125
G01 X252.964 Y14.669
G01 X252.448 Y12.213
G01 X251.968 Y9.758
G01 X251.479 Y7.305
G01 X251.027 Y5.127
G01 X251.125 Y5.103
G01 X251.149 Y5.253
G01 X251.694 Y7.681
G01 X252.229 Y10.135
G01 X252.776 Y12.566
G01 X253.312 Y15.023
G01 X253.836 Y17.457
G01 X254.371 Y19.892
G01 X254.916 Y22.353
G01 X255.449 Y24.791
G01 X255.992 Y27.231
G01 X256.522 Y29.672
G01 X257.060 Y32.114
G01 X257.607 Y34.559
G01 X258.140 Y36.980
G01 X258.679 Y39.429
G01 X259.224 Y41.879
G01 X259.756 Y44.306
G01 X260.291 Y46.760
G01 X260.833 Y49.192
G01 X261.358 Y51.625
G01 X261.905 Y54.086
G01 X262.437 Y56.524
G01 X262.971 Y58.965
G01 X263.506 Y61.408
G01 X264.061 Y63.855
G01 X264.598 Y66.279
G01 X265.133 Y68.731
G01 X265.669 Y71.160
G01 X266.201 Y73.617
G01 X266.732 Y76.053
G01 X267.276 Y78.493
G01 X267.816 Y80.936
G01 X268.350 Y83.382
G01 X268.898 Y85.809
G01 X269.419 Y88.262
G01 X269.968 Y90.697
G01 X270.507 Y93.135
G01 X271.037 Y95.576
G01 X271.571 Y98.023
G01 X272.108 Y100.476
G01 X272.651 Y102.909
G01 X273.194 Y105.348
G01 X273.723 Y107.790
G01 X274.263 Y110.240
G01 X274.804 Y112.672
G01 X275.340 Y115.110
G01 X275.870 Y117.553
G01 X276.405 Y120.005
G01 X276.947 Y122.440
G01 X277.492 Y124.885
G01 X278.028 Y127.311
G01 X278.556 Y129.770
G01 X279.104 Y132.192
G01 X279.638 Y134.647
G01 X280.170 Y137.086
G01 X280.719 Y139.516
G01 X281.248 Y141.979
G01 X281.786 Y144.405
G01 X282.327 Y146.847
G01 X282.857 Y149.300
G01 X283.399 Y151.720
G01 X283.937 Y154.182
G01 X284.471 Y156.609
G01 X285.012 Y159.057
G01 X285.544 Y161.496
G01 X286.084 Y163.933
G01 X286.265 Y164.770
G01 X287.794 Y164.288
G01 X289.181 Y163.840
G01 X288.939 Y162.826
G01 X288.353 Y160.387
G01 X287.773 Y157.975
G01 X287.195 Y155.534
G01 X286.602 Y153.108
G01 X286.036 Y150.659
G01 X285.444 Y148.247
G01 X284.865 Y145.803
G01 X284.283 Y143.376
G01 X283.700 Y140.938
G01 X283.122 Y138.516
G01 X282.535 Y136.080
G01 X281.959 Y133.660
G01 X281.380 Y131.225
G01 X280.798 Y128.776
G01 X280.216 Y126.364
G01 X279.636 Y123.937
G01 X279.046 Y121.492
G01 X278.470 Y119.059
G01 X277.895 Y116.636
G01 X277.316 Y114.195
G01 X276.729 Y111.760
G01 X276.148 Y109.335
G01 X275.563 Y106.916
G01 X274.979 Y104.478
G01 X274.407 Y102.050
G01 X273.819 Y99.625
G01 X273.236 Y97.181
G01 X272.654 Y94.744
G01 X272.076 Y92.313
G01 X271.502 Y89.887
G01 X270.918 Y87.465
G01 X270.327 Y85.023
G01 X269.744 Y82.585
G01 X269.170 Y80.153
G01 X268.590 Y77.725
G01 X268.004 Y75.300
G01 X267.430 Y72.881
G01 X266.837 Y70.438
G01 X266.258 Y68.000
G01 X265.676 Y65.565
G01 X265.093 Y63.134
G01 X264.527 Y60.707
G01 X263.942 Y58.281
G01 X263.357 Y55.859
G01 X262.775 Y53.415
G01 X262.193 Y50.998
G01 X261.614 Y48.560
G01 X261.039 Y46.124
G01 X260.447 Y43.689
G01 X259.858 Y41.258
G01 X259.296 Y38.830
G01 X258.697 Y36.402
G01 X258.125 Y33.978
G01 X257.539 Y31.530
G01 X256.959 Y29.110
G01 X256.387 Y26.666
G01 X255.801 Y24.250
G01 X255.225 Y21.810
G01 X254.635 Y19.372
G01 X254.054 Y16.960
G01 X253.484 Y14.526
G01 X252.901 Y12.093
G01 X252.306 Y9.661
G01 X251.722 Y7.231
G01 X251.223 Y5.078
G01 X251.296 Y5.053
G01 X251.344 Y5.229
G01 X251.986 Y7.633
G01 X252.590 Y10.064
G01 X253.229 Y12.472
G01 X253.854 Y14.907
G01 X254.466 Y17.318
G01 X255.111 Y19.757
G01 X255.718 Y22.172
G01 X256.357 Y24.590
G01 X256.980 Y27.009
G01 X257.611 Y29.431
G01 X258.226 Y31.855
G01 X258.849 Y34.256
G01 X259.476 Y36.685
G01 X260.107 Y39.117
G01 X260.723 Y41.526
G01 X261.343 Y43.937
G01 X261.985 Y46.377
G01 X262.610 Y48.795
G01 X263.217 Y51.214
G01 X263.845 Y53.638
G01 X264.475 Y56.039
G01 X265.103 Y58.470
G01 X265.730 Y60.903
G01 X266.357 Y63.315
G01 X266.981 Y65.731
G01 X267.602 Y68.150
G01 X268.237 Y70.574
G01 X268.849 Y73.001
G01 X269.476 Y75.408
G01 X270.111 Y77.846
G01 X270.724 Y80.260
G01 X271.346 Y82.681
G01 X271.979 Y85.083
G01 X272.598 Y87.514
G01 X273.226 Y89.926
G01 X273.858 Y92.345
G01 X274.477 Y94.768
G01 X275.113 Y97.200
G01 X275.737 Y99.611
G01 X276.360 Y102.030
G01 X276.980 Y104.455
G01 X277.611 Y106.889
G01 X278.227 Y109.304
G01 X278.850 Y111.728
G01 X279.483 Y114.137
G01 X280.106 Y116.554
G01 X280.732 Y118.981
G01 X281.362 Y121.394
G01 X281.978 Y123.814
G01 X282.602 Y126.247
G01 X283.226 Y128.667
G01 X283.861 Y131.077
G01 X284.486 Y133.497
G01 X285.110 Y135.931
G01 X285.726 Y138.352
G01 X286.356 Y140.766
G01 X286.985 Y143.171
G01 X287.614 Y145.594
G01 X288.229 Y148.031
G01 X288.856 Y150.439
G01 X289.484 Y152.868
G01 X290.108 Y155.293
G01 X290.726 Y157.712
G01 X291.355 Y160.134
G01 X291.981 Y162.555
G01 X292.067 Y162.846
G01 X294.111 Y162.097
G01 X294.921 Y161.806
G01 X294.492 Y160.220
G01 X293.818 Y157.809
G01 X293.154 Y155.403
G01 X292.484 Y152.995
G01 X291.819 Y150.588
G01 X291.143 Y148.173
G01 X290.470 Y145.782
G01 X289.809 Y143.363
G01 X289.136 Y140.960
G01 X288.471 Y138.553
G01 X287.796 Y136.134
G01 X287.127 Y133.734
G01 X286.463 Y131.325
G01 X285.793 Y128.904
G01 X285.125 Y126.498
G01 X284.449 Y124.103
G01 X283.787 Y121.699
G01 X283.113 Y119.279
G01 X282.450 Y116.873
G01 X281.774 Y114.475
G01 X281.105 Y112.064
G01 X280.445 Y109.639
G01 X279.770 Y107.246
G01 X279.107 Y104.839
G01 X278.443 Y102.416
G01 X277.770 Y100.024
G01 X277.099 Y97.616
G01 X276.430 Y95.190
G01 X275.756 Y92.796
G01 X275.086 Y90.384
G01 X274.419 Y87.980
G01 X273.760 Y85.558
G01 X273.088 Y83.140
G01 X272.418 Y80.753
G01 X271.745 Y78.322
G01 X271.077 Y75.921
G01 X270.419 Y73.527
G01 X269.738 Y71.111
G01 X269.069 Y68.700
G01 X268.412 Y66.295
G01 X267.732 Y63.893
G01 X267.069 Y61.471
G01 X266.403 Y59.053
G01 X265.732 Y56.664
G01 X265.062 Y54.254
G01 X264.390 Y51.847
G01 X263.720 Y49.419
G01 X263.048 Y47.019
G01 X262.377 Y44.623
G01 X261.710 Y42.205
G01 X261.045 Y39.790
G01 X260.383 Y37.378
G01 X259.703 Y34.969
G01 X259.049 Y32.563
G01 X258.378 Y30.160
G01 X257.713 Y27.759
G01 X257.033 Y25.335
G01 X256.358 Y22.939
G01 X255.691 Y20.521
G01 X255.031 Y18.130
G01 X254.356 Y15.716
G01 X253.691 Y13.304
G01 X253.035 Y10.894
G01 X252.365 Y8.487
G01 X251.681 Y6.081
G01 X251.395 Y5.029
G01 X251.493 Y5.005
G01 X251.851 Y6.257
G01 X252.581 Y8.639
G01 X253.272 Y11.047
G01 X253.997 Y13.434
G01 X254.706 Y15.822
G01 X255.423 Y18.238
G01 X256.124 Y20.632
G01 X256.832 Y23.028
G01 X257.547 Y25.427
G01 X258.268 Y27.804
G01 X258.971 Y30.208
G01 X259.700 Y32.616
G01 X260.412 Y35.002
G01 X261.107 Y37.390
G01 X261.824 Y39.807
G01 X262.544 Y42.203
G01 X263.246 Y44.577
G01 X263.968 Y46.980
G01 X264.669 Y49.386
G01 X265.392 Y51.772
G01 X266.094 Y54.160
G01 X266.810 Y56.579
G01 X267.528 Y58.952
G01 X268.241 Y61.355
G01 X268.948 Y63.761
G01 X269.653 Y66.147
G01 X270.371 Y68.540
G01 X271.082 Y70.937
G01 X271.802 Y73.340
G01 X272.514 Y75.748
G01 X273.220 Y78.136
G01 X273.932 Y80.532
G01 X274.651 Y82.934
G01 X275.360 Y85.316
G01 X276.069 Y87.731
G01 X276.784 Y90.128
G01 X277.488 Y92.506
G01 X278.203 Y94.919
G01 X278.920 Y97.315
G01 X279.639 Y99.694
G01 X280.348 Y102.107
G01 X281.056 Y104.503
G01 X281.762 Y106.882
G01 X282.474 Y109.273
G01 X283.190 Y111.676
G01 X283.894 Y114.087
G01 X284.623 Y116.465
G01 X285.330 Y118.876
G01 X286.041 Y121.275
G01 X286.752 Y123.662
G01 X287.457 Y126.061
G01 X288.171 Y128.453
G01 X288.886 Y130.861
G01 X289.595 Y133.257
G01 X290.309 Y135.646
G01 X291.024 Y138.029
G01 X291.742 Y140.432
G01 X292.446 Y142.824
G01 X293.168 Y145.219
G01 X293.873 Y147.630
G01 X294.589 Y150.017
G01 X295.293 Y152.425
G01 X296.015 Y154.814
G01 X296.730 Y157.202
G01 X297.434 Y159.616
G01 X297.754 Y160.662
G01 X299.096 Y160.108
G01 X300.548 Y159.482
G01 X300.278 Y158.618
G01 X299.513 Y156.246
G01 X298.763 Y153.859
G01 X298.007 Y151.473
G01 X297.248 Y149.088
G01 X296.498 Y146.709
G01 X295.741 Y144.324
G01 X294.987 Y141.940
G01 X294.229 Y139.552
G01 X293.479 Y137.162
G01 X292.721 Y134.791
G01 X291.964 Y132.414
G01 X291.212 Y130.031
G01 X290.453 Y127.639
G01 X289.694 Y125.264
G01 X288.945 Y122.882
G01 X288.196 Y120.490
G01 X287.439 Y118.111
G01 X286.685 Y115.721
G01 X285.928 Y113.344
G01 X285.177 Y110.956
G01 X284.413 Y108.577
G01 X283.657 Y106.186
G01 X282.905 Y103.807
G01 X282.146 Y101.438
G01 X281.384 Y99.053
G01 X280.637 Y96.655
G01 X279.880 Y94.291
G01 X279.130 Y91.886
G01 X278.374 Y89.514
G01 X277.622 Y87.126
G01 X276.854 Y84.743
G01 X276.106 Y82.371
G01 X275.347 Y79.979
G01 X274.593 Y77.595
G01 X273.845 Y75.219
G01 X273.090 Y72.823
G01 X272.322 Y70.457
G01 X271.566 Y68.074
G01 X270.823 Y65.672
G01 X270.071 Y63.301
G01 X269.315 Y60.909
G01 X268.551 Y58.547
G01 X267.806 Y56.141
G01 X267.035 Y53.763
G01 X266.281 Y51.391
G01 X265.526 Y48.999
G01 X264.770 Y46.611
G01 X264.013 Y44.227
G01 X263.276 Y41.848
G01 X262.519 Y39.472
G01 X261.762 Y37.100
G01 X261.010 Y34.706
G01 X260.237 Y32.316
G01 X259.489 Y29.929
G01 X258.745 Y27.547
G01 X257.983 Y25.167
G01 X257.226 Y22.790
G01 X256.474 Y20.416
G01 X255.706 Y18.020
G01 X254.967 Y15.653
G01 X254.213 Y13.262
G01 X253.442 Y10.875
G01 X252.703 Y8.490
G01 X251.925 Y6.108
G01 X251.566 Y4.980
G01 X251.665 Y4.931
G01 X252.047 Y6.084
G01 X252.848 Y8.467
G01 X253.658 Y10.828
G01 X254.451 Y13.192
G01 X255.251 Y15.559
G01 X256.034 Y17.928
G01 X256.845 Y20.302
G01 X257.639 Y22.678
G01 X258.439 Y25.033
G01 X259.241 Y27.417
G01 X260.025 Y29.778
G01 X260.835 Y32.144
G01 X261.624 Y34.513
G01 X262.437 Y36.888
G01 X263.229 Y39.265
G01 X264.023 Y41.621
G01 X264.816 Y43.982
G01 X265.629 Y46.349
G01 X266.419 Y48.719
G01 X267.227 Y51.095
G01 X268.011 Y53.474
G01 X268.814 Y55.834
G01 X269.611 Y58.200
G01 X270.403 Y60.571
G01 X271.207 Y62.948
G01 X272.007 Y65.306
G01 X272.798 Y67.670
G01 X273.599 Y70.041
G01 X274.408 Y72.420
G01 X275.192 Y74.777
G01 X276.000 Y77.144
G01 X276.794 Y79.518
G01 X277.593 Y81.900
G01 X278.397 Y84.265
G01 X279.186 Y86.637
G01 X279.996 Y88.995
G01 X280.788 Y91.360
G01 X281.578 Y93.734
G01 X282.384 Y96.095
G01 X283.185 Y98.466
G01 X283.979 Y100.847
G01 X284.771 Y103.212
G01 X285.568 Y105.591
G01 X286.374 Y107.958
G01 X287.174 Y110.312
G01 X287.974 Y112.679
G01 X288.772 Y115.060
G01 X289.561 Y117.427
G01 X290.364 Y119.788
G01 X291.160 Y122.163
G01 X291.968 Y124.533
G01 X292.752 Y126.913
G01 X293.564 Y129.269
G01 X294.361 Y131.640
G01 X295.150 Y134.002
G01 X295.944 Y136.388
G01 X296.748 Y138.748
G01 X297.539 Y141.126
G01 X298.348 Y143.484
G01 X299.140 Y145.862
G01 X299.945 Y148.219
G01 X300.740 Y150.602
G01 X301.535 Y152.960
G01 X302.335 Y155.328
G01 X303.129 Y157.699
G01 X303.310 Y158.236
G01 X305.011 Y157.409
G01 X306.037 Y156.916
G01 X305.594 Y155.634
G01 X304.742 Y153.294
G01 X303.898 Y150.938
G01 X303.075 Y148.572
G01 X302.230 Y146.228
G01 X301.388 Y143.861
G01 X300.540 Y141.520
G01 X299.709 Y139.162
G01 X298.865 Y136.796
G01 X298.021 Y134.457
G01 X297.189 Y132.092
G01 X296.338 Y129.744
G01 X295.492 Y127.393
G01 X294.653 Y125.038
G01 X293.822 Y122.681
G01 X292.969 Y120.334
G01 X292.127 Y117.984
G01 X291.300 Y115.629
G01 X290.461 Y113.261
G01 X289.619 Y110.908
G01 X288.776 Y108.569
G01 X287.931 Y106.193
G01 X287.082 Y103.856
G01 X286.249 Y101.485
G01 X285.415 Y99.151
G01 X284.568 Y96.776
G01 X283.725 Y94.439
G01 X282.882 Y92.087
G01 X282.055 Y89.724
G01 X281.209 Y87.367
G01 X280.361 Y85.020
G01 X279.517 Y82.658
G01 X278.691 Y80.308
G01 X277.833 Y77.962
G01 X276.999 Y75.602
G01 X276.152 Y73.249
G01 X275.314 Y70.880
G01 X274.479 Y68.544
G01 X273.637 Y66.189
G01 X272.804 Y63.842
G01 X271.966 Y61.475
G01 X271.120 Y59.115
G01 X270.285 Y56.762
G01 X269.425 Y54.412
G01 X268.601 Y52.047
G01 X267.750 Y49.710
G01 X266.918 Y47.355
G01 X266.062 Y45.003
G01 X265.226 Y42.633
G01 X264.386 Y40.293
G01 X263.547 Y37.932
G01 X262.707 Y35.576
G01 X261.868 Y33.225
G01 X261.030 Y30.877
G01 X260.194 Y28.509
G01 X259.337 Y26.170
G01 X258.507 Y23.810
G01 X257.658 Y21.453
G01 X256.812 Y19.100
G01 X255.971 Y16.751
G01 X255.136 Y14.381
G01 X254.306 Y12.039
G01 X253.459 Y9.675
G01 X252.619 Y7.339
G01 X251.787 Y4.982
G01 X251.763 Y4.906
G01 X251.837 Y4.882
G01 X252.670 Y7.090
G01 X253.559 Y9.426
G01 X254.454 Y11.767
G01 X255.330 Y14.110
G01 X256.213 Y16.433
G01 X257.099 Y18.784
G01 X257.967 Y21.114
G01 X258.861 Y23.448
G01 X259.735 Y25.786
G01 X260.634 Y28.130
G01 X261.512 Y30.477
G01 X262.392 Y32.803
G01 X263.271 Y35.159
G01 X264.151 Y37.496
G01 X265.030 Y39.837
G01 X265.929 Y42.160
G01 X266.804 Y44.511
G01 X267.697 Y46.844
G01 X268.567 Y49.181
G01 X269.451 Y51.526
G01 X270.333 Y53.851
G01 X271.225 Y56.209
G01 X272.113 Y58.548
G01 X272.996 Y60.868
G01 X273.867 Y63.219
G01 X274.751 Y65.553
G01 X275.642 Y67.897
G01 X276.526 Y70.221
G01 X277.416 Y72.555
G01 X278.293 Y74.896
G01 X279.173 Y77.246
G01 X280.060 Y79.581
G01 X280.931 Y81.922
G01 X281.824 Y84.252
G01 X282.699 Y86.589
G01 X283.587 Y88.940
G01 X284.477 Y91.276
G01 X285.346 Y93.620
G01 X286.230 Y95.953
G01 X287.122 Y98.301
G01 X287.996 Y100.632
G01 X288.895 Y102.957
G01 X289.762 Y105.314
G01 X290.657 Y107.642
G01 X291.538 Y109.982
G01 X292.425 Y112.313
G01 X293.307 Y114.660
G01 X294.192 Y117.000
G01 X295.077 Y119.332
G01 X295.954 Y121.680
G01 X296.829 Y124.022
G01 X297.712 Y126.362
G01 X298.603 Y128.700
G01 X299.487 Y131.032
G01 X300.374 Y133.363
G01 X301.254 Y135.717
G01 X302.133 Y138.043
G01 X303.022 Y140.374
G01 X303.897 Y142.729
G01 X304.788 Y145.067
G01 X305.663 Y147.402
G01 X306.550 Y149.750
G01 X307.439 Y152.078
G01 X308.317 Y154.410
G01 X308.735 Y155.519
G01 X309.882 Y154.909
G01 X311.383 Y154.085
G01 X311.108 Y153.347
G01 X310.174 Y151.033
G01 X309.253 Y148.708
G01 X308.323 Y146.387
G01 X307.398 Y144.077
G01 X306.480 Y141.748
G01 X305.558 Y139.422
G01 X304.634 Y137.099
G01 X303.698 Y134.773
G01 X302.774 Y132.453
G01 X301.854 Y130.135
G01 X300.926 Y127.813
G01 X300.004 Y125.491
G01 X299.077 Y123.164
G01 X298.160 Y120.836
G01 X297.219 Y118.522
G01 X296.290 Y116.207
G01 X295.377 Y113.890
G01 X294.451 Y111.561
G01 X293.530 Y109.226
G01 X292.606 Y106.908
G01 X291.674 Y104.578
G01 X290.743 Y102.265
G01 X289.821 Y99.944
G01 X288.894 Y97.610
G01 X287.973 Y95.292
G01 X287.044 Y92.986
G01 X286.114 Y90.667
G01 X285.200 Y88.338
G01 X284.265 Y86.017
G01 X283.349 Y83.686
G01 X282.414 Y81.362
G01 X281.495 Y79.052
G01 X280.564 Y76.725
G01 X279.634 Y74.408
G01 X278.712 Y72.077
G01 X277.793 Y69.755
G01 X276.862 Y67.441
G01 X275.940 Y65.111
G01 X275.026 Y62.790
G01 X274.083 Y60.474
G01 X273.171 Y58.144
G01 X272.251 Y55.821
G01 X271.323 Y53.504
G01 X270.390 Y51.168
G01 X269.469 Y48.865
G01 X268.544 Y46.543
G01 X267.616 Y44.203
G01 X266.683 Y41.893
G01 X265.768 Y39.565
G01 X264.830 Y37.241
G01 X263.912 Y34.924
G01 X262.992 Y32.613
G01 X262.073 Y30.281
G01 X261.132 Y27.954
G01 X260.214 Y25.632
G01 X259.298 Y23.316
G01 X258.361 Y20.978
G01 X257.427 Y18.669
G01 X256.519 Y16.341
G01 X255.592 Y14.016
G01 X254.670 Y11.696
G01 X253.728 Y9.379
G01 X252.816 Y7.066
G01 X251.935 Y4.858
G01 X252.033 Y4.833
G01 X252.057 Y4.884
G01 X253.009 Y7.194
G01 X253.991 Y9.508
G01 X254.953 Y11.801
G01 X255.921 Y14.099
G01 X256.891 Y16.427
G01 X257.842 Y18.708
G01 X258.818 Y21.020
G01 X259.796 Y23.337
G01 X260.754 Y25.633
G01 X261.712 Y27.934
G01 X262.693 Y30.241
G01 X263.650 Y32.553
G01 X264.630 Y34.847
G01 X265.584 Y37.170
G01 X266.559 Y39.475
G01 X267.532 Y41.762
G01 X268.499 Y44.079
G01 X269.463 Y46.378
G01 X270.421 Y48.683
G01 X271.394 Y50.997
G01 X272.361 Y53.292
G01 X273.322 Y55.594
G01 X274.292 Y57.905
G01 X275.254 Y60.223
G01 X276.227 Y62.526
G01 X277.192 Y64.811
G01 X278.161 Y67.131
G01 X279.120 Y69.433
G01 X280.101 Y71.749
G01 X281.055 Y74.044
G01 X282.028 Y76.354
G01 X282.989 Y78.647
G01 X283.967 Y80.954
G01 X284.927 Y83.269
G01 X285.889 Y85.571
G01 X286.869 Y87.864
G01 X287.822 Y90.190
G01 X288.796 Y92.482
G01 X289.763 Y94.787
G01 X290.743 Y97.085
G01 X291.697 Y99.391
G01 X292.670 Y101.717
G01 X293.629 Y104.005
G01 X294.604 Y106.314
G01 X295.570 Y108.612
G01 X296.534 Y110.929
G01 X297.501 Y113.239
G01 X298.470 Y115.545
G01 X299.441 Y117.845
G01 X300.411 Y120.142
G01 X301.371 Y122.457
G01 X302.337 Y124.745
G01 X303.302 Y127.057
G01 X304.274 Y129.372
G01 X305.238 Y131.684
G01 X306.205 Y133.971
G01 X307.175 Y136.290
G01 X308.145 Y138.585
G01 X309.114 Y140.884
G01 X310.082 Y143.189
G01 X311.046 Y145.499
G01 X312.004 Y147.815
G01 X312.969 Y150.117
G01 X313.950 Y152.412
G01 X314.002 Y152.566
G01 X315.962 Y151.375
G01 X316.571 Y151.001
G01 X315.863 Y149.361
G01 X314.855 Y147.080
G01 X313.833 Y144.802
G01 X312.831 Y142.517
G01 X311.828 Y140.213
G01 X310.812 Y137.937
G01 X309.809 Y135.646
G01 X308.796 Y133.356
G01 X307.786 Y131.071
G01 X306.781 Y128.790
G01 X305.780 Y126.486
G01 X304.764 Y124.203
G01 X303.756 Y121.924
G01 X302.747 Y119.642
G01 X301.736 Y117.358
G01 X300.734 Y115.046
G01 X299.716 Y112.778
G01 X298.708 Y110.483
G01 X297.705 Y108.184
G01 X296.698 Y105.903
G01 X295.683 Y103.613
G01 X294.683 Y101.345
G01 X293.670 Y99.039
G01 X292.659 Y96.752
G01 X291.653 Y94.481
G01 X290.651 Y92.176
G01 X289.634 Y89.908
G01 X288.623 Y87.605
G01 X287.621 Y85.318
G01 X286.615 Y83.043
G01 X285.595 Y80.753
G01 X284.594 Y78.453
G01 X283.593 Y76.166
G01 X282.574 Y73.887
G01 X281.561 Y71.595
G01 X280.568 Y69.317
G01 X279.547 Y67.020
G01 X278.548 Y64.737
G01 X277.537 Y62.461
G01 X276.518 Y60.168
G01 X275.525 Y57.888
G01 X274.506 Y55.588
G01 X273.497 Y53.298
G01 X272.499 Y51.018
G01 X271.476 Y48.717
G01 X270.485 Y46.428
G01 X269.468 Y44.144
G01 X268.466 Y41.868
G01 X267.441 Y39.572
G01 X266.431 Y37.284
G01 X265.440 Y35.004
G01 X264.426 Y32.703
G01 X263.409 Y30.434
G01 X262.413 Y28.147
G01 X261.394 Y25.864
G01 X260.399 Y23.564
G01 X259.382 Y21.267
G01 X258.364 Y19.001
G01 X257.373 Y16.691
G01 X256.361 Y14.411
G01 X255.351 Y12.135
G01 X254.346 Y9.839
G01 X253.320 Y7.548
G01 X252.323 Y5.261
G01 X252.131 Y4.809
G01 X252.205 Y4.785
G01 X253.018 Y6.519
G01 X254.075 Y8.809
G01 X255.112 Y11.055
G01 X256.177 Y13.331
G01 X257.220 Y15.611
G01 X258.266 Y17.872
G01 X259.313 Y20.139
G01 X260.361 Y22.411
G01 X261.409 Y24.689
G01 X262.458 Y26.948
G01 X263.527 Y29.214
G01 X264.573 Y31.485
G01 X265.616 Y33.763
G01 X266.658 Y36.022
G01 X267.717 Y38.290
G01 X268.772 Y40.565
G01 X269.823 Y42.821
G01 X270.869 Y45.085
G01 X271.908 Y47.356
G01 X272.960 Y49.636
G01 X274.006 Y51.899
G01 X275.063 Y54.172
G01 X276.113 Y56.428
G01 X277.169 Y58.720
G01 X278.220 Y60.970
G01 X279.255 Y63.253
G01 X280.318 Y65.525
G01 X281.353 Y67.778
G01 X282.410 Y70.045
G01 X283.452 Y72.322
G01 X284.517 Y74.589
G01 X285.564 Y76.865
G01 X286.615 Y79.129
G01 X287.664 Y81.406
G01 X288.699 Y83.667
G01 X289.768 Y85.926
G01 X290.815 Y88.193
G01 X291.856 Y90.475
G01 X292.910 Y92.750
G01 X293.962 Y95.014
G01 X295.011 Y97.269
G01 X296.063 Y99.543
G01 X297.110 Y101.808
G01 X298.157 Y104.092
G01 X299.205 Y106.343
G01 X300.251 Y108.615
G01 X301.302 Y110.883
G01 X302.356 Y113.148
G01 X303.403 Y115.434
G01 X304.447 Y117.690
G01 X305.495 Y119.973
G01 X306.552 Y122.231
G01 X307.596 Y124.511
G01 X308.647 Y126.769
G01 X309.706 Y129.032
G01 X310.748 Y131.319
G01 X311.795 Y133.584
G01 X312.845 Y135.857
G01 X313.899 Y138.111
G01 X314.955 Y140.373
G01 X316.000 Y142.639
G01 X317.054 Y144.922
G01 X318.099 Y147.182
G01 X319.109 Y149.371
G01 X319.220 Y149.296
G01 X321.260 Y147.911
G01 X321.597 Y147.689
G01 X320.682 Y145.813
G01 X319.588 Y143.553
G01 X318.504 Y141.312
G01 X317.414 Y139.050
G01 X316.325 Y136.799
G01 X315.228 Y134.553
G01 X314.136 Y132.317
G01 X313.050 Y130.063
G01 X311.959 Y127.811
G01 X310.863 Y125.562
G01 X309.777 Y123.320
G01 X308.686 Y121.051
G01 X307.596 Y118.811
G01 X306.506 Y116.572
G01 X305.413 Y114.303
G01 X304.326 Y112.063
G01 X303.229 Y109.816
G01 X302.136 Y107.567
G01 X301.048 Y105.317
G01 X299.967 Y103.064
G01 X298.871 Y100.826
G01 X297.791 Y98.562
G01 X296.699 Y96.313
G01 X295.595 Y94.080
G01 X294.510 Y91.818
G01 X293.416 Y89.571
G01 X292.336 Y87.319
G01 X291.233 Y85.076
G01 X290.147 Y82.828
G01 X289.063 Y80.570
G01 X287.974 Y78.325
G01 X286.872 Y76.065
G01 X285.785 Y73.823
G01 X284.703 Y71.568
G01 X283.605 Y69.324
G01 X282.513 Y67.067
G01 X281.424 Y64.822
G01 X280.339 Y62.590
G01 X279.245 Y60.342
G01 X278.161 Y58.080
G01 X277.065 Y55.827
G01 X275.977 Y53.585
G01 X274.882 Y51.327
G01 X273.797 Y49.079
G01 X272.704 Y46.840
G01 X271.605 Y44.583
G01 X270.520 Y42.336
G01 X269.430 Y40.072
G01 X268.332 Y37.841
G01 X267.252 Y35.593
G01 X266.170 Y33.328
G01 X265.061 Y31.092
G01 X263.972 Y28.841
G01 X262.881 Y26.596
G01 X261.789 Y24.333
G01 X260.717 Y22.102
G01 X259.624 Y19.851
G01 X258.532 Y17.582
G01 X257.439 Y15.343
G01 X256.349 Y13.085
G01 X255.261 Y10.833
G01 X254.175 Y8.586
G01 X253.068 Y6.344
G01 X252.304 Y4.761
G01 X252.402 Y4.737
G01 X252.690 Y5.315
G01 X253.829 Y7.555
G01 X254.948 Y9.776
G01 X256.092 Y12.003
G01 X257.215 Y14.235
G01 X258.339 Y16.474
G01 X259.487 Y18.694
G01 X260.612 Y20.921
G01 X261.737 Y23.153
G01 X262.884 Y25.369
G01 X264.005 Y27.616
G01 X265.125 Y29.844
G01 X266.265 Y32.056
G01 X267.400 Y34.301
G01 X268.531 Y36.528
G01 X269.658 Y38.763
G01 X270.780 Y40.980
G01 X271.917 Y43.208
G01 X273.046 Y45.444
G01 X274.191 Y47.666
G01 X275.306 Y49.894
G01 X276.451 Y52.135
G01 X277.569 Y54.358
G01 X278.715 Y56.595
G01 X279.833 Y58.814
G01 X280.977 Y61.047
G01 X282.088 Y63.287
G01 X283.226 Y65.518
G01 X284.353 Y67.734
G01 X285.483 Y69.963
G01 X286.613 Y72.206
G01 X287.749 Y74.437
G01 X288.889 Y76.659
G01 X290.009 Y78.890
G01 X291.149 Y81.116
G01 X292.267 Y83.352
G01 X293.403 Y85.582
G01 X294.539 Y87.804
G01 X295.667 Y90.041
G01 X296.793 Y92.270
G01 X297.932 Y94.495
G01 X299.067 Y96.712
G01 X300.191 Y98.945
G01 X301.324 Y101.176
G01 X302.451 Y103.401
G01 X303.577 Y105.647
G01 X304.718 Y107.869
G01 X305.850 Y110.085
G01 X306.978 Y112.324
G01 X308.108 Y114.564
G01 X309.237 Y116.776
G01 X310.371 Y119.018
G01 X311.503 Y121.234
G01 X312.623 Y123.474
G01 X313.765 Y125.702
G01 X314.892 Y127.926
G01 X316.028 Y130.161
G01 X317.148 Y132.394
G01 X318.287 Y134.618
G01 X319.420 Y136.848
G01 X320.546 Y139.084
G01 X321.678 Y141.307
G01 X322.803 Y143.537
G01 X323.943 Y145.763
G01 X324.031 Y145.949
G01 X325.862 Y144.584
G01 X326.426 Y144.159
G01 X325.589 Y142.580
G01 X324.420 Y140.374
G01 X323.248 Y138.150
G01 X322.081 Y135.942
G01 X320.909 Y133.744
G01 X319.734 Y131.524
G01 X318.568 Y129.319
G01 X317.400 Y127.121
G01 X316.229 Y124.899
G01 X315.045 Y122.706
G01 X313.872 Y120.494
G01 X312.713 Y118.294
G01 X311.529 Y116.084
G01 X310.371 Y113.860
G01 X309.192 Y111.656
G01 X308.017 Y109.454
G01 X306.857 Y107.230
G01 X305.680 Y105.025
G01 X304.509 Y102.820
G01 X303.347 Y100.615
G01 X302.179 Y98.403
G01 X301.005 Y96.186
G01 X299.835 Y93.991
G01 X298.662 Y91.790
G01 X297.486 Y89.581
G01 X296.324 Y87.369
G01 X295.145 Y85.145
G01 X293.975 Y82.941
G01 X292.806 Y80.729
G01 X291.633 Y78.532
G01 X290.462 Y76.326
G01 X289.294 Y74.111
G01 X288.125 Y71.910
G01 X286.942 Y69.696
G01 X285.784 Y67.475
G01 X284.604 Y65.288
G01 X283.436 Y63.067
G01 X282.271 Y60.858
G01 X281.093 Y58.660
G01 X279.924 Y56.450
G01 X278.747 Y54.224
G01 X277.573 Y52.036
G01 X276.415 Y49.810
G01 X275.244 Y47.618
G01 X274.066 Y45.411
G01 X272.903 Y43.189
G01 X271.731 Y40.977
G01 X270.552 Y38.772
G01 X269.390 Y36.554
G01 X268.219 Y34.368
G01 X267.048 Y32.141
G01 X265.870 Y29.946
G01 X264.711 Y27.736
G01 X263.528 Y25.532
G01 X262.365 Y23.312
G01 X261.201 Y21.099
G01 X260.012 Y18.892
G01 X258.845 Y16.693
G01 X257.679 Y14.475
G01 X256.514 Y12.264
G01 X255.326 Y10.059
G01 X254.163 Y7.861
G01 X253.004 Y5.643
G01 X252.500 Y4.713
G01 X252.599 Y4.689
G01 X253.245 Y5.872
G01 X254.450 Y8.066
G01 X255.658 Y10.242
G01 X256.890 Y12.425
G01 X258.099 Y14.614
G01 X259.307 Y16.811
G01 X260.517 Y18.989
G01 X261.724 Y21.175
G01 X262.930 Y23.369
G01 X264.135 Y25.545
G01 X265.359 Y27.730
G01 X266.557 Y29.922
G01 X267.773 Y32.124
G01 X268.985 Y34.309
G01 X270.193 Y36.478
G01 X271.414 Y38.682
G01 X272.609 Y40.869
G01 X273.820 Y43.041
G01 X275.043 Y45.226
G01 X276.257 Y47.419
G01 X277.463 Y49.598
G01 X278.679 Y51.789
G01 X279.883 Y53.990
G01 X281.098 Y56.179
G01 X282.304 Y58.354
G01 X283.516 Y60.542
G01 X284.713 Y62.740
G01 X285.936 Y64.932
G01 X287.148 Y67.110
G01 X288.362 Y69.302
G01 X289.563 Y71.481
G01 X290.781 Y73.680
G01 X291.985 Y75.865
G01 X293.193 Y78.042
G01 X294.414 Y80.239
G01 X295.620 Y82.424
G01 X296.827 Y84.601
G01 X298.043 Y86.800
G01 X299.242 Y88.986
G01 X300.456 Y91.172
G01 X301.667 Y93.351
G01 X302.892 Y95.529
G01 X304.088 Y97.721
G01 X305.296 Y99.912
G01 X306.513 Y102.104
G01 X307.724 Y104.292
G01 X308.928 Y106.476
G01 X310.139 Y108.663
G01 X311.356 Y110.852
G01 X312.564 Y113.038
G01 X313.776 Y115.228
G01 X314.978 Y117.417
G01 X316.208 Y119.594
G01 X317.401 Y121.787
G01 X318.620 Y123.970
G01 X319.827 Y126.154
G01 X321.034 Y128.345
G01 X322.252 Y130.523
G01 X323.468 Y132.710
G01 X324.671 Y134.900
G01 X325.895 Y137.086
G01 X327.094 Y139.269
G01 X328.300 Y141.472
G01 X328.778 Y142.314
G01 X329.954 Y141.347
G01 X331.058 Y140.422
G01 X330.539 Y139.514
G01 X329.298 Y137.333
G01 X328.044 Y135.159
G01 X326.789 Y132.998
G01 X325.533 Y130.849
G01 X324.291 Y128.691
G01 X323.037 Y126.507
G01 X321.797 Y124.340
G01 X320.545 Y122.175
G01 X319.296 Y120.018
G01 X318.037 Y117.862
G01 X316.793 Y115.692
G01 X315.539 Y113.521
G01 X314.290 Y111.356
G01 X313.047 Y109.196
G01 X311.797 Y107.034
G01 X310.539 Y104.870
G01 X309.299 Y102.687
G01 X308.044 Y100.524
G01 X306.798 Y98.363
G01 X305.549 Y96.199
G01 X304.295 Y94.030
G01 X303.046 Y91.886
G01 X301.787 Y89.708
G01 X300.534 Y87.554
G01 X299.288 Y85.370
G01 X298.051 Y83.208
G01 X296.791 Y81.060
G01 X295.538 Y78.881
G01 X294.299 Y76.723
G01 X293.045 Y74.553
G01 X291.789 Y72.400
G01 X290.542 Y70.214
G01 X289.290 Y68.069
G01 X288.048 Y65.890
G01 X286.790 Y63.723
G01 X285.534 Y61.571
G01 X284.287 Y59.409
G01 X283.048 Y57.237
G01 X281.795 Y55.076
G01 X280.553 Y52.904
G01 X279.299 Y50.742
G01 X278.056 Y48.569
G01 X276.802 Y46.407
G01 X275.538 Y44.254
G01 X274.288 Y42.089
G01 X273.053 Y39.911
G01 X271.789 Y37.740
G01 X270.538 Y35.581
G01 X269.302 Y33.433
G01 X268.041 Y31.268
G01 X266.798 Y29.088
G01 X265.550 Y26.916
G01 X264.298 Y24.753
G01 X263.043 Y22.599
G01 X261.786 Y20.427
G01 X260.550 Y18.265
G01 X259.289 Y16.109
G01 X258.051 Y13.937
G01 X256.790 Y11.772
G01 X255.552 Y9.614
G01 X254.292 Y7.438
G01 X253.057 Y5.269
G01 X251.801 Y3.107
G01 X250.521 Y0.901
G01 X249.998 Y0.000
G01 X262.265 Y0.301
G01 X274.502 Y1.204
G01 X286.681 Y2.706
G01 X298.771 Y4.803
G01 X310.743 Y7.492
G01 X322.569 Y10.764
G01 X334.221 Y14.613
G01 X345.669 Y19.029
G01 X356.887 Y24.002
G01 X367.848 Y29.519
G01 X375.950 Y34.045
G01 X375.079 Y34.550
G01 X375.204 Y36.012
G01 X375.251 Y36.765
G01 X376.774 Y35.892
G01 X377.932 Y35.213
G01 X378.961 Y35.829
G01 X379.881 Y36.386
G01 X378.670 Y37.084
G01 X376.496 Y38.345
G01 X375.358 Y39.005
G01 X375.427 Y40.182
G01 X375.454 Y41.276
G01 X376.685 Y40.558
G01 X378.836 Y39.292
G01 X381.003 Y38.041
G01 X381.819 Y37.577
G01 X383.113 Y38.385
G01 X383.747 Y38.785
G01 X382.224 Y39.657
G01 X380.072 Y40.906
G01 X377.914 Y42.158
G01 X375.729 Y43.400
G01 X375.496 Y43.551
G01 X375.493 Y45.541
G01 X375.667 Y45.442
G01 X377.828 Y44.192
G01 X380.005 Y42.957
G01 X382.169 Y41.692
G01 X384.326 Y40.429
G01 X385.390 Y39.835
G01 X386.481 Y40.541
G01 X387.025 Y40.897
G01 X385.414 Y41.816
G01 X383.250 Y43.066
G01 X381.080 Y44.318
G01 X378.918 Y45.552
G01 X376.758 Y46.823
G01 X375.450 Y47.570
G01 X375.438 Y48.534
G01 X375.391 Y49.595
G01 X376.637 Y48.902
G01 X378.796 Y47.635
G01 X380.969 Y46.384
G01 X383.137 Y45.136
G01 X385.299 Y43.891
G01 X387.455 Y42.647
G01 X388.631 Y41.958
G01 X389.545 Y42.570
G01 X390.229 Y43.032
G01 X388.791 Y43.870
G01 X386.613 Y45.120
G01 X384.464 Y46.364
G01 X382.295 Y47.631
G01 X380.133 Y48.879
G01 X377.967 Y50.131
G01 X375.809 Y51.365
G01 X375.290 Y51.658
G01 X375.176 Y53.540
G01 X375.160 Y53.737
G01 X377.152 Y52.579
G01 X379.312 Y51.327
G01 X381.487 Y50.091
G01 X383.636 Y48.844
G01 X385.814 Y47.593
G01 X387.986 Y46.343
G01 X390.150 Y45.095
G01 X391.819 Y44.118
G01 X392.271 Y44.430
G01 X393.400 Y45.216
G01 X392.404 Y45.770
G01 X390.265 Y47.025
G01 X388.086 Y48.287
G01 X385.914 Y49.530
G01 X383.756 Y50.789
G01 X381.587 Y52.015
G01 X379.418 Y53.279
G01 X377.259 Y54.524
G01 X375.095 Y55.774
G01 X375.002 Y55.833
G01 X374.781 Y57.953
G01 X375.000 Y57.826
G01 X377.162 Y56.582
G01 X379.320 Y55.341
G01 X381.488 Y54.083
G01 X383.650 Y52.828
G01 X385.826 Y51.588
G01 X387.977 Y50.336
G01 X390.142 Y49.100
G01 X392.314 Y47.844
G01 X394.479 Y46.589
G01 X394.952 Y46.312
G01 X396.496 Y47.419
G01 X396.446 Y47.445
G01 X394.289 Y48.695
G01 X392.125 Y49.946
G01 X389.968 Y51.176
G01 X387.810 Y52.442
G01 X385.627 Y53.696
G01 X383.471 Y54.944
G01 X381.311 Y56.195
G01 X379.145 Y57.449
G01 X376.989 Y58.685
G01 X374.815 Y59.946
G01 X374.531 Y60.088
G01 X374.237 Y62.260
G01 X374.256 Y62.272
G01 X376.393 Y61.021
G01 X378.558 Y59.766
G01 X380.739 Y58.527
G01 X382.895 Y57.278
G01 X385.061 Y56.011
G01 X387.227 Y54.780
G01 X389.381 Y53.517
G01 X391.549 Y52.268
G01 X393.710 Y51.020
G01 X395.884 Y49.787
G01 X398.031 Y48.538
G01 X399.538 Y49.654
G01 X399.029 Y49.961
G01 X396.861 Y51.216
G01 X394.686 Y52.471
G01 X392.518 Y53.706
G01 X390.363 Y54.956
G01 X388.203 Y56.206
G01 X386.036 Y57.458
G01 X383.864 Y58.712
G01 X381.701 Y59.948
G01 X379.538 Y61.220
G01 X377.366 Y62.461
G01 X375.209 Y63.720
G01 X373.914 Y64.447
G01 X373.751 Y65.451
G01 X373.547 Y66.669
G01 X374.636 Y66.047
G01 X376.788 Y64.791
G01 X378.956 Y63.551
G01 X381.133 Y62.294
G01 X383.274 Y61.047
G01 X385.442 Y59.796
G01 X387.606 Y58.546
G01 X389.782 Y57.312
G01 X391.949 Y56.045
G01 X394.094 Y54.798
G01 X396.267 Y53.546
G01 X398.432 Y52.293
G01 X400.610 Y51.054
G01 X401.056 Y50.797
G01 X402.546 Y51.935
G01 X402.445 Y51.984
G01 X400.296 Y53.234
G01 X398.119 Y54.467
G01 X395.973 Y55.730
G01 X393.801 Y56.978
G01 X391.623 Y58.226
G01 X389.473 Y59.468
G01 X387.302 Y60.732
G01 X385.140 Y61.977
G01 X382.973 Y63.224
G01 X380.801 Y64.474
G01 X378.644 Y65.739
G01 X376.479 Y66.975
G01 X374.329 Y68.227
G01 X373.117 Y68.913
G01 X372.901 Y70.007
G01 X372.642 Y71.193
G01 X373.774 Y70.545
G01 X375.934 Y69.275
G01 X378.095 Y68.041
G01 X380.267 Y66.791
G01 X382.436 Y65.544
G01 X384.600 Y64.300
G01 X386.759 Y63.058
G01 X388.927 Y61.798
G01 X391.090 Y60.538
G01 X393.247 Y59.279
G01 X395.416 Y58.035
G01 X397.579 Y56.790
G01 X399.735 Y55.545
G01 X401.918 Y54.293
G01 X404.027 Y53.085
G01 X404.086 Y53.131
G01 X405.480 Y54.230
G01 X404.845 Y54.588
G01 X402.684 Y55.844
G01 X400.530 Y57.079
G01 X398.373 Y58.346
G01 X396.189 Y59.599
G01 X394.033 Y60.845
G01 X391.870 Y62.092
G01 X389.702 Y63.339
G01 X387.546 Y64.601
G01 X385.382 Y65.831
G01 X383.216 Y67.096
G01 X381.060 Y68.343
G01 X378.883 Y69.581
G01 X376.720 Y70.834
G01 X374.554 Y72.092
G01 X372.399 Y73.333
G01 X372.136 Y73.486
G01 X371.599 Y75.608
G01 X371.554 Y75.821
G01 X373.532 Y74.673
G01 X375.709 Y73.427
G01 X377.865 Y72.173
G01 X380.036 Y70.935
G01 X382.186 Y69.687
G01 X384.364 Y68.435
G01 X386.520 Y67.172
G01 X388.689 Y65.924
G01 X390.852 Y64.676
G01 X393.010 Y63.430
G01 X395.177 Y62.164
G01 X397.341 Y60.932
G01 X399.514 Y59.680
G01 X401.679 Y58.427
G01 X403.837 Y57.172
G01 X406.006 Y55.930
G01 X406.944 Y55.401
G01 X408.031 Y56.283
G01 X408.380 Y56.568
G01 X406.584 Y57.587
G01 X404.429 Y58.833
G01 X402.251 Y60.097
G01 X400.099 Y61.354
G01 X397.922 Y62.595
G01 X395.772 Y63.830
G01 X393.600 Y65.085
G01 X391.456 Y66.334
G01 X389.272 Y67.590
G01 X387.117 Y68.840
G01 X384.956 Y70.092
G01 X382.792 Y71.346
G01 X380.637 Y72.582
G01 X378.465 Y73.842
G01 X376.303 Y75.084
G01 X374.139 Y76.331
G01 X371.973 Y77.582
G01 X370.926 Y78.189
G01 X370.562 Y79.432
G01 X370.235 Y80.579
G01 X371.358 Y79.935
G01 X373.520 Y78.687
