;  Created by Sandify
;  https://sandify.org
;  Version: 0.2.6
;
;  Machine type: Rectangular
;    Min X (mm): 0
;    Max X (mm): 500
;    Min Y (mm): 0
;    Max Y (mm): 500
;  Content type: shape
;  Layer:
;    Shape: FileImport
;    Name: hero_5loop1.thr
;    From file:: hero_5loop1.thr
;    Aspect Ratio: true
;    Comments: 
;    Visible: true
;    Initial width: 10
;    Initial height: 10
;    X offset: 0
;    Y offset: 0
;    Rotate (degrees): 0
;    Reverse path: false
;    Fine tuning:
;      Connect to next layer: line
;      Draw portion of path (%): 100
;      Backtrack at end (%): 0
;      Rotate starting point (%): 0
;  Reverse export path: false
;
; File name: 'Loop1 (E) (C NE)'
; File type: gcode
;

G01 X250.000 Y250.000
G01 X250.000 Y250.009
G01 X250.001 Y250.012
G01 X250.002 Y250.016
G01 X250.003 Y250.017
G01 X250.004 Y250.021
G01 X250.006 Y250.025
G01 X250.007 Y250.025
G01 X250.009 Y250.028
G01 X250.012 Y250.031
G01 X250.015 Y250.035
G01 X250.018 Y250.037
G01 X250.022 Y250.039
G01 X250.026 Y250.040
G01 X250.030 Y250.041
G01 X250.033 Y250.041
G01 X250.037 Y250.041
G01 X250.040 Y250.041
G01 X250.043 Y250.039
G01 X250.045 Y250.038
G01 X250.047 Y250.036
G01 X250.049 Y250.035
G01 X250.050 Y250.032
G01 X250.050 Y250.031
G01 X250.050 Y250.028
G01 X250.047 Y250.025
G01 X250.043 Y250.024
G01 X250.040 Y250.025
G01 X250.037 Y250.026
G01 X250.035 Y250.027
G01 X250.034 Y250.028
G01 X250.032 Y250.030
G01 X250.030 Y250.032
G01 X250.029 Y250.033
G01 X250.027 Y250.035
G01 X250.026 Y250.037
G01 X250.025 Y250.039
G01 X250.024 Y250.042
G01 X250.022 Y250.045
G01 X250.021 Y250.047
G01 X250.021 Y250.052
G01 X250.020 Y250.057
G01 X250.019 Y250.059
G01 X250.020 Y250.074
G01 X250.024 Y250.090
G01 X250.033 Y250.107
G01 X250.044 Y250.121
G01 X250.046 Y250.124
G01 X250.057 Y250.134
G01 X250.063 Y250.138
G01 X250.075 Y250.146
G01 X250.085 Y250.150
G01 X250.098 Y250.155
G01 X250.110 Y250.159
G01 X250.124 Y250.161
G01 X250.138 Y250.162
G01 X250.152 Y250.161
G01 X250.166 Y250.160
G01 X250.168 Y250.160
G01 X250.182 Y250.156
G01 X250.196 Y250.152
G01 X250.198 Y250.152
G01 X250.211 Y250.146
G01 X250.224 Y250.139
G01 X250.227 Y250.137
G01 X250.238 Y250.129
G01 X250.250 Y250.120
G01 X250.253 Y250.118
G01 X250.263 Y250.107
G01 X250.273 Y250.096
G01 X250.275 Y250.093
G01 X250.283 Y250.080
G01 X250.291 Y250.067
G01 X250.292 Y250.063
G01 X250.298 Y250.049
G01 X250.303 Y250.035
G01 X250.304 Y250.031
G01 X250.306 Y250.016
G01 X250.308 Y250.001
G01 X250.308 Y249.998
G01 X250.308 Y249.983
G01 X250.307 Y249.968
G01 X250.306 Y249.965
G01 X250.302 Y249.950
G01 X250.298 Y249.935
G01 X250.297 Y249.933
G01 X250.290 Y249.919
G01 X250.283 Y249.906
G01 X250.282 Y249.905
G01 X250.273 Y249.893
G01 X250.262 Y249.882
G01 X250.250 Y249.872
G01 X250.238 Y249.865
G01 X250.223 Y249.859
G01 X250.212 Y249.855
G01 X250.195 Y249.852
G01 X250.186 Y249.852
G01 X250.164 Y249.855
G01 X250.161 Y249.856
G01 X250.140 Y249.867
G01 X250.124 Y249.884
G01 X250.115 Y249.902
G01 X250.114 Y249.905
G01 X250.113 Y249.914
G01 X250.112 Y249.923
G01 X250.112 Y249.929
G01 X250.114 Y249.935
G01 X250.115 Y249.941
G01 X250.117 Y249.948
G01 X250.118 Y249.953
G01 X250.122 Y249.958
G01 X250.125 Y249.963
G01 X250.129 Y249.969
G01 X250.132 Y249.975
G01 X250.140 Y249.981
G01 X250.147 Y249.987
G01 X250.154 Y249.994
G01 X250.173 Y250.002
G01 X250.183 Y250.007
G01 X250.218 Y250.013
G01 X250.256 Y250.009
G01 X250.296 Y249.996
G01 X250.324 Y249.980
G01 X250.335 Y249.972
G01 X250.356 Y249.953
G01 X250.370 Y249.939
G01 X250.386 Y249.916
G01 X250.399 Y249.896
G01 X250.410 Y249.871
G01 X250.420 Y249.846
G01 X250.426 Y249.819
G01 X250.431 Y249.792
G01 X250.431 Y249.790
G01 X250.432 Y249.762
G01 X250.432 Y249.734
G01 X250.432 Y249.730
G01 X250.427 Y249.703
G01 X250.421 Y249.675
G01 X250.420 Y249.670
G01 X250.410 Y249.644
G01 X250.399 Y249.617
G01 X250.396 Y249.611
G01 X250.381 Y249.587
G01 X250.365 Y249.564
G01 X250.361 Y249.558
G01 X250.342 Y249.537
G01 X250.321 Y249.517
G01 X250.316 Y249.511
G01 X250.292 Y249.494
G01 X250.268 Y249.478
G01 X250.262 Y249.474
G01 X250.236 Y249.462
G01 X250.209 Y249.451
G01 X250.203 Y249.449
G01 X250.175 Y249.442
G01 X250.146 Y249.437
G01 X250.140 Y249.436
G01 X250.111 Y249.434
G01 X250.083 Y249.435
G01 X250.077 Y249.435
G01 X250.049 Y249.440
G01 X250.021 Y249.446
G01 X250.018 Y249.447
G01 X249.991 Y249.458
G01 X249.965 Y249.470
G01 X249.964 Y249.471
G01 X249.939 Y249.487
G01 X249.918 Y249.504
G01 X249.898 Y249.527
G01 X249.883 Y249.545
G01 X249.868 Y249.574
G01 X249.860 Y249.591
G01 X249.852 Y249.628
G01 X249.850 Y249.638
G01 X249.853 Y249.684
G01 X249.868 Y249.725
G01 X249.894 Y249.758
G01 X249.912 Y249.769
G01 X249.928 Y249.780
G01 X249.941 Y249.783
G01 X249.953 Y249.785
G01 X249.964 Y249.789
G01 X249.968 Y249.790
G01 X249.979 Y249.789
G01 X249.989 Y249.788
G01 X250.000 Y249.787
G01 X250.010 Y249.787
G01 X250.011 Y249.787
G01 X250.022 Y249.781
G01 X250.034 Y249.776
G01 X250.046 Y249.771
G01 X250.053 Y249.769
G01 X250.069 Y249.754
G01 X250.087 Y249.740
G01 X250.090 Y249.738
G01 X250.119 Y249.694
G01 X250.137 Y249.640
G01 X250.141 Y249.579
G01 X250.133 Y249.527
G01 X250.130 Y249.513
G01 X250.114 Y249.471
G01 X250.103 Y249.448
G01 X250.081 Y249.412
G01 X250.060 Y249.385
G01 X250.032 Y249.356
G01 X250.002 Y249.330
G01 X249.968 Y249.307
G01 X249.932 Y249.286
G01 X249.931 Y249.286
G01 X249.893 Y249.270
G01 X249.853 Y249.257
G01 X249.848 Y249.255
G01 X249.808 Y249.248
G01 X249.766 Y249.242
G01 X249.759 Y249.241
G01 X249.717 Y249.241
G01 X249.675 Y249.244
G01 X249.666 Y249.245
G01 X249.625 Y249.253
G01 X249.584 Y249.264
G01 X249.574 Y249.266
G01 X249.534 Y249.283
G01 X249.496 Y249.301
G01 X249.486 Y249.306
G01 X249.451 Y249.330
G01 X249.416 Y249.355
G01 X249.408 Y249.362
G01 X249.377 Y249.392
G01 X249.348 Y249.424
G01 X249.341 Y249.432
G01 X249.318 Y249.467
G01 X249.296 Y249.504
G01 X249.291 Y249.512
G01 X249.274 Y249.552
G01 X249.260 Y249.592
G01 X249.258 Y249.600
G01 X249.250 Y249.642
G01 X249.244 Y249.684
G01 X249.243 Y249.690
G01 X249.244 Y249.733
G01 X249.247 Y249.775
G01 X249.247 Y249.778
G01 X249.257 Y249.820
G01 X249.269 Y249.861
G01 X249.289 Y249.900
G01 X249.307 Y249.932
G01 X249.337 Y249.968
G01 X249.358 Y249.991
G01 X249.399 Y250.021
G01 X249.418 Y250.032
G01 X249.478 Y250.055
G01 X249.482 Y250.056
G01 X249.547 Y250.061
G01 X249.607 Y250.047
G01 X249.643 Y250.025
G01 X249.658 Y250.017
G01 X249.671 Y250.000
G01 X249.685 Y249.985
G01 X249.697 Y249.973
G01 X249.701 Y249.958
G01 X249.707 Y249.944
G01 X249.712 Y249.930
G01 X249.719 Y249.918
G01 X249.718 Y249.903
G01 X249.719 Y249.887
G01 X249.720 Y249.871
G01 X249.722 Y249.857
G01 X249.715 Y249.835
G01 X249.709 Y249.812
G01 X249.706 Y249.795
G01 X249.678 Y249.751
G01 X249.670 Y249.736
G01 X249.615 Y249.686
G01 X249.544 Y249.648
G01 X249.468 Y249.629
G01 X249.460 Y249.628
G01 X249.397 Y249.626
G01 X249.368 Y249.627
G01 X249.311 Y249.638
G01 X249.271 Y249.649
G01 X249.220 Y249.670
G01 X249.176 Y249.693
G01 X249.131 Y249.724
G01 X249.087 Y249.758
G01 X249.050 Y249.798
G01 X249.014 Y249.840
G01 X249.011 Y249.844
G01 X248.982 Y249.890
G01 X248.955 Y249.939
G01 X248.951 Y249.947
G01 X248.931 Y249.998
G01 X248.914 Y250.052
G01 X248.911 Y250.063
G01 X248.901 Y250.118
G01 X248.894 Y250.174
G01 X248.893 Y250.187
G01 X248.895 Y250.243
G01 X248.899 Y250.299
G01 X248.900 Y250.314
G01 X248.913 Y250.369
G01 X248.927 Y250.423
G01 X248.932 Y250.438
G01 X248.954 Y250.490
G01 X248.980 Y250.540
G01 X248.987 Y250.553
G01 X249.019 Y250.600
G01 X249.053 Y250.644
G01 X249.062 Y250.655
G01 X249.103 Y250.694
G01 X249.145 Y250.731
G01 X249.155 Y250.739
G01 X249.203 Y250.769
G01 X249.251 Y250.797
G01 X249.260 Y250.801
G01 X249.313 Y250.821
G01 X249.366 Y250.838
G01 X249.372 Y250.840
G01 X249.428 Y250.848
G01 X249.484 Y250.854
G01 X249.486 Y250.854
G01 X249.543 Y250.850
G01 X249.595 Y250.843
G01 X249.652 Y250.826
G01 X249.694 Y250.810
G01 X249.749 Y250.777
G01 X249.777 Y250.758
G01 X249.830 Y250.704
G01 X249.841 Y250.691
G01 X249.883 Y250.614
G01 X249.901 Y250.534
G01 X249.894 Y250.455
G01 X249.879 Y250.424
G01 X249.867 Y250.393
G01 X249.864 Y250.385
G01 X249.849 Y250.370
G01 X249.834 Y250.354
G01 X249.821 Y250.338
G01 X249.814 Y250.328
G01 X249.797 Y250.320
G01 X249.780 Y250.312
G01 X249.764 Y250.302
G01 X249.748 Y250.292
G01 X249.747 Y250.291
G01 X249.723 Y250.288
G01 X249.699 Y250.283
G01 X249.675 Y250.277
G01 X249.668 Y250.275
G01 X249.624 Y250.282
G01 X249.584 Y250.285
G01 X249.500 Y250.320
G01 X249.423 Y250.381
G01 X249.360 Y250.465
G01 X249.325 Y250.543
G01 X249.315 Y250.569
G01 X249.300 Y250.642
G01 X249.294 Y250.688
G01 X249.295 Y250.758
G01 X249.299 Y250.816
G01 X249.314 Y250.883
G01 X249.333 Y250.947
G01 X249.361 Y251.009
G01 X249.393 Y251.070
G01 X249.395 Y251.073
G01 X249.435 Y251.129
G01 X249.479 Y251.183
G01 X249.485 Y251.190
G01 X249.536 Y251.236
G01 X249.590 Y251.281
G01 X249.600 Y251.289
G01 X249.659 Y251.325
G01 X249.721 Y251.358
G01 X249.735 Y251.366
G01 X249.800 Y251.390
G01 X249.867 Y251.411
G01 X249.884 Y251.416
G01 X249.954 Y251.427
G01 X250.024 Y251.435
G01 X250.042 Y251.436
G01 X250.113 Y251.434
G01 X250.183 Y251.428
G01 X250.201 Y251.426
G01 X250.270 Y251.410
G01 X250.338 Y251.391
G01 X250.355 Y251.386
G01 X250.419 Y251.357
G01 X250.482 Y251.325
G01 X250.496 Y251.317
G01 X250.553 Y251.276
G01 X250.608 Y251.232
G01 X250.618 Y251.224
G01 X250.666 Y251.172
G01 X250.710 Y251.118
G01 X250.716 Y251.111
G01 X250.752 Y251.050
G01 X250.785 Y250.989
G01 X250.787 Y250.984
G01 X250.810 Y250.917
G01 X250.827 Y250.852
G01 X250.835 Y250.779
G01 X250.837 Y250.720
G01 X250.827 Y250.643
G01 X250.818 Y250.596
G01 X250.786 Y250.515
G01 X250.772 Y250.487
G01 X250.705 Y250.398
G01 X250.621 Y250.336
G01 X250.528 Y250.301
G01 X250.471 Y250.300
G01 X250.433 Y250.297
G01 X250.404 Y250.307
G01 X250.375 Y250.316
G01 X250.347 Y250.322
G01 X250.344 Y250.322
G01 X250.326 Y250.337
G01 X250.307 Y250.351
G01 X250.288 Y250.363
G01 X250.268 Y250.375
G01 X250.267 Y250.375
G01 X250.254 Y250.397
G01 X250.239 Y250.417
G01 X250.223 Y250.437
G01 X250.210 Y250.452
G01 X250.199 Y250.491
G01 X250.185 Y250.529
G01 X250.178 Y250.547
G01 X250.175 Y250.645
G01 X250.174 Y250.654
G01 X250.203 Y250.765
G01 X250.263 Y250.872
G01 X250.340 Y250.954
G01 X250.354 Y250.968
G01 X250.431 Y251.021
G01 X250.472 Y251.045
G01 X250.552 Y251.077
G01 X250.613 Y251.097
G01 X250.695 Y251.112
G01 X250.771 Y251.120
G01 X250.852 Y251.117
G01 X250.936 Y251.108
G01 X250.937 Y251.108
G01 X251.016 Y251.089
G01 X251.096 Y251.064
G01 X251.104 Y251.061
G01 X251.179 Y251.026
G01 X251.252 Y250.987
G01 X251.264 Y250.980
G01 X251.331 Y250.930
G01 X251.396 Y250.877
G01 X251.409 Y250.865
G01 X251.465 Y250.803
G01 X251.519 Y250.738
G01 X251.531 Y250.722
G01 X251.575 Y250.650
G01 X251.615 Y250.576
G01 X251.625 Y250.556
G01 X251.654 Y250.477
G01 X251.679 Y250.396
G01 X251.685 Y250.375
G01 X251.698 Y250.291
G01 X251.707 Y250.207
G01 X251.709 Y250.186
G01 X251.705 Y250.101
G01 X251.698 Y250.017
G01 X251.695 Y249.997
G01 X251.676 Y249.915
G01 X251.652 Y249.835
G01 X251.647 Y249.818
G01 X251.611 Y249.742
G01 X251.572 Y249.668
G01 X251.565 Y249.656
G01 X251.514 Y249.589
G01 X251.461 Y249.525
G01 X251.456 Y249.519
G01 X251.392 Y249.463
G01 X251.326 Y249.412
G01 X251.325 Y249.411
G01 X251.250 Y249.370
G01 X251.182 Y249.338
G01 X251.095 Y249.313
G01 X251.033 Y249.300
G01 X250.935 Y249.297
G01 X250.888 Y249.298
G01 X250.773 Y249.325
G01 X250.756 Y249.330
G01 X250.644 Y249.392
G01 X250.558 Y249.477
G01 X250.512 Y249.565
G01 X250.504 Y249.578
G01 X250.499 Y249.623
G01 X250.491 Y249.665
G01 X250.485 Y249.688
G01 X250.492 Y249.717
G01 X250.497 Y249.745
G01 X250.501 Y249.774
G01 X250.502 Y249.796
G01 X250.517 Y249.819
G01 X250.530 Y249.844
G01 X250.543 Y249.868
G01 X250.554 Y249.894
G01 X250.583 Y249.919
G01 X250.610 Y249.945
G01 X250.636 Y249.974
G01 X250.637 Y249.975
G01 X250.705 Y250.007
G01 X250.746 Y250.030
G01 X250.874 Y250.053
G01 X251.013 Y250.039
G01 X251.154 Y249.988
G01 X251.252 Y249.925
G01 X251.289 Y249.899
G01 X251.361 Y249.825
G01 X251.406 Y249.774
G01 X251.458 Y249.691
G01 X251.499 Y249.617
G01 X251.532 Y249.528
G01 X251.559 Y249.436
G01 X251.573 Y249.342
G01 X251.582 Y249.245
G01 X251.583 Y249.238
G01 X251.578 Y249.142
G01 X251.567 Y249.046
G01 X251.565 Y249.032
G01 X251.541 Y248.938
G01 X251.512 Y248.845
G01 X251.506 Y248.827
G01 X251.464 Y248.739
G01 X251.417 Y248.653
G01 X251.405 Y248.634
G01 X251.347 Y248.555
G01 X251.284 Y248.479
G01 X251.268 Y248.461
G01 X251.195 Y248.395
G01 X251.119 Y248.332
G01 X251.098 Y248.317
G01 X251.014 Y248.266
G01 X250.927 Y248.219
G01 X250.904 Y248.208
G01 X250.811 Y248.174
G01 X250.717 Y248.145
G01 X250.694 Y248.139
G01 X250.596 Y248.124
G01 X250.499 Y248.114
G01 X250.478 Y248.113
G01 X250.379 Y248.117
G01 X250.282 Y248.127
G01 X250.265 Y248.129
G01 X250.170 Y248.154
G01 X250.077 Y248.183
G01 X250.066 Y248.187
G01 X249.977 Y248.230
G01 X249.893 Y248.278
G01 X249.889 Y248.280
G01 X249.811 Y248.342
G01 X249.742 Y248.404
G01 X249.678 Y248.484
G01 X249.632 Y248.549
G01 X249.586 Y248.648
G01 X249.562 Y248.707
G01 X249.539 Y248.830
G01 X249.534 Y248.866
G01 X249.546 Y249.018
G01 X249.596 Y249.153
G01 X249.678 Y249.261
G01 X249.734 Y249.298
G01 X249.784 Y249.336
G01 X249.822 Y249.345
G01 X249.858 Y249.355
G01 X249.893 Y249.368
G01 X249.906 Y249.373
G01 X249.937 Y249.370
G01 X249.968 Y249.368
G01 X249.999 Y249.367
G01 X250.030 Y249.369
G01 X250.033 Y249.369
G01 X250.066 Y249.354
G01 X250.100 Y249.340
G01 X250.136 Y249.328
G01 X250.155 Y249.323
G01 X250.202 Y249.282
G01 X250.254 Y249.244
G01 X250.262 Y249.238
G01 X250.345 Y249.118
G01 X250.395 Y248.971
G01 X250.405 Y248.804
G01 X250.381 Y248.663
G01 X250.373 Y248.628
G01 X250.326 Y248.515
G01 X250.296 Y248.452
G01 X250.231 Y248.359
G01 X250.175 Y248.289
G01 X250.094 Y248.214
G01 X250.013 Y248.148
G01 X249.920 Y248.092
G01 X249.821 Y248.041
G01 X249.817 Y248.039
G01 X249.714 Y248.003
G01 X249.607 Y247.972
G01 X249.594 Y247.969
G01 X249.486 Y247.954
G01 X249.375 Y247.944
G01 X249.355 Y247.943
G01 X249.245 Y247.950
G01 X249.133 Y247.962
G01 X249.109 Y247.966
G01 X249.001 Y247.994
G01 X248.894 Y248.027
G01 X248.868 Y248.037
G01 X248.767 Y248.085
G01 X248.668 Y248.139
G01 X248.643 Y248.154
G01 X248.553 Y248.221
G01 X248.466 Y248.293
G01 X248.444 Y248.312
G01 X248.368 Y248.396
G01 X248.297 Y248.483
G01 X248.280 Y248.505
G01 X248.222 Y248.602
G01 X248.170 Y248.701
G01 X248.158 Y248.724
G01 X248.120 Y248.830
G01 X248.089 Y248.937
G01 X248.083 Y248.958
G01 X248.067 Y249.069
G01 X248.057 Y249.180
G01 X248.056 Y249.196
G01 X248.064 Y249.308
G01 X248.077 Y249.418
G01 X248.078 Y249.427
G01 X248.109 Y249.536
G01 X248.145 Y249.639
G01 X248.200 Y249.741
G01 X248.251 Y249.823
G01 X248.331 Y249.914
G01 X248.388 Y249.971
G01 X248.498 Y250.047
G01 X248.546 Y250.076
G01 X248.704 Y250.132
G01 X248.714 Y250.135
G01 X248.881 Y250.146
G01 X249.035 Y250.113
G01 X249.126 Y250.059
G01 X249.166 Y250.039
G01 X249.198 Y249.998
G01 X249.233 Y249.960
G01 X249.264 Y249.931
G01 X249.276 Y249.896
G01 X249.290 Y249.862
G01 X249.305 Y249.830
G01 X249.321 Y249.799
G01 X249.322 Y249.763
G01 X249.324 Y249.726
G01 X249.328 Y249.688
G01 X249.334 Y249.654
G01 X249.318 Y249.602
G01 X249.306 Y249.548
G01 X249.299 Y249.507
G01 X249.236 Y249.404
G01 X249.217 Y249.369
G01 X249.092 Y249.253
G01 X248.930 Y249.168
G01 X248.755 Y249.127
G01 X248.738 Y249.124
G01 X248.594 Y249.123
G01 X248.528 Y249.127
G01 X248.400 Y249.154
G01 X248.311 Y249.180
G01 X248.197 Y249.231
G01 X248.099 Y249.284
G01 X248.000 Y249.357
G01 X247.904 Y249.438
G01 X247.822 Y249.529
G01 X247.745 Y249.627
G01 X247.738 Y249.636
G01 X247.676 Y249.743
G01 X247.619 Y249.854
G01 X247.611 Y249.872
G01 X247.570 Y249.989
G01 X247.536 Y250.110
G01 X247.530 Y250.135
G01 X247.513 Y250.259
G01 X247.503 Y250.385
G01 X247.501 Y250.415
G01 X247.509 Y250.540
G01 X247.523 Y250.666
G01 X247.527 Y250.698
G01 X247.559 Y250.820
G01 X247.597 Y250.941
G01 X247.608 Y250.972
G01 X247.663 Y251.086
G01 X247.723 Y251.198
G01 X247.740 Y251.226
G01 X247.816 Y251.327
G01 X247.896 Y251.424
G01 X247.916 Y251.447
G01 X248.011 Y251.531
G01 X248.108 Y251.610
G01 X248.130 Y251.626
G01 X248.238 Y251.690
G01 X248.349 Y251.748
G01 X248.368 Y251.757
G01 X248.488 Y251.798
G01 X248.607 Y251.831
G01 X248.621 Y251.835
G01 X248.746 Y251.850
G01 X248.870 Y251.858
G01 X248.874 Y251.858
G01 X249.002 Y251.846
G01 X249.115 Y251.828
G01 X249.241 Y251.786
G01 X249.333 Y251.750
G01 X249.454 Y251.674
G01 X249.516 Y251.631
G01 X249.631 Y251.509
G01 X249.655 Y251.480
G01 X249.746 Y251.311
G01 X249.785 Y251.134
G01 X249.771 Y250.963
G01 X249.740 Y250.896
G01 X249.714 Y250.829
G01 X249.709 Y250.811
G01 X249.676 Y250.778
G01 X249.646 Y250.745
G01 X249.619 Y250.710
G01 X249.603 Y250.689
G01 X249.568 Y250.672
G01 X249.533 Y250.653
G01 X249.500 Y250.632
G01 X249.467 Y250.609
G01 X249.464 Y250.607
G01 X249.415 Y250.600
G01 X249.365 Y250.590
G01 X249.315 Y250.577
G01 X249.301 Y250.573
G01 X249.209 Y250.586
G01 X249.128 Y250.591
G01 X248.957 Y250.662
G01 X248.802 Y250.786
G01 X248.676 Y250.956
G01 X248.608 Y251.113
G01 X248.588 Y251.167
G01 X248.560 Y251.314
G01 X248.549 Y251.406
G01 X248.553 Y251.547
G01 X248.564 Y251.663
G01 X248.597 Y251.796
G01 X248.638 Y251.924
G01 X248.697 Y252.046
G01 X248.765 Y252.168
G01 X248.769 Y252.175
G01 X248.852 Y252.283
G01 X248.942 Y252.389
G01 X248.955 Y252.402
G01 X249.058 Y252.493
G01 X249.168 Y252.579
G01 X249.189 Y252.594
G01 X249.309 Y252.663
G01 X249.434 Y252.727
G01 X249.462 Y252.740
G01 X249.594 Y252.785
G01 X249.729 Y252.824
G01 X249.763 Y252.832
G01 X249.902 Y252.851
G01 X250.042 Y252.862
G01 X250.079 Y252.864
G01 X250.219 Y252.856
G01 X250.359 Y252.840
G01 X250.395 Y252.835
G01 X250.531 Y252.800
G01 X250.665 Y252.758
G01 X250.698 Y252.746
G01 X250.825 Y252.685
G01 X250.947 Y252.618
G01 X250.974 Y252.602
G01 X251.086 Y252.517
G01 X251.192 Y252.428
G01 X251.212 Y252.410
G01 X251.304 Y252.305
G01 X251.389 Y252.197
G01 X251.401 Y252.181
G01 X251.470 Y252.059
G01 X251.531 Y251.936
G01 X251.534 Y251.928
G01 X251.577 Y251.793
G01 X251.609 Y251.663
G01 X251.621 Y251.519
G01 X251.623 Y251.401
G01 X251.601 Y251.250
G01 X251.581 Y251.157
G01 X251.515 Y250.998
G01 X251.488 Y250.943
G01 X251.353 Y250.771
G01 X251.188 Y250.648
G01 X251.006 Y250.581
G01 X250.898 Y250.579
G01 X250.822 Y250.572
G01 X250.766 Y250.592
G01 X250.711 Y250.607
G01 X250.657 Y250.618
G01 X250.649 Y250.620
G01 X250.614 Y250.647
G01 X250.578 Y250.673
G01 X250.542 Y250.697
G01 X250.504 Y250.718
G01 X250.502 Y250.720
G01 X250.476 Y250.760
G01 X250.447 Y250.799
G01 X250.416 Y250.837
G01 X250.392 Y250.864
G01 X250.371 Y250.937
G01 X250.344 Y251.011
G01 X250.331 Y251.042
G01 X250.325 Y251.231
G01 X250.324 Y251.240
G01 X250.378 Y251.446
G01 X250.490 Y251.644
G01 X250.632 Y251.793
G01 X250.660 Y251.820
G01 X250.803 Y251.914
G01 X250.880 Y251.959
G01 X251.028 Y252.016
G01 X251.142 Y252.051
G01 X251.292 Y252.074
G01 X251.432 Y252.087
G01 X251.582 Y252.078
G01 X251.734 Y252.060
G01 X251.737 Y252.060
G01 X251.882 Y252.021
G01 X252.027 Y251.973
G01 X252.042 Y251.967
G01 X252.177 Y251.900
G01 X252.310 Y251.825
G01 X252.333 Y251.811
G01 X252.452 Y251.718
G01 X252.569 Y251.618
G01 X252.593 Y251.596
G01 X252.693 Y251.480
G01 X252.788 Y251.359
G01 X252.810 Y251.329
G01 X252.887 Y251.195
G01 X252.957 Y251.058
G01 X252.974 Y251.022
G01 X253.024 Y250.875
G01 X253.066 Y250.727
G01 X253.076 Y250.687
G01 X253.097 Y250.534
G01 X253.110 Y250.380
G01 X253.112 Y250.341
G01 X253.102 Y250.187
G01 X253.085 Y250.034
G01 X253.080 Y249.998
G01 X253.040 Y249.848
G01 X252.994 Y249.703
G01 X252.983 Y249.673
G01 X252.915 Y249.535
G01 X252.841 Y249.403
G01 X252.828 Y249.382
G01 X252.734 Y249.260
G01 X252.634 Y249.146
G01 X252.624 Y249.136
G01 X252.506 Y249.036
G01 X252.384 Y248.946
G01 X252.383 Y248.945
G01 X252.244 Y248.872
G01 X252.119 Y248.816
G01 X251.961 Y248.774
G01 X251.848 Y248.752
G01 X251.670 Y248.749
G01 X251.586 Y248.753
G01 X251.374 Y248.805
G01 X251.347 Y248.814
G01 X251.145 Y248.927
G01 X250.992 Y249.081
G01 X250.913 Y249.234
G01 X250.896 Y249.264
G01 X250.887 Y249.341
G01 X250.873 Y249.416
G01 X250.862 Y249.459
G01 X250.873 Y249.510
G01 X250.882 Y249.560
G01 X250.888 Y249.611
G01 X250.891 Y249.652
G01 X250.917 Y249.693
G01 X250.940 Y249.735
G01 X250.962 Y249.780
G01 X250.982 Y249.825
G01 X251.033 Y249.869
G01 X251.081 Y249.916
G01 X251.127 Y249.967
G01 X251.250 Y250.024
G01 X251.317 Y250.061
G01 X251.540 Y250.100
G01 X251.781 Y250.075
G01 X252.019 Y249.986
G01 X252.024 Y249.984
G01 X252.189 Y249.875
G01 X252.253 Y249.827
G01 X252.375 Y249.700
G01 X252.452 Y249.608
G01 X252.539 Y249.465
G01 X252.607 Y249.337
G01 X252.661 Y249.182
G01 X252.706 Y249.023
G01 X252.727 Y248.862
G01 X252.739 Y248.695
G01 X252.739 Y248.682
G01 X252.728 Y248.519
G01 X252.706 Y248.353
G01 X252.703 Y248.329
G01 X252.659 Y248.170
G01 X252.605 Y248.011
G01 X252.594 Y247.980
G01 X252.519 Y247.831
G01 X252.436 Y247.686
G01 X252.415 Y247.652
G01 X252.313 Y247.520
G01 X252.203 Y247.393
G01 X252.174 Y247.361
G01 X252.047 Y247.251
G01 X251.914 Y247.147
G01 X251.879 Y247.120
G01 X251.732 Y247.036
G01 X251.582 Y246.960
G01 X251.543 Y246.941
G01 X251.383 Y246.887
G01 X251.221 Y246.841
G01 X251.182 Y246.831
G01 X251.014 Y246.809
G01 X250.848 Y246.796
G01 X250.811 Y246.794
G01 X250.644 Y246.805
G01 X250.479 Y246.825
G01 X250.449 Y246.830
G01 X250.287 Y246.874
G01 X250.131 Y246.927
G01 X250.112 Y246.934
G01 X249.962 Y247.011
G01 X249.820 Y247.095
G01 X249.814 Y247.099
G01 X249.683 Y247.207
G01 X249.568 Y247.314
G01 X249.461 Y247.452
G01 X249.385 Y247.564
G01 X249.308 Y247.734
G01 X249.270 Y247.833
G01 X249.233 Y248.046
G01 X249.226 Y248.105
G01 X249.250 Y248.363
G01 X249.337 Y248.589
G01 X249.476 Y248.771
G01 X249.567 Y248.829
G01 X249.652 Y248.893
G01 X249.655 Y248.896
G01 X249.718 Y248.910
G01 X249.777 Y248.927
G01 X249.835 Y248.947
G01 X249.859 Y248.957
G01 X249.911 Y248.951
G01 X249.962 Y248.948
G01 X250.014 Y248.947
G01 X250.066 Y248.948
G01 X250.071 Y248.949
G01 X250.126 Y248.923
G01 X250.184 Y248.900
G01 X250.244 Y248.880
G01 X250.274 Y248.872
G01 X250.354 Y248.802
G01 X250.442 Y248.736
G01 X250.450 Y248.731
G01 X250.584 Y248.533
G01 X250.664 Y248.290
G01 X250.678 Y248.016
G01 X250.636 Y247.790
G01 X250.621 Y247.728
G01 X250.543 Y247.547
G01 X250.491 Y247.444
G01 X250.383 Y247.295
G01 X250.289 Y247.181
G01 X250.156 Y247.061
G01 X250.021 Y246.956
G01 X249.868 Y246.867
G01 X249.706 Y246.786
G01 X249.699 Y246.783
G01 X249.531 Y246.727
G01 X249.356 Y246.680
G01 X249.334 Y246.675
G01 X249.157 Y246.654
G01 X248.977 Y246.642
G01 X248.944 Y246.641
G01 X248.765 Y246.655
G01 X248.585 Y246.679
G01 X248.545 Y246.685
G01 X248.371 Y246.734
G01 X248.198 Y246.792
G01 X248.156 Y246.808
G01 X247.993 Y246.890
G01 X247.835 Y246.980
G01 X247.794 Y247.005
G01 X247.650 Y247.117
G01 X247.512 Y247.236
G01 X247.477 Y247.268
G01 X247.357 Y247.406
G01 X247.244 Y247.549
G01 X247.217 Y247.586
G01 X247.126 Y247.745
G01 X247.044 Y247.906
G01 X247.026 Y247.944
G01 X246.969 Y248.117
G01 X246.921 Y248.291
G01 X246.912 Y248.325
G01 X246.890 Y248.506
G01 X246.878 Y248.684
G01 X246.877 Y248.711
G01 X246.892 Y248.892
G01 X246.917 Y249.069
G01 X246.919 Y249.083
G01 X246.972 Y249.258
G01 X247.033 Y249.424
G01 X247.124 Y249.587
G01 X247.209 Y249.717
G01 X247.341 Y249.862
G01 X247.433 Y249.951
G01 X247.614 Y250.072
G01 X247.690 Y250.116
G01 X247.953 Y250.204
G01 X247.962 Y250.207
G01 X248.231 Y250.222
G01 X248.477 Y250.165
G01 X248.614 Y250.082
G01 X248.685 Y250.044
G01 X248.735 Y249.981
G01 X248.788 Y249.922
G01 X248.839 Y249.872
G01 X248.858 Y249.817
G01 X248.880 Y249.763
G01 X248.903 Y249.711
G01 X248.929 Y249.661
G01 X248.929 Y249.603
G01 X248.932 Y249.543
G01 X248.939 Y249.483
G01 X248.947 Y249.431
G01 X248.921 Y249.346
G01 X248.900 Y249.257
G01 X248.890 Y249.199
G01 X248.783 Y249.027
G01 X248.759 Y248.983
G01 X248.560 Y248.803
G01 X248.303 Y248.674
G01 X248.036 Y248.614
G01 X248.002 Y248.609
G01 X247.780 Y248.610
G01 X247.673 Y248.618
G01 X247.476 Y248.664
G01 X247.335 Y248.706
G01 X247.160 Y248.789
G01 X247.006 Y248.875
G01 X246.855 Y248.991
G01 X246.707 Y249.119
G01 X246.706 Y249.120
G01 X246.582 Y249.265
G01 X246.464 Y249.419
G01 X246.453 Y249.435
G01 X246.360 Y249.602
G01 X246.274 Y249.777
G01 X246.261 Y249.806
G01 X246.202 Y249.989
G01 X246.152 Y250.178
G01 X246.143 Y250.218
G01 X246.121 Y250.411
G01 X246.108 Y250.606
G01 X246.107 Y250.653
G01 X246.122 Y250.848
G01 X246.148 Y251.043
G01 X246.156 Y251.093
G01 X246.209 Y251.282
G01 X246.271 Y251.468
G01 X246.289 Y251.516
G01 X246.378 Y251.692
G01 X246.475 Y251.863
G01 X246.501 Y251.906
G01 X246.622 Y252.061
G01 X246.750 Y252.209
G01 X246.782 Y252.244
G01 X246.930 Y252.372
G01 X247.084 Y252.491
G01 X247.117 Y252.515
G01 X247.288 Y252.612
G01 X247.461 Y252.697
G01 X247.491 Y252.711
G01 X247.677 Y252.771
G01 X247.863 Y252.819
G01 X247.883 Y252.824
G01 X248.079 Y252.844
G01 X248.271 Y252.852
G01 X248.276 Y252.852
G01 X248.473 Y252.830
G01 X248.647 Y252.799
G01 X248.842 Y252.731
G01 X248.981 Y252.672
G01 X249.168 Y252.551
G01 X249.259 Y252.484
G01 X249.438 Y252.288
G01 X249.471 Y252.248
G01 X249.606 Y251.985
G01 X249.661 Y251.712
G01 X249.636 Y251.456
G01 X249.636 Y251.450
G01 X249.589 Y251.354
G01 X249.550 Y251.256
G01 X249.537 Y251.218
G01 X249.488 Y251.171
G01 X249.443 Y251.122
G01 X249.401 Y251.071
G01 X249.374 Y251.034
G01 X249.319 Y251.009
G01 X249.266 Y250.980
G01 X249.214 Y250.949
G01 X249.163 Y250.915
G01 X249.159 Y250.912
G01 X249.082 Y250.903
G01 X249.004 Y250.888
G01 X248.925 Y250.868
G01 X248.911 Y250.864
G01 X248.763 Y250.886
G01 X248.648 Y250.894
G01 X248.391 Y251.007
G01 X248.159 Y251.198
G01 X247.972 Y251.459
G01 X247.875 Y251.693
G01 X247.845 Y251.779
G01 X247.807 Y251.999
G01 X247.792 Y252.142
G01 X247.802 Y252.352
G01 X247.822 Y252.529
G01 X247.875 Y252.727
G01 X247.940 Y252.919
G01 X248.032 Y253.102
G01 X248.137 Y253.282
G01 X248.145 Y253.293
G01 X248.272 Y253.454
G01 X248.410 Y253.609
G01 X248.430 Y253.630
G01 X248.588 Y253.763
G01 X248.755 Y253.889
G01 X248.788 Y253.912
G01 X248.969 Y254.013
G01 X249.158 Y254.104
G01 X249.202 Y254.124
G01 X249.401 Y254.187
G01 X249.605 Y254.241
G01 X249.656 Y254.253
G01 X249.865 Y254.276
G01 X250.075 Y254.290
G01 X250.130 Y254.292
G01 X250.340 Y254.275
G01 X250.549 Y254.248
G01 X250.603 Y254.239
G01 X250.806 Y254.182
G01 X251.005 Y254.115
G01 X251.054 Y254.097
G01 X251.241 Y254.002
G01 X251.422 Y253.898
G01 X251.462 Y253.874
G01 X251.627 Y253.744
G01 X251.783 Y253.607
G01 X251.811 Y253.580
G01 X251.947 Y253.420
G01 X252.071 Y253.256
G01 X252.087 Y253.233
G01 X252.187 Y253.049
G01 X252.274 Y252.862
G01 X252.279 Y252.851
G01 X252.338 Y252.648
G01 X252.382 Y252.455
G01 X252.396 Y252.238
G01 X252.396 Y252.065
G01 X252.358 Y251.838
G01 X252.326 Y251.703
G01 X252.220 Y251.464
G01 X252.181 Y251.388
G01 X251.976 Y251.136
G01 X251.728 Y250.959
G01 X251.457 Y250.864
G01 X251.307 Y250.865
G01 X251.184 Y250.856
G01 X251.105 Y250.885
G01 X251.027 Y250.909
G01 X250.950 Y250.927
G01 X250.929 Y250.931
G01 X250.880 Y250.972
G01 X250.828 Y251.011
G01 X250.775 Y251.046
G01 X250.720 Y251.079
G01 X250.715 Y251.082
G01 X250.677 Y251.144
G01 X250.635 Y251.203
G01 X250.588 Y251.262
G01 X250.557 Y251.298
G01 X250.526 Y251.413
G01 X250.485 Y251.528
G01 X250.471 Y251.561
G01 X250.468 Y251.854
G01 X250.551 Y252.155
G01 X250.722 Y252.443
G01 X250.928 Y252.651
G01 X250.976 Y252.695
G01 X251.184 Y252.828
G01 X251.303 Y252.894
G01 X251.517 Y252.971
G01 X251.688 Y253.021
G01 X251.906 Y253.050
G01 X252.113 Y253.065
G01 X252.330 Y253.048
G01 X252.551 Y253.018
G01 X252.558 Y253.016
G01 X252.767 Y252.956
G01 X252.977 Y252.882
G01 X253.001 Y252.873
G01 X253.195 Y252.772
G01 X253.387 Y252.658
G01 X253.420 Y252.637
G01 X253.591 Y252.498
G01 X253.758 Y252.349
G01 X253.793 Y252.316
G01 X253.935 Y252.145
G01 X254.070 Y251.966
G01 X254.102 Y251.921
G01 X254.209 Y251.725
G01 X254.307 Y251.523
G01 X254.331 Y251.470
G01 X254.399 Y251.256
G01 X254.456 Y251.039
G01 X254.469 Y250.981
G01 X254.495 Y250.758
G01 X254.509 Y250.534
G01 X254.511 Y250.477
G01 X254.493 Y250.253
G01 X254.463 Y250.032
G01 X254.455 Y249.981
G01 X254.393 Y249.765
G01 X254.321 Y249.555
G01 X254.305 Y249.513
G01 X254.203 Y249.315
G01 X254.091 Y249.125
G01 X254.072 Y249.096
G01 X253.931 Y248.922
G01 X253.784 Y248.760
G01 X253.770 Y248.746
G01 X253.595 Y248.605
G01 X253.416 Y248.478
G01 X253.211 Y248.375
G01 X253.031 Y248.299
G01 X252.799 Y248.244
G01 X252.639 Y248.216
G01 X252.376 Y248.217
G01 X252.260 Y248.225
G01 X251.947 Y248.310
G01 X251.918 Y248.320
G01 X251.631 Y248.489
G01 X251.416 Y248.716
G01 X251.320 Y248.916
G01 X251.284 Y248.981
G01 X251.275 Y249.086
G01 X251.258 Y249.188
G01 X251.242 Y249.262
G01 X251.260 Y249.333
G01 X251.274 Y249.404
G01 X251.284 Y249.474
G01 X251.290 Y249.538
G01 X251.329 Y249.597
G01 X251.364 Y249.658
G01 X251.397 Y249.722
G01 X251.426 Y249.785
G01 X251.504 Y249.848
G01 X251.579 Y249.918
G01 X251.638 Y249.982
G01 X251.835 Y250.070
G01 X251.914 Y250.112
G01 X252.234 Y250.160
G01 X252.578 Y250.117
G01 X252.901 Y249.989
G01 X252.923 Y249.979
G01 X253.150 Y249.823
G01 X253.245 Y249.748
G01 X253.413 Y249.566
G01 X253.523 Y249.431
G01 X253.642 Y249.226
G01 X253.735 Y249.039
G01 X253.808 Y248.818
G01 X253.867 Y248.590
G01 X253.892 Y248.360
G01 X253.905 Y248.124
G01 X253.905 Y248.103
G01 X253.884 Y247.872
G01 X253.849 Y247.638
G01 X253.842 Y247.602
G01 X253.775 Y247.378
G01 X253.696 Y247.155
G01 X253.678 Y247.110
G01 X253.567 Y246.902
G01 X253.445 Y246.698
G01 X253.415 Y246.650
G01 X253.266 Y246.466
G01 X253.106 Y246.289
G01 X253.064 Y246.245
G01 X252.881 Y246.092
G01 X252.690 Y245.949
G01 X252.639 Y245.913
G01 X252.430 Y245.798
G01 X252.215 Y245.694
G01 X252.159 Y245.669
G01 X251.931 Y245.597
G01 X251.702 Y245.537
G01 X251.646 Y245.524
G01 X251.409 Y245.498
G01 X251.173 Y245.484
G01 X251.122 Y245.483
G01 X250.885 Y245.504
G01 X250.653 Y245.537
G01 X250.612 Y245.544
G01 X250.385 Y245.612
G01 X250.166 Y245.691
G01 X250.140 Y245.701
G01 X249.931 Y245.815
G01 X249.733 Y245.938
G01 X249.726 Y245.943
G01 X249.544 Y246.100
G01 X249.388 Y246.252
G01 X249.240 Y246.452
G01 X249.138 Y246.609
G01 X249.034 Y246.855
G01 X248.986 Y246.991
G01 X248.940 Y247.300
G01 X248.933 Y247.374
G01 X248.975 Y247.733
G01 X249.104 Y248.048
G01 X249.306 Y248.297
G01 X249.427 Y248.368
G01 X249.539 Y248.448
G01 X249.561 Y248.465
G01 X249.645 Y248.481
G01 X249.727 Y248.502
G01 X249.806 Y248.527
G01 X249.849 Y248.543
G01 X249.920 Y248.533
G01 X249.993 Y248.526
G01 X250.065 Y248.523
G01 X250.138 Y248.524
G01 X250.145 Y248.524
G01 X250.225 Y248.484
G01 X250.309 Y248.449
G01 X250.396 Y248.418
G01 X250.426 Y248.409
G01 X250.546 Y248.299
G01 X250.668 Y248.204
G01 X250.849 Y247.923
G01 X250.952 Y247.580
G01 X250.963 Y247.197
G01 X250.899 Y246.892
G01 X250.874 Y246.796
G01 X250.761 Y246.550
G01 X250.683 Y246.404
G01 X250.529 Y246.201
G01 X250.393 Y246.043
G01 X250.205 Y245.882
G01 X250.013 Y245.737
G01 X249.799 Y245.620
G01 X249.572 Y245.513
G01 X249.559 Y245.507
G01 X249.325 Y245.435
G01 X249.082 Y245.375
G01 X249.049 Y245.369
G01 X248.804 Y245.344
G01 X248.553 Y245.333
G01 X248.506 Y245.333
G01 X248.259 Y245.358
G01 X248.010 Y245.396
G01 X247.954 Y245.406
G01 X247.714 Y245.479
G01 X247.477 Y245.564
G01 X247.418 Y245.587
G01 X247.196 Y245.706
G01 X246.979 Y245.835
G01 X246.924 Y245.871
G01 X246.728 Y246.030
G01 X246.540 Y246.199
G01 X246.493 Y246.245
G01 X246.331 Y246.439
G01 X246.180 Y246.641
G01 X246.144 Y246.692
G01 X246.023 Y246.914
G01 X245.915 Y247.140
G01 X245.892 Y247.192
G01 X245.817 Y247.433
G01 X245.756 Y247.674
G01 X245.746 Y247.721
G01 X245.721 Y247.971
G01 X245.710 Y248.218
G01 X245.709 Y248.253
G01 X245.735 Y248.503
G01 X245.776 Y248.746
G01 X245.779 Y248.763
G01 X245.858 Y249.004
G01 X245.947 Y249.228
G01 X246.079 Y249.451
G01 X246.198 Y249.625
G01 X246.387 Y249.822
G01 X246.513 Y249.939
G01 X246.773 Y250.102
G01 X246.871 Y250.155
G01 X247.247 Y250.269
G01 X247.615 Y250.280
G01 X247.950 Y250.193
G01 X248.113 Y250.084
G01 X248.229 Y250.019
G01 X248.291 Y249.935
G01 X248.356 Y249.856
G01 X248.425 Y249.784
G01 X248.433 Y249.776
G01 X248.456 Y249.702
G01 X248.482 Y249.629
G01 X248.512 Y249.557
G01 X248.545 Y249.488
G01 X248.547 Y249.484
G01 X248.545 Y249.401
G01 X248.547 Y249.317
G01 X248.554 Y249.232
G01 X248.562 Y249.167
G01 X248.520 Y249.043
G01 X248.486 Y248.912
G01 X248.474 Y248.851
G01 X248.299 Y248.583
G01 X248.286 Y248.561
G01 X248.006 Y248.321
G01 X247.649 Y248.153
G01 X247.297 Y248.084
G01 X247.234 Y248.075
G01 X246.937 Y248.084
G01 X246.783 Y248.098
G01 X246.519 Y248.166
G01 X246.323 Y248.230
G01 X246.089 Y248.349
G01 X245.880 Y248.472
G01 X245.678 Y248.634
G01 X245.483 Y248.813
G01 X245.479 Y248.817
G01 X245.314 Y249.017
G01 X245.159 Y249.230
G01 X245.143 Y249.253
G01 X245.022 Y249.483
G01 X244.911 Y249.723
G01 X244.894 Y249.765
G01 X244.819 Y250.016
G01 X244.757 Y250.273
G01 X244.746 Y250.329
G01 X244.722 Y250.592
G01 X244.711 Y250.857
G01 X244.710 Y250.922
G01 X244.737 Y251.186
G01 X244.778 Y251.449
G01 X244.790 Y251.517
G01 X244.868 Y251.772
G01 X244.959 Y252.023
G01 X244.984 Y252.088
G01 X245.110 Y252.323
G01 X245.247 Y252.551
G01 X245.284 Y252.608
G01 X245.453 Y252.815
G01 X245.630 Y253.011
G01 X245.674 Y253.057
G01 X245.880 Y253.226
G01 X246.091 Y253.382
G01 X246.136 Y253.413
G01 X246.370 Y253.538
G01 X246.608 Y253.648
G01 X246.647 Y253.665
G01 X246.901 Y253.740
G01 X247.155 Y253.799
G01 X247.180 Y253.804
G01 X247.445 Y253.825
G01 X247.706 Y253.829
G01 X247.709 Y253.829
G01 X247.977 Y253.792
G01 X248.207 Y253.745
G01 X248.470 Y253.645
G01 X248.651 Y253.563
G01 X248.904 Y253.389
G01 X249.018 Y253.299
G01 X249.261 Y253.016
G01 X249.292 Y252.976
G01 X249.463 Y252.617
G01 X249.525 Y252.249
G01 X249.485 Y251.958
G01 X249.481 Y251.899
G01 X249.417 Y251.782
G01 X249.364 Y251.664
G01 X249.337 Y251.593
G01 X249.272 Y251.534
G01 X249.210 Y251.472
G01 X249.153 Y251.408
G01 X249.109 Y251.353
G01 X249.034 Y251.321
G01 X248.960 Y251.285
G01 X248.887 Y251.245
G01 X248.816 Y251.200
G01 X248.815 Y251.199
G01 X248.703 Y251.189
G01 X248.590 Y251.171
G01 X248.478 Y251.145
G01 X248.253 Y251.185
G01 X248.125 Y251.198
G01 X247.783 Y251.361
G01 X247.478 Y251.628
G01 X247.240 Y251.980
G01 X247.235 Y251.987
G01 X247.117 Y252.295
G01 X247.076 Y252.423
G01 X247.034 Y252.714
G01 X247.018 Y252.913
G01 X247.039 Y253.191
G01 X247.073 Y253.432
G01 X247.150 Y253.694
G01 X247.244 Y253.952
G01 X247.373 Y254.192
G01 X247.518 Y254.428
G01 X247.531 Y254.447
G01 X247.706 Y254.657
G01 X247.895 Y254.859
G01 X247.925 Y254.889
G01 X248.139 Y255.061
G01 X248.366 Y255.223
G01 X248.412 Y255.254
G01 X248.658 Y255.382
G01 X248.912 Y255.498
G01 X248.972 Y255.523
G01 X249.240 Y255.601
G01 X249.513 Y255.666
G01 X249.583 Y255.680
G01 X249.862 Y255.705
G01 X250.142 Y255.717
G01 X250.216 Y255.717
G01 X250.495 Y255.688
G01 X250.772 Y255.645
G01 X250.843 Y255.632
G01 X251.112 Y255.549
G01 X251.374 Y255.454
G01 X251.438 Y255.428
G01 X251.685 Y255.295
G01 X251.922 Y255.151
G01 X251.973 Y255.118
G01 X252.188 Y254.939
G01 X252.391 Y254.752
G01 X252.426 Y254.717
G01 X252.601 Y254.499
G01 X252.761 Y254.276
G01 X252.780 Y254.248
G01 X252.906 Y253.998
G01 X253.016 Y253.747
G01 X253.020 Y253.735
G01 X253.092 Y253.462
G01 X253.142 Y253.208
G01 X253.153 Y252.917
G01 X253.147 Y252.693
G01 X253.086 Y252.389
G01 X253.040 Y252.218
G01 X252.885 Y251.895
G01 X252.837 Y251.809
G01 X252.557 Y251.486
G01 X252.223 Y251.263
G01 X251.861 Y251.152
G01 X251.684 Y251.161
G01 X251.512 Y251.155
G01 X251.500 Y251.155
G01 X251.405 Y251.195
G01 X251.308 Y251.229
G01 X251.212 Y251.256
G01 X251.169 Y251.267
G01 X251.106 Y251.323
G01 X251.040 Y251.376
G01 X250.972 Y251.426
G01 X250.901 Y251.473
G01 X250.893 Y251.478
G01 X250.843 Y251.565
G01 X250.788 Y251.650
G01 X250.725 Y251.734
G01 X250.695 Y251.771
G01 X250.654 Y251.943
G01 X250.598 Y252.114
G01 X250.594 Y252.125
G01 X250.603 Y252.514
G01 X250.727 Y252.911
G01 X250.967 Y253.285
G01 X251.234 Y253.542
G01 X251.314 Y253.610
G01 X251.587 Y253.774
G01 X251.754 Y253.860
G01 X252.037 Y253.954
G01 X252.269 Y254.015
G01 X252.556 Y254.045
G01 X252.833 Y254.057
G01 X253.118 Y254.028
G01 X253.406 Y253.980
G01 X253.419 Y253.977
G01 X253.692 Y253.891
G01 X253.965 Y253.787
G01 X253.999 Y253.773
G01 X254.251 Y253.633
G01 X254.498 Y253.477
G01 X254.542 Y253.447
G01 X254.763 Y253.259
G01 X254.976 Y253.058
G01 X255.023 Y253.012
G01 X255.204 Y252.783
G01 X255.375 Y252.543
G01 X255.415 Y252.482
G01 X255.550 Y252.221
G01 X255.671 Y251.953
G01 X255.701 Y251.882
G01 X255.783 Y251.599
G01 X255.850 Y251.313
G01 X255.866 Y251.237
G01 X255.892 Y250.943
G01 X255.903 Y250.650
G01 X255.903 Y250.576
G01 X255.871 Y250.283
G01 X255.825 Y249.994
G01 X255.813 Y249.928
G01 X255.724 Y249.648
G01 X255.623 Y249.376
G01 X255.601 Y249.323
G01 X255.459 Y249.066
G01 X255.306 Y248.822
G01 X255.282 Y248.787
G01 X255.091 Y248.564
G01 X254.892 Y248.358
G01 X254.876 Y248.342
G01 X254.641 Y248.163
G01 X254.405 Y248.006
G01 X254.132 Y247.879
G01 X253.899 Y247.789
G01 X253.589 Y247.725
G01 X253.386 Y247.696
G01 X253.034 Y247.710
G01 X252.896 Y247.723
G01 X252.465 Y247.859
G01 X252.457 Y247.861
G01 X252.093 Y248.094
G01 X251.826 Y248.398
G01 X251.730 Y248.626
G01 X251.668 Y248.749
G01 X251.663 Y248.876
G01 X251.650 Y248.999
G01 X251.629 Y249.117
G01 X251.655 Y249.205
G01 X251.677 Y249.293
G01 X251.695 Y249.382
G01 X251.707 Y249.471
G01 X251.708 Y249.473
G01 X251.762 Y249.549
G01 X251.814 Y249.630
G01 X251.862 Y249.714
G01 X251.898 Y249.787
G01 X252.013 Y249.874
G01 X252.124 Y249.971
G01 X252.187 Y250.033
G01 X252.495 Y250.161
G01 X252.554 Y250.189
G01 X252.977 Y250.236
G01 X253.425 Y250.164
G01 X253.816 Y249.996
G01 X253.871 Y249.969
G01 X254.151 Y249.763
G01 X254.283 Y249.653
G01 X254.491 Y249.413
G01 X254.633 Y249.227
G01 X254.778 Y248.959
G01 X254.895 Y248.707
G01 X254.981 Y248.420
G01 X255.049 Y248.120
G01 X255.050 Y248.117
G01 X255.074 Y247.818
G01 X255.082 Y247.513
G01 X255.081 Y247.482
G01 X255.045 Y247.183
G01 X254.992 Y246.882
G01 X254.982 Y246.832
G01 X254.887 Y246.545
G01 X254.776 Y246.259
G01 X254.750 Y246.199
G01 X254.600 Y245.934
G01 X254.435 Y245.674
G01 X254.393 Y245.612
G01 X254.193 Y245.379
G01 X253.981 Y245.156
G01 X253.924 Y245.100
G01 X253.682 Y244.909
G01 X253.431 Y244.730
G01 X253.363 Y244.685
G01 X253.088 Y244.545
G01 X252.807 Y244.418
G01 X252.734 Y244.388
G01 X252.437 Y244.303
G01 X252.139 Y244.233
G01 X252.067 Y244.219
G01 X251.759 Y244.194
G01 X251.455 Y244.185
G01 X251.391 Y244.185
G01 X251.085 Y244.220
G01 X250.787 Y244.272
G01 X250.737 Y244.282
G01 X250.446 Y244.379
G01 X250.166 Y244.489
G01 X250.137 Y244.502
G01 X249.870 Y244.657
G01 X249.620 Y244.824
G01 X249.615 Y244.828
G01 X249.385 Y245.039
G01 X249.194 Y245.238
G01 X249.010 Y245.504
G01 X248.890 Y245.705
G01 X248.764 Y246.033
G01 X248.711 Y246.199
G01 X248.665 Y246.618
G01 X248.661 Y246.690
G01 X248.732 Y247.147
G01 X248.913 Y247.541
G01 X249.162 Y247.820
G01 X249.184 Y247.848
G01 X249.327 Y247.923
G01 X249.461 Y248.007
G01 X249.521 Y248.049
G01 X249.624 Y248.064
G01 X249.725 Y248.084
G01 X249.822 Y248.109
G01 X249.894 Y248.131
G01 X249.986 Y248.114
G01 X250.079 Y248.101
G01 X250.174 Y248.092
G01 X250.269 Y248.089
G01 X250.274 Y248.089
G01 X250.382 Y248.029
G01 X250.497 Y247.975
G01 X250.618 Y247.928
G01 X250.630 Y247.924
G01 X250.804 Y247.753
G01 X250.930 Y247.646
G01 X251.150 Y247.272
G01 X251.266 Y246.822
G01 X251.262 Y246.326
G01 X251.171 Y245.952
G01 X251.129 Y245.812
G01 X250.977 Y245.507
G01 X250.865 Y245.313
G01 X250.663 Y245.063
G01 X250.476 Y244.860
G01 X250.231 Y244.662
G01 X249.975 Y244.481
G01 X249.696 Y244.339
G01 X249.403 Y244.211
G01 X249.381 Y244.202
G01 X249.079 Y244.119
G01 X248.767 Y244.052
G01 X248.721 Y244.044
G01 X248.406 Y244.022
G01 X248.085 Y244.018
G01 X248.022 Y244.019
G01 X247.707 Y244.059
G01 X247.390 Y244.117
G01 X247.318 Y244.133
G01 X247.014 Y244.235
G01 X246.714 Y244.353
G01 X246.639 Y244.385
G01 X246.359 Y244.544
G01 X246.087 Y244.718
G01 X246.017 Y244.766
G01 X245.773 Y244.977
G01 X245.540 Y245.199
G01 X245.481 Y245.259
G01 X245.282 Y245.513
G01 X245.097 Y245.775
G01 X245.053 Y245.842
G01 X244.908 Y246.129
G01 X244.778 Y246.421
G01 X244.751 Y246.487
G01 X244.666 Y246.797
G01 X244.597 Y247.107
G01 X244.586 Y247.164
G01 X244.564 Y247.485
G01 X244.560 Y247.800
G01 X244.561 Y247.841
G01 X244.604 Y248.159
G01 X244.666 Y248.468
G01 X244.669 Y248.484
G01 X244.780 Y248.789
G01 X244.900 Y249.065
G01 X245.080 Y249.345
G01 X245.235 Y249.556
G01 X245.489 Y249.802
G01 X245.647 Y249.937
G01 X245.999 Y250.139
G01 X246.108 Y250.194
G01 X246.587 Y250.318
G01 X247.050 Y250.312
G01 X247.467 Y250.183
G01 X247.638 Y250.054
G01 X247.809 Y249.947
G01 X247.876 Y249.844
G01 X247.947 Y249.748
G01 X248.023 Y249.658
G01 X248.052 Y249.627
G01 X248.075 Y249.533
G01 X248.104 Y249.440
G01 X248.136 Y249.348
G01 X248.174 Y249.259
G01 X248.178 Y249.249
G01 X248.169 Y249.138
G01 X248.167 Y249.024
G01 X248.171 Y248.908
G01 X248.177 Y248.845
G01 X248.108 Y248.667
G01 X248.053 Y248.480
G01 X248.045 Y248.446
G01 X247.787 Y248.086
G01 X247.415 Y247.794
G01 X246.949 Y247.597
G01 X246.524 Y247.528
G01 X246.414 Y247.517
G01 X246.048 Y247.541
G01 X245.840 Y247.568
G01 X245.512 Y247.664
G01 X245.258 Y247.757
G01 X244.968 Y247.916
G01 X244.703 Y248.084
G01 X244.455 Y248.297
G01 X244.215 Y248.530
G01 X244.206 Y248.540
G01 X244.006 Y248.799
G01 X243.819 Y249.074
G01 X243.797 Y249.108
G01 X243.652 Y249.404
G01 X243.522 Y249.711
G01 X243.500 Y249.767
G01 X243.416 Y250.088
G01 X243.348 Y250.416
G01 X243.335 Y250.489
G01 X243.315 Y250.821
G01 X243.311 Y251.158
G01 X243.313 Y251.241
G01 X243.357 Y251.573
G01 X243.419 Y251.904
G01 X243.437 Y251.990
G01 X243.546 Y252.308
G01 X243.669 Y252.621
G01 X243.704 Y252.702
G01 X243.872 Y252.994
G01 X244.054 Y253.277
G01 X244.102 Y253.347
G01 X244.323 Y253.601
G01 X244.555 Y253.841
G01 X244.610 Y253.895
G01 X244.876 Y254.100
G01 X245.149 Y254.289
G01 X245.205 Y254.325
G01 X245.505 Y254.473
G01 X245.809 Y254.602
G01 X245.855 Y254.620
G01 X246.179 Y254.704
G01 X246.502 Y254.768
G01 X246.529 Y254.772
G01 X246.865 Y254.787
G01 X247.191 Y254.781
G01 X247.529 Y254.722
G01 X247.810 Y254.654
G01 X248.141 Y254.513
G01 X248.354 Y254.406
G01 X248.673 Y254.167
G01 X248.799 Y254.061
G01 X249.109 Y253.665
G01 X249.123 Y253.644
G01 X249.316 Y253.189
G01 X249.372 Y252.727
G01 X249.312 Y252.432
G01 X249.294 Y252.294
G01 X249.215 Y252.167
G01 X249.146 Y252.038
G01 X249.094 Y251.921
G01 X249.012 Y251.855
G01 X248.934 Y251.784
G01 X248.860 Y251.711
G01 X248.792 Y251.636
G01 X248.693 Y251.600
G01 X248.594 Y251.558
G01 X248.497 Y251.510
G01 X248.411 Y251.463
G01 X248.254 Y251.456
G01 X248.094 Y251.437
G01 X247.983 Y251.416
G01 X247.639 Y251.491
G01 X247.540 Y251.506
G01 X247.115 Y251.733
G01 X246.743 Y252.088
G01 X246.482 Y252.507
G01 X246.454 Y252.557
G01 X246.325 Y252.934
G01 X246.275 Y253.116
G01 X246.236 Y253.477
G01 X246.225 Y253.739
G01 X246.262 Y254.084
G01 X246.316 Y254.392
G01 X246.424 Y254.716
G01 X246.554 Y255.039
G01 X246.555 Y255.041
G01 X246.726 Y255.335
G01 X246.918 Y255.624
G01 X246.938 Y255.652
G01 X247.165 Y255.907
G01 X247.410 Y256.153
G01 X247.452 Y256.191
G01 X247.727 Y256.398
G01 X248.016 Y256.591
G01 X248.078 Y256.630
G01 X248.391 Y256.780
G01 X248.714 Y256.914
G01 X248.792 Y256.944
G01 X249.130 Y257.031
G01 X249.473 Y257.101
G01 X249.562 Y257.116
G01 X249.912 Y257.136
G01 X250.262 Y257.139
G01 X250.354 Y257.137
G01 X250.702 Y257.089
G01 X251.046 Y257.024
G01 X251.134 Y257.005
G01 X251.466 Y256.891
G01 X251.789 Y256.761
G01 X251.866 Y256.727
G01 X252.169 Y256.551
G01 X252.458 Y256.361
G01 X252.519 Y256.319
G01 X252.780 Y256.087
G01 X253.024 Y255.845
G01 X253.065 Y255.802
G01 X253.274 Y255.523
G01 X253.463 Y255.238
G01 X253.483 Y255.205
G01 X253.630 Y254.888
G01 X253.755 Y254.570
G01 X253.758 Y254.561
G01 X253.835 Y254.215
G01 X253.885 Y253.904
G01 X253.883 Y253.537
G01 X253.865 Y253.269
G01 X253.771 Y252.884
G01 X253.711 Y252.690
G01 X253.487 Y252.275
G01 X253.439 Y252.197
G01 X253.076 Y251.815
G01 X252.652 Y251.562
G01 X252.208 Y251.451
G01 X252.199 Y251.448
G01 X252.010 Y251.470
G01 X251.825 Y251.477
G01 X251.754 Y251.476
G01 X251.647 Y251.529
G01 X251.538 Y251.576
G01 X251.428 Y251.615
G01 X251.352 Y251.639
G01 X251.278 Y251.713
G01 X251.199 Y251.785
G01 X251.117 Y251.852
G01 X251.031 Y251.916
G01 X251.024 Y251.921
G01 X250.963 Y252.043
G01 X250.893 Y252.163
G01 X250.813 Y252.281
G01 X250.798 Y252.302
G01 X250.748 Y252.559
G01 X250.696 Y252.752
G01 X250.731 Y253.240
G01 X250.912 Y253.731
G01 X251.234 Y254.188
G01 X251.562 Y254.479
G01 X251.687 Y254.578
G01 X252.026 Y254.764
G01 X252.252 Y254.869
G01 X252.603 Y254.971
G01 X252.904 Y255.038
G01 X253.259 Y255.063
G01 X253.612 Y255.065
G01 X253.962 Y255.016
G01 X254.316 Y254.945
G01 X254.340 Y254.939
G01 X254.674 Y254.820
G01 X255.007 Y254.680
G01 X255.054 Y254.659
G01 X255.359 Y254.474
G01 X255.659 Y254.271
G01 X255.716 Y254.230
G01 X255.982 Y253.988
G01 X256.237 Y253.729
G01 X256.294 Y253.668
G01 X256.509 Y253.377
G01 X256.710 Y253.073
G01 X256.759 Y252.995
G01 X256.914 Y252.666
G01 X257.054 Y252.329
G01 X257.087 Y252.240
G01 X257.177 Y251.886
G01 X257.248 Y251.529
G01 X257.264 Y251.435
G01 X257.284 Y251.071
G01 X257.285 Y250.708
G01 X257.282 Y250.618
G01 X257.231 Y250.257
G01 X257.161 Y249.903
G01 X257.143 Y249.824
G01 X257.022 Y249.481
G01 X256.884 Y249.150
G01 X256.857 Y249.088
G01 X256.670 Y248.778
G01 X256.469 Y248.483
G01 X256.441 Y248.444
G01 X256.195 Y248.178
G01 X255.938 Y247.932
G01 X255.923 Y247.918
G01 X255.623 Y247.707
G01 X255.331 Y247.528
G01 X254.985 Y247.385
G01 X254.702 Y247.288
G01 X254.310 Y247.225
G01 X254.072 Y247.201
G01 X253.621 Y247.240
G01 X253.477 Y247.261
G01 X252.950 Y247.454
G01 X252.523 Y247.759
G01 X252.217 Y248.148
G01 X252.136 Y248.387
G01 X252.050 Y248.587
G01 X252.053 Y248.728
G01 X252.048 Y248.867
G01 X252.034 Y249.001
G01 X252.029 Y249.041
G01 X252.067 Y249.144
G01 X252.100 Y249.249
G01 X252.128 Y249.355
G01 X252.151 Y249.461
G01 X252.153 Y249.472
G01 X252.230 Y249.568
G01 X252.304 Y249.670
G01 X252.373 Y249.778
G01 X252.412 Y249.847
G01 X252.583 Y249.963
G01 X252.748 Y250.095
G01 X252.788 Y250.131
G01 X253.256 Y250.299
G01 X253.786 Y250.331
G01 X254.341 Y250.214
G01 X254.783 Y250.001
G01 X254.885 Y249.945
G01 X255.209 Y249.685
G01 X255.380 Y249.530
G01 X255.621 Y249.229
G01 X255.794 Y248.982
G01 X255.959 Y248.649
G01 X256.094 Y248.324
G01 X256.185 Y247.968
G01 X256.255 Y247.599
G01 X256.258 Y247.585
G01 X256.274 Y247.218
G01 X256.269 Y246.843
G01 X256.267 Y246.798
G01 X256.210 Y246.433
G01 X256.131 Y246.066
G01 X256.115 Y246.001
G01 X255.986 Y245.652
G01 X255.837 Y245.306
G01 X255.801 Y245.231
G01 X255.605 Y244.911
G01 X255.391 Y244.600
G01 X255.336 Y244.524
G01 X255.081 Y244.247
G01 X254.810 Y243.982
G01 X254.738 Y243.915
G01 X254.432 Y243.692
G01 X254.116 Y243.484
G01 X254.031 Y243.432
G01 X253.688 Y243.271
G01 X253.339 Y243.129
G01 X253.249 Y243.095
G01 X252.881 Y243.004
G01 X252.513 Y242.933
G01 X252.425 Y242.919
G01 X252.048 Y242.902
G01 X251.675 Y242.904
G01 X251.600 Y242.907
G01 X251.227 Y242.965
G01 X250.865 Y243.042
G01 X250.809 Y243.056
G01 X250.456 Y243.188
G01 X250.119 Y243.337
G01 X250.089 Y243.351
G01 X249.770 Y243.554
G01 X249.472 Y243.772
G01 X249.199 Y244.044
G01 X248.983 Y244.289
G01 X248.769 Y244.630
G01 X248.640 Y244.869
G01 X248.501 Y245.291
G01 X248.452 Y245.476
G01 X248.420 Y246.031
G01 X248.420 Y246.071
G01 X248.535 Y246.616
G01 X248.780 Y247.079
G01 X249.034 Y247.325
G01 X249.130 Y247.430
G01 X249.288 Y247.499
G01 X249.437 Y247.577
G01 X249.553 Y247.648
G01 X249.673 Y247.657
G01 X249.791 Y247.672
G01 X249.906 Y247.693
G01 X250.014 Y247.718
G01 X250.128 Y247.689
G01 X250.245 Y247.665
G01 X250.364 Y247.647
G01 X250.476 Y247.636
G01 X250.621 Y247.545
G01 X250.776 Y247.462
G01 X250.900 Y247.406
G01 X251.156 Y247.130
G01 X251.250 Y247.041
G01 X251.495 Y246.562
G01 X251.609 Y245.999
G01 X251.580 Y245.438
G01 X251.574 Y245.385
G01 X251.449 Y244.953
G01 X251.380 Y244.758
G01 X251.184 Y244.401
G01 X251.027 Y244.156
G01 X250.771 Y243.863
G01 X250.524 Y243.617
G01 X250.218 Y243.389
G01 X249.889 Y243.177
G01 X249.543 Y243.017
G01 X249.181 Y242.875
G01 X249.147 Y242.863
G01 X248.774 Y242.776
G01 X248.391 Y242.709
G01 X248.329 Y242.700
G01 X247.944 Y242.688
G01 X247.554 Y242.697
G01 X247.473 Y242.702
G01 X247.091 Y242.766
G01 X246.708 Y242.850
G01 X246.618 Y242.873
G01 X246.253 Y243.012
G01 X245.893 Y243.169
G01 X245.802 Y243.212
G01 X245.469 Y243.419
G01 X245.146 Y243.642
G01 X245.063 Y243.703
G01 X244.775 Y243.971
G01 X244.502 Y244.252
G01 X244.434 Y244.327
G01 X244.203 Y244.645
G01 X243.991 Y244.972
G01 X243.942 Y245.053
G01 X243.778 Y245.410
G01 X243.635 Y245.770
G01 X243.607 Y245.849
G01 X243.517 Y246.229
G01 X243.449 Y246.608
G01 X243.439 Y246.674
G01 X243.428 Y247.065
G01 X243.438 Y247.448
G01 X243.441 Y247.491
G01 X243.510 Y247.876
G01 X243.600 Y248.248
G01 X243.604 Y248.260
G01 X243.755 Y248.626
G01 X243.911 Y248.945
G01 X244.147 Y249.280
G01 X244.338 Y249.516
G01 X244.670 Y249.807
G01 X244.853 Y249.949
G01 X245.319 Y250.183
G01 X245.420 Y250.228
G01 X245.999 Y250.346
G01 X246.552 Y250.306
G01 X247.041 Y250.121
G01 X247.205 Y249.977
G01 X247.375 Y249.849
G01 X247.433 Y249.811
G01 X247.499 Y249.692
G01 X247.570 Y249.579
G01 X247.646 Y249.472
G01 X247.699 Y249.405
G01 X247.720 Y249.289
G01 X247.746 Y249.174
G01 X247.778 Y249.060
G01 X247.817 Y248.947
G01 X247.820 Y248.936
G01 X247.799 Y248.789
G01 X247.787 Y248.637
G01 X247.784 Y248.480
G01 X247.785 Y248.444
G01 X247.670 Y248.186
G01 X247.592 Y247.967
G01 X247.248 Y247.544
G01 X246.771 Y247.211
G01 X246.186 Y247.000
G01 X245.696 Y246.944
G01 X245.524 Y246.934
G01 X245.094 Y246.982
G01 X244.822 Y247.030
G01 X244.437 Y247.162
G01 X244.121 Y247.293
G01 X243.780 Y247.499
G01 X243.459 Y247.722
G01 X243.171 Y247.992
G01 X242.893 Y248.284
G01 X242.876 Y248.304
G01 X242.648 Y248.627
G01 X242.434 Y248.968
G01 X242.406 Y249.017
G01 X242.245 Y249.381
G01 X242.103 Y249.759
G01 X242.077 Y249.833
G01 X241.991 Y250.224
G01 X241.924 Y250.623
G01 X241.912 Y250.716
G01 X241.903 Y251.119
G01 X241.914 Y251.525
G01 X241.921 Y251.627
G01 X241.990 Y252.027
G01 X242.080 Y252.424
G01 X242.106 Y252.527
G01 X242.252 Y252.907
G01 X242.416 Y253.278
G01 X242.462 Y253.374
G01 X242.679 Y253.719
G01 X242.911 Y254.050
G01 X242.972 Y254.131
G01 X243.250 Y254.427
G01 X243.541 Y254.705
G01 X243.609 Y254.766
G01 X243.940 Y255.000
G01 X244.278 Y255.214
G01 X244.343 Y255.252
G01 X244.713 Y255.415
G01 X245.085 Y255.555
G01 X245.136 Y255.573
G01 X245.532 Y255.658
G01 X245.924 Y255.717
G01 X245.948 Y255.720
G01 X246.356 Y255.720
G01 X246.739 Y255.695
G01 X247.146 Y255.604
G01 X247.467 Y255.510
G01 X247.866 Y255.317
G01 X248.100 Y255.185
G01 X248.484 Y254.862
G01 X248.605 Y254.748
G01 X248.963 Y254.233
G01 X249.159 Y253.680
G01 X249.190 Y253.129
G01 X249.110 Y252.853
G01 X249.063 Y252.621
G01 X248.968 Y252.492
G01 X248.884 Y252.361
G01 X248.810 Y252.227
G01 X248.793 Y252.193
G01 X248.692 Y252.122
G01 X248.595 Y252.048
G01 X248.502 Y251.969
G01 X248.413 Y251.885
G01 X248.405 Y251.877
G01 X248.274 Y251.840
G01 X248.143 Y251.794
G01 X248.013 Y251.740
G01 X247.930 Y251.701
G01 X247.705 Y251.704
G01 X247.476 Y251.689
G01 X247.406 Y251.681
G01 X246.873 Y251.826
G01 X246.372 Y252.134
G01 X245.943 Y252.594
G01 X245.675 Y253.074
G01 X245.621 Y253.185
G01 X245.492 Y253.629
G01 X245.436 Y253.878
G01 X245.410 Y254.305
G01 X245.411 Y254.639
G01 X245.475 Y255.048
G01 X245.559 Y255.427
G01 X245.705 Y255.809
G01 X245.878 Y256.190
G01 X245.884 Y256.202
G01 X246.104 Y256.546
G01 X246.349 Y256.883
G01 X246.379 Y256.922
G01 X246.665 Y257.217
G01 X246.971 Y257.499
G01 X247.027 Y257.548
G01 X247.368 Y257.782
G01 X247.725 Y258.000
G01 X247.805 Y258.046
G01 X248.188 Y258.210
G01 X248.582 Y258.355
G01 X248.680 Y258.388
G01 X249.089 Y258.476
G01 X249.504 Y258.543
G01 X249.613 Y258.557
G01 X250.034 Y258.564
G01 X250.454 Y258.550
G01 X250.564 Y258.543
G01 X250.978 Y258.468
G01 X251.387 Y258.374
G01 X251.490 Y258.347
G01 X251.882 Y258.193
G01 X252.262 Y258.022
G01 X252.351 Y257.979
G01 X252.704 Y257.752
G01 X253.041 Y257.511
G01 X253.108 Y257.459
G01 X253.409 Y257.168
G01 X253.688 Y256.866
G01 X253.731 Y256.817
G01 X253.966 Y256.472
G01 X254.177 Y256.120
G01 X254.195 Y256.087
G01 X254.354 Y255.698
G01 X254.486 Y255.309
G01 X254.559 Y254.888
G01 X254.599 Y254.526
G01 X254.574 Y254.080
G01 X254.539 Y253.778
G01 X254.395 Y253.308
G01 X254.321 Y253.106
G01 X253.997 Y252.586
G01 X253.969 Y252.545
G01 X253.515 Y252.122
G01 X252.996 Y251.857
G01 X252.599 Y251.793
G01 X252.454 Y251.760
G01 X252.264 Y251.799
G01 X252.076 Y251.823
G01 X251.930 Y251.832
G01 X251.815 Y251.900
G01 X251.698 Y251.962
G01 X251.579 Y252.017
G01 X251.466 Y252.062
G01 X251.382 Y252.161
G01 X251.292 Y252.256
G01 X251.195 Y252.348
G01 X251.099 Y252.430
G01 X251.027 Y252.603
G01 X250.940 Y252.775
G01 X250.861 Y252.908
G01 X250.806 Y253.311
G01 X250.776 Y253.462
G01 X250.859 Y254.051
G01 X251.114 Y254.633
G01 X251.502 Y255.125
G01 X251.537 Y255.165
G01 X251.927 Y255.478
G01 X252.112 Y255.609
G01 X252.518 Y255.806
G01 X252.814 Y255.927
G01 X253.234 Y256.028
G01 X253.613 Y256.093
G01 X254.036 Y256.103
G01 X254.468 Y256.085
G01 X254.883 Y256.008
G01 X255.300 Y255.905
G01 X255.339 Y255.894
G01 X255.731 Y255.734
G01 X256.120 Y255.550
G01 X256.181 Y255.519
G01 X256.536 Y255.283
G01 X256.883 Y255.026
G01 X256.953 Y254.970
G01 X257.258 Y254.667
G01 X257.549 Y254.346
G01 X257.616 Y254.268
G01 X257.858 Y253.909
G01 X258.082 Y253.537
G01 X258.137 Y253.440
G01 X258.305 Y253.040
G01 X258.454 Y252.632
G01 X258.490 Y252.523
G01 X258.578 Y252.097
G01 X258.645 Y251.669
G01 X258.659 Y251.557
G01 X258.664 Y251.122
G01 X258.646 Y250.691
G01 X258.639 Y250.586
G01 X258.558 Y250.159
G01 X258.457 Y249.742
G01 X258.433 Y249.653
G01 X258.270 Y249.252
G01 X258.089 Y248.866
G01 X258.056 Y248.799
G01 X257.816 Y248.439
G01 X257.562 Y248.100
G01 X257.531 Y248.062
G01 X257.223 Y247.758
G01 X256.903 Y247.480
G01 X256.892 Y247.471
G01 X256.521 Y247.237
G01 X256.175 Y247.048
G01 X255.749 Y246.897
G01 X255.424 Y246.805
G01 X254.939 Y246.754
G01 X254.681 Y246.742
G01 X254.113 Y246.827
G01 X253.990 Y246.853
G01 X253.390 Y247.116
G01 X252.915 Y247.505
G01 X252.590 Y247.985
G01 X252.533 Y248.222
G01 X252.459 Y248.448
G01 X252.433 Y248.514
G01 X252.449 Y248.665
G01 X252.457 Y248.813
G01 X252.456 Y248.959
G01 X252.451 Y249.051
G01 X252.506 Y249.169
G01 X252.555 Y249.290
G01 X252.598 Y249.413
G01 X252.636 Y249.539
G01 X252.639 Y249.552
G01 X252.751 Y249.670
G01 X252.858 Y249.799
G01 X252.959 Y249.938
G01 X252.984 Y249.974
G01 X253.248 Y250.131
G01 X253.461 Y250.282
G01 X254.040 Y250.445
G01 X254.681 Y250.441
G01 X255.343 Y250.259
G01 X255.822 Y249.996
G01 X255.981 Y249.897
G01 X256.338 Y249.579
G01 X256.551 Y249.363
G01 X256.814 Y248.998
G01 X257.015 Y248.679
G01 X257.190 Y248.277
G01 X257.336 Y247.871
G01 X257.424 Y247.444
G01 X257.487 Y247.004
G01 X257.490 Y246.976
G01 X257.489 Y246.539
G01 X257.463 Y246.096
G01 X257.458 Y246.034
G01 X257.370 Y245.604
G01 X257.257 Y245.174
G01 X257.233 Y245.091
G01 X257.061 Y244.684
G01 X256.866 Y244.282
G01 X256.818 Y244.191
G01 X256.568 Y243.822
G01 X256.299 Y243.464
G01 X256.228 Y243.376
G01 X255.910 Y243.061
G01 X255.576 Y242.761
G01 X255.486 Y242.685
G01 X255.113 Y242.437
G01 X254.728 Y242.208
G01 X254.625 Y242.151
G01 X254.210 Y241.979
G01 X253.790 Y241.829
G01 X253.683 Y241.795
G01 X253.244 Y241.707
G01 X252.804 Y241.642
G01 X252.704 Y241.631
G01 X252.257 Y241.631
G01 X251.817 Y241.655
G01 X251.733 Y241.662
G01 X251.296 Y241.751
G01 X250.872 Y241.863
G01 X250.814 Y241.880
G01 X250.404 Y242.056
G01 X250.014 Y242.253
G01 X249.989 Y242.266
G01 X249.622 Y242.527
G01 X249.293 Y242.793
G01 X248.985 Y243.135
G01 X248.755 Y243.425
G01 X248.521 Y243.853
G01 X248.394 Y244.122
G01 X248.254 Y244.656
G01 X248.217 Y244.838
G01 X248.224 Y245.530
G01 X248.400 Y246.153
G01 X248.723 Y246.669
G01 X248.973 Y246.869
G01 X249.161 Y247.046
G01 X249.329 Y247.102
G01 X249.489 Y247.167
G01 X249.641 Y247.241
G01 X249.677 Y247.260
G01 X249.813 Y247.259
G01 X249.948 Y247.264
G01 X250.082 Y247.276
G01 X250.214 Y247.295
G01 X250.227 Y247.297
G01 X250.368 Y247.248
G01 X250.514 Y247.206
G01 X250.665 Y247.172
G01 X250.766 Y247.154
G01 X250.964 Y247.009
G01 X251.179 Y246.878
G01 X251.249 Y246.839
G01 X251.636 Y246.370
G01 X251.889 Y245.775
G01 X251.982 Y245.090
G01 X251.917 Y244.487
G01 X251.895 Y244.355
G01 X251.727 Y243.873
G01 X251.619 Y243.615
G01 X251.370 Y243.215
G01 X251.157 Y242.917
G01 X250.840 Y242.591
G01 X250.522 Y242.304
G01 X250.148 Y242.055
G01 X249.751 Y241.824
G01 X249.738 Y241.817
G01 X249.321 Y241.649
G01 X248.887 Y241.502
G01 X248.836 Y241.487
G01 X248.391 Y241.405
G01 X247.936 Y241.347
G01 X247.855 Y241.339
G01 X247.400 Y241.347
G01 X246.941 Y241.379
G01 X246.841 Y241.389
G01 X246.393 Y241.486
G01 X245.947 Y241.606
G01 X245.839 Y241.639
G01 X245.416 Y241.822
G01 X245.001 Y242.026
G01 X244.894 Y242.083
G01 X244.513 Y242.345
G01 X244.146 Y242.625
G01 X244.051 Y242.702
G01 X243.727 Y243.033
G01 X243.422 Y243.378
G01 X243.346 Y243.469
G01 X243.093 Y243.856
G01 X242.861 Y244.252
G01 X242.810 Y244.347
G01 X242.637 Y244.775
G01 X242.490 Y245.206
G01 X242.462 Y245.295
G01 X242.378 Y245.748
G01 X242.320 Y246.197
G01 X242.314 Y246.268
G01 X242.323 Y246.728
G01 X242.358 Y247.177
G01 X242.363 Y247.218
G01 X242.468 Y247.668
G01 X242.598 Y248.101
G01 X242.801 Y248.525
G01 X242.997 Y248.876
G01 X243.302 Y249.260
G01 X243.527 Y249.507
G01 X243.955 Y249.838
G01 X244.151 Y249.971
G01 X244.771 Y250.231
G01 X244.824 Y250.250
G01 X245.501 Y250.340
G01 X246.134 Y250.247
G01 X246.532 Y250.051
G01 X246.682 Y249.989
G01 X246.828 Y249.833
G01 X246.981 Y249.692
G01 X247.105 Y249.591
G01 X247.165 Y249.457
G01 X247.231 Y249.327
G01 X247.303 Y249.202
G01 X247.375 Y249.090
G01 X247.387 Y248.948
G01 X247.408 Y248.806
G01 X247.436 Y248.662
G01 X247.469 Y248.527
G01 X247.424 Y248.327
G01 X247.393 Y248.118
G01 X247.379 Y247.948
G01 X247.172 Y247.553
G01 X247.103 Y247.398
G01 X246.655 Y246.924
G01 X246.057 Y246.566
G01 X245.396 Y246.373
G01 X245.340 Y246.359
G01 X244.792 Y246.328
G01 X244.544 Y246.329
G01 X244.056 Y246.411
G01 X243.714 Y246.491
G01 X243.275 Y246.668
G01 X242.895 Y246.851
G01 X242.511 Y247.111
G01 X242.136 Y247.402
G01 X241.814 Y247.735
G01 X241.507 Y248.093
G01 X241.480 Y248.127
G01 X241.231 Y248.519
G01 X241.001 Y248.931
G01 X240.966 Y248.998
G01 X240.799 Y249.435
G01 X240.653 Y249.886
G01 X240.626 Y249.980
G01 X240.546 Y250.444
G01 X240.491 Y250.916
G01 X240.481 Y251.029
G01 X240.493 Y251.503
G01 X240.530 Y251.978
G01 X240.543 Y252.100
G01 X240.647 Y252.564
G01 X240.774 Y253.023
G01 X240.811 Y253.144
G01 X241.003 Y253.580
G01 X241.216 Y254.005
G01 X241.275 Y254.114
G01 X241.548 Y254.505
G01 X241.838 Y254.879
G01 X241.912 Y254.968
G01 X242.255 Y255.298
G01 X242.611 Y255.606
G01 X242.690 Y255.670
G01 X243.090 Y255.925
G01 X243.497 Y256.154
G01 X243.570 Y256.192
G01 X244.012 Y256.361
G01 X244.456 Y256.502
G01 X244.507 Y256.516
G01 X244.976 Y256.591
G01 X245.439 Y256.636
G01 X245.454 Y256.637
G01 X245.934 Y256.610
G01 X246.363 Y256.558
G01 X246.841 Y256.421
G01 X247.189 Y256.297
G01 X247.654 Y256.034
G01 X247.891 Y255.880
G01 X248.345 Y255.442
G01 X248.438 Y255.342
G01 X248.806 Y254.725
G01 X248.983 Y254.075
G01 X248.967 Y253.440
G01 X248.868 Y253.193
G01 X248.790 Y252.945
G01 X248.770 Y252.868
G01 X248.660 Y252.744
G01 X248.559 Y252.617
G01 X248.468 Y252.486
G01 X248.413 Y252.400
G01 X248.290 Y252.330
G01 X248.169 Y252.254
G01 X248.052 Y252.171
G01 X247.938 Y252.082
G01 X247.927 Y252.074
G01 X247.751 Y252.039
G01 X247.574 Y251.992
G01 X247.395 Y251.933
G01 X247.351 Y251.916
G01 X247.015 Y251.944
G01 X246.730 Y251.945
G01 X246.111 Y252.168
G01 X245.542 Y252.579
G01 X245.068 Y253.162
G01 X244.809 Y253.700
G01 X244.730 Y253.890
G01 X244.614 Y254.400
G01 X244.561 Y254.728
G01 X244.559 Y255.220
G01 X244.584 Y255.632
G01 X244.683 Y256.102
G01 X244.811 Y256.556
G01 X245.004 Y256.992
G01 X245.228 Y257.423
G01 X245.243 Y257.451
G01 X245.521 Y257.839
G01 X245.826 Y258.217
G01 X245.871 Y258.269
G01 X246.222 Y258.595
G01 X246.596 Y258.907
G01 X246.671 Y258.965
G01 X247.083 Y259.218
G01 X247.512 Y259.452
G01 X247.612 Y259.503
G01 X248.069 Y259.672
G01 X248.536 Y259.819
G01 X248.656 Y259.853
G01 X249.139 Y259.931
G01 X249.626 Y259.985
G01 X249.755 Y259.996
G01 X250.245 Y259.979
G01 X250.733 Y259.939
G01 X250.861 Y259.924
G01 X251.339 Y259.813
G01 X251.809 Y259.679
G01 X251.925 Y259.642
G01 X252.372 Y259.440
G01 X252.804 Y259.219
G01 X252.900 Y259.165
G01 X253.298 Y258.881
G01 X253.675 Y258.579
G01 X253.745 Y258.520
G01 X254.077 Y258.163
G01 X254.383 Y257.794
G01 X254.423 Y257.742
G01 X254.676 Y257.324
G01 X254.898 Y256.901
G01 X254.911 Y256.874
G01 X255.072 Y256.409
G01 X255.195 Y255.963
G01 X255.252 Y255.462
G01 X255.271 Y255.059
G01 X255.208 Y254.529
G01 X255.150 Y254.210
G01 X254.934 Y253.644
G01 X254.851 Y253.461
G01 X254.406 Y252.850
G01 X253.853 Y252.409
G01 X253.238 Y252.156
G01 X252.892 Y252.137
G01 X252.609 Y252.100
G01 X252.425 Y252.156
G01 X252.242 Y252.200
G01 X252.061 Y252.231
G01 X252.015 Y252.237
G01 X251.895 Y252.325
G01 X251.772 Y252.406
G01 X251.645 Y252.480
G01 X251.516 Y252.548
G01 X251.503 Y252.554
G01 X251.409 Y252.688
G01 X251.305 Y252.818
G01 X251.192 Y252.945
G01 X251.115 Y253.024
G01 X251.030 Y253.281
G01 X250.922 Y253.536
G01 X250.886 Y253.611
G01 X250.841 Y254.273
G01 X250.994 Y254.963
G01 X251.347 Y255.631
G01 X251.787 Y256.122
G01 X251.892 Y256.228
G01 X252.346 Y256.549
G01 X252.607 Y256.709
G01 X253.081 Y256.906
G01 X253.461 Y257.036
G01 X253.949 Y257.123
G01 X254.414 Y257.176
G01 X254.904 Y257.160
G01 X255.403 Y257.113
G01 X255.420 Y257.110
G01 X255.897 Y256.995
G01 X256.374 Y256.849
G01 X256.431 Y256.830
G01 X256.876 Y256.620
G01 X257.317 Y256.383
G01 X257.394 Y256.338
G01 X257.793 Y256.042
G01 X258.180 Y255.723
G01 X258.263 Y255.649
G01 X258.598 Y255.279
G01 X258.917 Y254.889
G01 X258.993 Y254.791
G01 X259.252 Y254.360
G01 X259.490 Y253.915
G01 X259.549 Y253.797
G01 X259.720 Y253.323
G01 X259.868 Y252.841
G01 X259.903 Y252.713
G01 X259.980 Y252.214
G01 X260.032 Y251.714
G01 X260.041 Y251.585
G01 X260.020 Y251.081
G01 X259.974 Y250.583
G01 X259.959 Y250.466
G01 X259.840 Y249.977
G01 X259.697 Y249.501
G01 X259.665 Y249.404
G01 X259.452 Y248.950
G01 X259.218 Y248.515
G01 X259.179 Y248.448
G01 X258.879 Y248.047
G01 X258.561 Y247.671
G01 X258.532 Y247.638
G01 X258.153 Y247.305
G01 X257.763 Y247.005
G01 X257.313 Y246.758
G01 X256.918 Y246.572
G01 X256.402 Y246.426
G01 X256.047 Y246.350
G01 X255.457 Y246.329
G01 X255.201 Y246.335
G01 X254.482 Y246.501
G01 X254.428 Y246.516
G01 X253.772 Y246.866
G01 X253.270 Y247.351
G01 X253.048 Y247.770
G01 X252.950 Y247.928
G01 X252.921 Y248.156
G01 X252.876 Y248.376
G01 X252.828 Y248.549
G01 X252.861 Y248.705
G01 X252.885 Y248.861
G01 X252.901 Y249.016
G01 X252.909 Y249.163
G01 X252.988 Y249.297
G01 X253.061 Y249.437
G01 X253.128 Y249.582
G01 X253.183 Y249.721
G01 X253.352 Y249.872
G01 X253.514 Y250.038
G01 X253.632 Y250.176
G01 X254.074 Y250.399
G01 X254.226 Y250.487
G01 X254.924 Y250.622
G01 X255.682 Y250.558
G01 X256.384 Y250.312
G01 X256.448 Y250.286
G01 X256.950 Y249.967
G01 X257.172 Y249.807
G01 X257.551 Y249.426
G01 X257.804 Y249.136
G01 X258.079 Y248.701
G01 X258.299 Y248.297
G01 X258.474 Y247.823
G01 X258.621 Y247.328
G01 X258.621 Y247.327
G01 X258.694 Y246.829
G01 X258.739 Y246.318
G01 X258.741 Y246.269
G01 X258.713 Y245.764
G01 X258.655 Y245.254
G01 X258.643 Y245.172
G01 X258.514 Y244.680
G01 X258.357 Y244.189
G01 X258.321 Y244.087
G01 X258.096 Y243.627
G01 X257.846 Y243.174
G01 X257.783 Y243.067
G01 X257.471 Y242.657
G01 X257.138 Y242.260
G01 X257.049 Y242.160
G01 X256.662 Y241.816
G01 X256.258 Y241.491
G01 X256.149 Y241.408
G01 X255.702 Y241.144
G01 X255.244 Y240.903
G01 X255.123 Y240.844
G01 X254.634 Y240.672
G01 X254.141 Y240.526
G01 X254.019 Y240.494
G01 X253.507 Y240.420
G01 X252.997 Y240.374
G01 X252.886 Y240.367
G01 X252.371 Y240.396
G01 X251.865 Y240.452
G01 X251.778 Y240.464
G01 X251.280 Y240.596
G01 X250.799 Y240.753
G01 X250.744 Y240.773
G01 X250.283 Y241.004
G01 X249.845 Y241.259
G01 X249.832 Y241.267
G01 X249.425 Y241.596
G01 X249.080 Y241.913
G01 X248.744 Y242.337
G01 X248.517 Y242.667
G01 X248.273 Y243.196
G01 X248.162 Y243.481
G01 X248.040 Y244.160
G01 X248.022 Y244.302
G01 X248.089 Y245.079
G01 X248.346 Y245.764
G01 X248.763 Y246.313
G01 X249.004 Y246.465
G01 X249.227 Y246.631
G01 X249.300 Y246.692
G01 X249.474 Y246.731
G01 X249.643 Y246.778
G01 X249.806 Y246.834
G01 X249.912 Y246.877
G01 X250.066 Y246.860
G01 X250.221 Y246.850
G01 X250.378 Y246.849
G01 X250.534 Y246.855
G01 X250.549 Y246.856
G01 X250.728 Y246.773
G01 X250.916 Y246.701
G01 X251.114 Y246.639
G01 X251.157 Y246.628
G01 X251.442 Y246.384
G01 X251.686 Y246.206
G01 X252.091 Y245.616
G01 X252.332 Y244.891
G01 X252.379 Y244.075
G01 X252.267 Y243.440
G01 X252.214 Y243.217
G01 X251.994 Y242.695
G01 X251.831 Y242.370
G01 X251.522 Y241.936
G01 X251.237 Y241.586
G01 X250.852 Y241.236
G01 X250.450 Y240.915
G01 X250.003 Y240.654
G01 X249.533 Y240.415
G01 X249.500 Y240.400
G01 X249.009 Y240.235
G01 X248.501 Y240.095
G01 X248.428 Y240.077
G01 X247.911 Y240.012
G01 X247.383 Y239.974
G01 X247.280 Y239.970
G01 X246.756 Y240.008
G01 X246.230 Y240.074
G01 X246.108 Y240.093
G01 X245.599 Y240.234
G01 X245.094 Y240.400
G01 X244.967 Y240.446
G01 X244.492 Y240.684
G01 X244.028 Y240.945
G01 X243.907 Y241.017
G01 X243.486 Y241.343
G01 X243.081 Y241.688
G01 X242.978 Y241.782
G01 X242.627 Y242.183
G01 X242.298 Y242.598
G01 X242.219 Y242.705
G01 X241.953 Y243.166
G01 X241.714 Y243.635
G01 X241.663 Y243.743
G01 X241.493 Y244.246
G01 X241.352 Y244.750
G01 X241.328 Y244.846
G01 X241.262 Y245.371
G01 X241.227 Y245.890
G01 X241.224 Y245.961
G01 X241.267 Y246.489
G01 X241.339 Y247.002
G01 X241.345 Y247.034
G01 X241.498 Y247.545
G01 X241.672 Y248.014
G01 X241.941 Y248.492
G01 X242.178 Y248.858
G01 X242.571 Y249.285
G01 X242.823 Y249.527
G01 X243.376 Y249.889
G01 X243.560 Y249.995
G01 X244.339 Y250.249
G01 X245.104 Y250.286
G01 X245.805 Y250.117
G01 X246.112 Y249.918
G01 X246.392 Y249.766
G01 X246.516 Y249.602
G01 X246.646 Y249.449
G01 X246.783 Y249.308
G01 X246.826 Y249.267
G01 X246.875 Y249.115
G01 X246.932 Y248.966
G01 X246.995 Y248.820
G01 X247.066 Y248.678
G01 X247.074 Y248.663
G01 X247.071 Y248.484
G01 X247.079 Y248.301
G01 X247.098 Y248.116
G01 X247.115 Y248.004
G01 X247.025 Y247.717
G01 X246.956 Y247.418
G01 X246.942 Y247.341
G01 X246.560 Y246.730
G01 X245.986 Y246.220
G01 X245.250 Y245.857
G01 X244.558 Y245.706
G01 X244.390 Y245.678
G01 X243.791 Y245.684
G01 X243.455 Y245.709
G01 X242.915 Y245.837
G01 X242.496 Y245.964
G01 X242.012 Y246.197
G01 X241.568 Y246.446
G01 X241.148 Y246.770
G01 X240.740 Y247.128
G01 X240.724 Y247.142
G01 X240.379 Y247.546
G01 X240.051 Y247.976
G01 X240.013 Y248.030
G01 X239.754 Y248.497
G01 X239.518 Y248.984
G01 X239.478 Y249.074
G01 X239.315 Y249.586
G01 X239.177 Y250.112
G01 X239.150 Y250.230
G01 X239.090 Y250.768
G01 X239.057 Y251.313
G01 X239.053 Y251.448
G01 X239.098 Y251.990
G01 X239.171 Y252.532
G01 X239.194 Y252.673
G01 X239.344 Y253.198
G01 X239.519 Y253.716
G01 X239.569 Y253.851
G01 X239.818 Y254.338
G01 X240.089 Y254.810
G01 X240.162 Y254.929
G01 X240.500 Y255.358
G01 X240.856 Y255.766
G01 X240.943 Y255.859
G01 X241.358 Y256.213
G01 X241.785 Y256.541
G01 X241.873 Y256.605
G01 X242.348 Y256.869
G01 X242.830 Y257.102
G01 X242.905 Y257.136
G01 X243.424 Y257.298
G01 X243.940 Y257.428
G01 X243.986 Y257.437
G01 X244.530 Y257.489
G01 X245.060 Y257.505
G01 X245.613 Y257.437
G01 X246.075 Y257.350
G01 X246.621 Y257.150
G01 X246.979 Y256.993
G01 X247.512 Y256.634
G01 X247.729 Y256.469
G01 X248.261 Y255.859
G01 X248.291 Y255.821
G01 X248.642 Y255.099
G01 X248.772 Y254.357
G01 X248.702 Y253.868
G01 X248.685 Y253.650
G01 X248.568 Y253.435
G01 X248.469 Y253.219
G01 X248.397 Y253.029
G01 X248.270 Y252.914
G01 X248.150 Y252.794
G01 X248.038 Y252.669
G01 X247.935 Y252.543
G01 X247.779 Y252.476
G01 X247.625 Y252.399
G01 X247.473 Y252.314
G01 X247.339 Y252.229
G01 X247.090 Y252.204
G01 X246.836 Y252.160
G01 X246.655 Y252.117
G01 X246.104 Y252.206
G01 X245.937 Y252.223
G01 X245.238 Y252.550
G01 X244.614 Y253.088
G01 X244.161 Y253.739
G01 X244.114 Y253.814
G01 X243.878 Y254.409
G01 X243.783 Y254.695
G01 X243.693 Y255.268
G01 X243.655 Y255.686
G01 X243.689 Y256.240
G01 X243.752 Y256.737
G01 X243.900 Y257.263
G01 X244.084 Y257.790
G01 X244.086 Y257.793
G01 X244.337 Y258.276
G01 X244.622 Y258.752
G01 X244.651 Y258.798
G01 X244.996 Y259.222
G01 X245.370 Y259.633
G01 X245.434 Y259.698
G01 X245.858 Y260.048
G01 X246.307 Y260.378
G01 X246.403 Y260.445
G01 X246.892 Y260.707
G01 X247.397 Y260.945
G01 X247.521 Y260.999
G01 X248.054 Y261.161
G01 X248.598 Y261.298
G01 X248.739 Y261.329
G01 X249.296 Y261.386
G01 X249.856 Y261.416
G01 X250.004 Y261.419
G01 X250.563 Y261.367
G01 X251.116 Y261.288
G01 X251.259 Y261.263
G01 X251.797 Y261.104
G01 X252.322 Y260.920
G01 X252.448 Y260.871
G01 X252.944 Y260.611
G01 X253.419 Y260.329
G01 X253.520 Y260.265
G01 X253.953 Y259.914
G01 X254.360 Y259.545
G01 X254.428 Y259.479
G01 X254.781 Y259.048
G01 X255.102 Y258.606
G01 X255.137 Y258.556
G01 X255.394 Y258.060
G01 X255.616 Y257.560
G01 X255.621 Y257.547
G01 X255.769 Y257.000
G01 X255.870 Y256.506
G01 X255.894 Y255.921
G01 X255.884 Y255.492
G01 X255.761 Y254.871
G01 X255.678 Y254.558
G01 X255.350 Y253.878
G01 X255.281 Y253.753
G01 X254.729 Y253.118
G01 X254.071 Y252.685
G01 X253.389 Y252.482
G01 X253.359 Y252.471
G01 X253.061 Y252.492
G01 X252.769 Y252.491
G01 X252.650 Y252.483
G01 X252.476 Y252.559
G01 X252.301 Y252.625
G01 X252.125 Y252.679
G01 X251.999 Y252.712
G01 X251.875 Y252.825
G01 X251.746 Y252.933
G01 X251.610 Y253.034
G01 X251.469 Y253.130
G01 X251.457 Y253.137
G01 X251.352 Y253.327
G01 X251.230 Y253.514
G01 X251.094 Y253.697
G01 X251.072 Y253.724
G01 X250.973 Y254.134
G01 X250.878 Y254.430
G01 X250.901 Y255.205
G01 X251.152 Y255.993
G01 X251.631 Y256.737
G01 X252.126 Y257.216
G01 X252.321 Y257.384
G01 X252.842 Y257.698
G01 X253.194 Y257.882
G01 X253.739 Y258.065
G01 X254.213 Y258.191
G01 X254.771 Y258.253
G01 X255.328 Y258.279
G01 X255.883 Y258.225
G01 X256.446 Y258.135
G01 X256.486 Y258.127
G01 X257.020 Y257.961
G01 X257.553 Y257.762
G01 X257.630 Y257.730
G01 X258.123 Y257.460
G01 X258.608 Y257.159
G01 X258.702 Y257.096
G01 X259.135 Y256.732
G01 X259.554 Y256.341
G01 X259.648 Y256.247
G01 X260.005 Y255.802
G01 X260.341 Y255.337
G01 X260.423 Y255.215
G01 X260.688 Y254.707
G01 X260.928 Y254.186
G01 X260.988 Y254.046
G01 X261.150 Y253.495
G01 X261.285 Y252.937
G01 X261.316 Y252.790
G01 X261.369 Y252.217
G01 X261.393 Y251.647
G01 X261.395 Y251.504
G01 X261.335 Y250.933
G01 X261.248 Y250.372
G01 X261.224 Y250.246
G01 X261.054 Y249.699
G01 X260.858 Y249.170
G01 X260.819 Y249.072
G01 X260.544 Y248.572
G01 X260.246 Y248.096
G01 X260.205 Y248.034
G01 X259.833 Y247.600
G01 X259.444 Y247.198
G01 X259.421 Y247.176
G01 X258.963 Y246.826
G01 X258.516 Y246.529
G01 X257.978 Y246.282
G01 X257.542 Y246.115
G01 X256.926 Y245.991
G01 X256.558 Y245.941
G01 X255.839 Y245.977
G01 X255.621 Y246.000
G01 X254.785 Y246.273
G01 X254.097 Y246.726
G01 X253.596 Y247.317
G01 X253.462 Y247.673
G01 X253.309 Y247.996
G01 X253.307 Y248.213
G01 X253.292 Y248.424
G01 X253.264 Y248.630
G01 X253.251 Y248.705
G01 X253.305 Y248.868
G01 X253.351 Y249.033
G01 X253.389 Y249.200
G01 X253.418 Y249.369
G01 X253.421 Y249.388
G01 X253.540 Y249.545
G01 X253.651 Y249.712
G01 X253.754 Y249.888
G01 X253.807 Y249.988
G01 X254.078 Y250.188
G01 X254.337 Y250.414
G01 X254.380 Y250.455
G01 X255.104 Y250.744
G01 X255.930 Y250.822
G01 X256.804 Y250.670
G01 X257.494 Y250.368
G01 X257.669 Y250.279
G01 X258.184 Y249.896
G01 X258.467 Y249.658
G01 X258.856 Y249.205
G01 X259.142 Y248.825
G01 X259.417 Y248.317
G01 X259.647 Y247.815
G01 X259.808 Y247.266
G01 X259.938 Y246.697
G01 X259.943 Y246.671
G01 X259.988 Y246.101
G01 X260.001 Y245.519
G01 X260.001 Y245.446
G01 X259.931 Y244.875
G01 X259.829 Y244.300
G01 X259.807 Y244.195
G01 X259.624 Y243.645
G01 X259.412 Y243.100
G01 X259.360 Y242.979
G01 X259.072 Y242.472
G01 X258.757 Y241.976
G01 X258.674 Y241.855
G01 X258.292 Y241.411
G01 X257.886 Y240.984
G01 X257.776 Y240.876
G01 X257.314 Y240.513
G01 X256.834 Y240.173
G01 X256.704 Y240.087
G01 X256.180 Y239.820
G01 X255.645 Y239.580
G01 X255.507 Y239.523
G01 X254.941 Y239.363
G01 X254.372 Y239.233
G01 X254.238 Y239.206
G01 X253.653 Y239.160
G01 X253.074 Y239.145
G01 X252.958 Y239.145
G01 X252.377 Y239.216
G01 X251.810 Y239.317
G01 X251.725 Y239.335
G01 X251.171 Y239.522
G01 X250.639 Y239.737
G01 X250.595 Y239.756
G01 X250.089 Y240.056
G01 X249.619 Y240.376
G01 X249.181 Y240.786
G01 X248.837 Y241.152
G01 X248.487 Y241.675
G01 X248.279 Y242.033
G01 X248.041 Y242.690
G01 X247.961 Y242.961
G01 X247.885 Y243.848
G01 X247.884 Y243.878
G01 X248.038 Y244.725
G01 X248.396 Y245.450
G01 X248.750 Y245.807
G01 X248.921 Y246.006
G01 X249.152 Y246.113
G01 X249.370 Y246.233
G01 X249.566 Y246.359
G01 X249.748 Y246.377
G01 X249.927 Y246.404
G01 X250.102 Y246.440
G01 X250.274 Y246.484
G01 X250.277 Y246.485
G01 X250.456 Y246.443
G01 X250.641 Y246.410
G01 X250.830 Y246.387
G01 X250.994 Y246.376
G01 X251.234 Y246.233
G01 X251.491 Y246.106
G01 X251.659 Y246.036
G01 X252.110 Y245.580
G01 X252.216 Y245.484
G01 X252.615 Y244.754
G01 X252.816 Y243.887
G01 X252.796 Y243.050
G01 X252.788 Y242.935
G01 X252.618 Y242.274
G01 X252.516 Y241.957
G01 X252.232 Y241.404
G01 X251.997 Y241.011
G01 X251.617 Y240.552
G01 X251.245 Y240.156
G01 X250.784 Y239.793
G01 X250.291 Y239.452
G01 X250.284 Y239.448
G01 X249.760 Y239.187
G01 X249.212 Y238.954
G01 X249.154 Y238.931
G01 X248.586 Y238.781
G01 X248.001 Y238.660
G01 X247.903 Y238.643
G01 X247.312 Y238.608
G01 X246.713 Y238.604
G01 X246.585 Y238.607
G01 X245.995 Y238.688
G01 X245.405 Y238.801
G01 X245.262 Y238.832
G01 X244.696 Y239.028
G01 X244.137 Y239.253
G01 X243.994 Y239.316
G01 X243.473 Y239.618
G01 X242.968 Y239.946
G01 X242.837 Y240.037
G01 X242.385 Y240.435
G01 X241.954 Y240.854
G01 X241.845 Y240.966
G01 X241.478 Y241.443
G01 X241.139 Y241.935
G01 X241.060 Y242.057
G01 X240.794 Y242.596
G01 X240.559 Y243.142
G01 X240.513 Y243.260
G01 X240.359 Y243.839
G01 X240.239 Y244.417
G01 X240.222 Y244.516
G01 X240.188 Y245.113
G01 X240.188 Y245.701
G01 X240.190 Y245.763
G01 X240.281 Y246.357
G01 X240.405 Y246.932
G01 X240.408 Y246.944
G01 X240.626 Y247.513
G01 X240.850 Y248.001
G01 X241.201 Y248.526
G01 X241.478 Y248.887
G01 X241.984 Y249.351
G01 X242.247 Y249.564
G01 X242.976 Y249.950
G01 X243.099 Y250.007
G01 X243.977 Y250.205
G01 X244.819 Y250.161
G01 X245.482 Y249.919
G01 X245.568 Y249.893
G01 X245.802 Y249.692
G01 X246.044 Y249.513
G01 X246.172 Y249.430
G01 X246.271 Y249.256
G01 X246.378 Y249.091
G01 X246.492 Y248.934
G01 X246.587 Y248.817
G01 X246.621 Y248.640
G01 X246.665 Y248.463
G01 X246.717 Y248.287
G01 X246.779 Y248.113
G01 X246.783 Y248.104
G01 X246.752 Y247.864
G01 X246.738 Y247.618
G01 X246.740 Y247.365
G01 X246.741 Y247.349
G01 X246.555 Y246.905
G01 X246.456 Y246.613
G01 X245.941 Y245.955
G01 X245.219 Y245.431
G01 X244.328 Y245.089
G01 X243.604 Y244.990
G01 X243.316 Y244.967
G01 X242.669 Y245.024
G01 X242.239 Y245.089
G01 X241.653 Y245.275
G01 X241.157 Y245.468
G01 X240.635 Y245.767
G01 X240.131 Y246.100
G01 X239.684 Y246.498
G01 X239.254 Y246.931
G01 X239.221 Y246.966
G01 X238.863 Y247.448
G01 X238.527 Y247.957
G01 X238.478 Y248.036
G01 X238.222 Y248.582
G01 X237.992 Y249.150
G01 X237.949 Y249.265
G01 X237.803 Y249.856
G01 X237.687 Y250.459
G01 X237.664 Y250.602
G01 X237.637 Y251.214
G01 X237.639 Y251.830
G01 X237.645 Y251.987
G01 X237.736 Y252.596
G01 X237.857 Y253.200
G01 X237.894 Y253.359
G01 X238.102 Y253.939
G01 X238.337 Y254.508
G01 X238.403 Y254.655
G01 X238.719 Y255.185
G01 X239.059 Y255.695
G01 X239.147 Y255.819
G01 X239.559 Y256.276
G01 X239.990 Y256.707
G01 X240.089 Y256.801
G01 X240.582 Y257.167
G01 X241.086 Y257.501
G01 X241.181 Y257.560
G01 X241.736 Y257.820
G01 X242.294 Y258.044
G01 X242.367 Y258.070
G01 X242.964 Y258.211
G01 X243.556 Y258.313
G01 X243.586 Y258.318
G01 X244.205 Y258.330
G01 X244.776 Y258.304
G01 X245.400 Y258.177
G01 X245.877 Y258.047
G01 X246.493 Y257.760
G01 X246.835 Y257.575
G01 X247.442 Y257.079
G01 X247.604 Y256.931
G01 X248.150 Y256.167
G01 X248.454 Y255.341
G01 X248.508 Y254.515
G01 X248.401 Y254.145
G01 X248.326 Y253.776
G01 X248.322 Y253.750
G01 X248.189 Y253.567
G01 X248.069 Y253.381
G01 X247.963 Y253.192
G01 X247.919 Y253.103
G01 X247.769 Y252.998
G01 X247.624 Y252.886
G01 X247.484 Y252.766
G01 X247.351 Y252.640
G01 X247.335 Y252.624
G01 X247.128 Y252.564
G01 X246.920 Y252.489
G01 X246.713 Y252.399
G01 X246.618 Y252.354
G01 X246.237 Y252.354
G01 X245.848 Y252.322
G01 X245.824 Y252.319
G01 X245.013 Y252.532
G01 X244.247 Y252.993
G01 X243.586 Y253.683
G01 X243.188 Y254.370
G01 X243.084 Y254.574
G01 X242.883 Y255.226
G01 X242.788 Y255.621
G01 X242.738 Y256.256
G01 X242.731 Y256.773
G01 X242.816 Y257.386
G01 X242.935 Y257.971
G01 X243.143 Y258.547
G01 X243.391 Y259.121
G01 X243.404 Y259.151
G01 X243.726 Y259.673
G01 X244.082 Y260.185
G01 X244.131 Y260.250
G01 X244.553 Y260.700
G01 X245.004 Y261.133
G01 X245.091 Y261.212
G01 X245.597 Y261.572
G01 X246.126 Y261.910
G01 X246.248 Y261.983
G01 X246.818 Y262.240
G01 X247.404 Y262.469
G01 X247.553 Y262.522
G01 X248.165 Y262.665
G01 X248.785 Y262.778
G01 X248.949 Y262.802
G01 X249.579 Y262.824
G01 X250.209 Y262.815
G01 X250.375 Y262.807
G01 X250.998 Y262.707
G01 X251.612 Y262.577
G01 X251.767 Y262.538
G01 X252.357 Y262.319
G01 X252.931 Y262.073
G01 X253.063 Y262.011
G01 X253.597 Y261.682
G01 X254.107 Y261.329
G01 X254.206 Y261.256
G01 X254.664 Y260.827
G01 X255.089 Y260.382
G01 X255.150 Y260.314
G01 X255.511 Y259.802
G01 X255.834 Y259.280
G01 X255.858 Y259.239
G01 X256.105 Y258.658
G01 X256.307 Y258.089
G01 X256.426 Y257.456
G01 X256.490 Y256.928
G01 X256.460 Y256.251
G01 X256.414 Y255.818
G01 X256.198 Y255.092
G01 X256.100 Y254.820
G01 X255.586 Y253.986
G01 X254.917 Y253.358
G01 X254.150 Y252.965
G01 X253.654 Y252.892
G01 X253.346 Y252.823
G01 X253.089 Y252.878
G01 X252.835 Y252.914
G01 X252.586 Y252.933
G01 X252.568 Y252.933
G01 X252.403 Y253.033
G01 X252.234 Y253.123
G01 X252.062 Y253.204
G01 X251.888 Y253.276
G01 X251.878 Y253.280
G01 X251.749 Y253.434
G01 X251.608 Y253.583
G01 X251.457 Y253.726
G01 X251.332 Y253.834
G01 X251.210 Y254.124
G01 X251.062 Y254.410
G01 X250.978 Y254.553
G01 X250.868 Y255.299
G01 X250.851 Y255.386
G01 X250.974 Y256.274
G01 X251.355 Y257.152
G01 X251.890 Y257.844
G01 X251.987 Y257.958
G01 X252.546 Y258.415
G01 X252.847 Y258.632
G01 X253.438 Y258.927
G01 X253.898 Y259.121
G01 X254.515 Y259.276
G01 X255.093 Y259.382
G01 X255.719 Y259.404
G01 X256.360 Y259.387
G01 X256.374 Y259.386
G01 X256.991 Y259.279
G01 X257.612 Y259.134
G01 X257.680 Y259.116
G01 X258.266 Y258.887
G01 X258.847 Y258.622
G01 X258.946 Y258.573
G01 X259.478 Y258.230
G01 X259.998 Y257.855
G01 X260.108 Y257.770
G01 X260.566 Y257.327
G01 X261.004 Y256.857
G01 X261.108 Y256.738
G01 X261.474 Y256.211
G01 X261.814 Y255.664
G01 X261.899 Y255.519
G01 X262.157 Y254.929
G01 X262.385 Y254.327
G01 X262.441 Y254.165
G01 X262.580 Y253.536
G01 X262.688 Y252.902
G01 X262.710 Y252.738
G01 X262.725 Y252.094
G01 X262.707 Y251.455
G01 X262.698 Y251.301
G01 X262.587 Y250.668
G01 X262.445 Y250.049
G01 X262.411 Y249.920
G01 X262.177 Y249.323
G01 X261.915 Y248.749
G01 X261.869 Y248.656
G01 X261.521 Y248.119
G01 X261.148 Y247.613
G01 X261.109 Y247.563
G01 X260.655 Y247.108
G01 X260.184 Y246.691
G01 X260.178 Y246.686
G01 X259.629 Y246.333
G01 X259.132 Y246.058
G01 X258.493 Y245.828
G01 X258.034 Y245.695
G01 X257.296 Y245.616
G01 X256.948 Y245.600
G01 X256.053 Y245.737
G01 X255.939 Y245.761
G01 X255.063 Y246.148
G01 X254.373 Y246.720
G01 X254.000 Y247.296
G01 X253.905 Y247.426
G01 X253.838 Y247.732
G01 X253.751 Y248.025
G01 X253.685 Y248.206
G01 X253.711 Y248.414
G01 X253.725 Y248.620
G01 X253.728 Y248.823
G01 X253.723 Y248.996
G01 X253.808 Y249.172
G01 X253.885 Y249.353
G01 X253.953 Y249.539
G01 X254.012 Y249.731
G01 X254.013 Y249.732
G01 X254.200 Y249.927
G01 X254.377 Y250.138
G01 X254.534 Y250.353
G01 X255.013 Y250.639
G01 X255.251 Y250.804
G01 X256.118 Y251.040
G01 X257.076 Y251.029
G01 X258.026 Y250.768
G01 X258.064 Y250.755
G01 X258.740 Y250.387
G01 X259.017 Y250.215
G01 X259.534 Y249.759
G01 X259.870 Y249.423
G01 X260.256 Y248.893
G01 X260.564 Y248.407
G01 X260.824 Y247.819
G01 X261.049 Y247.209
G01 X261.182 Y246.584
G01 X261.280 Y245.939
G01 X261.286 Y245.883
G01 X261.290 Y245.242
G01 X261.257 Y244.590
G01 X261.249 Y244.489
G01 X261.124 Y243.855
G01 X260.964 Y243.221
G01 X260.927 Y243.092
G01 X260.679 Y242.491
G01 X260.398 Y241.898
G01 X260.327 Y241.759
G01 X259.964 Y241.214
G01 X259.573 Y240.685
G01 X259.468 Y240.552
G01 X259.005 Y240.086
G01 X258.519 Y239.642
G01 X258.387 Y239.528
G01 X257.841 Y239.159
G01 X257.280 Y238.818
G01 X257.130 Y238.734
G01 X256.523 Y238.477
G01 X255.909 Y238.253
G01 X255.755 Y238.202
G01 X255.111 Y238.069
G01 X254.469 Y237.970
G01 X254.326 Y237.953
G01 X253.671 Y237.949
G01 X253.025 Y237.980
G01 X252.909 Y237.989
G01 X252.268 Y238.116
G01 X251.646 Y238.277
G01 X251.570 Y238.299
G01 X250.967 Y238.556
G01 X250.393 Y238.843
G01 X250.370 Y238.856
G01 X249.828 Y239.238
G01 X249.359 Y239.618
G01 X248.902 Y240.125
G01 X248.580 Y240.533
G01 X248.230 Y241.176
G01 X248.060 Y241.540
G01 X247.851 Y242.369
G01 X247.811 Y242.576
G01 X247.829 Y243.573
G01 X248.095 Y244.468
G01 X248.575 Y245.205
G01 X248.884 Y245.436
G01 X249.166 Y245.684
G01 X249.221 Y245.737
G01 X249.445 Y245.805
G01 X249.660 Y245.884
G01 X249.865 Y245.974
G01 X249.979 Y246.030
G01 X250.174 Y246.023
G01 X250.370 Y246.026
G01 X250.566 Y246.038
G01 X250.762 Y246.060
G01 X250.784 Y246.064
G01 X251.009 Y245.979
G01 X251.243 Y245.908
G01 X251.486 Y245.850
G01 X251.571 Y245.834
G01 X251.923 Y245.573
G01 X252.275 Y245.353
G01 X252.835 Y244.648
G01 X253.199 Y243.760
G01 X253.327 Y242.742
G01 X253.234 Y241.917
G01 X253.190 Y241.653
G01 X252.951 Y240.972
G01 X252.777 Y240.561
G01 X252.419 Y239.986
G01 X252.092 Y239.531
G01 X251.633 Y239.059
G01 X251.155 Y238.627
G01 X250.612 Y238.264
G01 X250.037 Y237.928
G01 X250.001 Y237.908
G01 X249.395 Y237.663
G01 X248.765 Y237.448
G01 X248.677 Y237.421
G01 X248.030 Y237.301
G01 X247.368 Y237.214
G01 X247.240 Y237.202
G01 X246.578 Y237.211
G01 X245.910 Y237.255
G01 X245.757 Y237.270
G01 X245.104 Y237.409
G01 X244.455 Y237.582
G01 X244.292 Y237.630
G01 X243.676 Y237.895
G01 X243.072 Y238.189
G01 X242.915 Y238.272
G01 X242.360 Y238.651
G01 X241.825 Y239.057
G01 X241.687 Y239.168
G01 X241.215 Y239.648
G01 X240.770 Y240.148
G01 X240.662 Y240.278
G01 X240.293 Y240.839
G01 X239.956 Y241.413
G01 X239.883 Y241.547
G01 X239.632 Y242.168
G01 X239.417 Y242.793
G01 X239.379 Y242.916
G01 X239.257 Y243.573
G01 X239.174 Y244.225
G01 X239.165 Y244.317
G01 X239.179 Y244.986
G01 X239.232 Y245.639
G01 X239.237 Y245.683
G01 X239.392 Y246.339
G01 X239.578 Y246.949
G01 X239.879 Y247.569
G01 X240.155 Y248.055
G01 X240.614 Y248.620
G01 X240.920 Y248.952
G01 X241.578 Y249.445
G01 X241.817 Y249.603
G01 X242.782 Y249.986
G01 X243.749 Y250.096
G01 X244.649 Y249.941
G01 X245.079 Y249.704
G01 X245.421 Y249.548
G01 X245.596 Y249.346
G01 X245.780 Y249.159
G01 X245.970 Y248.990
G01 X246.011 Y248.957
G01 X246.086 Y248.768
G01 X246.171 Y248.585
G01 X246.264 Y248.407
G01 X246.365 Y248.234
G01 X246.375 Y248.219
G01 X246.386 Y247.999
G01 X246.411 Y247.775
G01 X246.449 Y247.550
G01 X246.483 Y247.395
G01 X246.398 Y247.047
G01 X246.338 Y246.684
G01 X246.323 Y246.551
G01 X245.895 Y245.756
G01 X245.219 Y245.073
G01 X244.328 Y244.563
G01 X243.456 Y244.316
G01 X243.268 Y244.274
G01 X242.510 Y244.237
G01 X242.098 Y244.243
G01 X241.408 Y244.364
G01 X240.881 Y244.492
G01 X240.256 Y244.749
G01 X239.686 Y245.027
G01 X239.135 Y245.404
G01 X238.598 Y245.824
G01 X238.580 Y245.838
G01 X238.119 Y246.320
G01 X237.678 Y246.837
G01 X237.628 Y246.899
G01 X237.271 Y247.466
G01 X236.940 Y248.061
G01 X236.884 Y248.169
G01 X236.644 Y248.800
G01 X236.435 Y249.450
G01 X236.394 Y249.595
G01 X236.281 Y250.265
G01 X236.202 Y250.945
G01 X236.187 Y251.114
G01 X236.207 Y251.797
G01 X236.260 Y252.481
G01 X236.279 Y252.660
G01 X236.431 Y253.329
G01 X236.615 Y253.990
G01 X236.669 Y254.164
G01 X236.948 Y254.792
G01 X237.255 Y255.402
G01 X237.339 Y255.557
G01 X237.734 Y256.118
G01 X238.152 Y256.655
G01 X238.256 Y256.779
G01 X238.751 Y257.252
G01 X239.264 Y257.692
G01 X239.373 Y257.780
G01 X239.951 Y258.143
G01 X240.538 Y258.469
G01 X240.633 Y258.518
G01 X241.272 Y258.758
G01 X241.910 Y258.955
G01 X241.971 Y258.972
G01 X242.648 Y259.074
G01 X243.316 Y259.132
G01 X243.317 Y259.132
G01 X244.013 Y259.086
G01 X244.604 Y259.008
G01 X245.300 Y258.797
G01 X245.766 Y258.623
G01 X246.456 Y258.215
G01 X246.748 Y258.018
G01 X247.446 Y257.306
G01 X247.502 Y257.243
G01 X247.998 Y256.361
G01 X248.218 Y255.438
G01 X248.167 Y254.786
G01 X248.163 Y254.542
G01 X248.030 Y254.257
G01 X247.921 Y253.970
G01 X247.850 Y253.741
G01 X247.698 Y253.586
G01 X247.556 Y253.425
G01 X247.425 Y253.258
G01 X247.310 Y253.096
G01 X247.122 Y253.001
G01 X246.937 Y252.895
G01 X246.756 Y252.778
G01 X246.589 Y252.658
G01 X246.289 Y252.610
G01 X245.985 Y252.538
G01 X245.745 Y252.465
G01 X245.088 Y252.533
G01 X244.842 Y252.543
G01 X243.948 Y252.899
G01 X243.132 Y253.524
G01 X242.512 Y254.319
G01 X242.459 Y254.393
G01 X242.121 Y255.124
G01 X241.986 Y255.466
G01 X241.835 Y256.178
G01 X241.759 Y256.692
G01 X241.765 Y257.387
G01 X241.810 Y258.007
G01 X241.959 Y258.673
G01 X242.154 Y259.343
G01 X242.155 Y259.345
G01 X242.437 Y259.964
G01 X242.761 Y260.577
G01 X242.794 Y260.635
G01 X243.196 Y261.186
G01 X243.636 Y261.723
G01 X243.710 Y261.808
G01 X244.217 Y262.272
G01 X244.755 Y262.713
G01 X244.871 Y262.802
G01 X245.463 Y263.160
G01 X246.079 Y263.490
G01 X246.229 Y263.565
G01 X246.884 Y263.803
G01 X247.553 Y264.008
G01 X247.728 Y264.056
G01 X248.419 Y264.163
G01 X249.115 Y264.236
G01 X249.301 Y264.250
G01 X250.001 Y264.221
G01 X250.697 Y264.158
G01 X250.878 Y264.136
G01 X251.559 Y263.972
G01 X252.226 Y263.776
G01 X252.388 Y263.723
G01 X253.023 Y263.430
G01 X253.635 Y263.109
G01 X253.765 Y263.035
G01 X254.328 Y262.624
G01 X254.860 Y262.189
G01 X254.950 Y262.110
G01 X255.418 Y261.596
G01 X255.848 Y261.065
G01 X255.896 Y261.002
G01 X256.249 Y260.401
G01 X256.557 Y259.792
G01 X256.567 Y259.772
G01 X256.787 Y259.101
G01 X256.945 Y258.488
G01 X257.013 Y257.760
G01 X257.028 Y257.220
G01 X256.916 Y256.440
G01 X256.833 Y256.038
G01 X256.472 Y255.176
G01 X256.389 Y255.005
G01 X255.742 Y254.174
G01 X254.949 Y253.588
G01 X254.078 Y253.274
G01 X254.074 Y253.272
G01 X253.694 Y253.277
G01 X253.323 Y253.253
G01 X253.188 Y253.237
G01 X252.964 Y253.321
G01 X252.740 Y253.391
G01 X252.515 Y253.446
G01 X252.360 Y253.477
G01 X252.199 Y253.609
G01 X252.031 Y253.734
G01 X251.856 Y253.850
G01 X251.674 Y253.959
G01 X251.657 Y253.968
G01 X251.514 Y254.194
G01 X251.353 Y254.415
G01 X251.174 Y254.630
G01 X251.137 Y254.671
G01 X250.991 Y255.162
G01 X250.848 Y255.535
G01 X250.825 Y256.498
G01 X251.085 Y257.493
G01 X251.630 Y258.447
G01 X252.218 Y259.077
G01 X252.445 Y259.293
G01 X253.073 Y259.718
G01 X253.497 Y259.966
G01 X254.164 Y260.228
G01 X254.742 Y260.413
G01 X255.432 Y260.525
G01 X256.121 Y260.592
G01 X256.814 Y260.558
G01 X257.518 Y260.481
G01 X257.568 Y260.474
G01 X258.241 Y260.301
G01 X258.915 Y260.086
G01 X259.012 Y260.051
G01 X259.641 Y259.745
G01 X260.261 Y259.401
G01 X260.381 Y259.329
G01 X260.942 Y258.902
G01 X261.485 Y258.442
G01 X261.608 Y258.331
G01 X262.078 Y257.800
G01 X262.523 Y257.242
G01 X262.633 Y257.096
G01 X262.992 Y256.481
G01 X263.322 Y255.848
G01 X263.404 Y255.677
G01 X263.639 Y255.003
G01 X263.840 Y254.318
G01 X263.887 Y254.136
G01 X263.987 Y253.429
G01 X264.051 Y252.721
G01 X264.062 Y252.543
G01 X264.022 Y251.831
G01 X263.947 Y251.129
G01 X263.925 Y250.970
G01 X263.747 Y250.281
G01 X263.535 Y249.612
G01 X263.491 Y249.487
G01 X263.179 Y248.849
G01 X262.838 Y248.241
G01 X262.790 Y248.161
G01 X262.354 Y247.599
G01 X261.895 Y247.076
G01 X261.867 Y247.046
G01 X261.318 Y246.585
G01 X260.780 Y246.188
G01 X260.127 Y245.849
G01 X259.595 Y245.615
G01 X258.837 Y245.425
G01 X258.382 Y245.340
G01 X257.489 Y245.341
G01 X257.213 Y245.357
G01 X256.157 Y245.646
G01 X255.274 Y246.167
G01 X254.616 Y246.871
G01 X254.427 Y247.306
G01 X254.218 Y247.695
G01 X254.202 Y247.965
G01 X254.170 Y248.228
G01 X254.123 Y248.482
G01 X254.102 Y248.572
G01 X254.159 Y248.777
G01 X254.206 Y248.985
G01 X254.242 Y249.194
G01 X254.268 Y249.404
G01 X254.271 Y249.429
G01 X254.408 Y249.630
G01 X254.535 Y249.843
G01 X254.651 Y250.067
G01 X254.711 Y250.197
G01 X255.032 Y250.458
G01 X255.339 Y250.752
G01 X255.393 Y250.809
G01 X256.271 Y251.210
G01 X257.288 Y251.357
G01 X258.379 Y251.220
G01 X259.251 Y250.886
G01 X259.472 Y250.787
G01 X260.131 Y250.343
G01 X260.494 Y250.064
G01 X261.001 Y249.527
G01 X261.377 Y249.074
G01 X261.746 Y248.460
G01 X262.059 Y247.853
G01 X262.289 Y247.184
G01 X262.482 Y246.487
G01 X262.490 Y246.455
G01 X262.578 Y245.753
G01 X262.627 Y245.034
G01 X262.631 Y244.942
G01 X262.577 Y244.233
G01 X262.483 Y243.517
G01 X262.461 Y243.385
G01 X262.267 Y242.695
G01 X262.034 Y242.008
G01 X261.977 Y241.856
G01 X261.649 Y241.213
G01 X261.287 Y240.582
G01 X261.192 Y240.427
G01 X260.743 Y239.857
G01 X260.266 Y239.307
G01 X260.136 Y239.166
G01 X259.584 Y238.692
G01 X259.010 Y238.245
G01 X258.853 Y238.131
G01 X258.220 Y237.772
G01 X257.572 Y237.446
G01 X257.403 Y237.367
G01 X256.713 Y237.138
G01 X256.017 Y236.946
G01 X255.852 Y236.906
G01 X255.132 Y236.816
G01 X254.417 Y236.766
G01 X254.273 Y236.760
G01 X253.551 Y236.815
G01 X252.845 Y236.909
G01 X252.738 Y236.927
G01 X252.042 Y237.127
G01 X251.373 Y237.364
G01 X251.318 Y237.385
G01 X250.676 Y237.728
G01 X250.077 Y238.099
G01 X249.513 Y238.581
G01 X249.068 Y239.015
G01 X248.607 Y239.642
G01 X248.330 Y240.073
G01 X248.000 Y240.873
G01 X247.886 Y241.203
G01 X247.745 Y242.299
G01 X247.742 Y242.331
G01 X247.886 Y243.387
G01 X248.289 Y244.301
G01 X248.703 Y244.757
G01 X248.908 Y245.017
G01 X249.186 Y245.161
G01 X249.447 Y245.319
G01 X249.685 Y245.487
G01 X249.908 Y245.520
G01 X250.126 Y245.563
G01 X250.341 Y245.616
G01 X250.550 Y245.680
G01 X250.555 Y245.682
G01 X250.780 Y245.639
G01 X251.010 Y245.609
G01 X251.245 Y245.591
G01 X251.446 Y245.585
G01 X251.753 Y245.422
G01 X252.079 Y245.278
G01 X252.285 Y245.201
G01 X252.875 Y244.656
G01 X253.002 Y244.551
G01 X253.534 Y243.670
G01 X253.827 Y242.611
G01 X253.847 Y241.585
G01 X253.843 Y241.436
G01 X253.669 Y240.616
G01 X253.559 Y240.215
G01 X253.239 Y239.521
G01 X252.969 Y239.022
G01 X252.525 Y238.437
G01 X252.086 Y237.929
G01 X251.538 Y237.458
G01 X250.949 Y237.013
G01 X250.939 Y237.006
G01 X250.308 Y236.658
G01 X249.644 Y236.341
G01 X249.573 Y236.310
G01 X248.882 Y236.096
G01 X248.168 Y235.917
G01 X248.046 Y235.890
G01 X247.321 Y235.816
G01 X246.583 Y235.780
G01 X246.425 Y235.777
G01 X245.694 Y235.847
G01 X244.961 Y235.955
G01 X244.783 Y235.987
G01 X244.076 Y236.199
G01 X243.376 Y236.446
G01 X243.196 Y236.517
G01 X242.540 Y236.863
G01 X241.902 Y237.240
G01 X241.735 Y237.346
G01 X241.157 Y237.813
G01 X240.606 Y238.306
G01 X240.466 Y238.438
G01 X239.990 Y239.008
G01 X239.547 Y239.596
G01 X239.444 Y239.742
G01 X239.089 Y240.392
G01 X238.772 Y241.052
G01 X238.709 Y241.195
G01 X238.491 Y241.900
G01 X238.314 Y242.605
G01 X238.288 Y242.725
G01 X238.216 Y243.459
G01 X238.187 Y244.182
G01 X238.187 Y244.258
G01 X238.268 Y244.994
G01 X238.392 Y245.707
G01 X238.395 Y245.720
G01 X238.635 Y246.432
G01 X238.886 Y247.042
G01 X239.293 Y247.707
G01 X239.615 Y248.162
G01 X240.216 Y248.760
G01 X240.526 Y249.032
G01 X241.413 Y249.547
G01 X241.552 Y249.619
G01 X242.621 Y249.904
G01 X243.657 Y249.890
G01 X244.455 Y249.631
G01 X244.590 Y249.595
G01 X244.881 Y249.363
G01 X245.181 Y249.158
G01 X245.353 Y249.055
G01 X245.482 Y248.848
G01 X245.620 Y248.651
G01 X245.767 Y248.465
G01 X245.892 Y248.320
G01 X245.943 Y248.103
G01 X246.004 Y247.887
G01 X246.078 Y247.673
G01 X246.162 Y247.461
G01 X246.166 Y247.453
G01 X246.139 Y247.152
G01 X246.133 Y246.843
G01 X246.148 Y246.527
G01 X246.149 Y246.522
G01 X245.935 Y245.950
G01 X245.833 Y245.603
G01 X245.229 Y244.770
G01 X244.366 Y244.092
G01 X243.305 Y243.636
G01 X243.286 Y243.629
G01 X242.408 Y243.473
G01 X242.048 Y243.431
G01 X241.254 Y243.470
G01 X240.718 Y243.530
G01 X239.990 Y243.730
G01 X239.369 Y243.944
G01 X238.715 Y244.286
G01 X238.079 Y244.671
G01 X237.512 Y245.138
G01 X236.963 Y245.648
G01 X236.919 Y245.692
G01 X236.457 Y246.266
G01 X236.021 Y246.875
G01 X235.957 Y246.971
G01 X235.616 Y247.629
G01 X235.307 Y248.313
G01 X235.248 Y248.455
G01 X235.042 Y249.172
G01 X234.871 Y249.906
G01 X234.836 Y250.082
G01 X234.772 Y250.831
G01 X234.746 Y251.586
G01 X234.746 Y251.781
G01 X234.829 Y252.531
G01 X234.949 Y253.277
G01 X234.987 Y253.474
G01 X235.214 Y254.196
G01 X235.476 Y254.904
G01 X235.550 Y255.088
G01 X235.913 Y255.752
G01 X236.305 Y256.392
G01 X236.408 Y256.549
G01 X236.892 Y257.128
G01 X237.399 Y257.677
G01 X237.516 Y257.795
G01 X238.103 Y258.267
G01 X238.705 Y258.700
G01 X238.818 Y258.776
G01 X239.486 Y259.119
G01 X240.160 Y259.419
G01 X240.246 Y259.454
G01 X240.972 Y259.655
G01 X241.693 Y259.807
G01 X241.727 Y259.813
G01 X242.486 Y259.856
G01 X243.183 Y259.850
G01 X243.955 Y259.721
G01 X244.541 Y259.584
G01 X245.312 Y259.259
G01 X245.732 Y259.050
G01 X246.507 Y258.461
G01 X246.700 Y258.296
G01 X247.400 Y257.385
G01 X247.805 Y256.389
G01 X247.905 Y255.381
G01 X247.791 Y254.941
G01 X247.715 Y254.504
G01 X247.707 Y254.439
G01 X247.554 Y254.214
G01 X247.417 Y253.986
G01 X247.296 Y253.755
G01 X247.239 Y253.631
G01 X247.060 Y253.497
G01 X246.886 Y253.354
G01 X246.720 Y253.203
G01 X246.561 Y253.043
G01 X246.543 Y253.023
G01 X246.286 Y252.939
G01 X246.029 Y252.837
G01 X245.774 Y252.716
G01 X245.675 Y252.664
G01 X245.188 Y252.647
G01 X244.702 Y252.590
G01 X243.698 Y252.819
G01 X242.739 Y253.353
G01 X241.899 Y254.173
G01 X241.390 Y254.985
G01 X241.247 Y255.245
G01 X240.975 Y256.029
G01 X240.839 Y256.517
G01 X240.752 Y257.288
G01 X240.721 Y257.927
G01 X240.797 Y258.678
G01 X240.918 Y259.402
G01 X241.147 Y260.115
G01 X241.425 Y260.826
G01 X241.443 Y260.868
G01 X241.812 Y261.519
G01 X242.226 Y262.160
G01 X242.285 Y262.245
G01 X242.780 Y262.813
G01 X243.313 Y263.361
G01 X243.418 Y263.463
G01 X244.020 Y263.925
G01 X244.651 Y264.361
G01 X244.799 Y264.456
G01 X245.484 Y264.795
G01 X246.190 Y265.100
G01 X246.371 Y265.172
G01 X247.112 Y265.373
G01 X247.864 Y265.537
G01 X248.065 Y265.574
G01 X248.833 Y265.628
G01 X249.602 Y265.644
G01 X249.806 Y265.642
G01 X250.570 Y265.546
G01 X251.325 Y265.413
G01 X251.516 Y265.373
G01 X252.246 Y265.131
G01 X252.956 Y264.854
G01 X253.119 Y264.785
G01 X253.786 Y264.405
G01 X254.423 Y263.996
G01 X254.545 Y263.912
G01 X255.121 Y263.408
G01 X255.659 Y262.882
G01 X255.734 Y262.803
G01 X256.196 Y262.193
G01 X256.612 Y261.568
G01 X256.641 Y261.522
G01 X256.967 Y260.824
G01 X257.235 Y260.141
G01 X257.405 Y259.371
G01 X257.503 Y258.736
G01 X257.493 Y257.904
G01 X257.454 Y257.384
G01 X257.215 Y256.477
G01 X257.111 Y256.158
G01 X256.516 Y255.125
G01 X255.725 Y254.338
G01 X254.806 Y253.834
G01 X254.240 Y253.738
G01 X253.833 Y253.636
G01 X253.529 Y253.693
G01 X253.228 Y253.729
G01 X252.933 Y253.745
G01 X252.882 Y253.745
G01 X252.680 Y253.860
G01 X252.473 Y253.965
G01 X252.263 Y254.058
G01 X252.049 Y254.140
G01 X252.030 Y254.147
G01 X251.864 Y254.334
G01 X251.685 Y254.515
G01 X251.492 Y254.688
G01 X251.346 Y254.806
G01 X251.179 Y255.173
G01 X250.978 Y255.535
G01 X250.890 Y255.675
G01 X250.713 Y256.667
G01 X250.707 Y256.690
G01 X250.828 Y257.781
G01 X251.264 Y258.869
G01 X251.875 Y259.713
G01 X252.008 Y259.878
G01 X252.664 Y260.450
G01 X253.034 Y260.735
G01 X253.740 Y261.115
G01 X254.301 Y261.372
G01 X255.044 Y261.584
G01 X255.751 Y261.738
G01 X256.512 Y261.789
G01 X257.291 Y261.793
G01 X257.316 Y261.792
G01 X258.071 Y261.686
G01 X258.832 Y261.534
G01 X258.920 Y261.514
G01 X259.642 Y261.257
G01 X260.359 Y260.957
G01 X260.485 Y260.900
G01 X261.146 Y260.503
G01 X261.793 Y260.068
G01 X261.933 Y259.967
G01 X262.508 Y259.445
G01 X263.060 Y258.891
G01 X263.193 Y258.749
G01 X263.658 Y258.122
G01 X264.093 Y257.470
G01 X264.202 Y257.295
G01 X264.539 Y256.588
G01 X264.840 Y255.865
G01 X264.915 Y255.670
G01 X265.108 Y254.910
G01 X265.264 Y254.144
G01 X265.298 Y253.945
G01 X265.340 Y253.162
G01 X265.343 Y252.385
G01 X265.338 Y252.199
G01 X265.227 Y251.425
G01 X265.078 Y250.667
G01 X265.042 Y250.511
G01 X264.780 Y249.776
G01 X264.483 Y249.068
G01 X264.432 Y248.956
G01 X264.028 Y248.290
G01 X263.594 Y247.661
G01 X263.551 Y247.603
G01 X263.015 Y247.033
G01 X262.456 Y246.509
G01 X262.454 Y246.507
G01 X261.797 Y246.057
G01 X261.209 Y245.709
G01 X260.436 Y245.406
G01 X259.893 Y245.232
G01 X258.987 Y245.111
G01 X258.583 Y245.082
G01 X257.458 Y245.226
G01 X257.357 Y245.244
G01 X256.287 Y245.685
G01 X255.436 Y246.358
G01 X255.016 Y246.985
G01 X254.851 Y247.201
G01 X254.768 Y247.552
G01 X254.663 Y247.889
G01 X254.565 Y248.141
G01 X254.591 Y248.388
G01 X254.604 Y248.633
G01 X254.604 Y248.876
G01 X254.593 Y249.101
G01 X254.694 Y249.319
G01 X254.784 Y249.544
G01 X254.864 Y249.776
G01 X254.929 Y250.003
G01 X255.162 Y250.257
G01 X255.383 Y250.534
G01 X255.549 Y250.772
G01 X256.179 Y251.171
G01 X256.413 Y251.340
G01 X257.464 Y251.652
G01 X258.635 Y251.667
G01 X259.755 Y251.391
G01 X259.850 Y251.363
G01 X260.669 Y250.946
G01 X261.030 Y250.734
G01 X261.667 Y250.202
G01 X262.096 Y249.795
G01 X262.581 Y249.168
G01 X262.977 Y248.580
G01 X263.312 Y247.878
G01 X263.608 Y247.140
G01 X263.609 Y247.138
G01 X263.791 Y246.385
G01 X263.932 Y245.607
G01 X263.943 Y245.532
G01 X263.970 Y244.754
G01 X263.953 Y243.964
G01 X263.947 Y243.835
G01 X263.818 Y243.062
G01 X263.646 Y242.288
G01 X263.605 Y242.126
G01 X263.325 Y241.389
G01 X263.005 Y240.660
G01 X262.922 Y240.486
G01 X262.502 Y239.813
G01 X262.046 Y239.159
G01 X261.923 Y238.992
G01 X261.378 Y238.411
G01 X260.805 Y237.856
G01 X260.647 Y237.713
G01 X259.999 Y237.247
G01 X259.331 Y236.814
G01 X259.152 Y236.707
G01 X258.426 Y236.375
G01 X257.690 Y236.082
G01 X257.507 Y236.016
G01 X256.732 Y235.832
G01 X255.957 Y235.691
G01 X255.787 Y235.665
G01 X254.993 Y235.639
G01 X254.211 Y235.655
G01 X254.074 Y235.662
G01 X253.292 Y235.795
G01 X252.534 Y235.969
G01 X252.447 Y235.992
G01 X251.707 Y236.284
G01 X251.002 Y236.614
G01 X250.980 Y236.625
G01 X250.311 Y237.073
G01 X249.738 Y237.512
G01 X249.166 Y238.117
G01 X248.772 Y238.591
G01 X248.325 Y239.370
G01 X248.117 Y239.789
G01 X247.836 Y240.816
G01 X247.790 Y241.028
G01 X247.787 Y242.228
G01 X248.087 Y243.311
G01 X248.645 Y244.201
G01 X248.650 Y244.209
G01 X248.994 Y244.471
G01 X249.309 Y244.752
G01 X249.420 Y244.862
G01 X249.680 Y244.944
G01 X249.930 Y245.039
G01 X250.169 Y245.146
G01 X250.331 Y245.228
G01 X250.568 Y245.223
G01 X250.806 Y245.229
G01 X251.045 Y245.248
G01 X251.284 Y245.278
G01 X251.306 Y245.282
G01 X251.593 Y245.179
G01 X251.893 Y245.094
G01 X252.205 Y245.027
G01 X252.266 Y245.016
G01 X252.743 Y244.678
G01 X253.131 Y244.444
G01 X253.828 Y243.597
G01 X254.291 Y242.523
G01 X254.472 Y241.285
G01 X254.385 Y240.309
G01 X254.334 Y239.955
G01 X254.068 Y239.135
G01 X253.861 Y238.614
G01 X253.448 Y237.913
G01 X253.058 Y237.342
G01 X252.518 Y236.759
G01 X251.946 Y236.216
G01 X251.302 Y235.761
G01 X250.618 Y235.337
G01 X250.567 Y235.308
G01 X249.842 Y234.993
G01 X249.088 Y234.714
G01 X248.976 Y234.677
G01 X248.198 Y234.511
G01 X247.401 Y234.386
G01 X247.242 Y234.366
G01 X246.441 Y234.357
G01 X245.633 Y234.389
G01 X245.443 Y234.402
G01 X244.651 Y234.550
G01 X243.862 Y234.738
G01 X243.661 Y234.793
G01 X242.908 Y235.093
G01 X242.170 Y235.430
G01 X241.977 Y235.526
G01 X241.294 Y235.966
G01 X240.636 Y236.439
G01 X240.466 Y236.569
G01 X239.882 Y237.134
G01 X239.330 Y237.723
G01 X239.195 Y237.876
G01 X238.733 Y238.542
G01 X238.310 Y239.224
G01 X238.218 Y239.382
G01 X237.897 Y240.124
G01 X237.619 Y240.872
G01 X237.571 Y241.015
G01 X237.405 Y241.805
G01 X237.286 Y242.588
G01 X237.273 Y242.694
G01 X237.271 Y243.502
G01 X237.318 Y244.292
G01 X237.322 Y244.338
G01 X237.492 Y245.135
G01 X237.697 Y245.866
G01 X238.046 Y246.626
G01 X238.360 Y247.207
G01 X238.907 Y247.908
G01 X239.255 Y248.300
G01 X240.060 Y248.924
G01 X240.315 Y249.100
G01 X241.463 Y249.578
G01 X242.618 Y249.726
G01 X243.699 Y249.553
G01 X244.166 Y249.297
G01 X244.630 Y249.091
G01 X244.831 Y248.861
G01 X245.041 Y248.649
