;  Created by Sandify
;  https://sandify.org
;  Version: 0.2.6
;
;  Machine type: Rectangular
;    Min X (mm): 0
;    Max X (mm): 500
;    Min Y (mm): 0
;    Max Y (mm): 500
;  Content type: shape
;  Layer:
;    Shape: FileImport
;    Name: summer.thr
;    From file:: summer.thr
;    Aspect Ratio: true
;    Comments: 
;    Visible: true
;    Initial width: 10
;    Initial height: 10
;    X offset: 0
;    Y offset: 0
;    Rotate (degrees): 0
;    Reverse path: false
;    Fine tuning:
;      Connect to next layer: line
;      Draw portion of path (%): 100
;      Backtrack at end (%): 0
;      Rotate starting point (%): 0
;  Reverse export path: false
;
; File name: 'summer'
; File type: gcode
;

G01 X250.000 Y250.000
G01 X250.011 Y250.224
G01 X250.044 Y250.447
G01 X250.099 Y250.666
G01 X250.175 Y250.880
G01 X250.273 Y251.088
G01 X250.391 Y251.289
G01 X250.529 Y251.479
G01 X250.687 Y251.659
G01 X250.864 Y251.826
G01 X251.058 Y251.979
G01 X251.269 Y252.117
G01 X251.271 Y252.119
G01 X325.000 Y375.000
G01 X325.000 Y375.010
G01 X325.000 Y375.015
G01 X325.001 Y375.020
G01 X325.001 Y375.025
G01 X325.002 Y375.030
G01 X325.002 Y375.035
G01 X325.003 Y375.040
G01 X325.004 Y375.045
G01 X325.005 Y375.049
G01 X325.006 Y375.054
G01 X325.007 Y375.059
G01 X325.008 Y375.064
G01 X325.010 Y375.069
G01 X325.011 Y375.074
G01 X325.013 Y375.079
G01 X325.014 Y375.083
G01 X325.016 Y375.088
G01 X325.018 Y375.093
G01 X325.020 Y375.097
G01 X325.022 Y375.102
G01 X325.024 Y375.107
G01 X325.026 Y375.111
G01 X325.028 Y375.116
G01 X325.031 Y375.120
G01 X325.033 Y375.125
G01 X325.036 Y375.129
G01 X325.038 Y375.134
G01 X325.041 Y375.138
G01 X325.044 Y375.143
G01 X325.047 Y375.147
G01 X325.050 Y375.151
G01 X325.053 Y375.155
G01 X325.056 Y375.159
G01 X325.060 Y375.164
G01 X325.063 Y375.168
G01 X325.067 Y375.172
G01 X325.070 Y375.176
G01 X325.074 Y375.179
G01 X325.077 Y375.183
G01 X325.081 Y375.187
G01 X325.085 Y375.191
G01 X325.089 Y375.194
G01 X325.093 Y375.198
G01 X325.097 Y375.202
G01 X325.102 Y375.205
G01 X325.106 Y375.208
G01 X325.110 Y375.212
G01 X325.115 Y375.215
G01 X325.119 Y375.218
G01 X325.124 Y375.221
G01 X325.129 Y375.224
G01 X325.133 Y375.227
G01 X325.138 Y375.230
G01 X325.143 Y375.233
G01 X325.148 Y375.236
G01 X325.153 Y375.239
G01 X325.158 Y375.241
G01 X325.163 Y375.244
G01 X325.168 Y375.246
G01 X325.174 Y375.249
G01 X325.179 Y375.251
G01 X325.185 Y375.253
G01 X325.190 Y375.255
G01 X325.196 Y375.257
G01 X325.201 Y375.259
G01 X325.207 Y375.261
G01 X325.213 Y375.263
G01 X325.218 Y375.265
G01 X325.224 Y375.266
G01 X325.230 Y375.268
G01 X325.236 Y375.269
G01 X325.242 Y375.271
G01 X325.248 Y375.272
G01 X325.254 Y375.273
G01 X325.260 Y375.274
G01 X325.267 Y375.275
G01 X325.273 Y375.276
G01 X325.279 Y375.277
G01 X325.285 Y375.277
G01 X325.292 Y375.278
G01 X325.298 Y375.278
G01 X325.305 Y375.279
G01 X325.311 Y375.279
G01 X325.318 Y375.279
G01 X325.324 Y375.279
G01 X325.331 Y375.279
G01 X325.337 Y375.279
G01 X325.344 Y375.279
G01 X325.351 Y375.278
G01 X325.357 Y375.278
G01 X325.364 Y375.277
G01 X325.371 Y375.277
G01 X325.378 Y375.276
G01 X325.384 Y375.275
G01 X325.391 Y375.274
G01 X325.398 Y375.273
G01 X325.405 Y375.271
G01 X325.412 Y375.270
G01 X325.419 Y375.269
G01 X325.425 Y375.267
G01 X325.432 Y375.266
G01 X325.439 Y375.264
G01 X325.446 Y375.262
G01 X325.453 Y375.260
G01 X325.460 Y375.258
G01 X325.467 Y375.256
G01 X325.474 Y375.253
G01 X325.481 Y375.251
G01 X325.488 Y375.248
G01 X325.494 Y375.245
G01 X325.501 Y375.243
G01 X325.508 Y375.240
G01 X325.515 Y375.237
G01 X325.522 Y375.234
G01 X325.529 Y375.230
G01 X325.536 Y375.227
G01 X325.543 Y375.224
G01 X325.549 Y375.220
G01 X325.556 Y375.216
G01 X325.563 Y375.212
G01 X325.570 Y375.209
G01 X325.577 Y375.204
G01 X325.583 Y375.200
G01 X325.590 Y375.196
G01 X325.597 Y375.192
G01 X325.603 Y375.187
G01 X325.610 Y375.183
G01 X325.616 Y375.178
G01 X325.623 Y375.173
G01 X325.630 Y375.168
G01 X325.636 Y375.163
G01 X325.642 Y375.158
G01 X325.649 Y375.152
G01 X325.655 Y375.147
G01 X325.661 Y375.142
G01 X325.668 Y375.136
G01 X325.674 Y375.130
G01 X325.680 Y375.124
G01 X325.686 Y375.118
G01 X325.692 Y375.112
G01 X325.698 Y375.106
G01 X325.704 Y375.100
G01 X325.710 Y375.093
G01 X325.716 Y375.087
G01 X325.722 Y375.080
G01 X325.727 Y375.074
G01 X325.733 Y375.067
G01 X325.739 Y375.060
G01 X325.744 Y375.053
G01 X325.750 Y375.046
G01 X325.755 Y375.038
G01 X325.760 Y375.031
G01 X325.766 Y375.024
G01 X325.771 Y375.016
G01 X325.776 Y375.008
G01 X325.781 Y375.001
G01 X325.786 Y374.993
G01 X325.791 Y374.985
G01 X325.795 Y374.977
G01 X325.800 Y374.969
G01 X325.805 Y374.960
G01 X325.809 Y374.952
G01 X325.814 Y374.944
G01 X325.818 Y374.935
G01 X325.822 Y374.926
G01 X325.827 Y374.918
G01 X325.831 Y374.909
G01 X325.835 Y374.900
G01 X325.838 Y374.891
G01 X325.842 Y374.882
G01 X325.846 Y374.873
G01 X325.850 Y374.864
G01 X325.853 Y374.854
G01 X325.856 Y374.845
G01 X325.860 Y374.835
G01 X325.863 Y374.826
G01 X325.866 Y374.816
G01 X325.869 Y374.806
G01 X325.872 Y374.797
G01 X325.875 Y374.787
G01 X325.877 Y374.777
G01 X325.880 Y374.767
G01 X325.882 Y374.757
G01 X325.884 Y374.746
G01 X325.887 Y374.736
G01 X325.889 Y374.726
G01 X325.891 Y374.715
G01 X325.893 Y374.705
G01 X325.894 Y374.694
G01 X325.896 Y374.684
G01 X325.897 Y374.673
G01 X325.899 Y374.663
G01 X325.900 Y374.652
G01 X325.901 Y374.641
G01 X325.902 Y374.630
G01 X325.903 Y374.619
G01 X325.903 Y374.608
G01 X325.904 Y374.597
G01 X325.904 Y374.586
G01 X325.905 Y374.575
G01 X325.905 Y374.564
G01 X325.905 Y374.552
G01 X325.905 Y374.541
G01 X325.905 Y374.530
G01 X325.904 Y374.519
G01 X325.904 Y374.507
G01 X325.903 Y374.496
G01 X325.902 Y374.484
G01 X325.902 Y374.473
G01 X325.901 Y374.461
G01 X325.899 Y374.450
G01 X325.898 Y374.438
G01 X325.897 Y374.426
G01 X325.895 Y374.415
G01 X325.893 Y374.403
G01 X325.891 Y374.391
G01 X325.889 Y374.380
G01 X325.887 Y374.368
G01 X325.885 Y374.356
G01 X325.882 Y374.344
G01 X325.880 Y374.332
G01 X325.877 Y374.321
G01 X325.874 Y374.309
G01 X325.871 Y374.297
G01 X325.867 Y374.285
G01 X325.864 Y374.273
G01 X325.861 Y374.262
G01 X325.857 Y374.250
G01 X325.853 Y374.238
G01 X325.849 Y374.226
G01 X325.845 Y374.214
G01 X325.841 Y374.202
G01 X325.836 Y374.190
G01 X325.832 Y374.179
G01 X325.827 Y374.167
G01 X325.822 Y374.155
G01 X325.817 Y374.143
G01 X325.812 Y374.132
G01 X325.806 Y374.120
G01 X325.801 Y374.108
G01 X325.795 Y374.096
G01 X325.789 Y374.085
G01 X325.783 Y374.073
G01 X325.777 Y374.061
G01 X325.771 Y374.050
G01 X325.764 Y374.038
G01 X325.758 Y374.027
G01 X325.751 Y374.015
G01 X325.744 Y374.004
G01 X325.737 Y373.992
G01 X325.730 Y373.981
G01 X325.722 Y373.970
G01 X325.715 Y373.958
G01 X325.707 Y373.947
G01 X325.699 Y373.936
G01 X325.691 Y373.925
G01 X325.683 Y373.914
G01 X325.675 Y373.903
G01 X325.667 Y373.892
G01 X325.658 Y373.881
G01 X325.649 Y373.870
G01 X325.640 Y373.859
G01 X325.631 Y373.849
G01 X325.622 Y373.838
G01 X325.613 Y373.828
G01 X325.603 Y373.817
G01 X325.594 Y373.807
G01 X325.584 Y373.796
G01 X325.574 Y373.786
G01 X325.564 Y373.776
G01 X325.554 Y373.766
G01 X325.543 Y373.756
G01 X325.533 Y373.746
G01 X325.522 Y373.736
G01 X325.511 Y373.726
G01 X325.500 Y373.716
G01 X325.489 Y373.707
G01 X325.478 Y373.697
G01 X325.467 Y373.688
G01 X325.455 Y373.679
G01 X325.443 Y373.669
G01 X325.432 Y373.660
G01 X325.420 Y373.651
G01 X325.407 Y373.642
G01 X325.395 Y373.634
G01 X325.383 Y373.625
G01 X325.370 Y373.616
G01 X325.358 Y373.608
G01 X325.345 Y373.600
G01 X325.332 Y373.591
G01 X325.319 Y373.583
G01 X325.306 Y373.575
G01 X325.293 Y373.567
G01 X325.279 Y373.560
G01 X325.266 Y373.552
G01 X325.252 Y373.545
G01 X325.238 Y373.537
G01 X325.225 Y373.530
G01 X325.211 Y373.523
G01 X325.196 Y373.516
G01 X325.182 Y373.509
G01 X325.168 Y373.502
G01 X325.153 Y373.496
G01 X325.139 Y373.489
G01 X325.124 Y373.483
G01 X325.109 Y373.477
G01 X325.094 Y373.471
G01 X325.079 Y373.465
G01 X325.064 Y373.460
G01 X325.049 Y373.454
G01 X325.034 Y373.449
G01 X325.018 Y373.443
G01 X325.002 Y373.438
G01 X324.987 Y373.433
G01 X324.971 Y373.429
G01 X324.955 Y373.424
G01 X324.939 Y373.420
G01 X324.923 Y373.415
G01 X324.907 Y373.411
G01 X324.891 Y373.407
G01 X324.875 Y373.403
G01 X324.858 Y373.400
G01 X324.842 Y373.396
G01 X324.825 Y373.393
G01 X324.808 Y373.390
G01 X324.792 Y373.387
G01 X324.775 Y373.384
G01 X324.758 Y373.382
G01 X324.741 Y373.379
G01 X324.724 Y373.377
G01 X324.707 Y373.375
G01 X324.690 Y373.373
G01 X324.673 Y373.371
G01 X324.655 Y373.370
G01 X324.638 Y373.369
G01 X324.620 Y373.367
G01 X324.603 Y373.366
G01 X324.585 Y373.366
G01 X324.568 Y373.365
G01 X324.550 Y373.365
G01 X324.533 Y373.365
G01 X324.515 Y373.365
G01 X324.497 Y373.365
G01 X324.479 Y373.365
G01 X324.461 Y373.366
G01 X324.443 Y373.366
G01 X324.425 Y373.367
G01 X324.407 Y373.369
G01 X324.389 Y373.370
G01 X324.371 Y373.371
G01 X324.353 Y373.373
G01 X324.335 Y373.375
G01 X324.317 Y373.377
G01 X324.299 Y373.380
G01 X324.281 Y373.382
G01 X324.262 Y373.385
G01 X324.244 Y373.388
G01 X324.226 Y373.391
G01 X324.208 Y373.394
G01 X324.189 Y373.398
G01 X324.171 Y373.402
G01 X324.153 Y373.406
G01 X324.135 Y373.410
G01 X324.116 Y373.414
G01 X324.098 Y373.419
G01 X324.080 Y373.424
G01 X324.061 Y373.429
G01 X324.043 Y373.434
G01 X324.025 Y373.439
G01 X324.007 Y373.445
G01 X323.989 Y373.451
G01 X323.970 Y373.457
G01 X323.952 Y373.463
G01 X323.934 Y373.470
G01 X323.916 Y373.476
G01 X323.898 Y373.483
G01 X323.880 Y373.490
G01 X323.862 Y373.498
G01 X323.844 Y373.505
G01 X323.826 Y373.513
G01 X323.808 Y373.521
G01 X323.790 Y373.529
G01 X323.772 Y373.537
G01 X323.754 Y373.546
G01 X323.736 Y373.555
G01 X323.719 Y373.564
G01 X323.701 Y373.573
G01 X323.683 Y373.582
G01 X323.666 Y373.592
G01 X323.648 Y373.602
G01 X323.631 Y373.612
G01 X323.614 Y373.622
G01 X323.596 Y373.632
G01 X323.579 Y373.643
G01 X323.562 Y373.654
G01 X323.545 Y373.665
G01 X323.528 Y373.676
G01 X323.511 Y373.688
G01 X323.494 Y373.700
G01 X323.478 Y373.712
G01 X323.461 Y373.724
G01 X323.444 Y373.736
G01 X323.428 Y373.748
G01 X323.412 Y373.761
G01 X323.395 Y373.774
G01 X323.379 Y373.787
G01 X323.363 Y373.801
G01 X323.347 Y373.814
G01 X323.331 Y373.828
G01 X323.316 Y373.842
G01 X323.300 Y373.856
G01 X323.285 Y373.870
G01 X323.269 Y373.885
G01 X323.254 Y373.899
G01 X323.239 Y373.914
G01 X323.224 Y373.929
G01 X323.209 Y373.945
G01 X323.194 Y373.960
G01 X323.179 Y373.976
G01 X323.165 Y373.992
G01 X323.150 Y374.008
G01 X323.136 Y374.024
G01 X323.122 Y374.040
G01 X323.108 Y374.057
G01 X323.094 Y374.074
G01 X323.081 Y374.091
G01 X323.067 Y374.108
G01 X323.054 Y374.125
G01 X323.041 Y374.143
G01 X323.028 Y374.161
G01 X323.015 Y374.178
G01 X323.002 Y374.196
G01 X322.989 Y374.215
G01 X322.977 Y374.233
G01 X322.965 Y374.252
G01 X322.953 Y374.270
G01 X322.941 Y374.289
G01 X322.929 Y374.308
G01 X322.918 Y374.327
G01 X322.906 Y374.347
G01 X322.895 Y374.366
G01 X322.884 Y374.386
G01 X322.873 Y374.406
G01 X322.863 Y374.426
G01 X322.852 Y374.446
G01 X322.842 Y374.466
G01 X322.832 Y374.487
G01 X322.822 Y374.507
G01 X322.812 Y374.528
G01 X322.803 Y374.549
G01 X322.793 Y374.570
G01 X322.784 Y374.591
G01 X322.775 Y374.613
G01 X322.767 Y374.634
G01 X322.758 Y374.656
G01 X322.750 Y374.677
G01 X322.742 Y374.699
G01 X322.734 Y374.721
G01 X322.727 Y374.743
G01 X322.719 Y374.766
G01 X322.712 Y374.788
G01 X322.705 Y374.810
G01 X322.698 Y374.833
G01 X322.692 Y374.856
G01 X322.685 Y374.879
G01 X322.679 Y374.902
G01 X322.674 Y374.925
G01 X322.668 Y374.948
G01 X322.663 Y374.971
G01 X322.657 Y374.994
G01 X322.653 Y375.018
G01 X322.648 Y375.041
G01 X322.643 Y375.065
G01 X322.639 Y375.089
G01 X322.635 Y375.113
G01 X322.632 Y375.137
G01 X322.628 Y375.161
G01 X322.625 Y375.185
G01 X322.622 Y375.209
G01 X322.619 Y375.233
G01 X322.617 Y375.257
G01 X322.614 Y375.282
G01 X322.612 Y375.306
G01 X322.611 Y375.331
G01 X322.609 Y375.356
G01 X322.608 Y375.380
G01 X322.607 Y375.405
G01 X322.606 Y375.430
G01 X322.606 Y375.455
G01 X322.605 Y375.479
G01 X322.606 Y375.504
G01 X322.606 Y375.529
G01 X322.606 Y375.554
G01 X322.607 Y375.579
G01 X322.608 Y375.605
G01 X322.610 Y375.630
G01 X322.611 Y375.655
G01 X322.613 Y375.680
G01 X322.615 Y375.705
G01 X322.618 Y375.731
G01 X322.620 Y375.756
G01 X322.623 Y375.781
G01 X322.627 Y375.807
G01 X322.630 Y375.832
G01 X322.634 Y375.857
G01 X322.638 Y375.883
G01 X322.642 Y375.908
G01 X322.647 Y375.933
G01 X322.652 Y375.959
G01 X322.657 Y375.984
G01 X322.662 Y376.009
G01 X322.668 Y376.035
G01 X322.674 Y376.060
G01 X322.680 Y376.085
G01 X322.686 Y376.111
G01 X322.693 Y376.136
G01 X322.700 Y376.161
G01 X322.708 Y376.187
G01 X322.715 Y376.212
G01 X322.723 Y376.237
G01 X322.731 Y376.262
G01 X322.740 Y376.287
G01 X322.748 Y376.312
G01 X322.757 Y376.337
G01 X322.766 Y376.362
G01 X322.776 Y376.387
G01 X322.786 Y376.412
G01 X322.796 Y376.437
G01 X322.806 Y376.461
G01 X322.817 Y376.486
G01 X322.828 Y376.511
G01 X322.839 Y376.535
G01 X322.850 Y376.560
G01 X322.862 Y376.584
G01 X322.874 Y376.608
G01 X322.886 Y376.632
G01 X322.899 Y376.657
G01 X322.911 Y376.681
G01 X322.925 Y376.705
G01 X322.938 Y376.728
G01 X322.952 Y376.752
G01 X322.965 Y376.776
G01 X322.980 Y376.799
G01 X322.994 Y376.823
G01 X323.009 Y376.846
G01 X323.024 Y376.870
G01 X323.039 Y376.893
G01 X323.054 Y376.916
G01 X323.070 Y376.939
G01 X323.086 Y376.961
G01 X323.102 Y376.984
G01 X323.119 Y377.006
G01 X323.136 Y377.029
G01 X323.153 Y377.051
G01 X323.170 Y377.073
G01 X323.188 Y377.095
G01 X323.205 Y377.117
G01 X323.223 Y377.139
G01 X323.242 Y377.160
G01 X323.260 Y377.181
G01 X323.279 Y377.203
G01 X323.298 Y377.224
G01 X323.318 Y377.245
G01 X323.337 Y377.265
G01 X323.357 Y377.286
G01 X323.377 Y377.306
G01 X323.397 Y377.326
G01 X323.418 Y377.347
G01 X323.439 Y377.366
G01 X323.460 Y377.386
G01 X323.481 Y377.406
G01 X323.503 Y377.425
G01 X323.524 Y377.444
G01 X323.546 Y377.463
G01 X323.569 Y377.482
G01 X323.591 Y377.500
G01 X323.614 Y377.518
G01 X323.637 Y377.537
G01 X323.660 Y377.554
G01 X323.683 Y377.572
G01 X323.707 Y377.590
G01 X323.730 Y377.607
G01 X323.754 Y377.624
G01 X323.779 Y377.641
G01 X323.803 Y377.657
G01 X323.828 Y377.674
G01 X323.853 Y377.690
G01 X323.878 Y377.706
G01 X323.903 Y377.722
G01 X323.928 Y377.737
G01 X323.954 Y377.752
G01 X323.980 Y377.767
G01 X324.006 Y377.782
G01 X324.032 Y377.797
G01 X324.059 Y377.811
G01 X324.085 Y377.825
G01 X324.112 Y377.839
G01 X324.139 Y377.852
G01 X324.166 Y377.865
G01 X324.194 Y377.878
G01 X324.221 Y377.891
G01 X324.249 Y377.903
G01 X324.277 Y377.916
G01 X324.305 Y377.928
G01 X324.333 Y377.939
G01 X324.361 Y377.951
G01 X324.390 Y377.962
G01 X324.418 Y377.973
G01 X324.447 Y377.983
G01 X324.476 Y377.993
G01 X324.505 Y378.003
G01 X324.535 Y378.013
G01 X324.564 Y378.023
G01 X324.594 Y378.032
G01 X324.624 Y378.041
G01 X324.653 Y378.049
G01 X324.683 Y378.057
G01 X324.714 Y378.065
G01 X324.744 Y378.073
G01 X324.774 Y378.080
G01 X324.805 Y378.087
G01 X324.835 Y378.094
G01 X324.866 Y378.101
G01 X324.897 Y378.107
G01 X324.928 Y378.113
G01 X324.959 Y378.118
G01 X324.990 Y378.123
G01 X325.021 Y378.128
G01 X325.053 Y378.133
G01 X325.084 Y378.137
G01 X325.116 Y378.141
G01 X325.147 Y378.145
G01 X325.179 Y378.148
G01 X325.211 Y378.151
G01 X325.243 Y378.154
G01 X325.275 Y378.156
G01 X325.307 Y378.158
G01 X325.339 Y378.160
G01 X325.371 Y378.161
G01 X325.403 Y378.162
G01 X325.435 Y378.163
G01 X325.468 Y378.164
G01 X325.500 Y378.164
G01 X325.533 Y378.163
G01 X325.565 Y378.163
G01 X325.598 Y378.162
G01 X325.630 Y378.161
G01 X325.663 Y378.159
G01 X325.695 Y378.157
G01 X325.728 Y378.155
G01 X325.761 Y378.152
G01 X325.793 Y378.149
G01 X325.826 Y378.146
G01 X325.859 Y378.142
G01 X325.892 Y378.138
G01 X325.924 Y378.134
G01 X325.957 Y378.130
G01 X325.990 Y378.125
G01 X326.023 Y378.119
G01 X326.055 Y378.114
G01 X326.088 Y378.108
G01 X326.121 Y378.101
G01 X326.154 Y378.094
G01 X326.186 Y378.087
G01 X326.219 Y378.080
G01 X326.251 Y378.072
G01 X326.284 Y378.064
G01 X326.317 Y378.056
G01 X326.349 Y378.047
G01 X326.382 Y378.038
G01 X326.414 Y378.028
G01 X326.446 Y378.019
G01 X326.479 Y378.008
G01 X326.511 Y377.998
G01 X326.543 Y377.987
G01 X326.575 Y377.976
G01 X326.607 Y377.964
G01 X326.639 Y377.953
G01 X326.671 Y377.940
G01 X326.703 Y377.928
G01 X326.735 Y377.915
G01 X326.766 Y377.902
G01 X326.798 Y377.888
G01 X326.829 Y377.874
G01 X326.861 Y377.860
G01 X326.892 Y377.845
G01 X326.923 Y377.830
G01 X326.954 Y377.815
G01 X326.985 Y377.799
G01 X327.016 Y377.783
G01 X327.047 Y377.767
G01 X327.077 Y377.750
G01 X327.108 Y377.734
G01 X327.138 Y377.716
G01 X327.168 Y377.699
G01 X327.198 Y377.681
G01 X327.228 Y377.662
G01 X327.258 Y377.644
G01 X327.287 Y377.625
G01 X327.317 Y377.605
G01 X327.346 Y377.586
G01 X327.375 Y377.566
G01 X327.404 Y377.546
G01 X327.433 Y377.525
G01 X327.462 Y377.504
G01 X327.490 Y377.483
G01 X327.518 Y377.461
G01 X327.546 Y377.439
G01 X327.574 Y377.417
G01 X327.602 Y377.395
G01 X327.629 Y377.372
G01 X327.657 Y377.349
G01 X327.684 Y377.325
G01 X327.711 Y377.302
G01 X327.737 Y377.278
G01 X327.764 Y377.253
G01 X327.790 Y377.229
G01 X327.816 Y377.204
G01 X327.842 Y377.178
G01 X327.868 Y377.153
G01 X327.893 Y377.127
G01 X327.918 Y377.101
G01 X327.943 Y377.075
G01 X327.968 Y377.048
G01 X327.992 Y377.021
G01 X328.017 Y376.994
G01 X328.041 Y376.966
G01 X328.064 Y376.938
G01 X328.088 Y376.910
G01 X328.111 Y376.882
G01 X328.134 Y376.853
G01 X328.157 Y376.824
G01 X328.179 Y376.795
G01 X328.201 Y376.765
G01 X328.223 Y376.736
G01 X328.245 Y376.706
G01 X328.266 Y376.675
G01 X328.287 Y376.645
G01 X328.308 Y376.614
G01 X328.328 Y376.583
G01 X328.348 Y376.552
G01 X328.368 Y376.520
G01 X328.388 Y376.488
G01 X328.407 Y376.456
G01 X328.426 Y376.424
G01 X328.445 Y376.392
G01 X328.463 Y376.359
G01 X328.481 Y376.326
G01 X328.499 Y376.293
G01 X328.516 Y376.260
G01 X328.533 Y376.226
G01 X328.550 Y376.192
G01 X328.567 Y376.158
G01 X328.583 Y376.124
G01 X328.599 Y376.090
G01 X328.614 Y376.055
G01 X328.629 Y376.020
G01 X328.644 Y375.985
G01 X328.659 Y375.950
G01 X328.673 Y375.914
G01 X328.687 Y375.879
G01 X328.700 Y375.843
G01 X328.713 Y375.807
G01 X328.726 Y375.771
G01 X328.738 Y375.734
G01 X328.750 Y375.698
G01 X328.762 Y375.661
G01 X328.773 Y375.624
G01 X328.784 Y375.587
G01 X328.795 Y375.550
G01 X328.805 Y375.513
G01 X328.815 Y375.475
G01 X328.825 Y375.438
G01 X328.834 Y375.400
G01 X328.842 Y375.362
G01 X328.851 Y375.324
G01 X328.859 Y375.286
G01 X328.867 Y375.248
G01 X328.874 Y375.209
G01 X328.881 Y375.171
G01 X328.887 Y375.132
G01 X328.893 Y375.093
G01 X328.899 Y375.055
G01 X328.904 Y375.016
G01 X328.909 Y374.976
G01 X328.914 Y374.937
G01 X328.918 Y374.898
G01 X328.922 Y374.859
G01 X328.925 Y374.819
G01 X328.928 Y374.780
G01 X328.931 Y374.740
G01 X328.933 Y374.700
G01 X328.934 Y374.661
G01 X328.936 Y374.621
G01 X328.937 Y374.581
G01 X328.937 Y374.541
G01 X328.937 Y374.501
G01 X328.937 Y374.461
G01 X328.937 Y374.421
G01 X328.935 Y374.381
G01 X328.934 Y374.341
G01 X328.932 Y374.301
G01 X328.930 Y374.260
G01 X328.927 Y374.220
G01 X328.924 Y374.180
G01 X328.920 Y374.140
G01 X328.916 Y374.099
G01 X328.912 Y374.059
G01 X328.907 Y374.019
G01 X328.902 Y373.979
G01 X328.897 Y373.938
G01 X328.890 Y373.898
G01 X328.884 Y373.858
G01 X328.877 Y373.818
G01 X328.870 Y373.777
G01 X328.862 Y373.737
G01 X328.854 Y373.697
G01 X328.846 Y373.657
G01 X328.837 Y373.617
G01 X328.827 Y373.577
G01 X328.817 Y373.537
G01 X328.807 Y373.497
G01 X328.797 Y373.457
G01 X328.786 Y373.417
G01 X328.774 Y373.377
G01 X328.762 Y373.338
G01 X328.750 Y373.298
G01 X328.737 Y373.259
G01 X328.724 Y373.219
G01 X328.711 Y373.180
G01 X328.697 Y373.141
G01 X328.682 Y373.101
G01 X328.668 Y373.062
G01 X328.652 Y373.023
G01 X328.637 Y372.985
G01 X328.621 Y372.946
G01 X328.604 Y372.907
G01 X328.588 Y372.869
G01 X328.570 Y372.831
G01 X328.553 Y372.792
G01 X328.535 Y372.754
G01 X328.516 Y372.716
G01 X328.497 Y372.678
G01 X328.478 Y372.641
G01 X328.458 Y372.603
G01 X328.438 Y372.566
G01 X328.418 Y372.529
G01 X328.397 Y372.492
G01 X328.376 Y372.455
G01 X328.354 Y372.418
G01 X328.332 Y372.382
G01 X328.309 Y372.346
G01 X328.287 Y372.309
G01 X328.263 Y372.273
G01 X328.240 Y372.238
G01 X328.216 Y372.202
G01 X328.191 Y372.167
G01 X328.166 Y372.132
G01 X328.141 Y372.097
G01 X328.116 Y372.062
G01 X328.090 Y372.028
G01 X328.063 Y371.994
G01 X328.037 Y371.960
G01 X328.010 Y371.926
G01 X327.982 Y371.892
G01 X327.954 Y371.859
G01 X327.926 Y371.826
G01 X327.898 Y371.793
G01 X327.869 Y371.761
G01 X327.839 Y371.728
G01 X327.810 Y371.696
G01 X327.780 Y371.665
G01 X327.749 Y371.633
G01 X327.719 Y371.602
G01 X327.688 Y371.571
G01 X327.656 Y371.540
G01 X327.625 Y371.510
G01 X327.592 Y371.480
G01 X327.560 Y371.450
G01 X327.527 Y371.421
G01 X327.494 Y371.391
G01 X327.461 Y371.362
G01 X327.427 Y371.334
G01 X327.393 Y371.306
G01 X327.359 Y371.278
G01 X327.324 Y371.250
G01 X327.289 Y371.223
G01 X327.253 Y371.196
G01 X327.218 Y371.169
G01 X327.182 Y371.143
G01 X327.146 Y371.117
G01 X327.109 Y371.091
G01 X327.072 Y371.066
G01 X327.035 Y371.041
G01 X326.997 Y371.016
G01 X326.960 Y370.992
G01 X326.922 Y370.968
G01 X326.883 Y370.945
G01 X326.845 Y370.922
G01 X326.806 Y370.899
G01 X326.767 Y370.876
G01 X326.727 Y370.854
G01 X326.688 Y370.833
G01 X326.648 Y370.811
G01 X326.608 Y370.790
G01 X326.567 Y370.770
G01 X326.526 Y370.750
G01 X326.485 Y370.730
G01 X326.444 Y370.711
G01 X326.403 Y370.692
G01 X326.361 Y370.673
G01 X326.319 Y370.655
G01 X326.277 Y370.637
G01 X326.235 Y370.620
G01 X326.192 Y370.603
G01 X326.149 Y370.586
G01 X326.106 Y370.570
G01 X326.063 Y370.555
G01 X326.020 Y370.539
G01 X325.976 Y370.525
G01 X325.932 Y370.510
G01 X325.889 Y370.496
G01 X325.844 Y370.483
G01 X325.800 Y370.470
G01 X325.755 Y370.457
G01 X325.711 Y370.445
G01 X325.666 Y370.433
G01 X325.621 Y370.421
G01 X325.576 Y370.411
G01 X325.530 Y370.400
G01 X325.485 Y370.390
G01 X325.439 Y370.380
G01 X325.393 Y370.371
G01 X325.347 Y370.363
G01 X325.301 Y370.354
G01 X325.255 Y370.347
G01 X325.209 Y370.339
G01 X325.162 Y370.333
G01 X325.116 Y370.326
G01 X325.069 Y370.320
G01 X325.022 Y370.315
G01 X324.976 Y370.310
G01 X324.929 Y370.305
G01 X324.881 Y370.301
G01 X324.834 Y370.298
G01 X324.787 Y370.295
G01 X324.740 Y370.292
G01 X324.692 Y370.290
G01 X324.645 Y370.288
G01 X324.597 Y370.287
G01 X324.550 Y370.287
G01 X324.502 Y370.286
G01 X324.455 Y370.287
G01 X324.407 Y370.287
G01 X324.359 Y370.289
G01 X324.311 Y370.290
G01 X324.263 Y370.293
G01 X324.216 Y370.295
G01 X324.168 Y370.298
G01 X324.120 Y370.302
G01 X324.072 Y370.306
G01 X324.024 Y370.311
G01 X323.976 Y370.316
G01 X323.928 Y370.322
G01 X323.880 Y370.328
G01 X323.832 Y370.334
G01 X323.785 Y370.342
G01 X323.737 Y370.349
G01 X323.689 Y370.357
G01 X323.641 Y370.366
G01 X323.593 Y370.375
G01 X323.546 Y370.384
G01 X323.498 Y370.394
G01 X323.451 Y370.405
G01 X323.403 Y370.416
G01 X323.356 Y370.427
G01 X323.308 Y370.440
G01 X323.261 Y370.452
G01 X323.214 Y370.465
G01 X323.167 Y370.478
G01 X323.120 Y370.492
G01 X323.073 Y370.507
G01 X323.026 Y370.522
G01 X322.979 Y370.537
G01 X322.932 Y370.553
G01 X322.886 Y370.570
G01 X322.840 Y370.587
G01 X322.793 Y370.604
G01 X322.747 Y370.622
G01 X322.701 Y370.640
G01 X322.655 Y370.659
G01 X322.610 Y370.678
G01 X322.564 Y370.698
G01 X322.519 Y370.718
G01 X322.473 Y370.739
G01 X322.428 Y370.760
G01 X322.384 Y370.782
G01 X322.339 Y370.804
G01 X322.294 Y370.827
G01 X322.250 Y370.850
G01 X322.206 Y370.874
G01 X322.162 Y370.898
G01 X322.118 Y370.922
G01 X322.075 Y370.947
G01 X322.031 Y370.973
G01 X321.988 Y370.998
G01 X321.945 Y371.025
G01 X321.903 Y371.052
G01 X321.860 Y371.079
G01 X321.818 Y371.107
G01 X321.776 Y371.135
G01 X321.734 Y371.164
G01 X321.693 Y371.193
G01 X321.652 Y371.222
G01 X321.611 Y371.252
G01 X321.570 Y371.283
G01 X321.529 Y371.313
G01 X321.489 Y371.345
G01 X321.449 Y371.376
G01 X321.410 Y371.409
G01 X321.371 Y371.441
G01 X321.332 Y371.474
G01 X321.293 Y371.508
G01 X321.255 Y371.542
G01 X321.216 Y371.576
G01 X321.179 Y371.611
G01 X321.141 Y371.646
G01 X321.104 Y371.681
G01 X321.067 Y371.717
G01 X321.031 Y371.754
G01 X320.995 Y371.790
G01 X320.959 Y371.827
G01 X320.923 Y371.865
G01 X320.888 Y371.903
G01 X320.854 Y371.941
G01 X320.819 Y371.980
G01 X320.785 Y372.019
G01 X320.751 Y372.058
G01 X320.718 Y372.098
G01 X320.685 Y372.139
G01 X320.653 Y372.179
G01 X320.620 Y372.220
G01 X320.589 Y372.261
G01 X320.557 Y372.303
G01 X320.526 Y372.345
G01 X320.495 Y372.387
G01 X320.465 Y372.430
G01 X320.435 Y372.473
G01 X320.406 Y372.517
G01 X320.377 Y372.560
G01 X320.348 Y372.604
G01 X320.320 Y372.649
G01 X320.292 Y372.694
G01 X320.265 Y372.739
G01 X320.238 Y372.784
G01 X320.212 Y372.830
G01 X320.186 Y372.876
G01 X320.160 Y372.922
G01 X320.135 Y372.968
G01 X320.110 Y373.015
G01 X320.086 Y373.063
G01 X320.062 Y373.110
G01 X320.039 Y373.158
G01 X320.016 Y373.206
G01 X319.994 Y373.254
G01 X319.972 Y373.303
G01 X319.951 Y373.351
G01 X319.930 Y373.400
G01 X319.909 Y373.450
G01 X319.889 Y373.499
G01 X319.869 Y373.549
G01 X319.850 Y373.599
G01 X319.832 Y373.650
G01 X319.814 Y373.700
G01 X319.796 Y373.751
G01 X319.779 Y373.802
G01 X319.763 Y373.853
G01 X319.746 Y373.905
G01 X319.731 Y373.956
G01 X319.716 Y374.008
G01 X319.701 Y374.060
G01 X319.687 Y374.112
G01 X319.674 Y374.165
G01 X319.661 Y374.217
G01 X319.648 Y374.270
G01 X319.636 Y374.323
G01 X319.625 Y374.376
G01 X319.614 Y374.429
G01 X319.604 Y374.483
G01 X319.594 Y374.536
G01 X319.584 Y374.590
G01 X319.576 Y374.644
G01 X319.567 Y374.698
G01 X319.560 Y374.752
G01 X319.552 Y374.806
G01 X319.546 Y374.860
G01 X319.540 Y374.915
G01 X319.534 Y374.970
G01 X319.529 Y375.024
G01 X319.525 Y375.079
G01 X319.521 Y375.134
G01 X319.517 Y375.189
G01 X319.515 Y375.244
G01 X319.512 Y375.299
G01 X319.511 Y375.354
G01 X319.509 Y375.409
G01 X319.509 Y375.465
G01 X319.509 Y375.520
G01 X319.509 Y375.575
G01 X319.510 Y375.631
G01 X319.512 Y375.686
G01 X319.514 Y375.742
G01 X319.517 Y375.797
G01 X319.520 Y375.853
G01 X319.524 Y375.909
G01 X319.529 Y375.964
G01 X319.534 Y376.020
G01 X319.539 Y376.075
G01 X319.546 Y376.131
G01 X319.552 Y376.186
G01 X319.560 Y376.242
G01 X319.567 Y376.297
G01 X319.576 Y376.353
G01 X319.585 Y376.408
G01 X319.594 Y376.464
G01 X319.605 Y376.519
G01 X319.615 Y376.574
G01 X319.626 Y376.629
G01 X319.638 Y376.685
G01 X319.651 Y376.740
G01 X319.664 Y376.795
G01 X319.677 Y376.850
G01 X319.691 Y376.904
G01 X319.706 Y376.959
G01 X319.721 Y377.014
G01 X319.737 Y377.068
G01 X319.753 Y377.123
G01 X319.770 Y377.177
G01 X319.788 Y377.231
G01 X319.806 Y377.285
G01 X319.824 Y377.339
G01 X319.843 Y377.393
G01 X319.863 Y377.446
G01 X319.883 Y377.500
G01 X319.904 Y377.553
G01 X319.925 Y377.606
G01 X319.947 Y377.659
G01 X319.970 Y377.712
G01 X319.993 Y377.764
G01 X320.016 Y377.817
G01 X320.040 Y377.869
G01 X320.065 Y377.921
G01 X320.090 Y377.973
G01 X320.116 Y378.024
G01 X320.142 Y378.076
G01 X320.169 Y378.127
G01 X320.196 Y378.178
G01 X320.224 Y378.228
G01 X320.253 Y378.279
G01 X320.282 Y378.329
G01 X320.311 Y378.379
G01 X320.341 Y378.428
G01 X320.372 Y378.478
G01 X320.403 Y378.527
G01 X320.434 Y378.576
G01 X320.467 Y378.624
G01 X320.499 Y378.673
G01 X320.532 Y378.721
G01 X320.566 Y378.768
G01 X320.600 Y378.816
G01 X320.635 Y378.863
G01 X320.670 Y378.910
G01 X320.706 Y378.956
G01 X320.742 Y379.002
G01 X320.778 Y379.048
G01 X320.815 Y379.094
G01 X320.853 Y379.139
G01 X320.891 Y379.184
G01 X320.930 Y379.228
G01 X320.969 Y379.272
G01 X321.008 Y379.316
G01 X321.048 Y379.359
G01 X321.089 Y379.402
G01 X321.130 Y379.445
G01 X321.171 Y379.487
G01 X321.213 Y379.529
G01 X321.256 Y379.571
G01 X321.298 Y379.612
G01 X321.342 Y379.652
G01 X321.385 Y379.693
G01 X321.429 Y379.733
G01 X321.474 Y379.772
G01 X321.519 Y379.811
G01 X321.564 Y379.850
G01 X321.610 Y379.888
G01 X321.656 Y379.926
G01 X321.703 Y379.963
G01 X321.750 Y380.000
G01 X321.798 Y380.036
G01 X321.845 Y380.072
G01 X321.894 Y380.108
G01 X321.942 Y380.143
G01 X321.992 Y380.178
G01 X322.041 Y380.212
G01 X322.091 Y380.245
G01 X322.141 Y380.279
G01 X322.192 Y380.311
G01 X322.243 Y380.344
G01 X322.294 Y380.375
G01 X322.346 Y380.407
G01 X322.398 Y380.437
G01 X322.450 Y380.468
G01 X322.503 Y380.497
G01 X322.556 Y380.527
G01 X322.609 Y380.555
G01 X322.663 Y380.584
G01 X322.717 Y380.611
G01 X322.772 Y380.638
G01 X322.826 Y380.665
G01 X322.881 Y380.691
G01 X322.937 Y380.717
G01 X322.992 Y380.742
G01 X323.048 Y380.766
G01 X323.104 Y380.790
G01 X323.161 Y380.814
G01 X323.218 Y380.837
G01 X323.275 Y380.859
G01 X323.332 Y380.881
G01 X323.390 Y380.902
G01 X323.448 Y380.922
G01 X323.506 Y380.942
G01 X323.564 Y380.962
G01 X323.623 Y380.981
G01 X323.681 Y380.999
G01 X323.740 Y381.017
G01 X323.800 Y381.034
G01 X323.859 Y381.051
G01 X323.919 Y381.067
G01 X323.979 Y381.082
G01 X324.039 Y381.097
G01 X324.099 Y381.111
G01 X324.160 Y381.125
G01 X324.220 Y381.138
G01 X324.281 Y381.150
G01 X324.342 Y381.162
G01 X324.403 Y381.173
G01 X324.465 Y381.184
G01 X324.526 Y381.194
G01 X324.588 Y381.203
G01 X324.649 Y381.212
G01 X324.711 Y381.220
G01 X324.773 Y381.228
G01 X324.836 Y381.235
G01 X324.898 Y381.241
G01 X324.960 Y381.247
G01 X325.023 Y381.252
G01 X325.085 Y381.256
G01 X325.148 Y381.260
G01 X325.211 Y381.263
G01 X325.274 Y381.266
G01 X325.336 Y381.268
G01 X325.399 Y381.269
G01 X325.462 Y381.270
G01 X325.526 Y381.270
G01 X325.589 Y381.269
G01 X325.652 Y381.268
G01 X325.715 Y381.266
G01 X325.778 Y381.263
G01 X325.842 Y381.260
G01 X325.905 Y381.256
G01 X325.968 Y381.252
G01 X326.031 Y381.247
G01 X326.095 Y381.241
G01 X326.158 Y381.235
G01 X326.221 Y381.228
G01 X326.284 Y381.220
G01 X326.348 Y381.212
G01 X326.411 Y381.203
G01 X326.474 Y381.193
G01 X326.537 Y381.183
G01 X326.600 Y381.172
G01 X326.663 Y381.161
G01 X326.726 Y381.149
G01 X326.788 Y381.136
G01 X326.851 Y381.122
G01 X326.914 Y381.108
G01 X326.976 Y381.094
G01 X327.039 Y381.078
G01 X327.101 Y381.062
G01 X327.163 Y381.046
G01 X327.225 Y381.028
G01 X327.287 Y381.010
G01 X327.349 Y380.992
G01 X327.411 Y380.973
G01 X327.472 Y380.953
G01 X327.534 Y380.932
G01 X327.595 Y380.911
G01 X327.656 Y380.890
G01 X327.717 Y380.867
G01 X327.777 Y380.844
G01 X327.838 Y380.821
G01 X327.898 Y380.796
G01 X327.958 Y380.772
G01 X328.018 Y380.746
G01 X328.078 Y380.720
G01 X328.137 Y380.693
G01 X328.196 Y380.666
G01 X328.255 Y380.638
G01 X328.314 Y380.610
G01 X328.373 Y380.580
G01 X328.431 Y380.551
G01 X328.489 Y380.520
G01 X328.547 Y380.489
G01 X328.604 Y380.458
G01 X328.661 Y380.425
G01 X328.718 Y380.393
G01 X328.775 Y380.359
G01 X328.831 Y380.325
G01 X328.887 Y380.291
G01 X328.943 Y380.256
G01 X328.998 Y380.220
G01 X329.053 Y380.184
G01 X329.108 Y380.147
G01 X329.162 Y380.109
G01 X329.216 Y380.071
G01 X329.270 Y380.032
G01 X329.323 Y379.993
G01 X329.376 Y379.954
G01 X329.429 Y379.913
G01 X329.481 Y379.872
G01 X329.533 Y379.831
G01 X329.585 Y379.789
G01 X329.636 Y379.746
G01 X329.687 Y379.703
G01 X329.737 Y379.660
G01 X329.787 Y379.616
G01 X329.837 Y379.571
G01 X329.886 Y379.526
G01 X329.934 Y379.480
G01 X329.983 Y379.434
G01 X330.030 Y379.387
G01 X330.078 Y379.340
G01 X330.125 Y379.292
G01 X330.171 Y379.243
G01 X330.217 Y379.195
G01 X330.263 Y379.145
G01 X330.308 Y379.096
G01 X330.353 Y379.045
G01 X330.397 Y378.995
G01 X330.441 Y378.943
G01 X330.484 Y378.892
G01 X330.527 Y378.839
G01 X330.569 Y378.787
G01 X330.610 Y378.734
G01 X330.652 Y378.680
G01 X330.692 Y378.626
G01 X330.733 Y378.571
G01 X330.772 Y378.517
G01 X330.811 Y378.461
G01 X330.850 Y378.405
G01 X330.888 Y378.349
G01 X330.926 Y378.293
G01 X330.963 Y378.236
G01 X330.999 Y378.178
G01 X331.035 Y378.120
G01 X331.070 Y378.062
G01 X331.105 Y378.003
G01 X331.139 Y377.944
G01 X331.173 Y377.885
G01 X331.206 Y377.825
G01 X331.239 Y377.765
G01 X331.270 Y377.704
G01 X331.302 Y377.643
G01 X331.333 Y377.582
G01 X331.363 Y377.520
G01 X331.392 Y377.458
G01 X331.421 Y377.396
G01 X331.449 Y377.334
G01 X331.477 Y377.271
G01 X331.504 Y377.207
G01 X331.531 Y377.144
G01 X331.557 Y377.080
G01 X331.582 Y377.016
G01 X331.606 Y376.951
G01 X331.630 Y376.886
G01 X331.654 Y376.821
G01 X331.676 Y376.756
G01 X331.698 Y376.690
G01 X331.720 Y376.624
G01 X331.741 Y376.558
G01 X331.761 Y376.492
G01 X331.780 Y376.425
G01 X331.799 Y376.358
G01 X331.817 Y376.291
G01 X331.834 Y376.224
G01 X331.851 Y376.156
G01 X331.867 Y376.088
G01 X331.883 Y376.020
G01 X331.898 Y375.952
G01 X331.912 Y375.884
G01 X331.925 Y375.815
G01 X331.938 Y375.746
G01 X331.950 Y375.677
G01 X331.961 Y375.608
G01 X331.972 Y375.539
G01 X331.982 Y375.470
G01 X331.991 Y375.400
G01 X332.000 Y375.330
G01 X332.008 Y375.261
G01 X332.015 Y375.191
G01 X332.022 Y375.121
G01 X332.028 Y375.050
G01 X332.033 Y374.980
G01 X332.037 Y374.910
G01 X332.041 Y374.839
G01 X332.044 Y374.769
G01 X332.046 Y374.698
G01 X332.048 Y374.627
G01 X332.049 Y374.557
G01 X332.049 Y374.486
G01 X332.048 Y374.415
G01 X332.047 Y374.344
G01 X332.045 Y374.273
G01 X332.042 Y374.202
G01 X332.039 Y374.131
G01 X332.035 Y374.060
G01 X332.030 Y373.989
G01 X332.024 Y373.918
G01 X332.018 Y373.847
G01 X332.011 Y373.776
G01 X332.003 Y373.705
G01 X331.995 Y373.634
G01 X331.986 Y373.563
G01 X331.976 Y373.492
G01 X331.965 Y373.422
G01 X331.954 Y373.351
G01 X331.942 Y373.280
G01 X331.929 Y373.210
G01 X331.916 Y373.139
G01 X331.902 Y373.069
G01 X331.887 Y372.998
G01 X331.871 Y372.928
G01 X331.855 Y372.858
G01 X331.838 Y372.788
G01 X331.820 Y372.718
G01 X331.802 Y372.649
G01 X331.783 Y372.579
G01 X331.763 Y372.510
G01 X331.742 Y372.440
G01 X331.721 Y372.371
G01 X331.699 Y372.302
G01 X331.676 Y372.234
G01 X331.653 Y372.165
G01 X331.629 Y372.097
G01 X331.604 Y372.028
G01 X331.578 Y371.960
G01 X331.552 Y371.893
G01 X331.525 Y371.825
G01 X331.497 Y371.758
G01 X331.469 Y371.691
G01 X331.440 Y371.624
G01 X331.410 Y371.557
G01 X331.380 Y371.491
G01 X331.349 Y371.425
G01 X331.317 Y371.359
G01 X331.285 Y371.294
G01 X331.252 Y371.228
G01 X331.218 Y371.164
G01 X331.183 Y371.099
G01 X331.148 Y371.035
G01 X331.112 Y370.971
G01 X331.076 Y370.907
G01 X331.039 Y370.843
G01 X331.001 Y370.780
G01 X330.963 Y370.718
G01 X330.923 Y370.655
G01 X330.884 Y370.593
G01 X330.843 Y370.532
G01 X330.802 Y370.470
G01 X330.761 Y370.410
G01 X330.718 Y370.349
G01 X330.675 Y370.289
G01 X330.632 Y370.229
G01 X330.587 Y370.170
G01 X330.543 Y370.111
G01 X330.497 Y370.052
G01 X330.451 Y369.994
G01 X330.404 Y369.937
G01 X330.357 Y369.879
G01 X330.309 Y369.823
G01 X330.261 Y369.766
G01 X330.211 Y369.710
G01 X330.162 Y369.655
G01 X330.112 Y369.600
G01 X330.061 Y369.546
G01 X330.009 Y369.492
G01 X329.957 Y369.438
G01 X329.905 Y369.385
G01 X329.851 Y369.332
G01 X329.798 Y369.280
G01 X329.743 Y369.229
G01 X329.689 Y369.178
G01 X329.633 Y369.127
G01 X329.577 Y369.077
G01 X329.521 Y369.028
G01 X329.464 Y368.979
G01 X329.406 Y368.931
G01 X329.348 Y368.883
G01 X329.290 Y368.836
G01 X329.231 Y368.789
G01 X329.171 Y368.743
G01 X329.111 Y368.697
G01 X329.051 Y368.652
G01 X328.989 Y368.608
G01 X328.928 Y368.564
G01 X328.866 Y368.521
G01 X328.803 Y368.478
G01 X328.741 Y368.436
G01 X328.677 Y368.395
G01 X328.613 Y368.354
G01 X328.549 Y368.314
G01 X328.484 Y368.274
G01 X328.419 Y368.235
G01 X328.353 Y368.197
G01 X328.287 Y368.159
G01 X328.221 Y368.122
G01 X328.154 Y368.086
G01 X328.087 Y368.050
G01 X328.019 Y368.015
G01 X327.951 Y367.980
G01 X327.883 Y367.947
G01 X327.814 Y367.914
G01 X327.744 Y367.881
G01 X327.675 Y367.849
G01 X327.605 Y367.818
G01 X327.535 Y367.788
G01 X327.464 Y367.758
G01 X327.393 Y367.729
G01 X327.322 Y367.701
G01 X327.250 Y367.673
G01 X327.178 Y367.647
G01 X327.106 Y367.620
G01 X327.033 Y367.595
G01 X326.960 Y367.570
G01 X326.887 Y367.546
G01 X326.814 Y367.523
G01 X326.740 Y367.500
G01 X326.666 Y367.478
G01 X326.592 Y367.457
G01 X326.517 Y367.437
G01 X326.442 Y367.417
G01 X326.367 Y367.398
G01 X326.292 Y367.380
G01 X326.217 Y367.362
G01 X326.141 Y367.346
G01 X326.065 Y367.330
G01 X325.989 Y367.315
G01 X325.913 Y367.300
G01 X325.836 Y367.286
G01 X325.759 Y367.273
G01 X325.682 Y367.261
G01 X325.605 Y367.250
G01 X325.528 Y367.239
G01 X325.451 Y367.229
G01 X325.373 Y367.220
G01 X325.296 Y367.212
G01 X325.218 Y367.204
G01 X325.140 Y367.198
G01 X325.062 Y367.192
G01 X324.984 Y367.187
G01 X324.906 Y367.182
G01 X324.828 Y367.178
G01 X324.749 Y367.176
G01 X324.671 Y367.174
G01 X324.592 Y367.172
G01 X324.514 Y367.172
G01 X324.435 Y367.172
G01 X324.356 Y367.173
G01 X324.278 Y367.175
G01 X324.199 Y367.178
G01 X324.120 Y367.181
G01 X324.042 Y367.185
G01 X323.963 Y367.190
G01 X323.884 Y367.196
G01 X323.805 Y367.203
G01 X323.727 Y367.210
G01 X323.648 Y367.219
G01 X323.569 Y367.228
G01 X323.491 Y367.237
G01 X323.412 Y367.248
G01 X323.334 Y367.259
G01 X323.255 Y367.272
G01 X323.177 Y367.285
G01 X323.099 Y367.298
G01 X323.020 Y367.313
G01 X322.942 Y367.328
G01 X322.864 Y367.344
G01 X322.787 Y367.361
G01 X322.709 Y367.379
G01 X322.631 Y367.398
G01 X322.554 Y367.417
G01 X322.477 Y367.437
G01 X322.400 Y367.458
G01 X322.323 Y367.480
G01 X322.246 Y367.502
G01 X322.169 Y367.526
G01 X322.093 Y367.550
G01 X322.017 Y367.574
G01 X321.941 Y367.600
G01 X321.865 Y367.626
G01 X321.789 Y367.654
G01 X321.714 Y367.682
G01 X321.639 Y367.710
G01 X321.564 Y367.740
G01 X321.489 Y367.770
G01 X321.415 Y367.801
G01 X321.341 Y367.833
G01 X321.267 Y367.865
G01 X321.194 Y367.899
G01 X321.120 Y367.933
G01 X321.047 Y367.967
G01 X320.975 Y368.003
G01 X320.903 Y368.039
G01 X320.831 Y368.076
G01 X320.759 Y368.114
G01 X320.688 Y368.153
G01 X320.617 Y368.192
G01 X320.546 Y368.232
G01 X320.476 Y368.273
G01 X320.406 Y368.314
G01 X320.337 Y368.356
G01 X320.267 Y368.399
G01 X320.199 Y368.443
G01 X320.130 Y368.487
G01 X320.063 Y368.532
G01 X319.995 Y368.578
G01 X319.928 Y368.625
G01 X319.861 Y368.672
G01 X319.795 Y368.720
G01 X319.729 Y368.768
G01 X319.664 Y368.818
G01 X319.599 Y368.868
G01 X319.535 Y368.918
G01 X319.471 Y368.969
G01 X319.408 Y369.021
G01 X319.345 Y369.074
G01 X319.282 Y369.127
G01 X319.220 Y369.181
G01 X319.159 Y369.236
G01 X319.098 Y369.291
G01 X319.037 Y369.347
G01 X318.978 Y369.403
G01 X318.918 Y369.461
G01 X318.859 Y369.518
G01 X318.801 Y369.577
G01 X318.743 Y369.636
G01 X318.686 Y369.695
G01 X318.630 Y369.756
G01 X318.574 Y369.817
G01 X318.518 Y369.878
G01 X318.464 Y369.940
G01 X318.409 Y370.003
G01 X318.356 Y370.066
G01 X318.303 Y370.130
G01 X318.250 Y370.194
G01 X318.198 Y370.259
G01 X318.147 Y370.324
G01 X318.097 Y370.390
G01 X318.047 Y370.457
G01 X317.998 Y370.524
G01 X317.949 Y370.591
G01 X317.901 Y370.660
G01 X317.854 Y370.728
G01 X317.807 Y370.797
G01 X317.761 Y370.867
G01 X317.716 Y370.937
G01 X317.671 Y371.008
G01 X317.627 Y371.079
G01 X317.584 Y371.151
G01 X317.541 Y371.223
G01 X317.499 Y371.295
G01 X317.458 Y371.368
G01 X317.418 Y371.442
G01 X317.378 Y371.516
G01 X317.339 Y371.590
G01 X317.301 Y371.665
G01 X317.263 Y371.740
G01 X317.226 Y371.816
G01 X317.190 Y371.892
G01 X317.155 Y371.968
G01 X317.120 Y372.045
G01 X317.087 Y372.123
G01 X317.054 Y372.200
G01 X317.021 Y372.278
G01 X316.990 Y372.356
G01 X316.959 Y372.435
G01 X316.929 Y372.514
G01 X316.900 Y372.594
G01 X316.871 Y372.673
G01 X316.844 Y372.754
G01 X316.817 Y372.834
G01 X316.791 Y372.915
G01 X316.765 Y372.996
G01 X316.741 Y373.077
G01 X316.717 Y373.159
G01 X316.694 Y373.240
G01 X316.672 Y373.323
G01 X316.651 Y373.405
G01 X316.631 Y373.488
G01 X316.611 Y373.571
G01 X316.592 Y373.654
G01 X316.574 Y373.737
G01 X316.557 Y373.821
G01 X316.541 Y373.905
G01 X316.525 Y373.989
G01 X316.511 Y374.073
G01 X316.497 Y374.158
G01 X316.484 Y374.242
G01 X316.472 Y374.327
G01 X316.461 Y374.412
G01 X316.450 Y374.497
G01 X316.441 Y374.582
G01 X316.432 Y374.668
G01 X316.424 Y374.753
G01 X316.417 Y374.839
G01 X316.411 Y374.925
G01 X316.406 Y375.011
G01 X316.401 Y375.097
G01 X316.398 Y375.183
G01 X316.395 Y375.269
G01 X316.393 Y375.355
G01 X316.392 Y375.441
G01 X316.392 Y375.528
G01 X316.393 Y375.614
G01 X316.394 Y375.701
G01 X316.397 Y375.787
G01 X316.400 Y375.874
G01 X316.404 Y375.960
G01 X316.409 Y376.047
G01 X316.415 Y376.133
G01 X316.422 Y376.220
G01 X316.430 Y376.306
G01 X316.439 Y376.393
G01 X316.448 Y376.479
G01 X316.458 Y376.565
G01 X316.470 Y376.652
G01 X316.482 Y376.738
G01 X316.495 Y376.824
G01 X316.508 Y376.910
G01 X316.523 Y376.996
G01 X316.539 Y377.082
G01 X316.555 Y377.168
G01 X316.572 Y377.253
G01 X316.590 Y377.339
G01 X316.609 Y377.424
G01 X316.629 Y377.509
G01 X316.650 Y377.594
G01 X316.672 Y377.679
G01 X316.694 Y377.764
G01 X316.718 Y377.848
G01 X316.742 Y377.933
G01 X316.767 Y378.017
G01 X316.793 Y378.101
G01 X316.820 Y378.185
G01 X316.847 Y378.268
G01 X316.876 Y378.351
G01 X316.905 Y378.434
G01 X316.935 Y378.517
G01 X316.966 Y378.600
G01 X316.998 Y378.682
G01 X317.031 Y378.764
G01 X317.064 Y378.845
G01 X317.099 Y378.927
G01 X317.134 Y379.008
G01 X317.170 Y379.089
G01 X317.207 Y379.169
G01 X317.245 Y379.249
G01 X317.283 Y379.329
G01 X317.323 Y379.408
G01 X317.363 Y379.487
G01 X317.404 Y379.566
G01 X317.446 Y379.645
G01 X317.488 Y379.722
G01 X317.532 Y379.800
G01 X317.576 Y379.877
G01 X317.621 Y379.954
G01 X317.667 Y380.030
G01 X317.713 Y380.106
G01 X317.761 Y380.182
G01 X317.809 Y380.257
G01 X317.858 Y380.331
G01 X317.908 Y380.406
G01 X317.958 Y380.479
G01 X318.009 Y380.553
G01 X318.061 Y380.625
G01 X318.114 Y380.698
G01 X318.168 Y380.769
G01 X318.222 Y380.841
G01 X318.277 Y380.911
G01 X318.333 Y380.982
G01 X318.389 Y381.051
G01 X318.446 Y381.121
G01 X318.504 Y381.189
G01 X318.563 Y381.257
G01 X318.622 Y381.325
G01 X318.682 Y381.392
G01 X318.743 Y381.458
G01 X318.805 Y381.524
G01 X318.867 Y381.590
G01 X318.930 Y381.654
G01 X318.993 Y381.718
G01 X319.057 Y381.782
G01 X319.122 Y381.845
G01 X319.188 Y381.907
G01 X319.254 Y381.968
G01 X319.321 Y382.029
G01 X319.388 Y382.090
G01 X319.456 Y382.149
G01 X319.525 Y382.209
G01 X319.594 Y382.267
G01 X319.664 Y382.325
G01 X319.735 Y382.382
G01 X319.806 Y382.438
G01 X319.878 Y382.494
G01 X319.951 Y382.549
G01 X320.024 Y382.603
G01 X320.097 Y382.657
G01 X320.171 Y382.709
G01 X320.246 Y382.762
G01 X320.321 Y382.813
G01 X320.397 Y382.864
G01 X320.474 Y382.914
G01 X320.551 Y382.963
G01 X320.628 Y383.011
G01 X320.706 Y383.059
G01 X320.785 Y383.106
G01 X320.864 Y383.152
G01 X320.943 Y383.197
G01 X321.023 Y383.242
G01 X321.104 Y383.286
G01 X321.185 Y383.329
G01 X321.266 Y383.371
G01 X321.348 Y383.413
G01 X321.430 Y383.453
G01 X321.513 Y383.493
G01 X321.596 Y383.532
G01 X321.680 Y383.571
G01 X321.764 Y383.608
G01 X321.849 Y383.645
G01 X321.934 Y383.680
G01 X322.019 Y383.715
G01 X322.105 Y383.750
G01 X322.191 Y383.783
G01 X322.277 Y383.815
G01 X322.364 Y383.847
G01 X322.452 Y383.877
G01 X322.539 Y383.907
G01 X322.627 Y383.936
G01 X322.715 Y383.964
G01 X322.804 Y383.992
G01 X322.893 Y384.018
G01 X322.982 Y384.043
G01 X323.071 Y384.068
G01 X323.161 Y384.092
G01 X323.251 Y384.114
G01 X323.342 Y384.136
G01 X323.432 Y384.157
G01 X323.523 Y384.178
G01 X323.614 Y384.197
G01 X323.706 Y384.215
G01 X323.797 Y384.233
G01 X323.889 Y384.249
G01 X323.981 Y384.265
G01 X324.073 Y384.279
G01 X324.166 Y384.293
G01 X324.258 Y384.306
G01 X324.351 Y384.318
G01 X324.444 Y384.329
G01 X324.537 Y384.339
G01 X324.630 Y384.348
G01 X324.723 Y384.356
G01 X324.817 Y384.363
G01 X324.910 Y384.370
G01 X325.004 Y384.375
G01 X325.098 Y384.380
G01 X325.192 Y384.383
G01 X325.286 Y384.386
G01 X325.380 Y384.387
G01 X325.474 Y384.388
G01 X325.568 Y384.388
G01 X325.662 Y384.387
G01 X325.757 Y384.385
G01 X325.851 Y384.381
G01 X325.945 Y384.377
G01 X326.039 Y384.372
G01 X326.134 Y384.367
G01 X326.228 Y384.360
G01 X326.322 Y384.352
G01 X326.416 Y384.343
G01 X326.510 Y384.333
G01 X326.605 Y384.323
G01 X326.699 Y384.311
G01 X326.793 Y384.299
G01 X326.886 Y384.285
G01 X326.980 Y384.271
G01 X327.074 Y384.255
G01 X327.168 Y384.239
G01 X327.261 Y384.221
G01 X327.354 Y384.203
G01 X327.448 Y384.184
G01 X327.541 Y384.164
G01 X327.633 Y384.143
G01 X327.726 Y384.121
G01 X327.819 Y384.098
G01 X327.911 Y384.074
G01 X328.003 Y384.049
G01 X328.095 Y384.023
G01 X328.187 Y383.997
G01 X328.278 Y383.969
G01 X328.370 Y383.940
G01 X328.461 Y383.911
G01 X328.552 Y383.880
G01 X328.642 Y383.849
G01 X328.732 Y383.817
G01 X328.822 Y383.784
G01 X328.912 Y383.749
G01 X329.001 Y383.714
G01 X329.090 Y383.678
G01 X329.179 Y383.642
G01 X329.268 Y383.604
G01 X329.356 Y383.565
G01 X329.443 Y383.526
G01 X329.531 Y383.485
G01 X329.618 Y383.444
G01 X329.704 Y383.401
G01 X329.791 Y383.358
G01 X329.876 Y383.314
G01 X329.962 Y383.269
G01 X330.047 Y383.224
G01 X330.132 Y383.177
G01 X330.216 Y383.129
G01 X330.300 Y383.081
G01 X330.383 Y383.032
G01 X330.466 Y382.982
G01 X330.548 Y382.931
G01 X330.630 Y382.879
G01 X330.711 Y382.826
G01 X330.792 Y382.773
G01 X330.873 Y382.718
G01 X330.953 Y382.663
G01 X331.032 Y382.607
G01 X331.111 Y382.550
G01 X331.189 Y382.493
G01 X331.267 Y382.434
G01 X331.345 Y382.375
G01 X331.421 Y382.315
G01 X331.497 Y382.254
G01 X331.573 Y382.192
G01 X331.648 Y382.130
G01 X331.722 Y382.066
G01 X331.796 Y382.002
G01 X331.869 Y381.938
G01 X331.942 Y381.872
G01 X332.014 Y381.806
G01 X332.085 Y381.739
G01 X332.156 Y381.671
G01 X332.226 Y381.602
G01 X332.295 Y381.533
G01 X332.364 Y381.463
G01 X332.432 Y381.393
G01 X332.499 Y381.321
G01 X332.566 Y381.249
G01 X332.632 Y381.176
G01 X332.697 Y381.103
G01 X332.762 Y381.028
G01 X332.826 Y380.953
G01 X332.889 Y380.878
G01 X332.951 Y380.802
G01 X333.013 Y380.725
G01 X333.074 Y380.647
G01 X333.134 Y380.569
G01 X333.193 Y380.490
G01 X333.252 Y380.411
G01 X333.310 Y380.330
G01 X333.367 Y380.250
G01 X333.423 Y380.168
G01 X333.479 Y380.087
G01 X333.534 Y380.004
G01 X333.587 Y379.921
G01 X333.641 Y379.837
G01 X333.693 Y379.753
G01 X333.744 Y379.668
G01 X333.795 Y379.583
G01 X333.845 Y379.497
G01 X333.894 Y379.410
G01 X333.942 Y379.323
G01 X333.989 Y379.236
G01 X334.036 Y379.148
G01 X334.081 Y379.059
G01 X334.126 Y378.970
G01 X334.170 Y378.881
G01 X334.213 Y378.791
G01 X334.255 Y378.700
G01 X334.296 Y378.609
G01 X334.336 Y378.518
G01 X334.376 Y378.426
G01 X334.414 Y378.334
G01 X334.452 Y378.241
G01 X334.488 Y378.148
G01 X334.524 Y378.055
G01 X334.559 Y377.961
G01 X334.593 Y377.866
G01 X334.626 Y377.772
G01 X334.658 Y377.677
G01 X334.689 Y377.581
G01 X334.719 Y377.485
G01 X334.748 Y377.389
G01 X334.776 Y377.293
G01 X334.804 Y377.196
G01 X334.830 Y377.099
G01 X334.855 Y377.001
G01 X334.880 Y376.904
G01 X334.903 Y376.806
G01 X334.926 Y376.707
G01 X334.947 Y376.609
G01 X334.968 Y376.510
G01 X334.987 Y376.411
G01 X335.006 Y376.312
G01 X335.023 Y376.212
G01 X335.040 Y376.112
G01 X335.055 Y376.012
G01 X335.070 Y375.912
G01 X335.084 Y375.812
G01 X335.096 Y375.711
G01 X335.108 Y375.611
G01 X335.118 Y375.510
G01 X335.128 Y375.409
G01 X335.136 Y375.308
G01 X335.144 Y375.206
G01 X335.151 Y375.105
G01 X335.156 Y375.004
G01 X335.161 Y374.902
G01 X335.164 Y374.800
G01 X335.167 Y374.698
G01 X335.168 Y374.597
G01 X335.168 Y374.495
G01 X335.168 Y374.393
G01 X335.166 Y374.291
G01 X335.164 Y374.189
G01 X335.160 Y374.087
G01 X335.155 Y373.985
G01 X335.149 Y373.883
G01 X335.143 Y373.781
G01 X335.135 Y373.679
G01 X335.126 Y373.577
G01 X335.116 Y373.475
G01 X335.105 Y373.373
G01 X335.094 Y373.271
G01 X335.081 Y373.169
G01 X335.067 Y373.068
G01 X335.052 Y372.966
G01 X335.036 Y372.865
G01 X335.019 Y372.763
G01 X335.001 Y372.662
G01 X334.982 Y372.561
G01 X334.962 Y372.460
G01 X334.941 Y372.359
G01 X334.919 Y372.259
G01 X334.895 Y372.158
G01 X334.871 Y372.058
G01 X334.846 Y371.958
G01 X334.820 Y371.858
G01 X334.793 Y371.759
G01 X334.765 Y371.659
G01 X334.735 Y371.560
G01 X334.705 Y371.461
G01 X334.674 Y371.363
G01 X334.642 Y371.264
G01 X334.608 Y371.166
G01 X334.574 Y371.068
G01 X334.539 Y370.971
G01 X334.503 Y370.874
G01 X334.466 Y370.777
G01 X334.427 Y370.680
G01 X334.388 Y370.584
G01 X334.348 Y370.488
G01 X334.307 Y370.393
G01 X334.265 Y370.298
G01 X334.222 Y370.203
G01 X334.178 Y370.109
G01 X334.133 Y370.015
G01 X334.087 Y369.921
G01 X334.040 Y369.828
G01 X333.992 Y369.736
G01 X333.943 Y369.643
G01 X333.893 Y369.552
G01 X333.843 Y369.460
G01 X333.791 Y369.370
G01 X333.738 Y369.279
G01 X333.685 Y369.189
G01 X333.631 Y369.100
G01 X333.575 Y369.011
G01 X333.519 Y368.923
G01 X333.462 Y368.835
G01 X333.404 Y368.748
G01 X333.345 Y368.661
G01 X333.285 Y368.575
G01 X333.224 Y368.489
G01 X333.162 Y368.404
G01 X333.100 Y368.320
G01 X333.036 Y368.236
G01 X332.972 Y368.153
G01 X332.907 Y368.070
G01 X332.841 Y367.988
G01 X332.774 Y367.906
G01 X332.707 Y367.826
G01 X332.638 Y367.746
G01 X332.569 Y367.666
G01 X332.498 Y367.587
G01 X332.427 Y367.509
G01 X332.356 Y367.432
G01 X332.283 Y367.355
G01 X332.210 Y367.279
G01 X332.135 Y367.203
G01 X332.060 Y367.129
G01 X331.985 Y367.055
G01 X331.908 Y366.982
G01 X331.831 Y366.909
G01 X331.753 Y366.837
G01 X331.674 Y366.766
G01 X331.594 Y366.696
G01 X331.514 Y366.627
G01 X331.433 Y366.558
G01 X331.351 Y366.490
G01 X331.269 Y366.423
G01 X331.186 Y366.357
G01 X331.102 Y366.291
G01 X331.017 Y366.227
G01 X330.932 Y366.163
G01 X330.846 Y366.100
G01 X330.759 Y366.037
G01 X330.672 Y365.976
G01 X330.584 Y365.916
G01 X330.495 Y365.856
G01 X330.406 Y365.797
G01 X330.316 Y365.739
G01 X330.226 Y365.682
G01 X330.135 Y365.626
G01 X330.043 Y365.571
G01 X329.951 Y365.516
G01 X329.858 Y365.463
G01 X329.765 Y365.410
G01 X329.671 Y365.359
G01 X329.576 Y365.308
G01 X329.481 Y365.258
G01 X329.386 Y365.209
G01 X329.290 Y365.161
G01 X329.193 Y365.114
G01 X329.096 Y365.068
G01 X328.998 Y365.023
G01 X328.900 Y364.979
G01 X328.801 Y364.936
G01 X328.702 Y364.894
G01 X328.603 Y364.853
G01 X328.503 Y364.812
G01 X328.402 Y364.773
G01 X328.301 Y364.735
G01 X328.200 Y364.698
G01 X328.098 Y364.662
G01 X327.996 Y364.626
G01 X327.893 Y364.592
G01 X327.790 Y364.559
G01 X327.687 Y364.527
G01 X327.583 Y364.495
G01 X327.479 Y364.465
G01 X327.375 Y364.436
G01 X327.270 Y364.408
G01 X327.165 Y364.381
G01 X327.060 Y364.355
G01 X326.954 Y364.330
G01 X326.848 Y364.306
G01 X326.742 Y364.283
G01 X326.636 Y364.262
G01 X326.529 Y364.241
G01 X326.422 Y364.221
G01 X326.315 Y364.202
G01 X326.207 Y364.185
G01 X326.099 Y364.168
G01 X325.991 Y364.153
G01 X325.883 Y364.139
G01 X325.775 Y364.125
G01 X325.667 Y364.113
G01 X325.558 Y364.102
G01 X325.449 Y364.092
G01 X325.340 Y364.083
G01 X325.231 Y364.075
G01 X325.122 Y364.069
G01 X325.013 Y364.063
G01 X324.903 Y364.059
G01 X324.794 Y364.055
G01 X324.684 Y364.053
G01 X324.574 Y364.051
G01 X324.465 Y364.051
G01 X324.355 Y364.052
G01 X324.245 Y364.054
G01 X324.135 Y364.057
G01 X324.026 Y364.062
G01 X323.916 Y364.067
G01 X323.806 Y364.073
G01 X323.696 Y364.081
G01 X323.586 Y364.090
G01 X323.477 Y364.099
G01 X323.367 Y364.110
G01 X323.257 Y364.122
G01 X323.148 Y364.135
G01 X323.038 Y364.149
G01 X322.929 Y364.165
G01 X322.820 Y364.181
G01 X322.711 Y364.199
G01 X322.602 Y364.217
G01 X322.493 Y364.237
G01 X322.384 Y364.258
G01 X322.276 Y364.279
G01 X322.167 Y364.302
G01 X322.059 Y364.326
G01 X321.951 Y364.352
G01 X321.844 Y364.378
G01 X321.736 Y364.405
G01 X321.629 Y364.434
G01 X321.522 Y364.463
G01 X321.415 Y364.494
G01 X321.308 Y364.525
G01 X321.202 Y364.558
G01 X321.096 Y364.592
G01 X320.990 Y364.627
G01 X320.885 Y364.663
G01 X320.780 Y364.700
G01 X320.675 Y364.738
G01 X320.571 Y364.777
G01 X320.467 Y364.818
G01 X320.363 Y364.859
G01 X320.260 Y364.901
G01 X320.157 Y364.945
G01 X320.054 Y364.989
G01 X319.952 Y365.035
G01 X319.851 Y365.081
G01 X319.749 Y365.129
G01 X319.649 Y365.178
G01 X319.548 Y365.227
G01 X319.448 Y365.278
G01 X319.349 Y365.330
G01 X319.250 Y365.382
G01 X319.151 Y365.436
G01 X319.053 Y365.491
G01 X318.956 Y365.547
G01 X318.859 Y365.603
G01 X318.763 Y365.661
G01 X318.667 Y365.720
G01 X318.571 Y365.780
G01 X318.477 Y365.840
G01 X318.382 Y365.902
G01 X318.289 Y365.965
G01 X318.196 Y366.028
G01 X318.103 Y366.093
G01 X318.012 Y366.158
G01 X317.920 Y366.225
G01 X317.830 Y366.292
G01 X317.740 Y366.360
G01 X317.651 Y366.430
G01 X317.562 Y366.500
G01 X317.474 Y366.571
G01 X317.387 Y366.643
G01 X317.300 Y366.716
G01 X317.214 Y366.790
G01 X317.129 Y366.864
G01 X317.045 Y366.940
G01 X316.961 Y367.016
G01 X316.878 Y367.094
G01 X316.796 Y367.172
G01 X316.714 Y367.251
G01 X316.633 Y367.331
G01 X316.554 Y367.411
G01 X316.474 Y367.493
G01 X316.396 Y367.575
G01 X316.318 Y367.659
G01 X316.241 Y367.743
G01 X316.165 Y367.827
G01 X316.090 Y367.913
G01 X316.016 Y367.999
G01 X315.942 Y368.087
G01 X315.870 Y368.175
G01 X315.798 Y368.263
G01 X315.727 Y368.353
G01 X315.657 Y368.443
G01 X315.588 Y368.534
G01 X315.519 Y368.625
G01 X315.452 Y368.718
G01 X315.385 Y368.811
G01 X315.320 Y368.905
G01 X315.255 Y368.999
G01 X315.191 Y369.094
G01 X315.129 Y369.190
G01 X315.067 Y369.287
G01 X315.006 Y369.384
G01 X314.946 Y369.482
G01 X314.887 Y369.580
G01 X314.828 Y369.679
G01 X314.771 Y369.779
G01 X314.715 Y369.879
G01 X314.660 Y369.980
G01 X314.606 Y370.082
G01 X314.553 Y370.184
G01 X314.501 Y370.287
G01 X314.449 Y370.390
G01 X314.399 Y370.494
G01 X314.350 Y370.598
G01 X314.302 Y370.703
G01 X314.255 Y370.808
G01 X314.209 Y370.914
G01 X314.164 Y371.021
G01 X314.120 Y371.127
G01 X314.077 Y371.235
G01 X314.035 Y371.343
G01 X313.994 Y371.451
G01 X313.955 Y371.560
G01 X313.916 Y371.669
G01 X313.879 Y371.779
G01 X313.842 Y371.889
G01 X313.807 Y371.999
G01 X313.773 Y372.110
G01 X313.739 Y372.221
G01 X313.707 Y372.333
G01 X313.676 Y372.445
G01 X313.647 Y372.557
G01 X313.618 Y372.670
G01 X313.590 Y372.783
G01 X313.564 Y372.896
G01 X313.538 Y373.010
G01 X313.514 Y373.123
G01 X313.491 Y373.238
G01 X313.469 Y373.352
G01 X313.448 Y373.467
G01 X313.428 Y373.582
G01 X313.410 Y373.697
G01 X313.393 Y373.813
G01 X313.376 Y373.928
G01 X313.361 Y374.044
G01 X313.347 Y374.160
G01 X313.334 Y374.276
G01 X313.323 Y374.393
G01 X313.312 Y374.509
G01 X313.303 Y374.626
G01 X313.295 Y374.743
G01 X313.288 Y374.860
G01 X313.282 Y374.977
G01 X313.278 Y375.094
G01 X313.274 Y375.212
G01 X313.272 Y375.329
G01 X313.271 Y375.447
G01 X313.271 Y375.564
G01 X313.272 Y375.682
G01 X313.275 Y375.799
G01 X313.278 Y375.917
G01 X313.283 Y376.034
G01 X313.289 Y376.152
G01 X313.296 Y376.270
G01 X313.305 Y376.387
G01 X313.314 Y376.505
G01 X313.325 Y376.622
G01 X313.337 Y376.740
G01 X313.350 Y376.857
G01 X313.364 Y376.974
G01 X313.379 Y377.091
G01 X313.396 Y377.208
G01 X313.414 Y377.325
G01 X313.433 Y377.442
G01 X313.453 Y377.559
G01 X313.474 Y377.675
G01 X313.497 Y377.791
G01 X313.520 Y377.907
G01 X313.545 Y378.023
G01 X313.571 Y378.139
G01 X313.598 Y378.255
G01 X313.627 Y378.370
G01 X313.656 Y378.485
G01 X313.687 Y378.600
G01 X313.719 Y378.714
G01 X313.752 Y378.828
G01 X313.786 Y378.942
G01 X313.821 Y379.056
G01 X313.858 Y379.169
G01 X313.895 Y379.282
G01 X313.934 Y379.395
G01 X313.974 Y379.507
G01 X314.015 Y379.619
G01 X314.057 Y379.731
G01 X314.100 Y379.842
G01 X314.145 Y379.953
G01 X314.190 Y380.063
G01 X314.237 Y380.173
G01 X314.285 Y380.283
G01 X314.334 Y380.392
G01 X314.384 Y380.501
G01 X314.435 Y380.609
G01 X314.487 Y380.717
G01 X314.541 Y380.824
G01 X314.595 Y380.931
G01 X314.651 Y381.037
G01 X314.707 Y381.143
G01 X314.765 Y381.248
G01 X314.824 Y381.352
G01 X314.884 Y381.457
G01 X314.944 Y381.560
G01 X315.006 Y381.663
G01 X315.069 Y381.766
G01 X315.133 Y381.867
G01 X315.199 Y381.969
G01 X315.265 Y382.069
G01 X315.332 Y382.169
G01 X315.400 Y382.268
G01 X315.469 Y382.367
G01 X315.540 Y382.465
G01 X315.611 Y382.562
G01 X315.683 Y382.659
G01 X315.756 Y382.755
G01 X315.831 Y382.850
G01 X315.906 Y382.945
G01 X315.982 Y383.039
G01 X316.059 Y383.132
G01 X316.137 Y383.224
G01 X316.216 Y383.316
G01 X316.296 Y383.407
G01 X316.377 Y383.497
G01 X316.459 Y383.586
G01 X316.542 Y383.675
G01 X316.626 Y383.763
G01 X316.710 Y383.849
G01 X316.796 Y383.936
G01 X316.882 Y384.021
G01 X316.970 Y384.105
G01 X317.058 Y384.189
G01 X317.147 Y384.272
G01 X317.237 Y384.354
G01 X317.328 Y384.435
G01 X317.419 Y384.515
G01 X317.512 Y384.594
G01 X317.605 Y384.672
G01 X317.699 Y384.750
G01 X317.794 Y384.826
G01 X317.890 Y384.902
G01 X317.986 Y384.977
G01 X318.084 Y385.050
G01 X318.182 Y385.123
G01 X318.281 Y385.195
G01 X318.380 Y385.266
G01 X318.480 Y385.336
G01 X318.582 Y385.405
G01 X318.683 Y385.473
G01 X318.786 Y385.539
G01 X318.889 Y385.605
G01 X318.993 Y385.670
G01 X319.098 Y385.734
G01 X319.203 Y385.797
G01 X319.309 Y385.859
G01 X319.415 Y385.920
G01 X319.523 Y385.979
G01 X319.631 Y386.038
G01 X319.739 Y386.096
G01 X319.848 Y386.152
G01 X319.958 Y386.208
G01 X320.068 Y386.262
G01 X320.179 Y386.316
G01 X320.291 Y386.368
G01 X320.403 Y386.419
G01 X320.515 Y386.469
G01 X320.629 Y386.518
G01 X320.742 Y386.566
G01 X320.856 Y386.612
G01 X320.971 Y386.658
G01 X321.086 Y386.702
G01 X321.202 Y386.746
G01 X321.318 Y386.788
G01 X321.435 Y386.829
G01 X321.552 Y386.869
G01 X321.669 Y386.907
G01 X321.787 Y386.945
G01 X321.906 Y386.981
G01 X322.024 Y387.016
G01 X322.144 Y387.050
G01 X322.263 Y387.083
G01 X322.383 Y387.115
G01 X322.503 Y387.145
G01 X322.624 Y387.174
G01 X322.745 Y387.202
G01 X322.866 Y387.229
G01 X322.988 Y387.255
G01 X323.110 Y387.279
G01 X323.232 Y387.303
G01 X323.354 Y387.325
G01 X323.477 Y387.345
G01 X323.600 Y387.365
G01 X323.723 Y387.383
G01 X323.847 Y387.400
G01 X323.970 Y387.416
G01 X324.094 Y387.431
G01 X324.218 Y387.444
G01 X324.342 Y387.456
G01 X324.467 Y387.467
G01 X324.591 Y387.477
G01 X324.716 Y387.485
G01 X324.841 Y387.493
G01 X324.966 Y387.499
G01 X325.091 Y387.503
G01 X325.216 Y387.507
G01 X325.341 Y387.509
G01 X325.466 Y387.510
G01 X325.592 Y387.510
G01 X325.717 Y387.508
G01 X325.842 Y387.505
G01 X325.968 Y387.501
G01 X326.093 Y387.496
G01 X326.219 Y387.489
G01 X326.344 Y387.481
G01 X326.469 Y387.472
G01 X326.594 Y387.462
G01 X326.720 Y387.450
G01 X326.845 Y387.437
G01 X326.970 Y387.423
G01 X327.095 Y387.408
G01 X327.220 Y387.391
G01 X327.344 Y387.373
G01 X327.469 Y387.354
G01 X327.593 Y387.333
G01 X327.718 Y387.312
G01 X327.842 Y387.289
G01 X327.966 Y387.265
G01 X328.089 Y387.239
G01 X328.213 Y387.212
G01 X328.336 Y387.184
G01 X328.459 Y387.155
G01 X328.582 Y387.125
G01 X328.705 Y387.093
G01 X328.827 Y387.060
G01 X328.949 Y387.026
G01 X329.070 Y386.991
G01 X329.192 Y386.954
G01 X329.313 Y386.916
G01 X329.433 Y386.877
G01 X329.554 Y386.837
G01 X329.674 Y386.795
G01 X329.793 Y386.753
G01 X329.913 Y386.709
G01 X330.031 Y386.664
G01 X330.150 Y386.617
G01 X330.268 Y386.570
G01 X330.385 Y386.521
G01 X330.502 Y386.471
G01 X330.619 Y386.420
G01 X330.735 Y386.368
G01 X330.851 Y386.314
G01 X330.966 Y386.259
G01 X331.081 Y386.204
G01 X331.195 Y386.147
G01 X331.308 Y386.088
G01 X331.422 Y386.029
G01 X331.534 Y385.969
G01 X331.646 Y385.907
G01 X331.757 Y385.844
G01 X331.868 Y385.780
G01 X331.978 Y385.715
G01 X332.088 Y385.649
G01 X332.197 Y385.582
G01 X332.305 Y385.513
G01 X332.413 Y385.444
G01 X332.520 Y385.373
G01 X332.626 Y385.301
G01 X332.732 Y385.229
G01 X332.837 Y385.155
G01 X332.941 Y385.080
G01 X333.044 Y385.004
G01 X333.147 Y384.927
G01 X333.249 Y384.848
G01 X333.350 Y384.769
G01 X333.451 Y384.689
G01 X333.551 Y384.608
G01 X333.650 Y384.525
G01 X333.748 Y384.442
G01 X333.845 Y384.358
G01 X333.942 Y384.272
G01 X334.038 Y384.186
G01 X334.133 Y384.099
G01 X334.227 Y384.010
G01 X334.320 Y383.921
G01 X334.412 Y383.831
G01 X334.504 Y383.740
G01 X334.594 Y383.648
G01 X334.684 Y383.554
G01 X334.773 Y383.460
G01 X334.861 Y383.366
G01 X334.948 Y383.270
G01 X335.034 Y383.173
G01 X335.119 Y383.075
G01 X335.203 Y382.977
G01 X335.286 Y382.877
G01 X335.369 Y382.777
G01 X335.450 Y382.676
G01 X335.530 Y382.574
G01 X335.609 Y382.471
G01 X335.688 Y382.368
G01 X335.765 Y382.263
G01 X335.841 Y382.158
G01 X335.916 Y382.052
G01 X335.991 Y381.945
G01 X336.064 Y381.837
G01 X336.136 Y381.729
G01 X336.207 Y381.620
G01 X336.277 Y381.510
G01 X336.346 Y381.399
G01 X336.413 Y381.288
G01 X336.480 Y381.176
G01 X336.546 Y381.063
G01 X336.610 Y380.949
G01 X336.674 Y380.835
G01 X336.736 Y380.720
G01 X336.797 Y380.605
G01 X336.857 Y380.489
G01 X336.916 Y380.372
G01 X336.973 Y380.254
G01 X337.030 Y380.136
G01 X337.085 Y380.018
G01 X337.139 Y379.899
G01 X337.192 Y379.779
G01 X337.244 Y379.658
G01 X337.295 Y379.537
G01 X337.344 Y379.416
G01 X337.393 Y379.294
G01 X337.440 Y379.171
G01 X337.485 Y379.048
G01 X337.530 Y378.925
G01 X337.573 Y378.801
G01 X337.616 Y378.676
G01 X337.656 Y378.551
G01 X337.696 Y378.426
G01 X337.735 Y378.300
G01 X337.772 Y378.173
G01 X337.808 Y378.047
G01 X337.842 Y377.920
G01 X337.876 Y377.792
G01 X337.908 Y377.664
G01 X337.939 Y377.536
G01 X337.968 Y377.407
G01 X337.997 Y377.278
G01 X338.024 Y377.149
G01 X338.050 Y377.019
G01 X338.074 Y376.890
G01 X338.097 Y376.759
G01 X338.119 Y376.629
G01 X338.140 Y376.498
G01 X338.159 Y376.367
G01 X338.177 Y376.236
G01 X338.194 Y376.105
G01 X338.209 Y375.973
G01 X338.223 Y375.841
G01 X338.236 Y375.709
G01 X338.247 Y375.577
G01 X338.257 Y375.445
G01 X338.266 Y375.312
G01 X338.273 Y375.180
G01 X338.279 Y375.047
G01 X338.284 Y374.914
G01 X338.288 Y374.781
G01 X338.290 Y374.648
G01 X338.291 Y374.515
G01 X338.290 Y374.382
G01 X338.288 Y374.249
G01 X338.285 Y374.116
G01 X338.280 Y373.983
G01 X338.274 Y373.849
G01 X338.267 Y373.716
G01 X338.259 Y373.583
G01 X338.249 Y373.450
G01 X338.238 Y373.317
G01 X338.225 Y373.184
G01 X338.211 Y373.051
G01 X338.196 Y372.918
G01 X338.179 Y372.786
G01 X338.161 Y372.653
G01 X338.142 Y372.521
G01 X338.122 Y372.388
G01 X338.100 Y372.256
G01 X338.076 Y372.124
G01 X338.052 Y371.993
G01 X338.026 Y371.861
G01 X337.999 Y371.730
G01 X337.970 Y371.599
G01 X337.940 Y371.468
G01 X337.909 Y371.337
G01 X337.877 Y371.207
G01 X337.843 Y371.077
G01 X337.808 Y370.947
G01 X337.771 Y370.818
G01 X337.734 Y370.689
G01 X337.695 Y370.560
G01 X337.654 Y370.432
G01 X337.612 Y370.303
G01 X337.570 Y370.176
G01 X337.525 Y370.049
G01 X337.480 Y369.922
G01 X337.433 Y369.795
G01 X337.385 Y369.669
G01 X337.335 Y369.544
G01 X337.285 Y369.418
G01 X337.233 Y369.294
G01 X337.180 Y369.170
G01 X337.125 Y369.046
G01 X337.070 Y368.923
G01 X337.013 Y368.800
G01 X336.954 Y368.678
G01 X336.895 Y368.556
G01 X336.834 Y368.435
G01 X336.772 Y368.315
G01 X336.709 Y368.195
G01 X336.645 Y368.076
G01 X336.579 Y367.957
G01 X336.513 Y367.839
G01 X336.445 Y367.721
G01 X336.375 Y367.605
G01 X336.305 Y367.488
G01 X336.233 Y367.373
G01 X336.161 Y367.258
G01 X336.087 Y367.144
G01 X336.012 Y367.031
G01 X335.935 Y366.918
G01 X335.858 Y366.806
G01 X335.779 Y366.695
G01 X335.700 Y366.584
G01 X335.619 Y366.475
G01 X335.537 Y366.366
G01 X335.454 Y366.258
G01 X335.370 Y366.150
G01 X335.285 Y366.044
G01 X335.198 Y365.938
G01 X335.111 Y365.833
G01 X335.022 Y365.729
G01 X334.933 Y365.626
G01 X334.842 Y365.524
G01 X334.750 Y365.422
G01 X334.658 Y365.322
G01 X334.564 Y365.222
G01 X334.469 Y365.123
G01 X334.373 Y365.026
G01 X334.276 Y364.929
G01 X334.178 Y364.833
G01 X334.080 Y364.738
G01 X333.980 Y364.644
G01 X333.879 Y364.551
G01 X333.777 Y364.459
G01 X333.675 Y364.368
G01 X333.571 Y364.277
G01 X333.466 Y364.188
G01 X333.361 Y364.100
G01 X333.254 Y364.013
G01 X333.147 Y363.927
G01 X333.039 Y363.842
G01 X332.930 Y363.758
G01 X332.820 Y363.676
G01 X332.709 Y363.594
G01 X332.597 Y363.513
G01 X332.485 Y363.434
G01 X332.371 Y363.355
G01 X332.257 Y363.278
G01 X332.142 Y363.202
G01 X332.026 Y363.126
G01 X331.910 Y363.052
G01 X331.792 Y362.980
G01 X331.674 Y362.908
G01 X331.555 Y362.837
G01 X331.436 Y362.768
G01 X331.315 Y362.700
G01 X331.194 Y362.633
G01 X331.072 Y362.567
G01 X330.950 Y362.503
G01 X330.827 Y362.439
G01 X330.703 Y362.377
G01 X330.578 Y362.316
G01 X330.453 Y362.256
G01 X330.327 Y362.198
G01 X330.201 Y362.141
G01 X330.074 Y362.085
G01 X329.946 Y362.030
G01 X329.818 Y361.976
G01 X329.689 Y361.924
G01 X329.560 Y361.873
G01 X329.430 Y361.824
G01 X329.300 Y361.775
G01 X329.169 Y361.728
G01 X329.037 Y361.682
G01 X328.905 Y361.638
G01 X328.773 Y361.595
G01 X328.640 Y361.553
G01 X328.506 Y361.512
G01 X328.372 Y361.473
G01 X328.238 Y361.435
G01 X328.103 Y361.399
G01 X327.968 Y361.363
G01 X327.833 Y361.330
G01 X327.697 Y361.297
G01 X327.561 Y361.266
G01 X327.424 Y361.236
G01 X327.287 Y361.208
G01 X327.150 Y361.180
G01 X327.012 Y361.155
G01 X326.874 Y361.130
G01 X326.736 Y361.107
G01 X326.598 Y361.086
G01 X326.459 Y361.066
G01 X326.320 Y361.047
G01 X326.181 Y361.029
G01 X326.042 Y361.013
G01 X325.902 Y360.999
G01 X325.762 Y360.985
G01 X325.622 Y360.973
G01 X325.482 Y360.963
G01 X325.342 Y360.954
G01 X325.201 Y360.946
G01 X325.061 Y360.940
G01 X324.920 Y360.935
G01 X324.780 Y360.931
G01 X324.639 Y360.929
G01 X324.498 Y360.929
G01 X324.357 Y360.929
G01 X324.216 Y360.932
G01 X324.075 Y360.935
G01 X323.934 Y360.940
G01 X323.793 Y360.947
G01 X323.652 Y360.954
G01 X323.511 Y360.964
G01 X323.370 Y360.974
G01 X323.230 Y360.986
G01 X323.089 Y361.000
G01 X322.948 Y361.015
G01 X322.808 Y361.031
G01 X322.667 Y361.049
G01 X322.527 Y361.068
G01 X322.387 Y361.088
G01 X322.247 Y361.110
G01 X322.107 Y361.134
G01 X321.968 Y361.158
G01 X321.828 Y361.185
G01 X321.689 Y361.212
G01 X321.550 Y361.241
G01 X321.412 Y361.272
G01 X321.273 Y361.303
G01 X321.135 Y361.337
G01 X320.997 Y361.371
G01 X320.860 Y361.407
G01 X320.722 Y361.444
G01 X320.586 Y361.483
G01 X320.449 Y361.523
G01 X320.313 Y361.565
G01 X320.177 Y361.608
G01 X320.042 Y361.652
G01 X319.907 Y361.697
G01 X319.772 Y361.744
G01 X319.638 Y361.793
G01 X319.504 Y361.842
G01 X319.371 Y361.893
G01 X319.238 Y361.946
G01 X319.106 Y362.000
G01 X318.974 Y362.055
G01 X318.843 Y362.111
G01 X318.712 Y362.169
G01 X318.582 Y362.228
G01 X318.452 Y362.288
G01 X318.323 Y362.350
G01 X318.194 Y362.413
G01 X318.066 Y362.477
G01 X317.939 Y362.543
G01 X317.812 Y362.610
G01 X317.686 Y362.678
G01 X317.561 Y362.748
G01 X317.436 Y362.818
G01 X317.312 Y362.890
G01 X317.189 Y362.964
G01 X317.066 Y363.038
G01 X316.944 Y363.114
G01 X316.823 Y363.191
G01 X316.702 Y363.270
G01 X316.582 Y363.349
G01 X316.463 Y363.430
G01 X316.345 Y363.512
G01 X316.227 Y363.595
G01 X316.111 Y363.679
G01 X315.995 Y363.765
G01 X315.880 Y363.852
G01 X315.766 Y363.940
G01 X315.652 Y364.029
G01 X315.540 Y364.119
G01 X315.428 Y364.210
G01 X315.317 Y364.303
G01 X315.208 Y364.397
G01 X315.099 Y364.492
G01 X314.991 Y364.588
G01 X314.883 Y364.685
G01 X314.777 Y364.783
G01 X314.672 Y364.882
G01 X314.568 Y364.982
G01 X314.465 Y365.084
G01 X314.362 Y365.186
G01 X314.261 Y365.290
G01 X314.161 Y365.394
G01 X314.061 Y365.500
G01 X313.963 Y365.607
G01 X313.866 Y365.714
G01 X313.770 Y365.823
G01 X313.675 Y365.933
G01 X313.581 Y366.043
G01 X313.488 Y366.155
G01 X313.396 Y366.267
G01 X313.305 Y366.381
G01 X313.216 Y366.495
G01 X313.127 Y366.611
G01 X313.040 Y366.727
G01 X312.953 Y366.844
G01 X312.868 Y366.962
G01 X312.784 Y367.081
G01 X312.702 Y367.201
G01 X312.620 Y367.322
G01 X312.540 Y367.444
G01 X312.460 Y367.566
G01 X312.382 Y367.689
G01 X312.306 Y367.813
G01 X312.230 Y367.938
G01 X312.156 Y368.064
G01 X312.082 Y368.191
G01 X312.011 Y368.318
G01 X311.940 Y368.446
G01 X311.871 Y368.575
G01 X311.803 Y368.704
G01 X311.736 Y368.834
G01 X311.670 Y368.965
G01 X311.606 Y369.097
G01 X311.543 Y369.229
G01 X311.481 Y369.362
G01 X311.421 Y369.495
G01 X311.362 Y369.630
G01 X311.304 Y369.765
G01 X311.248 Y369.900
G01 X311.193 Y370.036
G01 X311.139 Y370.173
G01 X311.087 Y370.310
G01 X311.036 Y370.448
G01 X310.987 Y370.586
G01 X310.938 Y370.725
G01 X310.892 Y370.865
G01 X310.846 Y371.005
G01 X310.802 Y371.145
G01 X310.760 Y371.286
G01 X310.718 Y371.427
G01 X310.678 Y371.569
G01 X310.640 Y371.711
G01 X310.603 Y371.854
G01 X310.567 Y371.997
G01 X310.533 Y372.141
G01 X310.500 Y372.285
G01 X310.469 Y372.429
G01 X310.439 Y372.573
G01 X310.411 Y372.718
G01 X310.384 Y372.864
G01 X310.358 Y373.009
G01 X310.334 Y373.155
G01 X310.311 Y373.301
G01 X310.290 Y373.448
G01 X310.270 Y373.595
G01 X310.252 Y373.741
G01 X310.235 Y373.889
G01 X310.220 Y374.036
G01 X310.206 Y374.184
G01 X310.194 Y374.331
G01 X310.183 Y374.479
G01 X310.173 Y374.627
G01 X310.165 Y374.776
G01 X310.159 Y374.924
G01 X310.154 Y375.072
G01 X310.150 Y375.221
G01 X310.148 Y375.369
G01 X310.148 Y375.518
G01 X310.149 Y375.667
G01 X310.151 Y375.816
G01 X310.155 Y375.964
G01 X310.161 Y376.113
G01 X310.168 Y376.262
G01 X310.176 Y376.411
G01 X310.186 Y376.559
G01 X310.197 Y376.708
G01 X310.210 Y376.856
G01 X310.225 Y377.005
G01 X310.240 Y377.153
G01 X310.258 Y377.302
G01 X310.277 Y377.450
G01 X310.297 Y377.598
G01 X310.319 Y377.745
G01 X310.342 Y377.893
G01 X310.367 Y378.041
G01 X310.393 Y378.188
G01 X310.421 Y378.335
G01 X310.450 Y378.482
G01 X310.481 Y378.628
G01 X310.513 Y378.774
G01 X310.547 Y378.920
G01 X310.582 Y379.066
G01 X310.619 Y379.211
G01 X310.657 Y379.356
G01 X310.696 Y379.501
G01 X310.737 Y379.645
G01 X310.780 Y379.789
G01 X310.823 Y379.933
G01 X310.869 Y380.076
G01 X310.916 Y380.219
G01 X310.964 Y380.361
G01 X311.014 Y380.503
G01 X311.065 Y380.645
G01 X311.117 Y380.786
G01 X311.171 Y380.926
G01 X311.227 Y381.066
G01 X311.283 Y381.206
G01 X311.342 Y381.345
G01 X311.401 Y381.483
G01 X311.462 Y381.621
G01 X311.525 Y381.758
G01 X311.589 Y381.895
G01 X311.654 Y382.031
G01 X311.720 Y382.166
G01 X311.788 Y382.301
G01 X311.858 Y382.435
G01 X311.928 Y382.569
G01 X312.001 Y382.702
G01 X312.074 Y382.834
G01 X312.149 Y382.966
G01 X312.225 Y383.096
G01 X312.302 Y383.226
G01 X312.381 Y383.356
G01 X312.461 Y383.484
G01 X312.542 Y383.612
G01 X312.625 Y383.739
G01 X312.709 Y383.865
G01 X312.794 Y383.991
G01 X312.881 Y384.115
G01 X312.969 Y384.239
G01 X313.058 Y384.362
G01 X313.148 Y384.484
G01 X313.240 Y384.605
G01 X313.332 Y384.726
G01 X313.427 Y384.845
G01 X313.522 Y384.963
G01 X313.618 Y385.081
G01 X313.716 Y385.198
G01 X313.815 Y385.313
G01 X313.915 Y385.428
G01 X314.016 Y385.542
G01 X314.119 Y385.655
G01 X314.222 Y385.766
G01 X314.327 Y385.877
G01 X314.433 Y385.987
G01 X314.540 Y386.096
G01 X314.648 Y386.203
G01 X314.757 Y386.310
G01 X314.867 Y386.416
G01 X314.979 Y386.520
G01 X315.091 Y386.624
G01 X315.205 Y386.726
G01 X315.319 Y386.827
G01 X315.435 Y386.927
G01 X315.552 Y387.026
G01 X315.669 Y387.124
G01 X315.788 Y387.221
G01 X315.908 Y387.316
G01 X316.028 Y387.411
G01 X316.150 Y387.504
G01 X316.273 Y387.596
G01 X316.396 Y387.686
G01 X316.521 Y387.776
G01 X316.646 Y387.864
G01 X316.773 Y387.951
G01 X316.900 Y388.037
G01 X317.028 Y388.122
G01 X317.157 Y388.205
G01 X317.287 Y388.287
G01 X317.418 Y388.368
G01 X317.550 Y388.447
G01 X317.682 Y388.526
G01 X317.816 Y388.603
G01 X317.950 Y388.678
G01 X318.085 Y388.752
G01 X318.220 Y388.825
G01 X318.357 Y388.897
G01 X318.494 Y388.967
G01 X318.632 Y389.036
G01 X318.770 Y389.104
G01 X318.910 Y389.170
G01 X319.050 Y389.235
G01 X319.191 Y389.298
G01 X319.332 Y389.360
G01 X319.474 Y389.421
G01 X319.617 Y389.480
G01 X319.760 Y389.538
G01 X319.904 Y389.594
G01 X320.049 Y389.649
G01 X320.194 Y389.702
G01 X320.340 Y389.754
G01 X320.486 Y389.805
G01 X320.633 Y389.854
G01 X320.781 Y389.902
G01 X320.928 Y389.948
G01 X321.077 Y389.993
G01 X321.226 Y390.036
G01 X321.375 Y390.078
G01 X321.525 Y390.118
G01 X321.675 Y390.157
G01 X321.826 Y390.195
G01 X321.977 Y390.230
G01 X322.129 Y390.265
G01 X322.281 Y390.298
G01 X322.433 Y390.329
G01 X322.586 Y390.359
G01 X322.739 Y390.387
G01 X322.892 Y390.414
G01 X323.045 Y390.439
G01 X323.199 Y390.463
G01 X323.354 Y390.485
G01 X323.508 Y390.506
G01 X323.663 Y390.525
G01 X323.818 Y390.542
G01 X323.973 Y390.558
G01 X324.128 Y390.573
G01 X324.284 Y390.586
G01 X324.439 Y390.597
G01 X324.595 Y390.607
G01 X324.751 Y390.615
G01 X324.907 Y390.622
G01 X325.064 Y390.627
G01 X325.220 Y390.630
G01 X325.376 Y390.632
G01 X325.533 Y390.633
G01 X325.689 Y390.632
G01 X325.846 Y390.629
G01 X326.003 Y390.625
G01 X326.159 Y390.619
G01 X326.316 Y390.611
G01 X326.472 Y390.602
G01 X326.629 Y390.592
G01 X326.785 Y390.580
G01 X326.941 Y390.566
G01 X327.098 Y390.551
G01 X327.254 Y390.534
G01 X327.410 Y390.516
G01 X327.565 Y390.496
G01 X327.721 Y390.474
G01 X327.877 Y390.451
G01 X328.032 Y390.426
G01 X328.187 Y390.400
G01 X328.342 Y390.372
G01 X328.497 Y390.343
G01 X328.651 Y390.312
G01 X328.805 Y390.280
G01 X328.959 Y390.246
G01 X329.113 Y390.210
G01 X329.266 Y390.173
G01 X329.419 Y390.134
G01 X329.571 Y390.094
G01 X329.724 Y390.052
G01 X329.875 Y390.009
G01 X330.027 Y389.964
G01 X330.178 Y389.918
G01 X330.328 Y389.870
G01 X330.479 Y389.821
G01 X330.628 Y389.770
G01 X330.778 Y389.718
G01 X330.926 Y389.664
G01 X331.075 Y389.608
G01 X331.222 Y389.551
G01 X331.369 Y389.493
G01 X331.516 Y389.433
G01 X331.662 Y389.372
G01 X331.808 Y389.309
G01 X331.953 Y389.245
G01 X332.097 Y389.179
G01 X332.241 Y389.112
G01 X332.384 Y389.043
G01 X332.526 Y388.973
G01 X332.668 Y388.901
G01 X332.809 Y388.828
G01 X332.949 Y388.754
G01 X333.089 Y388.678
G01 X333.228 Y388.600
G01 X333.366 Y388.522
G01 X333.504 Y388.442
G01 X333.640 Y388.360
G01 X333.776 Y388.277
G01 X333.911 Y388.193
G01 X334.046 Y388.107
G01 X334.179 Y388.020
G01 X334.312 Y387.932
G01 X334.444 Y387.842
G01 X334.575 Y387.751
G01 X334.705 Y387.658
G01 X334.834 Y387.565
G01 X334.962 Y387.470
G01 X335.089 Y387.373
G01 X335.216 Y387.275
G01 X335.341 Y387.176
G01 X335.466 Y387.076
G01 X335.589 Y386.975
G01 X335.712 Y386.872
G01 X335.833 Y386.768
G01 X335.954 Y386.663
G01 X336.073 Y386.556
G01 X336.192 Y386.448
G01 X336.309 Y386.339
G01 X336.426 Y386.229
G01 X336.541 Y386.118
G01 X336.655 Y386.005
G01 X336.768 Y385.891
G01 X336.880 Y385.777
G01 X336.991 Y385.661
G01 X337.101 Y385.543
G01 X337.210 Y385.425
G01 X337.317 Y385.306
G01 X337.423 Y385.185
G01 X337.528 Y385.063
G01 X337.632 Y384.941
G01 X337.735 Y384.817
G01 X337.837 Y384.692
G01 X337.937 Y384.566
G01 X338.036 Y384.439
G01 X338.134 Y384.311
G01 X338.230 Y384.182
G01 X338.325 Y384.052
G01 X338.419 Y383.922
G01 X338.512 Y383.790
G01 X338.604 Y383.657
G01 X338.694 Y383.523
G01 X338.782 Y383.388
G01 X338.870 Y383.252
G01 X338.956 Y383.116
G01 X339.041 Y382.978
G01 X339.124 Y382.840
G01 X339.206 Y382.701
G01 X339.287 Y382.560
G01 X339.366 Y382.420
G01 X339.444 Y382.278
G01 X339.521 Y382.135
G01 X339.596 Y381.992
G01 X339.670 Y381.848
G01 X339.742 Y381.703
G01 X339.813 Y381.557
G01 X339.882 Y381.410
G01 X339.950 Y381.263
G01 X340.017 Y381.115
G01 X340.082 Y380.967
G01 X340.145 Y380.817
G01 X340.207 Y380.667
G01 X340.268 Y380.517
G01 X340.327 Y380.365
G01 X340.384 Y380.213
G01 X340.441 Y380.061
G01 X340.495 Y379.908
G01 X340.548 Y379.754
G01 X340.600 Y379.600
G01 X340.650 Y379.445
G01 X340.698 Y379.289
G01 X340.745 Y379.133
G01 X340.790 Y378.977
G01 X340.834 Y378.820
G01 X340.877 Y378.663
G01 X340.917 Y378.505
G01 X340.956 Y378.346
G01 X340.994 Y378.188
G01 X341.030 Y378.028
G01 X341.064 Y377.869
G01 X341.097 Y377.709
G01 X341.128 Y377.549
G01 X341.158 Y377.388
G01 X341.186 Y377.227
G01 X341.212 Y377.066
G01 X341.237 Y376.904
G01 X341.260 Y376.742
G01 X341.282 Y376.580
G01 X341.302 Y376.417
G01 X341.320 Y376.255
G01 X341.337 Y376.092
G01 X341.352 Y375.929
G01 X341.365 Y375.765
G01 X341.377 Y375.602
G01 X341.387 Y375.438
G01 X341.396 Y375.274
G01 X341.403 Y375.110
G01 X341.408 Y374.946
G01 X341.411 Y374.782
G01 X341.413 Y374.618
G01 X341.414 Y374.454
G01 X341.412 Y374.289
G01 X341.409 Y374.125
G01 X341.405 Y373.961
G01 X341.399 Y373.796
G01 X341.391 Y373.632
G01 X341.381 Y373.468
G01 X341.370 Y373.303
G01 X341.357 Y373.139
G01 X341.343 Y372.975
G01 X341.326 Y372.811
G01 X341.309 Y372.647
G01 X341.289 Y372.483
G01 X341.268 Y372.320
G01 X341.245 Y372.157
G01 X341.221 Y371.993
G01 X341.195 Y371.830
G01 X341.167 Y371.667
G01 X341.138 Y371.505
G01 X341.107 Y371.343
G01 X341.075 Y371.181
G01 X341.041 Y371.019
G01 X341.005 Y370.857
G01 X340.967 Y370.696
G01 X340.928 Y370.535
G01 X340.888 Y370.375
G01 X340.845 Y370.215
G01 X340.801 Y370.055
G01 X340.756 Y369.896
G01 X340.709 Y369.737
G01 X340.660 Y369.579
G01 X340.610 Y369.421
G01 X340.558 Y369.263
G01 X340.504 Y369.106
G01 X340.449 Y368.949
G01 X340.393 Y368.793
G01 X340.334 Y368.638
G01 X340.275 Y368.483
G01 X340.213 Y368.328
G01 X340.150 Y368.175
G01 X340.086 Y368.021
G01 X340.020 Y367.869
G01 X339.952 Y367.717
G01 X339.883 Y367.565
G01 X339.812 Y367.415
G01 X339.740 Y367.265
G01 X339.666 Y367.115
G01 X339.591 Y366.967
G01 X339.515 Y366.819
G01 X339.436 Y366.671
G01 X339.357 Y366.525
G01 X339.275 Y366.379
G01 X339.193 Y366.234
G01 X339.109 Y366.090
G01 X339.023 Y365.947
G01 X338.936 Y365.804
G01 X338.847 Y365.663
G01 X338.757 Y365.522
G01 X338.666 Y365.382
G01 X338.573 Y365.243
G01 X338.479 Y365.105
G01 X338.383 Y364.967
G01 X338.286 Y364.831
G01 X338.188 Y364.696
G01 X338.088 Y364.561
G01 X337.987 Y364.428
G01 X337.884 Y364.295
G01 X337.780 Y364.164
G01 X337.675 Y364.033
G01 X337.568 Y363.904
G01 X337.461 Y363.775
G01 X337.351 Y363.648
G01 X337.241 Y363.521
G01 X337.129 Y363.396
G01 X337.016 Y363.272
G01 X336.902 Y363.149
G01 X336.786 Y363.027
G01 X336.669 Y362.906
G01 X336.551 Y362.786
G01 X336.432 Y362.668
G01 X336.311 Y362.550
G01 X336.189 Y362.434
G01 X336.066 Y362.319
G01 X335.942 Y362.205
G01 X335.817 Y362.093
G01 X335.691 Y361.981
G01 X335.563 Y361.871
G01 X335.434 Y361.762
G01 X335.304 Y361.655
G01 X335.173 Y361.548
G01 X335.041 Y361.443
G01 X334.908 Y361.340
G01 X334.774 Y361.237
G01 X334.639 Y361.136
G01 X334.502 Y361.036
G01 X334.365 Y360.938
G01 X334.227 Y360.841
G01 X334.087 Y360.745
G01 X333.947 Y360.650
G01 X333.806 Y360.557
G01 X333.663 Y360.466
G01 X333.520 Y360.376
G01 X333.376 Y360.287
G01 X333.231 Y360.200
G01 X333.085 Y360.114
G01 X332.938 Y360.029
G01 X332.790 Y359.946
G01 X332.641 Y359.864
G01 X332.492 Y359.784
G01 X332.341 Y359.706
G01 X332.190 Y359.629
G01 X332.038 Y359.553
G01 X331.885 Y359.479
G01 X331.732 Y359.406
G01 X331.577 Y359.335
G01 X331.422 Y359.265
G01 X331.266 Y359.197
G01 X331.110 Y359.131
G01 X330.953 Y359.066
G01 X330.795 Y359.002
G01 X330.636 Y358.941
G01 X330.477 Y358.880
G01 X330.317 Y358.822
G01 X330.156 Y358.765
G01 X329.995 Y358.709
G01 X329.833 Y358.655
G01 X329.671 Y358.603
G01 X329.508 Y358.552
G01 X329.345 Y358.503
G01 X329.181 Y358.456
G01 X329.016 Y358.410
G01 X328.851 Y358.366
G01 X328.686 Y358.323
G01 X328.520 Y358.282
G01 X328.354 Y358.243
G01 X328.187 Y358.205
G01 X328.020 Y358.170
G01 X327.852 Y358.135
G01 X327.684 Y358.103
G01 X327.516 Y358.072
G01 X327.347 Y358.043
G01 X327.178 Y358.015
G01 X327.008 Y357.989
G01 X326.839 Y357.965
G01 X326.669 Y357.942
G01 X326.499 Y357.922
G01 X326.328 Y357.903
G01 X326.157 Y357.885
G01 X325.986 Y357.869
G01 X325.815 Y357.856
G01 X325.644 Y357.843
G01 X325.473 Y357.833
G01 X325.301 Y357.824
G01 X325.129 Y357.817
G01 X324.957 Y357.811
G01 X324.785 Y357.808
G01 X324.613 Y357.806
G01 X324.441 Y357.805
G01 X324.269 Y357.807
G01 X324.097 Y357.810
G01 X323.925 Y357.815
G01 X323.753 Y357.822
G01 X323.581 Y357.830
G01 X323.409 Y357.840
G01 X323.236 Y357.852
G01 X323.065 Y357.866
G01 X322.893 Y357.881
G01 X322.721 Y357.898
G01 X322.549 Y357.917
G01 X322.378 Y357.937
G01 X322.207 Y357.959
G01 X322.035 Y357.983
G01 X321.865 Y358.009
G01 X321.694 Y358.036
G01 X321.523 Y358.065
G01 X321.353 Y358.096
G01 X321.183 Y358.128
G01 X321.013 Y358.162
G01 X320.844 Y358.198
G01 X320.675 Y358.236
G01 X320.506 Y358.275
G01 X320.338 Y358.316
G01 X320.170 Y358.359
G01 X320.002 Y358.403
G01 X319.835 Y358.449
G01 X319.668 Y358.497
G01 X319.502 Y358.546
G01 X319.336 Y358.597
G01 X319.171 Y358.650
G01 X319.006 Y358.705
G01 X318.841 Y358.761
G01 X318.678 Y358.819
G01 X318.514 Y358.878
G01 X318.351 Y358.939
G01 X318.189 Y359.002
G01 X318.028 Y359.066
G01 X317.867 Y359.132
G01 X317.706 Y359.200
G01 X317.546 Y359.269
G01 X317.387 Y359.340
G01 X317.229 Y359.412
G01 X317.071 Y359.486
G01 X316.914 Y359.562
G01 X316.758 Y359.639
G01 X316.602 Y359.718
G01 X316.447 Y359.798
G01 X316.293 Y359.880
G01 X316.140 Y359.964
G01 X315.987 Y360.049
G01 X315.836 Y360.136
G01 X315.685 Y360.224
G01 X315.535 Y360.314
G01 X315.386 Y360.405
G01 X315.238 Y360.498
G01 X315.090 Y360.592
G01 X314.944 Y360.688
G01 X314.798 Y360.785
G01 X314.654 Y360.883
G01 X314.510 Y360.984
G01 X314.367 Y361.085
G01 X314.226 Y361.188
G01 X314.085 Y361.293
G01 X313.945 Y361.399
G01 X313.807 Y361.506
G01 X313.669 Y361.615
G01 X313.533 Y361.725
G01 X313.397 Y361.837
G01 X313.263 Y361.950
G01 X313.130 Y362.064
G01 X312.997 Y362.180
G01 X312.866 Y362.297
G01 X312.736 Y362.415
G01 X312.608 Y362.535
G01 X312.480 Y362.656
G01 X312.354 Y362.779
G01 X312.229 Y362.902
G01 X312.105 Y363.027
G01 X311.982 Y363.153
G01 X311.860 Y363.281
G01 X311.740 Y363.410
G01 X311.621 Y363.540
G01 X311.503 Y363.671
G01 X311.387 Y363.803
G01 X311.272 Y363.937
G01 X311.158 Y364.071
G01 X311.045 Y364.207
G01 X310.934 Y364.344
G01 X310.824 Y364.483
G01 X310.716 Y364.622
G01 X310.609 Y364.762
G01 X310.503 Y364.904
G01 X310.399 Y365.047
G01 X310.296 Y365.190
G01 X310.194 Y365.335
G01 X310.094 Y365.481
G01 X309.995 Y365.628
G01 X309.898 Y365.776
G01 X309.802 Y365.925
G01 X309.708 Y366.075
G01 X309.615 Y366.226
G01 X309.524 Y366.378
G01 X309.434 Y366.530
G01 X309.346 Y366.684
G01 X309.259 Y366.839
G01 X309.174 Y366.994
G01 X309.090 Y367.151
G01 X309.008 Y367.308
G01 X308.927 Y367.466
G01 X308.848 Y367.625
G01 X308.771 Y367.785
G01 X308.695 Y367.946
G01 X308.621 Y368.107
G01 X308.548 Y368.270
G01 X308.477 Y368.433
G01 X308.407 Y368.596
G01 X308.339 Y368.761
G01 X308.273 Y368.926
G01 X308.209 Y369.092
G01 X308.146 Y369.259
G01 X308.084 Y369.426
G01 X308.025 Y369.594
G01 X307.967 Y369.762
G01 X307.910 Y369.932
G01 X307.856 Y370.101
G01 X307.803 Y370.272
G01 X307.752 Y370.443
G01 X307.702 Y370.614
G01 X307.654 Y370.786
G01 X307.608 Y370.959
G01 X307.564 Y371.132
G01 X307.521 Y371.305
G01 X307.480 Y371.479
G01 X307.441 Y371.654
G01 X307.403 Y371.829
G01 X307.368 Y372.004
G01 X307.334 Y372.180
G01 X307.301 Y372.356
G01 X307.271 Y372.532
G01 X307.242 Y372.709
G01 X307.215 Y372.886
G01 X307.190 Y373.063
G01 X307.167 Y373.241
G01 X307.145 Y373.419
G01 X307.125 Y373.597
G01 X307.107 Y373.776
G01 X307.091 Y373.954
G01 X307.076 Y374.133
G01 X307.063 Y374.312
G01 X307.053 Y374.492
G01 X307.043 Y374.671
G01 X307.036 Y374.851
G01 X307.030 Y375.030
G01 X307.027 Y375.210
G01 X307.025 Y375.390
G01 X307.025 Y375.570
G01 X307.026 Y375.750
G01 X307.030 Y375.930
G01 X307.035 Y376.110
G01 X307.042 Y376.290
G01 X307.051 Y376.469
G01 X307.061 Y376.649
G01 X307.074 Y376.829
G01 X307.088 Y377.009
G01 X307.104 Y377.188
G01 X307.122 Y377.368
G01 X307.142 Y377.547
G01 X307.163 Y377.727
G01 X307.186 Y377.906
G01 X307.211 Y378.084
G01 X307.238 Y378.263
G01 X307.267 Y378.441
G01 X307.297 Y378.620
G01 X307.329 Y378.797
G01 X307.363 Y378.975
G01 X307.399 Y379.152
G01 X307.437 Y379.329
G01 X307.476 Y379.506
G01 X307.517 Y379.682
G01 X307.560 Y379.858
G01 X307.605 Y380.034
G01 X307.651 Y380.209
G01 X307.699 Y380.384
G01 X307.749 Y380.558
G01 X307.801 Y380.732
G01 X307.855 Y380.905
G01 X307.910 Y381.078
G01 X307.967 Y381.250
G01 X308.026 Y381.422
G01 X308.086 Y381.593
G01 X308.148 Y381.764
G01 X308.212 Y381.934
G01 X308.278 Y382.103
G01 X308.345 Y382.272
G01 X308.414 Y382.440
G01 X308.485 Y382.608
G01 X308.557 Y382.775
G01 X308.631 Y382.941
G01 X308.707 Y383.107
G01 X308.784 Y383.271
G01 X308.863 Y383.435
G01 X308.944 Y383.599
G01 X309.027 Y383.761
G01 X309.111 Y383.923
G01 X309.196 Y384.084
G01 X309.284 Y384.244
G01 X309.373 Y384.403
G01 X309.463 Y384.562
G01 X309.556 Y384.719
G01 X309.649 Y384.876
G01 X309.745 Y385.032
G01 X309.842 Y385.186
G01 X309.940 Y385.340
G01 X310.040 Y385.493
G01 X310.142 Y385.645
G01 X310.245 Y385.796
G01 X310.350 Y385.946
G01 X310.456 Y386.095
G01 X310.564 Y386.243
G01 X310.673 Y386.390
G01 X310.784 Y386.536
G01 X310.896 Y386.681
G01 X311.010 Y386.824
G01 X311.125 Y386.967
G01 X311.242 Y387.108
G01 X311.360 Y387.248
G01 X311.479 Y387.388
G01 X311.600 Y387.526
G01 X311.722 Y387.662
G01 X311.846 Y387.798
G01 X311.971 Y387.932
G01 X312.098 Y388.066
G01 X312.225 Y388.198
G01 X312.355 Y388.328
G01 X312.485 Y388.458
G01 X312.617 Y388.586
G01 X312.750 Y388.713
G01 X312.885 Y388.838
G01 X313.020 Y388.962
G01 X313.157 Y389.085
G01 X313.296 Y389.207
G01 X313.435 Y389.327
G01 X313.576 Y389.446
G01 X313.718 Y389.563
G01 X313.861 Y389.679
G01 X314.006 Y389.794
G01 X314.151 Y389.907
G01 X314.298 Y390.019
G01 X314.446 Y390.129
G01 X314.595 Y390.238
G01 X314.745 Y390.346
G01 X314.896 Y390.452
G01 X315.048 Y390.556
G01 X315.202 Y390.659
G01 X315.356 Y390.761
G01 X315.512 Y390.860
G01 X315.668 Y390.959
G01 X315.826 Y391.056
G01 X315.985 Y391.151
G01 X316.144 Y391.245
G01 X316.305 Y391.337
G01 X316.466 Y391.427
G01 X316.629 Y391.516
G01 X316.792 Y391.604
G01 X316.956 Y391.689
G01 X317.122 Y391.774
G01 X317.288 Y391.856
G01 X317.455 Y391.937
G01 X317.622 Y392.016
G01 X317.791 Y392.093
G01 X317.960 Y392.169
G01 X318.130 Y392.243
G01 X318.301 Y392.316
G01 X318.473 Y392.387
G01 X318.646 Y392.456
G01 X318.819 Y392.523
G01 X318.993 Y392.589
G01 X319.167 Y392.653
G01 X319.343 Y392.715
G01 X319.519 Y392.775
G01 X319.695 Y392.834
G01 X319.873 Y392.891
G01 X320.050 Y392.946
G01 X320.229 Y393.000
G01 X320.408 Y393.051
G01 X320.587 Y393.101
G01 X320.768 Y393.149
G01 X320.948 Y393.195
G01 X321.129 Y393.240
G01 X321.311 Y393.282
G01 X321.493 Y393.323
G01 X321.675 Y393.362
G01 X321.858 Y393.400
G01 X322.042 Y393.435
G01 X322.226 Y393.469
G01 X322.410 Y393.500
G01 X322.594 Y393.530
G01 X322.779 Y393.558
G01 X322.964 Y393.585
G01 X323.150 Y393.609
G01 X323.335 Y393.631
G01 X323.521 Y393.652
G01 X323.708 Y393.671
G01 X323.894 Y393.688
G01 X324.081 Y393.703
G01 X324.268 Y393.716
G01 X324.455 Y393.728
G01 X324.642 Y393.737
G01 X324.829 Y393.745
G01 X325.017 Y393.750
G01 X325.204 Y393.754
G01 X325.392 Y393.756
G01 X325.580 Y393.756
G01 X325.767 Y393.755
G01 X325.955 Y393.751
G01 X326.143 Y393.745
G01 X326.331 Y393.738
G01 X326.518 Y393.729
G01 X326.706 Y393.718
G01 X326.893 Y393.705
G01 X327.081 Y393.690
G01 X327.268 Y393.673
G01 X327.456 Y393.654
G01 X327.643 Y393.634
G01 X327.830 Y393.611
G01 X328.016 Y393.587
G01 X328.203 Y393.561
G01 X328.389 Y393.533
G01 X328.575 Y393.503
G01 X328.761 Y393.471
G01 X328.947 Y393.437
G01 X329.132 Y393.402
G01 X329.317 Y393.364
G01 X329.502 Y393.325
G01 X329.686 Y393.284
G01 X329.870 Y393.241
G01 X330.053 Y393.196
G01 X330.236 Y393.149
G01 X330.419 Y393.101
G01 X330.601 Y393.051
G01 X330.783 Y392.998
G01 X330.964 Y392.944
G01 X331.145 Y392.889
G01 X331.325 Y392.831
G01 X331.505 Y392.771
G01 X331.684 Y392.710
G01 X331.863 Y392.647
G01 X332.041 Y392.582
G01 X332.218 Y392.515
G01 X332.395 Y392.447
G01 X332.571 Y392.377
G01 X332.746 Y392.305
G01 X332.921 Y392.231
G01 X333.095 Y392.155
G01 X333.268 Y392.078
G01 X333.441 Y391.999
G01 X333.613 Y391.918
G01 X333.784 Y391.836
G01 X333.954 Y391.751
G01 X334.123 Y391.665
G01 X334.292 Y391.577
G01 X334.460 Y391.488
G01 X334.627 Y391.397
G01 X334.793 Y391.304
G01 X334.958 Y391.210
G01 X335.122 Y391.113
G01 X335.286 Y391.016
G01 X335.448 Y390.916
G01 X335.609 Y390.815
G01 X335.770 Y390.712
G01 X335.929 Y390.608
G01 X336.088 Y390.502
G01 X336.245 Y390.394
G01 X336.401 Y390.285
G01 X336.557 Y390.174
G01 X336.711 Y390.062
G01 X336.864 Y389.948
G01 X337.016 Y389.832
G01 X337.167 Y389.715
G01 X337.317 Y389.596
G01 X337.465 Y389.476
G01 X337.613 Y389.355
G01 X337.759 Y389.232
G01 X337.904 Y389.107
G01 X338.048 Y388.981
G01 X338.190 Y388.853
G01 X338.332 Y388.724
G01 X338.472 Y388.594
G01 X338.611 Y388.462
G01 X338.748 Y388.329
G01 X338.884 Y388.194
G01 X339.019 Y388.058
G01 X339.153 Y387.920
G01 X339.285 Y387.781
G01 X339.416 Y387.641
G01 X339.545 Y387.500
G01 X339.673 Y387.357
G01 X339.800 Y387.213
G01 X339.925 Y387.067
G01 X340.049 Y386.920
G01 X340.171 Y386.772
G01 X340.292 Y386.623
G01 X340.412 Y386.472
G01 X340.530 Y386.321
G01 X340.646 Y386.168
G01 X340.761 Y386.014
G01 X340.875 Y385.858
G01 X340.986 Y385.702
G01 X341.097 Y385.544
G01 X341.206 Y385.385
G01 X341.313 Y385.225
G01 X341.419 Y385.064
G01 X341.523 Y384.902
G01 X341.625 Y384.739
G01 X341.726 Y384.575
G01 X341.825 Y384.409
G01 X341.923 Y384.243
G01 X342.019 Y384.076
G01 X342.113 Y383.907
G01 X342.206 Y383.738
G01 X342.297 Y383.568
G01 X342.386 Y383.396
G01 X342.474 Y383.224
G01 X342.560 Y383.051
G01 X342.644 Y382.877
G01 X342.726 Y382.702
G01 X342.807 Y382.527
G01 X342.886 Y382.350
G01 X342.963 Y382.173
G01 X343.039 Y381.995
G01 X343.112 Y381.816
G01 X343.184 Y381.636
G01 X343.254 Y381.455
G01 X343.323 Y381.274
G01 X343.389 Y381.092
G01 X343.454 Y380.909
G01 X343.517 Y380.726
G01 X343.578 Y380.542
G01 X343.637 Y380.357
G01 X343.695 Y380.172
G01 X343.750 Y379.986
G01 X343.804 Y379.800
G01 X343.856 Y379.613
G01 X343.906 Y379.425
G01 X343.954 Y379.237
G01 X344.000 Y379.048
G01 X344.045 Y378.859
G01 X344.087 Y378.669
G01 X344.128 Y378.479
G01 X344.167 Y378.288
G01 X344.204 Y378.097
G01 X344.238 Y377.906
G01 X344.272 Y377.714
G01 X344.303 Y377.522
G01 X344.332 Y377.329
G01 X344.359 Y377.136
G01 X344.384 Y376.943
G01 X344.408 Y376.750
G01 X344.429 Y376.556
G01 X344.449 Y376.362
G01 X344.466 Y376.168
G01 X344.482 Y375.973
G01 X344.496 Y375.778
G01 X344.508 Y375.584
G01 X344.517 Y375.389
G01 X344.525 Y375.193
G01 X344.531 Y374.998
G01 X344.535 Y374.803
G01 X344.537 Y374.607
G01 X344.537 Y374.412
G01 X344.535 Y374.216
G01 X344.532 Y374.021
G01 X344.526 Y373.825
G01 X344.518 Y373.630
G01 X344.508 Y373.434
G01 X344.497 Y373.239
G01 X344.483 Y373.043
G01 X344.467 Y372.848
G01 X344.450 Y372.653
G01 X344.430 Y372.458
G01 X344.409 Y372.263
G01 X344.385 Y372.068
G01 X344.360 Y371.874
G01 X344.333 Y371.680
G01 X344.303 Y371.486
G01 X344.272 Y371.292
G01 X344.239 Y371.098
G01 X344.204 Y370.905
G01 X344.167 Y370.712
G01 X344.128 Y370.519
G01 X344.087 Y370.327
G01 X344.044 Y370.135
G01 X343.999 Y369.944
G01 X343.953 Y369.753
G01 X343.904 Y369.562
G01 X343.853 Y369.372
G01 X343.801 Y369.182
G01 X343.747 Y368.993
G01 X343.690 Y368.804
G01 X343.632 Y368.616
G01 X343.572 Y368.428
G01 X343.510 Y368.241
G01 X343.446 Y368.055
G01 X343.380 Y367.869
G01 X343.313 Y367.684
G01 X343.243 Y367.499
G01 X343.172 Y367.315
G01 X343.099 Y367.132
G01 X343.024 Y366.949
G01 X342.947 Y366.767
G01 X342.868 Y366.586
G01 X342.788 Y366.406
G01 X342.705 Y366.226
G01 X342.621 Y366.047
G01 X342.535 Y365.869
G01 X342.447 Y365.692
G01 X342.358 Y365.515
G01 X342.266 Y365.340
G01 X342.173 Y365.165
G01 X342.078 Y364.991
G01 X341.982 Y364.819
G01 X341.883 Y364.647
G01 X341.783 Y364.476
G01 X341.681 Y364.306
G01 X341.577 Y364.137
G01 X341.472 Y363.969
G01 X341.365 Y363.802
G01 X341.256 Y363.636
G01 X341.146 Y363.471
G01 X341.034 Y363.307
G01 X340.920 Y363.144
G01 X340.805 Y362.983
G01 X340.688 Y362.822
G01 X340.569 Y362.663
G01 X340.449 Y362.505
G01 X340.327 Y362.348
G01 X340.203 Y362.192
G01 X340.078 Y362.037
G01 X339.952 Y361.884
G01 X339.824 Y361.732
G01 X339.694 Y361.581
G01 X339.563 Y361.431
G01 X339.430 Y361.283
G01 X339.295 Y361.136
G01 X339.160 Y360.990
G01 X339.022 Y360.845
G01 X338.883 Y360.702
G01 X338.743 Y360.561
G01 X338.602 Y360.420
G01 X338.458 Y360.281
G01 X338.314 Y360.144
G01 X338.168 Y360.008
G01 X338.021 Y359.873
G01 X337.872 Y359.740
G01 X337.722 Y359.608
G01 X337.570 Y359.478
G01 X337.418 Y359.349
G01 X337.264 Y359.222
G01 X337.108 Y359.096
G01 X336.952 Y358.971
G01 X336.794 Y358.849
G01 X336.634 Y358.728
G01 X336.474 Y358.608
G01 X336.312 Y358.490
G01 X336.149 Y358.373
G01 X335.985 Y358.259
G01 X335.820 Y358.145
G01 X335.654 Y358.034
G01 X335.486 Y357.924
G01 X335.317 Y357.816
G01 X335.147 Y357.709
G01 X334.976 Y357.604
G01 X334.804 Y357.501
G01 X334.631 Y357.399
G01 X334.457 Y357.300
G01 X334.282 Y357.202
G01 X334.106 Y357.105
G01 X333.929 Y357.011
G01 X333.750 Y356.918
G01 X333.571 Y356.827
G01 X333.391 Y356.737
G01 X333.210 Y356.650
G01 X333.028 Y356.564
G01 X332.846 Y356.480
G01 X332.662 Y356.398
G01 X332.477 Y356.318
G01 X332.292 Y356.239
G01 X332.106 Y356.162
G01 X331.919 Y356.088
G01 X331.731 Y356.015
G01 X331.542 Y355.944
G01 X331.353 Y355.875
G01 X331.163 Y355.807
G01 X330.972 Y355.742
G01 X330.781 Y355.678
G01 X330.589 Y355.617
G01 X330.396 Y355.557
G01 X330.202 Y355.499
G01 X330.008 Y355.443
G01 X329.814 Y355.389
G01 X329.618 Y355.337
G01 X329.423 Y355.287
G01 X329.226 Y355.239
G01 X329.030 Y355.193
G01 X328.832 Y355.149
G01 X328.634 Y355.107
G01 X328.436 Y355.066
G01 X328.237 Y355.028
G01 X328.038 Y354.992
G01 X327.839 Y354.958
G01 X327.639 Y354.925
G01 X327.439 Y354.895
G01 X327.238 Y354.867
G01 X327.037 Y354.840
G01 X326.836 Y354.816
G01 X326.634 Y354.794
G01 X326.433 Y354.773
G01 X326.230 Y354.755
G01 X326.028 Y354.739
G01 X325.826 Y354.725
G01 X325.623 Y354.712
G01 X325.420 Y354.702
G01 X325.217 Y354.694
G01 X325.014 Y354.688
G01 X324.811 Y354.684
G01 X324.608 Y354.682
G01 X324.405 Y354.682
G01 X324.201 Y354.684
G01 X323.998 Y354.688
G01 X323.795 Y354.694
G01 X323.591 Y354.702
G01 X323.388 Y354.712
G01 X323.185 Y354.724
G01 X322.981 Y354.738
G01 X322.778 Y354.755
G01 X322.575 Y354.773
G01 X322.373 Y354.793
G01 X322.170 Y354.816
G01 X321.968 Y354.840
G01 X321.765 Y354.866
G01 X321.563 Y354.895
G01 X321.362 Y354.925
G01 X321.160 Y354.958
G01 X320.959 Y354.992
G01 X320.758 Y355.029
G01 X320.557 Y355.068
G01 X320.357 Y355.108
G01 X320.157 Y355.151
G01 X319.958 Y355.195
G01 X319.759 Y355.242
G01 X319.560 Y355.290
G01 X319.362 Y355.341
G01 X319.164 Y355.394
G01 X318.967 Y355.448
G01 X318.770 Y355.505
G01 X318.574 Y355.563
G01 X318.378 Y355.624
G01 X318.183 Y355.686
G01 X317.989 Y355.751
G01 X317.795 Y355.817
G01 X317.602 Y355.886
G01 X317.409 Y355.956
G01 X317.217 Y356.028
G01 X317.026 Y356.102
G01 X316.835 Y356.179
G01 X316.646 Y356.257
G01 X316.456 Y356.337
G01 X316.268 Y356.418
G01 X316.081 Y356.502
G01 X315.894 Y356.588
G01 X315.708 Y356.675
G01 X315.523 Y356.765
G01 X315.339 Y356.856
G01 X315.155 Y356.949
G01 X314.973 Y357.044
G01 X314.791 Y357.141
G01 X314.611 Y357.240
G01 X314.431 Y357.340
G01 X314.252 Y357.443
G01 X314.075 Y357.547
G01 X313.898 Y357.653
G01 X313.723 Y357.760
G01 X313.548 Y357.870
G01 X313.374 Y357.981
G01 X313.202 Y358.094
G01 X313.031 Y358.209
G01 X312.860 Y358.325
G01 X312.691 Y358.444
G01 X312.523 Y358.564
G01 X312.357 Y358.685
G01 X312.191 Y358.809
G01 X312.027 Y358.934
G01 X311.863 Y359.060
G01 X311.701 Y359.189
G01 X311.541 Y359.319
G01 X311.381 Y359.450
G01 X311.223 Y359.584
G01 X311.066 Y359.719
G01 X310.911 Y359.855
G01 X310.757 Y359.993
G01 X310.604 Y360.133
G01 X310.452 Y360.274
G01 X310.302 Y360.416
G01 X310.154 Y360.561
G01 X310.006 Y360.706
G01 X309.861 Y360.854
G01 X309.716 Y361.002
G01 X309.573 Y361.153
G01 X309.432 Y361.304
G01 X309.292 Y361.457
G01 X309.154 Y361.612
G01 X309.017 Y361.768
G01 X308.881 Y361.925
G01 X308.747 Y362.084
G01 X308.615 Y362.244
G01 X308.484 Y362.406
G01 X308.355 Y362.568
G01 X308.228 Y362.733
G01 X308.102 Y362.898
G01 X307.978 Y363.065
G01 X307.855 Y363.233
G01 X307.734 Y363.402
G01 X307.615 Y363.573
G01 X307.497 Y363.744
G01 X307.381 Y363.917
G01 X307.267 Y364.091
G01 X307.155 Y364.267
G01 X307.044 Y364.443
G01 X306.935 Y364.621
G01 X306.828 Y364.799
G01 X306.722 Y364.979
G01 X306.619 Y365.160
G01 X306.517 Y365.342
G01 X306.417 Y365.525
G01 X306.318 Y365.709
G01 X306.222 Y365.894
G01 X306.127 Y366.081
G01 X306.035 Y366.268
G01 X305.944 Y366.456
G01 X305.855 Y366.645
G01 X305.768 Y366.835
G01 X305.682 Y367.025
G01 X305.599 Y367.217
G01 X305.517 Y367.410
G01 X305.438 Y367.603
G01 X305.360 Y367.797
G01 X305.284 Y367.993
G01 X305.211 Y368.188
G01 X305.139 Y368.385
G01 X305.069 Y368.583
G01 X305.001 Y368.781
G01 X304.935 Y368.980
G01 X304.871 Y369.179
G01 X304.809 Y369.379
G01 X304.749 Y369.580
G01 X304.691 Y369.782
G01 X304.635 Y369.984
G01 X304.581 Y370.187
G01 X304.529 Y370.390
G01 X304.479 Y370.594
G01 X304.431 Y370.798
G01 X304.385 Y371.003
G01 X304.342 Y371.209
G01 X304.300 Y371.415
G01 X304.260 Y371.621
G01 X304.222 Y371.828
G01 X304.187 Y372.035
G01 X304.153 Y372.243
G01 X304.122 Y372.451
G01 X304.092 Y372.659
G01 X304.065 Y372.868
G01 X304.040 Y373.077
G01 X304.017 Y373.286
G01 X303.996 Y373.496
G01 X303.977 Y373.705
G01 X303.960 Y373.915
G01 X303.945 Y374.126
G01 X303.932 Y374.336
G01 X303.922 Y374.547
G01 X303.913 Y374.757
G01 X303.907 Y374.968
G01 X303.903 Y375.179
G01 X303.901 Y375.390
G01 X303.901 Y375.601
G01 X303.903 Y375.813
G01 X303.907 Y376.024
G01 X303.913 Y376.235
G01 X303.922 Y376.446
G01 X303.932 Y376.657
G01 X303.945 Y376.868
G01 X303.960 Y377.079
G01 X303.977 Y377.290
G01 X303.996 Y377.501
G01 X304.017 Y377.711
G01 X304.040 Y377.922
G01 X304.065 Y378.132
G01 X304.093 Y378.342
G01 X304.122 Y378.552
G01 X304.154 Y378.761
G01 X304.188 Y378.970
G01 X304.224 Y379.179
G01 X304.262 Y379.388
G01 X304.302 Y379.596
G01 X304.344 Y379.804
G01 X304.388 Y380.011
G01 X304.434 Y380.218
G01 X304.483 Y380.425
G01 X304.533 Y380.631
G01 X304.586 Y380.837
G01 X304.640 Y381.042
G01 X304.697 Y381.247
G01 X304.756 Y381.451
G01 X304.817 Y381.655
G01 X304.880 Y381.858
G01 X304.944 Y382.061
G01 X305.011 Y382.262
G01 X305.080 Y382.464
G01 X305.151 Y382.664
G01 X305.224 Y382.864
G01 X305.299 Y383.064
G01 X305.376 Y383.262
G01 X305.455 Y383.460
G01 X305.536 Y383.657
G01 X305.619 Y383.853
G01 X305.704 Y384.049
G01 X305.791 Y384.243
G01 X305.880 Y384.437
G01 X305.971 Y384.630
G01 X306.064 Y384.822
G01 X306.159 Y385.013
G01 X306.256 Y385.204
G01 X306.354 Y385.393
G01 X306.455 Y385.581
G01 X306.557 Y385.769
G01 X306.662 Y385.955
G01 X306.768 Y386.141
G01 X306.876 Y386.325
G01 X306.986 Y386.508
G01 X307.098 Y386.691
G01 X307.211 Y386.872
G01 X307.327 Y387.052
G01 X307.444 Y387.231
G01 X307.563 Y387.409
G01 X307.684 Y387.585
G01 X307.807 Y387.761
G01 X307.931 Y387.935
G01 X308.058 Y388.108
G01 X308.186 Y388.280
G01 X308.315 Y388.451
G01 X308.447 Y388.620
G01 X308.580 Y388.788
G01 X308.715 Y388.955
G01 X308.852 Y389.120
G01 X308.990 Y389.284
G01 X309.130 Y389.447
G01 X309.272 Y389.608
G01 X309.415 Y389.768
G01 X309.560 Y389.927
G01 X309.706 Y390.084
G01 X309.854 Y390.240
G01 X310.004 Y390.394
G01 X310.155 Y390.547
G01 X310.308 Y390.698
G01 X310.462 Y390.848
G01 X310.618 Y390.996
G01 X310.776 Y391.143
G01 X310.935 Y391.288
G01 X311.095 Y391.432
G01 X311.257 Y391.574
G01 X311.420 Y391.714
G01 X311.585 Y391.853
G01 X311.751 Y391.990
G01 X311.919 Y392.126
G01 X312.087 Y392.260
G01 X312.258 Y392.392
G01 X312.429 Y392.523
G01 X312.602 Y392.652
G01 X312.777 Y392.779
G01 X312.952 Y392.904
G01 X313.129 Y393.028
G01 X313.307 Y393.150
G01 X313.487 Y393.270
G01 X313.668 Y393.389
G01 X313.849 Y393.505
G01 X314.032 Y393.620
G01 X314.217 Y393.733
G01 X314.402 Y393.845
G01 X314.589 Y393.954
G01 X314.776 Y394.062
G01 X314.965 Y394.167
G01 X315.155 Y394.271
G01 X315.346 Y394.373
G01 X315.538 Y394.473
G01 X315.731 Y394.571
G01 X315.925 Y394.667
G01 X316.120 Y394.762
G01 X316.317 Y394.854
G01 X316.514 Y394.944
G01 X316.712 Y395.033
G01 X316.910 Y395.119
G01 X317.110 Y395.204
G01 X317.311 Y395.286
G01 X317.512 Y395.367
G01 X317.715 Y395.446
G01 X317.918 Y395.522
G01 X318.122 Y395.597
G01 X318.327 Y395.669
G01 X318.532 Y395.740
G01 X318.739 Y395.808
G01 X318.946 Y395.874
G01 X319.153 Y395.939
G01 X319.362 Y396.001
G01 X319.571 Y396.061
G01 X319.780 Y396.119
G01 X319.991 Y396.175
G01 X320.202 Y396.229
G01 X320.413 Y396.281
G01 X320.625 Y396.330
G01 X320.838 Y396.378
G01 X321.051 Y396.423
G01 X321.264 Y396.467
G01 X321.478 Y396.508
G01 X321.693 Y396.547
G01 X321.908 Y396.584
G01 X322.123 Y396.619
G01 X322.339 Y396.651
G01 X322.555 Y396.682
G01 X322.771 Y396.710
G01 X322.988 Y396.736
G01 X323.205 Y396.760
G01 X323.422 Y396.782
G01 X323.640 Y396.802
G01 X323.858 Y396.819
G01 X324.076 Y396.834
G01 X324.294 Y396.848
G01 X324.513 Y396.858
G01 X324.731 Y396.867
G01 X324.950 Y396.874
G01 X325.169 Y396.878
G01 X325.387 Y396.880
G01 X325.606 Y396.880
G01 X325.825 Y396.878
G01 X326.044 Y396.874
G01 X326.263 Y396.867
G01 X326.482 Y396.858
G01 X326.701 Y396.848
G01 X326.920 Y396.834
G01 X327.139 Y396.819
G01 X327.357 Y396.802
G01 X327.576 Y396.782
G01 X327.794 Y396.760
G01 X328.012 Y396.736
G01 X328.230 Y396.709
G01 X328.448 Y396.681
G01 X328.665 Y396.650
G01 X328.882 Y396.618
G01 X329.099 Y396.582
G01 X329.316 Y396.545
G01 X329.532 Y396.506
G01 X329.748 Y396.464
G01 X329.964 Y396.421
G01 X330.179 Y396.375
G01 X330.393 Y396.327
G01 X330.608 Y396.277
G01 X330.822 Y396.224
G01 X331.035 Y396.170
G01 X331.248 Y396.113
G01 X331.460 Y396.054
G01 X331.672 Y395.993
G01 X331.883 Y395.930
G01 X332.093 Y395.865
G01 X332.303 Y395.798
G01 X332.513 Y395.729
G01 X332.721 Y395.657
G01 X332.929 Y395.583
G01 X333.136 Y395.508
G01 X333.343 Y395.430
G01 X333.549 Y395.350
G01 X333.754 Y395.268
G01 X333.958 Y395.184
G01 X334.162 Y395.098
G01 X334.364 Y395.010
G01 X334.566 Y394.920
G01 X334.767 Y394.828
G01 X334.967 Y394.733
G01 X335.166 Y394.637
G01 X335.364 Y394.539
G01 X335.561 Y394.439
G01 X335.758 Y394.336
G01 X335.953 Y394.232
G01 X336.147 Y394.126
G01 X336.341 Y394.018
G01 X336.533 Y393.908
G01 X336.724 Y393.796
G01 X336.914 Y393.682
G01 X337.103 Y393.566
G01 X337.291 Y393.448
G01 X337.477 Y393.328
G01 X337.663 Y393.207
G01 X337.847 Y393.083
G01 X338.030 Y392.958
G01 X338.212 Y392.831
G01 X338.393 Y392.702
G01 X338.572 Y392.571
G01 X338.750 Y392.438
G01 X338.927 Y392.304
G01 X339.103 Y392.167
G01 X339.277 Y392.029
G01 X339.450 Y391.889
G01 X339.621 Y391.748
G01 X339.791 Y391.604
G01 X339.960 Y391.459
G01 X340.127 Y391.313
G01 X340.293 Y391.164
G01 X340.457 Y391.014
G01 X340.620 Y390.862
G01 X340.781 Y390.709
G01 X340.941 Y390.554
G01 X341.099 Y390.397
G01 X341.256 Y390.238
G01 X341.411 Y390.078
G01 X341.565 Y389.917
G01 X341.717 Y389.754
G01 X341.868 Y389.589
G01 X342.016 Y389.423
G01 X342.164 Y389.255
G01 X342.309 Y389.086
G01 X342.453 Y388.915
G01 X342.595 Y388.743
G01 X342.736 Y388.570
G01 X342.875 Y388.395
G01 X343.012 Y388.218
G01 X343.147 Y388.040
G01 X343.281 Y387.861
G01 X343.412 Y387.680
G01 X343.542 Y387.498
G01 X343.671 Y387.315
G01 X343.797 Y387.130
G01 X343.921 Y386.945
G01 X344.044 Y386.757
