;  Created by Sandify
;  https://sandify.org
;  Version: 0.2.6
;
;  Machine type: Rectangular
;    Min X (mm): 0
;    Max X (mm): 500
;    Min Y (mm): 0
;    Max Y (mm): 500
;  Content type: shape
;  Layer:
;    Shape: FileImport
;    Name: HamptonHillsCross 2-18-2015.thr
;    From file:: HamptonHillsCross 2-18-2015.thr
;    Aspect Ratio: true
;    Comments: 
;    Visible: true
;    Initial width: 10
;    Initial height: 10
;    X offset: 0
;    Y offset: 0
;    Rotate (degrees): 0
;    Reverse path: false
;    Fine tuning:
;      Connect to next layer: line
;      Draw portion of path (%): 100
;      Backtrack at end (%): 0
;      Rotate starting point (%): 0
;  Reverse export path: false
;
; File name: 'hillscross (C C)'
; File type: gcode
;

G01 X250.000 Y250.000
G01 X249.975 Y250.517
G01 X249.898 Y251.031
G01 X249.772 Y251.537
G01 X249.596 Y252.032
G01 X249.371 Y252.512
G01 X249.098 Y252.974
G01 X248.778 Y253.414
G01 X248.414 Y253.829
G01 X248.007 Y254.214
G01 X247.558 Y254.568
G01 X247.071 Y254.887
G01 X246.547 Y255.168
G01 X245.989 Y255.409
G01 X245.399 Y255.606
G01 X244.782 Y255.757
G01 X244.139 Y255.861
G01 X243.475 Y255.914
G01 X242.792 Y255.915
G01 X242.095 Y255.863
G01 X241.386 Y255.756
G01 X240.670 Y255.592
G01 X239.950 Y255.372
G01 X239.230 Y255.094
G01 X238.514 Y254.758
G01 X237.807 Y254.363
G01 X237.112 Y253.910
G01 X236.433 Y253.398
G01 X235.775 Y252.830
G01 X235.141 Y252.204
G01 X234.535 Y251.523
G01 X233.961 Y250.788
G01 X233.425 Y250.002
G01 X233.425 Y250.816
G01 X233.464 Y251.630
G01 X233.494 Y251.989
G01 X233.542 Y252.808
G01 X233.631 Y253.627
G01 X233.646 Y253.734
G01 X233.726 Y254.567
G01 X233.848 Y255.400
G01 X233.966 Y256.013
G01 X234.118 Y256.863
G01 X234.316 Y257.711
G01 X234.411 Y258.062
G01 X234.616 Y258.939
G01 X234.869 Y259.816
G01 X235.172 Y260.688
G01 X235.342 Y261.122
G01 X235.634 Y262.056
G01 X235.983 Y262.987
G01 X236.389 Y263.913
G01 X236.853 Y264.829
G01 X237.375 Y265.732
G01 X237.659 Y266.181
G01 X238.189 Y267.171
G01 X238.788 Y268.147
G01 X239.455 Y269.105
G01 X240.189 Y270.040
G01 X240.209 Y270.063
G01 X240.976 Y271.055
G01 X241.817 Y272.018
G01 X242.574 Y272.796
G01 X243.526 Y273.781
G01 X244.556 Y274.725
G01 X245.095 Y275.177
G01 X246.230 Y276.123
G01 X247.447 Y277.016
G01 X248.158 Y277.488
G01 X249.495 Y278.341
G01 X250.882 Y279.112
G01 X252.377 Y279.877
G01 X253.948 Y280.563
G01 X254.298 Y280.701
G01 X255.963 Y281.310
G01 X257.697 Y281.827
G01 X257.911 Y281.883
G01 X259.724 Y282.315
G01 X261.598 Y282.644
G01 X262.575 Y282.770
G01 X264.534 Y282.944
G01 X265.452 Y282.985
G01 X267.470 Y282.976
G01 X269.523 Y282.847
G01 X271.010 Y282.678
G01 X273.088 Y282.307
G01 X275.179 Y281.809
G01 X276.841 Y281.323
G01 X278.891 Y280.544
G01 X280.927 Y279.638
G01 X281.983 Y279.115
G01 X283.934 Y277.973
G01 X284.789 Y277.426
G01 X282.822 Y278.595
G01 X282.806 Y278.605
G01 X280.768 Y279.608
G01 X279.400 Y280.204
G01 X277.332 Y280.987
G01 X275.260 Y281.641
G01 X273.922 Y281.996
G01 X271.848 Y282.425
G01 X269.790 Y282.730
G01 X269.314 Y282.784
G01 X267.303 Y282.968
G01 X266.430 Y283.012
G01 X266.664 Y285.813
G01 X268.011 Y290.063
G01 X270.023 Y293.294
G01 X272.627 Y295.901
G01 X275.892 Y297.929
G01 X279.785 Y299.198
G01 X279.802 Y299.203
G01 X282.922 Y299.502
G01 X283.019 Y296.952
G01 X283.353 Y294.203
G01 X284.004 Y291.141
G01 X284.750 Y288.651
G01 X285.470 Y286.785
G01 X286.305 Y284.958
G01 X287.356 Y283.009
G01 X286.305 Y284.958
G01 X285.238 Y287.433
G01 X285.106 Y287.714
G01 X284.207 Y290.570
G01 X284.004 Y291.141
G01 X283.353 Y294.203
G01 X283.073 Y296.454
G01 X282.925 Y300.189
G01 X283.242 Y304.074
G01 X283.976 Y307.775
G01 X285.117 Y311.333
G01 X286.363 Y314.162
G01 X287.340 Y315.994
G01 X285.855 Y318.905
G01 X284.756 Y321.639
G01 X283.362 Y327.118
G01 X282.983 Y334.410
G01 X283.781 Y339.994
G01 X285.353 Y344.931
G01 X287.340 Y348.992
G01 X286.412 Y350.720
G01 X284.016 Y357.077
G01 X282.925 Y365.499
G01 X283.822 Y373.166
G01 X286.288 Y380.005
G01 X290.766 Y386.858
G01 X296.009 Y391.824
G01 X301.685 Y395.280
G01 X307.613 Y397.444
G01 X312.213 Y398.304
G01 X315.924 Y398.500
G01 X320.335 Y398.207
G01 X323.787 Y397.554
G01 X327.564 Y396.368
G01 X330.392 Y395.149
G01 X334.625 Y392.693
G01 X336.668 Y391.169
G01 X339.400 Y388.682
G01 X341.775 Y386.007
G01 X344.235 Y382.447
G01 X345.700 Y379.750
G01 X347.075 Y376.431
G01 X348.126 Y372.718
G01 X348.814 Y368.248
G01 X348.891 Y364.079
G01 X348.285 Y359.077
G01 X347.108 Y354.699
G01 X345.912 Y351.744
G01 X344.514 Y349.004
G01 X345.670 Y346.766
G01 X347.106 Y343.279
G01 X347.996 Y340.290
G01 X348.611 Y336.995
G01 X348.875 Y334.248
G01 X348.931 Y331.967
G01 X348.695 Y328.690
G01 X347.919 Y324.438
G01 X346.956 Y321.257
G01 X345.441 Y317.762
G01 X344.505 Y316.009
G01 X345.597 Y313.924
G01 X346.785 Y311.179
G01 X347.534 Y308.969
G01 X348.179 Y306.448
G01 X348.630 Y303.907
G01 X348.864 Y301.557
G01 X348.928 Y300.065
G01 X348.894 Y298.052
G01 X348.696 Y295.610
G01 X348.205 Y292.671
G01 X346.999 Y288.405
G01 X345.599 Y285.059
G01 X343.343 Y281.140
G01 X344.470 Y283.098
G01 X346.307 Y286.734
G01 X347.614 Y290.547
G01 X348.562 Y294.821
G01 X348.894 Y298.052
G01 X348.929 Y299.508
G01 X350.474 Y299.430
G01 X352.429 Y299.125
G01 X356.145 Y297.834
G01 X359.095 Y296.009
G01 X361.386 Y293.831
G01 X363.296 Y291.112
G01 X364.499 Y288.427
G01 X365.218 Y285.540
G01 X365.424 Y283.003
G01 X362.851 Y282.903
G01 X359.883 Y282.539
G01 X356.317 Y281.726
G01 X353.171 Y280.641
G01 X350.504 Y279.434
G01 X348.928 Y278.586
G01 X350.504 Y279.434
G01 X354.758 Y281.181
G01 X358.101 Y282.129
G01 X362.851 Y282.903
G01 X366.390 Y282.990
G01 X371.930 Y282.357
G01 X376.120 Y281.211
G01 X379.275 Y279.955
G01 X381.913 Y278.585
G01 X384.442 Y279.894
G01 X388.231 Y281.390
G01 X393.758 Y282.675
G01 X399.273 Y282.988
G01 X405.762 Y282.174
G01 X410.048 Y280.879
G01 X414.917 Y278.580
G01 X418.227 Y280.247
G01 X424.076 Y282.180
G01 X429.779 Y282.955
G01 X436.419 Y282.614
G01 X445.128 Y280.029
G01 X450.445 Y276.960
G01 X454.606 Y273.488
G01 X458.327 Y269.094
G01 X461.723 Y263.058
G01 X463.393 Y258.176
G01 X464.236 Y252.420
G01 X464.130 Y245.630
G01 X462.453 Y238.771
G01 X459.453 Y232.596
G01 X456.372 Y228.396
G01 X451.758 Y224.012
G01 X446.165 Y220.472
G01 X440.397 Y218.256
G01 X434.214 Y217.125
G01 X429.376 Y217.062
G01 X424.321 Y217.774
G01 X419.055 Y219.411
G01 X415.310 Y221.640
G01 X410.432 Y219.262
G01 X406.192 Y217.931
G01 X401.898 Y217.195
G01 X398.710 Y217.010
G01 X395.208 Y217.162
G01 X388.998 Y218.376
G01 X384.396 Y220.129
G01 X381.916 Y221.427
G01 X378.476 Y219.701
G01 X374.887 Y218.390
G01 X369.898 Y217.307
G01 X366.838 Y217.034
G01 X364.339 Y217.022
G01 X361.586 Y217.223
G01 X359.046 Y217.625
G01 X354.557 Y218.844
G01 X351.898 Y219.902
G01 X348.885 Y221.447
G01 X347.076 Y222.578
G01 X350.380 Y220.678
G01 X353.228 Y219.375
G01 X355.530 Y218.520
G01 X360.317 Y217.428
G01 X363.337 Y217.065
G01 X365.424 Y216.996
G01 X365.280 Y214.831
G01 X364.502 Y211.584
G01 X363.106 Y208.584
G01 X359.440 Y204.296
G01 X356.353 Y202.263
G01 X352.613 Y200.912
G01 X348.933 Y200.502
G01 X348.627 Y204.958
G01 X347.658 Y209.560
G01 X346.699 Y212.405
G01 X345.458 Y215.209
G01 X344.506 Y217.005
G01 X346.082 Y213.801
G01 X347.658 Y209.560
G01 X348.627 Y204.958
G01 X348.905 Y201.231
G01 X348.716 Y196.723
G01 X348.047 Y192.973
G01 X346.846 Y189.012
G01 X345.791 Y186.457
G01 X344.511 Y184.000
G01 X346.879 Y178.933
G01 X348.564 Y172.312
G01 X348.917 Y167.508
G01 X348.455 Y161.926
G01 X347.560 Y158.068
G01 X345.953 Y153.797
G01 X344.513 Y150.995
G01 X347.820 Y142.932
G01 X348.931 Y134.503
G01 X348.320 Y128.240
G01 X346.157 Y121.306
G01 X344.132 Y117.388
G01 X339.134 Y111.028
G01 X335.626 Y108.022
G01 X332.236 Y105.801
G01 X328.572 Y104.028
G01 X324.432 Y102.630
G01 X320.828 Y101.862
G01 X317.356 Y101.567
G01 X312.148 Y101.723
G01 X305.762 Y103.102
G01 X299.796 Y105.700
G01 X294.366 Y109.514
G01 X289.109 Y115.261
G01 X285.857 Y120.887
G01 X283.974 Y126.228
G01 X282.994 Y132.338
G01 X283.058 Y137.455
G01 X283.955 Y142.668
G01 X285.205 Y146.578
G01 X287.360 Y151.043
G01 X285.705 Y154.240
G01 X283.537 Y161.197
G01 X283.012 Y165.011
G01 X283.006 Y169.747
G01 X283.732 Y174.766
G01 X285.328 Y179.843
G01 X287.339 Y184.006
G01 X285.322 Y188.150
G01 X283.869 Y192.655
G01 X283.093 Y197.157
G01 X282.943 Y201.597
G01 X283.448 Y205.697
G01 X283.532 Y206.847
G01 X284.328 Y210.036
G01 X284.331 Y210.050
G01 X285.326 Y212.756
G01 X285.480 Y213.226
G01 X286.533 Y215.498
G01 X287.736 Y217.657
G01 X288.509 Y218.859
G01 X287.229 Y216.744
G01 X287.128 Y216.586
G01 X286.116 Y214.136
G01 X284.952 Y211.707
G01 X284.913 Y211.632
G01 X284.024 Y208.709
G01 X283.934 Y208.445
G01 X283.274 Y205.300
G01 X283.117 Y203.117
G01 X282.927 Y200.501
G01 X279.377 Y200.891
G01 X276.320 Y201.878
G01 X273.511 Y203.450
G01 X271.806 Y204.811
G01 X269.461 Y207.465
G01 X268.056 Y209.848
G01 X266.782 Y213.580
G01 X266.471 Y215.700
G01 X266.419 Y217.010
G01 X268.457 Y217.072
G01 X268.461 Y217.072
G01 X270.531 Y217.258
G01 X270.655 Y217.273
G01 X272.740 Y217.608
G01 X273.633 Y217.790
G01 X275.716 Y218.334
G01 X276.044 Y218.431
G01 X278.111 Y219.144
G01 X278.641 Y219.348
G01 X280.395 Y220.117
G01 X282.400 Y221.131
G01 X282.928 Y221.422
G01 X280.929 Y220.373
G01 X280.395 Y220.117
G01 X278.345 Y219.255
G01 X277.346 Y218.884
G01 X275.274 Y218.223
G01 X273.633 Y217.790
G01 X271.541 Y217.400
G01 X270.655 Y217.273
G01 X268.581 Y217.083
G01 X267.445 Y217.031
G01 X265.435 Y217.010
G01 X265.215 Y217.015
G01 X263.239 Y217.149
G01 X261.314 Y217.396
G01 X259.945 Y217.644
G01 X258.127 Y218.054
G01 X256.373 Y218.562
G01 X255.934 Y218.708
G01 X254.272 Y219.311
G01 X253.189 Y219.768
G01 X251.691 Y220.473
G01 X250.233 Y221.247
G01 X249.925 Y221.425
G01 X248.479 Y220.611
G01 X246.953 Y219.873
G01 X245.351 Y219.215
G01 X243.678 Y218.644
G01 X243.652 Y218.636
G01 X241.896 Y218.102
G01 X240.625 Y217.786
G01 X238.760 Y217.429
G01 X236.838 Y217.179
G01 X234.865 Y217.041
G01 X234.575 Y217.030
G01 X232.554 Y217.030
G01 X230.497 Y217.151
G01 X228.411 Y217.396
G01 X227.369 Y217.565
G01 X225.279 Y218.036
G01 X223.183 Y218.635
G01 X222.246 Y218.944
G01 X220.208 Y219.788
G01 X218.187 Y220.758
G01 X216.933 Y221.429
G01 X213.511 Y219.707
G01 X209.285 Y218.219
G01 X203.349 Y217.137
G01 X203.225 Y217.120
G01 X198.070 Y217.181
G01 X195.681 Y217.352
G01 X191.072 Y218.409
G01 X189.628 Y218.816
G01 X185.534 Y220.614
G01 X183.915 Y221.420
G01 X180.008 Y219.497
G01 X173.469 Y217.554
G01 X165.656 Y217.054
G01 X160.225 Y217.799
G01 X155.026 Y219.421
G01 X150.914 Y221.423
G01 X146.813 Y219.411
G01 X142.921 Y218.117
G01 X138.407 Y217.247
G01 X132.928 Y217.033
G01 X128.488 Y217.533
G01 X124.148 Y218.643
G01 X121.345 Y219.701
G01 X117.931 Y221.424
G01 X113.063 Y219.121
G01 X108.842 Y217.842
G01 X101.422 Y216.995
G01 X93.359 Y218.004
G01 X87.979 Y219.866
G01 X84.929 Y221.428
G01 X79.844 Y219.039
G01 X72.273 Y217.220
G01 X62.933 Y217.467
G01 X56.534 Y219.217
G01 X51.154 Y221.879
G01 X46.006 Y225.798
G01 X41.612 Y230.755
G01 X39.089 Y234.918
G01 X36.929 Y240.109
G01 X35.810 Y244.925
G01 X35.541 Y247.364
G01 X35.451 Y249.230
G01 X35.456 Y251.654
G01 X35.811 Y255.122
G01 X37.076 Y260.337
G01 X38.451 Y263.815
G01 X40.515 Y267.620
G01 X42.416 Y270.306
G01 X44.957 Y273.188
G01 X47.277 Y275.331
G01 X49.154 Y276.792
G01 X54.774 Y280.047
G01 X60.197 Y281.958
G01 X67.202 Y282.983
G01 X70.649 Y282.935
G01 X73.955 Y282.528
G01 X75.795 Y282.170
G01 X78.385 Y281.461
G01 X80.982 Y280.514
G01 X82.207 Y279.981
G01 X84.076 Y279.065
G01 X84.930 Y278.575
G01 X88.062 Y280.173
G01 X91.359 Y281.434
G01 X94.297 Y282.213
G01 X100.160 Y282.974
G01 X105.140 Y282.791
G01 X109.375 Y282.024
G01 X113.607 Y280.674
G01 X117.932 Y278.579
G01 X121.057 Y280.166
G01 X124.904 Y281.598
G01 X129.085 Y282.569
G01 X132.689 Y282.949
G01 X138.661 Y282.730
G01 X143.862 Y281.628
G01 X148.681 Y279.762
G01 X150.914 Y278.580
G01 X155.898 Y280.914
G01 X162.852 Y282.684
G01 X169.477 Y282.940
G01 X176.797 Y281.644
G01 X183.916 Y278.582
G01 X185.821 Y279.598
G01 X188.037 Y280.585
G01 X191.990 Y281.895
G01 X195.207 Y282.585
G01 X198.973 Y282.967
G01 X202.709 Y282.927
G01 X205.719 Y282.579
G01 X209.939 Y281.602
G01 X212.959 Y280.528
G01 X215.637 Y279.287
G01 X216.915 Y278.588
G01 X218.930 Y279.632
G01 X220.965 Y280.548
G01 X221.988 Y280.958
G01 X224.078 Y281.639
G01 X226.167 Y282.191
G01 X227.156 Y282.408
G01 X229.250 Y282.740
G01 X231.085 Y282.929
G01 X233.139 Y283.005
G01 X235.153 Y282.961
G01 X237.122 Y282.801
G01 X237.151 Y282.798
G01 X239.066 Y282.524
G01 X240.923 Y282.144
G01 X242.404 Y281.754
G01 X244.134 Y281.223
G01 X245.793 Y280.601
G01 X246.231 Y280.417
G01 X247.791 Y279.723
G01 X249.273 Y278.952
G01 X249.923 Y278.575
G01 X249.039 Y278.009
G01 X247.728 Y277.185
G01 X246.885 Y276.593
G01 X245.703 Y275.699
G01 X244.600 Y274.755
G01 X244.473 Y274.638
G01 X243.444 Y273.708
G01 X242.493 Y272.739
G01 X241.920 Y272.094
G01 X241.063 Y271.157
G01 X240.278 Y270.190
G01 X239.566 Y269.198
G01 X239.415 Y268.972
G01 X238.749 Y268.027
G01 X238.149 Y267.063
G01 X237.616 Y266.084
G01 X237.150 Y265.095
G01 X236.932 Y264.574
G01 X236.448 Y263.697
G01 X236.018 Y262.809
G01 X235.665 Y261.969
G01 X235.309 Y261.090
G01 X235.005 Y260.205
G01 X234.751 Y259.317
G01 X234.582 Y258.590
G01 X234.315 Y257.756
G01 X234.093 Y256.916
G01 X233.915 Y256.074
G01 X233.781 Y255.231
G01 X233.690 Y254.389
G01 X233.665 Y254.031
G01 X233.537 Y253.214
G01 X233.449 Y252.396
G01 X233.402 Y251.576
G01 X233.395 Y250.757
G01 X233.425 Y250.002
G01 X235.139 Y250.732
G01 X236.882 Y251.294
G01 X238.639 Y251.687
G01 X240.399 Y251.911
G01 X242.150 Y251.967
G01 X243.879 Y251.857
G01 X245.575 Y251.584
G01 X247.225 Y251.150
G01 X248.819 Y250.559
G01 X249.710 Y250.147
G01 X249.461 Y250.308
G01 X249.227 Y250.494
G01 X249.011 Y250.702
G01 X248.815 Y250.933
G01 X248.638 Y251.184
G01 X248.485 Y251.454
G01 X248.355 Y251.742
G01 X248.250 Y252.045
G01 X248.171 Y252.363
G01 X248.120 Y252.692
G01 X248.097 Y253.032
G01 X248.103 Y253.379
G01 X248.139 Y253.733
G01 X248.206 Y254.091
G01 X248.304 Y254.451
G01 X248.432 Y254.810
G01 X248.592 Y255.166
G01 X248.784 Y255.518
G01 X249.007 Y255.863
G01 X249.261 Y256.198
G01 X249.545 Y256.522
G01 X249.859 Y256.833
G01 X250.203 Y257.127
G01 X250.576 Y257.403
G01 X250.976 Y257.660
G01 X251.402 Y257.894
G01 X251.854 Y258.104
G01 X252.329 Y258.288
G01 X252.827 Y258.444
G01 X253.345 Y258.571
G01 X253.883 Y258.667
G01 X254.438 Y258.729
G01 X255.007 Y258.758
G01 X255.590 Y258.751
G01 X256.184 Y258.707
G01 X256.787 Y258.626
G01 X257.396 Y258.506
G01 X258.010 Y258.346
G01 X258.625 Y258.146
G01 X259.239 Y257.906
G01 X259.850 Y257.624
G01 X260.454 Y257.301
G01 X261.051 Y256.936
G01 X261.636 Y256.530
G01 X262.207 Y256.084
G01 X262.762 Y255.596
G01 X263.297 Y255.069
G01 X263.811 Y254.502
G01 X264.301 Y253.896
G01 X264.764 Y253.254
G01 X265.197 Y252.575
G01 X265.599 Y251.861
G01 X265.967 Y251.114
G01 X266.298 Y250.335
G01 X266.425 Y250.001
G01 X266.445 Y249.193
G01 X266.425 Y248.384
G01 X266.365 Y247.574
G01 X266.289 Y246.936
G01 X266.238 Y246.112
G01 X266.145 Y245.286
G01 X266.010 Y244.459
G01 X265.832 Y243.635
G01 X265.727 Y243.224
G01 X265.562 Y242.369
G01 X265.350 Y241.515
G01 X265.091 Y240.663
G01 X265.016 Y240.442
G01 X264.765 Y239.550
G01 X264.461 Y238.661
G01 X264.105 Y237.776
G01 X263.739 Y236.985
G01 X263.353 Y236.046
G01 X262.906 Y235.115
G01 X262.400 Y234.194
G01 X262.209 Y233.876
G01 X261.670 Y232.905
G01 X261.064 Y231.950
G01 X260.604 Y231.297
G01 X259.925 Y230.300
G01 X259.174 Y229.325
G01 X258.583 Y228.634
G01 X257.727 Y227.651
G01 X256.796 Y226.702
G01 X256.748 Y226.656
G01 X255.754 Y225.676
G01 X254.680 Y224.739
G01 X253.634 Y223.927
G01 X252.421 Y222.993
G01 X251.124 Y222.117
G01 X249.748 Y221.305
G01 X248.691 Y220.754
G01 X247.177 Y219.992
G01 X245.584 Y219.310
G01 X243.919 Y218.715
G01 X243.067 Y218.453
G01 X241.289 Y217.953
G01 X239.445 Y217.553
G01 X237.713 Y217.281
G01 X235.761 Y217.087
G01 X233.761 Y217.008
G01 X231.852 Y217.041
G01 X229.792 Y217.217
G01 X227.706 Y217.517
G01 X225.602 Y217.945
G01 X225.325 Y218.011
G01 X223.250 Y218.633
G01 X221.179 Y219.383
G01 X219.117 Y220.262
G01 X219.112 Y220.265
G01 X217.143 Y221.339
G01 X215.206 Y222.536
G01 X213.310 Y223.856
G01 X213.251 Y223.899
G01 X211.501 Y225.406
G01 X209.812 Y227.022
G01 X208.328 Y228.591
G01 X206.884 Y230.461
G01 X205.525 Y232.421
G01 X204.791 Y233.576
G01 X203.723 Y235.716
G01 X202.756 Y237.922
G01 X202.259 Y239.190
G01 X201.577 Y241.509
G01 X201.009 Y243.869
G01 X200.888 Y244.448
G01 X200.609 Y246.860
G01 X200.449 Y249.286
G01 X200.425 Y250.001
G01 X167.425 Y250.002
G01 X167.101 Y254.075
G01 X167.064 Y254.809
G01 X166.232 Y258.763
G01 X164.982 Y262.452
G01 X163.058 Y266.399
G01 X160.923 Y269.679
G01 X158.104 Y272.979
G01 X154.974 Y275.832
G01 X152.023 Y277.911
G01 X148.247 Y279.969
G01 X139.660 Y282.582
G01 X133.351 Y282.991
G01 X124.456 Y281.459
G01 X119.676 Y279.516
G01 X115.519 Y277.054
G01 X110.546 Y272.766
G01 X106.935 Y268.257
G01 X104.327 Y263.532
G01 X102.578 Y258.638
G01 X101.712 Y254.305
G01 X101.425 Y250.004
G01 X134.425 Y250.003
G01 X134.346 Y247.782
G01 X134.036 Y244.932
G01 X132.994 Y240.387
G01 X131.643 Y236.715
G01 X130.043 Y233.588
G01 X127.672 Y230.011
G01 X124.755 Y226.669
G01 X122.352 Y224.473
G01 X119.130 Y222.151
G01 X114.938 Y219.900
G01 X109.837 Y218.086
G01 X101.421 Y216.997
G01 X94.004 Y217.846
G01 X87.286 Y220.177
G01 X81.344 Y223.824
G01 X74.689 Y230.660
G01 X71.189 Y236.766
G01 X69.127 Y243.219
G01 X68.425 Y250.005
G01 X35.425 Y250.006
G01 X23.700 Y250.209
G01 X23.100 Y250.187
G01 X24.068 Y260.474
G01 X27.258 Y269.568
G01 X31.102 Y276.112
G01 X35.080 Y281.038
G01 X40.526 Y286.028
G01 X46.137 Y289.741
G01 X53.512 Y293.057
G01 X62.123 Y295.146
G01 X71.500 Y295.469
G01 X78.803 Y294.357
G01 X83.459 Y292.991
G01 X84.929 Y292.383
G01 X86.924 Y293.194
G01 X97.141 Y295.370
G01 X104.720 Y295.454
G01 X113.156 Y294.020
G01 X118.109 Y292.354
G01 X121.587 Y293.716
G01 X128.867 Y295.225
G01 X136.568 Y295.520
G01 X144.873 Y294.351
G01 X150.951 Y292.418
G01 X151.829 Y292.811
G01 X158.693 Y294.730
G01 X167.352 Y295.562
G01 X174.609 Y295.000
G01 X182.457 Y293.010
G01 X183.904 Y292.396
G01 X184.867 Y292.824
G01 X189.472 Y294.198
G01 X191.035 Y294.587
G01 X195.822 Y295.312
G01 X196.799 Y295.417
G01 X201.717 Y295.498
G01 X204.712 Y295.363
G01 X209.653 Y294.590
G01 X212.205 Y294.028
G01 X216.713 Y292.330
G01 X217.908 Y292.837
G01 X220.509 Y293.677
G01 X223.115 Y294.367
G01 X224.464 Y294.665
G01 X227.073 Y295.104
G01 X229.662 Y295.396
G01 X231.822 Y295.530
G01 X234.359 Y295.548
G01 X236.853 Y295.429
G01 X237.827 Y295.344
G01 X240.249 Y295.046
G01 X242.611 Y294.621
G01 X243.632 Y294.396
G01 X245.896 Y293.819
G01 X248.088 Y293.128
G01 X249.094 Y292.765
G01 X249.887 Y292.425
G01 X249.993 Y292.475
G01 X252.117 Y293.239
G01 X253.822 Y293.758
G01 X256.072 Y294.300
G01 X256.319 Y294.352
G01 X259.349 Y300.059
G01 X262.848 Y303.969
G01 X263.628 Y304.755
G01 X267.339 Y307.472
G01 X268.607 Y308.303
G01 X271.565 Y309.646
G01 X272.921 Y314.525
G01 X273.511 Y315.934
G01 X273.404 Y316.157
G01 X271.988 Y320.501
G01 X271.096 Y324.418
G01 X270.403 Y330.840
G01 X270.423 Y334.543
G01 X271.345 Y341.853
G01 X272.548 Y346.372
G01 X273.495 Y348.949
G01 X271.479 Y355.511
G01 X270.457 Y362.785
G01 X270.413 Y367.490
G01 X271.213 Y374.227
G01 X272.459 Y379.111
G01 X274.684 Y384.860
G01 X279.287 Y392.624
G01 X285.960 Y399.845
G01 X293.514 Y405.216
G01 X303.187 Y409.207
G01 X304.000 Y409.507
G01 X313.463 Y410.983
G01 X313.896 Y411.037
G01 X322.085 Y410.671
G01 X330.625 Y408.401
G01 X333.921 Y407.400
G01 X341.581 Y403.156
G01 X341.798 Y403.028
G01 X348.264 Y397.579
G01 X352.094 Y393.209
G01 X355.974 Y387.217
G01 X358.405 Y381.956
G01 X360.527 Y374.823
G01 X361.396 Y368.447
G01 X361.331 Y361.726
G01 X360.158 Y354.588
G01 X358.503 Y349.325
G01 X358.362 Y348.998
G01 X359.786 Y344.798
G01 X360.781 Y340.424
G01 X361.363 Y335.624
G01 X361.402 Y329.913
G01 X360.530 Y323.298
G01 X359.408 Y318.955
G01 X358.350 Y315.964
G01 X358.638 Y315.294
G01 X359.709 Y312.069
G01 X360.237 Y309.775
G01 X364.697 Y307.437
G01 X370.017 Y302.904
G01 X370.678 Y302.302
G01 X373.620 Y298.313
G01 X375.659 Y294.332
G01 X377.352 Y293.958
G01 X380.862 Y292.854
G01 X381.896 Y292.420
G01 X384.936 Y293.502
G01 X390.164 Y294.801
G01 X395.411 Y295.454
G01 X401.713 Y295.450
G01 X409.297 Y294.235
G01 X413.662 Y292.936
G01 X414.972 Y292.365
G01 X417.283 Y293.315
G01 X425.256 Y295.136
G01 X431.493 Y295.564
G01 X438.767 Y294.969
G01 X445.950 Y293.174
G01 X451.601 Y290.860
G01 X457.371 Y287.450
G01 X463.840 Y282.027
G01 X467.261 Y278.132
G01 X470.700 Y273.051
G01 X472.782 Y269.109
G01 X475.138 Y262.772
G01 X476.132 Y258.726
G01 X476.760 Y254.233
G01 X476.917 Y251.944
G01 X476.975 Y249.856
G01 X476.692 Y244.891
G01 X475.599 Y238.839
G01 X474.051 Y233.946
G01 X472.876 Y231.115
G01 X471.159 Y227.758
G01 X468.320 Y223.269
G01 X465.158 Y219.387
G01 X460.173 Y214.650
G01 X455.378 Y211.261
G01 X449.125 Y208.030
G01 X443.338 Y206.028
G01 X436.721 Y204.755
G01 X429.929 Y204.472
G01 X424.137 Y205.028
G01 X417.692 Y206.567
G01 X414.933 Y207.581
G01 X409.713 Y205.861
G01 X402.977 Y204.677
G01 X398.315 Y204.457
G01 X391.938 Y204.919
G01 X387.153 Y205.880
G01 X383.229 Y207.068
G01 X381.926 Y207.590
G01 X379.975 Y206.851
G01 X375.568 Y205.634
G01 X373.888 Y202.101
G01 X370.642 Y197.675
G01 X366.999 Y194.256
G01 X363.873 Y192.094
G01 X360.875 Y190.514
G01 X360.269 Y190.284
G01 X359.692 Y187.901
G01 X358.535 Y184.389
G01 X358.354 Y183.994
G01 X358.549 Y183.547
G01 X359.887 Y179.468
G01 X361.125 Y173.168
G01 X361.488 Y167.488
G01 X361.102 Y161.647
G01 X360.197 Y156.761
G01 X358.850 Y152.248
G01 X358.265 Y150.859
G01 X359.688 Y147.171
G01 X361.059 Y140.696
G01 X361.478 Y134.497
G01 X361.032 Y128.048
G01 X359.038 Y119.771
G01 X356.912 Y114.626
G01 X352.977 Y107.980
G01 X349.794 Y104.057
G01 X345.208 Y99.603
G01 X340.124 Y95.922
G01 X335.595 Y93.418
G01 X329.447 Y90.993
G01 X320.699 Y89.220
G01 X320.234 Y89.139
G01 X312.606 Y89.047
G01 X303.351 Y90.696
G01 X296.875 Y93.129
G01 X291.192 Y96.247
G01 X285.242 Y100.806
G01 X278.781 Y108.064
G01 X273.991 Y116.615
G01 X271.364 Y124.987
G01 X270.398 Y132.761
G01 X270.670 Y139.771
G01 X272.314 Y147.654
G01 X273.373 Y150.740
G01 X273.504 Y151.028
G01 X272.704 Y153.151
G01 X271.537 Y157.294
G01 X270.782 Y161.507
G01 X270.459 Y164.797
G01 X270.637 Y172.475
G01 X271.695 Y178.415
G01 X273.021 Y182.783
G01 X273.514 Y183.961
G01 X272.193 Y187.790
G01 X271.537 Y190.344
G01 X268.368 Y191.831
G01 X264.566 Y194.526
G01 X263.450 Y195.407
G01 X259.879 Y199.307
G01 X259.681 Y199.545
G01 X257.346 Y203.223
G01 X256.254 Y205.639
G01 X253.996 Y206.199
G01 X252.894 Y206.521
G01 X250.743 Y207.250
G01 X249.892 Y207.575
G01 X247.767 Y206.778
G01 X245.563 Y206.089
G01 X244.267 Y205.745
G01 X241.951 Y205.241
G01 X239.573 Y204.860
G01 X237.372 Y204.624
G01 X234.887 Y204.475
G01 X232.358 Y204.462
G01 X231.211 Y204.502
G01 X228.638 Y204.709
G01 X226.040 Y205.060
G01 X225.284 Y205.189
G01 X222.679 Y205.749
G01 X220.070 Y206.458
G01 X219.479 Y206.640
G01 X216.943 Y207.585
G01 X216.455 Y207.365
G01 X211.613 Y205.853
G01 X210.444 Y205.553
G01 X205.583 Y204.769
G01 X202.784 Y204.494
G01 X197.974 Y204.565
G01 X194.470 Y204.841
G01 X189.748 Y205.730
G01 X189.253 Y205.843
G01 X184.696 Y207.264
G01 X184.649 Y207.281
G01 X183.913 Y207.588
G01 X183.075 Y207.229
G01 X177.911 Y205.677
G01 X172.772 Y204.766
G01 X167.428 Y204.455
G01 X162.168 Y204.757
G01 X156.499 Y205.792
G01 X151.916 Y207.176
G01 X150.944 Y207.598
G01 X150.070 Y207.224
G01 X144.102 Y205.482
G01 X136.648 Y204.481
G01 X127.746 Y204.922
G01 X121.025 Y206.462
G01 X117.998 Y207.664
G01 X116.145 Y206.892
G01 X108.387 Y204.971
G01 X99.877 Y204.471
G01 X92.902 Y205.241
G01 X86.351 Y207.016
G01 X84.931 Y207.612
G01 X83.461 Y207.003
G01 X77.383 Y205.342
G01 X72.029 Y204.583
G01 X64.212 Y204.621
G01 X56.648 Y205.978
G01 X49.093 Y208.739
G01 X42.854 Y212.293
G01 X37.077 Y216.935
G01 X32.195 Y222.375
G01 X27.253 Y230.491
G01 X25.028 Y236.111
G01 X23.475 Y242.486
G01 X23.100 Y250.055
G01 X23.700 Y250.054
G01 X26.725 Y249.897
G01 X31.025 Y249.943
G01 X34.500 Y249.772
G01 X35.875 Y249.837
G01 X51.600 Y250.008
G01 X51.625 Y250.266
G01 X52.000 Y250.345
G01 X52.375 Y249.949
G01 X52.277 Y249.217
G01 X51.529 Y248.718
G01 X51.229 Y248.696
G01 X50.453 Y248.990
G01 X50.202 Y249.209
G01 X50.001 Y249.488
G01 X49.800 Y250.128
G01 X49.801 Y250.509
G01 X49.877 Y250.889
G01 X50.256 Y251.566
G01 X50.559 Y251.863
G01 X50.936 Y252.078
G01 X51.763 Y252.308
G01 X52.263 Y252.302
G01 X52.712 Y252.178
G01 X53.557 Y251.697
G01 X53.904 Y251.302
G01 X54.177 Y250.830
G01 X54.425 Y249.812
G01 X54.402 Y249.226
G01 X54.255 Y248.657
G01 X53.639 Y247.671
G01 X53.169 Y247.252
G01 X52.599 Y246.948
G01 X51.378 Y246.651
G01 X50.702 Y246.719
G01 X50.024 Y246.908
G01 X48.889 Y247.635
G01 X48.408 Y248.194
G01 X48.053 Y248.837
G01 X47.750 Y250.271
G01 X47.828 Y251.059
G01 X48.033 Y251.806
G01 X48.899 Y253.105
G01 X49.533 Y253.637
G01 X50.291 Y254.043
G01 X51.923 Y254.366
G01 X52.797 Y254.288
G01 X53.641 Y254.034
G01 X55.099 Y253.049
G01 X55.689 Y252.320
G01 X56.131 Y251.501
G01 X56.500 Y249.660
G01 X56.379 Y248.691
G01 X56.088 Y247.739
G01 X54.989 Y246.107
G01 X54.178 Y245.464
G01 X53.264 Y244.990
G01 X51.223 Y244.600
G01 X50.144 Y244.731
G01 X49.111 Y245.065
G01 X47.334 Y246.279
G01 X46.620 Y247.161
G01 X46.108 Y248.194
G01 X45.700 Y250.417
G01 X45.727 Y251.009
G01 X45.831 Y251.601
G01 X46.193 Y252.719
G01 X47.554 Y254.665
G01 X48.014 Y255.079
G01 X48.523 Y255.429
G01 X49.057 Y255.737
G01 X49.615 Y256.001
G01 X50.825 Y256.324
G01 X52.054 Y256.424
G01 X52.703 Y256.383
G01 X53.325 Y256.284
G01 X53.945 Y256.107
G01 X54.563 Y255.873
G01 X55.130 Y255.583
G01 X55.696 Y255.236
G01 X56.675 Y254.397
G01 X57.114 Y253.885
G01 X57.479 Y253.339
G01 X57.820 Y252.756
G01 X58.087 Y252.138
G01 X58.306 Y251.503
G01 X58.452 Y250.851
G01 X58.551 Y249.510
G01 X58.504 Y248.820
G01 X58.384 Y248.149
G01 X58.192 Y247.476
G01 X57.926 Y246.819
G01 X57.613 Y246.198
G01 X57.250 Y245.612
G01 X56.351 Y244.565
G01 X55.790 Y244.083
G01 X55.203 Y243.675
G01 X54.589 Y243.322
G01 X53.924 Y243.025
G01 X53.232 Y242.803
G01 X52.536 Y242.659
G01 X51.090 Y242.545
G01 X50.337 Y242.597
G01 X49.607 Y242.731
G01 X48.899 Y242.947
G01 X48.189 Y243.205
G01 X47.528 Y243.547
G01 X46.890 Y243.954
G01 X45.763 Y244.922
G01 X45.274 Y245.504
G01 X44.836 Y246.151
G01 X44.450 Y246.822
G01 X44.140 Y247.538
G01 X43.907 Y248.256
G01 X43.752 Y249.018
G01 X43.626 Y250.566
G01 X43.704 Y251.349
G01 X43.836 Y252.132
G01 X44.070 Y252.892
G01 X44.357 Y253.649
G01 X44.721 Y254.361
G01 X45.162 Y255.028
G01 X46.195 Y256.226
G01 X46.812 Y256.757
G01 X47.504 Y257.220
G01 X48.219 Y257.619
G01 X48.982 Y257.952
G01 X49.768 Y258.202
G01 X50.551 Y258.370
G01 X52.207 Y258.499
G01 X53.030 Y258.424
G01 X53.874 Y258.270
G01 X54.690 Y258.020
G01 X55.478 Y257.715
G01 X56.238 Y257.316
G01 X56.947 Y256.864
G01 X58.212 Y255.763
G01 X58.793 Y255.095
G01 X59.275 Y254.376
G01 X59.684 Y253.605
G01 X60.046 Y252.800
G01 X60.310 Y251.962
G01 X60.503 Y251.107
G01 X60.601 Y249.383
G01 X60.531 Y248.492
G01 X60.365 Y247.599
G01 X60.103 Y246.741
G01 X59.769 Y245.898
G01 X59.363 Y245.107
G01 X58.884 Y244.349
G01 X57.702 Y243.005
G01 X57.000 Y242.400
G01 X56.220 Y241.884
G01 X55.413 Y241.441
G01 X54.578 Y241.090
G01 X53.691 Y240.794
G01 X52.773 Y240.613
G01 X50.952 Y240.486
G01 X49.998 Y240.561
G01 X49.063 Y240.738
G01 X48.150 Y241.020
G01 X47.284 Y241.367
G01 X46.440 Y241.800
G01 X45.644 Y242.321
G01 X44.226 Y243.565
G01 X43.603 Y244.310
G01 X43.032 Y245.123
G01 X42.589 Y245.984
G01 X42.199 Y246.870
G01 X41.912 Y247.803
G01 X41.704 Y248.759
G01 X41.576 Y250.696
G01 X41.657 Y251.696
G01 X41.842 Y252.673
G01 X42.132 Y253.626
G01 X42.525 Y254.553
G01 X42.972 Y255.454
G01 X43.521 Y256.287
G01 X44.848 Y257.787
G01 X45.624 Y258.433
G01 X46.474 Y259.010
G01 X47.372 Y259.498
G01 X48.318 Y259.899
G01 X49.285 Y260.213
G01 X50.297 Y260.422
G01 X52.332 Y260.554
G01 X53.378 Y260.458
G01 X54.418 Y260.246
G01 X55.430 Y259.959
G01 X56.386 Y259.561
G01 X57.338 Y259.070
G01 X58.213 Y258.490
G01 X59.783 Y257.106
G01 X60.454 Y256.284
G01 X61.077 Y255.393
G01 X61.578 Y254.455
G01 X61.982 Y253.449
G01 X62.316 Y252.429
G01 X62.530 Y251.376
G01 X62.677 Y249.240
G01 X62.559 Y248.133
G01 X62.348 Y247.061
G01 X62.042 Y246.003
G01 X61.617 Y244.977
G01 X61.120 Y244.018
G01 X60.501 Y243.088
G01 X59.041 Y241.447
G01 X58.199 Y240.717
G01 X57.254 Y240.092
G01 X56.256 Y239.555
G01 X55.228 Y239.128
G01 X54.145 Y238.793
G01 X53.057 Y238.553
G01 X50.811 Y238.422
G01 X49.653 Y238.536
G01 X48.539 Y238.755
G01 X47.419 Y239.079
G01 X46.369 Y239.532
G01 X45.342 Y240.054
G01 X44.386 Y240.688
G01 X42.671 Y242.209
G01 X41.914 Y243.118
G01 X41.258 Y244.099
G01 X40.707 Y245.131
G01 X40.234 Y246.211
G01 X39.892 Y247.340
G01 X39.655 Y248.494
G01 X39.527 Y250.850
G01 X39.635 Y252.028
G01 X39.875 Y253.224
G01 X40.221 Y254.373
G01 X40.672 Y255.473
G01 X41.228 Y256.545
G01 X41.887 Y257.545
G01 X43.486 Y259.328
G01 X44.423 Y260.110
G01 X45.460 Y260.798
G01 X46.518 Y261.374
G01 X47.672 Y261.858
G01 X48.845 Y262.213
G01 X50.038 Y262.462
G01 X52.477 Y262.607
G01 X53.722 Y262.488
G01 X54.958 Y262.233
G01 X56.164 Y261.885
G01 X57.312 Y261.409
G01 X58.431 Y260.824
G01 X59.469 Y260.134
G01 X61.340 Y258.465
G01 X62.149 Y257.488
G01 X62.860 Y256.410
G01 X63.450 Y255.288
G01 X63.945 Y254.101
G01 X64.322 Y252.886
G01 X64.582 Y251.639
G01 X64.727 Y249.081
G01 X64.588 Y247.801
G01 X64.333 Y246.517
G01 X63.960 Y245.281
G01 X63.469 Y244.074
G01 X62.859 Y242.912
G01 X62.128 Y241.830
G01 X60.394 Y239.892
G01 X59.390 Y239.036
G01 X58.281 Y238.318
G01 X57.118 Y237.685
G01 X55.873 Y237.177
G01 X54.597 Y236.779
G01 X53.312 Y236.514
G01 X50.665 Y236.372
G01 X49.303 Y236.501
G01 X47.984 Y236.757
G01 X46.705 Y237.163
G01 X45.446 Y237.679
G01 X44.257 Y238.310
G01 X43.114 Y239.054
G01 X41.099 Y240.874
G01 X40.230 Y241.928
G01 X39.464 Y243.079
G01 X38.827 Y244.284
G01 X38.297 Y245.562
G01 X37.898 Y246.890
G01 X37.607 Y248.246
G01 X37.452 Y250.986
G01 X37.588 Y252.388
G01 X37.883 Y253.763
G01 X38.286 Y255.091
G01 X38.822 Y256.388
G01 X39.488 Y257.632
G01 X40.260 Y258.802
G01 X42.135 Y260.890
G01 X43.237 Y261.807
G01 X44.435 Y262.584
G01 X45.680 Y263.267
G01 X47.019 Y263.812
G01 X48.376 Y264.226
G01 X49.775 Y264.510
G01 X52.619 Y264.661
G01 X54.062 Y264.514
G01 X55.495 Y264.232
G01 X56.892 Y263.800
G01 X58.232 Y263.242
G01 X59.514 Y262.560
G01 X60.740 Y261.757
G01 X62.883 Y259.822
G01 X63.827 Y258.671
G01 X64.649 Y257.444
G01 X65.327 Y256.141
G01 X65.911 Y254.758
G01 X66.331 Y253.351
G01 X66.635 Y251.896
G01 X66.778 Y248.945
G01 X66.643 Y247.459
G01 X66.344 Y245.985
G01 X65.881 Y244.538
G01 X65.302 Y243.152
G01 X64.605 Y241.826
G01 X63.764 Y240.557
G01 X61.761 Y238.341
G01 X60.572 Y237.354
G01 X59.301 Y236.522
G01 X57.949 Y235.809
G01 X56.539 Y235.218
G01 X55.069 Y234.772
G01 X53.562 Y234.477
G01 X50.516 Y234.316
G01 X48.973 Y234.478
G01 X47.445 Y234.788
G01 X45.959 Y235.230
G01 X44.538 Y235.830
G01 X43.161 Y236.566
G01 X41.853 Y237.442
G01 X39.536 Y239.519
G01 X38.553 Y240.741
G01 X37.674 Y242.043
G01 X36.926 Y243.444
G01 X36.336 Y244.901
G01 X35.880 Y246.411
G01 X35.560 Y247.971
G01 X35.403 Y251.125
G01 X35.567 Y252.732
G01 X35.893 Y254.313
G01 X36.380 Y255.863
G01 X37.026 Y257.338
G01 X37.781 Y258.757
G01 X38.666 Y260.097
G01 X39.655 Y261.336
G01 X40.770 Y262.451
G01 X42.925 Y264.028
G01 X45.602 Y265.367
G01 X48.754 Y266.244
G01 X52.536 Y266.475
G01 X56.050 Y265.889
G01 X58.921 Y264.788
G01 X61.465 Y263.246
G01 X63.806 Y261.099
G01 X66.072 Y257.958
G01 X67.480 Y254.480
G01 X68.100 Y250.007
G01 X67.710 Y246.416
G01 X66.628 Y243.146
G01 X64.721 Y239.974
G01 X62.840 Y237.919
G01 X60.101 Y235.853
G01 X56.319 Y234.188
G01 X52.661 Y233.532
G01 X49.441 Y233.646
G01 X46.350 Y234.358
G01 X43.395 Y235.688
G01 X41.086 Y237.291
G01 X39.391 Y238.920
G01 X38.299 Y240.263
G01 X37.470 Y241.503
G01 X36.637 Y243.072
G01 X35.721 Y245.551
G01 X35.483 Y248.142
G01 X35.403 Y248.936
G01 X35.400 Y249.858
G01 X35.542 Y252.690
G01 X35.778 Y254.765
G01 X36.164 Y256.982
G01 X36.900 Y259.797
G01 X37.603 Y261.809
G01 X38.421 Y263.738
G01 X39.674 Y266.215
G01 X41.148 Y268.561
G01 X43.390 Y271.490
G01 X45.980 Y274.195
G01 X50.516 Y277.713
G01 X54.963 Y280.124
G01 X60.330 Y282.000
G01 X65.636 Y282.890
G01 X72.446 Y282.757
G01 X77.953 Y281.599
G01 X82.794 Y279.708
G01 X87.854 Y276.673
G01 X92.574 Y272.496
G01 X96.607 Y267.165
G01 X99.027 Y262.323
G01 X100.643 Y257.091
G01 X101.240 Y253.458
G01 X101.425 Y250.006
G01 X117.925 Y250.005
G01 X117.950 Y250.256
G01 X118.325 Y250.335
G01 X118.700 Y249.953
G01 X118.602 Y249.230
G01 X117.831 Y248.710
G01 X117.556 Y248.694
G01 X116.754 Y248.993
G01 X116.527 Y249.218
G01 X116.326 Y249.497
G01 X116.125 Y250.126
G01 X116.126 Y250.514
G01 X116.203 Y250.888
G01 X116.559 Y251.553
G01 X116.888 Y251.856
G01 X117.241 Y252.090
G01 X118.095 Y252.314
G01 X118.570 Y252.306
G01 X119.043 Y252.179
G01 X119.861 Y251.697
G01 X120.232 Y251.303
G01 X120.503 Y250.834
G01 X120.750 Y249.811
G01 X120.727 Y249.230
G01 X120.557 Y248.659
G01 X119.946 Y247.664
G01 X119.479 Y247.251
G01 X118.936 Y246.938
G01 X117.692 Y246.657
G01 X117.016 Y246.707
G01 X116.361 Y246.904
G01 X115.196 Y247.633
G01 X114.737 Y248.193
G01 X114.380 Y248.839
G01 X114.075 Y250.264
G01 X114.129 Y251.052
G01 X114.362 Y251.810
G01 X115.211 Y253.120
G01 X115.849 Y253.642
G01 X116.586 Y254.036
G01 X118.222 Y254.369
G01 X119.120 Y254.287
G01 X119.962 Y254.025
G01 X121.436 Y253.053
G01 X122.021 Y252.322
G01 X122.459 Y251.497
G01 X122.800 Y249.662
G01 X122.707 Y248.681
G01 X122.420 Y247.747
G01 X121.309 Y246.118
G01 X120.505 Y245.458
G01 X119.572 Y244.981
G01 X117.560 Y244.599
G01 X116.479 Y244.729
G01 X115.441 Y245.051
G01 X113.651 Y246.282
G01 X112.929 Y247.168
G01 X112.412 Y248.189
G01 X112.001 Y250.420
G01 X112.054 Y251.013
G01 X112.159 Y251.591
G01 X112.527 Y252.728
G01 X113.855 Y254.677
G01 X114.320 Y255.082
G01 X114.834 Y255.429
G01 X115.372 Y255.744
G01 X115.934 Y255.989
G01 X117.126 Y256.335
G01 X118.382 Y256.433
G01 X119.006 Y256.390
G01 X119.651 Y256.280
G01 X120.269 Y256.107
G01 X120.883 Y255.871
G01 X121.446 Y255.575
G01 X122.007 Y255.243
G01 X122.976 Y254.402
G01 X123.410 Y253.893
G01 X123.794 Y253.350
G01 X124.130 Y252.762
G01 X124.393 Y252.153
G01 X124.609 Y251.510
G01 X124.753 Y250.857
G01 X124.876 Y249.517
G01 X124.805 Y248.828
G01 X124.689 Y248.138
G01 X124.501 Y247.470
G01 X124.265 Y246.823
G01 X123.932 Y246.197
G01 X123.576 Y245.616
G01 X122.666 Y244.552
G01 X122.111 Y244.093
G01 X121.530 Y243.679
G01 X120.897 Y243.325
G01 X120.237 Y243.030
G01 X119.548 Y242.810
G01 X118.831 Y242.652
G01 X117.409 Y242.546
G01 X116.655 Y242.597
G01 X115.922 Y242.731
G01 X115.210 Y242.936
G01 X114.520 Y243.212
G01 X113.853 Y243.547
G01 X113.208 Y243.955
G01 X112.093 Y244.928
G01 X111.598 Y245.506
G01 X111.154 Y246.145
G01 X110.786 Y246.817
G01 X110.472 Y247.536
G01 X110.236 Y248.259
G01 X110.053 Y249.026
G01 X109.951 Y250.552
G01 X110.007 Y251.350
G01 X110.166 Y252.131
G01 X110.380 Y252.896
G01 X110.673 Y253.643
G01 X111.043 Y254.356
G01 X111.466 Y255.023
G01 X112.516 Y256.224
G01 X113.142 Y256.758
G01 X113.816 Y257.216
G01 X114.540 Y257.626
G01 X115.284 Y257.949
G01 X116.076 Y258.198
G01 X116.888 Y258.376
G01 X118.523 Y258.484
G01 X119.346 Y258.418
G01 X120.187 Y258.259
G01 X120.999 Y258.026
G01 X121.782 Y257.720
G01 X122.561 Y257.328
G01 X123.261 Y256.868
G01 X124.532 Y255.756
G01 X125.104 Y255.091
G01 X125.602 Y254.373
G01 X126.002 Y253.602
G01 X126.357 Y252.800
G01 X126.616 Y251.967
G01 X126.805 Y251.114
G01 X126.927 Y249.377
G01 X126.859 Y248.478
G01 X126.673 Y247.600
G01 X126.443 Y246.742
G01 X126.093 Y245.902
G01 X125.696 Y245.105
G01 X125.203 Y244.348
G01 X124.019 Y243.006
G01 X123.302 Y242.407
G01 X122.558 Y241.889
G01 X121.736 Y241.437
G01 X120.883 Y241.082
G01 X120.000 Y240.799
G01 X119.112 Y240.605
G01 X117.266 Y240.485
G01 X116.308 Y240.564
G01 X115.393 Y240.743
G01 X114.473 Y241.007
G01 X113.598 Y241.373
G01 X112.745 Y241.802
G01 X111.963 Y242.323
G01 X110.523 Y243.571
G01 X109.915 Y244.315
G01 X109.360 Y245.124
G01 X108.907 Y245.983
G01 X108.509 Y246.878
G01 X108.217 Y247.808
G01 X108.005 Y248.756
G01 X107.902 Y250.702
G01 X107.985 Y251.696
G01 X108.175 Y252.672
G01 X108.447 Y253.630
G01 X108.823 Y254.553
G01 X109.281 Y255.454
G01 X109.841 Y256.289
G01 X111.168 Y257.788
G01 X111.933 Y258.438
G01 X112.795 Y259.005
G01 X113.680 Y259.495
G01 X114.637 Y259.905
G01 X115.612 Y260.212
G01 X116.606 Y260.418
G01 X118.648 Y260.549
G01 X119.694 Y260.452
G01 X120.731 Y260.252
G01 X121.736 Y259.953
G01 X122.708 Y259.557
G01 X123.650 Y259.067
G01 X124.513 Y258.501
G01 X126.104 Y257.112
G01 X126.785 Y256.282
G01 X127.393 Y255.391
G01 X127.881 Y254.452
G01 X128.299 Y253.450
G01 X128.624 Y252.433
G01 X128.858 Y251.374
G01 X128.977 Y249.230
G01 X128.889 Y248.140
G01 X128.661 Y247.056
G01 X128.366 Y246.002
G01 X127.953 Y244.986
G01 X127.421 Y244.006
G01 X126.819 Y243.087
G01 X125.368 Y241.442
G01 X124.517 Y240.728
G01 X123.562 Y240.097
G01 X122.577 Y239.559
G01 X121.535 Y239.124
G01 X120.458 Y238.798
G01 X119.375 Y238.560
G01 X117.128 Y238.430
G01 X115.965 Y238.531
G01 X114.841 Y238.762
G01 X113.737 Y239.081
G01 X112.674 Y239.521
G01 X111.657 Y240.055
G01 X110.686 Y240.686
G01 X108.990 Y242.214
G01 X108.217 Y243.124
G01 X107.572 Y244.092
G01 X107.008 Y245.128
G01 X106.550 Y246.218
G01 X106.224 Y247.346
G01 X105.983 Y248.494
G01 X105.827 Y250.842
G01 X105.939 Y252.037
G01 X106.186 Y253.213
G01 X106.517 Y254.369
G01 X106.980 Y255.472
G01 X107.550 Y256.549
G01 X108.200 Y257.542
G01 X109.811 Y259.342
G01 X110.742 Y260.120
G01 X111.771 Y260.795
G01 X112.846 Y261.374
G01 X113.991 Y261.855
G01 X115.152 Y262.215
G01 X116.356 Y262.470
G01 X118.804 Y262.599
G01 X120.048 Y262.480
G01 X121.281 Y262.244
G01 X122.477 Y261.873
G01 X123.638 Y261.396
G01 X124.741 Y260.817
G01 X125.787 Y260.126
G01 X127.642 Y258.461
G01 X128.455 Y257.477
G01 X129.170 Y256.415
G01 X129.766 Y255.287
G01 X130.271 Y254.113
G01 X130.635 Y252.882
G01 X130.886 Y251.637
G01 X131.053 Y249.089
G01 X130.921 Y247.790
G01 X130.651 Y246.519
G01 X130.293 Y245.274
G01 X129.797 Y244.062
G01 X129.182 Y242.917
G01 X128.450 Y241.824
G01 X126.714 Y239.885
G01 X125.706 Y239.051
G01 X124.594 Y238.309
G01 X123.422 Y237.688
G01 X122.192 Y237.169
G01 X120.925 Y236.781
G01 X119.620 Y236.515
G01 X116.971 Y236.376
G01 X115.627 Y236.496
G01 X114.319 Y236.762
G01 X113.001 Y237.159
G01 X111.748 Y237.683
G01 X110.563 Y238.322
G01 X109.425 Y239.061
G01 X107.417 Y240.868
G01 X106.552 Y241.921
G01 X105.791 Y243.078
G01 X105.137 Y244.295
G01 X104.617 Y245.570
G01 X104.208 Y246.885
G01 X103.936 Y248.238
G01 X103.778 Y250.986
G01 X103.920 Y252.387
G01 X104.198 Y253.754
G01 X104.614 Y255.096
G01 X105.141 Y256.398
G01 X105.802 Y257.641
G01 X106.570 Y258.809
G01 X108.444 Y260.899
G01 X109.545 Y261.803
G01 X110.743 Y262.587
G01 X112.011 Y263.266
G01 X113.320 Y263.802
G01 X114.696 Y264.224
G01 X116.084 Y264.511
G01 X118.943 Y264.666
G01 X120.385 Y264.518
G01 X121.812 Y264.228
G01 X123.199 Y263.804
G01 X124.548 Y263.252
G01 X125.834 Y262.564
G01 X127.036 Y261.759
G01 X129.198 Y259.811
G01 X130.138 Y258.674
G01 X130.957 Y257.443
G01 X131.659 Y256.129
G01 X132.221 Y254.766
G01 X132.648 Y253.350
G01 X132.940 Y251.901
G01 X133.105 Y248.953
G01 X132.953 Y247.453
G01 X132.644 Y245.978
G01 X132.202 Y244.535
G01 X131.623 Y243.143
G01 X130.930 Y241.824
G01 X130.096 Y240.561
G01 X128.083 Y238.326
G01 X126.896 Y237.367
G01 X125.628 Y236.520
G01 X124.274 Y235.801
G01 X122.857 Y235.216
G01 X121.374 Y234.770
G01 X119.873 Y234.473
G01 X116.846 Y234.314
G01 X115.292 Y234.473
G01 X113.773 Y234.781
G01 X112.289 Y235.242
G01 X110.844 Y235.833
G01 X109.465 Y236.572
G01 X108.180 Y237.436
G01 X105.856 Y239.508
G01 X104.870 Y240.734
G01 X103.992 Y242.041
G01 X103.246 Y243.442
G01 X102.638 Y244.905
G01 X102.194 Y246.414
G01 X101.864 Y247.976
G01 X101.729 Y251.133
G01 X101.900 Y252.731
G01 X102.213 Y254.308
G01 X102.716 Y255.856
G01 X103.334 Y257.345
G01 X104.088 Y258.771
G01 X104.976 Y260.101
G01 X105.995 Y261.334
G01 X107.092 Y262.456
G01 X109.247 Y264.029
G01 X111.928 Y265.367
G01 X115.075 Y266.247
G01 X118.855 Y266.471
G01 X122.360 Y265.888
G01 X125.224 Y264.797
G01 X127.764 Y263.233
G01 X130.139 Y261.112
G01 X132.369 Y257.957
G01 X133.811 Y254.480
G01 X134.425 Y250.005
G01 X134.031 Y246.408
G01 X132.925 Y243.148
G01 X131.022 Y239.975
G01 X129.153 Y237.916
G01 X126.407 Y235.854
G01 X122.629 Y234.181
G01 X118.980 Y233.542
G01 X115.743 Y233.640
G01 X112.662 Y234.364
G01 X109.703 Y235.688
G01 X107.416 Y237.282
G01 X105.700 Y238.916
G01 X104.601 Y240.264
G01 X103.771 Y241.515
G01 X102.964 Y243.061
G01 X102.042 Y245.551
G01 X101.595 Y247.572
G01 X101.425 Y250.199
G01 X101.593 Y252.321
G01 X102.128 Y254.814
G01 X103.214 Y257.454
G01 X104.380 Y259.426
G01 X105.584 Y260.872
G01 X106.929 Y262.312
G01 X108.200 Y263.331
G01 X110.422 Y264.701
G01 X112.507 Y265.595
G01 X116.535 Y266.451
G01 X120.608 Y266.185
G01 X123.805 Y265.350
G01 X126.493 Y264.021
G01 X128.961 Y262.174
G01 X131.257 Y259.537
G01 X132.925 Y256.850
G01 X134.052 Y253.484
G01 X134.425 Y250.005
G01 X134.530 Y247.360
G01 X135.368 Y242.152
G01 X137.229 Y236.694
G01 X137.234 Y236.682
G01 X140.195 Y231.530
G01 X140.968 Y230.288
G01 X144.647 Y226.124
G01 X149.439 Y222.325
G01 X155.979 Y219.088
G01 X156.315 Y218.937
G01 X164.442 Y217.144
G01 X174.715 Y217.818
G01 X180.881 Y219.872
G01 X186.788 Y223.285
G01 X192.923 Y229.115
G01 X193.067 Y229.240
G01 X195.295 Y233.043
G01 X197.270 Y235.930
G01 X198.350 Y238.901
G01 X199.009 Y240.465
G01 X199.483 Y243.099
G01 X200.092 Y245.663
G01 X200.165 Y245.937
G01 X200.282 Y248.395
G01 X200.425 Y250.002
G01 X183.925 Y250.003
G01 X183.951 Y250.260
G01 X184.326 Y250.338
G01 X184.700 Y249.950
G01 X184.605 Y249.224
G01 X183.837 Y248.719
G01 X183.563 Y248.700
G01 X182.758 Y248.987
G01 X182.505 Y249.213
G01 X182.327 Y249.488
G01 X182.125 Y250.125
G01 X182.127 Y250.512
G01 X182.206 Y250.884
G01 X182.568 Y251.561
G01 X182.876 Y251.856
G01 X183.258 Y252.086
G01 X184.091 Y252.317
G01 X184.565 Y252.300
G01 X185.037 Y252.186
G01 X185.872 Y251.696
G01 X186.238 Y251.297
G01 X186.506 Y250.841
G01 X186.750 Y249.806
G01 X186.730 Y249.224
G01 X186.564 Y248.658
G01 X185.967 Y247.671
G01 X185.483 Y247.253
G01 X184.922 Y246.942
G01 X183.684 Y246.658
G01 X183.006 Y246.711
G01 X182.346 Y246.902
G01 X181.191 Y247.635
G01 X180.724 Y248.194
G01 X180.385 Y248.840
G01 X180.076 Y250.269
G01 X180.133 Y251.051
G01 X180.348 Y251.807
G01 X181.220 Y253.114
G01 X181.847 Y253.646
G01 X182.596 Y254.038
G01 X184.220 Y254.377
G01 X185.116 Y254.285
G01 X185.951 Y254.024
G01 X187.424 Y253.046
G01 X188.018 Y252.322
G01 X188.443 Y251.492
G01 X188.801 Y249.660
G01 X188.714 Y248.685
G01 X188.416 Y247.741
G01 X187.321 Y246.111
G01 X186.512 Y245.462
G01 X185.570 Y244.986
G01 X183.544 Y244.601
G01 X182.481 Y244.726
G01 X181.428 Y245.057
G01 X179.648 Y246.278
G01 X178.931 Y247.166
G01 X178.423 Y248.184
G01 X178.001 Y250.413
G01 X178.057 Y251.003
G01 X178.143 Y251.591
G01 X178.527 Y252.720
G01 X179.855 Y254.667
G01 X180.335 Y255.076
G01 X180.838 Y255.436
G01 X181.365 Y255.740
G01 X181.938 Y255.994
G01 X183.149 Y256.332
G01 X184.364 Y256.429
G01 X185.013 Y256.385
G01 X185.655 Y256.277
G01 X186.266 Y256.101
G01 X186.872 Y255.871
G01 X187.448 Y255.578
G01 X187.996 Y255.236
G01 X188.984 Y254.403
G01 X189.425 Y253.897
G01 X189.793 Y253.347
G01 X190.139 Y252.764
G01 X190.414 Y252.148
G01 X190.619 Y251.511
G01 X190.756 Y250.856
G01 X190.877 Y249.518
G01 X190.812 Y248.824
G01 X190.704 Y248.140
G01 X190.504 Y247.472
G01 X190.260 Y246.821
G01 X189.945 Y246.202
G01 X189.559 Y245.613
G01 X188.666 Y244.554
G01 X188.107 Y244.086
G01 X187.519 Y243.677
G01 X186.902 Y243.327
G01 X186.229 Y243.037
G01 X185.550 Y242.813
G01 X184.838 Y242.648
G01 X183.416 Y242.548
G01 X182.655 Y242.599
G01 X181.937 Y242.733
G01 X181.211 Y242.941
G01 X180.506 Y243.213
G01 X179.846 Y243.552
G01 X179.208 Y243.950
G01 X178.079 Y244.924
G01 X177.589 Y245.515
G01 X177.152 Y246.146
G01 X176.769 Y246.823
G01 X176.466 Y247.531
G01 X176.220 Y248.261
G01 X176.057 Y249.019
G01 X175.952 Y250.558
G01 X176.012 Y251.350
G01 X176.156 Y252.130
G01 X176.382 Y252.898
G01 X176.665 Y253.643
G01 X177.030 Y254.350
G01 X177.474 Y255.023
G01 X178.520 Y256.223
G01 X179.146 Y256.754
G01 X179.821 Y257.222
G01 X180.542 Y257.618
G01 X181.283 Y257.947
G01 X182.068 Y258.201
G01 X182.871 Y258.377
G01 X184.523 Y258.490
G01 X185.346 Y258.422
G01 X186.183 Y258.268
G01 X187.009 Y258.026
G01 X187.801 Y257.711
G01 X188.560 Y257.324
G01 X189.262 Y256.865
G01 X190.528 Y255.753
G01 X191.095 Y255.093
G01 X191.588 Y254.368
G01 X192.012 Y253.602
G01 X192.368 Y252.800
G01 X192.634 Y251.971
G01 X192.811 Y251.112
G01 X192.928 Y249.374
G01 X192.845 Y248.482
G01 X192.675 Y247.599
G01 X192.442 Y246.741
G01 X192.095 Y245.902
G01 X191.680 Y245.104
G01 X191.196 Y244.352
G01 X190.007 Y243.000
G01 X189.323 Y242.409
G01 X188.558 Y241.889
G01 X187.735 Y241.444
G01 X186.877 Y241.081
G01 X186.008 Y240.802
G01 X185.101 Y240.605
G01 X183.274 Y240.491
G01 X182.329 Y240.570
G01 X181.396 Y240.747
G01 X180.478 Y241.013
G01 X179.602 Y241.371
G01 X178.744 Y241.808
G01 X177.958 Y242.323
G01 X176.531 Y243.573
G01 X175.918 Y244.317
G01 X175.359 Y245.122
G01 X174.907 Y245.982
G01 X174.515 Y246.876
G01 X174.232 Y247.805
G01 X174.010 Y248.757
G01 X173.903 Y250.696
G01 X173.994 Y251.691
G01 X174.172 Y252.673
G01 X174.462 Y253.632
G01 X174.838 Y254.556
G01 X175.298 Y255.443
G01 X175.841 Y256.284
G01 X177.165 Y257.782
G01 X177.942 Y258.436
G01 X178.793 Y259.008
G01 X179.689 Y259.503
G01 X180.628 Y259.899
G01 X181.607 Y260.206
G01 X182.626 Y260.420
G01 X184.646 Y260.550
G01 X185.694 Y260.453
G01 X186.725 Y260.253
G01 X187.741 Y259.954
G01 X188.716 Y259.560
G01 X189.652 Y259.068
G01 X190.529 Y258.498
G01 X192.085 Y257.109
G01 X192.769 Y256.288
G01 X193.381 Y255.392
G01 X193.901 Y254.449
G01 X194.307 Y253.454
G01 X194.628 Y252.429
G01 X194.842 Y251.376
G01 X194.980 Y249.232
G01 X194.881 Y248.139
G01 X194.678 Y247.062
G01 X194.368 Y246.007
G01 X193.949 Y244.984
G01 X193.441 Y244.013
G01 X192.817 Y243.084
G01 X191.371 Y241.441
G01 X190.494 Y240.723
G01 X189.581 Y240.097
G01 X188.580 Y239.567
G01 X187.539 Y239.126
G01 X186.456 Y238.794
G01 X185.355 Y238.559
G01 X183.119 Y238.426
G01 X181.984 Y238.537
G01 X180.858 Y238.760
G01 X179.742 Y239.090
G01 X178.690 Y239.524
G01 X177.655 Y240.059
G01 X176.688 Y240.694
G01 X174.978 Y242.218
G01 X174.237 Y243.120
G01 X173.577 Y244.099
G01 X173.029 Y245.132
G01 X172.567 Y246.221
G01 X172.220 Y247.350
G01 X171.964 Y248.497
G01 X171.830 Y250.840
G01 X171.951 Y252.033
G01 X172.191 Y253.211
G01 X172.523 Y254.362
G01 X172.995 Y255.480
G01 X173.554 Y256.540
G01 X174.200 Y257.547
G01 X175.811 Y259.340
G01 X176.745 Y260.117
G01 X177.753 Y260.804
G01 X178.855 Y261.382
G01 X179.971 Y261.851
G01 X181.151 Y262.219
G01 X182.364 Y262.464
G01 X184.807 Y262.602
G01 X186.058 Y262.486
G01 X187.283 Y262.240
G01 X188.462 Y261.882
G01 X189.642 Y261.398
G01 X190.729 Y260.819
G01 X191.774 Y260.129
G01 X193.657 Y258.460
G01 X194.451 Y257.479
G01 X195.174 Y256.418
G01 X195.782 Y255.289
G01 X196.257 Y254.111
G01 X196.628 Y252.887
G01 X196.900 Y251.633
G01 X197.033 Y249.091
G01 X196.921 Y247.798
G01 X196.663 Y246.520
G01 X196.283 Y245.274
G01 X195.773 Y244.068
G01 X195.181 Y242.913
G01 X194.449 Y241.822
G01 X192.736 Y239.889
G01 X191.696 Y239.043
G01 X190.590 Y238.305
G01 X189.414 Y237.683
G01 X188.192 Y237.171
G01 X186.920 Y236.782
G01 X185.622 Y236.516
G01 X182.972 Y236.367
G01 X181.620 Y236.497
G01 X180.296 Y236.764
G01 X179.002 Y237.157
G01 X177.768 Y237.678
G01 X176.573 Y238.319
G01 X175.423 Y239.060
G01 X173.418 Y240.862
G01 X172.545 Y241.926
G01 X171.781 Y243.071
G01 X171.131 Y244.291
G01 X170.599 Y245.568
G01 X170.211 Y246.890
G01 X169.919 Y248.241
G01 X169.781 Y250.982
G01 X169.910 Y252.383
G01 X170.188 Y253.757
G01 X170.614 Y255.099
G01 X171.134 Y256.397
G01 X171.797 Y257.636
G01 X172.575 Y258.813
G01 X174.457 Y260.895
G01 X175.554 Y261.796
G01 X176.748 Y262.585
G01 X178.011 Y263.259
G01 X179.336 Y263.806
G01 X180.695 Y264.225
G01 X182.108 Y264.509
G01 X184.932 Y264.663
G01 X186.387 Y264.522
G01 X187.807 Y264.230
G01 X189.197 Y263.804
G01 X190.558 Y263.245
G01 X191.840 Y262.557
G01 X193.050 Y261.754
G01 X195.197 Y259.816
G01 X196.144 Y258.671
G01 X196.970 Y257.443
G01 X197.658 Y256.133
G01 X198.219 Y254.764
G01 X198.659 Y253.344
G01 X198.935 Y251.897
G01 X199.073 Y249.392
G01 X199.111 Y248.949
G01 X198.939 Y247.452
G01 X198.657 Y245.979
G01 X198.212 Y244.539
G01 X197.621 Y243.149
G01 X196.927 Y241.818
G01 X196.094 Y240.566
G01 X194.079 Y238.334
G01 X192.906 Y237.367
G01 X191.612 Y236.516
G01 X190.264 Y235.801
G01 X188.861 Y235.222
G01 X187.375 Y234.770
G01 X185.878 Y234.474
G01 X182.833 Y234.312
G01 X181.283 Y234.470
G01 X179.756 Y234.774
G01 X178.278 Y235.240
G01 X176.834 Y235.833
G01 X175.475 Y236.573
G01 X174.184 Y237.433
G01 X171.876 Y239.511
G01 X170.866 Y240.734
G01 X169.994 Y242.049
G01 X169.241 Y243.439
G01 X168.634 Y244.903
G01 X168.178 Y246.417
G01 X167.875 Y247.966
G01 X167.733 Y251.130
G01 X167.895 Y252.730
G01 X168.214 Y254.317
G01 X168.711 Y255.858
G01 X169.334 Y257.348
G01 X170.104 Y258.763
G01 X170.993 Y260.099
G01 X171.994 Y261.330
G01 X173.102 Y262.452
G01 X175.255 Y264.030
G01 X177.921 Y265.374
G01 X181.065 Y266.253
G01 X184.852 Y266.478
G01 X188.366 Y265.892
G01 X191.234 Y264.795
G01 X193.787 Y263.235
G01 X196.133 Y261.107
G01 X198.324 Y258.035
G01 X198.385 Y257.956
G01 X199.453 Y255.268
G01 X199.800 Y254.487
G01 X200.095 Y252.000
G01 X200.425 Y250.002
G01 X200.126 Y247.552
G01 X200.029 Y246.408
G01 X199.136 Y243.823
G01 X198.932 Y243.154
G01 X197.194 Y240.263
G01 X197.039 Y239.981
G01 X195.165 Y237.919
G01 X192.412 Y235.855
G01 X188.629 Y234.188
G01 X184.976 Y233.538
G01 X181.756 Y233.649
G01 X178.670 Y234.359
G01 X175.717 Y235.686
G01 X173.424 Y237.284
G01 X171.706 Y238.914
G01 X170.594 Y240.267
G01 X169.773 Y241.508
G01 X168.946 Y243.064
G01 X168.045 Y245.557
G01 X167.611 Y247.564
G01 X167.425 Y250.210
G01 X167.508 Y252.322
G01 X167.793 Y254.859
G01 X168.334 Y257.670
G01 X168.795 Y259.424
G01 X169.280 Y260.877
G01 X170.512 Y263.935
G01 X172.010 Y266.781
G01 X174.329 Y270.213
G01 X174.369 Y270.269
G01 X177.135 Y273.384
G01 X179.461 Y275.480
G01 X182.159 Y277.494
G01 X185.494 Y279.423
G01 X189.654 Y281.189
G01 X189.765 Y281.232
G01 X194.317 Y282.433
G01 X194.337 Y282.438
G01 X198.854 Y282.967
G01 X203.513 Y282.855
G01 X207.949 Y282.136
G01 X212.351 Y280.773
G01 X215.841 Y279.179
G01 X218.826 Y277.394
G01 X222.761 Y274.296
G01 X225.527 Y271.423
G01 X228.668 Y267.076
G01 X229.591 Y264.754
G01 X230.686 Y262.567
G01 X231.426 Y261.317
G01 X231.711 Y259.948
G01 X232.083 Y258.634
G01 X232.539 Y257.382
G01 X232.637 Y257.144
G01 X232.765 Y256.121
G01 X232.950 Y255.128
G01 X233.133 Y254.376
G01 X233.227 Y253.483
G01 X233.295 Y253.016
G01 X233.334 Y252.171
G01 X233.369 Y251.767
G01 X233.369 Y250.945
G01 X233.410 Y250.127
G01 X233.425 Y249.941
G01 X233.450 Y249.128
G01 X233.515 Y248.317
G01 X233.620 Y247.511
G01 X233.764 Y246.710
G01 X233.948 Y245.918
G01 X234.170 Y245.136
G01 X234.429 Y244.366
G01 X234.727 Y243.610
G01 X235.061 Y242.869
G01 X235.431 Y242.146
G01 X235.836 Y241.442
G01 X236.275 Y240.758
G01 X236.747 Y240.097
G01 X237.250 Y239.461
G01 X237.785 Y238.849
G01 X238.348 Y238.265
G01 X238.940 Y237.709
G01 X239.558 Y237.183
G01 X240.200 Y236.688
G01 X240.867 Y236.225
G01 X241.555 Y235.796
G01 X242.263 Y235.400
G01 X242.990 Y235.041
G01 X243.733 Y234.717
G01 X244.491 Y234.430
G01 X245.263 Y234.181
G01 X246.045 Y233.970
G01 X246.837 Y233.797
G01 X247.636 Y233.664
G01 X248.441 Y233.570
G01 X249.249 Y233.515
G01 X250.059 Y233.501
G01 X250.868 Y233.526
G01 X251.675 Y233.591
G01 X252.478 Y233.695
G01 X253.275 Y233.839
G01 X254.063 Y234.021
G01 X254.841 Y234.242
G01 X255.608 Y234.501
G01 X256.361 Y234.797
G01 X257.098 Y235.129
G01 X257.818 Y235.498
G01 X258.519 Y235.901
G01 X259.199 Y236.338
G01 X259.857 Y236.807
G01 X260.491 Y237.309
G01 X261.100 Y237.841
G01 X261.681 Y238.402
G01 X262.235 Y238.990
G01 X262.758 Y239.605
G01 X263.251 Y240.245
G01 X263.712 Y240.909
G01 X264.139 Y241.594
G01 X264.533 Y242.299
G01 X264.891 Y243.022
G01 X265.213 Y243.762
G01 X265.499 Y244.517
G01 X265.747 Y245.284
G01 X265.957 Y246.063
G01 X266.129 Y246.851
G01 X266.261 Y247.647
G01 X266.355 Y248.448
G01 X266.409 Y249.252
G01 X266.419 Y249.558
G01 X266.458 Y248.746
G01 X266.463 Y248.304
G01 X266.530 Y247.473
G01 X266.547 Y247.094
G01 X266.654 Y246.225
G01 X266.687 Y245.829
G01 X266.849 Y244.898
G01 X266.922 Y244.320
G01 X267.143 Y243.293
G01 X267.234 Y242.741
G01 X267.577 Y241.559
G01 X267.800 Y240.557
G01 X268.267 Y239.129
G01 X268.292 Y239.039
G01 X268.963 Y237.333
G01 X269.022 Y237.160
G01 X270.062 Y234.975
G01 X270.145 Y234.777
G01 X272.098 Y231.529
G01 X272.162 Y231.412
G01 X274.762 Y228.073
G01 X279.023 Y224.061
G01 X281.970 Y221.997
G01 X285.362 Y220.152
G01 X291.210 Y218.041
G01 X296.849 Y217.218
G01 X299.424 Y217.006
G01 X304.373 Y217.441
G01 X306.238 Y217.708
G01 X310.626 Y219.040
G01 X312.943 Y219.887
G01 X316.663 Y222.039
G01 X320.318 Y224.487
G01 X320.636 Y224.716
G01 X323.594 Y227.666
G01 X325.515 Y229.779
G01 X327.728 Y233.226
G01 X329.210 Y235.788
G01 X330.672 Y239.581
G01 X331.185 Y241.064
G01 X331.983 Y245.030
G01 X332.259 Y246.705
G01 X332.394 Y249.033
G01 X332.425 Y250.006
G01 X310.925 Y250.004
G01 X299.425 Y250.003
G01 X299.575 Y252.439
G01 X299.603 Y253.486
G01 X300.052 Y255.997
G01 X300.203 Y257.078
G01 X300.914 Y259.747
G01 X300.962 Y259.953
G01 X302.003 Y262.779
G01 X303.293 Y265.496
G01 X304.592 Y267.733
G01 X307.216 Y271.293
G01 X310.235 Y274.427
G01 X313.675 Y277.159
G01 X317.600 Y279.483
G01 X321.299 Y281.071
G01 X324.725 Y282.093
G01 X329.600 Y282.884
G01 X335.697 Y282.842
G01 X338.632 Y282.420
G01 X342.568 Y281.404
G01 X344.816 Y280.578
G01 X347.376 Y279.426
G01 X349.903 Y277.990
G01 X352.250 Y276.388
G01 X354.901 Y274.171
G01 X357.908 Y270.962
G01 X359.520 Y268.819
G01 X361.752 Y265.152
G01 X363.412 Y261.318
G01 X364.522 Y257.623
G01 X365.073 Y254.844
G01 X365.389 Y251.589
G01 X365.528 Y247.720
G01 X365.544 Y247.327
G01 X365.796 Y245.095
G01 X367.012 Y240.156
G01 X367.727 Y237.875
G01 X370.707 Y232.111
G01 X374.879 Y226.884
G01 X379.662 Y222.847
G01 X386.667 Y219.175
G01 X391.714 Y217.694
G01 X399.714 Y217.034
G01 X406.191 Y217.926
G01 X410.351 Y219.239
G01 X413.511 Y220.646
G01 X415.452 Y221.730
G01 X417.071 Y222.775
G01 X419.480 Y224.588
G01 X422.536 Y227.472
G01 X424.921 Y230.321
G01 X427.130 Y233.741
G01 X429.299 Y238.377
G01 X430.696 Y243.160
G01 X431.210 Y246.188
G01 X431.331 Y247.365
G01 X431.366 Y248.217
G01 X431.375 Y249.994
G01 X447.925 Y249.993
G01 X447.800 Y250.053
G01 X447.675 Y250.033
G01 X447.550 Y249.875
G01 X447.525 Y249.677
G01 X447.624 Y249.420
G01 X447.849 Y249.242
G01 X448.198 Y249.141
G01 X448.573 Y249.199
G01 X448.949 Y249.476
G01 X449.200 Y249.874
G01 X449.275 Y250.153
G01 X449.275 Y250.432
G01 X449.123 Y250.969
G01 X448.946 Y251.247
G01 X448.694 Y251.484
G01 X448.418 Y251.680
G01 X448.117 Y251.796
G01 X447.741 Y251.872
G01 X447.341 Y251.849
G01 X446.967 Y251.766
G01 X446.618 Y251.606
G01 X446.270 Y251.348
G01 X445.997 Y251.032
G01 X445.774 Y250.659
G01 X445.625 Y250.248
G01 X445.550 Y249.759
G01 X445.574 Y249.289
G01 X445.721 Y248.819
G01 X445.918 Y248.367
G01 X446.239 Y247.953
G01 X446.661 Y247.614
G01 X447.132 Y247.352
G01 X447.630 Y247.187
G01 X448.204 Y247.119
G01 X448.805 Y247.170
G01 X449.357 Y247.342
G01 X449.886 Y247.595
G01 X450.365 Y247.990
G01 X450.769 Y248.488
G01 X451.073 Y249.048
G01 X451.250 Y249.651
G01 X451.325 Y250.336
G01 X451.247 Y251.020
G01 X451.043 Y251.682
G01 X450.737 Y252.282
G01 X450.255 Y252.837
G01 X449.673 Y253.308
G01 X449.017 Y253.636
G01 X448.313 Y253.841
G01 X447.536 Y253.905
G01 X446.763 Y253.831
G01 X446.017 Y253.581
G01 X445.324 Y253.197
G01 X444.682 Y252.661
G01 X444.165 Y252.013
G01 X443.796 Y251.253
G01 X443.574 Y250.458
G01 X443.500 Y249.568
G01 X443.621 Y248.696
G01 X443.888 Y247.841
G01 X444.328 Y247.078
G01 X444.941 Y246.367
G01 X445.680 Y245.805
G01 X446.521 Y245.374
G01 X447.415 Y245.136
G01 X448.414 Y245.072
G01 X449.392 Y245.187
G01 X450.325 Y245.505
G01 X451.185 Y245.989
G01 X451.948 Y246.681
G01 X452.585 Y247.501
G01 X453.044 Y248.450
G01 X453.299 Y249.444
G01 X453.374 Y250.522
G01 X453.219 Y251.599
G01 X452.883 Y252.631
G01 X452.318 Y253.575
G01 X451.576 Y254.429
G01 X450.660 Y255.111
G01 X449.646 Y255.605
G01 X448.538 Y255.892
G01 X447.935 Y255.953
G01 X447.360 Y255.975
G01 X446.164 Y255.802
G01 X445.050 Y255.398
G01 X444.015 Y254.806
G01 X443.550 Y254.407
G01 X443.109 Y253.972
G01 X442.718 Y253.501
G01 X442.352 Y252.975
G01 X441.816 Y251.874
G01 X441.646 Y251.278
G01 X441.524 Y250.664
G01 X441.450 Y250.032
G01 X441.449 Y249.381
G01 X441.521 Y248.730
G01 X441.641 Y248.096
G01 X441.833 Y247.480
G01 X442.075 Y246.882
G01 X442.365 Y246.319
G01 X442.729 Y245.772
G01 X443.142 Y245.261
G01 X443.630 Y244.784
G01 X444.143 Y244.362
G01 X444.707 Y243.995
G01 X445.297 Y243.664
G01 X445.914 Y243.408
G01 X446.558 Y243.210
G01 X447.203 Y243.069
G01 X447.901 Y243.005
G01 X448.602 Y243.020
G01 X449.280 Y243.076
G01 X449.960 Y243.212
G01 X450.642 Y243.430
G01 X451.276 Y243.691
G01 X451.886 Y244.016
G01 X452.473 Y244.404
G01 X453.035 Y244.855
G01 X453.547 Y245.372
G01 X453.984 Y245.933
G01 X454.396 Y246.539
G01 X454.730 Y247.168
G01 X455.014 Y247.840
G01 X455.220 Y248.516
G01 X455.374 Y249.233
G01 X455.425 Y249.973
G01 X455.424 Y250.712
G01 X455.345 Y251.451
G01 X455.188 Y252.189
G01 X454.979 Y252.904
G01 X454.693 Y253.596
G01 X454.331 Y254.264
G01 X453.917 Y254.868
G01 X453.427 Y255.467
G01 X452.886 Y256.021
G01 X452.296 Y256.489
G01 X451.632 Y256.912
G01 X450.968 Y257.292
G01 X450.231 Y257.586
G01 X449.498 Y257.798
G01 X448.741 Y257.947
G01 X447.962 Y258.035
G01 X447.162 Y258.022
G01 X446.365 Y257.931
G01 X445.596 Y257.763
G01 X444.829 Y257.537
G01 X444.090 Y257.236
G01 X443.379 Y256.842
G01 X442.718 Y256.414
G01 X442.085 Y255.873
G01 X441.527 Y255.300
G01 X440.993 Y254.655
G01 X440.559 Y253.958
G01 X440.173 Y253.227
G01 X439.859 Y252.481
G01 X439.618 Y251.681
G01 X439.473 Y250.884
G01 X439.375 Y250.032
G01 X439.398 Y249.198
G01 X439.493 Y248.345
G01 X439.659 Y247.509
G01 X439.921 Y246.708
G01 X440.231 Y245.922
G01 X440.639 Y245.170
G01 X441.120 Y244.469
G01 X441.675 Y243.800
G01 X442.305 Y243.202
G01 X442.985 Y242.657
G01 X443.717 Y242.183
G01 X444.501 Y241.761
G01 X445.312 Y241.433
G01 X446.128 Y241.201
G01 X446.996 Y241.024
G01 X447.893 Y240.943
G01 X448.795 Y240.962
G01 X449.675 Y241.062
G01 X450.559 Y241.243
G01 X451.421 Y241.508
G01 X452.236 Y241.859
G01 X453.029 Y242.295
G01 X453.773 Y242.797
G01 X454.493 Y243.386
G01 X455.114 Y244.043
G01 X455.708 Y244.767
G01 X456.202 Y245.559
G01 X456.643 Y246.377
G01 X456.981 Y247.219
G01 X457.241 Y248.107
G01 X457.423 Y249.018
G01 X457.500 Y249.952
G01 X457.473 Y250.906
G01 X457.367 Y251.859
G01 X457.181 Y252.790
G01 X456.892 Y253.697
G01 X456.525 Y254.558
G01 X456.054 Y255.393
G01 X455.532 Y256.182
G01 X454.908 Y256.922
G01 X454.209 Y257.593
G01 X453.435 Y258.196
G01 X452.612 Y258.731
G01 X451.766 Y259.180
G01 X450.849 Y259.541
G01 X449.909 Y259.817
G01 X448.973 Y260.010
G01 X447.969 Y260.079
G01 X446.968 Y260.067
G01 X445.972 Y259.957
G01 X445.006 Y259.752
G01 X444.045 Y259.451
G01 X443.113 Y259.057
G01 X442.259 Y258.574
G01 X441.433 Y258.000
G01 X440.633 Y257.356
G01 X439.935 Y256.606
G01 X439.286 Y255.807
G01 X438.735 Y254.940
G01 X438.257 Y254.042
G01 X437.875 Y253.075
G01 X437.588 Y252.095
G01 X437.422 Y251.100
G01 X437.325 Y250.050
G01 X437.347 Y249.001
G01 X437.464 Y247.950
G01 X437.700 Y246.934
G01 X438.006 Y245.932
G01 X438.433 Y244.961
G01 X438.931 Y244.040
G01 X439.527 Y243.168
G01 X440.222 Y242.362
G01 X440.991 Y241.604
G01 X441.837 Y240.951
G01 X442.734 Y240.368
G01 X443.685 Y239.874
G01 X444.690 Y239.470
G01 X445.726 Y239.178
G01 X446.792 Y238.981
G01 X447.888 Y238.880
G01 X448.966 Y238.900
G01 X450.075 Y239.038
G01 X451.139 Y239.262
G01 X452.183 Y239.612
G01 X453.206 Y240.049
G01 X454.158 Y240.575
G01 X455.086 Y241.190
G01 X455.941 Y241.916
G01 X456.722 Y242.734
G01 X457.402 Y243.624
G01 X458.004 Y244.563
G01 X458.528 Y245.572
G01 X458.948 Y246.629
G01 X459.262 Y247.691
G01 X459.472 Y248.799
G01 X459.550 Y249.951
G01 X459.522 Y251.104
G01 X459.388 Y252.234
G01 X459.148 Y253.361
G01 X458.802 Y254.462
G01 X458.327 Y255.515
G01 X457.772 Y256.540
G01 X457.140 Y257.474
G01 X456.380 Y258.377
G01 X455.520 Y259.186
G01 X454.585 Y259.903
G01 X453.602 Y260.549
G01 X452.547 Y261.084
G01 X451.471 Y261.510
G01 X450.325 Y261.846
G01 X449.185 Y262.059
G01 X447.978 Y262.145
G01 X446.776 Y262.130
G01 X445.584 Y261.978
G01 X444.423 Y261.712
G01 X443.267 Y261.351
G01 X442.168 Y260.863
G01 X441.098 Y260.285
G01 X440.133 Y259.604
G01 X439.195 Y258.817
G01 X438.333 Y257.927
G01 X437.596 Y256.957
G01 X436.931 Y255.922
G01 X436.363 Y254.822
G01 X435.913 Y253.694
G01 X435.583 Y252.518
G01 X435.370 Y251.310
G01 X435.250 Y250.049
G01 X435.296 Y248.808
G01 X435.434 Y247.565
G01 X435.714 Y246.335
G01 X436.112 Y245.154
G01 X436.604 Y244.002
G01 X437.215 Y242.895
G01 X437.924 Y241.870
G01 X438.756 Y240.908
G01 X439.663 Y240.027
G01 X440.672 Y239.247
G01 X441.759 Y238.551
G01 X442.901 Y237.980
G01 X444.073 Y237.497
G01 X445.302 Y237.144
G01 X446.565 Y236.922
G01 X447.861 Y236.816
G01 X449.166 Y236.849
G01 X450.454 Y237.006
G01 X451.726 Y237.308
G01 X452.978 Y237.698
G01 X454.160 Y238.221
G01 X455.298 Y238.855
G01 X456.388 Y239.603
G01 X457.381 Y240.468
G01 X458.299 Y241.427
G01 X459.114 Y242.462
G01 X459.827 Y243.591
G01 X460.435 Y244.773
G01 X460.912 Y246.006
G01 X461.283 Y247.288
G01 X461.520 Y248.597
G01 X461.625 Y249.930
G01 X461.596 Y251.284
G01 X461.409 Y252.636
G01 X461.113 Y253.962
G01 X460.710 Y255.241
G01 X460.150 Y256.489
G01 X459.510 Y257.665
G01 X458.740 Y258.786
G01 X457.843 Y259.831
G01 X456.844 Y260.779
G01 X455.748 Y261.610
G01 X454.577 Y262.365
G01 X453.361 Y262.985
G01 X452.075 Y263.492
G01 X450.747 Y263.867
G01 X449.376 Y264.113
G01 X447.990 Y264.214
G01 X446.590 Y264.172
G01 X445.199 Y263.994
G01 X443.816 Y263.700
G01 X442.494 Y263.258
G01 X441.204 Y262.689
G01 X439.970 Y262.016
G01 X438.818 Y261.204
G01 X437.744 Y260.274
G01 X436.771 Y259.247
G01 X435.873 Y258.122
G01 X435.121 Y256.902
G01 X434.464 Y255.622
G01 X433.950 Y254.299
G01 X433.552 Y252.931
G01 X433.319 Y251.516
G01 X433.200 Y250.067
G01 X433.245 Y248.620
G01 X433.428 Y247.169
G01 X433.751 Y245.749
G01 X434.189 Y244.374
G01 X434.769 Y243.043
G01 X435.493 Y241.771
G01 X436.312 Y240.577
G01 X437.279 Y239.458
G01 X438.345 Y238.434
G01 X439.515 Y237.525
G01 X440.764 Y236.733
G01 X442.096 Y236.081
G01 X443.485 Y235.533
G01 X444.909 Y235.132
G01 X446.343 Y234.865
G01 X447.865 Y234.767
G01 X449.347 Y234.814
G01 X450.839 Y234.983
G01 X452.318 Y235.320
G01 X453.755 Y235.789
G01 X455.124 Y236.394
G01 X456.450 Y237.135
G01 X457.678 Y237.997
G01 X458.835 Y238.998
G01 X459.892 Y240.100
G01 X460.822 Y241.323
G01 X461.646 Y242.604
G01 X462.340 Y243.982
G01 X462.875 Y245.394
G01 X463.302 Y246.879
G01 X463.569 Y248.370
G01 X463.675 Y249.929
G01 X463.645 Y251.488
G01 X463.429 Y253.024
G01 X463.102 Y254.533
G01 X462.614 Y256.033
G01 X461.969 Y257.457
G01 X461.217 Y258.806
G01 X460.334 Y260.076
G01 X459.297 Y261.264
G01 X458.159 Y262.351
G01 X456.921 Y263.337
G01 X455.562 Y264.179
G01 X454.158 Y264.882
G01 X452.686 Y265.468
G01 X451.148 Y265.897
G01 X449.597 Y266.156
G01 X447.983 Y266.265
G01 X446.382 Y266.212
G01 X444.769 Y266.000
G01 X443.193 Y265.638
G01 X441.679 Y265.129
G01 X440.198 Y264.496
G01 X438.803 Y263.706
G01 X437.513 Y262.802
G01 X435.601 Y260.976
G01 X434.035 Y258.908
G01 X432.828 Y256.670
G01 X431.838 Y253.668
G01 X431.373 Y250.756
G01 X431.469 Y248.488
G01 X432.045 Y245.515
G01 X433.223 Y242.533
G01 X434.990 Y239.735
G01 X436.897 Y237.716
G01 X439.232 Y235.984
G01 X441.717 Y234.720
G01 X444.531 Y233.849
G01 X447.914 Y233.509
G01 X450.845 Y233.770
G01 X453.534 Y234.474
G01 X456.521 Y235.928
G01 X458.410 Y237.243
G01 X460.478 Y239.292
G01 X461.786 Y241.050
G01 X463.236 Y243.850
G01 X463.885 Y245.843
G01 X464.398 Y249.114
G01 X464.425 Y249.993
G01 X463.952 Y255.578
G01 X463.135 Y258.395
G01 X461.957 Y262.492
G01 X458.414 Y268.969
G01 X452.516 Y275.379
G01 X445.046 Y280.070
G01 X436.731 Y282.567
G01 X427.104 Y282.716
G01 X418.487 Y280.358
G01 X414.019 Y278.048
G01 X410.934 Y275.867
G01 X406.663 Y271.816
G01 X403.560 Y267.686
G01 X401.656 Y264.262
G01 X400.425 Y261.313
G01 X399.720 Y259.154
G01 X398.862 Y255.118
G01 X398.631 Y253.622
G01 X398.493 Y251.406
G01 X398.300 Y249.832
G01 X397.225 Y249.848
G01 X381.925 Y249.996
G01 X381.800 Y249.956
G01 X381.675 Y249.982
G01 X381.550 Y250.127
G01 X381.525 Y250.338
G01 X381.649 Y250.588
G01 X381.873 Y250.774
G01 X382.222 Y250.855
G01 X382.598 Y250.791
G01 X382.974 Y250.514
G01 X383.200 Y250.115
G01 X383.275 Y249.836
G01 X383.274 Y249.542
G01 X383.096 Y248.997
G01 X382.919 Y248.733
G01 X382.666 Y248.496
G01 X382.389 Y248.327
G01 X382.063 Y248.199
G01 X381.687 Y248.139
G01 X381.312 Y248.170
G01 X380.939 Y248.267
G01 X380.591 Y248.429
G01 X380.243 Y248.693
G01 X379.971 Y249.021
G01 X379.749 Y249.399
G01 X379.600 Y249.814
G01 X379.550 Y250.294
G01 X379.598 Y250.773
G01 X379.744 Y251.241
G01 X379.964 Y251.672
G01 X380.283 Y252.080
G01 X380.703 Y252.414
G01 X381.173 Y252.672
G01 X381.695 Y252.828
G01 X382.269 Y252.880
G01 X382.845 Y252.812
G01 X383.399 Y252.637
G01 X383.929 Y252.366
G01 X384.411 Y251.958
G01 X384.792 Y251.451
G01 X385.097 Y250.887
G01 X385.275 Y250.280
G01 X385.324 Y249.603
G01 X385.221 Y248.914
G01 X385.014 Y248.267
G01 X384.680 Y247.665
G01 X384.194 Y247.123
G01 X383.608 Y246.668
G01 X382.950 Y246.339
G01 X382.244 Y246.146
G01 X381.467 Y246.103
G01 X380.695 Y246.204
G01 X379.952 Y246.460
G01 X379.262 Y246.854
G01 X378.624 Y247.410
G01 X378.136 Y248.074
G01 X377.770 Y248.833
G01 X377.549 Y249.639
G01 X377.499 Y250.519
G01 X377.642 Y251.400
G01 X377.930 Y252.235
G01 X378.390 Y253.001
G01 X378.997 Y253.699
G01 X379.755 Y254.253
G01 X380.617 Y254.648
G01 X381.510 Y254.877
G01 X382.508 Y254.927
G01 X383.490 Y254.777
G01 X384.401 Y254.446
G01 X385.268 Y253.933
G01 X386.012 Y253.233
G01 X386.629 Y252.400
G01 X387.067 Y251.462
G01 X387.324 Y250.449
G01 X387.374 Y249.364
G01 X387.189 Y248.294
G01 X386.823 Y247.272
G01 X386.251 Y246.343
G01 X385.476 Y245.510
G01 X384.551 Y244.840
G01 X383.531 Y244.357
G01 X382.419 Y244.099
G01 X381.816 Y244.047
G01 X381.240 Y244.046
G01 X380.048 Y244.244
G01 X378.939 Y244.655
G01 X377.938 Y245.273
G01 X377.452 Y245.674
G01 X377.016 Y246.121
G01 X376.630 Y246.614
G01 X376.292 Y247.128
G01 X375.788 Y248.260
G01 X375.620 Y248.853
G01 X375.499 Y249.469
G01 X375.450 Y250.109
G01 X375.473 Y250.749
G01 X375.542 Y251.389
G01 X375.684 Y252.032
G01 X375.872 Y252.640
G01 X376.133 Y253.238
G01 X376.443 Y253.803
G01 X376.801 Y254.334
G01 X377.233 Y254.846
G01 X377.715 Y255.299
G01 X378.248 Y255.719
G01 X378.832 Y256.081
G01 X379.418 Y256.381
G01 X380.031 Y256.633
G01 X380.697 Y256.824
G01 X381.342 Y256.937
G01 X382.040 Y256.987
G01 X382.742 Y256.971
G01 X383.422 Y256.886
G01 X384.105 Y256.747
G01 X384.767 Y256.523
G01 X385.406 Y256.242
G01 X386.022 Y255.903
G01 X386.589 Y255.517
G01 X387.132 Y255.044
G01 X387.626 Y254.525
G01 X388.069 Y253.945
G01 X388.460 Y253.347
G01 X388.799 Y252.702
G01 X389.060 Y252.026
G01 X389.244 Y251.332
G01 X389.374 Y250.623
G01 X389.425 Y249.884
G01 X389.422 Y249.131
G01 X389.316 Y248.393
G01 X389.155 Y247.657
G01 X388.917 Y246.953
G01 X388.625 Y246.266
G01 X388.255 Y245.611
G01 X387.834 Y245.004
G01 X387.337 Y244.417
G01 X386.764 Y243.892
G01 X386.166 Y243.414
G01 X385.495 Y243.011
G01 X384.800 Y242.655
G01 X384.084 Y242.385
G01 X383.345 Y242.173
G01 X382.586 Y242.031
G01 X381.807 Y241.985
G01 X381.006 Y242.007
G01 X380.211 Y242.108
G01 X379.420 Y242.286
G01 X378.684 Y242.537
G01 X377.951 Y242.862
G01 X377.246 Y243.245
G01 X376.593 Y243.699
G01 X375.969 Y244.248
G01 X375.419 Y244.838
G01 X374.919 Y245.497
G01 X374.467 Y246.186
G01 X374.112 Y246.930
G01 X373.804 Y247.693
G01 X373.591 Y248.488
G01 X373.448 Y249.292
G01 X373.375 Y250.144
G01 X373.421 Y250.983
G01 X373.512 Y251.824
G01 X373.721 Y252.656
G01 X373.977 Y253.456
G01 X374.328 Y254.237
G01 X374.751 Y254.976
G01 X375.222 Y255.660
G01 X375.817 Y256.317
G01 X376.436 Y256.919
G01 X377.132 Y257.454
G01 X377.881 Y257.909
G01 X378.657 Y258.306
G01 X379.463 Y258.618
G01 X380.325 Y258.845
G01 X381.167 Y258.995
G01 X382.065 Y259.056
G01 X382.969 Y259.025
G01 X383.854 Y258.910
G01 X384.745 Y258.699
G01 X385.589 Y258.413
G01 X386.412 Y258.053
G01 X387.189 Y257.604
G01 X387.918 Y257.091
G01 X388.624 Y256.474
G01 X389.254 Y255.806
G01 X389.808 Y255.073
G01 X390.284 Y254.289
G01 X390.708 Y253.457
G01 X391.026 Y252.591
G01 X391.265 Y251.705
G01 X391.423 Y250.787
G01 X391.500 Y249.854
G01 X391.471 Y248.906
G01 X391.335 Y247.960
G01 X391.119 Y247.031
G01 X390.822 Y246.136
G01 X390.421 Y245.275
G01 X389.940 Y244.451
G01 X389.407 Y243.676
G01 X388.771 Y242.940
G01 X388.060 Y242.284
G01 X387.274 Y241.694
G01 X386.440 Y241.183
G01 X385.560 Y240.750
G01 X384.659 Y240.405
G01 X383.713 Y240.150
G01 X382.747 Y239.981
G01 X381.765 Y239.922
G01 X380.765 Y239.959
G01 X379.772 Y240.088
G01 X378.812 Y240.317
G01 X377.858 Y240.645
G01 X376.935 Y241.057
G01 X376.067 Y241.549
G01 X375.253 Y242.132
G01 X374.492 Y242.805
G01 X373.807 Y243.552
G01 X373.172 Y244.375
G01 X372.633 Y245.248
G01 X372.190 Y246.170
G01 X371.816 Y247.133
G01 X371.560 Y248.112
G01 X371.397 Y249.122
G01 X371.325 Y250.166
G01 X371.369 Y251.222
G01 X371.504 Y252.256
G01 X371.756 Y253.284
G01 X372.100 Y254.271
G01 X372.513 Y255.230
G01 X373.047 Y256.141
G01 X373.652 Y257.002
G01 X374.380 Y257.805
G01 X375.160 Y258.532
G01 X376.017 Y259.173
G01 X376.927 Y259.737
G01 X377.893 Y260.210
G01 X378.916 Y260.591
G01 X379.946 Y260.871
G01 X381.010 Y261.053
G01 X382.108 Y261.119
G01 X383.190 Y261.076
G01 X384.281 Y260.923
G01 X385.355 Y260.670
G01 X386.411 Y260.314
G01 X387.397 Y259.850
G01 X388.362 Y259.307
G01 X389.256 Y258.654
G01 X390.101 Y257.920
G01 X390.847 Y257.086
G01 X391.540 Y256.185
G01 X392.129 Y255.228
G01 X392.613 Y254.218
G01 X393.015 Y253.156
G01 X393.310 Y252.073
G01 X393.497 Y250.971
G01 X393.550 Y249.823
G01 X393.519 Y248.675
G01 X393.354 Y247.529
G01 X393.080 Y246.403
G01 X392.698 Y245.313
G01 X392.235 Y244.274
G01 X391.641 Y243.277
G01 X390.967 Y242.347
G01 X390.190 Y241.461
G01 X389.338 Y240.674
G01 X388.386 Y239.959
G01 X387.387 Y239.340
G01 X386.318 Y238.833
G01 X385.230 Y238.419
G01 X384.099 Y238.110
G01 X382.928 Y237.933
G01 X381.741 Y237.854
G01 X380.542 Y237.912
G01 X379.351 Y238.075
G01 X378.173 Y238.364
G01 X377.028 Y238.750
G01 X375.942 Y239.252
G01 X374.914 Y239.856
G01 X373.941 Y240.558
G01 X373.023 Y241.370
G01 X372.181 Y242.276
G01 X371.438 Y243.249
G01 X370.816 Y244.301
G01 X370.263 Y245.412
G01 X369.851 Y246.555
G01 X369.529 Y247.749
G01 X369.345 Y248.958
G01 X369.275 Y250.199
G01 X369.316 Y251.452
G01 X369.495 Y252.697
G01 X369.786 Y253.914
G01 X370.192 Y255.095
G01 X370.714 Y256.230
G01 X371.355 Y257.310
G01 X372.091 Y258.335
G01 X372.925 Y259.282
G01 X373.886 Y260.140
G01 X374.899 Y260.915
G01 X375.995 Y261.569
G01 X377.147 Y262.137
G01 X378.335 Y262.574
G01 X379.584 Y262.906
G01 X380.845 Y263.111
G01 X382.145 Y263.174
G01 X383.432 Y263.114
G01 X384.730 Y262.942
G01 X385.990 Y262.624
G01 X387.209 Y262.198
G01 X388.411 Y261.649
G01 X389.542 Y261.000
G01 X390.578 Y260.233
G01 X391.566 Y259.352
G01 X392.479 Y258.368
G01 X393.264 Y257.308
G01 X393.943 Y256.174
G01 X394.540 Y254.969
G01 X395.002 Y253.723
G01 X395.329 Y252.451
G01 X395.546 Y251.130
G01 X395.625 Y249.791
G01 X395.567 Y248.438
G01 X395.371 Y247.102
G01 X395.038 Y245.773
G01 X394.595 Y244.498
G01 X394.018 Y243.265
G01 X393.358 Y242.103
G01 X392.541 Y241.003
G01 X391.621 Y239.980
G01 X390.625 Y239.061
G01 X389.505 Y238.235
G01 X388.337 Y237.511
G01 X387.077 Y236.920
G01 X385.800 Y236.439
G01 X384.457 Y236.084
G01 X383.103 Y235.874
G01 X381.711 Y235.795
G01 X380.309 Y235.854
G01 X378.898 Y236.059
G01 X377.552 Y236.399
G01 X376.218 Y236.860
G01 X374.946 Y237.447
G01 X373.734 Y238.156
G01 X372.606 Y238.981
G01 X371.534 Y239.934
G01 X370.563 Y240.985
G01 X369.717 Y242.131
G01 X368.990 Y243.361
G01 X368.354 Y244.655
G01 X367.857 Y245.987
G01 X367.496 Y247.376
G01 X367.269 Y248.788
G01 X367.200 Y250.231
G01 X367.263 Y251.685
G01 X367.484 Y253.122
G01 X367.838 Y254.535
G01 X368.302 Y255.916
G01 X368.930 Y257.236
G01 X369.649 Y258.493
G01 X370.514 Y259.658
G01 X371.499 Y260.765
G01 X372.588 Y261.751
G01 X373.781 Y262.641
G01 X375.059 Y263.403
G01 X376.372 Y264.043
G01 X377.773 Y264.561
G01 X379.215 Y264.934
G01 X380.674 Y265.156
G01 X382.175 Y265.236
G01 X383.668 Y265.165
G01 X385.151 Y264.950
G01 X386.623 Y264.587
G01 X388.034 Y264.082
G01 X389.402 Y263.461
G01 X390.704 Y262.693
G01 X391.909 Y261.815
G01 X393.044 Y260.787
G01 X394.077 Y259.648
G01 X395.005 Y258.429
G01 X395.776 Y257.115
G01 X396.438 Y255.738
G01 X396.987 Y254.303
G01 X397.373 Y252.810
G01 X397.594 Y251.309
G01 X397.675 Y249.759
G01 X397.614 Y248.209
G01 X397.362 Y246.664
G01 X396.995 Y245.157
G01 X396.489 Y243.692
G01 X395.820 Y242.274
G01 X395.042 Y240.933
G01 X394.130 Y239.672
G01 X393.063 Y238.497
G01 X391.895 Y237.433
G01 X390.628 Y236.496
G01 X389.290 Y235.668
G01 X387.861 Y234.992
G01 X386.366 Y234.451
G01 X384.835 Y234.052
G01 X383.271 Y233.818
G01 X381.651 Y233.747
G01 X380.048 Y233.826
G01 X378.440 Y234.065
G01 X376.878 Y234.465
G01 X375.357 Y235.008
G01 X373.899 Y235.672
G01 X372.531 Y236.475
G01 X371.273 Y237.411
G01 X369.370 Y239.284
G01 X367.861 Y241.389
G01 X366.703 Y243.653
G01 X365.822 Y245.755
G01 X365.564 Y247.118
G01 X365.505 Y247.836
G01 X365.490 Y248.472
G01 X365.449 Y249.442
G01 X365.425 Y249.938
G01 X365.421 Y250.908
G01 X365.389 Y251.589
G01 X365.288 Y252.925
G01 X364.866 Y256.055
G01 X364.134 Y259.146
G01 X363.100 Y262.144
G01 X362.062 Y264.533
G01 X360.392 Y267.528
G01 X357.078 Y271.925
G01 X352.397 Y276.261
G01 X352.250 Y276.388
G01 X348.631 Y278.711
G01 X345.426 Y280.312
G01 X339.248 Y282.262
G01 X333.305 Y282.990
G01 X327.166 Y282.486
G01 X322.440 Y281.456
G01 X318.751 Y280.034
G01 X314.862 Y277.942
G01 X309.999 Y274.213
G01 X306.626 Y270.508
G01 X304.350 Y267.342
G01 X302.839 Y264.622
G01 X301.742 Y261.618
G01 X300.823 Y259.483
G01 X300.321 Y256.854
G01 X299.746 Y254.513
G01 X299.633 Y252.055
G01 X299.425 Y249.825
G01 X299.966 Y247.368
G01 X300.127 Y246.489
G01 X302.293 Y243.747
G01 X302.602 Y243.319
G01 X307.134 Y241.591
G01 X311.068 Y242.312
G01 X313.961 Y244.471
G01 X315.431 Y246.992
G01 X315.861 Y248.634
G01 X315.547 Y249.355
G01 X314.500 Y250.127
G01 X311.815 Y251.092
G01 X310.076 Y252.432
G01 X308.808 Y254.092
G01 X307.943 Y256.210
G01 X307.663 Y258.248
G01 X308.044 Y260.716
G01 X308.990 Y262.738
G01 X310.221 Y264.213
G01 X311.564 Y265.253
G01 X312.797 Y265.885
G01 X314.038 Y266.281
G01 X315.562 Y266.473
G01 X317.217 Y266.447
G01 X320.358 Y266.204
G01 X325.375 Y265.112
G01 X331.644 Y262.529
G01 X336.751 Y258.983
G01 X338.038 Y257.995
G01 X341.940 Y253.816
G01 X341.972 Y253.779
G01 X344.749 Y249.476
G01 X346.912 Y244.826
G01 X347.974 Y241.126
G01 X348.692 Y237.345
G01 X348.891 Y233.245
G01 X348.701 Y229.660
G01 X347.752 Y224.798
G01 X347.746 Y224.767
G01 X346.168 Y220.301
G01 X343.822 Y215.899
G01 X343.591 Y215.493
G01 X340.424 Y211.522
G01 X339.160 Y210.052
G01 X335.093 Y206.742
G01 X333.649 Y205.658
G01 X328.736 Y203.175
G01 X327.235 Y202.495
G01 X321.582 Y200.993
G01 X315.225 Y200.475
G01 X314.647 Y200.453
G01 X315.862 Y194.184
G01 X316.610 Y187.684
G01 X316.869 Y180.984
G01 X316.624 Y174.117
G01 X315.912 Y167.496
G01 X317.473 Y167.471
G01 X319.677 Y167.287
G01 X321.587 Y167.010
G01 X323.049 Y166.723
G01 X324.086 Y166.472
G01 X327.515 Y165.390
G01 X332.684 Y162.929
G01 X336.885 Y159.995
G01 X340.740 Y156.246
G01 X343.364 Y152.837
G01 X345.760 Y148.593
G01 X347.567 Y143.887
G01 X348.755 Y137.894
G01 X348.741 Y131.106
G01 X347.943 Y126.466
G01 X346.421 Y121.910
G01 X343.248 Y116.002
G01 X340.681 Y112.691
G01 X336.691 Y108.845
G01 X331.295 Y105.297
G01 X326.882 Y103.385
G01 X321.433 Y101.958
G01 X316.973 Y101.532
G01 X316.933 Y101.541
G01 X315.922 Y117.995
G01 X315.812 Y118.052
G01 X315.671 Y118.037
G01 X315.546 Y117.892
G01 X315.518 Y117.682
G01 X315.637 Y117.407
G01 X315.841 Y117.229
G01 X316.205 Y117.131
G01 X316.568 Y117.200
G01 X316.971 Y117.459
G01 X317.215 Y117.863
G01 X317.271 Y118.144
G01 X317.276 Y118.427
G01 X317.130 Y118.971
G01 X316.932 Y119.262
G01 X316.704 Y119.482
G01 X316.424 Y119.676
G01 X316.115 Y119.800
G01 X315.740 Y119.862
G01 X315.349 Y119.861
G01 X314.977 Y119.759
G01 X314.627 Y119.613
G01 X314.268 Y119.352
G01 X313.992 Y119.022
G01 X313.763 Y118.660
G01 X313.628 Y118.233
G01 X313.551 Y117.752
G01 X313.587 Y117.270
G01 X313.712 Y116.804
G01 X313.917 Y116.375
G01 X314.251 Y115.953
G01 X314.658 Y115.621
G01 X315.122 Y115.346
G01 X315.636 Y115.178
G01 X316.213 Y115.126
G01 X316.798 Y115.164
G01 X317.355 Y115.329
G01 X317.879 Y115.593
G01 X318.362 Y116.006
G01 X318.769 Y116.496
G01 X319.075 Y117.048
G01 X319.265 Y117.655
G01 X319.327 Y118.337
G01 X319.247 Y119.030
G01 X319.061 Y119.666
G01 X318.720 Y120.278
G01 X318.252 Y120.850
G01 X317.679 Y121.312
G01 X317.028 Y121.648
G01 X316.323 Y121.845
G01 X315.539 Y121.919
G01 X314.761 Y121.832
G01 X314.012 Y121.596
G01 X313.327 Y121.201
G01 X312.692 Y120.669
G01 X312.180 Y120.006
G01 X311.795 Y119.269
G01 X311.574 Y118.447
G01 X311.495 Y117.582
G01 X311.613 Y116.700
G01 X311.896 Y115.840
G01 X312.317 Y115.070
G01 X312.939 Y114.366
G01 X313.681 Y113.802
G01 X314.518 Y113.367
G01 X315.419 Y113.130
G01 X316.391 Y113.071
G01 X317.383 Y113.194
G01 X318.313 Y113.516
G01 X319.176 Y114.008
G01 X319.957 Y114.690
G01 X320.572 Y115.517
G01 X321.042 Y116.444
G01 X321.314 Y117.440
G01 X321.376 Y118.525
G01 X321.226 Y119.611
G01 X320.866 Y120.639
G01 X320.336 Y121.575
G01 X319.567 Y122.436
G01 X318.657 Y123.109
G01 X317.637 Y123.610
G01 X316.541 Y123.905
G01 X315.948 Y123.961
G01 X315.355 Y123.962
G01 X314.176 Y123.806
G01 X313.047 Y123.406
G01 X312.014 Y122.813
G01 X311.544 Y122.419
G01 X311.107 Y121.987
G01 X310.712 Y121.495
G01 X310.374 Y120.977
G01 X309.819 Y119.865
G01 X309.638 Y119.260
G01 X309.518 Y118.656
G01 X309.454 Y118.024
G01 X309.439 Y117.386
G01 X309.508 Y116.732
G01 X309.642 Y116.108
G01 X309.826 Y115.478
G01 X310.076 Y114.878
G01 X310.358 Y114.319
G01 X310.717 Y113.768
G01 X311.146 Y113.248
G01 X311.621 Y112.775
G01 X312.142 Y112.352
G01 X312.700 Y112.001
G01 X313.287 Y111.664
G01 X313.911 Y111.401
G01 X314.558 Y111.204
G01 X315.213 Y111.069
G01 X315.904 Y111.008
G01 X316.590 Y111.002
G01 X317.285 Y111.087
G01 X317.972 Y111.228
G01 X318.638 Y111.416
G01 X319.283 Y111.682
G01 X319.893 Y112.017
G01 X320.479 Y112.400
G01 X321.029 Y112.852
G01 X321.541 Y113.372
G01 X321.999 Y113.924
G01 X322.392 Y114.529
G01 X322.729 Y115.164
G01 X323.013 Y115.830
G01 X323.228 Y116.517
G01 X323.362 Y117.219
G01 X323.430 Y117.971
G01 X323.429 Y118.715
G01 X323.349 Y119.472
G01 X323.201 Y120.192
G01 X322.987 Y120.904
G01 X322.694 Y121.600
G01 X322.338 Y122.260
G01 X321.917 Y122.884
G01 X321.434 Y123.472
G01 X320.877 Y124.019
G01 X320.295 Y124.495
G01 X319.640 Y124.932
G01 X318.950 Y125.292
G01 X318.238 Y125.584
G01 X317.502 Y125.809
G01 X316.754 Y125.945
G01 X315.959 Y126.030
G01 X315.152 Y126.027
G01 X314.367 Y125.928
G01 X313.581 Y125.776
G01 X312.828 Y125.533
G01 X312.095 Y125.222
G01 X311.382 Y124.841
G01 X310.723 Y124.410
G01 X310.093 Y123.885
G01 X309.526 Y123.285
G01 X309.000 Y122.654
G01 X308.550 Y121.951
G01 X308.166 Y121.227
G01 X307.849 Y120.482
G01 X307.609 Y119.691
G01 X307.463 Y118.890
G01 X307.381 Y118.036
G01 X307.398 Y117.198
G01 X307.485 Y116.337
G01 X307.663 Y115.516
G01 X307.917 Y114.700
G01 X308.252 Y113.919
G01 X308.645 Y113.189
G01 X309.117 Y112.467
G01 X309.678 Y111.811
G01 X310.301 Y111.208
G01 X310.986 Y110.662
G01 X311.720 Y110.165
G01 X312.498 Y109.772
G01 X313.301 Y109.447
G01 X314.143 Y109.197
G01 X314.986 Y109.033
G01 X315.880 Y108.952
G01 X316.787 Y108.964
G01 X317.678 Y109.057
G01 X318.553 Y109.258
G01 X319.421 Y109.517
G01 X320.243 Y109.870
G01 X321.029 Y110.295
G01 X321.779 Y110.791
G01 X322.478 Y111.379
G01 X323.127 Y112.060
G01 X323.705 Y112.765
G01 X324.203 Y113.546
G01 X324.631 Y114.378
G01 X324.974 Y115.225
G01 X325.235 Y116.116
G01 X325.411 Y117.019
G01 X325.491 Y117.957
G01 X325.489 Y118.906
G01 X325.378 Y119.853
G01 X325.172 Y120.774
G01 X324.887 Y121.678
G01 X324.510 Y122.558
G01 X324.056 Y123.393
G01 X323.526 Y124.184
G01 X322.909 Y124.924
G01 X322.194 Y125.607
G01 X321.433 Y126.206
G01 X320.627 Y126.723
G01 X319.763 Y127.180
G01 X318.854 Y127.557
G01 X317.913 Y127.833
G01 X316.964 Y127.994
G01 X315.969 Y128.078
G01 X314.964 Y128.077
G01 X313.983 Y127.955
G01 X312.989 Y127.748
G01 X312.051 Y127.438
G01 X311.122 Y127.055
G01 X310.245 Y126.567
G01 X309.419 Y126.002
G01 X308.644 Y125.357
G01 X307.927 Y124.609
G01 X307.295 Y123.797
G01 X306.735 Y122.942
G01 X306.272 Y122.025
G01 X305.884 Y121.092
G01 X305.605 Y120.101
G01 X305.403 Y119.091
G01 X305.316 Y118.051
G01 X305.347 Y117.007
G01 X305.473 Y115.950
G01 X305.689 Y114.930
G01 X306.008 Y113.926
G01 X306.421 Y112.960
G01 X306.931 Y112.035
G01 X307.517 Y111.168
G01 X308.216 Y110.348
G01 X308.985 Y109.613
G01 X309.833 Y108.940
G01 X310.727 Y108.370
G01 X311.702 Y107.865
G01 X312.686 Y107.476
G01 X313.726 Y107.171
G01 X314.772 Y106.984
G01 X315.873 Y106.882
G01 X316.979 Y106.899
G01 X318.072 Y107.028
G01 X319.152 Y107.269
G01 X320.187 Y107.608
G01 X321.216 Y108.036
G01 X322.171 Y108.575
G01 X323.076 Y109.210
G01 X323.940 Y109.916
G01 X324.712 Y110.723
G01 X325.414 Y111.615
G01 X326.018 Y112.574
G01 X326.536 Y113.578
G01 X326.952 Y114.617
G01 X327.269 Y115.691
G01 X327.459 Y116.812
G01 X327.563 Y117.943
G01 X327.541 Y119.092
G01 X327.383 Y120.248
G01 X327.154 Y121.364
G01 X326.793 Y122.459
G01 X326.339 Y123.528
G01 X325.782 Y124.536
G01 X325.125 Y125.482
G01 X324.370 Y126.370
G01 X323.520 Y127.172
G01 X322.602 Y127.905
G01 X321.604 Y128.534
G01 X320.553 Y129.077
G01 X319.461 Y129.513
G01 X318.329 Y129.845
G01 X317.180 Y130.057
G01 X315.977 Y130.161
G01 X314.779 Y130.134
G01 X313.583 Y129.976
G01 X312.410 Y129.729
G01 X311.270 Y129.340
G01 X310.161 Y128.867
G01 X309.114 Y128.297
G01 X308.127 Y127.601
G01 X307.197 Y126.805
G01 X306.346 Y125.919
G01 X305.597 Y124.953
G01 X304.928 Y123.920
G01 X304.361 Y122.832
G01 X303.910 Y121.690
G01 X303.580 Y120.523
G01 X303.368 Y119.301
G01 X303.256 Y118.068
G01 X303.284 Y116.813
G01 X303.443 Y115.558
G01 X303.706 Y114.344
G01 X304.097 Y113.155
G01 X304.598 Y112.009
G01 X305.211 Y110.907
G01 X305.915 Y109.869
G01 X306.741 Y108.907
G01 X307.677 Y108.018
G01 X308.677 Y107.238
G01 X309.751 Y106.546
G01 X310.890 Y105.967
G01 X312.094 Y105.502
G01 X313.309 Y105.156
G01 X314.573 Y104.922
G01 X315.874 Y104.821
G01 X317.157 Y104.859
G01 X318.457 Y105.025
G01 X319.731 Y105.300
G01 X320.963 Y105.706
G01 X322.163 Y106.218
G01 X323.303 Y106.852
G01 X324.379 Y107.606
G01 X325.387 Y108.448
G01 X326.300 Y109.421
G01 X327.112 Y110.465
G01 X327.836 Y111.584
G01 X328.431 Y112.783
G01 X328.921 Y114.018
G01 X329.279 Y115.299
G01 X329.507 Y116.596
G01 X329.619 Y117.945
G01 X329.575 Y119.292
G01 X329.417 Y120.631
G01 X329.121 Y121.947
G01 X328.704 Y123.247
G01 X328.155 Y124.495
G01 X327.504 Y125.680
G01 X326.728 Y126.787
G01 X325.831 Y127.819
G01 X324.842 Y128.765
G01 X323.750 Y129.620
G01 X322.584 Y130.344
G01 X321.357 Y130.976
G01 X320.070 Y131.490
G01 X318.735 Y131.867
G01 X317.389 Y132.100
G01 X315.994 Y132.201
G01 X314.595 Y132.169
G01 X313.190 Y132.005
G01 X311.821 Y131.705
G01 X310.485 Y131.269
G01 X309.190 Y130.702
G01 X307.967 Y130.019
G01 X306.822 Y129.197
G01 X305.743 Y128.282
G01 X304.760 Y127.234
G01 X303.885 Y126.111
G01 X303.118 Y124.911
G01 X302.470 Y123.635
G01 X301.954 Y122.288
G01 X301.566 Y120.919
G01 X301.307 Y119.526
G01 X301.199 Y118.061
G01 X301.234 Y116.627
G01 X301.422 Y115.173
G01 X301.748 Y113.746
G01 X302.194 Y112.364
G01 X302.778 Y111.035
G01 X303.480 Y109.777
G01 X304.313 Y108.570
G01 X305.286 Y107.445
G01 X306.354 Y106.440
G01 X307.528 Y105.533
G01 X308.772 Y104.739
G01 X310.100 Y104.066
G01 X311.473 Y103.527
G01 X312.905 Y103.129
G01 X314.355 Y102.885
G01 X315.855 Y102.756
G01 X317.358 Y102.805
G01 X318.841 Y102.996
G01 X320.317 Y103.335
G01 X321.762 Y103.786
G01 X323.127 Y104.408
G01 X324.440 Y105.131
G01 X325.677 Y105.999
G01 X326.830 Y106.980
G01 X327.886 Y108.094
G01 X328.812 Y109.322
G01 X329.631 Y110.619
G01 X330.329 Y111.973
G01 X330.891 Y113.405
G01 X331.304 Y114.874
G01 X331.568 Y116.379
G01 X331.684 Y117.918
G01 X331.641 Y119.480
G01 X331.428 Y121.029
G01 X331.100 Y122.538
G01 X330.597 Y124.026
G01 X329.987 Y125.447
G01 X329.223 Y126.798
G01 X328.336 Y128.071
G01 X327.304 Y129.280
G01 X326.158 Y130.358
G01 X324.903 Y131.338
G01 X323.565 Y132.181
G01 X322.161 Y132.898
G01 X320.691 Y133.465
G01 X319.156 Y133.884
G01 X317.604 Y134.158
G01 X315.996 Y134.270
G01 X314.378 Y134.219
G01 X312.780 Y133.999
G01 X311.197 Y133.636
G01 X309.671 Y133.127
G01 X308.197 Y132.497
G01 X306.814 Y131.711
G01 X305.520 Y130.823
G01 X303.598 Y128.961
G01 X302.029 Y126.893
G01 X300.827 Y124.664
G01 X299.845 Y121.665
G01 X299.453 Y119.079
G01 X299.457 Y116.491
G01 X300.049 Y113.512
G01 X301.220 Y110.533
G01 X303.001 Y107.753
G01 X304.911 Y105.721
G01 X307.216 Y103.985
G01 X309.725 Y102.724
G01 X312.524 Y101.854
G01 X316.754 Y101.543
G01 X318.844 Y101.756
G01 X321.529 Y102.476
G01 X324.531 Y103.914
G01 X326.403 Y105.251
G01 X328.469 Y107.302
G01 X329.787 Y109.039
G01 X331.228 Y111.862
G01 X331.896 Y113.830
G01 X332.409 Y117.102
G01 X332.304 Y120.045
G01 X331.502 Y123.449
G01 X330.636 Y125.479
G01 X329.406 Y127.512
G01 X327.280 Y129.978
G01 X324.458 Y132.121
G01 X321.357 Y133.578
G01 X318.630 Y134.269
G01 X315.931 Y134.492
G01 X313.646 Y134.586
G01 X311.609 Y134.845
G01 X309.566 Y135.125
G01 X307.815 Y135.521
G01 X306.318 Y135.975
G01 X304.531 Y136.522
G01 X303.142 Y137.108
G01 X302.118 Y137.567
G01 X300.092 Y138.539
G01 X299.050 Y139.142
G01 X297.976 Y139.817
G01 X294.353 Y142.517
G01 X293.013 Y143.751
G01 X291.774 Y145.005
G01 X289.288 Y148.032
G01 X287.739 Y150.331
G01 X286.031 Y153.534
G01 X284.470 Y157.515
G01 X282.927 Y167.504
G01 X284.420 Y174.721
G01 X285.025 Y179.105
G01 X285.717 Y180.799
G01 X288.053 Y184.386
G01 X290.126 Y188.032
G01 X290.222 Y188.213
G01 X292.783 Y190.846
G01 X293.815 Y191.987
G01 X296.664 Y194.141
G01 X297.941 Y195.181
G01 X301.400 Y196.743
G01 X304.819 Y198.514
G01 X305.159 Y198.703
G01 X309.609 Y199.787
G01 X310.566 Y200.060
G01 X313.578 Y200.419
G01 X317.588 Y200.416
G01 X320.273 Y200.209
G01 X322.410 Y199.860
G01 X324.189 Y199.448
G01 X325.783 Y198.992
G01 X328.164 Y198.146
G01 X329.911 Y197.389
G01 X332.171 Y196.231
G01 X334.254 Y194.940
G01 X336.441 Y193.350
G01 X338.429 Y191.642
G01 X340.379 Y189.652
G01 X341.713 Y188.096
G01 X342.780 Y186.685
G01 X343.396 Y185.770
G01 X344.509 Y183.997
G01 X343.473 Y185.662
G01 X342.943 Y186.437
G01 X342.319 Y187.296
G01 X341.628 Y188.193
G01 X341.108 Y188.809
G01 X340.008 Y190.042
G01 X338.429 Y191.642
G01 X337.167 Y192.725
G01 X335.794 Y193.823
G01 X333.213 Y195.585
G01 X330.549 Y197.085
G01 X326.974 Y198.569
G01 X325.483 Y199.084
G01 X323.301 Y199.655
G01 X321.345 Y200.037
G01 X318.622 Y200.393
G01 X318.180 Y200.421
G01 X317.472 Y200.428
G01 X314.647 Y200.453
G01 X315.492 Y194.498
G01 X315.901 Y188.347
G01 X315.920 Y184.009
G01 X315.799 Y184.065
G01 X315.660 Y184.033
G01 X315.546 Y183.884
G01 X315.521 Y183.683
G01 X315.634 Y183.409
G01 X315.848 Y183.233
G01 X316.210 Y183.134
G01 X316.571 Y183.211
G01 X316.962 Y183.461
G01 X317.198 Y183.877
G01 X317.280 Y184.140
G01 X317.282 Y184.427
G01 X317.119 Y184.977
G01 X316.938 Y185.257
G01 X316.704 Y185.483
G01 X316.425 Y185.663
G01 X316.108 Y185.803
G01 X315.739 Y185.854
G01 X315.350 Y185.849
G01 X314.977 Y185.755
G01 X314.620 Y185.608
G01 X314.281 Y185.341
G01 X313.994 Y185.021
G01 X313.758 Y184.650
G01 X313.622 Y184.239
G01 X313.553 Y183.756
G01 X313.592 Y183.275
G01 X313.718 Y182.808
G01 X313.919 Y182.379
G01 X314.246 Y181.965
G01 X314.665 Y181.604
G01 X315.125 Y181.351
G01 X315.631 Y181.177
G01 X316.211 Y181.109
G01 X316.784 Y181.177
G01 X317.365 Y181.324
G01 X317.868 Y181.609
G01 X318.364 Y181.999
G01 X318.776 Y182.487
G01 X319.074 Y183.043
G01 X319.251 Y183.660
G01 X319.313 Y184.341
G01 X319.256 Y185.009
G01 X319.051 Y185.668
G01 X318.729 Y186.276
G01 X318.260 Y186.837
G01 X317.672 Y187.306
G01 X317.028 Y187.641
G01 X316.328 Y187.844
G01 X315.538 Y187.917
G01 X314.760 Y187.825
G01 X314.005 Y187.584
G01 X313.318 Y187.207
G01 X312.696 Y186.656
G01 X312.174 Y186.004
G01 X311.792 Y185.255
G01 X311.563 Y184.452
G01 X311.497 Y183.571
G01 X311.614 Y182.693
G01 X311.882 Y181.854
G01 X312.326 Y181.076
G01 X312.932 Y180.377
G01 X313.672 Y179.799
G01 X314.514 Y179.382
G01 X315.423 Y179.131
G01 X316.406 Y179.055
G01 X317.389 Y179.192
G01 X318.326 Y179.503
G01 X319.183 Y179.991
G01 X319.949 Y180.686
G01 X320.584 Y181.512
G01 X321.030 Y182.445
G01 X321.314 Y183.440
G01 X321.368 Y184.529
G01 X321.232 Y185.605
G01 X320.877 Y186.630
G01 X320.319 Y187.583
G01 X319.564 Y188.427
G01 X318.667 Y189.111
G01 X317.639 Y189.610
G01 X316.527 Y189.906
G01 X315.941 Y189.967
G01 X315.357 Y189.958
G01 X314.176 Y189.789
G01 X313.053 Y189.404
G01 X312.022 Y188.812
G01 X311.551 Y188.408
G01 X311.112 Y187.973
G01 X310.705 Y187.504
G01 X310.352 Y186.991
G01 X309.822 Y185.871
G01 X309.650 Y185.268
G01 X309.516 Y184.670
G01 X309.440 Y184.028
G01 X309.439 Y183.389
G01 X309.507 Y182.747
G01 X309.644 Y182.101
G01 X309.818 Y181.489
G01 X310.070 Y180.880
G01 X310.369 Y180.312
G01 X310.715 Y179.785
G01 X311.142 Y179.262
G01 X311.619 Y178.782
G01 X312.130 Y178.365
G01 X312.693 Y177.993
G01 X313.285 Y177.679
G01 X313.914 Y177.401
G01 X314.540 Y177.220
G01 X315.205 Y177.075
G01 X315.889 Y177.018
G01 X316.595 Y177.017
G01 X317.291 Y177.079
G01 X317.966 Y177.228
G01 X318.639 Y177.415
G01 X319.283 Y177.682
G01 X319.888 Y178.022
G01 X320.481 Y178.392
G01 X321.023 Y178.859
G01 X321.533 Y179.372
G01 X322.004 Y179.924
G01 X322.384 Y180.533
G01 X322.742 Y181.162
G01 X323.000 Y181.839
G01 X323.221 Y182.518
G01 X323.361 Y183.226
G01 X323.432 Y183.975
G01 X323.427 Y184.720
G01 X323.346 Y185.458
G01 X323.196 Y186.198
G01 X322.985 Y186.907
G01 X322.693 Y187.603
G01 X322.335 Y188.261
G01 X321.937 Y188.874
G01 X321.431 Y189.475
G01 X320.895 Y190.003
G01 X320.291 Y190.489
G01 X319.641 Y190.920
G01 X318.963 Y191.281
G01 X318.235 Y191.583
G01 X317.500 Y191.802
G01 X316.740 Y191.955
G01 X315.962 Y192.015
G01 X315.164 Y192.019
G01 X314.373 Y191.922
G01 X313.591 Y191.768
G01 X312.825 Y191.528
G01 X312.089 Y191.219
G01 X311.390 Y190.849
G01 X310.718 Y190.409
G01 X310.090 Y189.882
G01 X309.528 Y189.290
G01 X309.011 Y188.649
G01 X308.546 Y187.964
G01 X308.166 Y187.232
G01 X307.853 Y186.470
G01 X307.620 Y185.687
G01 X307.461 Y184.876
G01 X307.381 Y184.041
G01 X307.394 Y183.194
G01 X307.486 Y182.351
G01 X307.664 Y181.520
G01 X307.907 Y180.712
G01 X308.248 Y179.922
G01 X308.647 Y179.181
G01 X309.125 Y178.473
G01 X309.683 Y177.799
G01 X310.297 Y177.204
G01 X310.995 Y176.646
G01 X311.714 Y176.172
G01 X312.488 Y175.776
G01 X313.300 Y175.449
G01 X314.146 Y175.184
G01 X314.998 Y175.028
G01 X315.891 Y174.944
G01 X316.782 Y174.964
G01 X317.680 Y175.064
G01 X318.552 Y175.249
G01 X319.420 Y175.507
G01 X320.242 Y175.868
G01 X321.043 Y176.288
G01 X321.780 Y176.794
G01 X322.481 Y177.383
G01 X323.114 Y178.056
G01 X323.705 Y178.769
G01 X324.209 Y179.548
G01 X324.636 Y180.367
G01 X324.986 Y181.224
G01 X325.250 Y182.109
G01 X325.422 Y183.013
G01 X325.490 Y183.959
G01 X325.484 Y184.905
G01 X325.372 Y185.851
G01 X325.175 Y186.779
G01 X324.888 Y187.683
G01 X324.512 Y188.561
G01 X324.061 Y189.391
G01 X323.539 Y190.174
G01 X322.895 Y190.928
G01 X322.209 Y191.591
G01 X321.445 Y192.197
G01 X320.625 Y192.733
G01 X319.762 Y193.178
G01 X318.845 Y193.557
G01 X317.927 Y193.819
G01 X316.971 Y193.998
G01 X315.965 Y194.084
G01 X314.970 Y194.074
G01 X313.973 Y193.956
G01 X312.990 Y193.750
G01 X312.043 Y193.447
G01 X311.131 Y193.047
G01 X310.242 Y192.578
G01 X309.417 Y192.011
G01 X308.647 Y191.338
G01 X307.938 Y190.603
G01 X307.295 Y189.810
G01 X306.739 Y188.944
G01 X306.269 Y188.036
G01 X305.882 Y187.084
G01 X305.599 Y186.103
G01 X305.418 Y185.089
G01 X305.317 Y184.053
G01 X305.339 Y182.999
G01 X305.456 Y181.962
G01 X305.690 Y180.930
G01 X306.002 Y179.929
G01 X306.429 Y178.959
G01 X306.922 Y178.042
G01 X307.516 Y177.173
G01 X308.211 Y176.353
G01 X308.982 Y175.623
G01 X309.829 Y174.956
G01 X310.733 Y174.366
G01 X311.703 Y173.863
G01 X312.692 Y173.476
G01 X313.732 Y173.167
G01 X314.784 Y172.971
G01 X315.878 Y172.883
G01 X316.975 Y172.904
G01 X318.073 Y173.035
G01 X319.137 Y173.281
G01 X320.199 Y173.606
G01 X321.216 Y174.038
G01 X322.177 Y174.569
G01 X323.073 Y175.192
G01 X323.930 Y175.932
G01 X324.718 Y176.727
G01 X325.407 Y177.618
G01 X326.006 Y178.575
G01 X326.524 Y179.573
G01 X326.942 Y180.625
G01 X327.262 Y181.697
G01 X327.466 Y182.803
G01 X327.561 Y183.948
G01 X327.525 Y185.107
G01 X327.398 Y186.246
G01 X327.150 Y187.364
G01 X326.789 Y188.469
G01 X326.348 Y189.521
G01 X325.780 Y190.537
G01 X325.126 Y191.486
G01 X324.363 Y192.378
G01 X323.528 Y193.178
G01 X322.604 Y193.904
G01 X321.607 Y194.536
G01 X320.547 Y195.086
G01 X319.458 Y195.520
G01 X318.337 Y195.834
G01 X317.170 Y196.055
G01 X315.986 Y196.143
G01 X314.771 Y196.123
G01 X313.579 Y195.987
G01 X312.420 Y195.712
G01 X311.265 Y195.346
G01 X310.164 Y194.874
G01 X309.107 Y194.288
G01 X308.120 Y193.617
G01 X307.191 Y192.816
G01 X306.350 Y191.918
G01 X305.592 Y190.952
G01 X304.927 Y189.925
G01 X304.373 Y188.820
G01 X303.915 Y187.687
G01 X303.580 Y186.512
G01 X303.352 Y185.313
G01 X303.271 Y184.053
G01 X303.287 Y182.817
G01 X303.437 Y181.567
G01 X303.721 Y180.332
G01 X304.106 Y179.146
G01 X304.590 Y178.006
G01 X305.206 Y176.905
G01 X305.915 Y175.874
G01 X306.750 Y174.907
G01 X307.664 Y174.031
G01 X308.681 Y173.234
G01 X309.759 Y172.549
G01 X310.891 Y171.972
G01 X312.080 Y171.507
G01 X313.316 Y171.150
G01 X314.577 Y170.917
G01 X315.870 Y170.816
G01 X317.160 Y170.855
G01 X318.462 Y171.017
G01 X319.734 Y171.300
G01 X320.971 Y171.704
G01 X322.164 Y172.221
G01 X323.308 Y172.849
G01 X324.376 Y173.599
G01 X325.388 Y174.456
G01 X326.301 Y175.414
G01 X327.111 Y176.469
G01 X327.827 Y177.594
G01 X328.431 Y178.768
G01 X328.911 Y180.014
G01 X329.288 Y181.278
G01 X329.524 Y182.591
G01 X329.612 Y183.940
G01 X329.589 Y185.292
G01 X329.419 Y186.635
G01 X329.122 Y187.952
G01 X328.701 Y189.243
G01 X328.172 Y190.483
G01 X327.499 Y191.666
G01 X326.739 Y192.777
G01 X325.831 Y193.819
G01 X324.831 Y194.780
G01 X323.741 Y195.618
G01 X322.581 Y196.362
G01 X321.358 Y196.978
G01 X320.059 Y197.496
G01 X318.738 Y197.861
G01 X317.385 Y198.108
G01 X315.980 Y198.216
G01 X314.579 Y198.179
G01 X313.203 Y197.992
G01 X311.816 Y197.696
G01 X310.484 Y197.258
G01 X309.192 Y196.704
G01 X307.977 Y196.007
G01 X306.813 Y195.215
G01 X305.747 Y194.272
G01 X304.764 Y193.236
G01 X303.875 Y192.118
G01 X303.111 Y190.911
G01 X302.461 Y189.636
G01 X301.942 Y188.303
G01 X301.564 Y186.918
G01 X301.302 Y185.519
G01 X301.197 Y184.069
G01 X301.240 Y182.620
G01 X301.429 Y181.165
G01 X301.745 Y179.750
G01 X302.189 Y178.371
G01 X302.773 Y177.034
G01 X303.489 Y175.763
G01 X304.322 Y174.575
G01 X305.283 Y173.450
G01 X306.357 Y172.438
G01 X307.525 Y171.526
G01 X308.775 Y170.739
G01 X310.101 Y170.076
G01 X311.481 Y169.522
G01 X312.900 Y169.132
G01 X314.357 Y168.878
G01 X315.851 Y168.762
G01 X317.355 Y168.799
G01 X318.859 Y168.985
G01 X320.326 Y169.324
G01 X321.761 Y169.791
G01 X323.135 Y170.395
G01 X324.443 Y171.135
G01 X325.673 Y172.001
G01 X326.828 Y172.997
G01 X327.888 Y174.106
G01 X328.816 Y175.324
G01 X329.637 Y176.605
G01 X330.337 Y177.970
G01 X330.881 Y179.414
G01 X331.308 Y180.868
G01 X331.569 Y182.385
G01 X331.675 Y183.934
G01 X331.632 Y185.482
G01 X331.441 Y187.023
G01 X331.092 Y188.541
G01 X330.607 Y190.018
G01 X329.983 Y191.446
G01 X329.212 Y192.810
G01 X328.334 Y194.073
G01 X327.312 Y195.268
G01 X326.156 Y196.360
G01 X324.910 Y197.327
G01 X323.581 Y198.174
G01 X322.160 Y198.893
G01 X320.689 Y199.456
G01 X319.155 Y199.892
G01 X317.609 Y200.151
G01 X315.984 Y200.271
G01 X314.369 Y200.215
G01 X312.770 Y200.000
G01 X311.195 Y199.644
G01 X309.663 Y199.138
G01 X308.201 Y198.485
G01 X306.805 Y197.721
G01 X305.531 Y196.803
G01 X303.600 Y194.962
G01 X301.880 Y192.662
G01 X300.827 Y190.670
G01 X299.833 Y187.673
G01 X299.461 Y185.067
G01 X299.450 Y182.500
G01 X300.045 Y179.508
G01 X301.209 Y176.537
G01 X303.004 Y173.735
G01 X304.911 Y171.712
G01 X307.220 Y169.978
G01 X309.728 Y168.708
G01 X312.517 Y167.859
G01 X315.920 Y167.502
G01 X318.843 Y167.761
G01 X321.524 Y168.478
G01 X324.528 Y169.913
G01 X326.404 Y171.247
G01 X328.490 Y173.290
G01 X329.785 Y175.039
G01 X331.236 Y177.850
G01 X331.880 Y179.844
G01 X332.391 Y183.110
G01 X332.303 Y186.054
G01 X331.491 Y189.449
G01 X330.647 Y191.466
G01 X329.407 Y193.510
G01 X327.286 Y195.968
G01 X324.459 Y198.121
G01 X321.359 Y199.579
G01 X318.628 Y200.273
G01 X316.462 Y200.492
G01 X315.650 Y200.492
G01 X316.203 Y200.479
G01 X318.078 Y200.579
G01 X319.655 Y200.720
G01 X320.799 Y200.871
G01 X324.146 Y201.545
G01 X325.604 Y201.962
G01 X328.498 Y202.985
G01 X331.046 Y204.183
G01 X335.514 Y207.051
G01 X336.801 Y207.949
G01 X340.491 Y211.523
G01 X341.102 Y212.154
G01 X344.023 Y216.248
G01 X344.311 Y216.678
G01 X346.452 Y221.160
G01 X347.007 Y222.427
G01 X348.315 Y227.203
G01 X348.342 Y227.313
G01 X348.895 Y232.113
G01 X348.871 Y235.185
G01 X348.374 Y239.570
G01 X347.319 Y243.662
G01 X345.386 Y248.394
G01 X343.486 Y251.642
G01 X340.027 Y256.010
G01 X339.779 Y256.301
G01 X334.953 Y260.171
G01 X334.832 Y260.261
G01 X333.330 Y261.536
G01 X327.087 Y264.558
G01 X327.060 Y264.570
G01 X322.330 Y265.868
G01 X317.966 Y266.436
G01 X315.096 Y266.481
G01 X312.333 Y265.682
G01 X310.741 Y264.618
G01 X309.363 Y263.254
G01 X307.926 Y260.246
G01 X307.791 Y257.319
G01 X307.771 Y257.052
G01 X308.850 Y254.267
G01 X309.061 Y253.665
G01 X310.952 Y251.668
G01 X313.449 Y250.385
G01 X319.197 Y249.326
G01 X322.573 Y246.650
G01 X323.938 Y243.765
G01 X324.140 Y241.080
G01 X322.747 Y237.601
G01 X322.241 Y236.456
G01 X319.617 Y234.371
G01 X317.981 Y233.628
G01 X315.224 Y233.517
G01 X311.229 Y233.841
G01 X305.840 Y235.077
G01 X300.439 Y237.355
G01 X294.983 Y240.997
G01 X292.301 Y243.674
G01 X291.159 Y244.689
G01 X289.659 Y246.851
G01 X288.051 Y248.852
G01 X288.009 Y248.900
G01 X287.211 Y250.750
G01 X286.326 Y252.519
G01 X285.358 Y254.204
G01 X285.192 Y254.471
G01 X284.796 Y256.168
G01 X284.318 Y257.838
G01 X283.760 Y259.475
G01 X283.585 Y259.941
G01 X283.528 Y261.742
G01 X283.375 Y263.561
G01 X283.122 Y265.393
G01 X282.922 Y266.499
G01 X283.248 Y268.758
G01 X283.429 Y271.086
G01 X283.465 Y272.454
G01 X284.663 Y275.811
G01 X285.606 Y279.335
G01 X285.692 Y279.727
G01 X289.654 Y286.467
G01 X289.655 Y286.469
G01 X294.182 Y291.331
G01 X299.874 Y295.336
G01 X306.427 Y298.106
G01 X310.681 Y299.087
G01 X315.932 Y299.507
G01 X316.858 Y305.536
G01 X317.343 Y311.767
G01 X317.369 Y318.173
G01 X316.921 Y324.722
G01 X315.986 Y331.384
G01 X315.780 Y332.514
G01 X319.715 Y332.714
G01 X325.009 Y333.778
G01 X330.455 Y335.874
G01 X334.213 Y338.032
G01 X337.492 Y340.531
G01 X339.983 Y342.922
G01 X343.428 Y347.275
G01 X345.621 Y351.125
G01 X347.296 Y355.275
G01 X348.403 Y359.642
G01 X348.906 Y364.298
G01 X348.837 Y367.838
G01 X348.311 Y371.864
G01 X347.096 Y376.320
G01 X343.816 Y383.142
G01 X340.374 Y387.661
G01 X335.732 Y391.885
G01 X331.550 Y394.559
G01 X327.569 Y396.366
G01 X323.991 Y397.508
G01 X320.170 Y398.230
G01 X315.929 Y398.498
G01 X315.931 Y382.000
G01 X315.949 Y382.103
G01 X315.990 Y382.250
G01 X316.316 Y382.339
G01 X316.699 Y381.950
G01 X316.594 Y381.219
G01 X315.827 Y380.710
G01 X315.561 Y380.704
G01 X314.758 Y380.992
G01 X314.514 Y381.224
G01 X314.317 Y381.488
G01 X314.127 Y382.136
G01 X314.124 Y382.499
G01 X314.194 Y382.882
G01 X314.571 Y383.560
G01 X314.879 Y383.855
G01 X315.257 Y384.089
G01 X316.087 Y384.323
G01 X316.565 Y384.310
G01 X317.039 Y384.185
G01 X317.863 Y383.687
G01 X318.224 Y383.306
G01 X318.499 Y382.828
G01 X318.753 Y381.795
G01 X318.720 Y381.220
G01 X318.558 Y380.655
G01 X317.959 Y379.671
G01 X317.473 Y379.248
G01 X316.921 Y378.943
G01 X315.694 Y378.647
G01 X315.014 Y378.712
