;  Created by Sandify
;  https://sandify.org
;  Version: 0.2.6
;
;  Machine type: Rectangular
;    Min X (mm): 0
;    Max X (mm): 500
;    Min Y (mm): 0
;    Max Y (mm): 500
;  Content type: shape
;  Layer:
;    Shape: FileImport
;    Name: HexagonAlleyTight.thr
;    From file:: HexagonAlleyTight.thr
;    Aspect Ratio: true
;    Comments: 
;    Visible: true
;    Initial width: 10
;    Initial height: 10
;    X offset: 0
;    Y offset: 0
;    Rotate (degrees): 0
;    Reverse path: false
;    Fine tuning:
;      Connect to next layer: line
;      Draw portion of path (%): 100
;      Backtrack at end (%): 0
;      Rotate starting point (%): 0
;  Reverse export path: false
;
; File name: 'sandify'
; File type: gcode
;
; BEGIN PRE
; END PRE

G01 X250.000 Y250.000
G01 X250.023 Y250.464
G01 X250.091 Y250.925
G01 X250.205 Y251.379
G01 X250.363 Y251.823
G01 X250.565 Y252.254
G01 X250.641 Y252.394
G01 X281.428 Y367.291
G01 X288.363 Y369.397
G01 X295.577 Y371.096
G01 X295.790 Y371.139
G01 X303.790 Y373.596
G01 X312.135 Y375.548
G01 X312.546 Y375.629
G01 X322.020 Y378.446
G01 X329.302 Y380.119
G01 X340.533 Y383.351
G01 X346.058 Y384.608
G01 X359.424 Y388.433
G01 X365.207 Y389.740
G01 X381.385 Y394.309
G01 X386.751 Y395.512
G01 X398.719 Y398.719
G01 X406.243 Y391.611
G01 X413.427 Y384.121
G01 X414.490 Y382.948
G01 X422.157 Y375.697
G01 X429.506 Y368.011
G01 X430.261 Y367.178
G01 X438.239 Y359.615
G01 X445.903 Y351.549
G01 X446.031 Y351.407
G01 X454.487 Y343.362
G01 X461.802 Y335.636
G01 X470.900 Y326.934
G01 X477.573 Y319.865
G01 X484.582 Y312.856
G01 X481.414 Y299.981
G01 X478.809 Y291.313
G01 X475.922 Y279.432
G01 X473.037 Y269.770
G01 X470.366 Y258.669
G01 X467.265 Y248.226
G01 X464.747 Y237.692
G01 X461.724 Y227.400
G01 X461.492 Y226.683
G01 X459.068 Y216.498
G01 X456.156 Y206.494
G01 X455.720 Y205.140
G01 X453.154 Y195.565
G01 X435.020 Y190.552
G01 X431.611 Y189.793
G01 X416.511 Y185.569
G01 X412.461 Y184.661
G01 X399.853 Y181.007
G01 X393.312 Y179.530
G01 X382.716 Y176.444
G01 X376.556 Y175.041
G01 X367.559 Y172.335
G01 X359.800 Y170.551
G01 X352.132 Y168.173
G01 X344.504 Y166.349
G01 X343.044 Y166.061
G01 X336.185 Y164.213
G01 X335.863 Y164.137
G01 X251.752 Y248.248
G01 X251.729 Y248.433
G01 X251.691 Y248.612
G01 X251.641 Y248.783
G01 X251.578 Y248.946
G01 X251.503 Y249.099
G01 X251.417 Y249.242
G01 X251.322 Y249.375
G01 X251.217 Y249.496
G01 X251.103 Y249.605
G01 X250.982 Y249.702
G01 X250.855 Y249.786
G01 X250.722 Y249.856
G01 X250.585 Y249.913
G01 X250.444 Y249.956
G01 X250.300 Y249.985
G01 X250.156 Y250.000
G01 X250.010 Y250.001
G01 X250.000 Y250.000
G01 X250.122 Y250.012
G01 X250.242 Y250.037
G01 X250.360 Y250.073
G01 X250.474 Y250.121
G01 X250.585 Y250.180
G01 X250.690 Y250.250
G01 X250.790 Y250.330
G01 X250.883 Y250.421
G01 X250.969 Y250.522
G01 X251.047 Y250.632
G01 X251.116 Y250.751
G01 X251.176 Y250.878
G01 X251.226 Y251.013
G01 X251.265 Y251.154
G01 X251.293 Y251.302
G01 X251.309 Y251.455
G01 X251.313 Y251.612
G01 X251.305 Y251.773
G01 X251.284 Y251.937
G01 X251.250 Y252.102
G01 X251.239 Y252.146
G01 X310.714 Y355.160
G01 X317.958 Y355.400
G01 X325.367 Y355.174
G01 X325.583 Y355.160
G01 X333.946 Y355.463
G01 X342.512 Y355.188
G01 X342.930 Y355.160
G01 X352.810 Y355.429
G01 X360.277 Y355.160
G01 X371.962 Y355.375
G01 X377.624 Y355.160
G01 X391.525 Y355.395
G01 X397.449 Y355.160
G01 X414.259 Y355.387
G01 X419.752 Y355.160
G01 X432.143 Y355.160
G01 X437.571 Y346.347
G01 X442.571 Y337.253
G01 X443.294 Y335.845
G01 X448.824 Y326.856
G01 X453.933 Y317.530
G01 X454.446 Y316.530
G01 X460.195 Y307.161
G01 X465.510 Y297.386
G01 X465.598 Y297.215
G01 X471.683 Y287.256
G01 X476.749 Y277.900
G01 X483.285 Y267.140
G01 X487.901 Y258.585
G01 X492.857 Y250.000
G01 X486.464 Y238.383
G01 X481.706 Y230.685
G01 X475.842 Y219.956
G01 X470.554 Y211.370
G01 X465.101 Y201.339
G01 X459.402 Y192.055
G01 X454.244 Y182.531
G01 X448.661 Y173.372
G01 X448.251 Y172.739
G01 X443.273 Y163.529
G01 X437.871 Y154.620
G01 X437.099 Y153.424
G01 X432.143 Y144.840
G01 X413.330 Y144.691
G01 X409.840 Y144.840
G01 X394.161 Y144.668
G01 X390.015 Y144.840
G01 X376.890 Y144.573
G01 X370.190 Y144.840
G01 X359.156 Y144.601
G01 X352.843 Y144.840
G01 X343.452 Y144.555
G01 X335.496 Y144.840
G01 X327.474 Y144.528
G01 X319.634 Y144.740
G01 X318.149 Y144.840
G01 X311.045 Y144.829
G01 X310.714 Y144.840
G01 X251.239 Y247.854
G01 X251.115 Y247.828
G01 X250.992 Y247.810
G01 X250.870 Y247.798
G01 X250.749 Y247.793
G01 X250.630 Y247.795
G01 X250.512 Y247.802
G01 X250.397 Y247.816
G01 X250.285 Y247.836
G01 X250.175 Y247.861
G01 X250.069 Y247.892
G01 X249.966 Y247.928
G01 X249.867 Y247.969
G01 X249.772 Y248.015
G01 X249.680 Y248.065
G01 X249.594 Y248.119
G01 X249.511 Y248.177
G01 X249.434 Y248.238
G01 X249.361 Y248.302
G01 X249.293 Y248.369
G01 X249.230 Y248.439
G01 X249.173 Y248.511
G01 X249.120 Y248.585
G01 X249.073 Y248.660
G01 X249.030 Y248.736
G01 X248.993 Y248.814
G01 X248.962 Y248.891
G01 X248.935 Y248.969
G01 X248.914 Y249.047
G01 X248.897 Y249.125
G01 X248.885 Y249.201
G01 X248.879 Y249.277
G01 X248.876 Y249.351
G01 X248.879 Y249.424
G01 X248.885 Y249.495
G01 X248.896 Y249.564
G01 X248.911 Y249.630
G01 X248.930 Y249.694
G01 X248.952 Y249.756
G01 X248.978 Y249.814
G01 X249.006 Y249.869
G01 X249.038 Y249.921
G01 X249.072 Y249.970
G01 X249.108 Y250.015
G01 X249.147 Y250.056
G01 X249.188 Y250.093
G01 X249.229 Y250.127
G01 X249.273 Y250.157
G01 X249.317 Y250.183
G01 X249.362 Y250.205
G01 X249.407 Y250.223
G01 X249.453 Y250.237
G01 X249.498 Y250.248
G01 X249.543 Y250.254
G01 X249.587 Y250.257
G01 X249.631 Y250.255
G01 X249.673 Y250.251
G01 X249.714 Y250.243
G01 X249.753 Y250.231
G01 X249.790 Y250.217
G01 X249.826 Y250.199
G01 X249.859 Y250.178
G01 X249.889 Y250.155
G01 X249.917 Y250.129
G01 X249.942 Y250.101
G01 X249.963 Y250.071
G01 X249.982 Y250.039
G01 X249.998 Y250.006
G01 X250.000 Y250.000
G01 X249.967 Y250.100
G01 X249.944 Y250.203
G01 X249.931 Y250.309
G01 X249.928 Y250.416
G01 X249.935 Y250.523
G01 X249.953 Y250.631
G01 X249.982 Y250.738
G01 X250.021 Y250.843
G01 X250.070 Y250.947
G01 X250.129 Y251.047
G01 X250.198 Y251.143
G01 X250.277 Y251.235
G01 X250.366 Y251.321
G01 X250.463 Y251.402
G01 X250.569 Y251.476
G01 X250.684 Y251.543
G01 X250.806 Y251.601
G01 X250.936 Y251.652
G01 X251.072 Y251.693
G01 X251.214 Y251.724
G01 X251.363 Y251.746
G01 X251.515 Y251.757
G01 X251.672 Y251.757
G01 X251.752 Y251.752
G01 X335.863 Y335.863
G01 X342.922 Y334.220
G01 X350.019 Y332.084
G01 X350.225 Y332.015
G01 X358.381 Y330.143
G01 X366.585 Y327.660
G01 X366.981 Y327.525
G01 X376.594 Y325.227
G01 X383.737 Y323.035
G01 X395.079 Y320.218
G01 X400.493 Y318.545
G01 X413.981 Y315.175
G01 X419.642 Y313.414
G01 X435.938 Y309.283
G01 X441.185 Y307.642
G01 X453.154 Y304.435
G01 X456.116 Y294.517
G01 X458.592 Y284.439
G01 X458.926 Y282.892
G01 X461.941 Y272.778
G01 X464.463 Y262.448
G01 X464.699 Y261.348
G01 X467.827 Y250.811
G01 X470.431 Y239.993
G01 X470.471 Y239.805
G01 X473.772 Y228.611
G01 X476.244 Y218.262
G01 X479.772 Y206.177
G01 X482.016 Y196.719
G01 X484.582 Y187.144
G01 X475.400 Y177.578
G01 X468.811 Y171.373
G01 X460.370 Y162.527
G01 X453.040 Y155.602
G01 X445.177 Y147.325
G01 X437.270 Y139.832
G01 X429.822 Y131.968
G01 X422.059 Y124.566
G01 X421.499 Y124.061
G01 X414.307 Y116.453
G01 X406.783 Y109.245
G01 X405.728 Y108.290
G01 X398.719 Y101.281
G01 X380.508 Y106.006
G01 X377.176 Y107.053
G01 X361.987 Y110.946
G01 X358.026 Y112.185
G01 X345.280 Y115.324
G01 X338.877 Y117.316
G01 X328.157 Y119.940
G01 X322.121 Y121.805
G01 X312.976 Y123.960
G01 X305.365 Y126.295
G01 X297.535 Y128.070
G01 X290.018 Y130.304
G01 X288.609 Y130.785
G01 X281.745 Y132.613
G01 X281.428 Y132.709
G01 X250.641 Y247.606
G01 X250.509 Y247.642
G01 X250.382 Y247.686
G01 X250.261 Y247.735
G01 X250.145 Y247.791
G01 X250.035 Y247.853
G01 X249.932 Y247.920
G01 X249.835 Y247.992
G01 X249.746 Y248.068
G01 X249.663 Y248.148
G01 X249.588 Y248.231
G01 X249.519 Y248.317
G01 X249.459 Y248.405
G01 X249.405 Y248.495
G01 X249.360 Y248.587
G01 X249.321 Y248.679
G01 X249.290 Y248.771
G01 X249.267 Y248.863
G01 X249.250 Y248.954
G01 X249.241 Y249.044
G01 X249.239 Y249.132
G01 X249.243 Y249.218
G01 X249.254 Y249.301
G01 X249.271 Y249.382
G01 X249.294 Y249.458
G01 X249.323 Y249.531
G01 X249.357 Y249.600
G01 X249.396 Y249.664
G01 X249.439 Y249.724
G01 X249.487 Y249.778
G01 X249.539 Y249.826
G01 X249.594 Y249.870
G01 X249.652 Y249.907
G01 X249.712 Y249.938
G01 X249.775 Y249.963
G01 X249.839 Y249.982
G01 X249.905 Y249.994
G01 X249.971 Y250.000
G01 X250.000 Y250.000
G01 X249.954 Y250.003
G01 X249.907 Y250.010
G01 X249.862 Y250.021
G01 X249.818 Y250.037
G01 X249.774 Y250.058
G01 X249.733 Y250.083
G01 X249.694 Y250.111
G01 X249.657 Y250.144
G01 X249.622 Y250.181
G01 X249.591 Y250.222
G01 X249.562 Y250.266
G01 X249.537 Y250.313
G01 X249.516 Y250.363
G01 X249.498 Y250.416
G01 X249.485 Y250.472
G01 X249.476 Y250.530
G01 X249.472 Y250.589
G01 X249.472 Y250.651
G01 X249.477 Y250.713
G01 X249.487 Y250.777
G01 X249.502 Y250.841
G01 X249.522 Y250.906
G01 X249.547 Y250.971
G01 X249.578 Y251.035
G01 X249.614 Y251.098
G01 X249.655 Y251.160
G01 X249.701 Y251.221
G01 X249.753 Y251.280
G01 X249.809 Y251.337
G01 X249.871 Y251.391
G01 X249.937 Y251.442
G01 X250.008 Y251.490
G01 X250.084 Y251.534
G01 X250.164 Y251.575
G01 X250.248 Y251.611
G01 X250.336 Y251.642
G01 X250.428 Y251.669
G01 X250.523 Y251.690
G01 X250.621 Y251.706
G01 X250.722 Y251.717
G01 X250.826 Y251.721
G01 X250.931 Y251.720
G01 X251.039 Y251.712
G01 X251.148 Y251.697
G01 X251.257 Y251.676
G01 X251.368 Y251.648
G01 X251.478 Y251.613
G01 X251.589 Y251.572
G01 X251.699 Y251.523
G01 X251.808 Y251.467
G01 X251.915 Y251.404
G01 X252.021 Y251.334
G01 X252.124 Y251.257
G01 X252.146 Y251.239
G01 X355.160 Y310.714
G01 X361.553 Y307.300
G01 X367.856 Y303.400
G01 X368.037 Y303.280
G01 X375.431 Y299.361
G01 X382.712 Y294.840
G01 X383.060 Y294.606
G01 X391.751 Y289.899
G01 X398.083 Y285.933
G01 X408.310 Y280.276
G01 X413.106 Y277.259
G01 X425.262 Y270.513
G01 X430.275 Y267.347
G01 X444.945 Y259.138
G01 X449.590 Y256.195
G01 X460.320 Y250.000
G01 X460.614 Y239.653
G01 X460.398 Y229.278
G01 X460.320 Y227.697
G01 X460.615 Y217.148
G01 X460.377 Y206.516
G01 X460.320 Y205.394
G01 X460.615 Y194.405
G01 X460.330 Y183.282
G01 X460.320 Y183.090
G01 X460.611 Y171.423
G01 X460.320 Y160.787
G01 X460.601 Y148.201
G01 X460.320 Y138.484
G01 X460.320 Y128.571
G01 X448.976 Y121.707
G01 X441.005 Y117.420
G01 X430.563 Y111.060
G01 X421.690 Y106.268
G01 X411.952 Y100.308
G01 X402.375 Y95.117
G01 X393.146 Y89.448
G01 X383.731 Y84.308
G01 X383.060 Y83.965
G01 X374.144 Y78.477
G01 X365.011 Y73.463
G01 X363.745 Y72.813
G01 X355.160 Y67.857
G01 X338.793 Y77.135
G01 X335.845 Y79.009
G01 X322.181 Y86.700
G01 X318.676 Y88.921
G01 X307.177 Y95.253
G01 X301.507 Y98.834
G01 X291.832 Y104.143
G01 X286.484 Y107.507
G01 X278.209 Y111.956
G01 X271.461 Y116.181
G01 X264.358 Y119.921
G01 X257.675 Y124.026
G01 X256.438 Y124.854
G01 X250.281 Y128.397
G01 X250.000 Y128.571
G01 X250.000 Y247.522
G01 X249.884 Y247.640
G01 X249.780 Y247.763
G01 X249.687 Y247.891
G01 X249.607 Y248.022
G01 X249.538 Y248.155
G01 X249.481 Y248.291
G01 X249.437 Y248.427
G01 X249.405 Y248.563
G01 X249.384 Y248.698
G01 X249.375 Y248.831
G01 X249.378 Y248.962
G01 X249.392 Y249.090
G01 X249.417 Y249.213
G01 X249.452 Y249.332
G01 X249.497 Y249.445
G01 X249.552 Y249.552
G01 X249.616 Y249.652
G01 X249.689 Y249.744
G01 X249.769 Y249.829
G01 X249.857 Y249.904
G01 X249.951 Y249.971
G01 X250.000 Y250.000
G01 X249.964 Y249.977
G01 X249.931 Y249.951
G01 X249.900 Y249.922
G01 X249.872 Y249.890
G01 X249.847 Y249.855
G01 X249.826 Y249.817
G01 X249.807 Y249.777
G01 X249.793 Y249.734
G01 X249.782 Y249.690
G01 X249.775 Y249.644
G01 X249.772 Y249.597
G01 X249.773 Y249.548
G01 X249.778 Y249.499
G01 X249.788 Y249.450
G01 X249.802 Y249.400
G01 X249.820 Y249.350
G01 X249.843 Y249.301
G01 X249.871 Y249.253
G01 X249.902 Y249.206
G01 X249.938 Y249.160
G01 X249.979 Y249.116
G01 X250.023 Y249.074
G01 X250.072 Y249.034
G01 X250.124 Y248.997
G01 X250.180 Y248.962
G01 X250.240 Y248.931
G01 X250.304 Y248.904
G01 X250.370 Y248.880
G01 X250.440 Y248.860
G01 X250.512 Y248.845
G01 X250.587 Y248.834
G01 X250.665 Y248.827
G01 X250.744 Y248.826
G01 X250.825 Y248.829
G01 X250.907 Y248.838
G01 X250.991 Y248.852
G01 X251.075 Y248.871
G01 X251.160 Y248.897
G01 X251.244 Y248.927
G01 X251.329 Y248.964
G01 X251.412 Y249.006
G01 X251.495 Y249.054
G01 X251.576 Y249.108
G01 X251.656 Y249.167
G01 X251.733 Y249.232
G01 X251.808 Y249.303
G01 X251.880 Y249.379
G01 X251.949 Y249.461
G01 X252.014 Y249.548
G01 X252.075 Y249.640
G01 X252.132 Y249.738
G01 X252.185 Y249.839
G01 X252.232 Y249.946
G01 X252.274 Y250.056
G01 X252.311 Y250.171
G01 X252.341 Y250.289
G01 X252.366 Y250.411
G01 X252.384 Y250.536
G01 X252.394 Y250.641
G01 X367.291 Y281.428
G01 X372.583 Y276.475
G01 X377.661 Y271.077
G01 X377.805 Y270.914
G01 X383.932 Y265.215
G01 X389.796 Y258.963
G01 X390.071 Y258.648
G01 X397.247 Y251.852
G01 X402.337 Y246.382
G01 X410.752 Y238.271
G01 X414.603 Y234.116
G01 X424.599 Y224.453
G01 X428.622 Y220.097
G01 X440.668 Y208.371
G01 X444.392 Y204.327
G01 X453.154 Y195.565
G01 X450.760 Y185.495
G01 X447.866 Y175.529
G01 X447.381 Y174.022
G01 X444.936 Y163.756
G01 X441.954 Y153.548
G01 X441.609 Y152.479
G01 X439.049 Y141.788
G01 X435.896 Y131.118
G01 X435.836 Y130.935
G01 X433.097 Y119.591
G01 X430.064 Y109.392
G01 X427.077 Y97.162
G01 X424.291 Y87.849
G01 X421.726 Y78.274
G01 X408.991 Y74.580
G01 X400.183 Y72.502
G01 X388.450 Y69.061
G01 X378.639 Y66.729
G01 X367.691 Y63.492
G01 X357.096 Y60.957
G01 X346.715 Y57.870
G01 X336.290 Y55.342
G01 X335.553 Y55.184
G01 X325.520 Y52.191
G01 X315.401 Y49.711
G01 X314.010 Y49.412
G01 X304.435 Y46.846
G01 X291.027 Y60.044
G01 X288.664 Y62.617
G01 X277.456 Y73.582
G01 X274.646 Y76.635
G01 X265.177 Y85.727
G01 X260.627 Y90.654
G01 X252.656 Y98.286
G01 X248.361 Y102.920
G01 X241.519 Y109.359
G01 X236.095 Y115.186
G01 X230.202 Y120.638
G01 X224.808 Y126.332
G01 X223.829 Y127.452
G01 X218.799 Y132.468
G01 X218.572 Y132.709
G01 X249.359 Y247.606
G01 X249.290 Y247.790
G01 X249.237 Y247.974
G01 X249.201 Y248.157
G01 X249.181 Y248.339
G01 X249.176 Y248.518
G01 X249.187 Y248.693
G01 X249.213 Y248.863
G01 X249.253 Y249.027
G01 X249.308 Y249.184
G01 X249.375 Y249.333
G01 X249.456 Y249.473
G01 X249.548 Y249.604
G01 X249.652 Y249.724
G01 X249.766 Y249.832
G01 X249.890 Y249.929
G01 X250.000 Y250.000
G01 X249.961 Y249.974
G01 X249.925 Y249.945
G01 X249.891 Y249.912
G01 X249.861 Y249.876
G01 X249.834 Y249.837
G01 X249.810 Y249.794
G01 X249.791 Y249.750
G01 X249.775 Y249.702
G01 X249.764 Y249.653
G01 X249.757 Y249.602
G01 X249.754 Y249.550
G01 X249.757 Y249.496
G01 X249.763 Y249.442
G01 X249.775 Y249.388
G01 X249.791 Y249.333
G01 X249.813 Y249.278
G01 X249.839 Y249.224
G01 X249.870 Y249.171
G01 X249.906 Y249.120
G01 X249.946 Y249.069
G01 X249.992 Y249.021
G01 X250.042 Y248.976
G01 X250.096 Y248.932
G01 X250.155 Y248.892
G01 X250.218 Y248.855
G01 X250.284 Y248.822
G01 X250.355 Y248.793
G01 X250.429 Y248.768
G01 X250.507 Y248.747
G01 X250.587 Y248.731
G01 X250.670 Y248.720
G01 X250.756 Y248.714
G01 X250.844 Y248.714
G01 X250.933 Y248.719
G01 X251.024 Y248.730
G01 X251.116 Y248.747
G01 X251.209 Y248.770
G01 X251.302 Y248.800
G01 X251.395 Y248.835
G01 X251.488 Y248.877
G01 X251.580 Y248.925
G01 X251.670 Y248.979
G01 X251.759 Y249.040
G01 X251.846 Y249.107
G01 X251.931 Y249.181
G01 X252.012 Y249.261
G01 X252.091 Y249.346
G01 X252.165 Y249.438
G01 X252.236 Y249.535
G01 X252.302 Y249.638
G01 X252.363 Y249.747
G01 X252.419 Y249.860
G01 X252.470 Y249.979
G01 X252.478 Y250.000
G01 X371.429 Y250.000
G01 X375.258 Y243.846
G01 X378.766 Y237.318
G01 X378.863 Y237.123
G01 X383.307 Y230.032
G01 X387.352 Y222.476
G01 X387.536 Y222.100
G01 X392.709 Y213.678
G01 X396.210 Y207.077
G01 X402.239 Y197.065
G01 X404.883 Y192.055
G01 X412.037 Y180.134
G01 X414.796 Y174.886
G01 X423.397 Y160.441
G01 X425.948 Y155.570
G01 X432.143 Y144.840
G01 X427.224 Y135.732
G01 X421.849 Y126.855
G01 X420.991 Y125.525
G01 X415.972 Y116.242
G01 X410.450 Y107.154
G01 X409.840 Y106.209
G01 X404.600 Y96.546
G01 X398.793 Y87.055
G01 X398.688 Y86.894
G01 X393.106 Y76.645
G01 X387.536 Y67.579
G01 X381.486 Y56.539
G01 X376.385 Y48.264
G01 X371.429 Y39.680
G01 X358.172 Y39.407
G01 X349.125 Y39.680
G01 X336.902 Y39.393
G01 X326.822 Y39.680
G01 X315.409 Y39.387
G01 X304.519 Y39.680
G01 X293.692 Y39.385
G01 X282.969 Y39.641
G01 X282.216 Y39.680
G01 X271.750 Y39.385
G01 X261.334 Y39.609
G01 X259.913 Y39.680
G01 X250.000 Y39.680
G01 X240.464 Y55.898
G01 X238.848 Y58.995
G01 X230.861 Y72.487
G01 X228.936 Y76.164
G01 X222.143 Y87.397
G01 X219.023 Y93.333
G01 X213.299 Y102.768
G01 X210.350 Y108.356
G01 X205.407 Y116.346
G01 X201.676 Y123.379
G01 X197.395 Y130.170
G01 X193.659 Y137.066
G01 X193.003 Y138.401
G01 X189.442 Y144.548
G01 X189.286 Y144.840
G01 X248.761 Y247.854
G01 X248.794 Y248.129
G01 X248.850 Y248.395
G01 X248.929 Y248.651
G01 X249.030 Y248.894
G01 X249.152 Y249.124
G01 X249.294 Y249.339
G01 X249.454 Y249.537
G01 X249.632 Y249.718
G01 X249.826 Y249.879
G01 X250.000 Y250.000
G01 X249.957 Y249.970
G01 X249.917 Y249.935
G01 X249.881 Y249.897
G01 X249.848 Y249.855
G01 X249.819 Y249.810
G01 X249.794 Y249.761
G01 X249.774 Y249.710
G01 X249.758 Y249.657
G01 X249.747 Y249.601
G01 X249.741 Y249.543
G01 X249.740 Y249.484
G01 X249.744 Y249.424
G01 X249.754 Y249.363
G01 X249.769 Y249.302
G01 X249.790 Y249.241
G01 X249.815 Y249.180
G01 X249.847 Y249.120
G01 X249.884 Y249.062
G01 X249.926 Y249.005
G01 X249.974 Y248.950
G01 X250.027 Y248.897
G01 X250.085 Y248.847
G01 X250.147 Y248.801
G01 X250.215 Y248.758
G01 X250.287 Y248.719
G01 X250.364 Y248.684
G01 X250.444 Y248.653
G01 X250.529 Y248.627
G01 X250.617 Y248.607
G01 X250.708 Y248.592
G01 X250.802 Y248.583
G01 X250.899 Y248.579
G01 X250.998 Y248.582
G01 X251.098 Y248.592
G01 X251.200 Y248.607
G01 X251.303 Y248.630
G01 X251.407 Y248.659
G01 X251.511 Y248.696
G01 X251.615 Y248.739
G01 X251.717 Y248.789
G01 X251.819 Y248.847
G01 X251.919 Y248.912
G01 X252.017 Y248.984
G01 X252.113 Y249.062
G01 X252.205 Y249.148
G01 X252.294 Y249.241
G01 X252.379 Y249.340
G01 X252.394 Y249.359
G01 X367.291 Y218.572
G01 X369.397 Y211.637
G01 X371.096 Y204.423
G01 X371.139 Y204.210
G01 X373.596 Y196.210
G01 X375.548 Y187.865
G01 X375.629 Y187.454
G01 X378.446 Y177.980
G01 X380.119 Y170.698
G01 X383.351 Y159.467
G01 X384.608 Y153.942
G01 X388.433 Y140.576
G01 X389.740 Y134.793
G01 X394.309 Y118.615
G01 X395.512 Y113.249
G01 X398.719 Y101.281
G01 X391.611 Y93.757
G01 X384.121 Y86.573
G01 X382.948 Y85.510
G01 X375.697 Y77.843
G01 X368.011 Y70.494
G01 X367.178 Y69.739
G01 X359.615 Y61.761
G01 X351.549 Y54.097
G01 X351.407 Y53.969
G01 X343.362 Y45.513
G01 X335.636 Y38.198
G01 X326.934 Y29.100
G01 X319.865 Y22.427
G01 X312.856 Y15.418
G01 X299.981 Y18.586
G01 X291.313 Y21.191
G01 X279.432 Y24.078
G01 X269.770 Y26.963
G01 X258.669 Y29.634
G01 X248.226 Y32.735
G01 X237.692 Y35.253
G01 X227.400 Y38.276
G01 X226.683 Y38.508
G01 X216.498 Y40.932
G01 X206.494 Y43.844
G01 X205.140 Y44.280
G01 X195.565 Y46.846
G01 X190.552 Y64.980
G01 X189.793 Y68.389
G01 X185.569 Y83.489
G01 X184.661 Y87.539
G01 X181.007 Y100.147
G01 X179.530 Y106.688
G01 X176.444 Y117.284
G01 X175.041 Y123.444
G01 X172.335 Y132.441
G01 X170.551 Y140.200
G01 X168.173 Y147.868
G01 X166.349 Y155.496
G01 X166.061 Y156.956
G01 X164.213 Y163.815
G01 X164.137 Y164.137
G01 X248.248 Y248.248
G01 X248.551 Y248.687
G01 X248.892 Y249.091
G01 X249.268 Y249.457
G01 X249.677 Y249.784
G01 X250.000 Y250.000
G01 X249.951 Y249.967
G01 X249.906 Y249.929
G01 X249.865 Y249.886
G01 X249.827 Y249.840
G01 X249.794 Y249.789
G01 X249.766 Y249.735
G01 X249.742 Y249.678
G01 X249.724 Y249.618
G01 X249.711 Y249.556
G01 X249.704 Y249.491
G01 X249.702 Y249.425
G01 X249.706 Y249.357
G01 X249.716 Y249.289
G01 X249.732 Y249.220
G01 X249.754 Y249.151
G01 X249.783 Y249.083
G01 X249.817 Y249.016
G01 X249.858 Y248.949
G01 X249.904 Y248.885
G01 X249.957 Y248.823
G01 X250.016 Y248.763
G01 X250.080 Y248.707
G01 X250.150 Y248.654
G01 X250.225 Y248.605
G01 X250.305 Y248.560
G01 X250.391 Y248.519
G01 X250.481 Y248.484
G01 X250.575 Y248.454
G01 X250.673 Y248.430
G01 X250.775 Y248.412
G01 X250.881 Y248.401
G01 X250.989 Y248.396
G01 X251.100 Y248.398
G01 X251.213 Y248.407
G01 X251.328 Y248.423
G01 X251.444 Y248.447
G01 X251.560 Y248.479
G01 X251.677 Y248.518
G01 X251.794 Y248.565
G01 X251.910 Y248.621
G01 X252.024 Y248.684
G01 X252.138 Y248.755
G01 X252.146 Y248.761
G01 X355.160 Y189.286
G01 X355.400 Y182.042
G01 X355.174 Y174.633
G01 X355.160 Y174.417
G01 X355.463 Y166.054
G01 X355.188 Y157.488
G01 X355.160 Y157.070
G01 X355.429 Y147.190
G01 X355.160 Y139.723
G01 X355.375 Y128.038
G01 X355.160 Y122.376
G01 X355.395 Y108.475
G01 X355.160 Y102.551
G01 X355.387 Y85.741
G01 X355.160 Y80.248
G01 X355.160 Y67.857
G01 X346.347 Y62.429
G01 X337.253 Y57.429
G01 X335.845 Y56.706
G01 X326.856 Y51.176
G01 X317.530 Y46.067
G01 X316.530 Y45.554
G01 X307.161 Y39.805
G01 X297.386 Y34.490
G01 X297.215 Y34.402
G01 X287.256 Y28.317
G01 X277.900 Y23.251
G01 X267.140 Y16.715
G01 X258.585 Y12.099
G01 X250.000 Y7.143
G01 X238.383 Y13.536
G01 X230.685 Y18.294
G01 X219.956 Y24.158
G01 X211.370 Y29.446
G01 X201.339 Y34.899
G01 X192.055 Y40.598
G01 X182.531 Y45.756
G01 X173.372 Y51.339
G01 X172.739 Y51.749
G01 X163.529 Y56.727
G01 X154.620 Y62.129
G01 X153.424 Y62.901
G01 X144.840 Y67.857
G01 X144.691 Y86.670
G01 X144.840 Y90.160
G01 X144.668 Y105.839
G01 X144.840 Y109.985
G01 X144.573 Y123.110
G01 X144.840 Y129.810
G01 X144.601 Y140.844
G01 X144.840 Y147.157
G01 X144.555 Y156.548
G01 X144.840 Y164.504
G01 X144.528 Y172.526
G01 X144.740 Y180.366
G01 X144.840 Y181.851
G01 X144.829 Y188.955
G01 X144.840 Y189.286
G01 X247.854 Y248.761
G01 X248.798 Y249.383
G01 X249.797 Y249.908
G01 X250.000 Y250.000
G01 X249.944 Y249.972
G01 X249.891 Y249.938
G01 X249.841 Y249.900
G01 X249.795 Y249.856
G01 X249.753 Y249.808
G01 X249.715 Y249.755
G01 X249.682 Y249.698
G01 X249.654 Y249.637
G01 X249.631 Y249.573
G01 X249.614 Y249.506
G01 X249.602 Y249.437
G01 X249.597 Y249.365
G01 X249.597 Y249.292
G01 X249.604 Y249.217
G01 X249.618 Y249.141
G01 X249.638 Y249.065
G01 X249.664 Y248.989
G01 X249.697 Y248.913
G01 X249.737 Y248.838
G01 X249.784 Y248.765
G01 X249.837 Y248.694
G01 X249.896 Y248.625
G01 X249.962 Y248.559
G01 X250.035 Y248.496
G01 X250.113 Y248.437
G01 X250.197 Y248.382
G01 X250.287 Y248.332
G01 X250.382 Y248.287
G01 X250.482 Y248.247
G01 X250.587 Y248.213
G01 X250.697 Y248.186
G01 X250.810 Y248.165
G01 X250.927 Y248.151
G01 X251.048 Y248.144
G01 X251.171 Y248.145
G01 X251.297 Y248.153
G01 X251.424 Y248.169
G01 X251.553 Y248.194
G01 X251.683 Y248.227
G01 X251.752 Y248.248
G01 X335.863 Y164.137
G01 X334.220 Y157.078
G01 X332.084 Y149.981
G01 X332.015 Y149.775
G01 X330.143 Y141.619
G01 X327.660 Y133.415
G01 X327.525 Y133.019
G01 X325.227 Y123.406
G01 X323.035 Y116.263
G01 X320.218 Y104.921
G01 X318.545 Y99.507
G01 X315.175 Y86.019
G01 X313.414 Y80.358
G01 X309.283 Y64.062
G01 X307.642 Y58.815
G01 X304.435 Y46.846
G01 X294.517 Y43.884
G01 X284.439 Y41.408
G01 X282.892 Y41.074
G01 X272.778 Y38.059
G01 X262.448 Y35.537
G01 X261.348 Y35.301
G01 X250.811 Y32.173
G01 X239.993 Y29.569
G01 X239.805 Y29.529
G01 X228.611 Y26.228
G01 X218.262 Y23.756
G01 X206.177 Y20.228
G01 X196.719 Y17.984
G01 X187.144 Y15.418
G01 X177.578 Y24.600
G01 X171.373 Y31.189
G01 X162.527 Y39.630
G01 X155.602 Y46.960
G01 X147.325 Y54.823
G01 X139.832 Y62.730
G01 X131.968 Y70.178
G01 X124.566 Y77.941
G01 X124.061 Y78.501
G01 X116.453 Y85.693
G01 X109.245 Y93.217
G01 X108.290 Y94.272
G01 X101.281 Y101.281
G01 X106.006 Y119.492
G01 X107.053 Y122.824
G01 X110.946 Y138.013
G01 X112.185 Y141.974
G01 X115.324 Y154.720
G01 X117.316 Y161.123
G01 X119.940 Y171.843
G01 X121.805 Y177.879
G01 X123.960 Y187.024
G01 X126.295 Y194.635
G01 X128.070 Y202.465
G01 X130.304 Y209.982
G01 X130.785 Y211.391
G01 X132.613 Y218.255
G01 X132.709 Y218.572
G01 X247.606 Y249.359
G01 X249.685 Y249.899
G01 X250.000 Y250.000
G01 X249.936 Y249.975
G01 X249.875 Y249.945
G01 X249.816 Y249.908
G01 X249.762 Y249.865
G01 X249.711 Y249.817
G01 X249.664 Y249.764
G01 X249.622 Y249.705
G01 X249.585 Y249.642
G01 X249.553 Y249.575
G01 X249.527 Y249.504
G01 X249.508 Y249.430
G01 X249.494 Y249.352
G01 X249.487 Y249.272
G01 X249.486 Y249.190
G01 X249.493 Y249.106
G01 X249.507 Y249.021
G01 X249.527 Y248.936
G01 X249.556 Y248.850
G01 X249.591 Y248.764
G01 X249.634 Y248.680
G01 X249.684 Y248.597
G01 X249.741 Y248.515
G01 X249.806 Y248.437
G01 X249.878 Y248.361
G01 X249.957 Y248.288
G01 X250.043 Y248.220
G01 X250.135 Y248.156
G01 X250.234 Y248.096
G01 X250.338 Y248.043
G01 X250.449 Y247.995
G01 X250.565 Y247.953
G01 X250.686 Y247.918
G01 X250.812 Y247.891
G01 X250.942 Y247.870
G01 X251.077 Y247.858
G01 X251.214 Y247.854
G01 X251.239 Y247.854
G01 X310.714 Y144.840
G01 X307.300 Y138.447
G01 X303.400 Y132.144
G01 X303.280 Y131.963
G01 X299.361 Y124.569
G01 X294.840 Y117.288
G01 X294.606 Y116.940
G01 X289.899 Y108.249
G01 X285.933 Y101.917
G01 X280.276 Y91.690
G01 X277.259 Y86.894
G01 X270.513 Y74.738
G01 X267.347 Y69.725
G01 X259.138 Y55.055
G01 X256.195 Y50.410
G01 X250.000 Y39.680
G01 X239.653 Y39.386
G01 X229.278 Y39.602
G01 X227.697 Y39.680
G01 X217.148 Y39.385
G01 X206.516 Y39.623
G01 X205.394 Y39.680
G01 X194.405 Y39.385
G01 X183.282 Y39.670
G01 X183.090 Y39.680
G01 X171.423 Y39.389
G01 X160.787 Y39.680
G01 X148.201 Y39.399
G01 X138.484 Y39.680
G01 X128.571 Y39.680
G01 X121.707 Y51.024
G01 X117.420 Y58.995
G01 X111.060 Y69.437
G01 X106.268 Y78.310
G01 X100.308 Y88.048
G01 X95.117 Y97.625
G01 X89.448 Y106.854
G01 X84.308 Y116.269
G01 X83.965 Y116.940
G01 X78.477 Y125.856
G01 X73.463 Y134.989
G01 X72.813 Y136.255
G01 X67.857 Y144.840
G01 X77.135 Y161.207
G01 X79.009 Y164.155
G01 X86.700 Y177.819
G01 X88.921 Y181.324
G01 X95.253 Y192.823
G01 X98.834 Y198.493
G01 X104.143 Y208.168
G01 X107.507 Y213.516
G01 X111.956 Y221.791
G01 X116.181 Y228.539
G01 X119.921 Y235.642
G01 X124.026 Y242.325
G01 X124.854 Y243.562
G01 X128.397 Y249.719
G01 X128.571 Y250.000
G01 X247.522 Y250.000
G01 X247.791 Y249.892
G01 X248.065 Y249.809
G01 X248.341 Y249.754
G01 X248.617 Y249.725
G01 X248.891 Y249.722
G01 X249.161 Y249.746
G01 X249.426 Y249.795
G01 X249.683 Y249.869
G01 X249.932 Y249.968
G01 X250.000 Y250.000
G01 X249.923 Y249.957
G01 X249.850 Y249.907
G01 X249.782 Y249.850
G01 X249.719 Y249.786
G01 X249.662 Y249.715
G01 X249.612 Y249.639
G01 X249.569 Y249.557
G01 X249.533 Y249.470
G01 X249.504 Y249.378
G01 X249.484 Y249.283
G01 X249.471 Y249.185
G01 X249.468 Y249.083
G01 X249.473 Y248.980
G01 X249.487 Y248.875
G01 X249.510 Y248.769
G01 X249.542 Y248.663
G01 X249.584 Y248.557
G01 X249.635 Y248.452
G01 X249.695 Y248.349
G01 X249.765 Y248.249
G01 X249.844 Y248.151
G01 X249.932 Y248.058
G01 X250.028 Y247.968
G01 X250.134 Y247.884
G01 X250.247 Y247.805
G01 X250.369 Y247.733
G01 X250.498 Y247.667
G01 X250.634 Y247.609
G01 X250.641 Y247.606
G01 X281.428 Y132.709
G01 X276.475 Y127.417
G01 X271.077 Y122.339
G01 X270.914 Y122.195
G01 X265.215 Y116.068
G01 X258.963 Y110.204
G01 X258.648 Y109.929
G01 X251.852 Y102.753
G01 X246.382 Y97.663
G01 X238.271 Y89.248
G01 X234.116 Y85.397
G01 X224.453 Y75.401
G01 X220.097 Y71.378
G01 X208.371 Y59.332
G01 X204.327 Y55.608
G01 X195.565 Y46.846
G01 X185.495 Y49.240
G01 X175.529 Y52.134
G01 X174.022 Y52.619
G01 X163.756 Y55.064
G01 X153.548 Y58.046
G01 X152.479 Y58.391
G01 X141.788 Y60.951
G01 X131.118 Y64.104
G01 X130.935 Y64.164
G01 X119.591 Y66.903
G01 X109.392 Y69.936
G01 X97.162 Y72.923
G01 X87.849 Y75.709
G01 X78.274 Y78.274
G01 X74.580 Y91.009
G01 X72.502 Y99.817
G01 X69.061 Y111.550
G01 X66.729 Y121.361
G01 X63.492 Y132.309
G01 X60.957 Y142.904
G01 X57.870 Y153.285
G01 X55.342 Y163.710
G01 X55.184 Y164.447
G01 X52.191 Y174.480
G01 X49.711 Y184.599
G01 X49.412 Y185.990
G01 X46.846 Y195.565
G01 X60.044 Y208.973
G01 X62.617 Y211.336
G01 X73.582 Y222.544
G01 X76.635 Y225.354
G01 X85.727 Y234.823
G01 X90.654 Y239.373
G01 X98.286 Y247.344
G01 X102.920 Y251.639
G01 X109.359 Y258.481
G01 X115.186 Y263.905
G01 X120.638 Y269.798
G01 X126.332 Y275.192
G01 X127.452 Y276.171
G01 X132.468 Y281.201
G01 X132.709 Y281.428
G01 X247.606 Y250.641
G01 X247.660 Y250.505
G01 X247.720 Y250.376
G01 X247.788 Y250.255
G01 X247.861 Y250.140
G01 X247.941 Y250.034
G01 X248.025 Y249.935
G01 X248.114 Y249.845
G01 X248.207 Y249.764
G01 X248.303 Y249.691
G01 X248.402 Y249.627
G01 X248.502 Y249.572
G01 X248.604 Y249.526
G01 X248.707 Y249.489
G01 X248.810 Y249.461
G01 X248.912 Y249.441
G01 X249.014 Y249.430
G01 X249.113 Y249.428
G01 X249.210 Y249.434
G01 X249.304 Y249.448
G01 X249.395 Y249.470
G01 X249.482 Y249.499
G01 X249.565 Y249.535
G01 X249.642 Y249.578
G01 X249.714 Y249.627
G01 X249.780 Y249.683
G01 X249.840 Y249.743
G01 X249.894 Y249.809
G01 X249.940 Y249.879
G01 X249.980 Y249.953
G01 X250.000 Y250.000
G01 X249.896 Y249.696
G01 X249.822 Y249.383
G01 X249.779 Y249.063
G01 X249.767 Y248.738
G01 X249.786 Y248.410
G01 X249.837 Y248.081
G01 X249.920 Y247.755
G01 X250.000 Y247.522
G01 X250.000 Y128.571
G01 X243.846 Y124.742
G01 X237.318 Y121.234
G01 X237.123 Y121.137
G01 X230.032 Y116.693
G01 X222.476 Y112.648
G01 X222.100 Y112.464
G01 X213.678 Y107.291
G01 X207.077 Y103.790
G01 X197.065 Y97.761
G01 X192.055 Y95.117
G01 X180.134 Y87.963
G01 X174.886 Y85.204
G01 X160.441 Y76.603
G01 X155.570 Y74.052
G01 X144.840 Y67.857
G01 X135.732 Y72.776
G01 X126.855 Y78.151
G01 X125.525 Y79.009
G01 X116.242 Y84.028
G01 X107.154 Y89.550
G01 X106.209 Y90.160
G01 X96.546 Y95.400
G01 X87.055 Y101.207
G01 X86.894 Y101.312
G01 X76.645 Y106.894
G01 X67.579 Y112.464
G01 X56.539 Y118.514
G01 X48.264 Y123.615
G01 X39.680 Y128.571
G01 X39.407 Y141.828
G01 X39.680 Y150.875
G01 X39.393 Y163.098
G01 X39.680 Y173.178
G01 X39.387 Y184.591
G01 X39.680 Y195.481
G01 X39.385 Y206.308
G01 X39.641 Y217.031
G01 X39.680 Y217.784
G01 X39.385 Y228.250
G01 X39.609 Y238.666
G01 X39.680 Y240.087
G01 X39.680 Y250.000
G01 X55.898 Y259.536
G01 X58.995 Y261.152
G01 X72.487 Y269.139
G01 X76.164 Y271.064
G01 X87.397 Y277.857
G01 X93.333 Y280.977
G01 X102.768 Y286.701
G01 X108.356 Y289.650
G01 X116.346 Y294.593
G01 X123.379 Y298.324
G01 X130.170 Y302.605
G01 X137.066 Y306.341
G01 X138.401 Y306.997
G01 X144.548 Y310.558
G01 X144.840 Y310.714
G01 X247.854 Y251.239
G01 X247.848 Y251.105
G01 X247.850 Y250.974
G01 X247.860 Y250.846
G01 X247.877 Y250.721
G01 X247.901 Y250.599
G01 X247.932 Y250.482
G01 X247.969 Y250.370
G01 X248.012 Y250.262
G01 X248.061 Y250.159
G01 X248.114 Y250.062
G01 X248.173 Y249.970
G01 X248.235 Y249.884
G01 X248.302 Y249.805
G01 X248.372 Y249.731
G01 X248.445 Y249.664
G01 X248.520 Y249.603
G01 X248.598 Y249.549
G01 X248.677 Y249.502
G01 X248.757 Y249.461
G01 X248.838 Y249.427
G01 X248.919 Y249.399
G01 X249.000 Y249.378
G01 X249.081 Y249.364
G01 X249.160 Y249.355
G01 X249.238 Y249.353
G01 X249.313 Y249.357
G01 X249.387 Y249.367
G01 X249.458 Y249.382
G01 X249.525 Y249.402
G01 X249.590 Y249.428
G01 X249.650 Y249.458
G01 X249.707 Y249.493
G01 X249.759 Y249.531
G01 X249.807 Y249.574
G01 X249.850 Y249.620
G01 X249.888 Y249.669
G01 X249.920 Y249.721
G01 X249.948 Y249.775
G01 X249.969 Y249.831
G01 X249.985 Y249.888
G01 X249.996 Y249.946
G01 X250.000 Y250.000
G01 X249.907 Y248.921
G01 X249.708 Y247.853
G01 X249.404 Y246.805
G01 X248.997 Y245.785
G01 X248.717 Y245.213
G01 X218.572 Y132.709
G01 X211.637 Y130.603
G01 X204.423 Y128.904
G01 X204.210 Y128.861
G01 X196.210 Y126.404
G01 X187.865 Y124.452
G01 X187.454 Y124.371
G01 X177.980 Y121.554
G01 X170.698 Y119.881
G01 X159.467 Y116.649
G01 X153.942 Y115.392
G01 X140.576 Y111.567
G01 X134.793 Y110.260
G01 X118.615 Y105.691
G01 X113.249 Y104.488
G01 X101.281 Y101.281
G01 X93.757 Y108.389
G01 X86.573 Y115.879
G01 X85.510 Y117.052
G01 X77.843 Y124.303
G01 X70.494 Y131.989
G01 X69.739 Y132.822
G01 X61.761 Y140.385
G01 X54.097 Y148.451
G01 X53.969 Y148.593
G01 X45.513 Y156.638
G01 X38.198 Y164.364
G01 X29.100 Y173.066
G01 X22.427 Y180.135
G01 X15.418 Y187.144
G01 X18.586 Y200.019
G01 X21.191 Y208.687
G01 X24.078 Y220.568
G01 X26.963 Y230.230
G01 X29.634 Y241.331
G01 X32.735 Y251.774
G01 X35.253 Y262.308
G01 X38.276 Y272.600
G01 X38.508 Y273.317
G01 X40.932 Y283.502
G01 X43.844 Y293.506
G01 X44.280 Y294.860
G01 X46.846 Y304.435
G01 X64.980 Y309.448
G01 X68.389 Y310.207
G01 X83.489 Y314.431
G01 X87.539 Y315.339
G01 X100.147 Y318.993
G01 X106.688 Y320.470
G01 X117.284 Y323.556
G01 X123.444 Y324.959
G01 X132.441 Y327.665
G01 X140.200 Y329.449
G01 X147.868 Y331.827
G01 X155.496 Y333.651
G01 X156.956 Y333.939
G01 X163.815 Y335.787
G01 X164.137 Y335.863
G01 X248.248 Y251.752
G01 X248.357 Y251.813
G01 X248.468 Y251.867
G01 X248.580 Y251.914
G01 X248.693 Y251.955
G01 X248.807 Y251.990
G01 X248.921 Y252.018
G01 X249.035 Y252.040
G01 X249.148 Y252.056
G01 X249.261 Y252.065
G01 X249.372 Y252.069
G01 X249.482 Y252.066
G01 X249.591 Y252.058
G01 X249.697 Y252.045
G01 X249.800 Y252.026
G01 X249.902 Y252.001
G01 X250.000 Y251.972
G01 X250.095 Y251.938
G01 X250.187 Y251.900
G01 X250.275 Y251.857
G01 X250.360 Y251.810
G01 X250.441 Y251.760
G01 X250.517 Y251.706
G01 X250.590 Y251.648
G01 X250.658 Y251.588
G01 X250.722 Y251.526
G01 X250.781 Y251.460
G01 X250.835 Y251.393
G01 X250.885 Y251.324
G01 X250.930 Y251.254
G01 X250.970 Y251.182
G01 X251.006 Y251.110
G01 X251.037 Y251.037
G01 X251.063 Y250.963
G01 X251.085 Y250.890
G01 X251.102 Y250.817
G01 X251.114 Y250.744
G01 X251.122 Y250.673
G01 X251.126 Y250.602
G01 X251.125 Y250.532
G01 X251.121 Y250.464
G01 X251.113 Y250.398
G01 X251.101 Y250.334
G01 X251.085 Y250.272
G01 X251.066 Y250.212
G01 X251.044 Y250.155
G01 X251.019 Y250.100
G01 X250.991 Y250.049
G01 X250.960 Y250.000
G01 X250.928 Y249.954
G01 X250.893 Y249.912
G01 X250.856 Y249.873
G01 X250.818 Y249.837
G01 X250.778 Y249.805
G01 X250.737 Y249.776
G01 X250.696 Y249.751
G01 X250.653 Y249.729
G01 X250.611 Y249.711
G01 X250.568 Y249.696
G01 X250.525 Y249.685
G01 X250.483 Y249.677
G01 X250.441 Y249.673
G01 X250.400 Y249.672
G01 X250.360 Y249.674
G01 X250.321 Y249.679
G01 X250.284 Y249.687
G01 X250.248 Y249.698
G01 X250.214 Y249.711
G01 X250.182 Y249.727
G01 X250.152 Y249.746
G01 X250.125 Y249.767
G01 X250.100 Y249.789
G01 X250.077 Y249.814
G01 X250.057 Y249.840
G01 X250.040 Y249.868
G01 X250.026 Y249.897
G01 X250.015 Y249.927
G01 X250.006 Y249.957
G01 X250.001 Y249.988
G01 X250.000 Y250.000
G01 X250.006 Y249.799
G01 X249.993 Y249.597
G01 X249.959 Y249.397
G01 X249.906 Y249.199
G01 X249.834 Y249.006
G01 X249.743 Y248.819
G01 X249.633 Y248.638
G01 X249.504 Y248.466
G01 X249.358 Y248.304
G01 X249.195 Y248.153
G01 X249.016 Y248.014
G01 X248.822 Y247.888
G01 X248.761 Y247.854
G01 X189.286 Y144.840
G01 X182.042 Y144.600
G01 X174.633 Y144.826
G01 X174.417 Y144.840
G01 X166.054 Y144.537
G01 X157.488 Y144.812
G01 X157.070 Y144.840
G01 X147.190 Y144.571
G01 X139.723 Y144.840
G01 X128.038 Y144.625
G01 X122.376 Y144.840
G01 X108.475 Y144.605
G01 X102.551 Y144.840
G01 X85.741 Y144.613
G01 X80.248 Y144.840
G01 X67.857 Y144.840
G01 X62.429 Y153.653
G01 X57.429 Y162.747
G01 X56.706 Y164.155
G01 X51.176 Y173.144
G01 X46.067 Y182.470
G01 X45.554 Y183.470
G01 X39.805 Y192.839
G01 X34.490 Y202.614
G01 X34.402 Y202.785
G01 X28.317 Y212.744
G01 X23.251 Y222.100
G01 X16.715 Y232.860
G01 X12.099 Y241.415
G01 X7.143 Y250.000
G01 X13.536 Y261.617
G01 X18.294 Y269.315
G01 X24.158 Y280.044
G01 X29.446 Y288.630
G01 X34.899 Y298.661
G01 X40.598 Y307.945
G01 X45.756 Y317.469
G01 X51.339 Y326.628
G01 X51.749 Y327.261
G01 X56.727 Y336.471
G01 X62.129 Y345.380
G01 X62.901 Y346.576
G01 X67.857 Y355.160
G01 X86.670 Y355.309
G01 X90.160 Y355.160
G01 X105.839 Y355.332
G01 X109.985 Y355.160
G01 X123.110 Y355.427
G01 X129.810 Y355.160
G01 X140.844 Y355.399
G01 X147.157 Y355.160
G01 X156.548 Y355.445
G01 X164.504 Y355.160
G01 X172.526 Y355.472
G01 X180.366 Y355.260
G01 X181.851 Y355.160
G01 X188.955 Y355.171
G01 X189.286 Y355.160
G01 X248.761 Y252.146
G01 X248.883 Y252.175
G01 X249.005 Y252.196
G01 X249.126 Y252.211
G01 X249.246 Y252.220
G01 X249.365 Y252.222
G01 X249.483 Y252.218
G01 X249.598 Y252.208
G01 X249.711 Y252.192
G01 X249.822 Y252.170
G01 X249.930 Y252.142
G01 X250.035 Y252.110
G01 X250.136 Y252.072
G01 X250.234 Y252.030
G01 X250.327 Y251.983
G01 X250.417 Y251.932
G01 X250.503 Y251.877
G01 X250.584 Y251.818
G01 X250.661 Y251.756
G01 X250.733 Y251.690
G01 X250.800 Y251.622
G01 X250.862 Y251.552
G01 X250.920 Y251.479
G01 X250.972 Y251.405
G01 X251.020 Y251.329
G01 X251.062 Y251.252
G01 X251.099 Y251.174
G01 X251.132 Y251.095
G01 X251.159 Y251.016
G01 X251.181 Y250.937
G01 X251.198 Y250.859
G01 X251.211 Y250.781
G01 X251.219 Y250.704
G01 X251.222 Y250.628
G01 X251.221 Y250.553
G01 X251.215 Y250.480
G01 X251.206 Y250.409
G01 X251.192 Y250.340
G01 X251.175 Y250.274
G01 X251.154 Y250.210
G01 X251.130 Y250.149
G01 X251.102 Y250.090
G01 X251.072 Y250.035
G01 X251.039 Y249.983
G01 X251.004 Y249.934
G01 X250.966 Y249.889
G01 X250.926 Y249.847
G01 X250.885 Y249.809
G01 X250.842 Y249.774
G01 X250.798 Y249.744
G01 X250.753 Y249.716
G01 X250.708 Y249.693
G01 X250.662 Y249.674
G01 X250.616 Y249.658
G01 X250.570 Y249.646
G01 X250.524 Y249.637
G01 X250.479 Y249.632
G01 X250.435 Y249.631
G01 X250.392 Y249.633
G01 X250.350 Y249.638
G01 X250.310 Y249.646
G01 X250.272 Y249.658
G01 X250.235 Y249.672
G01 X250.200 Y249.689
G01 X250.168 Y249.709
G01 X250.138 Y249.730
G01 X250.111 Y249.754
G01 X250.087 Y249.780
G01 X250.065 Y249.808
G01 X250.046 Y249.837
G01 X250.031 Y249.868
G01 X250.018 Y249.899
G01 X250.009 Y249.932
G01 X250.003 Y249.965
G01 X250.000 Y249.998
G01 X250.000 Y250.000
G01 X249.997 Y249.851
G01 X249.980 Y249.702
G01 X249.948 Y249.556
G01 X249.901 Y249.411
G01 X249.841 Y249.271
G01 X249.766 Y249.136
G01 X249.678 Y249.007
G01 X249.577 Y248.884
G01 X249.463 Y248.770
G01 X249.336 Y248.664
G01 X249.199 Y248.568
G01 X249.050 Y248.482
G01 X248.892 Y248.408
G01 X248.724 Y248.346
G01 X248.548 Y248.298
G01 X248.363 Y248.262
G01 X248.248 Y248.248
G01 X164.137 Y164.137
G01 X157.078 Y165.780
G01 X149.981 Y167.916
G01 X149.775 Y167.985
G01 X141.619 Y169.857
G01 X133.415 Y172.340
G01 X133.019 Y172.475
G01 X123.406 Y174.773
G01 X116.263 Y176.965
G01 X104.921 Y179.782
G01 X99.507 Y181.455
G01 X86.019 Y184.825
G01 X80.358 Y186.586
G01 X64.062 Y190.717
G01 X58.815 Y192.358
G01 X46.846 Y195.565
G01 X43.884 Y205.483
G01 X41.408 Y215.561
G01 X41.074 Y217.108
G01 X38.059 Y227.222
G01 X35.537 Y237.552
G01 X35.301 Y238.652
G01 X32.173 Y249.189
G01 X29.569 Y260.007
G01 X29.529 Y260.195
G01 X26.228 Y271.389
G01 X23.756 Y281.738
G01 X20.228 Y293.823
G01 X17.984 Y303.281
G01 X15.418 Y312.856
G01 X24.600 Y322.422
G01 X31.189 Y328.627
G01 X39.630 Y337.473
G01 X46.960 Y344.398
G01 X54.823 Y352.675
G01 X62.730 Y360.168
G01 X70.178 Y368.032
G01 X77.941 Y375.434
G01 X78.501 Y375.939
G01 X85.693 Y383.547
G01 X93.217 Y390.755
G01 X94.272 Y391.710
G01 X101.281 Y398.719
G01 X119.492 Y393.994
G01 X122.824 Y392.947
G01 X138.013 Y389.054
G01 X141.974 Y387.815
G01 X154.720 Y384.676
G01 X161.123 Y382.684
G01 X171.843 Y380.060
G01 X177.879 Y378.195
G01 X187.024 Y376.040
G01 X194.635 Y373.705
G01 X202.465 Y371.930
G01 X209.982 Y369.696
G01 X211.391 Y369.215
G01 X218.255 Y367.387
G01 X218.572 Y367.291
G01 X249.359 Y252.394
G01 X249.255 Y252.319
G01 X249.157 Y252.239
G01 X249.065 Y252.156
G01 X248.980 Y252.069
G01 X248.900 Y251.979
G01 X248.827 Y251.887
G01 X248.760 Y251.792
G01 X248.700 Y251.695
G01 X248.646 Y251.596
G01 X248.598 Y251.497
G01 X248.557 Y251.396
G01 X248.522 Y251.296
G01 X248.494 Y251.195
G01 X248.472 Y251.095
G01 X248.456 Y250.996
G01 X248.446 Y250.897
G01 X248.442 Y250.800
G01 X248.443 Y250.705
G01 X248.450 Y250.612
G01 X248.463 Y250.522
G01 X248.480 Y250.434
G01 X248.502 Y250.349
G01 X248.529 Y250.268
G01 X248.560 Y250.190
G01 X248.595 Y250.115
G01 X248.634 Y250.045
G01 X248.676 Y249.978
G01 X248.721 Y249.916
G01 X248.769 Y249.858
G01 X248.820 Y249.805
G01 X248.873 Y249.757
G01 X248.927 Y249.713
G01 X248.983 Y249.673
G01 X249.041 Y249.639
G01 X249.099 Y249.609
G01 X249.157 Y249.584
G01 X249.216 Y249.564
G01 X249.275 Y249.549
G01 X249.333 Y249.538
G01 X249.390 Y249.532
G01 X249.446 Y249.530
G01 X249.501 Y249.533
G01 X249.555 Y249.540
G01 X249.606 Y249.551
G01 X249.655 Y249.565
G01 X249.702 Y249.584
G01 X249.746 Y249.605
G01 X249.787 Y249.630
G01 X249.825 Y249.658
G01 X249.859 Y249.689
G01 X249.890 Y249.722
G01 X249.918 Y249.758
G01 X249.941 Y249.795
G01 X249.961 Y249.834
G01 X249.977 Y249.874
G01 X249.989 Y249.916
G01 X249.997 Y249.958
G01 X250.000 Y250.000
G01 X249.990 Y249.880
G01 X249.969 Y249.762
G01 X249.935 Y249.646
G01 X249.891 Y249.533
G01 X249.835 Y249.423
G01 X249.768 Y249.318
G01 X249.691 Y249.219
G01 X249.603 Y249.126
G01 X249.506 Y249.040
G01 X249.399 Y248.961
G01 X249.284 Y248.891
G01 X249.161 Y248.830
G01 X249.030 Y248.779
G01 X248.892 Y248.738
G01 X248.748 Y248.708
G01 X248.598 Y248.689
G01 X248.444 Y248.681
G01 X248.286 Y248.686
G01 X248.125 Y248.704
G01 X247.961 Y248.734
G01 X247.854 Y248.761
G01 X144.840 Y189.286
G01 X138.447 Y192.700
G01 X132.144 Y196.600
G01 X131.963 Y196.720
G01 X124.569 Y200.639
G01 X117.288 Y205.160
G01 X116.940 Y205.394
G01 X108.249 Y210.101
G01 X101.917 Y214.067
G01 X91.690 Y219.724
G01 X86.894 Y222.741
G01 X74.738 Y229.487
G01 X69.725 Y232.653
G01 X55.055 Y240.862
G01 X50.410 Y243.805
G01 X39.680 Y250.000
G01 X39.386 Y260.347
G01 X39.602 Y270.722
G01 X39.680 Y272.303
G01 X39.385 Y282.852
G01 X39.623 Y293.484
G01 X39.680 Y294.606
G01 X39.385 Y305.595
G01 X39.670 Y316.718
G01 X39.680 Y316.910
G01 X39.389 Y328.577
G01 X39.680 Y339.213
G01 X39.399 Y351.799
G01 X39.680 Y361.516
G01 X39.680 Y371.429
G01 X51.024 Y378.293
G01 X58.995 Y382.580
G01 X69.437 Y388.940
G01 X78.310 Y393.732
G01 X88.048 Y399.692
G01 X97.625 Y404.883
G01 X106.854 Y410.552
G01 X116.269 Y415.692
G01 X116.940 Y416.035
G01 X125.856 Y421.523
G01 X134.989 Y426.537
G01 X136.255 Y427.187
G01 X144.840 Y432.143
G01 X161.207 Y422.865
G01 X164.155 Y420.991
G01 X177.819 Y413.300
G01 X181.324 Y411.079
G01 X192.823 Y404.747
G01 X198.493 Y401.166
G01 X208.168 Y395.857
G01 X213.516 Y392.493
G01 X221.791 Y388.044
G01 X228.539 Y383.819
G01 X235.642 Y380.079
G01 X242.325 Y375.974
G01 X243.562 Y375.146
G01 X249.719 Y371.603
G01 X250.000 Y371.429
G01 X250.000 Y252.478
G01 X249.880 Y252.435
G01 X249.765 Y252.386
G01 X249.654 Y252.332
G01 X249.548 Y252.272
G01 X249.447 Y252.208
G01 X249.351 Y252.140
G01 X249.260 Y252.068
G01 X249.175 Y251.992
G01 X249.096 Y251.912
G01 X249.022 Y251.830
G01 X248.954 Y251.745
G01 X248.892 Y251.658
G01 X248.836 Y251.570
G01 X248.786 Y251.480
G01 X248.742 Y251.388
G01 X248.704 Y251.296
G01 X248.671 Y251.204
G01 X248.645 Y251.112
G01 X248.625 Y251.020
G01 X248.610 Y250.929
G01 X248.600 Y250.839
G01 X248.596 Y250.750
G01 X248.598 Y250.663
G01 X248.604 Y250.578
G01 X248.615 Y250.495
G01 X248.631 Y250.415
G01 X248.652 Y250.338
G01 X248.676 Y250.263
G01 X248.705 Y250.192
G01 X248.737 Y250.124
G01 X248.773 Y250.060
G01 X248.811 Y250.000
G01 X248.853 Y249.944
G01 X248.897 Y249.891
G01 X248.944 Y249.843
G01 X248.992 Y249.800
G01 X249.042 Y249.760
G01 X249.094 Y249.725
G01 X249.146 Y249.695
G01 X249.200 Y249.669
G01 X249.253 Y249.647
G01 X249.307 Y249.630
G01 X249.361 Y249.617
G01 X249.414 Y249.608
G01 X249.466 Y249.604
G01 X249.517 Y249.604
G01 X249.567 Y249.608
G01 X249.615 Y249.615
G01 X249.662 Y249.627
G01 X249.706 Y249.642
G01 X249.748 Y249.660
G01 X249.787 Y249.682
G01 X249.824 Y249.706
G01 X249.858 Y249.734
G01 X249.888 Y249.763
G01 X249.915 Y249.795
G01 X249.939 Y249.829
G01 X249.959 Y249.865
G01 X249.976 Y249.902
G01 X249.988 Y249.941
G01 X249.997 Y249.980
G01 X250.000 Y250.000
G01 X249.982 Y249.899
G01 X249.955 Y249.800
G01 X249.918 Y249.703
G01 X249.871 Y249.610
G01 X249.815 Y249.522
G01 X249.751 Y249.437
G01 X249.677 Y249.359
G01 X249.595 Y249.286
G01 X249.506 Y249.220
G01 X249.409 Y249.162
G01 X249.306 Y249.111
G01 X249.196 Y249.068
G01 X249.080 Y249.035
G01 X248.960 Y249.010
G01 X248.835 Y248.995
G01 X248.706 Y248.991
G01 X248.574 Y248.996
G01 X248.440 Y249.013
G01 X248.304 Y249.040
G01 X248.168 Y249.078
G01 X248.031 Y249.128
G01 X247.895 Y249.188
G01 X247.760 Y249.261
G01 X247.628 Y249.344
G01 X247.606 Y249.359
G01 X132.709 Y218.572
G01 X127.417 Y223.525
G01 X122.339 Y228.923
G01 X122.195 Y229.086
G01 X116.068 Y234.785
G01 X110.204 Y241.037
G01 X109.929 Y241.352
G01 X102.753 Y248.148
G01 X97.663 Y253.618
G01 X89.248 Y261.729
G01 X85.397 Y265.884
G01 X75.401 Y275.547
G01 X71.378 Y279.903
G01 X59.332 Y291.629
G01 X55.608 Y295.673
G01 X46.846 Y304.435
G01 X49.240 Y314.505
G01 X52.134 Y324.471
G01 X52.619 Y325.978
G01 X55.064 Y336.244
G01 X58.046 Y346.452
G01 X58.391 Y347.521
G01 X60.951 Y358.212
G01 X64.104 Y368.882
G01 X64.164 Y369.065
G01 X66.903 Y380.409
G01 X69.936 Y390.608
G01 X72.923 Y402.838
G01 X75.709 Y412.151
G01 X78.274 Y421.726
G01 X91.009 Y425.420
G01 X99.817 Y427.498
G01 X111.550 Y430.939
G01 X121.361 Y433.271
G01 X132.309 Y436.508
G01 X142.904 Y439.043
G01 X153.285 Y442.130
G01 X163.710 Y444.658
G01 X164.447 Y444.816
G01 X174.480 Y447.809
G01 X184.599 Y450.289
G01 X185.990 Y450.588
G01 X195.565 Y453.154
G01 X208.973 Y439.956
G01 X211.336 Y437.383
G01 X222.544 Y426.418
G01 X225.354 Y423.365
G01 X234.823 Y414.273
G01 X239.373 Y409.346
G01 X247.344 Y401.714
G01 X251.639 Y397.080
G01 X258.481 Y390.641
G01 X263.905 Y384.814
G01 X269.798 Y379.362
G01 X275.192 Y373.668
G01 X276.171 Y372.548
G01 X281.201 Y367.532
G01 X281.428 Y367.291
G01 X250.641 Y252.394
G01 X250.515 Y252.385
G01 X250.391 Y252.370
G01 X250.270 Y252.348
G01 X250.152 Y252.321
G01 X250.037 Y252.288
G01 X249.926 Y252.249
G01 X249.819 Y252.204
G01 X249.716 Y252.155
G01 X249.618 Y252.101
G01 X249.524 Y252.043
G01 X249.435 Y251.980
G01 X249.350 Y251.914
G01 X249.271 Y251.844
G01 X249.197 Y251.772
G01 X249.129 Y251.696
G01 X249.065 Y251.619
G01 X249.008 Y251.539
G01 X248.956 Y251.457
G01 X248.909 Y251.375
G01 X248.868 Y251.291
G01 X248.833 Y251.206
G01 X248.803 Y251.122
G01 X248.778 Y251.037
G01 X248.759 Y250.952
G01 X248.745 Y250.869
G01 X248.736 Y250.786
G01 X248.732 Y250.705
G01 X248.733 Y250.625
G01 X248.739 Y250.547
G01 X248.749 Y250.471
G01 X248.764 Y250.397
G01 X248.783 Y250.326
G01 X248.806 Y250.258
G01 X248.832 Y250.193
G01 X248.862 Y250.131
G01 X248.895 Y250.072
G01 X248.930 Y250.018
G01 X248.969 Y249.966
G01 X249.010 Y249.919
G01 X249.053 Y249.875
G01 X249.097 Y249.836
G01 X249.144 Y249.800
G01 X249.191 Y249.769
G01 X249.239 Y249.742
G01 X249.288 Y249.719
G01 X249.338 Y249.700
G01 X249.387 Y249.685
G01 X249.436 Y249.674
G01 X249.485 Y249.668
G01 X249.533 Y249.665
G01 X249.580 Y249.666
G01 X249.625 Y249.671
G01 X249.669 Y249.680
G01 X249.711 Y249.692
G01 X249.751 Y249.707
G01 X249.789 Y249.725
G01 X249.824 Y249.746
G01 X249.857 Y249.770
G01 X249.887 Y249.797
G01 X249.914 Y249.826
G01 X249.938 Y249.857
G01 X249.958 Y249.889
G01 X249.976 Y249.924
G01 X249.989 Y249.959
G01 X249.999 Y249.996
G01 X250.000 Y250.000
G01 X249.977 Y249.914
G01 X249.946 Y249.830
G01 X249.907 Y249.749
G01 X249.860 Y249.672
G01 X249.805 Y249.599
G01 X249.742 Y249.531
G01 X249.673 Y249.468
G01 X249.597 Y249.411
G01 X249.514 Y249.360
G01 X249.426 Y249.317
G01 X249.333 Y249.280
G01 X249.234 Y249.251
G01 X249.132 Y249.231
G01 X249.025 Y249.218
G01 X248.916 Y249.215
G01 X248.804 Y249.220
G01 X248.690 Y249.235
G01 X248.575 Y249.259
G01 X248.459 Y249.292
G01 X248.343 Y249.336
G01 X248.228 Y249.389
G01 X248.115 Y249.451
G01 X248.003 Y249.524
G01 X247.895 Y249.606
G01 X247.790 Y249.698
G01 X247.688 Y249.799
G01 X247.592 Y249.909
G01 X247.522 Y250.000
G01 X128.571 Y250.000
G01 X124.742 Y256.154
G01 X121.234 Y262.682
G01 X121.137 Y262.877
G01 X116.693 Y269.968
G01 X112.648 Y277.524
G01 X112.464 Y277.900
G01 X107.291 Y286.322
G01 X103.790 Y292.923
G01 X97.761 Y302.935
G01 X95.117 Y307.945
G01 X87.963 Y319.866
G01 X85.204 Y325.114
G01 X76.603 Y339.559
G01 X74.052 Y344.430
G01 X67.857 Y355.160
G01 X72.776 Y364.268
G01 X78.151 Y373.145
G01 X79.009 Y374.475
G01 X84.028 Y383.758
G01 X89.550 Y392.846
G01 X90.160 Y393.791
G01 X95.400 Y403.454
G01 X101.207 Y412.945
G01 X101.312 Y413.106
G01 X106.894 Y423.355
G01 X112.464 Y432.421
G01 X118.514 Y443.461
G01 X123.615 Y451.736
G01 X128.571 Y460.320
G01 X141.828 Y460.593
G01 X150.875 Y460.320
G01 X163.098 Y460.607
G01 X173.178 Y460.320
G01 X184.591 Y460.613
G01 X195.481 Y460.320
G01 X206.308 Y460.615
G01 X217.031 Y460.359
G01 X217.784 Y460.320
G01 X228.250 Y460.615
G01 X238.666 Y460.391
G01 X240.087 Y460.320
G01 X250.000 Y460.320
G01 X259.536 Y444.102
G01 X261.152 Y441.005
G01 X269.139 Y427.513
G01 X271.064 Y423.836
G01 X277.857 Y412.603
G01 X280.977 Y406.667
G01 X286.701 Y397.232
G01 X289.650 Y391.644
G01 X294.593 Y383.654
G01 X298.324 Y376.621
G01 X302.605 Y369.830
G01 X306.341 Y362.934
G01 X306.997 Y361.599
G01 X310.558 Y355.452
G01 X310.714 Y355.160
G01 X251.239 Y252.146
G01 X251.116 Y252.172
G01 X250.993 Y252.192
G01 X250.871 Y252.204
G01 X250.750 Y252.210
G01 X250.631 Y252.209
G01 X250.514 Y252.203
G01 X250.398 Y252.190
G01 X250.286 Y252.171
G01 X250.176 Y252.146
G01 X250.069 Y252.116
G01 X249.966 Y252.081
G01 X249.866 Y252.041
G01 X249.770 Y251.996
G01 X249.679 Y251.947
G01 X249.591 Y251.893
G01 X249.508 Y251.836
G01 X249.430 Y251.775
G01 X249.356 Y251.711
G01 X249.287 Y251.645
G01 X249.223 Y251.575
G01 X249.164 Y251.504
G01 X249.111 Y251.430
G01 X249.062 Y251.355
G01 X249.019 Y251.279
G01 X248.980 Y251.202
G01 X248.947 Y251.124
G01 X248.919 Y251.046
G01 X248.896 Y250.968
G01 X248.879 Y250.890
G01 X248.866 Y250.813
G01 X248.857 Y250.737
G01 X248.854 Y250.662
G01 X248.855 Y250.588
G01 X248.860 Y250.516
G01 X248.870 Y250.447
G01 X248.883 Y250.379
G01 X248.901 Y250.314
G01 X248.922 Y250.251
G01 X248.946 Y250.192
G01 X248.974 Y250.135
G01 X249.005 Y250.082
G01 X249.038 Y250.031
G01 X249.074 Y249.985
G01 X249.111 Y249.942
G01 X249.151 Y249.902
G01 X249.193 Y249.867
G01 X249.235 Y249.835
G01 X249.279 Y249.807
G01 X249.324 Y249.783
G01 X249.369 Y249.763
G01 X249.415 Y249.746
G01 X249.460 Y249.734
G01 X249.506 Y249.725
G01 X249.550 Y249.720
G01 X249.594 Y249.719
G01 X249.637 Y249.722
G01 X249.679 Y249.727
G01 X249.719 Y249.737
G01 X249.757 Y249.749
G01 X249.794 Y249.765
G01 X249.828 Y249.783
G01 X249.860 Y249.804
G01 X249.889 Y249.828
G01 X249.916 Y249.854
G01 X249.939 Y249.882
G01 X249.960 Y249.912
G01 X249.978 Y249.944
G01 X249.992 Y249.977
G01 X250.000 Y250.000
G01 X249.973 Y249.926
G01 X249.940 Y249.854
G01 X249.899 Y249.786
G01 X249.851 Y249.721
G01 X249.797 Y249.661
G01 X249.737 Y249.605
G01 X249.671 Y249.555
G01 X249.599 Y249.511
G01 X249.522 Y249.473
G01 X249.441 Y249.441
G01 X249.356 Y249.416
G01 X249.267 Y249.398
G01 X249.175 Y249.387
G01 X249.080 Y249.385
G01 X248.983 Y249.390
G01 X248.885 Y249.403
G01 X248.785 Y249.425
G01 X248.685 Y249.455
G01 X248.586 Y249.493
G01 X248.487 Y249.540
G01 X248.390 Y249.596
G01 X248.294 Y249.660
G01 X248.201 Y249.732
G01 X248.112 Y249.813
G01 X248.026 Y249.902
G01 X247.944 Y249.999
G01 X247.868 Y250.104
G01 X247.797 Y250.216
G01 X247.732 Y250.335
G01 X247.673 Y250.462
G01 X247.622 Y250.594
G01 X247.606 Y250.641
G01 X132.709 Y281.428
G01 X130.603 Y288.363
G01 X128.904 Y295.577
G01 X128.861 Y295.790
G01 X126.404 Y303.790
G01 X124.452 Y312.135
G01 X124.371 Y312.546
G01 X121.554 Y322.020
G01 X119.881 Y329.302
G01 X116.649 Y340.533
G01 X115.392 Y346.058
G01 X111.567 Y359.424
G01 X110.260 Y365.207
G01 X105.691 Y381.385
G01 X104.488 Y386.751
G01 X101.281 Y398.719
G01 X108.389 Y406.243
G01 X115.879 Y413.427
G01 X117.052 Y414.490
G01 X124.303 Y422.157
G01 X131.989 Y429.506
G01 X132.822 Y430.261
G01 X140.385 Y438.239
G01 X148.451 Y445.903
G01 X148.593 Y446.031
G01 X156.638 Y454.487
G01 X164.364 Y461.802
G01 X173.066 Y470.900
G01 X180.135 Y477.573
G01 X187.144 Y484.582
G01 X200.019 Y481.414
G01 X208.687 Y478.809
G01 X220.568 Y475.922
G01 X230.230 Y473.037
G01 X241.331 Y470.366
G01 X251.774 Y467.265
G01 X262.308 Y464.747
G01 X272.600 Y461.724
G01 X273.317 Y461.492
G01 X283.502 Y459.068
G01 X293.506 Y456.156
G01 X294.860 Y455.720
G01 X304.435 Y453.154
G01 X309.448 Y435.020
G01 X310.207 Y431.611
G01 X314.431 Y416.511
G01 X315.339 Y412.461
G01 X318.993 Y399.853
G01 X320.470 Y393.312
G01 X323.556 Y382.716
G01 X324.959 Y376.556
G01 X327.665 Y367.559
G01 X329.449 Y359.800
G01 X331.827 Y352.132
G01 X333.651 Y344.504
G01 X333.939 Y343.044
G01 X335.787 Y336.185
G01 X335.863 Y335.863
G01 X251.752 Y251.752
G01 X251.641 Y251.811
G01 X251.528 Y251.862
G01 X251.415 Y251.908
G01 X251.300 Y251.946
G01 X251.186 Y251.978
G01 X251.071 Y252.004
G01 X250.957 Y252.023
G01 X250.843 Y252.035
G01 X250.731 Y252.042
G01 X250.620 Y252.042
G01 X250.510 Y252.037
G01 X250.403 Y252.026
G01 X250.298 Y252.009
G01 X250.196 Y251.987
G01 X250.096 Y251.960
G01 X250.000 Y251.928
G01 X249.907 Y251.891
G01 X249.818 Y251.850
G01 X249.732 Y251.805
G01 X249.651 Y251.756
G01 X249.573 Y251.704
G01 X249.500 Y251.648
G01 X249.432 Y251.589
G01 X249.367 Y251.527
G01 X249.308 Y251.463
G01 X249.253 Y251.397
G01 X249.203 Y251.329
G01 X249.158 Y251.260
G01 X249.118 Y251.190
G01 X249.082 Y251.118
G01 X249.052 Y251.047
G01 X249.026 Y250.974
G01 X249.004 Y250.902
G01 X248.988 Y250.831
G01 X248.976 Y250.759
G01 X248.969 Y250.689
G01 X248.965 Y250.620
G01 X248.967 Y250.552
G01 X248.972 Y250.486
G01 X248.981 Y250.422
G01 X248.994 Y250.360
G01 X249.010 Y250.300
G01 X249.030 Y250.243
G01 X249.053 Y250.188
G01 X249.079 Y250.137
G01 X249.108 Y250.088
G01 X249.139 Y250.042
G01 X249.172 Y250.000
G01 X249.207 Y249.961
G01 X249.244 Y249.926
G01 X249.283 Y249.894
G01 X249.323 Y249.865
G01 X249.364 Y249.841
G01 X249.405 Y249.820
G01 X249.447 Y249.802
G01 X249.489 Y249.788
G01 X249.531 Y249.778
G01 X249.573 Y249.772
G01 X249.614 Y249.769
G01 X249.655 Y249.769
G01 X249.694 Y249.773
G01 X249.732 Y249.780
G01 X249.769 Y249.790
G01 X249.804 Y249.804
G01 X249.836 Y249.820
G01 X249.867 Y249.838
G01 X249.896 Y249.860
G01 X249.922 Y249.883
G01 X249.946 Y249.909
G01 X249.966 Y249.937
G01 X249.984 Y249.966
G01 X249.999 Y249.997
G01 X250.000 Y250.000
G01 X249.970 Y249.935
G01 X249.933 Y249.874
G01 X249.891 Y249.816
G01 X249.842 Y249.762
G01 X249.789 Y249.713
G01 X249.730 Y249.668
G01 X249.666 Y249.629
G01 X249.598 Y249.595
G01 X249.526 Y249.567
G01 X249.451 Y249.545
G01 X249.372 Y249.530
G01 X249.290 Y249.522
G01 X249.207 Y249.520
G01 X249.121 Y249.526
G01 X249.035 Y249.539
G01 X248.948 Y249.559
G01 X248.860 Y249.587
G01 X248.773 Y249.622
G01 X248.687 Y249.665
G01 X248.602 Y249.716
G01 X248.519 Y249.774
G01 X248.439 Y249.840
G01 X248.362 Y249.913
G01 X248.288 Y249.993
G01 X248.219 Y250.080
G01 X248.154 Y250.174
G01 X248.094 Y250.275
G01 X248.040 Y250.382
G01 X247.992 Y250.494
G01 X247.950 Y250.613
G01 X247.915 Y250.736
G01 X247.888 Y250.865
G01 X247.868 Y250.998
G01 X247.857 Y251.134
G01 X247.854 Y251.239
G01 X144.840 Y310.714
G01 X144.600 Y317.958
G01 X144.826 Y325.367
G01 X144.840 Y325.583
G01 X144.537 Y333.946
G01 X144.812 Y342.512
G01 X144.840 Y342.930
G01 X144.571 Y352.810
G01 X144.840 Y360.277
G01 X144.625 Y371.962
G01 X144.840 Y377.624
G01 X144.605 Y391.525
G01 X144.840 Y397.449
G01 X144.613 Y414.259
G01 X144.840 Y419.752
G01 X144.840 Y432.143
G01 X153.653 Y437.571
G01 X162.747 Y442.571
G01 X164.155 Y443.294
G01 X173.144 Y448.824
G01 X182.470 Y453.933
G01 X183.470 Y454.446
G01 X192.839 Y460.195
G01 X202.614 Y465.510
G01 X202.785 Y465.598
G01 X212.744 Y471.683
G01 X222.100 Y476.749
G01 X232.860 Y483.285
G01 X241.415 Y487.901
G01 X250.000 Y492.857
G01 X261.617 Y486.464
G01 X269.315 Y481.706
G01 X280.044 Y475.842
G01 X288.630 Y470.554
G01 X298.661 Y465.101
G01 X307.945 Y459.402
G01 X317.469 Y454.244
G01 X326.628 Y448.661
G01 X327.261 Y448.251
G01 X336.471 Y443.273
G01 X345.380 Y437.871
G01 X346.576 Y437.099
G01 X355.160 Y432.143
G01 X355.309 Y413.330
G01 X355.160 Y409.840
G01 X355.332 Y394.161
G01 X355.160 Y390.015
G01 X355.427 Y376.890
G01 X355.160 Y370.190
G01 X355.399 Y359.156
G01 X355.160 Y352.843
G01 X355.445 Y343.452
G01 X355.160 Y335.496
G01 X355.472 Y327.474
G01 X355.260 Y319.634
G01 X355.160 Y318.149
G01 X355.171 Y311.045
G01 X355.160 Y310.714
G01 X252.146 Y251.239
G01 X252.056 Y251.325
G01 X251.962 Y251.406
G01 X251.865 Y251.480
G01 X251.766 Y251.549
G01 X251.665 Y251.611
G01 X251.562 Y251.668
G01 X251.457 Y251.718
G01 X251.352 Y251.761
G01 X251.245 Y251.799
G01 X251.138 Y251.831
G01 X251.032 Y251.856
G01 X250.925 Y251.876
G01 X250.819 Y251.889
G01 X250.714 Y251.897
G01 X250.610 Y251.899
G01 X250.508 Y251.895
G01 X250.407 Y251.887
G01 X250.309 Y251.872
G01 X250.213 Y251.853
G01 X250.120 Y251.829
G01 X250.029 Y251.801
G01 X249.942 Y251.768
G01 X249.858 Y251.731
G01 X249.778 Y251.690
G01 X249.701 Y251.645
G01 X249.628 Y251.597
G01 X249.559 Y251.546
G01 X249.494 Y251.492
G01 X249.433 Y251.435
G01 X249.376 Y251.376
G01 X249.324 Y251.315
G01 X249.277 Y251.253
G01 X249.234 Y251.189
G01 X249.195 Y251.123
G01 X249.161 Y251.057
G01 X249.131 Y250.991
G01 X249.106 Y250.924
G01 X249.086 Y250.857
G01 X249.069 Y250.790
G01 X249.057 Y250.724
G01 X249.049 Y250.658
G01 X249.045 Y250.594
G01 X249.046 Y250.530
G01 X249.050 Y250.469
G01 X249.057 Y250.409
G01 X249.069 Y250.351
G01 X249.083 Y250.295
G01 X249.101 Y250.241
G01 X249.122 Y250.190
G01 X249.145 Y250.141
G01 X249.172 Y250.095
G01 X249.200 Y250.052
G01 X249.231 Y250.013
G01 X249.263 Y249.976
G01 X249.297 Y249.942
G01 X249.333 Y249.912
G01 X249.370 Y249.885
G01 X249.408 Y249.862
G01 X249.446 Y249.842
G01 X249.485 Y249.825
G01 X249.524 Y249.812
G01 X249.564 Y249.802
G01 X249.602 Y249.796
G01 X249.641 Y249.793
G01 X249.679 Y249.793
G01 X249.715 Y249.796
G01 X249.751 Y249.802
G01 X249.785 Y249.812
G01 X249.818 Y249.824
G01 X249.849 Y249.839
G01 X249.878 Y249.856
G01 X249.905 Y249.876
G01 X249.929 Y249.898
G01 X249.951 Y249.922
G01 X249.971 Y249.948
G01 X249.988 Y249.975
G01 X250.000 Y250.000
G01 X249.972 Y249.944
G01 X249.938 Y249.891
G01 X249.900 Y249.841
G01 X249.856 Y249.795
G01 X249.808 Y249.753
G01 X249.755 Y249.715
G01 X249.698 Y249.682
G01 X249.637 Y249.654
G01 X249.573 Y249.631
G01 X249.506 Y249.614
G01 X249.437 Y249.602
G01 X249.365 Y249.597
G01 X249.291 Y249.597
G01 X249.217 Y249.604
G01 X249.141 Y249.618
G01 X249.065 Y249.638
G01 X248.989 Y249.664
G01 X248.913 Y249.697
G01 X248.838 Y249.737
G01 X248.765 Y249.784
G01 X248.694 Y249.837
G01 X248.625 Y249.897
G01 X248.559 Y249.963
G01 X248.496 Y250.035
G01 X248.437 Y250.113
G01 X248.382 Y250.197
G01 X248.332 Y250.287
G01 X248.287 Y250.382
G01 X248.247 Y250.482
G01 X248.213 Y250.587
G01 X248.186 Y250.697
G01 X248.165 Y250.810
G01 X248.151 Y250.928
G01 X248.144 Y251.048
G01 X248.145 Y251.171
G01 X248.153 Y251.297
G01 X248.169 Y251.424
G01 X248.194 Y251.553
G01 X248.227 Y251.683
G01 X248.248 Y251.752
G01 X164.137 Y335.863
G01 X165.780 Y342.922
G01 X167.916 Y350.019
G01 X167.985 Y350.225
G01 X169.857 Y358.381
G01 X172.340 Y366.585
G01 X172.475 Y366.981
G01 X174.773 Y376.594
G01 X176.965 Y383.737
G01 X179.782 Y395.079
G01 X181.455 Y400.493
G01 X184.825 Y413.981
G01 X186.586 Y419.642
G01 X190.717 Y435.938
G01 X192.358 Y441.185
G01 X195.565 Y453.154
G01 X205.483 Y456.116
G01 X215.561 Y458.592
G01 X217.108 Y458.926
G01 X227.222 Y461.941
G01 X237.552 Y464.463
G01 X238.652 Y464.699
G01 X249.189 Y467.827
G01 X260.007 Y470.431
G01 X260.195 Y470.471
G01 X271.389 Y473.772
G01 X281.738 Y476.244
G01 X293.823 Y479.772
G01 X303.281 Y482.016
G01 X312.856 Y484.582
G01 X322.422 Y475.400
G01 X328.627 Y468.811
G01 X337.473 Y460.370
G01 X344.398 Y453.040
G01 X352.675 Y445.177
G01 X360.168 Y437.270
G01 X368.032 Y429.822
G01 X375.434 Y422.059
G01 X375.939 Y421.499
G01 X383.547 Y414.307
G01 X390.755 Y406.783
G01 X391.710 Y405.728
G01 X398.719 Y398.719
G01 X393.994 Y380.508
G01 X392.947 Y377.176
G01 X389.054 Y361.987
G01 X387.815 Y358.026
G01 X384.676 Y345.280
G01 X382.684 Y338.877
G01 X380.060 Y328.157
G01 X378.195 Y322.121
G01 X376.040 Y312.976
G01 X373.705 Y305.365
G01 X371.930 Y297.535
G01 X369.696 Y290.018
G01 X369.215 Y288.609
G01 X367.387 Y281.745
G01 X367.291 Y281.428
G01 X252.394 Y250.641
G01 X252.330 Y250.749
G01 X252.261 Y250.851
G01 X252.188 Y250.948
G01 X252.111 Y251.041
G01 X252.030 Y251.128
G01 X251.946 Y251.210
G01 X251.858 Y251.286
G01 X251.768 Y251.357
G01 X251.676 Y251.422
G01 X251.581 Y251.481
G01 X251.485 Y251.534
G01 X251.387 Y251.582
G01 X251.289 Y251.624
G01 X251.189 Y251.659
G01 X251.089 Y251.690
G01 X250.990 Y251.714
G01 X250.890 Y251.733
G01 X250.791 Y251.746
G01 X250.693 Y251.754
G01 X250.596 Y251.756
G01 X250.501 Y251.753
G01 X250.407 Y251.745
G01 X250.315 Y251.732
G01 X250.226 Y251.715
G01 X250.139 Y251.693
G01 X250.055 Y251.666
G01 X249.973 Y251.636
G01 X249.895 Y251.601
G01 X249.820 Y251.563
G01 X249.749 Y251.522
G01 X249.681 Y251.477
G01 X249.617 Y251.430
G01 X249.557 Y251.379
G01 X249.501 Y251.327
G01 X249.449 Y251.272
G01 X249.401 Y251.216
G01 X249.357 Y251.157
G01 X249.317 Y251.098
G01 X249.282 Y251.038
G01 X249.251 Y250.976
G01 X249.224 Y250.915
G01 X249.201 Y250.853
G01 X249.183 Y250.791
G01 X249.169 Y250.729
G01 X249.158 Y250.668
G01 X249.152 Y250.608
G01 X249.149 Y250.549
G01 X249.150 Y250.491
G01 X249.155 Y250.434
G01 X249.163 Y250.379
G01 X249.175 Y250.326
G01 X249.189 Y250.275
G01 X249.207 Y250.227
G01 X249.227 Y250.180
G01 X249.250 Y250.137
G01 X249.275 Y250.095
G01 X249.302 Y250.057
G01 X249.331 Y250.022
G01 X249.362 Y249.990
G01 X249.394 Y249.960
G01 X249.428 Y249.934
G01 X249.463 Y249.911
G01 X249.498 Y249.892
G01 X249.534 Y249.875
G01 X249.571 Y249.862
G01 X249.607 Y249.852
G01 X249.644 Y249.845
G01 X249.680 Y249.842
G01 X249.715 Y249.842
G01 X249.750 Y249.844
G01 X249.783 Y249.850
G01 X249.815 Y249.858
G01 X249.846 Y249.870
G01 X249.876 Y249.884
G01 X249.903 Y249.900
G01 X249.929 Y249.919
G01 X249.952 Y249.940
G01 X249.974 Y249.963
G01 X249.992 Y249.988
G01 X250.000 Y250.000
G01 X249.967 Y249.951
G01 X249.929 Y249.906
G01 X249.887 Y249.865
G01 X249.840 Y249.827
G01 X249.790 Y249.794
G01 X249.736 Y249.766
G01 X249.679 Y249.742
G01 X249.619 Y249.724
G01 X249.557 Y249.710
G01 X249.492 Y249.703
G01 X249.426 Y249.701
G01 X249.359 Y249.705
G01 X249.290 Y249.715
G01 X249.222 Y249.730
G01 X249.153 Y249.753
G01 X249.085 Y249.781
G01 X249.017 Y249.815
G01 X248.951 Y249.855
G01 X248.887 Y249.902
G01 X248.824 Y249.954
G01 X248.765 Y250.013
G01 X248.708 Y250.077
G01 X248.655 Y250.146
G01 X248.606 Y250.221
G01 X248.561 Y250.302
G01 X248.520 Y250.387
G01 X248.485 Y250.477
G01 X248.455 Y250.571
G01 X248.431 Y250.669
G01 X248.412 Y250.771
G01 X248.401 Y250.876
G01 X248.395 Y250.984
G01 X248.397 Y251.095
G01 X248.406 Y251.208
G01 X248.422 Y251.322
G01 X248.445 Y251.438
G01 X248.477 Y251.555
G01 X248.516 Y251.672
G01 X248.563 Y251.788
G01 X248.618 Y251.904
G01 X248.681 Y252.019
G01 X248.752 Y252.132
G01 X248.761 Y252.146
G01 X189.286 Y355.160
G01 X192.700 Y361.553
G01 X196.600 Y367.856
G01 X196.720 Y368.037
G01 X200.639 Y375.431
G01 X205.160 Y382.712
G01 X205.394 Y383.060
G01 X210.101 Y391.751
G01 X214.067 Y398.083
G01 X219.724 Y408.310
G01 X222.741 Y413.106
G01 X229.487 Y425.262
G01 X232.653 Y430.275
G01 X240.862 Y444.945
G01 X243.805 Y449.590
G01 X250.000 Y460.320
G01 X260.347 Y460.614
G01 X270.722 Y460.398
G01 X272.303 Y460.320
G01 X282.852 Y460.615
G01 X293.484 Y460.377
G01 X294.606 Y460.320
G01 X305.595 Y460.615
G01 X316.718 Y460.330
G01 X316.910 Y460.320
G01 X328.577 Y460.611
G01 X339.213 Y460.320
G01 X351.799 Y460.601
G01 X361.516 Y460.320
G01 X371.429 Y460.320
G01 X378.293 Y448.976
G01 X382.580 Y441.005
G01 X388.940 Y430.563
G01 X393.732 Y421.690
G01 X399.692 Y411.952
G01 X404.883 Y402.375
G01 X410.552 Y393.146
G01 X415.692 Y383.731
G01 X416.035 Y383.060
G01 X421.523 Y374.144
G01 X426.537 Y365.011
G01 X427.187 Y363.745
G01 X432.143 Y355.160
G01 X422.865 Y338.793
G01 X420.991 Y335.845
G01 X413.300 Y322.181
G01 X411.079 Y318.676
G01 X404.747 Y307.177
G01 X401.166 Y301.507
G01 X395.857 Y291.832
G01 X392.493 Y286.484
G01 X388.044 Y278.209
G01 X383.819 Y271.461
G01 X380.079 Y264.358
G01 X375.974 Y257.675
G01 X375.146 Y256.438
G01 X371.603 Y250.281
G01 X371.429 Y250.000
G01 X252.478 Y250.000
G01 X252.421 Y249.881
G01 X252.358 Y249.768
G01 X252.289 Y249.660
G01 X252.216 Y249.559
G01 X252.139 Y249.464
G01 X252.058 Y249.376
G01 X251.974 Y249.294
G01 X251.886 Y249.219
G01 X251.796 Y249.150
G01 X251.704 Y249.089
G01 X251.611 Y249.035
G01 X251.516 Y248.987
G01 X251.421 Y248.946
G01 X251.325 Y248.913
G01 X251.230 Y248.886
G01 X251.135 Y248.865
G01 X251.041 Y248.851
G01 X250.949 Y248.844
G01 X250.858 Y248.842
G01 X250.770 Y248.847
G01 X250.685 Y248.858
G01 X250.602 Y248.873
G01 X250.523 Y248.895
G01 X250.447 Y248.921
G01 X250.375 Y248.951
G01 X250.307 Y248.987
G01 X250.244 Y249.026
G01 X250.185 Y249.068
G01 X250.131 Y249.114
G01 X250.082 Y249.163
G01 X250.039 Y249.215
G01 X250.000 Y249.268
G01 X249.967 Y249.324
G01 X249.939 Y249.381
G01 X249.917 Y249.438
G01 X249.900 Y249.497
G01 X249.889 Y249.555
G01 X249.883 Y249.613
G01 X249.882 Y249.671
G01 X249.887 Y249.727
G01 X249.897 Y249.783
G01 X249.912 Y249.836
G01 X249.933 Y249.887
G01 X249.957 Y249.936
G01 X249.987 Y249.982
G01 X250.000 Y250.000
G01 X249.964 Y249.958
G01 X249.925 Y249.920
G01 X249.882 Y249.886
G01 X249.835 Y249.856
G01 X249.785 Y249.831
G01 X249.732 Y249.810
G01 X249.677 Y249.793
G01 X249.620 Y249.782
G01 X249.561 Y249.776
G01 X249.501 Y249.776
G01 X249.439 Y249.781
G01 X249.377 Y249.791
G01 X249.315 Y249.807
G01 X249.253 Y249.829
G01 X249.191 Y249.856
G01 X249.131 Y249.889
G01 X249.072 Y249.927
G01 X249.015 Y249.971
G01 X248.960 Y250.021
G01 X248.908 Y250.075
G01 X248.858 Y250.135
G01 X248.812 Y250.200
G01 X248.770 Y250.270
G01 X248.732 Y250.345
G01 X248.698 Y250.423
G01 X248.669 Y250.506
G01 X248.646 Y250.593
G01 X248.627 Y250.683
G01 X248.615 Y250.776
G01 X248.608 Y250.872
G01 X248.608 Y250.971
G01 X248.614 Y251.071
G01 X248.626 Y251.174
G01 X248.646 Y251.277
G01 X248.672 Y251.382
G01 X248.706 Y251.486
G01 X248.746 Y251.591
G01 X248.794 Y251.695
G01 X248.849 Y251.799
G01 X248.912 Y251.900
G01 X248.981 Y252.000
G01 X249.058 Y252.098
G01 X249.142 Y252.193
G01 X249.234 Y252.284
G01 X249.332 Y252.371
G01 X249.359 Y252.394
G01 X218.572 Y367.291
G01 X223.525 Y372.583
G01 X228.923 Y377.661
G01 X229.086 Y377.805
G01 X234.785 Y383.932
G01 X241.037 Y389.796
G01 X241.352 Y390.071
G01 X248.148 Y397.247
G01 X253.618 Y402.337
G01 X261.729 Y410.752
G01 X265.884 Y414.603
G01 X275.547 Y424.599
G01 X279.903 Y428.622
G01 X291.629 Y440.668
G01 X295.673 Y444.392
G01 X304.435 Y453.154
G01 X314.505 Y450.760
G01 X324.471 Y447.866
G01 X325.978 Y447.381
G01 X336.244 Y444.936
G01 X346.452 Y441.954
G01 X347.521 Y441.609
G01 X358.212 Y439.049
G01 X368.882 Y435.896
G01 X369.065 Y435.836
G01 X380.409 Y433.097
G01 X390.608 Y430.064
G01 X402.838 Y427.077
G01 X412.151 Y424.291
G01 X421.726 Y421.726
G01 X425.420 Y408.991
G01 X427.498 Y400.183
G01 X430.939 Y388.450
G01 X433.271 Y378.639
G01 X436.508 Y367.691
G01 X439.043 Y357.096
G01 X442.130 Y346.715
G01 X444.658 Y336.290
G01 X444.816 Y335.553
G01 X447.809 Y325.520
G01 X450.289 Y315.401
G01 X450.588 Y314.010
G01 X453.154 Y304.435
G01 X439.956 Y291.027
G01 X437.383 Y288.664
G01 X426.418 Y277.456
G01 X423.365 Y274.646
G01 X414.273 Y265.177
G01 X409.346 Y260.627
G01 X401.714 Y252.656
G01 X397.080 Y248.361
G01 X390.641 Y241.519
G01 X384.814 Y236.095
G01 X379.362 Y230.202
G01 X373.668 Y224.808
G01 X372.548 Y223.829
G01 X367.532 Y218.799
G01 X367.291 Y218.572
G01 X252.394 Y249.359
G01 X252.303 Y249.260
G01 X252.209 Y249.169
G01 X252.111 Y249.085
G01 X252.010 Y249.009
G01 X251.908 Y248.940
G01 X251.803 Y248.879
G01 X251.697 Y248.825
G01 X251.591 Y248.780
G01 X251.484 Y248.741
G01 X251.377 Y248.710
G01 X251.271 Y248.687
G01 X251.166 Y248.671
G01 X251.062 Y248.661
G01 X250.961 Y248.659
G01 X250.862 Y248.663
G01 X250.766 Y248.674
G01 X250.673 Y248.690
G01 X250.583 Y248.713
G01 X250.498 Y248.741
G01 X250.416 Y248.774
G01 X250.339 Y248.812
G01 X250.267 Y248.854
G01 X250.200 Y248.901
G01 X250.138 Y248.951
G01 X250.082 Y249.004
G01 X250.031 Y249.061
G01 X249.986 Y249.120
G01 X249.946 Y249.180
G01 X249.913 Y249.243
G01 X249.885 Y249.306
G01 X249.864 Y249.371
G01 X249.849 Y249.435
G01 X249.839 Y249.500
G01 X249.836 Y249.563
G01 X249.838 Y249.626
G01 X249.846 Y249.688
G01 X249.860 Y249.747
G01 X249.879 Y249.805
G01 X249.903 Y249.860
G01 X249.932 Y249.912
G01 X249.966 Y249.960
G01 X250.000 Y250.000
G01 X249.964 Y249.964
G01 X249.924 Y249.933
G01 X249.881 Y249.905
G01 X249.836 Y249.881
G01 X249.787 Y249.861
G01 X249.737 Y249.846
G01 X249.685 Y249.836
G01 X249.631 Y249.830
G01 X249.576 Y249.830
G01 X249.520 Y249.834
G01 X249.464 Y249.843
G01 X249.407 Y249.858
G01 X249.351 Y249.878
G01 X249.295 Y249.903
G01 X249.241 Y249.933
G01 X249.188 Y249.969
G01 X249.136 Y250.009
G01 X249.087 Y250.055
G01 X249.041 Y250.105
G01 X248.997 Y250.160
G01 X248.956 Y250.219
G01 X248.919 Y250.283
G01 X248.886 Y250.351
G01 X248.857 Y250.423
G01 X248.832 Y250.498
G01 X248.812 Y250.577
G01 X248.797 Y250.659
G01 X248.788 Y250.744
G01 X248.784 Y250.831
G01 X248.786 Y250.921
G01 X248.793 Y251.012
G01 X248.807 Y251.104
G01 X248.827 Y251.198
G01 X248.854 Y251.292
G01 X248.887 Y251.386
G01 X248.926 Y251.480
G01 X248.972 Y251.574
G01 X249.025 Y251.666
G01 X249.085 Y251.757
G01 X249.151 Y251.846
G01 X249.223 Y251.933
G01 X249.303 Y252.016
G01 X249.388 Y252.097
G01 X249.480 Y252.174
G01 X249.578 Y252.247
G01 X249.682 Y252.315
G01 X249.791 Y252.378
G01 X249.906 Y252.437
G01 X250.000 Y252.478
G01 X250.000 Y371.429
G01 X256.154 Y375.258
G01 X262.682 Y378.766
G01 X262.877 Y378.863
G01 X269.968 Y383.307
G01 X277.524 Y387.352
G01 X277.900 Y387.536
G01 X286.322 Y392.709
G01 X292.923 Y396.210
G01 X302.935 Y402.239
G01 X307.945 Y404.883
G01 X319.866 Y412.037
G01 X325.114 Y414.796
G01 X339.559 Y423.397
G01 X344.430 Y425.948
G01 X355.160 Y432.143
G01 X364.268 Y427.224
G01 X373.145 Y421.849
G01 X374.475 Y420.991
G01 X383.758 Y415.972
G01 X392.846 Y410.450
G01 X393.791 Y409.840
G01 X403.454 Y404.600
G01 X412.945 Y398.793
G01 X413.106 Y398.688
G01 X423.355 Y393.106
G01 X432.421 Y387.536
G01 X443.461 Y381.486
G01 X451.736 Y376.385
G01 X460.320 Y371.429
G01 X460.593 Y358.172
G01 X460.320 Y349.125
G01 X460.607 Y336.902
G01 X460.320 Y326.822
G01 X460.613 Y315.409
G01 X460.320 Y304.519
G01 X460.615 Y293.692
G01 X460.359 Y282.969
G01 X460.320 Y282.216
G01 X460.615 Y271.750
G01 X460.391 Y261.334
G01 X460.320 Y259.913
G01 X460.320 Y250.000
G01 X444.102 Y240.464
G01 X441.005 Y238.848
G01 X427.513 Y230.861
G01 X423.836 Y228.936
G01 X412.603 Y222.143
G01 X406.667 Y219.023
G01 X397.232 Y213.299
G01 X391.644 Y210.350
G01 X383.654 Y205.407
G01 X376.621 Y201.676
G01 X369.830 Y197.395
G01 X362.934 Y193.659
G01 X361.599 Y193.003
G01 X355.452 Y189.442
G01 X355.160 Y189.286
G01 X252.146 Y248.761
G01 X252.030 Y248.691
G01 X251.912 Y248.630
G01 X251.792 Y248.577
G01 X251.673 Y248.533
G01 X251.554 Y248.496
G01 X251.435 Y248.468
G01 X251.317 Y248.448
G01 X251.201 Y248.435
G01 X251.086 Y248.430
G01 X250.975 Y248.433
G01 X250.866 Y248.442
G01 X250.760 Y248.458
G01 X250.659 Y248.481
G01 X250.561 Y248.509
G01 X250.468 Y248.544
G01 X250.380 Y248.584
G01 X250.296 Y248.629
G01 X250.218 Y248.678
G01 X250.146 Y248.732
G01 X250.079 Y248.789
G01 X250.019 Y248.850
G01 X249.964 Y248.914
G01 X249.916 Y248.980
G01 X249.875 Y249.048
G01 X249.839 Y249.117
G01 X249.811 Y249.188
G01 X249.788 Y249.259
G01 X249.773 Y249.330
G01 X249.763 Y249.401
G01 X249.760 Y249.471
G01 X249.763 Y249.540
G01 X249.773 Y249.606
G01 X249.788 Y249.671
G01 X249.809 Y249.733
G01 X249.835 Y249.793
G01 X249.867 Y249.849
G01 X249.904 Y249.901
G01 X249.945 Y249.949
G01 X249.991 Y249.992
G01 X250.000 Y250.000
G01 X249.976 Y249.978
G01 X249.955 Y249.954
G01 X249.935 Y249.928
G01 X249.919 Y249.899
G01 X249.904 Y249.869
G01 X249.893 Y249.838
G01 X249.885 Y249.805
G01 X249.880 Y249.771
G01 X249.877 Y249.736
G01 X249.878 Y249.700
G01 X249.882 Y249.664
G01 X249.890 Y249.627
G01 X249.901 Y249.591
G01 X249.915 Y249.555
G01 X249.932 Y249.519
G01 X249.953 Y249.484
G01 X249.977 Y249.450
G01 X250.004 Y249.417
G01 X250.035 Y249.386
G01 X250.068 Y249.356
G01 X250.105 Y249.328
G01 X250.144 Y249.302
G01 X250.186 Y249.279
G01 X250.231 Y249.258
G01 X250.278 Y249.240
G01 X250.328 Y249.224
G01 X250.380 Y249.212
G01 X250.433 Y249.203
G01 X250.489 Y249.198
G01 X250.546 Y249.196
G01 X250.604 Y249.198
G01 X250.663 Y249.204
G01 X250.723 Y249.213
G01 X250.784 Y249.227
G01 X250.845 Y249.245
G01 X250.907 Y249.267
G01 X250.968 Y249.293
G01 X251.028 Y249.324
G01 X251.088 Y249.359
G01 X251.147 Y249.398
G01 X251.204 Y249.441
G01 X251.260 Y249.489
G01 X251.315 Y249.540
G01 X251.367 Y249.596
G01 X251.416 Y249.656
G01 X251.463 Y249.720
G01 X251.507 Y249.788
G01 X251.548 Y249.859
G01 X251.586 Y249.934
G01 X251.619 Y250.012
G01 X251.649 Y250.093
G01 X251.675 Y250.177
G01 X251.696 Y250.264
G01 X251.713 Y250.354
G01 X251.725 Y250.445
G01 X251.732 Y250.539
G01 X251.734 Y250.634
G01 X251.730 Y250.731
G01 X251.721 Y250.829
G01 X251.707 Y250.928
G01 X251.687 Y251.028
G01 X251.661 Y251.128
G01 X251.630 Y251.227
G01 X251.593 Y251.326
G01 X251.549 Y251.425
G01 X251.500 Y251.522
G01 X251.446 Y251.618
G01 X251.385 Y251.712
G01 X251.318 Y251.804
G01 X251.246 Y251.894
G01 X251.168 Y251.981
G01 X251.084 Y252.064
G01 X250.995 Y252.144
G01 X250.901 Y252.221
G01 X250.802 Y252.293
G01 X250.697 Y252.360
G01 X250.641 Y252.394
G01 X267.959 Y317.023
G01 X271.966 Y318.366
G01 X276.147 Y319.471
G01 X279.927 Y320.230
G01 X284.859 Y321.812
G01 X290.014 Y323.071
G01 X291.896 Y323.437
G01 X298.008 Y325.308
G01 X303.864 Y326.644
G01 X311.505 Y328.974
G01 X318.226 Y330.493
G01 X328.071 Y333.436
G01 X334.982 Y334.982
G01 X339.366 Y330.996
G01 X343.562 Y326.784
G01 X347.248 Y322.716
G01 X351.782 Y318.586
G01 X356.142 Y314.185
G01 X359.515 Y310.450
G01 X364.379 Y305.998
G01 X369.065 Y301.211
G01 X371.781 Y298.184
G01 X377.155 Y293.223
G01 X382.329 Y287.849
G01 X384.047 Y285.918
G01 X382.389 Y278.593
G01 X380.342 Y271.520
G01 X379.557 Y269.162
G01 X378.092 Y262.561
G01 X376.296 Y256.151
G01 X375.067 Y252.406
G01 X373.730 Y246.305
G01 X372.098 Y240.342
G01 X370.578 Y235.650
G01 X369.308 Y229.822
G01 X367.758 Y224.084
G01 X366.088 Y218.894
G01 X356.093 Y215.912
G01 X349.332 Y214.405
G01 X341.536 Y212.033
G01 X334.970 Y210.556
G01 X328.717 Y208.649
G01 X323.001 Y207.349
G01 X317.902 Y205.722
G01 X312.826 Y204.488
G01 X311.033 Y204.142
G01 X306.848 Y202.750
G01 X302.678 Y201.654
G01 X299.065 Y200.935
G01 X251.752 Y248.248
G01 X251.617 Y248.216
G01 X251.483 Y248.193
G01 X251.350 Y248.179
G01 X251.220 Y248.174
G01 X251.093 Y248.177
G01 X250.969 Y248.187
G01 X250.849 Y248.206
G01 X250.733 Y248.231
G01 X250.621 Y248.264
G01 X250.515 Y248.303
G01 X250.414 Y248.348
G01 X250.318 Y248.399
G01 X250.229 Y248.455
G01 X250.146 Y248.516
G01 X250.070 Y248.581
G01 X250.000 Y248.650
G01 X249.937 Y248.722
G01 X249.881 Y248.796
G01 X249.833 Y248.873
G01 X249.792 Y248.952
G01 X249.758 Y249.032
G01 X249.731 Y249.112
G01 X249.711 Y249.193
G01 X249.699 Y249.273
G01 X249.694 Y249.353
G01 X249.696 Y249.431
G01 X249.704 Y249.507
G01 X249.720 Y249.580
G01 X249.741 Y249.651
G01 X249.769 Y249.719
G01 X249.803 Y249.783
G01 X249.843 Y249.843
G01 X249.887 Y249.898
G01 X249.937 Y249.948
G01 X249.991 Y249.993
G01 X250.000 Y250.000
G01 X249.973 Y249.979
G01 X249.949 Y249.954
G01 X249.927 Y249.928
G01 X249.907 Y249.899
G01 X249.891 Y249.869
G01 X249.877 Y249.836
G01 X249.866 Y249.802
G01 X249.858 Y249.767
G01 X249.853 Y249.730
G01 X249.851 Y249.692
G01 X249.853 Y249.654
G01 X249.859 Y249.615
G01 X249.868 Y249.576
G01 X249.880 Y249.537
G01 X249.896 Y249.498
G01 X249.916 Y249.460
G01 X249.939 Y249.422
G01 X249.965 Y249.386
G01 X249.995 Y249.351
G01 X250.028 Y249.317
G01 X250.065 Y249.285
G01 X250.105 Y249.255
G01 X250.147 Y249.228
G01 X250.193 Y249.203
G01 X250.242 Y249.180
G01 X250.293 Y249.161
G01 X250.347 Y249.145
G01 X250.402 Y249.132
G01 X250.460 Y249.122
G01 X250.520 Y249.116
G01 X250.582 Y249.114
G01 X250.645 Y249.116
G01 X250.709 Y249.122
G01 X250.774 Y249.133
G01 X250.839 Y249.147
G01 X250.905 Y249.166
G01 X250.971 Y249.190
G01 X251.037 Y249.218
G01 X251.103 Y249.251
G01 X251.167 Y249.288
G01 X251.231 Y249.330
G01 X251.293 Y249.376
G01 X251.354 Y249.427
G01 X251.412 Y249.482
G01 X251.469 Y249.542
G01 X251.522 Y249.606
G01 X251.573 Y249.674
G01 X251.621 Y249.747
G01 X251.666 Y249.823
G01 X251.706 Y249.903
G01 X251.743 Y249.986
G01 X251.776 Y250.073
G01 X251.804 Y250.163
G01 X251.828 Y250.257
G01 X251.847 Y250.352
G01 X251.861 Y250.451
G01 X251.869 Y250.551
G01 X251.872 Y250.653
G01 X251.869 Y250.757
G01 X251.861 Y250.862
G01 X251.847 Y250.969
G01 X251.826 Y251.075
G01 X251.800 Y251.182
G01 X251.767 Y251.289
G01 X251.729 Y251.396
G01 X251.684 Y251.502
G01 X251.632 Y251.607
G01 X251.574 Y251.710
G01 X251.511 Y251.812
G01 X251.440 Y251.911
G01 X251.364 Y252.007
G01 X251.282 Y252.101
G01 X251.239 Y252.146
G01 X284.694 Y310.092
G01 X288.912 Y310.351
G01 X293.236 Y310.336
G01 X297.085 Y310.092
G01 X302.257 Y310.343
G01 X307.563 Y310.225
G01 X309.475 Y310.092
G01 X315.863 Y310.316
G01 X321.866 Y310.092
G01 X329.849 Y310.365
G01 X336.735 Y310.092
G01 X347.006 Y310.386
G01 X354.082 Y310.092
G01 X357.284 Y305.107
G01 X360.247 Y299.952
G01 X362.755 Y295.069
G01 X366.065 Y289.906
G01 X369.138 Y284.527
G01 X371.429 Y280.046
G01 X374.975 Y274.486
G01 X378.263 Y268.650
G01 X380.102 Y265.023
G01 X384.010 Y258.840
G01 X387.616 Y252.310
G01 X388.776 Y250.000
G01 X385.278 Y243.354
G01 X381.471 Y237.051
G01 X380.102 Y234.977
G01 X376.978 Y228.981
G01 X373.585 Y223.253
G01 X371.429 Y219.954
G01 X368.558 Y214.408
G01 X365.438 Y209.069
G01 X362.755 Y204.931
G01 X360.020 Y199.631
G01 X357.037 Y194.489
G01 X354.082 Y189.908
G01 X343.655 Y189.614
G01 X336.735 Y189.908
G01 X328.590 Y189.636
G01 X321.866 Y189.908
G01 X315.333 Y189.684
G01 X309.475 Y189.908
G01 X304.128 Y189.656
G01 X298.906 Y189.778
G01 X297.085 Y189.908
G01 X292.682 Y189.646
G01 X288.370 Y189.667
G01 X284.694 Y189.908
G01 X251.239 Y247.854
G01 X251.096 Y247.867
G01 X250.957 Y247.888
G01 X250.823 Y247.918
G01 X250.694 Y247.956
G01 X250.571 Y248.001
G01 X250.454 Y248.053
G01 X250.344 Y248.112
G01 X250.240 Y248.176
G01 X250.144 Y248.246
G01 X250.055 Y248.321
G01 X249.974 Y248.400
G01 X249.901 Y248.483
G01 X249.835 Y248.569
G01 X249.778 Y248.658
G01 X249.730 Y248.748
G01 X249.689 Y248.840
G01 X249.657 Y248.933
G01 X249.633 Y249.026
G01 X249.618 Y249.118
G01 X249.610 Y249.209
G01 X249.611 Y249.299
G01 X249.619 Y249.387
G01 X249.635 Y249.472
G01 X249.658 Y249.554
G01 X249.688 Y249.632
G01 X249.725 Y249.706
G01 X249.768 Y249.776
G01 X249.818 Y249.840
G01 X249.872 Y249.899
G01 X249.932 Y249.952
G01 X249.997 Y249.998
G01 X250.000 Y250.000
G01 X249.970 Y249.979
G01 X249.943 Y249.955
G01 X249.918 Y249.928
G01 X249.896 Y249.899
G01 X249.876 Y249.868
G01 X249.859 Y249.834
G01 X249.845 Y249.799
G01 X249.835 Y249.762
G01 X249.827 Y249.723
G01 X249.823 Y249.684
G01 X249.823 Y249.643
G01 X249.826 Y249.601
G01 X249.833 Y249.559
G01 X249.844 Y249.517
G01 X249.858 Y249.475
G01 X249.876 Y249.433
G01 X249.898 Y249.392
G01 X249.924 Y249.352
G01 X249.954 Y249.313
G01 X249.987 Y249.275
G01 X250.023 Y249.239
G01 X250.064 Y249.205
G01 X250.107 Y249.173
G01 X250.154 Y249.144
G01 X250.204 Y249.117
G01 X250.257 Y249.093
G01 X250.313 Y249.073
G01 X250.371 Y249.055
G01 X250.432 Y249.042
G01 X250.495 Y249.032
G01 X250.560 Y249.026
G01 X250.627 Y249.024
G01 X250.695 Y249.026
G01 X250.764 Y249.033
G01 X250.835 Y249.045
G01 X250.906 Y249.061
G01 X250.977 Y249.081
G01 X251.048 Y249.107
G01 X251.120 Y249.137
G01 X251.190 Y249.173
G01 X251.260 Y249.213
G01 X251.329 Y249.258
G01 X251.396 Y249.308
G01 X251.462 Y249.363
G01 X251.525 Y249.422
G01 X251.586 Y249.487
G01 X251.645 Y249.556
G01 X251.700 Y249.629
G01 X251.752 Y249.707
G01 X251.800 Y249.789
G01 X251.844 Y249.875
G01 X251.884 Y249.965
G01 X251.920 Y250.059
G01 X251.951 Y250.156
G01 X251.977 Y250.256
G01 X251.998 Y250.359
G01 X252.013 Y250.465
G01 X252.022 Y250.573
G01 X252.026 Y250.683
G01 X252.024 Y250.795
G01 X252.016 Y250.908
G01 X252.001 Y251.023
G01 X251.980 Y251.138
G01 X251.952 Y251.253
G01 X251.918 Y251.368
G01 X251.877 Y251.483
G01 X251.829 Y251.597
G01 X251.774 Y251.710
G01 X251.752 Y251.752
G01 X299.065 Y299.065
G01 X303.206 Y298.223
G01 X307.379 Y297.090
G01 X311.033 Y295.858
G01 X316.095 Y294.761
G01 X321.189 Y293.274
G01 X323.001 Y292.651
G01 X329.230 Y291.214
G01 X334.970 Y289.444
G01 X342.752 Y287.641
G01 X349.332 Y285.595
G01 X359.329 Y283.222
G01 X366.088 Y281.106
G01 X367.891 Y275.462
G01 X369.419 Y269.716
G01 X370.578 Y264.350
G01 X372.439 Y258.507
G01 X374.014 Y252.515
G01 X375.067 Y247.594
G01 X377.054 Y241.306
G01 X378.719 Y234.817
G01 X379.557 Y230.838
G01 X381.731 Y223.855
G01 X383.525 Y216.614
G01 X384.047 Y214.082
G01 X378.948 Y208.568
G01 X373.639 Y203.465
G01 X371.781 Y201.816
G01 X367.211 Y196.832
G01 X362.451 Y192.179
G01 X359.515 Y189.550
G01 X355.306 Y184.935
G01 X350.911 Y180.587
G01 X347.248 Y177.284
G01 X343.235 Y172.872
G01 X339.023 Y168.677
G01 X334.982 Y165.018
G01 X324.835 Y167.432
G01 X318.226 Y169.507
G01 X310.289 Y171.352
G01 X303.864 Y173.356
G01 X297.496 Y174.830
G01 X291.896 Y176.563
G01 X286.666 Y177.703
G01 X281.653 Y179.172
G01 X279.927 Y179.770
G01 X275.607 Y180.656
G01 X271.448 Y181.792
G01 X267.959 Y182.977
G01 X250.641 Y247.606
G01 X250.504 Y247.669
G01 X250.373 Y247.739
G01 X250.251 Y247.816
G01 X250.138 Y247.899
G01 X250.033 Y247.988
G01 X249.937 Y248.082
G01 X249.851 Y248.180
G01 X249.774 Y248.282
G01 X249.706 Y248.386
G01 X249.649 Y248.493
G01 X249.601 Y248.602
G01 X249.563 Y248.711
G01 X249.534 Y248.821
G01 X249.515 Y248.930
G01 X249.506 Y249.038
G01 X249.506 Y249.144
G01 X249.515 Y249.248
G01 X249.533 Y249.348
G01 X249.559 Y249.445
G01 X249.594 Y249.537
G01 X249.636 Y249.624
G01 X249.686 Y249.706
G01 X249.743 Y249.782
G01 X249.807 Y249.852
G01 X249.876 Y249.914
G01 X249.951 Y249.970
G01 X250.000 Y250.000
G01 X249.967 Y249.979
G01 X249.937 Y249.955
G01 X249.909 Y249.927
G01 X249.884 Y249.898
G01 X249.861 Y249.865
G01 X249.841 Y249.830
G01 X249.825 Y249.793
G01 X249.812 Y249.754
G01 X249.802 Y249.713
G01 X249.796 Y249.670
G01 X249.794 Y249.627
G01 X249.795 Y249.582
G01 X249.801 Y249.537
G01 X249.810 Y249.492
G01 X249.824 Y249.446
G01 X249.841 Y249.401
G01 X249.863 Y249.356
G01 X249.888 Y249.311
G01 X249.918 Y249.268
G01 X249.951 Y249.226
G01 X249.989 Y249.186
G01 X250.030 Y249.148
G01 X250.075 Y249.112
G01 X250.124 Y249.078
G01 X250.176 Y249.047
G01 X250.231 Y249.019
G01 X250.290 Y248.995
G01 X250.351 Y248.973
G01 X250.416 Y248.956
G01 X250.482 Y248.942
G01 X250.552 Y248.933
G01 X250.623 Y248.928
G01 X250.696 Y248.927
G01 X250.770 Y248.931
G01 X250.846 Y248.940
G01 X250.922 Y248.953
G01 X251.000 Y248.972
G01 X251.077 Y248.996
G01 X251.155 Y249.025
G01 X251.232 Y249.059
G01 X251.309 Y249.099
G01 X251.384 Y249.144
G01 X251.459 Y249.194
G01 X251.531 Y249.250
G01 X251.602 Y249.310
G01 X251.670 Y249.376
G01 X251.735 Y249.447
G01 X251.798 Y249.523
G01 X251.857 Y249.604
G01 X251.913 Y249.689
G01 X251.964 Y249.779
G01 X252.011 Y249.873
G01 X252.054 Y249.972
G01 X252.091 Y250.074
G01 X252.124 Y250.180
G01 X252.151 Y250.289
G01 X252.172 Y250.401
G01 X252.188 Y250.516
G01 X252.197 Y250.633
G01 X252.200 Y250.753
G01 X252.196 Y250.874
G01 X252.186 Y250.997
G01 X252.169 Y251.121
G01 X252.146 Y251.239
G01 X310.092 Y284.694
G01 X313.874 Y282.809
G01 X317.612 Y280.634
G01 X320.822 Y278.499
G01 X325.428 Y276.130
G01 X329.963 Y273.375
G01 X331.553 Y272.303
G01 X337.197 Y269.304
G01 X342.283 Y266.108
G01 X349.334 Y262.353
G01 X355.160 Y258.673
G01 X364.202 Y253.793
G01 X370.183 Y250.000
G01 X370.464 Y244.082
G01 X370.453 Y238.136
G01 X370.183 Y232.653
G01 X370.469 Y226.527
G01 X370.439 Y220.332
G01 X370.183 Y215.306
G01 X370.474 Y208.718
G01 X370.403 Y202.020
G01 X370.183 Y197.959
G01 X370.476 Y190.651
G01 X370.334 Y183.193
G01 X370.183 Y180.612
G01 X363.831 Y176.606
G01 X357.383 Y173.051
G01 X355.160 Y171.939
G01 X349.457 Y168.308
G01 X343.654 Y165.045
G01 X340.137 Y163.265
G01 X334.878 Y159.897
G01 X329.507 Y156.834
G01 X325.114 Y154.592
G01 X320.095 Y151.369
G01 X314.942 Y148.407
G01 X310.092 Y145.918
G01 X300.915 Y150.877
G01 X295.069 Y154.592
G01 X287.879 Y158.428
G01 X282.192 Y162.026
G01 X276.422 Y165.098
G01 X271.461 Y168.222
G01 X266.705 Y170.677
G01 X262.243 Y173.393
G01 X260.731 Y174.417
G01 X256.787 Y176.391
G01 X253.063 Y178.565
G01 X250.000 Y180.612
G01 X250.000 Y247.522
G01 X249.884 Y247.637
G01 X249.779 Y247.758
G01 X249.686 Y247.883
G01 X249.605 Y248.012
G01 X249.535 Y248.143
G01 X249.477 Y248.276
G01 X249.431 Y248.410
G01 X249.397 Y248.544
G01 X249.374 Y248.677
G01 X249.363 Y248.809
G01 X249.363 Y248.938
G01 X249.375 Y249.064
G01 X249.397 Y249.187
G01 X249.429 Y249.304
G01 X249.471 Y249.417
G01 X249.523 Y249.523
G01 X249.584 Y249.623
G01 X249.653 Y249.715
G01 X249.730 Y249.800
G01 X249.814 Y249.876
G01 X249.905 Y249.943
G01 X250.000 Y250.000
G01 X249.964 Y249.978
G01 X249.931 Y249.954
G01 X249.899 Y249.925
G01 X249.871 Y249.894
G01 X249.845 Y249.860
G01 X249.823 Y249.823
G01 X249.804 Y249.783
G01 X249.788 Y249.741
G01 X249.776 Y249.698
G01 X249.768 Y249.652
G01 X249.764 Y249.606
G01 X249.764 Y249.558
G01 X249.768 Y249.509
G01 X249.777 Y249.459
G01 X249.789 Y249.410
G01 X249.806 Y249.360
G01 X249.828 Y249.311
G01 X249.854 Y249.262
G01 X249.884 Y249.215
G01 X249.919 Y249.168
G01 X249.958 Y249.124
G01 X250.001 Y249.081
G01 X250.048 Y249.040
G01 X250.099 Y249.002
G01 X250.154 Y248.967
G01 X250.213 Y248.935
G01 X250.275 Y248.906
G01 X250.340 Y248.881
G01 X250.409 Y248.860
G01 X250.481 Y248.842
G01 X250.555 Y248.830
G01 X250.631 Y248.821
G01 X250.710 Y248.818
G01 X250.790 Y248.820
G01 X250.872 Y248.826
G01 X250.955 Y248.838
G01 X251.039 Y248.855
G01 X251.123 Y248.878
G01 X251.208 Y248.907
G01 X251.293 Y248.941
G01 X251.377 Y248.981
G01 X251.460 Y249.026
G01 X251.542 Y249.078
G01 X251.622 Y249.135
G01 X251.700 Y249.198
G01 X251.776 Y249.266
G01 X251.849 Y249.340
G01 X251.919 Y249.419
G01 X251.986 Y249.504
G01 X252.049 Y249.594
G01 X252.108 Y249.689
G01 X252.162 Y249.789
G01 X252.212 Y249.893
G01 X252.256 Y250.002
G01 X252.295 Y250.115
G01 X252.328 Y250.231
G01 X252.355 Y250.351
G01 X252.376 Y250.475
G01 X252.391 Y250.601
G01 X252.394 Y250.641
G01 X317.023 Y267.959
G01 X320.190 Y265.159
G01 X323.237 Y262.091
G01 X325.785 Y259.197
G01 X329.620 Y255.717
G01 X333.288 Y251.882
G01 X334.546 Y250.436
G01 X339.222 Y246.078
G01 X343.308 Y241.674
G01 X349.146 Y236.222
G01 X353.822 Y231.160
G01 X361.293 Y224.106
G01 X366.088 Y218.894
G01 X364.828 Y213.105
G01 X363.278 Y207.365
G01 X361.598 Y202.138
G01 X360.289 Y196.147
G01 X358.657 Y190.171
G01 X357.109 Y185.383
G01 X355.685 Y178.944
G01 X353.883 Y172.492
G01 X352.619 Y168.627
G01 X351.010 Y161.492
G01 X348.943 Y154.324
G01 X348.129 Y151.871
G01 X340.957 Y149.645
G01 X333.808 Y147.880
G01 X331.373 Y147.381
G01 X324.924 Y145.350
G01 X318.475 Y143.700
G01 X314.617 Y142.891
G01 X308.665 Y140.999
G01 X302.685 Y139.431
G01 X297.862 Y138.402
G01 X292.179 Y136.587
G01 X286.435 Y135.061
G01 X281.106 Y133.912
G01 X273.525 Y141.077
G01 X268.840 Y146.178
G01 X262.888 Y151.745
G01 X258.326 Y156.692
G01 X253.547 Y161.153
G01 X249.564 Y165.454
G01 X245.605 Y169.056
G01 X241.998 Y172.835
G01 X240.803 Y174.215
G01 X237.504 Y177.143
G01 X234.470 Y180.206
G01 X232.041 Y182.977
G01 X249.359 Y247.606
G01 X249.286 Y247.779
G01 X249.229 Y247.952
G01 X249.187 Y248.125
G01 X249.160 Y248.297
G01 X249.148 Y248.467
G01 X249.150 Y248.634
G01 X249.167 Y248.796
G01 X249.197 Y248.953
G01 X249.240 Y249.105
G01 X249.296 Y249.249
G01 X249.364 Y249.385
G01 X249.444 Y249.512
G01 X249.534 Y249.630
G01 X249.634 Y249.738
G01 X249.744 Y249.835
G01 X249.861 Y249.920
G01 X249.986 Y249.993
G01 X250.000 Y250.000
G01 X249.960 Y249.977
G01 X249.923 Y249.951
G01 X249.889 Y249.921
G01 X249.857 Y249.888
G01 X249.828 Y249.851
G01 X249.803 Y249.811
G01 X249.781 Y249.769
G01 X249.763 Y249.724
G01 X249.749 Y249.676
G01 X249.739 Y249.627
G01 X249.733 Y249.576
G01 X249.732 Y249.524
G01 X249.736 Y249.471
G01 X249.743 Y249.417
G01 X249.756 Y249.362
G01 X249.774 Y249.308
G01 X249.796 Y249.254
G01 X249.823 Y249.200
G01 X249.855 Y249.147
G01 X249.891 Y249.096
G01 X249.933 Y249.046
G01 X249.978 Y248.999
G01 X250.029 Y248.953
G01 X250.084 Y248.911
G01 X250.143 Y248.871
G01 X250.206 Y248.834
G01 X250.273 Y248.802
G01 X250.344 Y248.773
G01 X250.418 Y248.748
G01 X250.495 Y248.727
G01 X250.576 Y248.712
G01 X250.659 Y248.701
G01 X250.744 Y248.695
G01 X250.832 Y248.695
G01 X250.921 Y248.700
G01 X251.012 Y248.711
G01 X251.104 Y248.728
G01 X251.196 Y248.751
G01 X251.289 Y248.780
G01 X251.382 Y248.815
G01 X251.475 Y248.856
G01 X251.566 Y248.904
G01 X251.657 Y248.958
G01 X251.746 Y249.018
G01 X251.832 Y249.084
G01 X251.917 Y249.157
G01 X251.998 Y249.236
G01 X252.077 Y249.321
G01 X252.151 Y249.411
G01 X252.222 Y249.508
G01 X252.289 Y249.610
G01 X252.350 Y249.717
G01 X252.407 Y249.830
G01 X252.458 Y249.947
G01 X252.478 Y250.000
G01 X319.388 Y250.000
G01 X321.721 Y246.477
G01 X323.871 Y242.724
G01 X325.583 Y239.269
G01 X328.387 Y234.915
G01 X330.938 Y230.262
G01 X331.778 Y228.539
G01 X335.167 Y223.119
G01 X337.974 Y217.808
G01 X342.202 Y211.031
G01 X345.408 Y204.931
G01 X350.799 Y196.184
G01 X354.082 Y189.908
G01 X351.366 Y184.643
G01 X348.384 Y179.499
G01 X345.408 Y174.886
G01 X342.592 Y169.438
G01 X339.470 Y164.087
G01 X336.735 Y159.863
G01 X333.693 Y154.012
G01 X330.282 Y148.246
G01 X328.061 Y144.840
G01 X324.661 Y138.365
G01 X320.809 Y131.976
G01 X319.388 Y129.817
G01 X311.884 Y129.523
G01 X304.521 Y129.669
G01 X302.041 Y129.817
G01 X295.286 Y129.524
G01 X288.629 Y129.599
G01 X284.694 Y129.817
G01 X278.455 Y129.530
G01 X272.272 Y129.563
G01 X267.347 Y129.817
G01 X261.389 Y129.535
G01 X255.445 Y129.547
G01 X250.000 Y129.817
G01 X244.532 Y138.699
G01 X241.327 Y144.840
G01 X237.018 Y151.757
G01 X233.892 Y157.717
G01 X230.431 Y163.262
G01 X227.697 Y168.447
G01 X224.805 Y172.952
G01 X222.299 Y177.535
G01 X221.501 Y179.178
G01 X219.073 Y182.860
G01 X216.935 Y186.604
G01 X215.306 Y189.908
G01 X248.761 Y247.854
G01 X248.769 Y248.091
G01 X248.797 Y248.321
G01 X248.844 Y248.544
G01 X248.910 Y248.757
G01 X248.994 Y248.960
G01 X249.095 Y249.152
G01 X249.211 Y249.331
G01 X249.343 Y249.496
G01 X249.489 Y249.646
G01 X249.647 Y249.781
G01 X249.817 Y249.899
G01 X249.998 Y249.999
G01 X250.000 Y250.000
G01 X249.956 Y249.976
G01 X249.915 Y249.947
G01 X249.876 Y249.914
G01 X249.841 Y249.878
G01 X249.808 Y249.838
G01 X249.780 Y249.794
G01 X249.755 Y249.748
G01 X249.735 Y249.698
G01 X249.719 Y249.646
G01 X249.707 Y249.592
G01 X249.700 Y249.536
G01 X249.698 Y249.478
G01 X249.701 Y249.419
G01 X249.709 Y249.360
G01 X249.723 Y249.300
G01 X249.741 Y249.239
G01 X249.765 Y249.179
G01 X249.794 Y249.120
G01 X249.829 Y249.061
G01 X249.868 Y249.004
G01 X249.913 Y248.949
G01 X249.963 Y248.896
G01 X250.018 Y248.845
G01 X250.078 Y248.797
G01 X250.143 Y248.753
G01 X250.212 Y248.712
G01 X250.285 Y248.674
G01 X250.363 Y248.642
G01 X250.445 Y248.613
G01 X250.530 Y248.590
G01 X250.618 Y248.571
G01 X250.710 Y248.558
G01 X250.804 Y248.551
G01 X250.901 Y248.549
G01 X250.999 Y248.554
G01 X251.100 Y248.565
G01 X251.201 Y248.582
G01 X251.304 Y248.606
G01 X251.407 Y248.637
G01 X251.509 Y248.675
G01 X251.612 Y248.719
G01 X251.714 Y248.770
G01 X251.814 Y248.829
G01 X251.913 Y248.894
G01 X252.010 Y248.966
G01 X252.104 Y249.045
G01 X252.195 Y249.131
G01 X252.282 Y249.224
G01 X252.366 Y249.323
G01 X252.394 Y249.359
G01 X317.023 Y232.041
G01 X318.366 Y228.034
G01 X319.471 Y223.853
G01 X320.230 Y220.073
G01 X321.812 Y215.141
G01 X323.071 Y209.986
G01 X323.437 Y208.104
G01 X325.308 Y201.992
G01 X326.644 Y196.136
G01 X328.974 Y188.495
G01 X330.493 Y181.774
G01 X333.436 Y171.929
G01 X334.982 Y165.018
G01 X330.996 Y160.634
G01 X326.784 Y156.438
G01 X322.716 Y152.752
G01 X318.586 Y148.218
G01 X314.185 Y143.858
G01 X310.450 Y140.485
G01 X305.998 Y135.621
G01 X301.211 Y130.935
G01 X298.184 Y128.219
G01 X293.223 Y122.845
G01 X287.849 Y117.671
G01 X285.918 Y115.953
G01 X278.593 Y117.611
G01 X271.520 Y119.658
G01 X269.162 Y120.443
G01 X262.561 Y121.908
G01 X256.151 Y123.704
G01 X252.406 Y124.933
G01 X246.305 Y126.270
G01 X240.342 Y127.902
G01 X235.650 Y129.422
G01 X229.822 Y130.692
G01 X224.084 Y132.242
G01 X218.894 Y133.912
G01 X215.912 Y143.907
G01 X214.405 Y150.668
G01 X212.033 Y158.464
G01 X210.556 Y165.030
G01 X208.649 Y171.283
G01 X207.349 Y176.999
G01 X205.722 Y182.098
G01 X204.488 Y187.174
G01 X204.142 Y188.967
G01 X202.750 Y193.152
G01 X201.654 Y197.322
G01 X200.935 Y200.935
G01 X248.248 Y248.248
G01 X248.453 Y248.598
G01 X248.689 Y248.924
G01 X248.952 Y249.222
G01 X249.240 Y249.492
G01 X249.551 Y249.731
G01 X249.883 Y249.938
G01 X250.000 Y250.000
G01 X249.951 Y249.972
G01 X249.905 Y249.939
G01 X249.862 Y249.901
G01 X249.822 Y249.859
G01 X249.787 Y249.813
G01 X249.755 Y249.763
G01 X249.728 Y249.710
G01 X249.706 Y249.654
G01 X249.689 Y249.595
G01 X249.677 Y249.534
G01 X249.670 Y249.470
G01 X249.669 Y249.405
G01 X249.674 Y249.338
G01 X249.684 Y249.271
G01 X249.700 Y249.203
G01 X249.722 Y249.136
G01 X249.750 Y249.068
G01 X249.784 Y249.002
G01 X249.824 Y248.936
G01 X249.870 Y248.873
G01 X249.922 Y248.811
G01 X249.979 Y248.752
G01 X250.042 Y248.696
G01 X250.111 Y248.643
G01 X250.185 Y248.593
G01 X250.264 Y248.548
G01 X250.347 Y248.508
G01 X250.436 Y248.472
G01 X250.529 Y248.442
G01 X250.625 Y248.417
G01 X250.726 Y248.398
G01 X250.829 Y248.385
G01 X250.936 Y248.378
G01 X251.045 Y248.378
G01 X251.156 Y248.385
G01 X251.269 Y248.400
G01 X251.384 Y248.421
G01 X251.499 Y248.450
G01 X251.615 Y248.487
G01 X251.730 Y248.531
G01 X251.845 Y248.583
G01 X251.959 Y248.643
G01 X252.072 Y248.711
G01 X252.146 Y248.761
G01 X310.092 Y215.306
G01 X310.351 Y211.088
G01 X310.336 Y206.764
G01 X310.092 Y202.915
G01 X310.343 Y197.743
G01 X310.225 Y192.437
G01 X310.092 Y190.525
G01 X310.316 Y184.137
G01 X310.092 Y178.134
G01 X310.365 Y170.151
G01 X310.092 Y163.265
G01 X310.386 Y152.994
G01 X310.092 Y145.918
G01 X305.107 Y142.716
G01 X299.952 Y139.753
G01 X295.069 Y137.245
G01 X289.906 Y133.935
G01 X284.527 Y130.862
G01 X280.046 Y128.571
G01 X274.486 Y125.025
G01 X268.650 Y121.737
G01 X265.023 Y119.898
G01 X258.840 Y115.990
G01 X252.310 Y112.384
G01 X250.000 Y111.224
G01 X243.354 Y114.722
G01 X237.051 Y118.529
G01 X234.977 Y119.898
G01 X228.981 Y123.022
G01 X223.253 Y126.415
G01 X219.954 Y128.571
G01 X214.408 Y131.442
G01 X209.069 Y134.562
G01 X204.931 Y137.245
G01 X199.631 Y139.980
G01 X194.489 Y142.963
G01 X189.908 Y145.918
G01 X189.614 Y156.345
G01 X189.908 Y163.265
G01 X189.636 Y171.410
G01 X189.908 Y178.134
G01 X189.684 Y184.667
G01 X189.908 Y190.525
G01 X189.656 Y195.872
G01 X189.778 Y201.094
G01 X189.908 Y202.915
G01 X189.646 Y207.318
G01 X189.667 Y211.630
G01 X189.908 Y215.306
G01 X250.000 Y250.000
G01 X249.944 Y249.963
G01 X249.892 Y249.922
G01 X249.844 Y249.875
G01 X249.801 Y249.823
G01 X249.762 Y249.767
G01 X249.729 Y249.706
G01 X249.701 Y249.642
G01 X249.678 Y249.575
G01 X249.662 Y249.504
G01 X249.652 Y249.432
G01 X249.649 Y249.357
G01 X249.651 Y249.280
G01 X249.661 Y249.203
G01 X249.678 Y249.125
G01 X249.701 Y249.046
G01 X249.731 Y248.968
G01 X249.769 Y248.891
G01 X249.813 Y248.815
G01 X249.864 Y248.741
G01 X249.922 Y248.669
G01 X249.987 Y248.601
G01 X250.058 Y248.535
G01 X250.136 Y248.473
G01 X250.220 Y248.416
G01 X250.310 Y248.363
G01 X250.405 Y248.316
G01 X250.506 Y248.273
G01 X250.612 Y248.237
G01 X250.723 Y248.208
G01 X250.838 Y248.185
G01 X250.957 Y248.169
G01 X251.079 Y248.161
G01 X251.205 Y248.160
G01 X251.333 Y248.168
G01 X251.463 Y248.184
G01 X251.595 Y248.208
G01 X251.727 Y248.241
G01 X251.752 Y248.248
G01 X299.065 Y200.935
G01 X298.223 Y196.794
G01 X297.090 Y192.621
G01 X295.858 Y188.967
G01 X294.761 Y183.905
G01 X293.274 Y178.811
G01 X292.651 Y176.999
G01 X291.214 Y170.770
G01 X289.444 Y165.030
G01 X287.641 Y157.248
G01 X285.595 Y150.668
G01 X283.222 Y140.671
G01 X281.106 Y133.912
G01 X275.462 Y132.109
G01 X269.716 Y130.581
G01 X264.350 Y129.422
G01 X258.507 Y127.561
G01 X252.515 Y125.986
G01 X247.594 Y124.933
G01 X241.306 Y122.946
G01 X234.817 Y121.281
G01 X230.838 Y120.443
G01 X223.855 Y118.269
G01 X216.614 Y116.475
G01 X214.082 Y115.953
G01 X208.568 Y121.052
G01 X203.465 Y126.361
G01 X201.816 Y128.219
G01 X196.832 Y132.789
G01 X192.179 Y137.549
G01 X189.550 Y140.485
G01 X184.935 Y144.694
G01 X180.587 Y149.089
G01 X177.284 Y152.752
G01 X172.872 Y156.765
G01 X168.677 Y160.977
G01 X165.018 Y165.018
G01 X167.432 Y175.165
G01 X169.507 Y181.774
G01 X171.352 Y189.711
G01 X173.356 Y196.136
G01 X174.830 Y202.504
G01 X176.563 Y208.104
G01 X177.703 Y213.334
G01 X179.172 Y218.347
G01 X179.770 Y220.073
G01 X180.656 Y224.393
G01 X181.792 Y228.552
G01 X182.977 Y232.041
G01 X247.606 Y249.359
G01 X247.964 Y249.346
G01 X248.316 Y249.366
G01 X248.660 Y249.419
G01 X248.994 Y249.504
G01 X249.316 Y249.620
G01 X249.624 Y249.766
G01 X249.915 Y249.941
G01 X250.000 Y250.000
G01 X249.935 Y249.949
G01 X249.876 Y249.891
G01 X249.822 Y249.828
G01 X249.774 Y249.759
G01 X249.733 Y249.686
G01 X249.698 Y249.608
G01 X249.671 Y249.525
G01 X249.651 Y249.440
G01 X249.638 Y249.351
G01 X249.634 Y249.260
G01 X249.638 Y249.168
G01 X249.650 Y249.074
G01 X249.670 Y248.979
G01 X249.699 Y248.884
G01 X249.737 Y248.790
G01 X249.783 Y248.697
G01 X249.838 Y248.606
G01 X249.901 Y248.518
G01 X249.972 Y248.432
G01 X250.052 Y248.350
G01 X250.139 Y248.272
G01 X250.235 Y248.200
G01 X250.337 Y248.132
G01 X250.447 Y248.070
G01 X250.564 Y248.015
G01 X250.687 Y247.967
G01 X250.816 Y247.927
G01 X250.951 Y247.894
G01 X251.091 Y247.870
G01 X251.235 Y247.854
G01 X251.239 Y247.854
G01 X284.694 Y189.908
G01 X282.809 Y186.126
G01 X280.634 Y182.388
G01 X278.499 Y179.178
G01 X276.130 Y174.572
G01 X273.375 Y170.037
G01 X272.303 Y168.447
G01 X269.304 Y162.803
G01 X266.108 Y157.717
G01 X262.353 Y150.666
G01 X258.673 Y144.840
G01 X253.793 Y135.798
G01 X250.000 Y129.817
G01 X244.082 Y129.536
G01 X238.136 Y129.547
G01 X232.653 Y129.817
G01 X226.527 Y129.531
G01 X220.332 Y129.561
G01 X215.306 Y129.817
G01 X208.718 Y129.526
G01 X202.020 Y129.597
G01 X197.959 Y129.817
G01 X190.651 Y129.524
G01 X183.193 Y129.666
G01 X180.612 Y129.817
G01 X176.606 Y136.169
G01 X173.051 Y142.617
G01 X171.939 Y144.840
G01 X168.308 Y150.543
G01 X165.045 Y156.346
G01 X163.265 Y159.863
G01 X159.897 Y165.122
G01 X156.834 Y170.493
G01 X154.592 Y174.886
G01 X151.369 Y179.905
G01 X148.407 Y185.058
G01 X145.918 Y189.908
G01 X150.877 Y199.085
G01 X154.592 Y204.931
G01 X158.428 Y212.121
G01 X162.026 Y217.808
G01 X165.098 Y223.578
G01 X168.222 Y228.539
G01 X170.677 Y233.295
G01 X173.393 Y237.757
G01 X174.417 Y239.269
G01 X176.391 Y243.213
G01 X178.565 Y246.937
G01 X180.612 Y250.000
G01 X247.522 Y250.000
G01 X247.689 Y249.886
G01 X247.862 Y249.789
G01 X248.038 Y249.709
G01 X248.216 Y249.645
G01 X248.395 Y249.598
G01 X248.574 Y249.568
G01 X248.752 Y249.554
G01 X248.928 Y249.556
G01 X249.100 Y249.574
G01 X249.267 Y249.608
G01 X249.429 Y249.658
G01 X249.583 Y249.721
G01 X249.730 Y249.799
G01 X249.867 Y249.891
G01 X249.995 Y249.995
G01 X250.000 Y250.000
G01 X249.922 Y249.921
G01 X249.851 Y249.835
G01 X249.789 Y249.742
G01 X249.736 Y249.642
G01 X249.692 Y249.537
G01 X249.658 Y249.427
G01 X249.635 Y249.313
G01 X249.621 Y249.195
G01 X249.619 Y249.075
G01 X249.628 Y248.952
G01 X249.648 Y248.829
G01 X249.679 Y248.705
G01 X249.721 Y248.582
G01 X249.775 Y248.460
G01 X249.840 Y248.340
G01 X249.917 Y248.223
G01 X250.004 Y248.110
G01 X250.103 Y248.001
G01 X250.212 Y247.898
G01 X250.331 Y247.801
G01 X250.460 Y247.711
G01 X250.599 Y247.629
G01 X250.641 Y247.606
G01 X267.959 Y182.977
G01 X265.159 Y179.810
G01 X262.091 Y176.763
G01 X259.197 Y174.215
G01 X255.717 Y170.380
G01 X251.882 Y166.712
G01 X250.436 Y165.454
G01 X246.078 Y160.778
G01 X241.674 Y156.692
G01 X236.222 Y150.854
G01 X231.160 Y146.178
G01 X224.106 Y138.707
G01 X218.894 Y133.912
G01 X213.105 Y135.172
G01 X207.365 Y136.722
G01 X202.138 Y138.402
G01 X196.147 Y139.711
G01 X190.171 Y141.343
G01 X185.383 Y142.891
G01 X178.944 Y144.315
G01 X172.492 Y146.117
G01 X168.627 Y147.381
G01 X161.492 Y148.990
G01 X154.324 Y151.057
G01 X151.871 Y151.871
G01 X149.645 Y159.043
G01 X147.880 Y166.192
G01 X147.381 Y168.627
G01 X145.350 Y175.076
G01 X143.700 Y181.525
G01 X142.891 Y185.383
G01 X140.999 Y191.335
G01 X139.431 Y197.315
G01 X138.402 Y202.138
G01 X136.587 Y207.821
G01 X135.061 Y213.565
G01 X133.912 Y218.894
G01 X141.077 Y226.475
G01 X146.178 Y231.160
G01 X151.745 Y237.112
G01 X156.692 Y241.674
G01 X161.153 Y246.453
G01 X165.454 Y250.436
