;  Created by Sandify
;  https://sandify.org
;  Version: 0.2.6
;
;  Machine type: Rectangular
;    Min X (mm): 0
;    Max X (mm): 500
;    Min Y (mm): 0
;    Max Y (mm): 500
;  Content type: shape
;  Layer:
;    Shape: FileImport
;    Name: dither_hypnogrid.thr
;    From file:: dither_hypnogrid.thr
;    Aspect Ratio: true
;    Comments: 
;    Visible: true
;    Initial width: 10
;    Initial height: 10
;    X offset: 0
;    Y offset: 0
;    Rotate (degrees): 0
;    Reverse path: false
;    Fine tuning:
;      Connect to next layer: line
;      Draw portion of path (%): 100
;      Backtrack at end (%): 0
;      Rotate starting point (%): 0
;  Reverse export path: false
;
; File name: 'hyptnogrid (E) (C SW)'
; File type: gcode
;

G01 X250.000 Y250.000
G01 X250.001 Y250.015
G01 X250.003 Y250.030
G01 X250.007 Y250.044
G01 X250.012 Y250.058
G01 X250.018 Y250.072
G01 X250.026 Y250.085
G01 X250.035 Y250.098
G01 X250.045 Y250.110
G01 X250.057 Y250.121
G01 X250.070 Y250.131
G01 X250.084 Y250.140
G01 X250.099 Y250.148
G01 X250.115 Y250.155
G01 X250.132 Y250.160
G01 X250.149 Y250.165
G01 X250.168 Y250.168
G01 X250.187 Y250.169
G01 X250.206 Y250.169
G01 X250.226 Y250.168
G01 X250.247 Y250.165
G01 X250.267 Y250.160
G01 X250.288 Y250.154
G01 X250.308 Y250.146
G01 X250.329 Y250.136
G01 X250.349 Y250.125
G01 X250.367 Y250.113
G01 X250.420 Y250.153
G01 X250.469 Y250.197
G01 X250.516 Y250.247
G01 X250.558 Y250.302
G01 X250.596 Y250.362
G01 X250.630 Y250.426
G01 X250.659 Y250.494
G01 X250.682 Y250.566
G01 X250.700 Y250.641
G01 X250.711 Y250.719
G01 X250.717 Y250.800
G01 X250.717 Y250.883
G01 X250.716 Y250.902
G01 X250.707 Y250.987
G01 X250.692 Y251.073
G01 X250.670 Y251.160
G01 X250.641 Y251.247
G01 X250.605 Y251.334
G01 X250.561 Y251.421
G01 X250.556 Y251.430
G01 X250.505 Y251.515
G01 X250.447 Y251.598
G01 X250.382 Y251.679
G01 X250.310 Y251.757
G01 X250.231 Y251.833
G01 X250.146 Y251.904
G01 X250.054 Y251.971
G01 X249.956 Y252.034
G01 X249.852 Y252.092
G01 X249.742 Y252.144
G01 X249.626 Y252.191
G01 X249.506 Y252.231
G01 X249.477 Y252.239
G01 X249.350 Y252.271
G01 X249.219 Y252.296
G01 X249.085 Y252.313
G01 X248.946 Y252.323
G01 X248.805 Y252.324
G01 X248.661 Y252.317
G01 X248.515 Y252.301
G01 X248.367 Y252.276
G01 X248.218 Y252.243
G01 X248.069 Y252.200
G01 X247.920 Y252.147
G01 X247.771 Y252.086
G01 X247.739 Y252.071
G01 X247.593 Y251.998
G01 X247.448 Y251.914
G01 X247.305 Y251.822
G01 X247.166 Y251.720
G01 X247.030 Y251.608
G01 X246.899 Y251.487
G01 X246.886 Y251.475
G01 X246.761 Y251.344
G01 X246.641 Y251.205
G01 X246.527 Y251.056
G01 X246.420 Y250.900
G01 X246.320 Y250.735
G01 X246.228 Y250.562
G01 X246.218 Y250.542
G01 X246.134 Y250.361
G01 X246.060 Y250.174
G01 X245.994 Y249.980
G01 X245.938 Y249.780
G01 X245.893 Y249.575
G01 X245.858 Y249.364
G01 X245.854 Y249.334
G01 X245.830 Y249.118
G01 X245.817 Y248.899
G01 X245.816 Y248.676
G01 X245.827 Y248.450
G01 X245.851 Y248.223
G01 X245.886 Y247.994
G01 X245.892 Y247.964
G01 X245.941 Y247.734
G01 X246.004 Y247.504
G01 X246.079 Y247.275
G01 X246.167 Y247.047
G01 X246.269 Y246.822
G01 X246.383 Y246.599
G01 X246.393 Y246.581
G01 X246.523 Y246.364
G01 X246.665 Y246.151
G01 X246.820 Y245.944
G01 X246.987 Y245.743
G01 X247.167 Y245.548
G01 X247.358 Y245.361
G01 X247.371 Y245.349
G01 X247.576 Y245.173
G01 X247.792 Y245.006
G01 X248.019 Y244.849
G01 X248.256 Y244.702
G01 X248.502 Y244.566
G01 X248.758 Y244.442
G01 X248.787 Y244.429
G01 X249.052 Y244.317
G01 X249.325 Y244.218
G01 X249.606 Y244.133
G01 X249.893 Y244.061
G01 X250.186 Y244.004
G01 X250.485 Y243.961
G01 X250.537 Y243.955
G01 X250.842 Y243.926
G01 X251.151 Y243.913
G01 X251.463 Y243.915
G01 X251.777 Y243.933
G01 X252.094 Y243.968
G01 X252.411 Y244.019
G01 X252.462 Y244.029
G01 X252.779 Y244.098
G01 X253.096 Y244.184
G01 X253.411 Y244.287
G01 X253.724 Y244.407
G01 X254.033 Y244.544
G01 X254.337 Y244.698
G01 X254.358 Y244.709
G01 X254.654 Y244.885
G01 X254.942 Y245.076
G01 X255.223 Y245.284
G01 X255.496 Y245.507
G01 X255.759 Y245.746
G01 X256.011 Y246.000
G01 X256.016 Y246.004
G01 X256.251 Y246.277
G01 X256.475 Y246.562
G01 X256.685 Y246.861
G01 X256.882 Y247.172
G01 X257.064 Y247.495
G01 X257.230 Y247.829
G01 X257.244 Y247.858
G01 X257.394 Y248.203
G01 X257.527 Y248.558
G01 X257.643 Y248.921
G01 X257.741 Y249.292
G01 X257.822 Y249.671
G01 X257.883 Y250.055
G01 X257.894 Y250.136
G01 X257.940 Y250.527
G01 X257.968 Y250.923
G01 X257.975 Y251.323
G01 X257.962 Y251.726
G01 X257.929 Y252.131
G01 X257.875 Y252.537
G01 X257.861 Y252.625
G01 X257.787 Y253.033
G01 X257.691 Y253.439
G01 X257.575 Y253.844
G01 X257.437 Y254.245
G01 X257.278 Y254.642
G01 X257.098 Y255.033
G01 X257.083 Y255.064
G01 X256.875 Y255.444
G01 X256.646 Y255.816
G01 X256.398 Y256.179
G01 X256.130 Y256.531
G01 X255.842 Y256.871
G01 X255.548 Y257.187
G01 X255.217 Y257.491
G01 X254.869 Y257.780
G01 X254.505 Y258.052
G01 X254.127 Y258.308
G01 X253.734 Y258.545
G01 X253.328 Y258.764
G01 X253.315 Y258.771
G01 X252.895 Y258.967
G01 X252.463 Y259.144
G01 X252.022 Y259.300
G01 X251.571 Y259.434
G01 X251.111 Y259.546
G01 X250.645 Y259.636
G01 X250.538 Y259.653
G01 X250.064 Y259.729
G01 X249.584 Y259.782
G01 X249.099 Y259.810
G01 X248.611 Y259.815
G01 X248.119 Y259.795
G01 X247.626 Y259.750
G01 X247.481 Y259.732
G01 X246.984 Y259.668
G01 X246.488 Y259.578
G01 X245.993 Y259.463
G01 X245.501 Y259.323
G01 X245.013 Y259.156
G01 X244.531 Y258.965
G01 X244.474 Y258.940
G01 X244.004 Y258.714
G01 X243.543 Y258.463
G01 X243.091 Y258.188
G01 X242.652 Y257.888
G01 X242.225 Y257.565
G01 X241.850 Y257.252
G01 X241.470 Y256.871
G01 X241.107 Y256.470
G01 X240.764 Y256.050
G01 X240.440 Y255.612
G01 X240.137 Y255.156
G01 X239.871 Y254.712
G01 X239.620 Y254.222
G01 X239.392 Y253.719
G01 X239.189 Y253.204
G01 X239.011 Y252.678
G01 X238.858 Y252.142
G01 X238.732 Y251.598
G01 X238.708 Y251.480
G01 X238.594 Y250.928
G01 X238.508 Y250.369
G01 X238.449 Y249.804
G01 X238.418 Y249.234
G01 X238.415 Y248.660
G01 X238.440 Y248.085
G01 X238.458 Y247.862
G01 X238.498 Y247.279
G01 X238.567 Y246.696
G01 X238.667 Y246.112
G01 X238.796 Y245.531
G01 X238.955 Y244.953
G01 X239.144 Y244.380
G01 X239.185 Y244.266
G01 X239.412 Y243.703
G01 X239.669 Y243.148
G01 X239.955 Y242.603
G01 X240.269 Y242.069
G01 X240.612 Y241.549
G01 X240.934 Y241.107
G01 X241.353 Y240.642
G01 X241.796 Y240.197
G01 X242.262 Y239.773
G01 X242.750 Y239.372
G01 X243.258 Y238.993
G01 X243.694 Y238.698
G01 X244.248 Y238.385
G01 X244.817 Y238.099
G01 X245.401 Y237.841
G01 X245.997 Y237.612
G01 X246.605 Y237.412
G01 X247.222 Y237.242
G01 X247.321 Y237.218
G01 X247.945 Y237.060
G01 X248.577 Y236.932
G01 X249.218 Y236.836
G01 X249.864 Y236.770
G01 X250.515 Y236.737
G01 X251.169 Y236.736
G01 X251.479 Y236.747
G01 X252.142 Y236.751
G01 X252.807 Y236.788
G01 X253.474 Y236.859
G01 X254.140 Y236.964
G01 X254.805 Y237.103
G01 X255.465 Y237.276
G01 X255.679 Y237.339
G01 X256.336 Y237.549
G01 X256.986 Y237.793
G01 X257.628 Y238.071
G01 X258.258 Y238.383
G01 X258.877 Y238.729
G01 X259.407 Y239.058
G01 X259.964 Y239.500
G01 X260.500 Y239.970
G01 X261.014 Y240.468
G01 X261.504 Y240.991
G01 X261.970 Y241.540
G01 X262.280 Y241.939
G01 X262.661 Y242.551
G01 X263.013 Y243.180
G01 X263.333 Y243.827
G01 X263.620 Y244.488
G01 X263.875 Y245.162
G01 X264.097 Y245.849
G01 X264.106 Y245.880
G01 X264.314 Y246.572
G01 X264.487 Y247.274
G01 X264.625 Y247.985
G01 X264.729 Y248.703
G01 X264.797 Y249.427
G01 X264.830 Y250.154
G01 X264.833 Y250.542
G01 X264.873 Y251.277
G01 X264.876 Y252.016
G01 X264.843 Y252.759
G01 X264.772 Y253.504
G01 X264.664 Y254.248
G01 X264.518 Y254.990
G01 X264.432 Y255.355
G01 X264.257 Y256.102
G01 X264.043 Y256.844
G01 X263.791 Y257.580
G01 X263.500 Y258.308
G01 X263.171 Y259.025
G01 X262.829 Y259.685
G01 X262.384 Y260.340
G01 X261.905 Y260.976
G01 X261.394 Y261.589
G01 X260.851 Y262.179
G01 X260.278 Y262.743
G01 X259.934 Y263.055
G01 X259.273 Y263.513
G01 X258.590 Y263.938
G01 X257.888 Y264.329
G01 X257.168 Y264.684
G01 X256.433 Y265.003
G01 X255.778 Y265.253
G01 X255.020 Y265.512
G01 X254.252 Y265.734
G01 X253.473 Y265.918
G01 X252.687 Y266.064
G01 X251.895 Y266.170
G01 X251.099 Y266.238
G01 X250.670 Y266.258
G01 X249.871 Y266.347
G01 X249.065 Y266.396
G01 X248.253 Y266.405
G01 X247.439 Y266.374
G01 X246.623 Y266.302
G01 X245.809 Y266.189
G01 X245.248 Y266.088
G01 X244.419 Y265.964
G01 X243.592 Y265.797
G01 X242.767 Y265.587
G01 X241.948 Y265.333
G01 X241.136 Y265.037
G01 X240.334 Y264.698
G01 X240.283 Y264.674
G01 X239.523 Y264.249
G01 X238.782 Y263.785
G01 X238.062 Y263.282
G01 X237.364 Y262.741
G01 X236.690 Y262.164
G01 X236.376 Y261.874
G01 X235.832 Y261.174
G01 X235.323 Y260.450
G01 X234.851 Y259.702
G01 X234.417 Y258.933
G01 X234.022 Y258.145
G01 X233.784 Y257.618
G01 X233.469 Y256.797
G01 X233.195 Y255.964
G01 X232.962 Y255.120
G01 X232.773 Y254.267
G01 X232.625 Y253.409
G01 X232.520 Y252.546
G01 X232.486 Y252.147
G01 X232.348 Y251.289
G01 X232.252 Y250.423
G01 X232.199 Y249.550
G01 X232.189 Y248.673
G01 X232.222 Y247.794
G01 X232.298 Y246.915
G01 X232.403 Y246.136
G01 X232.466 Y245.237
G01 X232.575 Y244.335
G01 X232.731 Y243.432
G01 X232.934 Y242.531
G01 X233.184 Y241.635
G01 X233.481 Y240.745
G01 X233.570 Y240.504
G01 X233.950 Y239.641
G01 X234.375 Y238.792
G01 X234.845 Y237.961
G01 X235.360 Y237.148
G01 X235.917 Y236.358
G01 X236.176 Y236.017
G01 X236.897 Y235.376
G01 X237.647 Y234.771
G01 X238.425 Y234.205
G01 X239.228 Y233.678
G01 X240.056 Y233.192
G01 X240.404 Y233.004
G01 X241.287 Y232.628
G01 X242.183 Y232.298
G01 X243.091 Y232.014
G01 X244.008 Y231.776
G01 X244.932 Y231.585
G01 X245.860 Y231.440
G01 X246.129 Y231.407
G01 X247.043 Y231.220
G01 X247.966 Y231.079
G01 X248.895 Y230.982
G01 X249.830 Y230.932
G01 X250.766 Y230.927
G01 X251.703 Y230.969
G01 X252.637 Y231.056
G01 X252.686 Y231.062
G01 X253.643 Y231.060
G01 X254.605 Y231.106
G01 X255.572 Y231.202
G01 X256.541 Y231.348
G01 X257.508 Y231.543
G01 X258.472 Y231.789
G01 X259.009 Y231.949
G01 X259.970 Y232.259
G01 X260.922 Y232.621
G01 X261.863 Y233.034
G01 X262.789 Y233.497
G01 X263.698 Y234.011
G01 X264.126 Y234.275
G01 X264.877 Y234.991
G01 X265.591 Y235.743
G01 X266.267 Y236.529
G01 X266.903 Y237.347
G01 X267.499 Y238.195
G01 X267.595 Y238.341
G01 X268.037 Y239.283
G01 X268.430 Y240.241
G01 X268.772 Y241.210
G01 X269.064 Y242.190
G01 X269.305 Y243.177
G01 X269.495 Y244.169
G01 X269.498 Y244.187
G01 X269.731 Y245.158
G01 X269.916 Y246.138
G01 X270.052 Y247.124
G01 X270.140 Y248.114
G01 X270.179 Y249.106
G01 X270.169 Y250.097
G01 X270.110 Y251.085
G01 X270.098 Y251.219
G01 X270.164 Y252.220
G01 X270.179 Y253.230
G01 X270.144 Y254.248
G01 X270.056 Y255.269
G01 X269.917 Y256.292
G01 X269.726 Y257.314
G01 X269.505 Y258.244
G01 X269.282 Y259.290
G01 X269.003 Y260.334
G01 X268.668 Y261.372
G01 X268.277 Y262.403
G01 X267.828 Y263.422
G01 X267.521 Y264.047
G01 X266.842 Y264.917
G01 X266.119 Y265.754
G01 X265.354 Y266.556
G01 X264.549 Y267.321
G01 X263.742 Y268.017
G01 X262.749 Y268.535
G01 X261.738 Y268.999
G01 X260.713 Y269.409
G01 X259.676 Y269.764
G01 X258.630 Y270.065
G01 X257.930 Y270.235
G01 X256.898 Y270.512
G01 X255.858 Y270.737
G01 X254.813 Y270.910
G01 X253.765 Y271.030
G01 X252.717 Y271.098
G01 X251.671 Y271.114
G01 X250.630 Y271.079
G01 X250.570 Y271.075
G01 X249.535 Y271.104
G01 X248.498 Y271.082
G01 X247.462 Y271.008
G01 X246.782 Y270.932
G01 X245.716 Y270.961
G01 X244.639 Y270.935
G01 X243.554 Y270.854
G01 X242.994 Y270.790
G01 X241.884 Y270.674
G01 X240.767 Y270.498
G01 X239.649 Y270.262
G01 X238.532 Y269.965
G01 X237.420 Y269.607
G01 X236.594 Y269.299
G01 X235.576 Y268.731
G01 X234.582 Y268.109
G01 X233.615 Y267.435
G01 X232.676 Y266.709
G01 X232.113 Y266.235
G01 X231.461 Y265.237
G01 X230.864 Y264.214
G01 X230.322 Y263.169
G01 X229.836 Y262.106
G01 X229.490 Y261.248
G01 X229.140 Y260.142
G01 X228.849 Y259.029
G01 X228.616 Y257.912
G01 X228.442 Y256.794
G01 X228.325 Y255.678
G01 X228.266 Y254.567
G01 X228.263 Y254.478
G01 X228.163 Y253.391
G01 X228.117 Y252.306
G01 X228.125 Y251.224
G01 X228.151 Y250.652
G01 X228.052 Y249.578
G01 X228.005 Y248.495
G01 X228.013 Y247.407
G01 X228.039 Y246.827
G01 X227.991 Y245.709
G01 X228.000 Y244.578
G01 X228.068 Y243.438
G01 X228.196 Y242.291
G01 X228.383 Y241.142
G01 X228.632 Y239.992
G01 X228.716 Y239.657
G01 X228.972 Y238.473
G01 X229.294 Y237.290
G01 X229.681 Y236.111
G01 X230.136 Y234.940
G01 X230.524 Y234.060
G01 X231.290 Y233.088
G01 X232.104 Y232.152
G01 X232.966 Y231.256
G01 X233.872 Y230.401
G01 X233.893 Y230.383
G01 X235.025 Y229.819
G01 X236.174 Y229.318
G01 X237.335 Y228.881
G01 X238.506 Y228.508
G01 X239.141 Y228.333
G01 X240.306 Y228.028
G01 X241.475 Y227.785
G01 X242.644 Y227.603
G01 X243.811 Y227.482
G01 X244.971 Y227.421
G01 X246.057 Y227.418
G01 X247.180 Y227.332
G01 X248.302 Y227.302
G01 X249.420 Y227.327
G01 X249.887 Y227.354
G01 X251.003 Y227.268
G01 X252.127 Y227.238
G01 X253.257 Y227.263
G01 X253.717 Y227.290
G01 X254.883 Y227.236
G01 X256.064 Y227.243
G01 X257.255 Y227.311
G01 X258.454 Y227.442
G01 X259.658 Y227.636
G01 X260.822 Y227.885
G01 X262.076 Y228.114
G01 X263.332 Y228.413
G01 X264.589 Y228.784
G01 X265.840 Y229.226
G01 X266.360 Y229.433
G01 X267.423 Y230.176
G01 X268.453 Y230.975
G01 X269.445 Y231.827
G01 X270.022 Y232.363
G01 X270.648 Y233.538
G01 X271.208 Y234.732
G01 X271.701 Y235.940
G01 X272.099 Y237.072
G01 X272.430 Y238.316
G01 X272.694 Y239.561
G01 X272.890 Y240.803
G01 X273.019 Y242.039
G01 X273.083 Y243.265
G01 X273.089 Y243.545
G01 X273.200 Y244.726
G01 X273.252 Y245.902
G01 X273.244 Y247.071
G01 X273.235 Y247.320
G01 X273.343 Y248.463
G01 X273.396 Y249.610
G01 X273.392 Y250.759
G01 X273.380 Y251.096
G01 X273.495 Y252.260
G01 X273.552 Y253.439
G01 X273.549 Y254.629
G01 X273.486 Y255.826
G01 X273.361 Y257.029
G01 X273.175 Y258.233
G01 X273.118 Y258.535
G01 X273.057 Y259.823
G01 X272.924 Y261.126
G01 X272.718 Y262.439
G01 X272.438 Y263.757
G01 X272.183 Y264.728
G01 X271.711 Y266.003
G01 X271.166 Y267.266
G01 X270.548 Y268.514
G01 X270.225 Y269.109
G01 X269.189 Y270.001
G01 X268.114 Y270.838
G01 X267.004 Y271.618
G01 X266.775 Y271.768
G01 X265.455 Y272.233
G01 X264.131 Y272.621
G01 X262.807 Y272.934
G01 X261.525 Y273.166
G01 X260.253 Y273.427
G01 X258.984 Y273.620
G01 X257.721 Y273.745
G01 X256.467 Y273.804
G01 X255.227 Y273.798
G01 X254.665 Y273.774
G01 X253.476 Y273.858
G01 X252.289 Y273.882
G01 X251.109 Y273.848
G01 X250.844 Y273.832
G01 X249.673 Y273.915
G01 X248.495 Y273.940
G01 X247.314 Y273.907
G01 X247.023 Y273.890
G01 X245.806 Y273.991
G01 X244.573 Y274.029
G01 X243.325 Y274.003
G01 X242.067 Y273.912
G01 X240.803 Y273.754
G01 X239.790 Y273.581
G01 X238.426 Y273.496
G01 X237.047 Y273.333
G01 X235.656 Y273.090
G01 X234.259 Y272.766
G01 X233.968 Y272.688
G01 X232.645 Y272.166
G01 X231.336 Y271.567
G01 X230.045 Y270.894
G01 X229.963 Y270.848
G01 X229.073 Y269.737
G01 X228.243 Y268.589
G01 X227.588 Y267.589
G01 X227.142 Y266.192
G01 X226.777 Y264.794
G01 X226.495 Y263.400
G01 X226.364 Y262.570
G01 X226.112 Y261.237
G01 X225.933 Y259.910
G01 X225.826 Y258.592
G01 X225.790 Y257.289
G01 X225.822 Y256.002
G01 X225.828 Y255.903
G01 X225.741 Y254.677
G01 X225.715 Y253.456
G01 X225.751 Y252.244
G01 X225.759 Y252.107
G01 X225.673 Y250.916
G01 X225.647 Y249.721
G01 X225.678 Y248.526
G01 X225.690 Y248.312
G01 X225.564 Y247.092
G01 X225.499 Y245.857
G01 X225.498 Y244.608
G01 X225.560 Y243.349
G01 X225.688 Y242.084
G01 X225.862 Y240.924
G01 X225.861 Y239.545
G01 X225.939 Y238.144
G01 X226.098 Y236.727
G01 X226.339 Y235.297
G01 X226.445 Y234.783
G01 X226.786 Y233.333
G01 X227.213 Y231.882
G01 X227.728 Y230.432
G01 X227.736 Y230.411
G01 X228.680 Y229.299
G01 X229.679 Y228.233
G01 X230.182 Y227.733
G01 X231.596 Y227.156
G01 X233.018 Y226.664
G01 X234.229 Y226.311
G01 X235.683 Y226.022
G01 X237.126 Y225.817
G01 X238.555 Y225.695
G01 X239.963 Y225.654
G01 X240.038 Y225.654
G01 X241.336 Y225.456
G01 X242.630 Y225.326
G01 X243.916 Y225.263
G01 X245.190 Y225.266
G01 X246.449 Y225.334
G01 X247.228 Y225.409
G01 X248.441 Y225.344
G01 X249.653 Y225.338
G01 X250.862 Y225.392
G01 X251.053 Y225.406
G01 X252.272 Y225.341
G01 X253.500 Y225.336
G01 X254.734 Y225.393
G01 X254.878 Y225.403
G01 X256.172 Y225.297
G01 X257.489 Y225.259
G01 X258.824 Y225.292
G01 X260.174 Y225.398
G01 X261.534 Y225.577
G01 X261.859 Y225.630
G01 X263.347 Y225.684
G01 X264.857 Y225.825
G01 X266.385 Y226.058
G01 X267.326 Y226.247
G01 X268.803 Y226.714
G01 X270.275 Y227.270
G01 X271.003 Y227.579
G01 X272.012 Y228.700
G01 X272.962 Y229.866
G01 X273.132 Y230.088
G01 X273.606 Y231.617
G01 X273.986 Y233.144
G01 X274.198 Y234.207
G01 X274.442 Y235.706
G01 X274.599 Y237.191
G01 X274.670 Y238.656
G01 X274.659 Y240.069
G01 X274.843 Y241.386
G01 X274.958 Y242.697
G01 X275.005 Y243.998
G01 X274.985 Y245.285
G01 X274.899 Y246.557
G01 X274.821 Y247.279
G01 X274.885 Y248.503
G01 X274.890 Y249.726
G01 X274.834 Y250.946
G01 X274.822 Y251.103
G01 X274.887 Y252.333
G01 X274.890 Y253.573
G01 X274.832 Y254.818
G01 X274.824 Y254.926
G01 X274.944 Y256.236
G01 X274.994 Y257.570
G01 X274.973 Y258.923
G01 X274.878 Y260.292
G01 X274.708 Y261.673
G01 X274.671 Y261.911
G01 X274.665 Y263.438
G01 X274.567 Y264.993
G01 X274.374 Y266.570
G01 X274.235 Y267.402
G01 X273.871 Y268.983
G01 X273.409 Y270.569
G01 X273.228 Y271.112
G01 X272.201 Y272.263
G01 X271.221 Y273.263
G01 X269.661 Y273.801
G01 X268.101 Y274.244
G01 X267.745 Y274.332
G01 X266.140 Y274.580
G01 X264.555 Y274.730
G01 X262.994 Y274.786
G01 X262.531 Y274.784
G01 X261.120 Y274.966
G01 X259.722 Y275.069
G01 X258.341 Y275.097
G01 X256.981 Y275.050
G01 X255.761 Y274.945
G01 X254.498 Y275.015
G01 X253.241 Y275.021
G01 X251.994 Y274.964
G01 X251.960 Y274.962
G01 X250.733 Y275.031
G01 X249.504 Y275.039
G01 X248.275 Y274.987
G01 X248.159 Y274.979
G01 X246.902 Y275.125
G01 X245.627 Y275.207
G01 X244.337 Y275.225
G01 X243.034 Y275.175
G01 X241.723 Y275.058
G01 X240.777 Y274.932
G01 X239.321 Y275.021
G01 X237.834 Y275.026
G01 X236.322 Y274.944
G01 X234.789 Y274.773
G01 X234.590 Y274.745
G01 X232.922 Y274.640
G01 X231.229 Y274.430
G01 X230.123 Y274.237
G01 X228.593 Y273.634
G01 X227.356 Y273.076
G01 X226.466 Y271.739
G01 X225.899 Y270.804
G01 X225.546 Y269.097
G01 X225.301 Y267.408
G01 X225.255 Y266.978
G01 X225.068 Y265.364
G01 X224.978 Y263.773
G01 X224.983 Y262.211
G01 X225.022 Y261.416
G01 X224.856 Y260.031
G01 X224.766 Y258.658
G01 X224.748 Y257.300
G01 X224.803 Y255.962
G01 X224.926 Y254.647
G01 X224.956 Y254.413
G01 X224.890 Y253.163
G01 X224.887 Y251.918
G01 X224.945 Y250.680
G01 X224.952 Y250.591
G01 X224.887 Y249.359
G01 X224.882 Y248.123
G01 X224.939 Y246.884
G01 X224.948 Y246.769
G01 X224.800 Y245.483
G01 X224.720 Y244.175
G01 X224.708 Y242.849
G01 X224.766 Y241.508
G01 X224.895 Y240.155
G01 X224.978 Y239.537
G01 X224.883 Y238.017
G01 X224.879 Y236.464
G01 X224.968 Y234.882
G01 X225.106 Y233.617
G01 X225.195 Y231.871
G01 X225.397 Y230.095
G01 X225.500 Y229.442
G01 X226.085 Y227.845
G01 X226.469 Y226.925
G01 X227.840 Y226.025
G01 X228.461 Y225.650
G01 X230.245 Y225.326
G01 X231.933 Y225.123
G01 X233.629 Y224.961
G01 X235.297 Y224.903
G01 X236.929 Y224.946
G01 X237.136 Y224.959
G01 X238.582 Y224.803
G01 X240.012 Y224.728
G01 X241.421 Y224.732
G01 X242.806 Y224.811
G01 X243.879 Y224.927
G01 X245.156 Y224.862
G01 X246.425 Y224.863
G01 X247.673 Y224.926
G01 X248.907 Y224.862
G01 X250.142 Y224.860
G01 X251.374 Y224.918
G01 X251.467 Y224.925
G01 X252.723 Y224.770
G01 X253.998 Y224.679
G01 X255.289 Y224.654
G01 X256.591 Y224.694
G01 X257.902 Y224.802
G01 X258.887 Y224.927
G01 X260.351 Y224.798
G01 X261.849 Y224.754
G01 X263.375 Y224.797
G01 X264.924 Y224.931
G01 X265.183 Y224.962
G01 X266.934 Y224.938
G01 X268.722 Y225.026
G01 X269.799 Y225.134
G01 X271.610 Y225.436
G01 X272.692 Y225.671
G01 X273.953 Y226.721
G01 X274.212 Y226.950
G01 X274.688 Y228.706
G01 X274.855 Y229.445
G01 X275.016 Y231.300
G01 X275.058 Y233.120
G01 X275.050 Y233.559
G01 X275.185 Y235.185
G01 X275.223 Y236.784
G01 X275.165 Y238.350
G01 X275.075 Y239.386
G01 X275.228 Y240.753
G01 X275.308 Y242.109
G01 X275.317 Y243.450
G01 X275.255 Y244.773
G01 X275.126 Y246.074
G01 X275.063 Y246.543
G01 X275.126 Y247.784
G01 X275.129 Y249.022
G01 X275.070 Y250.256
G01 X275.062 Y250.368
G01 X275.125 Y251.604
G01 X275.128 Y252.847
G01 X275.068 Y254.095
G01 X275.061 Y254.192
G01 X275.215 Y255.502
G01 X275.299 Y256.836
G01 X275.313 Y258.192
G01 X275.253 Y259.566
G01 X275.119 Y260.953
G01 X275.072 Y261.310
G01 X275.195 Y262.889
G01 X275.221 Y264.506
G01 X275.147 Y266.156
G01 X275.065 Y267.062
G01 X275.072 Y268.932
G01 X274.955 Y270.842
G01 X274.933 Y271.066
G01 X274.568 Y272.916
G01 X274.446 Y273.430
G01 X273.233 Y274.566
G01 X273.223 Y274.575
G01 X271.332 Y274.917
G01 X270.790 Y274.993
G01 X268.877 Y275.103
G01 X267.005 Y275.087
G01 X266.744 Y275.075
G01 X265.091 Y275.196
G01 X263.469 Y275.217
G01 X261.881 Y275.140
G01 X260.982 Y275.054
G01 X259.602 Y275.204
G01 X258.235 Y275.279
G01 X256.884 Y275.283
G01 X255.553 Y275.215
G01 X254.245 Y275.079
G01 X253.871 Y275.027
G01 X252.628 Y275.090
G01 X251.388 Y275.092
G01 X250.155 Y275.033
G01 X250.047 Y275.024
G01 X248.815 Y275.088
G01 X247.576 Y275.090
G01 X246.335 Y275.031
G01 X246.223 Y275.022
G01 X244.925 Y275.178
G01 X243.602 Y275.267
G01 X242.259 Y275.285
G01 X240.899 Y275.231
G01 X239.526 Y275.104
G01 X239.047 Y275.043
G01 X237.481 Y275.178
G01 X235.877 Y275.219
G01 X234.240 Y275.161
G01 X233.189 Y275.072
G01 X231.298 Y275.133
G01 X229.361 Y275.067
G01 X229.066 Y275.045
G01 X227.066 Y274.852
G01 X226.609 Y274.789
G01 X225.416 Y273.981
G01 X224.992 Y272.167
G01 X224.908 Y270.132
G01 X224.926 Y268.889
G01 X224.836 Y267.088
G01 X224.861 Y265.325
G01 X224.967 Y263.889
G01 X224.829 Y262.391
G01 X224.777 Y260.913
G01 X224.808 Y259.461
G01 X224.920 Y258.039
G01 X225.008 Y257.317
G01 X224.947 Y256.017
G01 X224.953 Y254.729
G01 X225.016 Y253.556
G01 X224.957 Y252.318
G01 X224.958 Y251.083
G01 X225.020 Y249.853
G01 X225.025 Y249.796
G01 X224.961 Y248.565
G01 X224.958 Y247.327
G01 X225.016 Y246.085
G01 X225.020 Y246.036
G01 X224.955 Y244.754
G01 X224.956 Y243.457
G01 X225.015 Y242.276
G01 X224.864 Y240.855
G01 X224.794 Y239.402
G01 X224.806 Y237.920
G01 X224.905 Y236.415
G01 X224.981 Y235.712
G01 X224.862 Y233.959
G01 X224.857 Y232.161
G01 X224.934 Y230.742
G01 X224.905 Y228.682
G01 X224.950 Y227.525
G01 X225.227 Y225.801
G01 X226.118 Y225.093
G01 X228.092 Y224.926
G01 X230.151 Y224.896
G01 X231.591 Y224.960
G01 X233.360 Y224.869
G01 X235.091 Y224.889
G01 X236.780 Y225.016
G01 X236.820 Y225.020
G01 X238.282 Y224.877
G01 X239.727 Y224.816
G01 X241.148 Y224.836
G01 X242.543 Y224.932
G01 X243.560 Y225.053
G01 X244.838 Y224.991
G01 X246.106 Y224.993
G01 X247.348 Y225.058
G01 X248.577 Y224.996
G01 X249.806 Y224.995
G01 X251.032 Y225.054
G01 X251.136 Y225.062
G01 X252.381 Y224.905
G01 X253.644 Y224.811
G01 X254.923 Y224.781
G01 X256.212 Y224.817
G01 X257.510 Y224.919
G01 X258.588 Y225.054
G01 X260.041 Y224.906
G01 X261.529 Y224.842
G01 X263.047 Y224.865
G01 X264.590 Y224.978
G01 X264.993 Y225.022
G01 X266.792 Y224.904
G01 X268.637 Y224.904
G01 X269.766 Y224.963
G01 X271.894 Y224.905
G01 X272.795 Y224.925
G01 X274.367 Y225.071
G01 X274.970 Y225.721
G01 X275.074 Y227.329
G01 X275.062 Y229.483
G01 X275.013 Y230.363
G01 X275.084 Y232.225
G01 X275.035 Y234.045
G01 X274.951 Y235.110
G01 X275.088 Y236.652
G01 X275.135 Y238.171
G01 X275.095 Y239.661
G01 X274.970 Y241.119
G01 X274.927 Y241.474
G01 X275.085 Y242.774
G01 X275.175 Y244.069
G01 X275.200 Y245.354
G01 X275.160 Y246.628
G01 X275.056 Y247.887
G01 X274.925 Y248.901
G01 X274.988 Y250.126
G01 X274.991 Y251.354
G01 X274.933 Y252.583
G01 X274.925 Y252.697
G01 X274.989 Y253.952
G01 X274.989 Y255.221
G01 X274.925 Y256.492
G01 X275.074 Y257.864
G01 X275.147 Y259.265
G01 X275.142 Y260.692
G01 X275.057 Y262.140
G01 X274.932 Y263.287
G01 X275.056 Y264.977
G01 X275.073 Y266.709
G01 X274.979 Y268.478
G01 X274.970 Y268.582
G01 X275.062 Y270.637
G01 X275.041 Y272.116
G01 X275.069 Y274.069
G01 X274.837 Y274.889
G01 X273.967 Y275.075
G01 X271.977 Y275.020
G01 X269.896 Y275.028
G01 X268.435 Y274.946
G01 X266.677 Y275.052
G01 X264.954 Y275.048
G01 X263.273 Y274.936
G01 X263.160 Y274.925
G01 X261.705 Y275.078
G01 X260.268 Y275.150
G01 X258.852 Y275.143
G01 X257.462 Y275.058
G01 X256.393 Y274.939
G01 X255.117 Y275.005
G01 X253.850 Y275.007
G01 X252.603 Y274.945
G01 X251.374 Y275.010
G01 X250.145 Y275.014
G01 X248.919 Y274.958
G01 X248.813 Y274.951
G01 X247.567 Y275.104
G01 X246.303 Y275.195
G01 X245.024 Y275.221
G01 X243.734 Y275.182
G01 X242.436 Y275.077
G01 X241.364 Y274.940
G01 X239.913 Y275.077
G01 X238.428 Y275.130
G01 X236.915 Y275.097
G01 X235.377 Y274.975
G01 X234.952 Y274.925
G01 X233.160 Y275.029
G01 X231.324 Y275.015
G01 X230.162 Y274.945
G01 X228.008 Y275.027
G01 X227.123 Y275.017
G01 X225.562 Y275.075
G01 X224.996 Y274.912
G01 X224.935 Y274.152
G01 X225.021 Y272.315
G01 X225.010 Y270.210
G01 X225.074 Y268.953
G01 X224.960 Y267.168
G01 X224.959 Y265.419
G01 X225.054 Y263.857
G01 X224.895 Y262.375
G01 X224.819 Y260.911
G01 X224.826 Y259.469
G01 X224.913 Y258.056
G01 X225.001 Y257.225
G01 X224.932 Y255.930
G01 X224.929 Y254.645
G01 X224.986 Y253.459
G01 X224.918 Y252.221
G01 X224.912 Y250.985
G01 X224.966 Y249.753
G01 X224.970 Y249.692
G01 X224.911 Y248.458
G01 X224.913 Y247.218
G01 X224.977 Y245.973
G01 X224.980 Y245.936
G01 X224.920 Y244.651
G01 X224.926 Y243.351
G01 X224.989 Y242.179
G01 X224.857 Y240.760
G01 X224.806 Y239.310
G01 X224.837 Y237.834
G01 X224.954 Y236.335
G01 X225.041 Y235.604
G01 X224.950 Y233.864
G01 X224.972 Y232.081
G01 X225.075 Y230.602
G01 X225.014 Y228.505
G01 X225.042 Y227.359
G01 X224.955 Y225.653
G01 X224.946 Y225.013
G01 X225.318 Y224.933
G01 X226.518 Y225.025
G01 X228.757 Y225.059
G01 X229.038 Y225.075
G01 X230.971 Y224.978
G01 X232.862 Y225.008
G01 X233.231 Y225.028
G01 X234.859 Y224.870
G01 X236.461 Y224.810
G01 X238.032 Y224.846
G01 X239.119 Y224.926
G01 X240.488 Y224.755
G01 X241.847 Y224.656
G01 X243.192 Y224.630
G01 X244.520 Y224.674
G01 X245.827 Y224.786
G01 X246.284 Y224.841
G01 X247.532 Y224.776
G01 X248.777 Y224.771
G01 X250.016 Y224.828
G01 X250.107 Y224.835
G01 X251.347 Y224.769
G01 X252.594 Y224.765
G01 X253.844 Y224.822
G01 X253.930 Y224.828
G01 X255.235 Y224.689
G01 X256.564 Y224.617
G01 X257.912 Y224.616
G01 X259.275 Y224.687
G01 X260.650 Y224.831
G01 X261.104 Y224.895
G01 X262.661 Y224.795
G01 X264.254 Y224.789
G01 X265.878 Y224.880
G01 X266.995 Y224.999
G01 X268.885 Y224.956
G01 X270.818 Y225.041
G01 X271.170 Y225.070
G01 X273.393 Y225.044
G01 X273.641 Y225.051
G01 X274.771 Y224.959
G01 X275.071 Y224.946
G01 X275.017 Y225.338
G01 X274.931 Y226.599
G01 X274.967 Y228.771
G01 X274.955 Y229.221
G01 X275.095 Y231.111
G01 X275.110 Y232.963
G01 X275.091 Y233.536
G01 X275.268 Y235.140
G01 X275.350 Y236.720
G01 X275.339 Y238.273
G01 X275.262 Y239.530
G01 X275.440 Y240.891
G01 X275.546 Y242.245
G01 X275.581 Y243.586
G01 X275.546 Y244.913
G01 X275.444 Y246.220
G01 X275.382 Y246.755
G01 X275.447 Y248.009
G01 X275.451 Y249.262
G01 X275.393 Y250.510
G01 X275.388 Y250.576
G01 X275.453 Y251.830
G01 X275.456 Y253.092
G01 X275.396 Y254.358
G01 X275.393 Y254.398
G01 X275.524 Y255.724
G01 X275.586 Y257.072
G01 X275.576 Y258.441
G01 X275.492 Y259.825
G01 X275.333 Y261.220
G01 X275.290 Y261.515
G01 X275.369 Y263.090
G01 X275.352 Y264.700
G01 X275.238 Y266.338
G01 X275.123 Y267.316
G01 X275.125 Y269.202
G01 X275.001 Y271.129
G01 X274.974 Y271.390
G01 X274.936 Y273.575
G01 X274.926 Y273.769
G01 X274.995 Y274.824
G01 X275.075 Y275.075
G01 X274.890 Y275.000
G01 X274.001 Y274.925
G01 X271.904 Y274.992
G01 X269.954 Y275.157
G01 X268.190 Y275.195
G01 X266.498 Y275.390
G01 X264.832 Y275.481
G01 X263.198 Y275.471
G01 X262.744 Y275.450
G01 X261.303 Y275.642
G01 X259.873 Y275.754
G01 X258.460 Y275.789
G01 X257.068 Y275.748
G01 X255.867 Y275.652
G01 X254.569 Y275.727
G01 X253.278 Y275.737
G01 X252.065 Y275.687
G01 X250.802 Y275.760
G01 X249.537 Y275.772
G01 X248.273 Y275.722
G01 X248.263 Y275.721
G01 X246.973 Y275.859
G01 X245.666 Y275.932
G01 X244.344 Y275.938
G01 X243.011 Y275.877
G01 X241.671 Y275.746
G01 X240.857 Y275.633
G01 X239.377 Y275.720
G01 X237.867 Y275.721
G01 X236.331 Y275.635
G01 X234.776 Y275.459
G01 X234.522 Y275.421
G01 X232.759 Y275.418
G01 X230.961 Y275.301
G01 X229.816 Y275.168
G01 X227.790 Y275.068
G01 X226.867 Y274.977
G01 X225.408 Y274.928
G01 X224.948 Y275.011
G01 X224.968 Y275.072
G01 X225.067 Y274.778
G01 X225.029 Y273.654
G01 X224.830 Y271.601
G01 X224.807 Y271.197
G01 X224.582 Y269.338
G01 X224.477 Y267.510
G01 X224.469 Y267.057
G01 X224.250 Y265.431
G01 X224.128 Y263.826
G01 X224.100 Y262.247
G01 X224.132 Y261.216
G01 X223.936 Y259.812
G01 X223.815 Y258.416
G01 X223.767 Y257.031
G01 X223.791 Y255.663
G01 X223.885 Y254.313
G01 X223.908 Y254.086
G01 X223.839 Y252.790
G01 X223.833 Y251.497
G01 X223.888 Y250.264
G01 X223.819 Y248.979
G01 X223.813 Y247.688
G01 X223.868 Y246.442
G01 X223.746 Y245.103
G01 X223.694 Y243.744
G01 X223.712 Y242.368
G01 X223.804 Y240.978
G01 X223.968 Y239.580
G01 X224.023 Y239.220
G01 X223.974 Y237.670
G01 X224.017 Y236.090
G01 X224.153 Y234.485
G01 X224.325 Y233.232
G01 X224.395 Y231.424
G01 X224.583 Y229.584
G01 X224.676 Y228.942
G01 X224.878 Y226.933
G01 X224.957 Y226.380
G01 X225.074 Y225.214
G01 X225.018 Y224.926
G01 X224.926 Y225.004
G01 X225.112 Y225.075
G01 X226.046 Y224.954
G01 X228.030 Y224.648
G01 X228.242 Y224.623
G01 X230.099 Y224.341
G01 X231.930 Y224.178
G01 X232.087 Y224.170
G01 X233.750 Y223.922
G01 X235.393 Y223.773
G01 X237.011 Y223.722
G01 X237.659 Y223.728
G01 X239.112 Y223.516
G01 X240.556 Y223.382
G01 X241.986 Y223.326
G01 X243.398 Y223.344
G01 X244.618 Y223.421
G01 X245.952 Y223.343
G01 X247.281 Y223.332
G01 X248.428 Y223.376
G01 X249.736 Y223.299
G01 X251.048 Y223.286
G01 X252.239 Y223.331
G01 X253.580 Y223.207
G01 X254.939 Y223.151
G01 X256.312 Y223.164
G01 X257.695 Y223.248
G01 X259.086 Y223.404
G01 X259.600 Y223.480
G01 X261.119 Y223.434
G01 X262.666 Y223.474
G01 X264.235 Y223.603
G01 X265.821 Y223.824
G01 X265.852 Y223.829
G01 X267.604 Y223.916
G01 X269.386 Y224.113
G01 X270.457 Y224.285
G01 X272.374 Y224.546
G01 X273.307 Y224.718
G01 X274.677 Y225.003
G01 X275.067 Y225.072
G01 X275.010 Y224.977
G01 X274.925 Y224.940
G01 X275.041 Y225.362
G01 X275.411 Y226.756
G01 X275.800 Y228.627
G01 X275.957 Y229.608
G01 X276.268 Y231.373
G01 X276.471 Y233.118
G01 X276.543 Y234.193
G01 X276.796 Y235.775
G01 X276.959 Y237.342
G01 X277.034 Y238.892
G01 X277.024 Y240.413
G01 X277.226 Y241.821
G01 X277.357 Y243.226
G01 X277.415 Y244.624
G01 X277.403 Y246.011
G01 X277.322 Y247.384
G01 X277.288 Y247.754
G01 X277.346 Y249.096
G01 X277.339 Y250.438
G01 X277.282 Y251.567
G01 X277.341 Y252.922
G01 X277.332 Y254.286
G01 X277.276 Y255.381
G01 X277.363 Y256.808
G01 X277.374 Y258.256
G01 X277.308 Y259.722
G01 X277.163 Y261.201
G01 X276.992 Y262.373
G01 X276.963 Y263.999
G01 X276.839 Y265.652
G01 X276.615 Y267.326
G01 X276.500 Y267.988
G01 X276.289 Y269.797
G01 X275.963 Y271.627
G01 X275.914 Y271.860
G01 X275.469 Y273.718
G01 X275.378 Y274.046
G01 X275.026 Y274.935
G01 X274.926 Y275.067
G01 X275.016 Y274.954
G01 X275.063 Y274.953
G01 X274.650 Y275.227
G01 X273.256 Y275.773
G01 X271.448 Y276.251
G01 X270.394 Y276.479
G01 X268.644 Y276.834
G01 X266.909 Y277.082
G01 X265.795 Y277.188
G01 X264.199 Y277.461
G01 X262.615 Y277.644
G01 X261.048 Y277.739
G01 X259.563 Y277.750
G01 X258.124 Y277.960
G01 X256.688 Y278.096
G01 X255.258 Y278.160
G01 X253.839 Y278.151
G01 X252.432 Y278.071
G01 X252.218 Y278.053
G01 X250.839 Y278.110
G01 X249.459 Y278.099
G01 X248.405 Y278.045
G01 X247.013 Y278.103
G01 X245.612 Y278.091
G01 X244.592 Y278.038
G01 X243.132 Y278.112
G01 X241.651 Y278.110
G01 X240.155 Y278.029
G01 X238.646 Y277.868
G01 X237.602 Y277.710
G01 X235.961 Y277.653
G01 X234.295 Y277.500
G01 X232.612 Y277.249
G01 X231.987 Y277.132
G01 X230.198 Y276.865
G01 X228.393 Y276.487
G01 X228.116 Y276.419
G01 X226.341 Y275.866
G01 X225.935 Y275.723
G01 X225.056 Y275.197
G01 X224.935 Y274.945
G01 X225.051 Y274.960
G01 X225.034 Y275.070
G01 X224.708 Y274.916
G01 X224.070 Y273.995
G01 X223.410 Y272.287
G01 X223.234 Y271.780
G01 X222.777 Y270.015
G01 X222.426 Y268.258
G01 X222.366 Y267.894
G01 X222.034 Y266.218
G01 X221.799 Y264.555
G01 X221.659 Y262.908
G01 X221.630 Y262.281
G01 X221.383 Y260.753
G01 X221.217 Y259.231
G01 X221.130 Y257.719
G01 X221.122 Y256.221
G01 X221.155 Y255.300
G01 X221.071 Y253.860
G01 X221.059 Y252.424
G01 X221.089 Y251.489
G01 X221.006 Y250.069
G01 X220.992 Y248.644
G01 X221.023 Y247.677
G01 X220.921 Y246.226
G01 X220.892 Y244.759
G01 X220.937 Y243.280
G01 X221.058 Y241.792
G01 X221.253 Y240.322
G01 X221.268 Y238.730
G01 X221.372 Y237.116
G01 X221.567 Y235.485
G01 X221.807 Y234.074
G01 X222.021 Y232.330
G01 X222.340 Y230.569
G01 X222.592 Y229.468
G01 X223.099 Y227.707
G01 X223.465 Y226.626
G01 X224.260 Y225.281
G01 X224.822 Y224.927
G01 X225.064 Y225.009
G01 X225.025 Y225.070
G01 X224.925 Y224.842
G01 X225.167 Y224.247
G01 X226.279 Y223.357
G01 X227.951 Y222.643
G01 X228.777 Y222.328
G01 X230.524 Y221.846
G01 X232.267 Y221.468
G01 X232.988 Y221.341
G01 X234.659 Y221.001
G01 X236.321 Y220.756
G01 X237.970 Y220.602
G01 X238.892 Y220.556
G01 X240.436 Y220.312
G01 X241.976 Y220.147
G01 X243.510 Y220.062
G01 X245.032 Y220.055
G01 X246.053 Y220.093
G01 X247.532 Y220.021
G01 X249.009 Y220.022
G01 X249.875 Y220.056
G01 X251.349 Y219.984
G01 X252.830 Y219.985
G01 X253.697 Y220.019
G01 X255.214 Y219.944
G01 X256.748 Y219.946
G01 X258.293 Y220.027
G01 X259.847 Y220.188
G01 X260.909 Y220.343
G01 X262.564 Y220.413
G01 X264.238 Y220.575
G01 X265.925 Y220.831
G01 X266.893 Y221.020
G01 X268.656 Y221.327
G01 X270.430 Y221.740
G01 X271.182 Y221.946
G01 X272.878 Y222.606
G01 X273.727 Y222.977
G01 X274.848 Y223.935
G01 X275.074 Y224.654
G01 X274.953 Y225.055
G01 X275.291 Y224.937
G01 X276.031 Y225.046
G01 X277.083 Y225.901
G01 X277.977 Y227.465
G01 X278.279 Y228.040
G01 X278.865 Y229.775
G01 X279.349 Y231.514
G01 X279.430 Y231.849
G01 X279.827 Y233.567
G01 X280.127 Y235.280
G01 X280.332 Y236.983
G01 X280.368 Y237.391
G01 X280.645 Y239.006
G01 X280.838 Y240.617
G01 X280.947 Y242.220
G01 X280.973 Y243.812
G01 X280.965 Y244.324
G01 X281.058 Y245.869
G01 X281.074 Y247.411
G01 X281.055 Y248.130
G01 X281.148 Y249.655
G01 X281.165 Y251.186
G01 X281.146 Y251.936
G01 X281.238 Y253.487
G01 X281.252 Y255.051
G01 X281.187 Y256.626
G01 X281.042 Y258.205
G01 X280.891 Y259.327
G01 X280.841 Y260.990
G01 X280.700 Y262.670
G01 X280.469 Y264.362
G01 X280.230 Y265.654
G01 X279.945 Y267.421
G01 X279.558 Y269.196
G01 X279.249 Y270.359
G01 X278.606 Y272.072
G01 X278.082 Y273.294
G01 X276.930 Y274.666
G01 X276.902 Y274.699
G01 X275.894 Y275.072
G01 X275.215 Y274.988
G01 X274.937 Y274.934
G01 X274.980 Y275.216
G01 X275.075 Y275.940
G01 X274.773 Y277.048
G01 X273.532 Y278.371
G01 X273.521 Y278.382
G01 X271.899 Y279.234
G01 X270.814 Y279.747
G01 X269.058 Y280.300
G01 X267.298 Y280.754
G01 X266.367 Y280.955
G01 X264.644 Y281.327
G01 X262.925 Y281.605
G01 X261.214 Y281.791
G01 X260.262 Y281.855
G01 X258.629 Y282.108
G01 X256.997 Y282.277
G01 X255.369 Y282.364
G01 X253.749 Y282.370
G01 X252.989 Y282.345
G01 X251.396 Y282.405
G01 X249.804 Y282.387
G01 X249.169 Y282.358
G01 X247.572 Y282.419
G01 X245.967 Y282.400
G01 X245.349 Y282.372
G01 X243.708 Y282.408
G01 X242.051 Y282.361
G01 X240.385 Y282.228
G01 X238.712 Y282.009
G01 X238.252 Y281.934
G01 X236.501 Y281.784
G01 X234.738 Y281.538
G01 X232.966 Y281.195
G01 X232.456 Y281.078
G01 X230.669 Y280.628
G01 X228.885 Y280.076
G01 X228.384 Y279.903
G01 X226.783 Y279.006
G01 X226.040 Y278.552
G01 X225.074 Y277.209
G01 X224.936 Y276.068
G01 X225.058 Y275.290
G01 X225.000 Y274.950
G01 X224.515 Y274.968
G01 X223.553 Y275.075
G01 X222.214 Y274.817
G01 X220.724 Y273.671
G01 X220.679 Y273.635
G01 X219.720 Y272.047
G01 X219.153 Y271.015
G01 X218.538 Y269.244
G01 X218.023 Y267.464
G01 X217.822 Y266.659
G01 X217.418 Y264.889
G01 X217.109 Y263.119
G01 X216.895 Y261.356
G01 X216.834 Y260.630
G01 X216.565 Y258.933
G01 X216.383 Y257.235
G01 X216.287 Y255.541
G01 X216.275 Y253.855
G01 X216.286 Y253.401
G01 X216.221 Y251.739
G01 X216.237 Y250.079
G01 X216.258 Y249.579
G01 X216.193 Y247.916
G01 X216.210 Y246.246
G01 X216.231 Y245.758
G01 X216.199 Y244.057
G01 X216.253 Y242.342
G01 X216.394 Y240.619
G01 X216.625 Y238.891
G01 X216.671 Y238.608
G01 X216.835 Y236.813
G01 X217.096 Y235.008
G01 X217.456 Y233.196
G01 X217.566 Y232.724
G01 X218.046 Y230.911
G01 X218.628 Y229.104
G01 X218.827 Y228.550
G01 X219.783 Y226.944
G01 X220.319 Y226.118
G01 X221.864 Y225.094
G01 X223.260 Y224.933
G01 X224.321 Y225.056
G01 X224.923 Y225.000
G01 X225.074 Y224.496
G01 X224.964 Y223.476
G01 X224.979 Y222.028
G01 X225.653 Y220.334
G01 X227.042 Y219.045
G01 X227.548 Y218.606
G01 X229.274 Y217.788
G01 X231.025 Y217.063
G01 X231.083 Y217.041
G01 X232.910 Y216.518
G01 X234.742 Y216.094
G01 X236.372 Y215.800
G01 X238.165 Y215.459
G01 X239.958 Y215.210
G01 X241.746 Y215.053
G01 X243.128 Y214.995
G01 X244.879 Y214.874
G01 X246.626 Y214.841
G01 X246.909 Y214.843
G01 X248.637 Y214.724
G01 X250.370 Y214.689
G01 X250.690 Y214.692
G01 X252.433 Y214.602
G01 X254.186 Y214.598
G01 X255.946 Y214.682
G01 X257.708 Y214.853
G01 X258.179 Y214.914
G01 X259.995 Y214.995
G01 X261.822 Y215.169
G01 X263.655 Y215.440
G01 X264.734 Y215.644
G01 X266.602 Y215.998
G01 X268.471 Y216.454
G01 X269.737 Y216.821
G01 X271.492 Y217.602
G01 X272.961 Y218.339
G01 X274.300 Y219.736
G01 X274.580 Y220.047
G01 X275.063 Y221.754
G01 X274.999 Y223.251
G01 X274.932 Y224.350
G01 X275.237 Y224.945
G01 X276.083 Y225.071
G01 X277.455 Y224.952
G01 X279.204 Y225.010
G01 X281.123 Y225.799
G01 X282.445 Y227.235
G01 X282.995 Y227.877
G01 X283.826 Y229.652
G01 X284.564 Y231.454
G01 X284.631 Y231.633
G01 X285.158 Y233.511
G01 X285.584 Y235.396
G01 X285.888 Y237.131
G01 X286.226 Y238.983
G01 X286.469 Y240.838
G01 X286.618 Y242.690
G01 X286.668 Y244.030
G01 X286.776 Y245.852
G01 X286.795 Y247.670
G01 X286.792 Y247.831
G01 X286.900 Y249.638
G01 X286.919 Y251.451
G01 X286.916 Y251.632
G01 X286.981 Y253.459
G01 X286.955 Y255.297
G01 X286.837 Y257.140
G01 X286.627 Y258.984
G01 X286.618 Y259.051
G01 X286.489 Y260.944
G01 X286.262 Y262.847
G01 X285.936 Y264.754
G01 X285.793 Y265.443
G01 X285.355 Y267.359
G01 X284.814 Y269.269
G01 X284.500 Y270.235
G01 X283.581 Y271.979
G01 X282.842 Y273.248
G01 X281.236 Y274.498
G01 X280.965 Y274.696
G01 X279.060 Y275.073
G01 X277.340 Y274.979
G01 X276.009 Y274.949
G01 X275.203 Y275.348
G01 X274.928 Y276.330
G01 X275.007 Y277.865
G01 X275.058 Y279.793
G01 X274.546 Y281.899
G01 X273.266 Y283.518
G01 X272.893 Y283.960
G01 X271.161 Y284.980
G01 X269.641 Y285.784
G01 X267.723 Y286.420
G01 X265.790 Y286.954
G01 X264.625 Y287.226
G01 X262.690 Y287.628
G01 X260.750 Y287.930
G01 X258.812 Y288.133
G01 X258.069 Y288.185
G01 X256.169 Y288.429
G01 X254.264 Y288.579
G01 X252.360 Y288.635
G01 X250.583 Y288.603
G01 X248.687 Y288.613
G01 X246.800 Y288.530
G01 X244.885 Y288.540
G01 X243.018 Y288.457
G01 X241.068 Y288.377
G01 X239.108 Y288.198
G01 X237.145 Y287.917
G01 X236.254 Y287.757
G01 X234.269 Y287.390
G01 X232.288 Y286.919
G01 X230.960 Y286.543
G01 X229.098 Y285.722
G01 X227.437 Y284.894
G01 X225.999 Y283.401
G01 X225.579 Y282.935
G01 X224.958 Y280.834
G01 X224.982 Y278.797
G01 X225.074 Y277.048
G01 X224.800 Y275.778
G01 X223.935 Y275.088
G01 X222.455 Y274.927
G01 X220.487 Y275.045
G01 X218.241 Y274.995
G01 X215.948 Y274.204
G01 X214.430 Y272.742
G01 X213.819 Y272.110
G01 X212.879 Y270.253
G01 X212.033 Y268.357
G01 X212.020 Y268.327
G01 X211.439 Y266.326
G01 X210.961 Y264.313
G01 X210.672 Y262.803
G01 X210.310 Y260.798
G01 X210.049 Y258.789
G01 X209.889 Y256.780
G01 X209.850 Y255.888
G01 X209.738 Y253.898
G01 X209.722 Y252.085
G01 X209.610 Y250.106
G01 X209.594 Y248.282
G01 X209.547 Y246.285
G01 X209.599 Y244.279
G01 X209.751 Y242.269
G01 X209.916 Y240.870
G01 X210.088 Y238.824
G01 X210.366 Y236.772
G01 X210.749 Y234.721
G01 X210.799 Y234.489
G01 X211.321 Y232.454
G01 X211.948 Y230.433
G01 X212.200 Y229.710
G01 X213.270 Y227.897
G01 X214.037 Y226.712
G01 X215.899 Y225.462
G01 X216.185 Y225.283
G01 X218.474 Y224.925
G01 X220.693 Y225.029
G01 X222.613 Y225.039
G01 X224.034 Y224.570
G01 X224.842 Y223.451
G01 X225.075 Y221.705
G01 X224.973 Y219.490
G01 X224.971 Y217.032
G01 X225.644 Y214.568
G01 X227.069 Y212.860
G01 X227.569 Y212.303
G01 X229.447 Y211.251
G01 X231.156 Y210.396
G01 X233.220 Y209.754
G01 X235.301 Y209.218
G01 X236.499 Y208.959
G01 X238.589 Y208.563
G01 X240.685 Y208.273
G01 X242.782 Y208.088
G01 X243.291 Y208.059
G01 X245.373 Y207.928
G01 X247.076 Y207.897
G01 X249.145 Y207.766
G01 X250.862 Y207.734
G01 X252.946 Y207.674
G01 X255.037 Y207.717
G01 X257.131 Y207.863
G01 X258.340 Y207.995
G01 X260.466 Y208.156
G01 X262.596 Y208.424
G01 X264.725 Y208.802
G01 X264.873 Y208.832
G01 X266.988 Y209.341
G01 X269.089 Y209.958
G01 X269.850 Y210.211
G01 X271.756 Y211.274
G01 X273.044 Y212.065
G01 X274.399 Y213.949
G01 X274.626 Y214.288
G01 X275.070 Y216.730
G01 X274.984 Y219.190
G01 X274.948 Y221.438
G01 X275.379 Y223.248
G01 X276.481 Y224.452
G01 X278.258 Y225.006
G01 X280.563 Y225.048
G01 X283.170 Y224.927
G01 X285.837 Y225.166
G01 X288.132 Y226.257
G01 X288.344 Y226.366
G01 X289.787 Y228.095
G01 X290.523 Y229.050
G01 X291.393 Y231.114
G01 X292.158 Y233.212
G01 X292.251 Y233.491
G01 X292.780 Y235.661
G01 X293.199 Y237.843
G01 X293.454 Y239.590
G01 X293.769 Y241.762
G01 X293.977 Y243.939
G01 X294.077 Y246.117
G01 X294.087 Y246.855
G01 X294.140 Y249.023
G01 X294.110 Y250.675
G01 X294.163 Y252.848
G01 X294.133 Y254.495
G01 X294.088 Y256.690
G01 X293.934 Y258.891
G01 X293.670 Y261.093
G01 X293.590 Y261.619
G01 X293.261 Y263.838
G01 X292.819 Y266.052
G01 X292.476 Y267.467
G01 X291.689 Y269.587
G01 X290.830 Y271.600
G01 X289.321 Y273.340
G01 X288.723 Y273.983
G01 X286.267 Y274.947
G01 X283.623 Y275.055
G01 X281.000 Y274.929
G01 X278.636 Y275.091
G01 X276.760 Y275.870
G01 X275.598 Y277.301
G01 X275.533 Y277.378
G01 X274.986 Y279.541
G01 X274.957 Y282.164
G01 X275.075 Y285.002
G01 X274.797 Y287.813
G01 X273.623 Y290.194
G01 X273.516 Y290.393
G01 X271.695 Y291.864
G01 X270.721 Y292.591
G01 X268.568 Y293.467
G01 X266.379 Y294.235
G01 X266.161 Y294.305
G01 X263.902 Y294.833
G01 X261.630 Y295.246
G01 X259.963 Y295.476
G01 X257.699 Y295.786
G01 X255.428 Y295.983
G01 X253.157 Y296.068
G01 X252.647 Y296.071
G01 X250.383 Y296.112
G01 X248.830 Y296.075
G01 X246.559 Y296.115
G01 X245.014 Y296.079
G01 X242.723 Y296.009
G01 X240.426 Y295.825
G01 X238.130 Y295.526
G01 X237.952 Y295.498
G01 X235.648 Y295.124
G01 X233.351 Y294.633
G01 X232.205 Y294.343
G01 X230.024 Y293.475
G01 X228.188 Y292.646
G01 X226.429 Y290.990
G01 X225.910 Y290.467
G01 X225.024 Y287.905
G01 X224.953 Y285.110
G01 X225.074 Y282.281
G01 X224.864 Y279.655
G01 X224.080 Y277.701
G01 X223.998 Y277.476
G01 X222.641 Y276.205
G01 X222.371 Y275.937
G01 X220.336 Y275.226
G01 X220.063 Y275.120
G01 X217.276 Y274.926
G01 X214.264 Y275.047
G01 X211.273 Y274.979
G01 X208.510 Y274.116
G01 X206.664 Y272.419
G01 X206.127 Y271.890
G01 X205.038 Y269.740
G01 X204.226 Y267.944
G01 X203.581 Y265.616
G01 X203.053 Y263.268
G01 X202.865 Y262.271
G01 X202.482 Y259.909
G01 X202.217 Y257.540
G01 X202.074 Y255.260
G01 X201.973 Y252.896
G01 X201.969 Y251.448
G01 X201.868 Y249.087
G01 X201.864 Y247.635
G01 X201.862 Y245.259
G01 X201.978 Y242.877
G01 X202.212 Y240.494
G01 X202.239 Y240.280
G01 X202.505 Y237.880
G01 X202.893 Y235.482
G01 X203.192 Y234.010
G01 X203.891 Y231.675
G01 X204.706 Y229.371
G01 X204.707 Y229.369
G01 X206.116 Y227.348
G01 X206.745 Y226.511
G01 X209.238 Y225.203
G01 X212.071 Y224.926
G01 X215.078 Y225.049
G01 X218.042 Y224.992
G01 X220.411 Y224.408
G01 X220.714 Y224.345
G01 X222.330 Y223.250
G01 X222.853 Y222.921
G01 X223.906 Y221.282
G01 X224.283 Y220.738
G01 X224.849 Y218.379
G01 X224.966 Y217.964
G01 X225.059 Y214.846
G01 X224.931 Y211.645
G01 X225.129 Y208.591
G01 X226.274 Y205.862
G01 X228.188 Y204.164
G01 X228.896 Y203.579
G01 X231.197 Y202.593
G01 X233.279 Y201.813
G01 X235.716 Y201.232
G01 X238.171 Y200.774
G01 X239.329 Y200.601
G01 X241.787 Y200.265
G01 X244.252 Y200.050
G01 X246.566 Y199.959
G01 X249.026 Y199.905
G01 X250.386 Y199.926
G01 X252.850 Y199.871
G01 X254.207 Y199.893
G01 X256.689 Y199.953
G01 X259.174 Y200.136
G01 X261.368 Y200.401
G01 X263.858 Y200.768
G01 X266.340 Y201.260
G01 X267.281 Y201.480
G01 X269.656 Y202.351
G01 X271.490 Y203.116
G01 X273.453 Y204.826
G01 X273.937 Y205.277
G01 X274.939 Y207.901
G01 X275.056 Y210.880
G01 X274.928 Y214.051
G01 X275.112 Y217.200
G01 X275.822 Y219.499
G01 X275.974 Y220.072
G01 X277.143 Y221.663
G01 X277.655 Y222.417
G01 X279.321 Y223.496
G01 X280.099 Y224.043
G01 X282.454 Y224.679
G01 X283.109 Y224.886
G01 X286.425 Y225.073
G01 X289.783 Y224.947
G01 X292.958 Y225.043
G01 X295.780 Y225.983
G01 X297.715 Y227.881
G01 X298.140 Y228.327
G01 X299.247 Y230.675
G01 X299.977 Y232.409
G01 X300.619 Y234.931
G01 X301.136 Y237.472
G01 X301.260 Y238.205
G01 X301.634 Y240.760
G01 X301.880 Y243.323
G01 X301.983 Y245.291
G01 X302.067 Y247.850
G01 X302.063 Y249.108
G01 X302.148 Y251.667
G01 X302.143 Y252.925
G01 X302.118 Y255.499
G01 X301.966 Y258.078
G01 X301.741 Y260.228
G01 X301.428 Y262.817
G01 X300.984 Y265.400
G01 X300.778 Y266.396
G01 X299.991 Y268.897
G01 X299.258 Y270.910
G01 X297.664 Y273.056
G01 X297.197 Y273.643
G01 X294.638 Y274.852
G01 X291.661 Y275.070
G01 X288.398 Y274.940
G01 X285.041 Y275.049
G01 X282.443 Y275.688
G01 X281.833 Y275.810
G01 X280.017 Y276.884
G01 X279.036 Y277.410
G01 X277.752 Y278.902
G01 X276.890 Y279.825
G01 X276.020 Y281.875
G01 X275.542 Y282.877
G01 X275.082 Y285.780
G01 X274.976 Y286.305
G01 X274.967 Y289.837
G01 X275.075 Y293.231
G01 X274.705 Y296.303
G01 X273.237 Y298.931
G01 X271.012 Y300.502
G01 X270.184 Y301.046
G01 X267.641 Y301.935
G01 X265.353 Y302.617
G01 X262.711 Y303.133
G01 X260.055 Y303.516
G01 X258.942 Y303.638
G01 X256.289 Y303.924
G01 X253.630 Y304.079
G01 X251.522 Y304.109
G01 X248.865 Y304.112
G01 X247.720 Y304.073
G01 X245.053 Y304.075
G01 X243.918 Y304.036
G01 X241.237 Y303.901
G01 X238.554 Y303.633
G01 X237.006 Y303.417
G01 X234.338 Y302.926
G01 X231.687 Y302.302
G01 X231.488 Y302.250
G01 X228.999 Y301.152
G01 X227.728 Y300.534
G01 X225.773 Y298.386
G01 X225.685 Y298.284
G01 X224.971 Y295.539
G01 X224.980 Y292.380
G01 X225.071 Y288.944
G01 X224.716 Y285.530
G01 X224.709 Y285.429
G01 X223.863 Y283.055
G01 X223.566 Y282.083
G01 X222.344 Y280.395
G01 X221.542 Y279.179
G01 X219.926 Y277.950
G01 X218.734 Y276.957
G01 X216.546 Y276.095
G01 X215.364 Y275.565
G01 X212.265 Y275.089
G01 X211.713 Y274.979
G01 X208.052 Y274.966
G01 X204.605 Y275.075
G01 X201.537 Y274.703
G01 X198.945 Y273.225
G01 X197.352 Y270.896
G01 X196.882 Y270.156
G01 X195.994 Y267.513
G01 X195.361 Y265.309
G01 X194.850 Y262.570
G01 X194.476 Y259.817
G01 X194.380 Y258.885
G01 X194.098 Y256.135
G01 X193.952 Y253.380
G01 X193.930 Y251.459
G01 X193.931 Y248.706
G01 X193.967 Y247.659
G01 X193.969 Y244.896
G01 X194.005 Y243.858
G01 X194.144 Y241.081
G01 X194.421 Y238.303
G01 X194.606 Y236.954
G01 X195.103 Y234.192
G01 X195.739 Y231.448
G01 X196.857 Y228.865
G01 X197.411 Y227.700
G01 X199.621 Y225.671
G01 X202.344 Y224.967
G01 X205.520 Y224.983
G01 X209.031 Y225.070
G01 X212.661 Y224.688
G01 X212.699 Y224.686
G01 X215.217 Y223.813
G01 X216.287 Y223.497
G01 X218.089 Y222.275
G01 X219.521 Y221.400
G01 X220.863 Y219.838
G01 X222.134 Y218.491
G01 X223.136 Y216.440
G01 X223.930 Y214.997
G01 X224.594 Y212.143
G01 X224.860 Y211.203
G01 X225.074 Y207.388
G01 X224.949 Y203.785
G01 X225.046 Y200.559
G01 X226.004 Y197.813
G01 X228.213 Y195.750
G01 X228.390 Y195.594
G01 X231.043 Y194.474
G01 X232.523 Y193.914
G01 X235.338 Y193.283
G01 X238.171 Y192.792
G01 X238.364 Y192.764
G01 X241.208 Y192.405
G01 X244.059 Y192.187
G01 X245.476 Y192.130
G01 X248.323 Y192.058
G01 X249.295 Y192.065
G01 X252.143 Y191.993
G01 X253.114 Y192.000
G01 X255.975 Y192.037
G01 X258.841 Y192.215
G01 X260.397 Y192.371
G01 X263.271 Y192.700
G01 X266.137 Y193.173
G01 X266.534 Y193.250
G01 X269.318 Y194.074
G01 X271.010 Y194.649
G01 X273.427 Y196.373
G01 X273.703 Y196.582
G01 X274.875 Y199.048
G01 X275.066 Y202.021
G01 X274.934 Y205.428
G01 X275.085 Y209.140
G01 X275.816 Y212.240
G01 X275.952 Y212.962
G01 X277.066 Y215.145
G01 X277.736 Y216.639
G01 X279.141 Y218.257
G01 X280.420 Y219.887
G01 X282.172 Y221.137
G01 X283.819 Y222.442
G01 X286.127 Y223.401
G01 X287.656 Y224.130
G01 X290.904 Y224.760
G01 X291.637 Y224.937
G01 X295.499 Y225.063
G01 X299.043 Y224.931
G01 X302.139 Y225.136
G01 X304.719 Y226.321
G01 X306.570 Y228.750
G01 X306.761 Y229.016
G01 X307.754 Y231.817
G01 X308.273 Y233.484
G01 X308.831 Y236.405
G01 X309.244 Y239.341
G01 X309.274 Y239.606
G01 X309.588 Y242.543
G01 X309.756 Y245.485
G01 X309.786 Y246.879
G01 X309.821 Y249.817
G01 X309.803 Y250.699
G01 X309.838 Y253.641
G01 X309.821 Y254.518
G01 X309.741 Y257.475
G01 X309.515 Y260.435
G01 X309.381 Y261.643
G01 X308.986 Y264.604
G01 X308.455 Y267.501
G01 X307.510 Y270.342
G01 X307.024 Y271.645
G01 X305.068 Y274.026
G01 X302.577 Y274.968
G01 X299.568 Y275.046
G01 X296.100 Y274.925
G01 X292.293 Y275.194
G01 X289.217 Y276.050
G01 X288.332 Y276.253
G01 X286.145 Y277.455
G01 X284.466 Y278.268
G01 X282.817 Y279.726
G01 X281.109 Y281.091
G01 X280.985 Y281.185
G01 X279.678 Y282.957
G01 X278.271 Y284.675
G01 X278.167 Y284.794
G01 X277.119 Y287.082
G01 X276.217 Y288.807
G01 X275.458 Y291.987
G01 X275.188 Y292.922
G01 X274.925 Y296.880
G01 X275.044 Y300.489
G01 X274.975 Y303.628
G01 X274.068 Y306.240
G01 X271.748 Y308.312
G01 X268.900 Y309.430
G01 X267.683 Y309.860
G01 X264.681 Y310.477
G01 X261.902 Y310.913
G01 X258.876 Y311.263
G01 X255.844 Y311.463
G01 X254.827 Y311.497
G01 X251.801 Y311.569
G01 X251.010 Y311.564
G01 X247.984 Y311.636
G01 X247.193 Y311.631
G01 X244.154 Y311.606
G01 X241.112 Y311.432
G01 X239.878 Y311.318
G01 X236.823 Y311.019
G01 X233.773 Y310.567
G01 X233.680 Y310.551
G01 X230.697 Y309.776
G01 X229.129 Y309.306
G01 X226.479 Y307.633
G01 X226.365 Y307.556
G01 X225.144 Y305.278
G01 X224.931 Y302.464
G01 X225.064 Y299.142
G01 X224.918 Y295.394
G01 X224.121 Y291.845
G01 X224.035 Y291.365
G01 X222.852 Y288.873
G01 X222.191 Y287.273
G01 X220.768 Y285.412
G01 X219.460 Y283.502
G01 X219.390 Y283.393
G01 X217.724 Y281.914
G01 X216.130 Y280.351
G01 X215.815 Y280.023
G01 X213.770 Y278.797
G01 X211.764 Y277.441
G01 X211.749 Y277.430
G01 X209.039 Y276.429
G01 X207.502 Y275.770
G01 X203.640 Y275.088
G01 X203.355 Y275.025
G01 X199.523 Y274.949
G01 X196.145 Y275.075
G01 X193.293 Y274.780
G01 X190.986 Y273.419
G01 X189.325 Y270.694
G01 X189.207 Y270.487
G01 X188.339 Y267.461
G01 X187.924 Y265.772
G01 X187.439 Y262.664
G01 X187.109 Y259.546
G01 X187.102 Y259.452
G01 X186.832 Y256.343
G01 X186.715 Y253.229
G01 X186.711 Y252.077
G01 X186.704 Y248.969
G01 X186.724 Y248.267
G01 X186.717 Y245.151
G01 X186.737 Y244.457
G01 X186.840 Y241.326
G01 X187.098 Y238.191
G01 X187.180 Y237.465
G01 X187.603 Y234.331
G01 X188.057 Y231.821
G01 X189.064 Y228.818
G01 X189.397 Y227.922
G01 X191.234 Y225.764
G01 X193.600 Y224.983
G01 X196.507 Y224.976
G01 X199.930 Y225.071
G01 X203.792 Y224.686
G01 X207.071 Y223.665
G01 X207.945 Y223.436
G01 X210.299 Y222.107
G01 X212.168 Y221.179
G01 X213.977 Y219.651
G01 X215.844 Y218.231
G01 X216.182 Y217.989
G01 X217.664 Y216.233
G01 X219.236 Y214.545
G01 X219.679 Y214.098
G01 X220.948 Y211.960
G01 X222.354 Y209.861
G01 X222.388 Y209.814
G01 X223.460 Y206.995
G01 X224.140 Y205.448
G01 X224.911 Y201.433
G01 X224.950 Y201.268
G01 X225.057 Y197.467
G01 X224.927 Y194.163
G01 X225.183 Y191.405
G01 X226.477 Y189.195
G01 X229.292 Y187.521
G01 X229.325 Y187.502
G01 X232.440 Y186.645
G01 X233.955 Y186.286
G01 X237.147 Y185.810
G01 X240.208 Y185.504
G01 X243.399 Y185.237
G01 X246.592 Y185.127
G01 X247.551 Y185.124
G01 X250.737 Y185.111
G01 X251.365 Y185.127
G01 X254.557 Y185.114
G01 X255.179 Y185.129
G01 X258.388 Y185.212
G01 X261.602 Y185.455
G01 X262.221 Y185.520
G01 X265.441 Y185.902
G01 X267.944 Y186.312
G01 X271.056 Y187.245
G01 X271.934 Y187.538
G01 X274.170 Y189.240
G01 X275.004 Y191.457
G01 X275.030 Y194.218
G01 X274.927 Y197.521
G01 X275.290 Y201.315
G01 X276.355 Y204.830
G01 X276.522 Y205.482
G01 X277.902 Y208.000
G01 X278.783 Y209.830
G01 X280.341 Y211.767
G01 X281.779 Y213.759
G01 X282.007 Y214.095
G01 X283.749 Y215.690
G01 X285.411 Y217.369
G01 X285.968 Y217.970
G01 X288.012 Y219.357
G01 X290.005 Y220.870
G01 X290.352 Y221.151
G01 X292.941 Y222.380
G01 X294.840 Y223.409
G01 X298.402 Y224.420
G01 X299.153 Y224.670
G01 X303.088 Y225.070
G01 X306.520 Y224.981
G01 X309.396 Y224.974
G01 X311.717 Y225.711
G01 X313.515 Y227.796
G01 X314.617 Y230.913
G01 X314.838 Y231.604
G01 X315.423 Y234.863
G01 X315.736 Y237.157
G01 X316.070 Y240.430
G01 X316.241 Y243.704
G01 X316.251 Y244.086
G01 X316.331 Y247.350
G01 X316.328 Y247.889
G01 X316.409 Y251.147
G01 X316.406 Y251.692
G01 X316.423 Y254.962
G01 X316.278 Y258.238
G01 X316.213 Y259.108
G01 X316.005 Y262.406
G01 X315.659 Y265.512
G01 X315.060 Y268.785
G01 X314.719 Y270.328
G01 X313.350 Y273.348
G01 X311.504 Y274.763
G01 X309.134 Y275.075
G01 X306.211 Y274.948
G01 X302.739 Y275.039
G01 X298.778 Y275.857
G01 X295.726 Y277.194
G01 X294.456 Y277.679
G01 X292.176 Y279.226
G01 X289.984 Y280.543
G01 X288.153 Y282.228
G01 X286.254 Y283.808
G01 X285.640 Y284.285
G01 X284.069 Y286.156
G01 X282.400 Y287.955
G01 X281.743 Y288.617
G01 X280.326 Y290.824
G01 X278.768 Y292.982
G01 X278.596 Y293.207
G01 X277.310 Y296.023
G01 X276.414 Y297.744
G01 X275.351 Y301.655
G01 X275.248 Y301.981
G01 X274.925 Y305.752
G01 X275.037 Y308.972
G01 X274.989 Y311.620
G01 X274.111 Y313.721
G01 X271.819 Y315.322
G01 X268.576 Y316.273
G01 X267.779 Y316.481
G01 X264.434 Y316.989
G01 X262.018 Y317.251
G01 X258.676 Y317.543
G01 X255.334 Y317.670
G01 X254.957 Y317.673
G01 X251.628 Y317.729
G01 X251.141 Y317.724
G01 X247.814 Y317.779
G01 X247.325 Y317.774
G01 X243.984 Y317.773
G01 X240.637 Y317.608
G01 X239.997 Y317.558
G01 X236.625 Y317.334
G01 X233.770 Y317.013
G01 X230.428 Y316.386
G01 X229.182 Y316.108
G01 X226.385 Y314.798
G01 X225.146 Y313.027
G01 X224.932 Y310.740
G01 X225.066 Y307.897
G01 X224.898 Y304.488
G01 X223.940 Y300.555
G01 X222.484 Y297.501
G01 X221.940 Y296.208
G01 X220.303 Y293.893
G01 X218.888 Y291.640
G01 X217.138 Y289.753
G01 X215.498 Y287.796
G01 X214.968 Y287.119
G01 X213.064 Y285.475
G01 X211.237 Y283.734
G01 X210.485 Y282.965
G01 X208.293 Y281.456
G01 X206.155 Y279.810
G01 X205.778 Y279.501
G01 X203.057 Y278.089
G01 X201.160 Y276.977
G01 X197.481 Y275.731
G01 X196.877 Y275.497
G01 X193.086 Y274.953
G01 X189.865 Y274.992
G01 X187.228 Y275.059
G01 X185.142 Y274.484
G01 X183.551 Y272.640
G01 X182.470 Y269.366
G01 X182.392 Y269.107
G01 X181.837 Y265.697
G01 X181.604 Y263.805
G01 X181.286 Y260.390
G01 X181.140 Y257.047
G01 X181.054 Y253.650
G01 X181.055 Y253.269
G01 X180.970 Y249.882
G01 X180.970 Y249.490
G01 X181.012 Y246.100
G01 X181.027 Y245.739
G01 X181.069 Y242.332
G01 X181.083 Y241.988
G01 X181.213 Y238.558
G01 X181.485 Y235.381
G01 X181.929 Y231.942
G01 X182.204 Y230.294
G01 X183.281 Y227.001
G01 X183.283 Y226.997
G01 X184.777 Y225.363
G01 X186.752 Y224.927
G01 X189.263 Y225.034
G01 X192.350 Y225.005
G01 X196.011 Y224.291
G01 X199.480 Y222.825
G01 X200.183 Y222.563
G01 X202.768 Y220.878
G01 X204.726 Y219.742
G01 X206.806 Y217.958
G01 X208.950 Y216.304
G01 X209.419 Y215.966
G01 X211.210 Y214.082
G01 X213.088 Y212.293
G01 X213.964 Y211.516
G01 X215.602 Y209.448
G01 X217.358 Y207.449
G01 X218.027 Y206.737
G01 X219.587 Y204.317
G01 X221.294 Y201.965
G01 X222.773 Y198.901
G01 X223.548 Y197.471
G01 X224.746 Y193.447
G01 X225.075 Y189.992
G01 X224.961 Y187.138
G01 X225.016 Y184.858
G01 X225.917 Y183.096
G01 X228.246 Y181.785
G01 X231.669 Y180.988
G01 X232.331 Y180.854
G01 X235.818 Y180.431
G01 X238.131 Y180.247
G01 X241.597 Y179.997
G01 X245.060 Y179.919
G01 X245.216 Y179.919
G01 X248.663 Y179.877
G01 X249.033 Y179.883
G01 X252.478 Y179.841
G01 X252.850 Y179.846
G01 X256.310 Y179.834
G01 X259.778 Y179.994
G01 X260.162 Y180.022
G01 X263.662 Y180.202
G01 X266.357 Y180.460
G01 X269.850 Y180.995
G01 X270.907 Y181.193
G01 X273.665 Y182.269
G01 X274.871 Y183.752
G01 X275.065 Y185.711
G01 X274.931 Y188.210
G01 X275.126 Y191.294
G01 X276.148 Y194.969
G01 X277.804 Y198.204
G01 X278.251 Y199.180
G01 X280.064 Y201.668
G01 X281.446 Y203.792
G01 X283.327 Y205.853
G01 X285.081 Y207.986
G01 X285.541 Y208.584
G01 X287.503 Y210.407
G01 X289.371 Y212.322
G01 X290.220 Y213.258
G01 X292.351 Y214.965
G01 X294.410 Y216.792
G01 X295.128 Y217.475
G01 X297.589 Y219.132
G01 X299.935 Y220.908
G01 X303.001 Y222.512
G01 X304.387 Y223.322
G01 X308.316 Y224.654
G01 X311.642 Y225.070
G01 X314.357 Y224.978
G01 X316.501 Y224.981
G01 X318.139 Y225.760
G01 X319.350 Y227.917
G01 X320.125 Y231.406
G01 X320.204 Y231.813
G01 X320.609 Y235.363
G01 X320.764 Y237.447
G01 X321.006 Y240.971
G01 X321.074 Y244.428
G01 X321.121 Y247.927
G01 X321.117 Y248.237
G01 X321.164 Y251.729
G01 X321.160 Y252.045
G01 X321.194 Y255.551
G01 X321.055 Y259.066
G01 X321.030 Y259.432
G01 X320.900 Y262.982
G01 X320.674 Y265.776
G01 X320.242 Y269.343
G01 X320.060 Y270.515
G01 X319.142 Y273.457
G01 X317.856 Y274.805
G01 X316.129 Y275.072
G01 X313.886 Y274.939
G01 X311.066 Y275.079
G01 X307.636 Y276.015
G01 X304.225 Y277.754
G01 X303.617 Y278.035
G01 X300.996 Y279.939
G01 X299.103 Y281.176
G01 X296.928 Y283.134
G01 X294.681 Y284.955
G01 X294.276 Y285.263
G01 X292.349 Y287.267
G01 X290.333 Y289.167
G01 X289.403 Y289.983
G01 X287.597 Y292.096
G01 X285.678 Y294.127
G01 X284.817 Y294.976
G01 X283.050 Y297.320
G01 X281.135 Y299.597
G01 X280.867 Y299.897
G01 X279.114 Y302.676
G01 X277.850 Y304.477
G01 X276.172 Y308.059
G01 X275.928 Y308.532
G01 X275.056 Y311.972
G01 X274.944 Y314.783
G01 X275.074 Y317.004
G01 X274.783 Y318.704
G01 X273.402 Y319.965
G01 X270.429 Y320.866
G01 X266.827 Y321.358
G01 X265.667 Y321.477
G01 X262.073 Y321.757
G01 X259.311 Y321.850
G01 X255.758 Y322.026
G01 X252.211 Y322.028
G01 X251.919 Y322.020
G01 X248.383 Y322.020
G01 X248.111 Y322.013
G01 X244.566 Y322.012
G01 X244.303 Y322.005
G01 X240.732 Y321.986
G01 X237.330 Y321.803
G01 X233.710 Y321.589
G01 X231.711 Y321.394
G01 X228.111 Y320.793
G01 X227.841 Y320.740
G01 X225.716 Y319.786
G01 X224.971 Y318.463
G01 X224.987 Y316.689
G01 X225.063 Y314.386
G01 X224.581 Y311.488
G01 X223.116 Y307.963
G01 X221.158 Y304.948
G01 X220.502 Y303.837
G01 X218.461 Y301.402
G01 X216.810 Y299.212
G01 X214.750 Y297.103
G01 X212.817 Y294.912
G01 X212.296 Y294.281
G01 X210.201 Y292.343
G01 X208.206 Y290.306
G01 X207.311 Y289.325
G01 X205.110 Y287.452
G01 X202.991 Y285.458
G01 X202.226 Y284.688
G01 X199.794 Y282.817
G01 X197.432 Y280.789
G01 X197.360 Y280.724
G01 X194.491 Y278.844
G01 X192.949 Y277.729
G01 X189.258 Y275.919
G01 X189.133 Y275.853
G01 X185.966 Y275.031
G01 X183.430 Y274.952
G01 X181.465 Y275.075
G01 X179.989 Y274.729
G01 X178.913 Y273.249
G01 X178.158 Y270.149
G01 X177.750 Y266.487
G01 X177.655 Y265.260
G01 X177.415 Y261.624
G01 X177.354 Y258.804
G01 X177.196 Y255.216
G01 X177.214 Y251.633
G01 X177.223 Y251.368
G01 X177.228 Y247.795
G01 X177.234 Y247.569
G01 X177.240 Y243.985
G01 X177.246 Y243.771
G01 X177.260 Y240.157
G01 X177.427 Y236.874
G01 X177.621 Y233.204
G01 X177.786 Y231.371
G01 X178.346 Y227.713
G01 X178.360 Y227.630
G01 X179.205 Y225.620
G01 X180.392 Y224.954
G01 X182.003 Y224.999
G01 X184.126 Y225.053
G01 X186.838 Y224.499
G01 X190.188 Y222.929
G01 X193.166 Y220.837
G01 X194.172 Y220.190
G01 X196.619 Y218.036
G01 X198.716 Y216.368
G01 X200.871 Y214.215
G01 X203.112 Y212.191
G01 X203.653 Y211.733
G01 X205.660 Y209.573
G01 X207.768 Y207.516
G01 X208.725 Y206.647
G01 X210.684 Y204.421
G01 X212.763 Y202.284
G01 X213.596 Y201.484
G01 X215.572 Y199.092
G01 X217.695 Y196.779
G01 X217.900 Y196.568
G01 X219.913 Y193.847
G01 X221.308 Y192.135
G01 X223.306 Y188.788
G01 X223.607 Y188.322
G01 X224.785 Y185.176
G01 X225.075 Y182.674
G01 X224.950 Y180.751
G01 X225.056 Y179.318
G01 X226.083 Y178.280
G01 X228.595 Y177.554
G01 X232.304 Y177.119
G01 X232.883 Y177.067
G01 X236.575 Y176.824
G01 X238.857 Y176.766
G01 X242.494 Y176.601
G01 X246.045 Y176.614
G01 X249.651 Y176.597
G01 X249.866 Y176.602
G01 X253.472 Y176.586
G01 X253.687 Y176.591
G01 X257.315 Y176.554
G01 X260.913 Y176.694
G01 X264.603 Y176.784
G01 X266.950 Y176.937
G01 X270.680 Y177.274
G01 X271.307 Y177.349
G01 X273.876 Y177.978
G01 X274.935 Y178.888
G01 X275.052 Y180.160
G01 X274.925 Y181.883
G01 X275.221 Y184.149
G01 X276.435 Y187.034
G01 X278.608 Y190.255
G01 X278.811 Y190.580
G01 X281.080 Y193.184
G01 X282.340 Y194.768
G01 X284.605 Y197.043
G01 X286.725 Y199.405
G01 X286.804 Y199.498
G01 X289.044 Y201.605
G01 X291.166 Y203.809
G01 X291.858 Y204.577
G01 X294.101 Y206.622
G01 X296.245 Y208.778
G01 X297.115 Y209.717
G01 X299.427 Y211.774
G01 X301.650 Y213.962
G01 X302.221 Y214.561
G01 X304.706 Y216.673
G01 X306.900 Y218.737
G01 X309.734 Y220.900
G01 X310.977 Y221.933
G01 X314.376 Y223.979
G01 X317.098 Y224.921
G01 X319.201 Y225.060
G01 X320.773 Y224.928
G01 X321.913 Y225.199
G01 X322.715 Y226.550
G01 X323.261 Y229.492
G01 X323.567 Y233.250
G01 X323.615 Y234.224
G01 X323.804 Y237.936
G01 X323.825 Y240.558
G01 X323.963 Y244.210
G01 X323.922 Y247.854
G01 X323.919 Y247.938
G01 X323.920 Y251.568
G01 X323.916 Y251.748
G01 X323.917 Y255.386
G01 X323.913 Y255.558
G01 X323.938 Y259.226
G01 X323.805 Y262.551
G01 X323.703 Y266.291
G01 X323.579 Y268.203
G01 X323.220 Y271.978
G01 X323.204 Y272.111
G01 X322.630 Y274.265
G01 X321.792 Y275.027
G01 X320.607 Y275.014
G01 X318.980 Y274.937
G01 X316.814 Y275.434
G01 X314.024 Y276.946
G01 X311.048 Y279.299
G01 X310.559 Y279.658
G01 X308.064 Y282.060
G01 X306.426 Y283.503
G01 X304.177 Y285.875
G01 X301.832 Y288.108
G01 X301.710 Y288.218
G01 X299.572 Y290.545
G01 X297.330 Y292.755
G01 X296.594 Y293.435
G01 X294.477 Y295.742
G01 X292.246 Y297.945
G01 X291.362 Y298.760
G01 X289.203 Y301.101
G01 X286.913 Y303.345
G01 X286.367 Y303.848
G01 X284.131 Y306.310
G01 X281.992 Y308.442
G01 X279.684 Y311.173
G01 X278.569 Y312.388
G01 X276.299 Y315.630
G01 X275.173 Y318.188
G01 X274.927 Y320.133
G01 X275.060 Y321.562
G01 X274.904 Y322.581
G01 X273.770 Y323.284
G01 X271.109 Y323.754
G01 X267.307 Y324.028
G01 X266.663 Y324.055
G01 X262.912 Y324.224
G01 X260.558 Y324.233
G01 X256.876 Y324.365
G01 X253.298 Y324.319
G01 X249.647 Y324.327
G01 X249.477 Y324.323
G01 X245.824 Y324.330
G01 X245.657 Y324.326
G01 X241.977 Y324.376
G01 X238.507 Y324.257
G01 X234.753 Y324.211
G01 X232.600 Y324.099
G01 X228.783 Y323.860
G01 X228.398 Y323.825
G01 X225.975 Y323.393
G01 X225.025 Y322.744
G01 X224.962 Y321.798
G01 X225.074 Y320.464
G01 X224.699 Y318.637
G01 X223.352 Y316.221
G01 X220.874 Y313.230
G01 X220.802 Y313.137
G01 X218.264 Y310.626
G01 X217.077 Y309.353
G01 X214.573 Y307.073
G01 X212.416 Y304.907
G01 X209.976 Y302.722
G01 X207.659 Y300.430
G01 X207.181 Y299.929
G01 X204.863 Y297.683
G01 X204.478 Y297.289
G01 X202.162 Y295.046
G01 X201.776 Y294.650
G01 X199.418 Y292.419
G01 X197.163 Y290.063
G01 X196.564 Y289.395
G01 X194.172 Y287.073
G01 X191.881 Y284.610
G01 X191.826 Y284.548
G01 X189.303 Y282.126
G01 X187.736 Y280.484
G01 X184.903 Y278.000
G01 X184.367 Y277.496
G01 X181.707 Y275.703
G01 X179.689 Y274.987
G01 X178.214 Y274.973
G01 X177.171 Y275.070
G01 X176.458 Y274.579
G01 X175.986 Y272.848
G01 X175.684 Y269.435
G01 X175.515 Y265.619
G01 X175.501 Y264.242
G01 X175.372 Y260.501
G01 X175.402 Y257.562
G01 X175.382 Y253.879
G01 X175.383 Y253.798
G01 X175.363 Y250.132
G01 X175.365 Y250.035
G01 X175.371 Y246.368
G01 X175.374 Y246.267
G01 X175.380 Y242.583
G01 X175.383 Y242.499
G01 X175.351 Y238.774
G01 X175.459 Y235.800
G01 X175.534 Y231.987
G01 X175.610 Y230.584
G01 X175.866 Y227.154
G01 X176.271 Y225.417
G01 X176.890 Y224.929
G01 X177.805 Y225.030
G01 X179.114 Y225.005
G01 X180.923 Y224.249
G01 X183.337 Y222.377
G01 X185.974 Y219.708
G01 X186.437 Y219.268
G01 X188.779 Y216.599
G01 X190.257 Y215.051
G01 X192.479 Y212.446
G01 X194.756 Y210.030
G01 X196.962 Y207.510
G01 X199.282 Y205.110
G01 X199.802 Y204.604
G01 X202.124 Y202.230
G01 X202.477 Y201.889
G01 X204.803 Y199.512
G01 X205.153 Y199.174
G01 X207.504 Y196.787
G01 X209.981 Y194.510
G01 X210.478 Y194.080
G01 X212.945 Y191.698
G01 X215.384 Y189.564
G01 X217.965 Y187.101
G01 X219.490 Y185.759
G01 X222.140 Y183.046
G01 X222.501 Y182.699
G01 X224.302 Y180.341
G01 X225.015 Y178.597
G01 X225.026 Y177.357
G01 X224.931 Y176.508
G01 X225.434 Y175.947
G01 X227.189 Y175.589
G01 X230.630 Y175.369
G01 X234.468 Y175.240
G01 X235.851 Y175.242
G01 X239.605 Y175.130
G01 X242.550 Y175.175
G01 X246.243 Y175.161
G01 X246.317 Y175.162
G01 X249.994 Y175.148
G01 X250.084 Y175.150
G01 X253.762 Y175.154
G01 X253.848 Y175.157
G01 X257.544 Y175.161
G01 X257.612 Y175.163
G01 X261.352 Y175.119
G01 X264.293 Y175.215
G01 X268.126 Y175.259
G01 X269.484 Y175.321
G01 X272.886 Y175.508
G01 X274.600 Y175.816
G01 X275.072 Y176.303
G01 X274.967 Y177.049
G01 X275.002 Y178.150
G01 X275.784 Y179.714
G01 X277.699 Y181.855
G01 X280.520 Y184.347
G01 X280.864 Y184.670
G01 X283.676 Y186.931
G01 X285.149 Y188.216
G01 X287.887 Y190.411
G01 X290.242 Y192.489
G01 X292.878 Y194.710
G01 X295.393 Y197.051
G01 X295.739 Y197.391
G01 X298.200 Y199.766
G01 X298.484 Y200.055
G01 X300.945 Y202.430
G01 X301.229 Y202.719
G01 X303.656 Y205.148
G01 X305.969 Y207.702
G01 X306.367 Y208.169
G01 X308.726 Y210.735
G01 X310.908 Y213.358
G01 X313.257 Y216.055
G01 X314.717 Y217.882
G01 X317.171 Y220.679
G01 X317.762 Y221.398
G01 X320.088 Y223.709
G01 X321.789 Y224.838
G01 X322.980 Y225.072
G01 X323.780 Y224.937
G01 X324.295 Y225.118
G01 X324.612 Y226.308
G01 X324.799 Y229.048
G01 X324.906 Y232.933
G01 X324.904 Y233.579
G01 X324.998 Y237.379
G01 X324.959 Y239.753
G01 X325.060 Y243.470
G01 X324.983 Y247.050
G01 X324.987 Y250.733
G01 X324.983 Y250.869
G01 X324.987 Y254.555
G01 X324.984 Y254.687
G01 X325.057 Y258.404
G01 X324.963 Y261.796
G01 X324.981 Y265.603
G01 X324.912 Y267.634
G01 X324.825 Y271.539
G01 X324.814 Y271.756
G01 X324.637 Y274.103
G01 X324.337 Y274.995
G01 X323.849 Y275.030
G01 X323.088 Y274.929
G01 X321.949 Y275.362
G01 X320.318 Y276.817
G01 X318.078 Y279.521
G01 X315.879 Y282.496
G01 X315.133 Y283.437
G01 X312.998 Y286.353
G01 X311.432 Y288.313
G01 X309.253 Y291.126
G01 X306.995 Y293.764
G01 X304.637 Y296.387
G01 X304.469 Y296.565
G01 X302.118 Y299.181
G01 X301.942 Y299.366
G01 X299.444 Y301.841
G01 X299.222 Y302.049
G01 X296.719 Y304.529
G01 X296.502 Y304.733
G01 X293.908 Y307.140
G01 X291.189 Y309.424
G01 X291.005 Y309.570
G01 X288.254 Y311.869
G01 X285.849 Y313.698
G01 X282.963 Y315.947
G01 X281.439 Y317.044
G01 X278.464 Y319.363
G01 X278.104 Y319.627
G01 X276.004 Y321.529
G01 X275.065 Y322.865
G01 X274.945 Y323.759
G01 X275.075 Y324.329
G01 X274.753 Y324.672
G01 X273.300 Y324.868
G01 X270.222 Y324.972
G01 X266.337 Y325.039
G01 X265.350 Y325.024
G01 X261.561 Y325.105
G01 X258.909 Y325.048
G01 X255.199 Y325.143
G01 X251.500 Y325.057
G01 X251.480 Y325.056
G01 X247.795 Y325.058
G01 X247.680 Y325.055
G01 X243.983 Y325.057
G01 X243.879 Y325.055
G01 X240.143 Y325.127
G01 X236.963 Y325.043
G01 X233.128 Y325.066
G01 X231.431 Y325.014
G01 X227.657 Y324.950
G01 X225.626 Y324.825
G01 X224.953 Y324.595
G01 X225.002 Y324.199
G01 X225.047 Y323.553
G01 X224.439 Y322.553
G01 X222.734 Y321.081
G01 X219.753 Y319.014
G01 X216.634 Y316.983
G01 X215.580 Y316.244
G01 X212.533 Y314.197
G01 X210.504 Y312.706
G01 X207.575 Y310.549
G01 X204.929 Y308.399
G01 X202.212 Y306.008
G01 X202.107 Y305.911
G01 X199.394 Y303.523
G01 X199.286 Y303.423
G01 X196.751 Y300.846
G01 X196.620 Y300.705
G01 X194.081 Y298.123
G01 X193.954 Y297.987
G01 X191.535 Y295.281
G01 X189.247 Y292.453
G01 X189.210 Y292.406
G01 X186.959 Y289.524
G01 X185.218 Y287.076
G01 X183.090 Y284.050
G01 X182.031 Y282.416
G01 X179.931 Y279.289
G01 X179.611 Y278.781
G01 X177.866 Y276.379
G01 X176.671 Y275.190
G01 X175.897 Y274.927
G01 X175.426 Y275.059
G01 X175.159 Y274.900
G01 X175.020 Y273.747
G01 X174.957 Y271.051
G01 X174.920 Y267.137
G01 X174.932 Y266.566
G01 X174.869 Y262.751
G01 X174.925 Y260.429
G01 X174.837 Y256.703
G01 X174.925 Y253.151
G01 X174.921 Y249.464
G01 X174.925 Y249.332
G01 X174.922 Y245.642
G01 X174.925 Y245.513
G01 X174.840 Y241.791
G01 X174.925 Y238.379
G01 X174.876 Y234.563
G01 X174.930 Y232.498
G01 X174.943 Y228.568
G01 X174.951 Y228.326
G01 X175.006 Y225.935
G01 X175.129 Y225.013
G01 X175.371 Y224.967
G01 X175.802 Y225.072
G01 X176.516 Y224.647
G01 X177.628 Y223.191
G01 X179.266 Y220.461
G01 X181.130 Y217.183
G01 X181.554 Y216.488
G01 X183.463 Y213.270
G01 X184.592 Y211.524
G01 X186.644 Y208.417
G01 X188.427 Y205.964
G01 X190.685 Y203.013
G01 X193.025 Y200.244
G01 X195.585 Y197.556
G01 X195.636 Y197.506
G01 X198.198 Y194.816
G01 X198.247 Y194.767
G01 X200.975 Y192.242
G01 X203.826 Y189.852
G01 X203.835 Y189.844
G01 X206.774 Y187.552
G01 X209.434 Y185.666
G01 X212.544 Y183.583
G01 X214.622 Y182.309
G01 X217.858 Y180.377
G01 X218.989 Y179.752
G01 X222.218 Y177.907
G01 X224.179 Y176.649
G01 X224.990 Y175.844
G01 X225.037 Y175.365
G01 X224.927 Y175.105
G01 X225.375 Y174.981
G01 X227.047 Y174.934
G01 X230.396 Y174.925
G01 X234.280 Y174.897
G01 X235.530 Y174.930
G01 X239.309 Y174.863
G01 X242.166 Y174.938
G01 X245.875 Y174.939
G01 X245.922 Y174.940
G01 X249.610 Y174.941
G01 X249.677 Y174.942
G01 X253.363 Y174.939
G01 X253.452 Y174.942
G01 X257.156 Y174.939
G01 X257.228 Y174.941
G01 X260.979 Y174.862
G01 X263.974 Y174.934
G01 X267.834 Y174.892
G01 X269.257 Y174.926
G01 X272.758 Y174.927
G01 X274.552 Y174.954
G01 X275.069 Y175.040
G01 X274.973 Y175.234
G01 X274.993 Y175.607
G01 X275.763 Y176.257
G01 X277.697 Y177.301
G01 X280.936 Y178.871
G01 X284.348 Y180.558
G01 X285.360 Y181.099
G01 X288.696 Y182.921
G01 X290.649 Y184.089
G01 X293.856 Y186.130
G01 X296.375 Y187.895
G01 X299.397 Y190.208
G01 X302.100 Y192.488
G01 X304.882 Y195.091
G01 X307.443 Y197.730
G01 X309.946 Y200.604
G01 X312.130 Y203.364
G01 X314.346 Y206.467
G01 X316.011 Y209.029
G01 X317.964 Y212.305
G01 X319.050 Y214.300
G01 X320.796 Y217.696
G01 X321.298 Y218.757
G01 X322.867 Y222.074
G01 X323.891 Y224.109
G01 X324.511 Y224.972
G01 X324.850 Y225.043
G01 X325.011 Y224.925
G01 X325.068 Y225.335
G01 X325.074 Y226.945
G01 X325.058 Y230.220
G01 X325.074 Y234.109
G01 X325.039 Y235.284
G01 X325.101 Y239.066
G01 X325.025 Y241.869
G01 X325.115 Y245.573
G01 X325.023 Y249.266
G01 X325.018 Y249.359
G01 X325.022 Y253.044
G01 X325.019 Y253.143
G01 X325.022 Y256.843
G01 X325.020 Y256.926
G01 X325.102 Y260.672
G01 X325.031 Y263.720
G01 X325.082 Y267.576
G01 X325.048 Y269.074
G01 X325.067 Y272.651
G01 X325.075 Y274.508
G01 X325.049 Y275.064
G01 X324.949 Y274.979
G01 X324.711 Y274.983
G01 X324.250 Y275.721
G01 X323.451 Y277.621
G01 X322.184 Y280.838
G01 X320.699 Y284.399
G01 X320.309 Y285.261
G01 X318.648 Y288.756
G01 X317.699 Y290.574
G01 X315.777 Y293.948
G01 X314.271 Y296.346
G01 X312.027 Y299.529
G01 X310.012 Y302.128
G01 X307.423 Y305.049
G01 X305.008 Y307.531
G01 X302.095 Y310.133
G01 X299.466 Y312.271
G01 X296.283 Y314.528
G01 X293.710 Y316.189
G01 X290.329 Y318.116
G01 X288.150 Y319.245
G01 X284.636 Y320.889
G01 X283.225 Y321.491
G01 X279.632 Y322.925
G01 X279.322 Y323.040
G01 X276.676 Y324.033
G01 X275.298 Y324.616
G01 X274.925 Y324.918
G01 X275.042 Y325.046
G01 X274.963 Y325.075
G01 X273.971 Y325.060
G01 X271.488 Y325.031
G01 X267.551 Y325.015
G01 X267.223 Y325.004
G01 X263.395 Y325.046
G01 X261.267 Y324.985
G01 X257.536 Y325.065
G01 X254.093 Y324.974
G01 X250.408 Y324.977
G01 X250.272 Y324.974
G01 X246.589 Y324.976
G01 X246.452 Y324.973
G01 X242.743 Y325.064
G01 X239.210 Y324.979
G01 X235.410 Y325.047
G01 X233.140 Y324.995
G01 X229.217 Y325.029
G01 X228.742 Y325.019
G01 X226.138 Y325.049
G01 X225.064 Y325.072
G01 X224.951 Y325.066
G01 X225.076 Y324.987
G01 X224.733 Y324.769
G01 X223.381 Y324.318
G01 X220.737 Y323.516
G01 X217.023 Y322.303
G01 X216.794 Y322.222
G01 X213.116 Y320.842
G01 X211.789 Y320.293
G01 X208.193 Y318.650
G01 X206.116 Y317.601
G01 X202.673 Y315.615
G01 X200.235 Y314.066
G01 X197.032 Y311.686
G01 X194.576 Y309.686
G01 X191.701 Y306.907
G01 X189.482 Y304.563
G01 X186.994 Y301.434
G01 X185.171 Y298.925
G01 X183.083 Y295.526
G01 X181.738 Y293.117
G01 X180.020 Y289.537
G01 X179.164 Y287.563
G01 X177.759 Y283.877
G01 X177.358 Y282.709
G01 X176.191 Y278.968
G01 X176.180 Y278.929
G01 X175.480 Y276.436
G01 X175.113 Y275.202
G01 X174.959 Y274.926
G01 X174.925 Y275.059
G01 X174.946 Y274.898
G01 X174.985 Y273.733
G01 X175.019 Y271.016
G01 X175.025 Y267.096
G01 X175.043 Y266.507
G01 X174.992 Y262.697
G01 X175.057 Y260.350
G01 X174.972 Y256.631
G01 X175.063 Y253.063
G01 X175.060 Y249.383
G01 X175.063 Y249.244
G01 X175.060 Y245.560
G01 X175.063 Y245.425
G01 X174.976 Y241.709
G01 X175.058 Y238.302
G01 X174.998 Y234.489
G01 X175.046 Y232.436
G01 X175.019 Y228.498
G01 X175.023 Y228.283
G01 X174.990 Y225.911
G01 X174.951 Y225.006
G01 X174.925 Y224.970
G01 X174.949 Y225.070
G01 X175.080 Y224.612
G01 X175.409 Y223.081
G01 X176.050 Y220.229
G01 X177.057 Y216.386
G01 X177.144 Y216.086
G01 X178.359 Y212.270
G01 X178.841 Y210.919
G01 X180.360 Y207.177
G01 X181.281 Y205.140
G01 X183.193 Y201.553
G01 X184.565 Y199.217
G01 X186.929 Y195.891
G01 X188.723 Y193.579
G01 X191.545 Y190.620
G01 X193.683 Y188.559
G01 X196.906 Y186.039
G01 X199.248 Y184.361
G01 X202.773 Y182.298
G01 X205.099 Y181.062
G01 X208.817 Y179.424
G01 X210.820 Y178.632
G01 X214.641 Y177.354
G01 X215.957 Y176.963
G01 X219.824 Y175.973
G01 X220.102 Y175.909
G01 X222.986 Y175.313
G01 X224.564 Y175.027
G01 X225.065 Y174.931
G01 X224.980 Y174.934
G01 X224.986 Y174.976
G01 X225.808 Y175.021
G01 X228.058 Y175.053
G01 X232.002 Y175.067
G01 X232.072 Y175.069
G01 X235.910 Y175.024
G01 X237.812 Y175.075
G01 X241.551 Y174.993
G01 X244.858 Y175.075
G01 X248.544 Y175.072
G01 X248.672 Y175.075
G01 X252.351 Y175.071
G01 X252.486 Y175.075
G01 X256.184 Y174.985
G01 X259.834 Y175.075
G01 X263.615 Y175.012
G01 X266.107 Y175.074
G01 X270.006 Y175.048
G01 X270.757 Y175.066
G01 X273.603 Y175.044
G01 X274.862 Y175.008
G01 X275.064 Y174.961
G01 X274.928 Y174.927
G01 X275.176 Y174.947
G01 X276.386 Y175.089
G01 X278.888 Y175.454
G01 X282.726 Y176.170
G01 X286.687 Y177.114
G01 X287.691 Y177.388
G01 X291.615 Y178.627
G01 X293.394 Y179.262
G01 X297.207 Y180.899
G01 X299.370 Y181.931
G01 X302.958 Y184.052
G01 X305.163 Y185.480
G01 X308.394 Y188.125
G01 X310.404 Y189.911
G01 X313.169 Y193.047
G01 X314.849 Y195.114
G01 X317.099 Y198.642
G01 X318.385 Y200.850
G01 X320.137 Y204.638
G01 X321.019 Y206.757
G01 X322.337 Y210.684
G01 X322.842 Y212.394
G01 X323.806 Y216.375
G01 X324.001 Y217.304
G01 X324.658 Y221.109
G01 X324.970 Y223.599
G01 X325.070 Y224.815
G01 X325.061 Y225.072
G01 X325.012 Y224.937
G01 X324.963 Y225.122
G01 X324.933 Y226.335
G01 X324.925 Y229.118
G01 X324.948 Y233.026
G01 X324.932 Y233.696
G01 X325.000 Y237.500
G01 X324.944 Y239.909
G01 X325.038 Y243.625
G01 X324.953 Y247.225
G01 X324.956 Y250.905
G01 X324.953 Y251.041
G01 X324.956 Y254.727
G01 X324.953 Y254.858
G01 X325.032 Y258.577
G01 X324.944 Y261.947
G01 X324.987 Y265.761
G01 X324.932 Y267.755
G01 X324.929 Y271.687
G01 X324.925 Y271.841
G01 X324.932 Y274.150
G01 X324.960 Y275.008
G01 X325.008 Y275.023
G01 X325.058 Y274.934
G01 X325.072 Y275.437
G01 X324.982 Y277.044
G01 X324.690 Y279.996
G01 X324.096 Y284.070
G01 X324.064 Y284.255
G01 X323.237 Y288.341
G01 X322.952 Y289.542
G01 X321.790 Y293.600
G01 X321.191 Y295.428
G01 X319.580 Y299.365
G01 X318.636 Y301.436
G01 X316.477 Y305.113
G01 X315.189 Y307.124
G01 X312.444 Y310.386
G01 X310.836 Y312.153
G01 X307.551 Y314.881
G01 X305.677 Y316.319
G01 X301.976 Y318.470
G01 X299.942 Y319.548
G01 X295.981 Y321.158
G01 X293.987 Y321.881
G01 X289.905 Y323.033
G01 X288.255 Y323.434
G01 X284.144 Y324.221
G01 X283.210 Y324.369
G01 X279.249 Y324.854
G01 X276.604 Y325.046
G01 X275.260 Y325.072
G01 X274.925 Y325.026
G01 X275.051 Y324.969
G01 X274.932 Y324.932
G01 X273.848 Y324.926
G01 X271.235 Y324.945
G01 X267.323 Y324.988
G01 X266.832 Y324.979
G01 X263.018 Y325.057
G01 X260.761 Y325.012
G01 X257.035 Y325.110
G01 X253.521 Y325.033
G01 X249.835 Y325.038
G01 X249.700 Y325.035
G01 X246.013 Y325.039
G01 X245.880 Y325.036
G01 X242.165 Y325.113
G01 X238.701 Y325.019
G01 X234.897 Y325.053
G01 X232.742 Y324.988
G01 X228.825 Y324.965
G01 X228.478 Y324.953
G01 X226.004 Y324.929
G01 X225.028 Y324.928
G01 X224.963 Y324.957
G01 X225.073 Y325.011
G01 X224.650 Y325.064
G01 X223.155 Y325.064
G01 X220.315 Y324.928
G01 X216.149 Y324.538
G01 X216.142 Y324.537
G01 X211.937 Y323.929
G01 X210.898 Y323.743
G01 X206.684 Y322.815
G01 X205.004 Y322.379
G01 X200.870 Y321.005
G01 X198.946 Y320.283
G01 X195.040 Y318.339
G01 X193.177 Y317.322
G01 X189.681 Y314.733
G01 X188.053 Y313.432
G01 X185.123 Y310.216
G01 X183.797 Y308.650
G01 X181.504 Y304.927
G01 X180.494 Y303.142
G01 X178.810 Y299.088
G01 X178.112 Y297.208
G01 X176.945 Y292.998
G01 X176.532 Y291.258
G01 X175.773 Y287.016
G01 X175.593 Y285.762
G01 X175.147 Y281.554
G01 X174.943 Y277.810
G01 X174.934 Y275.804
G01 X174.990 Y275.000
G01 X175.048 Y274.970
G01 X175.075 Y275.070
G01 X175.061 Y274.562
G01 X175.013 Y272.784
G01 X174.947 Y269.302
G01 X174.863 Y265.437
G01 X174.881 Y264.040
G01 X174.780 Y260.270
G01 X174.832 Y257.312
G01 X174.820 Y253.603
G01 X174.822 Y253.541
G01 X174.809 Y249.848
G01 X174.811 Y249.769
G01 X174.815 Y246.075
G01 X174.817 Y246.008
G01 X174.822 Y242.295
G01 X174.823 Y242.248
G01 X174.775 Y238.490
G01 X174.866 Y235.587
G01 X174.879 Y231.727
G01 X174.929 Y230.421
G01 X174.996 Y227.048
G01 X175.051 Y225.367
G01 X175.075 Y224.926
G01 X175.059 Y225.042
G01 X175.008 Y224.969
G01 X174.946 Y224.065
G01 X174.929 Y221.909
G01 X175.044 Y218.369
G01 X175.363 Y214.093
G01 X175.416 Y213.590
G01 X175.979 Y209.251
G01 X176.200 Y207.925
G01 X177.131 Y203.575
G01 X177.570 Y201.846
G01 X179.016 Y197.609
G01 X179.693 Y195.842
G01 X181.789 Y191.907
G01 X182.703 Y190.329
G01 X185.515 Y186.906
G01 X186.660 Y185.606
G01 X190.137 Y182.846
G01 X191.518 Y181.825
G01 X195.500 Y179.767
G01 X197.101 Y179.010
G01 X201.375 Y177.583
G01 X203.093 Y177.080
G01 X207.472 Y176.158
G01 X209.071 Y175.883
G01 X213.431 Y175.341
G01 X214.555 Y175.241
G01 X218.843 Y174.982
G01 X219.096 Y174.974
G01 X222.375 Y174.926
G01 X224.292 Y174.977
G01 X225.022 Y175.042
G01 X225.017 Y175.075
G01 X224.939 Y175.056
G01 X225.523 Y174.988
G01 X227.426 Y174.887
G01 X231.051 Y174.775
G01 X234.911 Y174.664
G01 X236.447 Y174.675
G01 X240.219 Y174.560
G01 X243.267 Y174.605
G01 X246.984 Y174.590
G01 X247.054 Y174.592
G01 X250.757 Y174.577
G01 X250.840 Y174.578
G01 X254.553 Y174.496
G01 X258.275 Y174.597
G01 X258.322 Y174.600
G01 X262.097 Y174.568
G01 X264.884 Y174.665
G01 X268.755 Y174.711
G01 X269.913 Y174.763
G01 X273.871 Y174.918
G01 X274.706 Y174.978
G01 X275.076 Y175.050
G01 X274.947 Y175.075
G01 X275.067 Y175.049
G01 X276.068 Y174.985
G01 X278.350 Y174.929
G01 X282.022 Y174.958
G01 X286.381 Y175.148
G01 X286.922 Y175.188
G01 X291.377 Y175.602
G01 X292.678 Y175.770
G01 X297.178 Y176.537
G01 X298.807 Y176.878
G01 X303.224 Y178.163
G01 X304.821 Y178.693
G01 X308.942 Y180.659
G01 X310.302 Y181.367
G01 X313.883 Y184.113
G01 X314.961 Y184.996
G01 X317.821 Y188.489
G01 X318.651 Y189.573
G01 X320.741 Y193.645
G01 X321.363 Y194.965
G01 X322.766 Y199.376
G01 X323.190 Y200.899
G01 X324.054 Y205.427
G01 X324.289 Y206.976
G01 X324.763 Y211.470
G01 X324.849 Y212.719
G01 X325.048 Y217.112
G01 X325.055 Y217.656
G01 X325.064 Y221.407
G01 X324.997 Y223.789
G01 X324.937 Y224.885
G01 X324.929 Y225.064
G01 X324.986 Y224.928
G01 X325.103 Y225.212
G01 X325.257 Y226.616
G01 X325.423 Y229.647
G01 X325.568 Y233.538
G01 X325.573 Y234.476
G01 X325.705 Y238.286
G01 X325.685 Y240.884
G01 X325.804 Y244.625
G01 X325.742 Y248.295
G01 X325.740 Y252.014
G01 X325.738 Y252.098
G01 X325.736 Y255.827
G01 X325.734 Y255.902
G01 X325.776 Y259.665
G01 X325.665 Y262.851
G01 X325.625 Y266.698
G01 X325.543 Y268.438
G01 X325.387 Y272.271
G01 X325.221 Y274.350
G01 X325.073 Y275.045
G01 X324.968 Y274.998
G01 X324.925 Y274.957
G01 X324.947 Y275.614
G01 X325.013 Y277.455
G01 X325.071 Y280.694
G01 X325.040 Y285.072
G01 X325.033 Y285.251
G01 X324.850 Y289.759
G01 X324.770 Y290.810
G01 X324.318 Y295.433
G01 X324.118 Y296.910
G01 X323.234 Y301.552
G01 X322.891 Y303.050
G01 X321.382 Y307.515
G01 X320.908 Y308.772
G01 X318.605 Y312.789
G01 X318.021 Y313.736
G01 X314.862 Y317.049
G01 X314.154 Y317.749
G01 X310.245 Y320.223
G01 X309.342 Y320.756
G01 X304.922 Y322.428
G01 X303.756 Y322.824
G01 X299.103 Y323.847
G01 X297.708 Y324.101
G01 X293.039 Y324.659
G01 X291.629 Y324.774
G01 X287.067 Y325.019
G01 X286.008 Y325.039
G01 X281.593 Y325.075
G01 X281.312 Y325.069
G01 X277.877 Y325.003
G01 X275.827 Y324.938
G01 X275.004 Y324.931
G01 X274.969 Y325.003
G01 X275.070 Y325.151
G01 X274.563 Y325.355
G01 X272.779 Y325.584
G01 X269.290 Y325.807
G01 X265.408 Y325.980
G01 X264.020 Y325.994
G01 X260.214 Y326.139
G01 X257.288 Y326.121
G01 X253.533 Y326.147
G01 X253.515 Y326.147
G01 X249.775 Y326.173
G01 X249.742 Y326.173
G01 X246.000 Y326.158
G01 X245.983 Y326.157
G01 X242.224 Y326.142
G01 X238.424 Y326.152
G01 X235.566 Y326.034
G01 X231.683 Y325.937
G01 X230.405 Y325.862
G01 X227.037 Y325.646
G01 X225.362 Y325.415
G01 X224.926 Y325.202
G01 X225.044 Y325.036
G01 X224.963 Y324.942
G01 X224.031 Y324.929
G01 X221.824 Y324.982
G01 X218.206 Y325.055
G01 X213.755 Y325.075
G01 X213.322 Y325.064
G01 X208.703 Y324.953
G01 X207.539 Y324.882
G01 X202.772 Y324.512
G01 X201.343 Y324.346
G01 X196.542 Y323.537
G01 X195.241 Y323.268
G01 X190.632 Y321.798
G01 X189.667 Y321.454
G01 X185.562 Y319.128
G01 X184.929 Y318.744
G01 X181.615 Y315.487
G01 X181.188 Y315.044
G01 X178.794 Y310.976
G01 X178.460 Y310.368
G01 X176.919 Y305.766
G01 X176.650 Y304.865
G01 X175.767 Y300.040
G01 X175.591 Y298.832
G01 X175.154 Y294.023
G01 X175.084 Y292.689
G01 X174.926 Y288.026
G01 X174.929 Y286.925
G01 X174.942 Y282.448
G01 X174.956 Y282.022
G01 X175.034 Y278.350
G01 X175.075 Y276.070
G01 X175.032 Y275.068
G01 X174.892 Y274.947
G01 X174.666 Y275.075
G01 X174.383 Y274.712
G01 X174.077 Y273.163
G01 X173.786 Y269.952
G01 X173.568 Y266.048
G01 X173.542 Y264.947
G01 X173.375 Y261.109
G01 X173.372 Y258.404
G01 X173.241 Y254.623
G01 X173.293 Y250.933
G01 X173.304 Y247.167
G01 X173.304 Y247.143
G01 X173.314 Y243.364
G01 X173.315 Y243.354
G01 X173.306 Y239.541
G01 X173.434 Y236.513
G01 X173.541 Y232.625
G01 X173.638 Y231.090
G01 X173.905 Y227.440
G01 X174.207 Y225.524
G01 X174.507 Y224.938
G01 X174.769 Y225.021
G01 X174.962 Y225.016
G01 X175.062 Y224.245
G01 X175.067 Y222.239
G01 X175.003 Y218.815
G01 X174.929 Y214.368
G01 X174.933 Y214.079
G01 X174.924 Y209.433
G01 X174.961 Y208.367
G01 X175.134 Y203.519
G01 X175.235 Y202.164
G01 X175.763 Y197.196
G01 X175.938 Y195.983
G01 X177.053 Y191.102
G01 X177.269 Y190.282
G01 X179.220 Y185.817
G01 X179.420 Y185.394
G01 X182.368 Y181.699
G01 X182.531 Y181.505
G01 X186.437 Y178.796
G01 X186.659 Y178.650
G01 X191.264 Y176.908
G01 X191.731 Y176.747
G01 X196.681 Y175.767
G01 X197.534 Y175.628
G01 X202.524 Y175.158
G01 X203.709 Y175.091
G01 X208.552 Y174.924
G01 X209.788 Y174.929
G01 X214.413 Y174.929
G01 X215.269 Y174.959
G01 X219.678 Y175.039
G01 X219.702 Y175.040
G01 X222.795 Y175.075
G01 X224.500 Y175.012
G01 X225.060 Y174.834
G01 X224.986 Y174.554
G01 X224.978 Y174.201
G01 X225.780 Y173.812
G01 X228.009 Y173.431
G01 X231.946 Y173.098
G01 X232.006 Y173.094
G01 X235.905 Y172.872
G01 X237.733 Y172.835
G01 X241.572 Y172.670
G01 X244.770 Y172.678
G01 X248.573 Y172.657
G01 X248.583 Y172.657
G01 X252.381 Y172.635
G01 X252.395 Y172.636
G01 X256.209 Y172.588
G01 X259.752 Y172.712
G01 X263.624 Y172.768
G01 X266.044 Y172.901
G01 X269.979 Y173.122
G01 X270.719 Y173.185
G01 X273.589 Y173.538
G01 X274.860 Y173.926
G01 X275.064 Y174.307
G01 X274.927 Y174.643
G01 X275.194 Y174.896
G01 X276.468 Y175.041
G01 X279.103 Y175.074
G01 X283.152 Y175.019
G01 X287.697 Y174.931
G01 X288.398 Y174.941
G01 X293.188 Y174.909
G01 X294.420 Y174.947
G01 X299.445 Y175.104
G01 X300.709 Y175.192
G01 X305.849 Y175.734
G01 X306.756 Y175.863
G01 X311.746 Y177.059
G01 X312.149 Y177.168
G01 X316.600 Y179.296
G01 X316.613 Y179.303
G01 X320.031 Y182.412
G01 X322.425 Y186.555
G01 X323.867 Y191.441
G01 X323.924 Y191.656
G01 X324.649 Y196.813
G01 X324.721 Y197.496
G01 X325.013 Y202.612
G01 X325.034 Y203.708
G01 X325.097 Y208.613
G01 X325.066 Y209.818
G01 X325.027 Y214.459
G01 X324.989 Y215.316
G01 X324.929 Y219.713
G01 X324.927 Y219.749
G01 X324.960 Y222.831
G01 X325.120 Y224.518
G01 X325.410 Y225.062
G01 X325.806 Y224.983
G01 X326.268 Y224.985
G01 X326.753 Y225.812
G01 X327.215 Y228.079
G01 X327.606 Y232.031
G01 X327.613 Y232.118
G01 X327.864 Y236.043
G01 X327.914 Y237.881
G01 X328.092 Y241.753
G01 X328.095 Y244.940
G01 X328.118 Y248.755
G01 X328.141 Y252.569
G01 X328.178 Y256.421
G01 X328.049 Y259.908
G01 X327.968 Y263.814
G01 X327.825 Y266.168
G01 X327.555 Y270.128
G01 X327.488 Y270.805
G01 X327.065 Y273.635
G01 X326.591 Y274.874
G01 X326.109 Y275.062
G01 X325.665 Y274.927
G01 X325.301 Y275.213
G01 X325.053 Y276.523
G01 X324.936 Y279.207
G01 X324.940 Y283.310
G01 X325.028 Y287.862
G01 X325.017 Y288.609
G01 X325.101 Y293.440
G01 X325.075 Y294.680
G01 X325.031 Y299.796
G01 X324.974 Y301.002
G01 X324.613 Y306.303
G01 X324.533 Y307.064
G01 X323.577 Y312.289
G01 X323.542 Y312.450
G01 X321.789 Y316.888
G01 X319.100 Y320.262
G01 X315.373 Y322.600
G01 X310.625 Y324.041
G01 X305.311 Y324.754
G01 X305.018 Y324.784
G01 X299.724 Y325.042
G01 X298.870 Y325.052
G01 X293.806 Y325.093
G01 X292.625 Y325.057
G01 X287.862 Y325.020
G01 X286.794 Y324.972
G01 X282.319 Y324.942
G01 X281.870 Y324.925
G01 X278.220 Y324.994
G01 X275.990 Y325.211
G01 X275.043 Y325.576
G01 X274.954 Y326.060
G01 X275.075 Y326.620
G01 X274.653 Y327.207
G01 X273.003 Y327.772
G01 X269.669 Y328.271
G01 X265.697 Y328.606
G01 X264.545 Y328.666
G01 X260.615 Y328.889
G01 X257.916 Y328.928
G01 X254.163 Y328.985
G01 X250.409 Y329.042
G01 X246.632 Y329.020
G01 X242.853 Y328.997
G01 X238.930 Y328.953
G01 X236.091 Y328.799
G01 X232.115 Y328.578
G01 X230.781 Y328.459
G01 X227.254 Y328.003
G01 X225.446 Y327.463
G01 X224.931 Y326.880
G01 X225.032 Y326.302
G01 X224.990 Y325.779
G01 X224.128 Y325.357
G01 X221.987 Y325.072
G01 X218.402 Y324.939
G01 X213.968 Y324.953
G01 X213.497 Y324.939
G01 X208.776 Y325.038
G01 X207.636 Y325.020
G01 X202.583 Y325.104
G01 X201.316 Y325.075
G01 X195.960 Y324.999
G01 X195.070 Y324.953
G01 X189.579 Y324.484
G01 X189.362 Y324.458
G01 X184.533 Y323.374
G01 X180.756 Y321.482
G01 X178.054 Y318.617
G01 X176.324 Y314.691
G01 X175.377 Y309.749
G01 X174.996 Y304.236
G01 X174.987 Y303.985
G01 X174.910 Y298.632
G01 X174.930 Y297.751
G01 X174.956 Y292.713
G01 X175.009 Y291.513
G01 X175.031 Y286.817
G01 X175.073 Y285.792
G01 X175.020 Y281.398
G01 X175.026 Y281.072
G01 X174.816 Y277.680
G01 X174.435 Y275.714
G01 X173.906 Y274.975
G01 X173.271 Y274.986
G01 X172.580 Y275.058
G01 X171.888 Y274.440
G01 X171.246 Y272.481
G01 X170.698 Y268.785
G01 X170.355 Y264.781
G01 X170.280 Y263.323
G01 X170.056 Y259.356
G01 X170.017 Y256.459
G01 X169.971 Y252.667
G01 X169.925 Y248.873
G01 X169.884 Y244.933
G01 X170.010 Y241.414
G01 X170.103 Y237.432
G01 X170.266 Y234.899
G01 X170.576 Y230.878
G01 X170.678 Y229.929
G01 X171.221 Y226.763
G01 X171.860 Y225.257
G01 X172.549 Y224.926
G01 X173.241 Y225.059
G01 X173.879 Y224.900
G01 X174.413 Y223.804
G01 X174.801 Y221.364
G01 X175.019 Y217.474
G01 X175.047 Y213.016
G01 X175.075 Y212.315
G01 X174.989 Y207.538
G01 X175.014 Y206.287
G01 X174.910 Y201.138
G01 X174.933 Y199.909
G01 X174.949 Y194.411
G01 X174.977 Y193.712
G01 X175.338 Y188.146
G01 X176.238 Y183.520
G01 X177.904 Y179.979
G01 X180.524 Y177.513
G01 X184.209 Y175.993
G01 X188.948 Y175.216
G01 X194.576 Y174.944
G01 X200.062 Y174.926
G01 X200.774 Y174.950
G01 X205.904 Y174.986
G01 X207.086 Y175.040
G01 X211.837 Y175.031
G01 X212.991 Y175.072
G01 X217.409 Y174.952
G01 X217.989 Y174.955
G01 X221.700 Y174.651
G01 X223.975 Y174.159
G01 X224.949 Y173.509
G01 X225.047 Y172.751
G01 X224.925 Y171.939
G01 X225.334 Y171.133
G01 X226.968 Y170.386
G01 X230.281 Y169.745
G01 X234.330 Y169.323
G01 X235.386 Y169.246
G01 X239.413 Y168.982
G01 X242.003 Y168.917
G01 X245.754 Y168.846
G01 X249.505 Y168.775
G01 X253.284 Y168.801
G01 X257.064 Y168.828
G01 X261.089 Y168.904
G01 X263.840 Y169.071
G01 X267.902 Y169.362
G01 X269.169 Y169.494
G01 X272.718 Y170.073
G01 X274.543 Y170.776
G01 X275.069 Y171.559
G01 X274.969 Y172.374
G01 X275.008 Y173.164
G01 X275.869 Y173.870
G01 X278.018 Y174.441
G01 X281.628 Y174.835
G01 X285.988 Y174.998
G01 X286.573 Y175.038
G01 X291.250 Y175.026
G01 X292.490 Y175.070
G01 X297.559 Y174.967
G01 X298.867 Y174.992
G01 X304.352 Y174.907
G01 X305.169 Y174.925
G01 X310.913 Y175.035
G01 X315.756 Y175.536
G01 X319.517 Y176.660
G01 X322.174 Y178.631
G01 X323.842 Y181.621
G01 X324.718 Y185.702
G01 X325.044 Y190.810
G01 X325.062 Y196.554
G01 X325.057 Y196.716
G01 X325.009 Y202.105
G01 X324.965 Y203.045
G01 X324.975 Y208.014
G01 X324.927 Y209.301
G01 X325.054 Y213.883
G01 X325.045 Y214.949
G01 X325.356 Y219.212
G01 X325.369 Y219.520
G01 X325.904 Y222.711
G01 X326.621 Y224.474
G01 X327.472 Y225.057
G01 X328.397 Y224.987
G01 X329.335 Y224.977
G01 X330.225 Y225.776
G01 X331.018 Y228.005
G01 X331.669 Y232.005
G01 X332.052 Y236.102
G01 X332.148 Y237.734
G01 X332.385 Y241.806
G01 X332.431 Y244.773
G01 X332.469 Y248.586
G01 X332.506 Y252.400
G01 X332.512 Y256.463
G01 X332.370 Y259.756
G01 X332.201 Y263.855
G01 X332.028 Y266.049
G01 X331.574 Y270.162
G01 X331.496 Y270.725
G01 X330.800 Y273.595
G01 X329.975 Y274.863
G01 X329.066 Y275.063
G01 X328.127 Y274.927
G01 X327.218 Y275.208
G01 X326.401 Y276.522
G01 X325.732 Y279.233
G01 X325.259 Y283.381
G01 X325.256 Y283.399
G01 X325.067 Y287.827
G01 X324.993 Y288.791
G01 X324.983 Y293.577
G01 X324.926 Y294.975
G01 X325.017 Y300.195
G01 X324.990 Y301.416
G01 X325.081 Y307.090
G01 X325.071 Y307.578
G01 X324.996 Y313.023
G01 X324.550 Y317.462
G01 X323.488 Y320.782
G01 X321.583 Y323.017
G01 X318.655 Y324.320
G01 X314.621 Y324.924
G01 X309.542 Y325.076
G01 X303.717 Y325.016
G01 X303.640 Y325.012
G01 X298.235 Y324.974
G01 X297.291 Y324.931
G01 X292.339 Y325.003
G01 X290.994 Y324.970
G01 X286.444 Y325.197
G01 X285.287 Y325.212
G01 X281.063 Y325.658
G01 X280.646 Y325.689
G01 X277.388 Y326.389
G01 X275.570 Y327.271
G01 X274.949 Y328.276
G01 X275.006 Y329.341
G01 X275.032 Y330.399
G01 X274.273 Y331.391
G01 X272.099 Y332.265
G01 X268.160 Y332.979
G01 X264.005 Y333.401
G01 X262.482 Y333.504
G01 X258.344 Y333.759
G01 X255.477 Y333.816
G01 X251.668 Y333.860
G01 X247.858 Y333.904
G01 X243.728 Y333.906
G01 X240.479 Y333.765
G01 X236.318 Y333.582
G01 X234.139 Y333.404
G01 X229.971 Y332.917
G01 X229.403 Y332.835
G01 X226.473 Y332.082
G01 X225.158 Y331.178
G01 X224.934 Y330.168
G01 X225.072 Y329.105
G01 X224.814 Y328.049
G01 X223.535 Y327.066
G01 X220.859 Y326.221
G01 X216.769 Y325.576
G01 X216.722 Y325.568
G01 X212.350 Y325.250
G01 X211.338 Y325.142
G01 X206.609 Y325.036
G01 X205.142 Y324.947
G01 X199.966 Y324.983
G01 X198.674 Y324.941
G01 X193.001 Y325.042
G01 X192.476 Y325.032
G01 X186.994 Y325.069
G01 X182.522 Y324.847
G01 X179.184 Y324.128
G01 X176.945 Y322.661
G01 X175.648 Y320.236
G01 X175.061 Y316.716
G01 X174.924 Y312.088
G01 X174.996 Y306.504
G01 X175.044 Y300.902
G01 X175.073 Y300.277
G01 X174.982 Y295.163
G01 X175.010 Y293.861
G01 X174.748 Y289.191
G01 X174.723 Y287.794
G01 X174.247 Y283.486
G01 X174.179 Y282.600
G01 X173.392 Y278.682
G01 X172.404 Y276.219
G01 X171.278 Y275.106
G01 X170.084 Y274.939
G01 X168.889 Y275.074
G01 X167.757 Y274.755
G01 X166.743 Y273.273
G01 X165.891 Y270.142
G01 X165.313 Y265.932
G01 X165.235 Y265.210
G01 X164.895 Y260.993
G01 X164.799 Y258.722
G01 X164.606 Y254.524
G01 X164.598 Y251.276
G01 X164.618 Y247.478
G01 X164.638 Y243.683
G01 X164.744 Y239.464
G01 X164.919 Y236.792
G01 X165.282 Y232.553
G01 X165.431 Y231.293
G01 X166.155 Y227.557
G01 X167.064 Y225.571
G01 X168.122 Y224.942
G01 X169.280 Y225.015
G01 X170.480 Y225.020
G01 X171.658 Y224.255
G01 X172.744 Y222.219
G01 X173.671 Y218.704
G01 X174.261 Y214.510
G01 X174.382 Y213.808
G01 X174.692 Y209.299
G01 X174.842 Y207.883
G01 X174.956 Y202.966
G01 X175.052 Y201.439
G01 X175.026 Y196.020
G01 X175.059 Y195.035
G01 X174.965 Y189.175
G01 X174.934 Y184.226
G01 X175.182 Y180.393
G01 X175.957 Y177.705
G01 X177.513 Y176.049
G01 X180.062 Y175.213
G01 X183.729 Y174.938
G01 X188.505 Y174.962
G01 X194.216 Y175.058
G01 X199.713 Y175.024
G01 X200.524 Y175.050
G01 X205.514 Y174.830
G01 X206.951 Y174.823
G01 X211.507 Y174.404
G01 X212.952 Y174.326
G01 X217.166 Y173.659
G01 X218.010 Y173.553
G01 X221.743 Y172.541
G01 X224.010 Y171.347
G01 X224.961 Y170.044
G01 X225.043 Y168.703
G01 X224.926 Y167.396
G01 X225.371 Y166.184
G01 X227.065 Y165.118
G01 X230.457 Y164.239
G01 X234.739 Y163.668
G01 X235.636 Y163.576
G01 X239.925 Y163.243
G01 X242.302 Y163.150
G01 X246.063 Y163.063
G01 X249.824 Y162.975
G01 X253.596 Y163.014
G01 X257.367 Y163.054
G01 X261.666 Y163.206
G01 X264.094 Y163.386
G01 X268.402 Y163.832
G01 X269.357 Y163.960
G01 X272.830 Y164.760
G01 X274.590 Y165.758
G01 X275.073 Y166.919
G01 X274.962 Y168.195
G01 X275.028 Y169.529
G01 X275.956 Y170.853
G01 X278.211 Y172.097
G01 X281.954 Y173.186
G01 X286.145 Y173.877
G01 X287.048 Y174.055
G01 X291.556 Y174.462
G01 X293.109 Y174.662
G01 X298.036 Y174.863
G01 X299.608 Y174.990
G01 X305.051 Y175.032
G01 X305.982 Y175.074
G01 X311.741 Y175.003
G01 X316.535 Y174.925
G01 X320.185 Y175.048
G01 X322.689 Y175.623
G01 X324.180 Y176.911
G01 X324.885 Y179.147
G01 X325.074 Y182.488
G01 X325.013 Y186.972
G01 X324.928 Y192.467
G01 X325.005 Y198.053
G01 X324.991 Y198.676
G01 X325.280 Y203.732
G01 X325.305 Y205.149
G01 X325.806 Y209.752
G01 X325.917 Y211.347
G01 X326.662 Y215.595
G01 X326.822 Y216.728
G01 X327.936 Y220.698
G01 X327.977 Y220.862
G01 X329.317 Y223.534
G01 X330.765 Y224.812
G01 X332.244 Y225.072
G01 X333.683 Y224.934
G01 X335.019 Y225.154
G01 X336.199 Y226.457
G01 X337.184 Y229.369
G01 X337.893 Y233.708
G01 X337.944 Y234.085
G01 X338.347 Y238.454
G01 X338.457 Y240.405
G01 X338.681 Y244.765
G01 X338.711 Y247.772
G01 X338.705 Y251.583
G01 X338.700 Y255.396
G01 X338.593 Y259.771
G01 X338.423 Y262.416
G01 X338.044 Y266.804
G01 X337.889 Y268.116
G01 X337.110 Y272.078
G01 X336.107 Y274.269
G01 X334.914 Y275.032
G01 X333.569 Y275.005
G01 X332.126 Y274.952
G01 X330.648 Y275.596
G01 X329.208 Y277.475
G01 X327.882 Y280.837
G01 X326.931 Y284.919
G01 X326.746 Y285.619
G01 X326.131 Y289.986
G01 X325.863 Y291.495
G01 X325.481 Y296.236
G01 X325.274 Y297.959
G01 X325.075 Y303.185
G01 X324.979 Y304.441
G01 X324.938 Y310.242
G01 X324.931 Y310.420
G01 X325.020 Y315.498
G01 X325.073 Y319.449
G01 X324.860 Y322.227
G01 X324.120 Y323.937
G01 X322.585 Y324.793
G01 X320.034 Y325.066
G01 X316.338 Y325.031
G01 X311.511 Y324.935
G01 X305.736 Y324.969
G01 X300.403 Y325.244
G01 X299.365 Y325.257
G01 X294.536 Y325.756
G01 X292.893 Y325.860
G01 X288.470 Y326.582
G01 X286.874 Y326.782
G01 X282.763 Y327.788
G01 X281.830 Y327.986
G01 X278.137 Y329.407
G01 X275.924 Y330.968
G01 X275.021 Y332.587
G01 X274.964 Y334.187
G01 X275.072 Y335.697
G01 X274.577 Y337.065
G01 X272.802 Y338.243
G01 X269.316 Y339.198
G01 X264.879 Y339.816
G01 X264.045 Y339.908
G01 X259.593 Y340.259
G01 X257.313 Y340.354
G01 X253.542 Y340.441
G01 X249.771 Y340.529
G01 X246.010 Y340.479
G01 X242.250 Y340.429
G01 X237.782 Y340.233
G01 X235.585 Y340.056
G01 X231.124 Y339.523
G01 X230.414 Y339.418
G01 X227.035 Y338.529
G01 X225.357 Y337.410
G01 X224.925 Y336.092
G01 X225.046 Y334.617
G01 X224.948 Y333.038
G01 X223.947 Y331.419
G01 X221.595 Y329.836
G01 X217.740 Y328.369
G01 X213.606 Y327.388
G01 X212.538 Y327.098
G01 X208.112 Y326.422
G01 X206.389 Y326.093
G01 X201.573 Y325.633
G01 X199.833 Y325.398
G01 X194.514 Y325.120
G01 X193.441 Y325.023
G01 X187.707 Y324.925
G01 X182.979 Y325.000
G01 X179.422 Y325.075
G01 X177.032 Y324.924
G01 X175.654 Y324.275
G01 X175.047 Y322.857
G01 X174.927 Y320.433
G01 X175.014 Y316.860
G01 X175.075 Y312.137
G01 X174.936 Y306.425
G01 X174.533 Y301.132
G01 X174.493 Y300.071
G01 X173.863 Y295.274
G01 X173.706 Y293.558
G01 X172.853 Y289.157
G01 X172.587 Y287.448
G01 X171.449 Y283.347
G01 X171.188 Y282.273
G01 X169.583 Y278.429
G01 X167.857 Y276.072
G01 X166.095 Y275.060
G01 X164.374 Y274.952
G01 X162.761 Y275.075
G01 X161.311 Y274.666
G01 X160.065 Y273.030
G01 X159.054 Y269.707
G01 X158.373 Y265.191
G01 X158.300 Y264.590
G01 X157.917 Y260.049
G01 X157.816 Y257.967
G01 X157.714 Y254.216
G01 X157.611 Y250.463
G01 X157.650 Y246.685
G01 X157.688 Y242.908
G01 X157.874 Y238.352
G01 X158.285 Y233.798
G01 X158.678 Y230.810
G01 X159.574 Y227.267
G01 X160.715 Y225.447
G01 X162.075 Y224.930
G01 X163.618 Y225.033
G01 X165.295 Y224.983
G01 X167.045 Y224.083
G01 X168.795 Y221.853
G01 X170.464 Y218.117
G01 X171.636 Y214.029
G01 X171.966 Y213.003
G01 X172.812 Y208.649
G01 X173.222 Y206.892
G01 X173.846 Y202.182
G01 X174.166 Y200.325
G01 X174.611 Y195.148
G01 X174.768 Y193.879
G01 X175.036 Y188.129
G01 X175.042 Y188.058
G01 X175.059 Y183.232
G01 X174.958 Y179.584
G01 X174.946 Y177.119
G01 X175.282 Y175.690
G01 X176.247 Y175.056
G01 X178.112 Y174.926
G01 X181.075 Y175.014
G01 X185.221 Y175.074
G01 X190.472 Y174.925
G01 X195.938 Y174.483
G01 X196.570 Y174.454
G01 X201.517 Y173.773
G01 X203.093 Y173.618
G01 X207.619 Y172.723
G01 X209.501 Y172.426
G01 X213.705 Y171.289
G01 X215.230 Y170.933
G01 X219.191 Y169.425
G01 X219.799 Y169.213
G01 X222.917 Y167.358
G01 X224.575 Y165.454
G01 X225.069 Y163.584
G01 X224.969 Y161.819
G01 X225.014 Y160.214
G01 X225.958 Y158.813
G01 X228.397 Y157.649
G01 X232.626 Y156.743
G01 X237.251 Y156.216
G01 X238.552 Y156.110
G01 X243.184 Y155.820
G01 X245.710 Y155.758
G01 X249.529 Y155.725
G01 X253.348 Y155.692
G01 X257.988 Y155.769
G01 X260.612 Y155.913
G01 X265.262 Y156.260
G01 X266.730 Y156.418
G01 X271.186 Y157.200
G01 X273.837 Y158.247
G01 X274.935 Y159.542
G01 X275.048 Y161.056
G01 X274.925 Y162.752
G01 X275.325 Y164.579
G01 X276.852 Y166.474
G01 X279.843 Y168.360
G01 X283.809 Y169.932
G01 X284.319 Y170.151
G01 X288.508 Y171.292
G01 X290.011 Y171.758
G01 X294.482 Y172.634
G01 X296.445 Y173.097
G01 X301.295 Y173.786
G01 X303.043 Y174.104
G01 X308.383 Y174.629
G01 X309.249 Y174.745
G01 X314.612 Y175.038
G01 X318.852 Y175.059
G01 X321.881 Y174.957
G01 X323.775 Y174.948
G01 X324.742 Y175.299
G01 X325.061 Y176.300
G01 X325.032 Y178.222
G01 X324.934 Y181.267
G01 X324.983 Y185.505
G01 X325.331 Y190.845
G01 X325.979 Y196.146
G01 X326.053 Y197.014
G01 X326.921 Y201.837
G01 X327.164 Y203.570
G01 X328.233 Y208.011
G01 X328.626 Y209.969
G01 X329.943 Y214.123
G01 X330.367 Y215.638
G01 X332.085 Y219.575
G01 X332.299 Y220.107
G01 X334.329 Y223.108
G01 X336.366 Y224.656
G01 X338.331 Y225.075
G01 X340.161 Y224.956
G01 X341.802 Y225.050
G01 X343.219 Y226.105
G01 X344.383 Y228.693
G01 X345.279 Y233.078
G01 X345.792 Y237.800
G01 X345.895 Y239.136
G01 X346.172 Y243.863
G01 X346.224 Y246.367
G01 X346.245 Y250.188
G01 X346.266 Y254.009
G01 X346.163 Y258.747
G01 X346.017 Y261.203
G01 X345.625 Y265.946
G01 X345.483 Y267.189
G01 X344.666 Y271.488
G01 X343.577 Y273.990
G01 X342.231 Y274.974
G01 X340.652 Y275.035
G01 X338.875 Y274.929
G01 X336.944 Y275.409
G01 X334.923 Y277.063
G01 X332.885 Y280.200
G01 X331.203 Y284.188
G01 X330.918 Y284.815
G01 X329.657 Y289.011
G01 X329.114 Y290.616
G01 X328.107 Y295.074
G01 X327.564 Y297.112
G01 X326.729 Y301.923
G01 X326.346 Y303.717
G01 X325.656 Y308.988
G01 X325.507 Y309.875
G01 X325.052 Y315.150
G01 X324.925 Y319.274
G01 X324.998 Y322.177
G01 X325.075 Y323.952
G01 X324.897 Y324.819
G01 X324.169 Y325.071
G01 X322.602 Y325.015
G01 X319.961 Y324.927
G01 X316.124 Y325.024
G01 X311.122 Y325.454
G01 X305.778 Y326.220
G01 X305.170 Y326.286
G01 X300.293 Y327.262
G01 X298.664 Y327.524
G01 X294.165 Y328.684
G01 X292.127 Y329.127
G01 X287.913 Y330.504
G01 X286.140 Y331.014
G01 X282.137 Y332.731
G01 X281.217 Y333.094
G01 X277.712 Y335.265
G01 X275.706 Y337.437
G01 X274.970 Y339.531
G01 X274.990 Y341.479
G01 X275.051 Y343.232
G01 X274.384 Y344.753
G01 X272.339 Y346.018
G01 X268.539 Y347.010
G01 X263.734 Y347.643
G01 X262.985 Y347.720
G01 X258.160 Y348.067
G01 X256.059 Y348.144
G01 X252.258 Y348.211
G01 X248.456 Y348.279
G01 X243.626 Y348.242
G01 X241.029 Y348.124
G01 X236.187 Y347.831
G01 X234.581 Y347.681
