;  Created by Sandify
;  https://sandify.org
;  Version: 0.2.6
;
;  Machine type: Rectangular
;    Min X (mm): 0
;    Max X (mm): 500
;    Min Y (mm): 0
;    Max Y (mm): 500
;  Content type: shape
;  Layer:
;    Shape: FileImport
;    Name: LinedCircles.thr
;    From file:: LinedCircles.thr
;    Aspect Ratio: true
;    Comments: 
;    Visible: true
;    Initial width: 10
;    Initial height: 10
;    X offset: 0
;    Y offset: 0
;    Rotate (degrees): 0
;    Reverse path: false
;    Fine tuning:
;      Connect to next layer: line
;      Draw portion of path (%): 100
;      Backtrack at end (%): 0
;      Rotate starting point (%): 0
;  Reverse export path: false
;
; File name: 'linedcircles'
; File type: gcode
;

G01 X250.000 Y250.000
G01 X250.040 Y250.819
G01 X250.161 Y251.633
G01 X250.361 Y252.434
G01 X250.640 Y253.218
G01 X250.997 Y253.979
G01 X251.429 Y254.710
G01 X251.934 Y255.407
G01 X252.511 Y256.063
G01 X253.157 Y256.674
G01 X253.867 Y257.235
G01 X254.639 Y257.740
G01 X255.469 Y258.185
G01 X256.353 Y258.565
G01 X257.286 Y258.878
G01 X258.263 Y259.117
G01 X259.281 Y259.281
G01 X260.333 Y259.365
G01 X261.414 Y259.367
G01 X262.519 Y259.285
G01 X263.641 Y259.115
G01 X264.776 Y258.856
G01 X265.916 Y258.507
G01 X267.056 Y258.067
G01 X268.189 Y257.534
G01 X269.309 Y256.909
G01 X270.410 Y256.191
G01 X271.485 Y255.382
G01 X272.527 Y254.481
G01 X273.532 Y253.491
G01 X274.491 Y252.412
G01 X275.399 Y251.248
G01 X276.250 Y250.000
G01 X277.038 Y248.672
G01 X277.756 Y247.266
G01 X278.400 Y245.787
G01 X278.964 Y244.239
G01 X279.442 Y242.625
G01 X279.830 Y240.951
G01 X280.122 Y239.222
G01 X280.315 Y237.443
G01 X280.404 Y235.620
G01 X280.385 Y233.759
G01 X280.255 Y231.866
G01 X280.011 Y229.947
G01 X279.650 Y228.010
G01 X279.169 Y226.062
G01 X278.567 Y224.108
G01 X277.842 Y222.158
G01 X276.994 Y220.217
G01 X276.020 Y218.294
G01 X274.922 Y216.397
G01 X273.699 Y214.533
G01 X272.351 Y212.709
G01 X270.881 Y210.934
G01 X269.290 Y209.215
G01 X267.580 Y207.559
G01 X265.752 Y205.975
G01 X263.811 Y204.471
G01 X261.760 Y203.052
G01 X259.602 Y201.727
G01 X257.342 Y200.503
G01 X254.985 Y199.386
G01 X252.536 Y198.383
G01 X250.000 Y197.500
G01 X247.384 Y196.744
G01 X244.693 Y196.120
G01 X241.936 Y195.634
G01 X239.118 Y195.291
G01 X236.247 Y195.095
G01 X233.331 Y195.051
G01 X230.379 Y195.162
G01 X227.398 Y195.433
G01 X224.397 Y195.867
G01 X221.385 Y196.465
G01 X218.371 Y197.230
G01 X215.364 Y198.163
G01 X212.373 Y199.266
G01 X209.409 Y200.539
G01 X206.480 Y201.983
G01 X203.596 Y203.596
G01 X200.767 Y205.378
G01 X198.003 Y207.327
G01 X195.313 Y209.441
G01 X192.707 Y211.718
G01 X190.194 Y214.153
G01 X187.783 Y216.744
G01 X185.485 Y219.487
G01 X183.307 Y222.375
G01 X181.260 Y225.404
G01 X179.351 Y228.569
G01 X177.589 Y231.862
G01 X175.981 Y235.277
G01 X174.537 Y238.806
G01 X173.262 Y242.442
G01 X172.164 Y246.176
G01 X171.250 Y250.000
G01 X170.526 Y253.904
G01 X169.996 Y257.880
G01 X169.668 Y261.916
G01 X169.545 Y266.004
G01 X169.631 Y270.131
G01 X169.931 Y274.289
G01 X170.447 Y278.465
G01 X171.182 Y282.648
G01 X172.137 Y286.827
G01 X173.314 Y290.989
G01 X174.714 Y295.125
G01 X176.337 Y299.220
G01 X178.182 Y303.264
G01 X180.248 Y307.244
G01 X182.533 Y311.149
G01 X185.035 Y314.965
G01 X187.750 Y318.683
G01 X190.674 Y322.289
G01 X193.804 Y325.771
G01 X197.134 Y329.120
G01 X200.658 Y332.322
G01 X204.370 Y335.367
G01 X208.263 Y338.245
G01 X212.330 Y340.944
G01 X216.561 Y343.456
G01 X220.949 Y345.769
G01 X225.484 Y347.875
G01 X230.156 Y349.764
G01 X234.954 Y351.429
G01 X239.869 Y352.862
G01 X244.888 Y354.054
G01 X250.000 Y355.000
G01 X250.000 Y252.500
G01 X250.121 Y252.455
G01 X250.237 Y252.404
G01 X250.348 Y252.348
G01 X250.455 Y252.287
G01 X250.556 Y252.221
G01 X250.652 Y252.151
G01 X250.743 Y252.076
G01 X250.828 Y251.998
G01 X250.907 Y251.917
G01 X250.980 Y251.833
G01 X251.047 Y251.747
G01 X251.108 Y251.658
G01 X251.163 Y251.568
G01 X251.212 Y251.477
G01 X251.255 Y251.384
G01 X251.291 Y251.291
G01 X251.322 Y251.198
G01 X251.347 Y251.105
G01 X251.365 Y251.013
G01 X251.378 Y250.921
G01 X251.386 Y250.831
G01 X251.388 Y250.742
G01 X251.384 Y250.655
G01 X251.376 Y250.570
G01 X251.363 Y250.488
G01 X251.345 Y250.408
G01 X251.322 Y250.331
G01 X251.295 Y250.258
G01 X251.265 Y250.188
G01 X251.231 Y250.121
G01 X251.193 Y250.059
G01 X251.152 Y250.000
G01 X251.109 Y249.946
G01 X251.063 Y249.895
G01 X251.015 Y249.849
G01 X250.965 Y249.808
G01 X250.914 Y249.771
G01 X250.861 Y249.739
G01 X250.807 Y249.711
G01 X250.753 Y249.688
G01 X250.699 Y249.669
G01 X250.645 Y249.655
G01 X250.591 Y249.646
G01 X250.538 Y249.641
G01 X250.486 Y249.640
G01 X250.435 Y249.643
G01 X250.386 Y249.650
G01 X250.338 Y249.662
G01 X250.293 Y249.677
G01 X250.250 Y249.695
G01 X250.210 Y249.717
G01 X250.172 Y249.742
G01 X250.138 Y249.770
G01 X250.106 Y249.801
G01 X250.079 Y249.834
G01 X250.054 Y249.869
G01 X250.034 Y249.906
G01 X250.017 Y249.945
G01 X250.004 Y249.985
G01 X250.000 Y250.000
G01 X250.002 Y249.991
G01 X250.006 Y249.983
G01 X250.010 Y249.975
G01 X250.015 Y249.967
G01 X250.020 Y249.960
G01 X250.027 Y249.953
G01 X250.034 Y249.947
G01 X250.042 Y249.942
G01 X250.050 Y249.937
G01 X250.059 Y249.933
G01 X250.068 Y249.929
G01 X250.078 Y249.927
G01 X250.089 Y249.925
G01 X250.099 Y249.924
G01 X250.110 Y249.923
G01 X250.121 Y249.924
G01 X250.133 Y249.926
G01 X250.144 Y249.929
G01 X250.156 Y249.932
G01 X250.167 Y249.937
G01 X250.179 Y249.942
G01 X250.190 Y249.949
G01 X250.201 Y249.956
G01 X250.212 Y249.965
G01 X250.222 Y249.974
G01 X250.232 Y249.984
G01 X250.241 Y249.996
G01 X250.250 Y250.008
G01 X250.259 Y250.021
G01 X250.266 Y250.035
G01 X250.273 Y250.049
G01 X250.279 Y250.065
G01 X250.284 Y250.081
G01 X250.288 Y250.097
G01 X250.291 Y250.115
G01 X250.294 Y250.132
G01 X250.295 Y250.151
G01 X250.295 Y250.170
G01 X250.293 Y250.189
G01 X250.291 Y250.208
G01 X250.288 Y250.228
G01 X250.283 Y250.247
G01 X250.277 Y250.267
G01 X250.269 Y250.287
G01 X250.261 Y250.307
G01 X250.251 Y250.326
G01 X250.240 Y250.345
G01 X250.227 Y250.364
G01 X250.213 Y250.383
G01 X250.198 Y250.401
G01 X250.182 Y250.418
G01 X250.164 Y250.435
G01 X250.146 Y250.451
G01 X250.126 Y250.466
G01 X250.105 Y250.481
G01 X250.082 Y250.494
G01 X250.059 Y250.506
G01 X250.035 Y250.518
G01 X250.017 Y250.525
G01 X250.107 Y251.304
G01 X250.273 Y252.073
G01 X250.515 Y252.827
G01 X250.831 Y253.561
G01 X251.220 Y254.269
G01 X251.680 Y254.945
G01 X252.208 Y255.585
G01 X252.803 Y256.183
G01 X253.461 Y256.734
G01 X254.179 Y257.234
G01 X254.953 Y257.678
G01 X255.780 Y258.062
G01 X256.655 Y258.382
G01 X257.575 Y258.634
G01 X258.534 Y258.815
G01 X259.528 Y258.920
G01 X260.551 Y258.949
G01 X261.599 Y258.897
G01 X262.665 Y258.762
G01 X263.745 Y258.543
G01 X264.832 Y258.239
G01 X265.921 Y257.847
G01 X267.005 Y257.368
G01 X268.079 Y256.800
G01 X269.136 Y256.144
G01 X270.171 Y255.401
G01 X271.177 Y254.570
G01 X272.148 Y253.652
G01 X273.078 Y252.650
G01 X273.962 Y251.566
G01 X274.793 Y250.401
G01 X275.565 Y249.158
G01 X276.273 Y247.841
G01 X276.912 Y246.452
G01 X277.475 Y244.995
G01 X277.959 Y243.475
G01 X278.358 Y241.896
G01 X278.668 Y240.263
G01 X278.883 Y238.580
G01 X279.001 Y236.853
G01 X279.018 Y235.088
G01 X278.929 Y233.290
G01 X278.732 Y231.467
G01 X278.425 Y229.623
G01 X278.004 Y227.766
G01 X277.467 Y225.902
G01 X276.814 Y224.039
G01 X276.043 Y222.183
G01 X275.154 Y220.342
G01 X274.144 Y218.522
G01 X273.016 Y216.731
G01 X271.769 Y214.977
G01 X270.405 Y213.267
G01 X268.924 Y211.607
G01 X267.329 Y210.007
G01 X265.621 Y208.472
G01 X263.804 Y207.010
G01 X261.880 Y205.628
G01 X259.854 Y204.333
G01 X257.729 Y203.132
G01 X255.509 Y202.032
G01 X253.200 Y201.038
G01 X250.806 Y200.157
G01 X248.334 Y199.395
G01 X245.788 Y198.757
G01 X243.177 Y198.249
G01 X240.505 Y197.876
G01 X237.781 Y197.643
G01 X235.012 Y197.552
G01 X232.205 Y197.610
G01 X229.368 Y197.818
G01 X226.509 Y198.180
G01 X223.636 Y198.699
G01 X220.759 Y199.376
G01 X217.886 Y200.214
G01 X215.026 Y201.213
G01 X212.187 Y202.375
G01 X209.380 Y203.699
G01 X206.612 Y205.186
G01 X203.894 Y206.834
G01 X201.234 Y208.641
G01 X198.642 Y210.608
G01 X196.128 Y212.730
G01 X193.699 Y215.005
G01 X191.365 Y217.429
G01 X189.135 Y219.999
G01 X187.018 Y222.711
G01 X185.022 Y225.558
G01 X183.156 Y228.537
G01 X181.427 Y231.640
G01 X179.843 Y234.862
G01 X178.412 Y238.195
G01 X177.141 Y241.632
G01 X176.037 Y245.166
G01 X175.106 Y248.789
G01 X174.355 Y252.491
G01 X173.788 Y256.264
G01 X173.411 Y260.098
G01 X173.228 Y263.984
G01 X173.244 Y267.912
G01 X173.463 Y271.872
G01 X173.887 Y275.853
G01 X174.519 Y279.845
G01 X175.361 Y283.835
G01 X176.415 Y287.815
G01 X177.681 Y291.772
G01 X179.160 Y295.694
G01 X180.851 Y299.571
G01 X182.754 Y303.391
G01 X184.866 Y307.143
G01 X187.186 Y310.815
G01 X189.710 Y314.395
G01 X192.436 Y317.873
G01 X195.360 Y321.237
G01 X198.475 Y324.476
G01 X201.779 Y327.580
G01 X205.263 Y330.537
G01 X208.923 Y333.337
G01 X212.750 Y335.971
G01 X216.737 Y338.428
G01 X220.877 Y340.699
G01 X225.160 Y342.775
G01 X229.577 Y344.647
G01 X234.118 Y346.308
G01 X238.774 Y347.749
G01 X243.533 Y348.963
G01 X248.384 Y349.944
G01 X253.315 Y350.686
G01 X258.316 Y351.182
G01 X263.373 Y351.428
G01 X268.474 Y351.420
G01 X273.606 Y351.154
G01 X278.756 Y350.627
G01 X281.030 Y350.310
G01 X250.739 Y252.388
G01 X250.840 Y252.308
G01 X250.935 Y252.223
G01 X251.024 Y252.134
G01 X251.106 Y252.042
G01 X251.182 Y251.948
G01 X251.251 Y251.851
G01 X251.314 Y251.751
G01 X251.370 Y251.651
G01 X251.419 Y251.549
G01 X251.462 Y251.446
G01 X251.498 Y251.343
G01 X251.528 Y251.240
G01 X251.551 Y251.137
G01 X251.568 Y251.035
G01 X251.579 Y250.935
G01 X251.583 Y250.835
G01 X251.582 Y250.738
G01 X251.575 Y250.643
G01 X251.563 Y250.550
G01 X251.546 Y250.460
G01 X251.523 Y250.373
G01 X251.496 Y250.289
G01 X251.465 Y250.209
G01 X251.429 Y250.133
G01 X251.390 Y250.061
G01 X251.347 Y249.993
G01 X251.300 Y249.929
G01 X251.251 Y249.870
G01 X251.199 Y249.815
G01 X251.145 Y249.766
G01 X251.090 Y249.721
G01 X251.032 Y249.681
G01 X250.974 Y249.646
G01 X250.914 Y249.616
G01 X250.854 Y249.590
G01 X250.794 Y249.570
G01 X250.734 Y249.555
G01 X250.674 Y249.544
G01 X250.616 Y249.538
G01 X250.558 Y249.537
G01 X250.502 Y249.540
G01 X250.448 Y249.547
G01 X250.395 Y249.559
G01 X250.345 Y249.574
G01 X250.298 Y249.594
G01 X250.253 Y249.617
G01 X250.211 Y249.643
G01 X250.173 Y249.672
G01 X250.138 Y249.704
G01 X250.106 Y249.739
G01 X250.079 Y249.776
G01 X250.055 Y249.815
G01 X250.035 Y249.856
G01 X250.020 Y249.898
G01 X250.008 Y249.941
G01 X250.001 Y249.984
G01 X250.000 Y250.000
G01 X250.001 Y249.992
G01 X250.003 Y249.983
G01 X250.006 Y249.975
G01 X250.009 Y249.967
G01 X250.013 Y249.960
G01 X250.018 Y249.952
G01 X250.024 Y249.946
G01 X250.031 Y249.939
G01 X250.038 Y249.934
G01 X250.046 Y249.928
G01 X250.054 Y249.924
G01 X250.063 Y249.920
G01 X250.072 Y249.916
G01 X250.082 Y249.914
G01 X250.092 Y249.912
G01 X250.103 Y249.911
G01 X250.114 Y249.911
G01 X250.125 Y249.912
G01 X250.137 Y249.914
G01 X250.148 Y249.916
G01 X250.160 Y249.920
G01 X250.171 Y249.925
G01 X250.183 Y249.930
G01 X250.194 Y249.936
G01 X250.205 Y249.944
G01 X250.216 Y249.952
G01 X250.226 Y249.961
G01 X250.236 Y249.971
G01 X250.246 Y249.982
G01 X250.255 Y249.994
G01 X250.263 Y250.007
G01 X250.271 Y250.020
G01 X250.278 Y250.035
G01 X250.285 Y250.050
G01 X250.290 Y250.066
G01 X250.295 Y250.082
G01 X250.298 Y250.099
G01 X250.301 Y250.117
G01 X250.303 Y250.135
G01 X250.303 Y250.153
G01 X250.303 Y250.172
G01 X250.301 Y250.192
G01 X250.298 Y250.211
G01 X250.294 Y250.231
G01 X250.289 Y250.250
G01 X250.283 Y250.270
G01 X250.275 Y250.290
G01 X250.266 Y250.309
G01 X250.256 Y250.329
G01 X250.244 Y250.348
G01 X250.231 Y250.367
G01 X250.217 Y250.385
G01 X250.202 Y250.403
G01 X250.185 Y250.420
G01 X250.167 Y250.436
G01 X250.149 Y250.452
G01 X250.128 Y250.467
G01 X250.107 Y250.481
G01 X250.085 Y250.494
G01 X250.062 Y250.506
G01 X250.037 Y250.517
G01 X250.018 Y250.525
G01 X250.106 Y251.269
G01 X250.267 Y252.005
G01 X250.501 Y252.726
G01 X250.805 Y253.427
G01 X251.179 Y254.103
G01 X251.621 Y254.749
G01 X252.128 Y255.359
G01 X252.699 Y255.930
G01 X253.330 Y256.456
G01 X254.018 Y256.933
G01 X254.760 Y257.356
G01 X255.553 Y257.721
G01 X256.391 Y258.025
G01 X257.272 Y258.264
G01 X258.191 Y258.435
G01 X259.142 Y258.533
G01 X260.122 Y258.558
G01 X261.124 Y258.506
G01 X262.145 Y258.375
G01 X263.177 Y258.163
G01 X264.217 Y257.870
G01 X265.258 Y257.493
G01 X266.295 Y257.032
G01 X267.322 Y256.486
G01 X268.333 Y255.856
G01 X269.321 Y255.142
G01 X270.283 Y254.345
G01 X271.210 Y253.465
G01 X272.099 Y252.504
G01 X272.942 Y251.465
G01 X273.735 Y250.348
G01 X274.472 Y249.157
G01 X275.148 Y247.895
G01 X275.756 Y246.565
G01 X276.293 Y245.170
G01 X276.754 Y243.714
G01 X277.133 Y242.202
G01 X277.426 Y240.638
G01 X277.629 Y239.028
G01 X277.739 Y237.375
G01 X277.752 Y235.686
G01 X277.664 Y233.966
G01 X277.473 Y232.221
G01 X277.175 Y230.457
G01 X276.769 Y228.681
G01 X276.253 Y226.898
G01 X275.625 Y225.116
G01 X274.884 Y223.341
G01 X274.029 Y221.581
G01 X273.061 Y219.841
G01 X271.978 Y218.129
G01 X270.782 Y216.453
G01 X269.474 Y214.818
G01 X268.054 Y213.233
G01 X266.525 Y211.704
G01 X264.889 Y210.238
G01 X263.148 Y208.842
G01 X261.305 Y207.523
G01 X259.364 Y206.287
G01 X257.328 Y205.141
G01 X255.203 Y204.092
G01 X252.992 Y203.144
G01 X250.700 Y202.305
G01 X248.333 Y201.580
G01 X245.897 Y200.974
G01 X243.397 Y200.492
G01 X240.840 Y200.139
G01 X238.234 Y199.920
G01 X235.584 Y199.838
G01 X232.898 Y199.897
G01 X230.184 Y200.101
G01 X227.449 Y200.451
G01 X224.701 Y200.952
G01 X221.950 Y201.605
G01 X219.202 Y202.411
G01 X216.467 Y203.371
G01 X213.753 Y204.487
G01 X211.069 Y205.758
G01 X208.423 Y207.185
G01 X205.825 Y208.765
G01 X203.283 Y210.499
G01 X200.806 Y212.384
G01 X198.403 Y214.418
G01 X196.083 Y216.599
G01 X193.854 Y218.922
G01 X191.724 Y221.384
G01 X189.703 Y223.981
G01 X187.798 Y226.709
G01 X186.016 Y229.561
G01 X184.367 Y232.533
G01 X182.857 Y235.617
G01 X181.493 Y238.808
G01 X180.282 Y242.099
G01 X179.231 Y245.482
G01 X178.346 Y248.949
G01 X177.632 Y252.492
G01 X177.096 Y256.102
G01 X176.741 Y259.771
G01 X176.572 Y263.489
G01 X176.593 Y267.247
G01 X176.808 Y271.035
G01 X177.220 Y274.843
G01 X177.831 Y278.660
G01 X178.642 Y282.477
G01 X179.656 Y286.283
G01 X180.874 Y290.066
G01 X182.294 Y293.817
G01 X183.918 Y297.523
G01 X185.743 Y301.175
G01 X187.770 Y304.761
G01 X189.994 Y308.270
G01 X192.415 Y311.692
G01 X195.028 Y315.015
G01 X197.829 Y318.229
G01 X200.815 Y321.323
G01 X203.980 Y324.287
G01 X207.317 Y327.111
G01 X210.822 Y329.784
G01 X214.488 Y332.298
G01 X218.306 Y334.643
G01 X222.270 Y336.809
G01 X226.370 Y338.789
G01 X230.598 Y340.574
G01 X234.945 Y342.155
G01 X239.401 Y343.527
G01 X243.955 Y344.682
G01 X248.597 Y345.613
G01 X253.316 Y346.315
G01 X258.101 Y346.783
G01 X262.939 Y347.011
G01 X267.818 Y346.996
G01 X272.728 Y346.733
G01 X277.654 Y346.221
G01 X282.583 Y345.457
G01 X287.504 Y344.439
G01 X292.403 Y343.167
G01 X297.267 Y341.640
G01 X302.082 Y339.858
G01 X306.835 Y337.823
G01 X309.287 Y336.660
G01 X251.412 Y252.063
G01 X251.290 Y252.101
G01 X251.169 Y252.131
G01 X251.048 Y252.154
G01 X250.927 Y252.171
G01 X250.808 Y252.182
G01 X250.689 Y252.185
G01 X250.572 Y252.183
G01 X250.457 Y252.174
G01 X250.345 Y252.160
G01 X250.234 Y252.140
G01 X250.127 Y252.114
G01 X250.023 Y252.083
G01 X249.922 Y252.047
G01 X249.825 Y252.006
G01 X249.731 Y251.960
G01 X249.642 Y251.911
G01 X249.556 Y251.857
G01 X249.476 Y251.800
G01 X249.399 Y251.739
G01 X249.328 Y251.675
G01 X249.261 Y251.609
G01 X249.199 Y251.540
G01 X249.142 Y251.468
G01 X249.090 Y251.395
G01 X249.043 Y251.321
G01 X249.001 Y251.245
G01 X248.964 Y251.169
G01 X248.932 Y251.092
G01 X248.905 Y251.014
G01 X248.883 Y250.937
G01 X248.866 Y250.860
G01 X248.854 Y250.784
G01 X248.847 Y250.708
G01 X248.844 Y250.634
G01 X248.845 Y250.562
G01 X248.851 Y250.491
G01 X248.861 Y250.422
G01 X248.875 Y250.355
G01 X248.892 Y250.290
G01 X248.914 Y250.229
G01 X248.938 Y250.169
G01 X248.965 Y250.113
G01 X248.996 Y250.060
G01 X249.029 Y250.011
G01 X249.064 Y249.964
G01 X249.102 Y249.921
G01 X249.141 Y249.882
G01 X249.182 Y249.847
G01 X249.224 Y249.815
G01 X249.268 Y249.787
G01 X249.312 Y249.762
G01 X249.357 Y249.742
G01 X249.402 Y249.725
G01 X249.447 Y249.712
G01 X249.491 Y249.703
G01 X249.536 Y249.697
G01 X249.579 Y249.695
G01 X249.622 Y249.697
G01 X249.663 Y249.701
G01 X249.703 Y249.710
G01 X249.741 Y249.721
G01 X249.778 Y249.735
G01 X249.812 Y249.752
G01 X249.844 Y249.772
G01 X249.874 Y249.794
G01 X249.900 Y249.819
G01 X249.925 Y249.845
G01 X249.946 Y249.874
G01 X249.964 Y249.904
G01 X249.980 Y249.935
G01 X249.992 Y249.968
G01 X250.000 Y250.000
G01 X249.999 Y249.992
G01 X249.998 Y249.985
G01 X249.999 Y249.977
G01 X250.000 Y249.969
G01 X250.001 Y249.961
G01 X250.004 Y249.954
G01 X250.007 Y249.946
G01 X250.011 Y249.939
G01 X250.016 Y249.932
G01 X250.022 Y249.925
G01 X250.028 Y249.919
G01 X250.035 Y249.913
G01 X250.042 Y249.908
G01 X250.050 Y249.903
G01 X250.059 Y249.899
G01 X250.068 Y249.896
G01 X250.077 Y249.893
G01 X250.087 Y249.891
G01 X250.098 Y249.889
G01 X250.108 Y249.889
G01 X250.120 Y249.889
G01 X250.131 Y249.890
G01 X250.142 Y249.892
G01 X250.154 Y249.894
G01 X250.165 Y249.898
G01 X250.177 Y249.902
G01 X250.189 Y249.908
G01 X250.200 Y249.914
G01 X250.211 Y249.921
G01 X250.222 Y249.929
G01 X250.233 Y249.938
G01 X250.243 Y249.948
G01 X250.253 Y249.959
G01 X250.263 Y249.971
G01 X250.272 Y249.983
G01 X250.280 Y249.996
G01 X250.287 Y250.010
G01 X250.294 Y250.025
G01 X250.300 Y250.041
G01 X250.306 Y250.057
G01 X250.310 Y250.073
G01 X250.314 Y250.091
G01 X250.316 Y250.108
G01 X250.318 Y250.127
G01 X250.318 Y250.145
G01 X250.318 Y250.164
G01 X250.316 Y250.184
G01 X250.313 Y250.203
G01 X250.309 Y250.223
G01 X250.304 Y250.243
G01 X250.297 Y250.262
G01 X250.290 Y250.282
G01 X250.281 Y250.302
G01 X250.271 Y250.321
G01 X250.259 Y250.340
G01 X250.247 Y250.359
G01 X250.233 Y250.377
G01 X250.218 Y250.395
G01 X250.202 Y250.412
G01 X250.184 Y250.429
G01 X250.166 Y250.444
G01 X250.146 Y250.459
G01 X250.125 Y250.473
G01 X250.103 Y250.487
G01 X250.081 Y250.499
G01 X250.057 Y250.510
G01 X250.032 Y250.520
G01 X250.019 Y250.525
G01 X250.105 Y251.238
G01 X250.262 Y251.942
G01 X250.488 Y252.633
G01 X250.782 Y253.304
G01 X251.142 Y253.951
G01 X251.567 Y254.569
G01 X252.055 Y255.153
G01 X252.604 Y255.699
G01 X253.210 Y256.201
G01 X253.871 Y256.656
G01 X254.584 Y257.060
G01 X255.345 Y257.409
G01 X256.150 Y257.698
G01 X256.995 Y257.925
G01 X257.876 Y258.086
G01 X258.789 Y258.179
G01 X259.728 Y258.200
G01 X260.689 Y258.148
G01 X261.667 Y258.020
G01 X262.657 Y257.815
G01 X263.654 Y257.531
G01 X264.652 Y257.167
G01 X265.645 Y256.723
G01 X266.628 Y256.198
G01 X267.596 Y255.592
G01 X268.543 Y254.905
G01 X269.463 Y254.139
G01 X270.351 Y253.293
G01 X271.201 Y252.370
G01 X272.008 Y251.372
G01 X272.767 Y250.300
G01 X273.471 Y249.157
G01 X274.116 Y247.945
G01 X274.697 Y246.668
G01 X275.210 Y245.330
G01 X275.648 Y243.933
G01 X276.009 Y242.483
G01 X276.288 Y240.983
G01 X276.480 Y239.438
G01 X276.583 Y237.853
G01 X276.592 Y236.234
G01 X276.504 Y234.585
G01 X276.318 Y232.912
G01 X276.030 Y231.221
G01 X275.638 Y229.519
G01 X275.140 Y227.811
G01 X274.535 Y226.103
G01 X273.821 Y224.403
G01 X272.999 Y222.716
G01 X272.068 Y221.050
G01 X271.027 Y219.411
G01 X269.878 Y217.805
G01 X268.621 Y216.240
G01 X267.257 Y214.723
G01 X265.789 Y213.259
G01 X264.217 Y211.857
G01 X262.546 Y210.521
G01 X260.777 Y209.259
G01 X258.914 Y208.078
G01 X256.961 Y206.983
G01 X254.922 Y205.980
G01 X252.801 Y205.075
G01 X250.602 Y204.274
G01 X248.332 Y203.583
G01 X245.996 Y203.006
G01 X243.599 Y202.548
G01 X241.147 Y202.213
G01 X238.648 Y202.007
G01 X236.108 Y201.933
G01 X233.533 Y201.993
G01 X230.931 Y202.193
G01 X228.310 Y202.533
G01 X225.677 Y203.018
G01 X223.041 Y203.647
G01 X220.408 Y204.424
G01 X217.788 Y205.349
G01 X215.188 Y206.423
G01 X212.616 Y207.646
G01 X210.083 Y209.017
G01 X207.595 Y210.536
G01 X205.161 Y212.202
G01 X202.789 Y214.013
G01 X200.489 Y215.966
G01 X198.268 Y218.060
G01 X196.135 Y220.290
G01 X194.097 Y222.653
G01 X192.164 Y225.146
G01 X190.342 Y227.763
G01 X188.638 Y230.500
G01 X187.062 Y233.351
G01 X185.619 Y236.310
G01 X184.316 Y239.371
G01 X183.161 Y242.527
G01 X182.159 Y245.771
G01 X181.315 Y249.095
G01 X180.637 Y252.492
G01 X180.127 Y255.954
G01 X179.793 Y259.471
G01 X179.636 Y263.035
G01 X179.663 Y266.637
G01 X179.874 Y270.268
G01 X180.275 Y273.917
G01 X180.866 Y277.575
G01 X181.649 Y281.233
G01 X182.627 Y284.879
G01 X183.799 Y288.503
G01 X185.166 Y292.096
G01 X186.728 Y295.646
G01 X188.484 Y299.144
G01 X190.431 Y302.578
G01 X192.569 Y305.938
G01 X194.894 Y309.214
G01 X197.403 Y312.395
G01 X200.093 Y315.471
G01 X202.959 Y318.433
G01 X205.997 Y321.269
G01 X209.200 Y323.971
G01 X212.564 Y326.528
G01 X216.081 Y328.932
G01 X219.744 Y331.174
G01 X223.546 Y333.244
G01 X227.479 Y335.136
G01 X231.534 Y336.840
G01 X235.703 Y338.350
G01 X239.975 Y339.658
G01 X244.342 Y340.758
G01 X248.793 Y341.644
G01 X253.317 Y342.310
G01 X257.903 Y342.751
G01 X262.541 Y342.962
G01 X267.218 Y342.941
G01 X271.922 Y342.682
G01 X276.643 Y342.184
G01 X281.367 Y341.444
G01 X286.082 Y340.462
G01 X290.775 Y339.235
G01 X295.435 Y337.764
G01 X300.047 Y336.049
G01 X304.600 Y334.091
G01 X309.080 Y331.893
G01 X313.475 Y329.456
G01 X317.772 Y326.784
G01 X321.959 Y323.880
G01 X326.022 Y320.749
G01 X329.951 Y317.396
G01 X332.249 Y315.269
G01 X251.958 Y251.554
G01 X251.847 Y251.620
G01 X251.735 Y251.679
G01 X251.621 Y251.730
G01 X251.506 Y251.775
G01 X251.391 Y251.812
G01 X251.276 Y251.843
G01 X251.161 Y251.867
G01 X251.047 Y251.884
G01 X250.934 Y251.894
G01 X250.823 Y251.898
G01 X250.714 Y251.896
G01 X250.607 Y251.887
G01 X250.502 Y251.873
G01 X250.400 Y251.854
G01 X250.302 Y251.828
G01 X250.207 Y251.798
G01 X250.116 Y251.763
G01 X250.028 Y251.724
G01 X249.945 Y251.680
G01 X249.866 Y251.632
G01 X249.792 Y251.581
G01 X249.722 Y251.526
G01 X249.658 Y251.469
G01 X249.598 Y251.409
G01 X249.543 Y251.347
G01 X249.493 Y251.282
G01 X249.449 Y251.217
G01 X249.409 Y251.150
G01 X249.375 Y251.082
G01 X249.346 Y251.014
G01 X249.322 Y250.946
G01 X249.304 Y250.877
G01 X249.290 Y250.810
G01 X249.281 Y250.743
G01 X249.277 Y250.677
G01 X249.277 Y250.613
G01 X249.282 Y250.551
G01 X249.292 Y250.490
G01 X249.305 Y250.432
G01 X249.322 Y250.377
G01 X249.343 Y250.324
G01 X249.368 Y250.274
G01 X249.396 Y250.228
G01 X249.426 Y250.184
G01 X249.460 Y250.145
G01 X249.495 Y250.109
G01 X249.533 Y250.077
G01 X249.573 Y250.049
G01 X249.614 Y250.025
G01 X249.656 Y250.006
G01 X249.699 Y249.990
G01 X249.743 Y249.979
G01 X249.787 Y249.972
G01 X249.831 Y249.969
G01 X249.875 Y249.971
G01 X249.918 Y249.977
G01 X249.960 Y249.986
G01 X250.000 Y250.000
G01 X249.995 Y249.998
G01 X249.989 Y249.995
G01 X249.984 Y249.991
G01 X249.980 Y249.987
G01 X249.976 Y249.983
G01 X249.972 Y249.978
G01 X249.968 Y249.972
G01 X249.966 Y249.967
G01 X249.963 Y249.961
G01 X249.961 Y249.954
G01 X249.960 Y249.948
G01 X249.959 Y249.941
G01 X249.959 Y249.934
G01 X249.959 Y249.927
G01 X249.960 Y249.919
G01 X249.962 Y249.912
G01 X249.964 Y249.905
G01 X249.967 Y249.897
G01 X249.970 Y249.890
G01 X249.975 Y249.883
G01 X249.979 Y249.876
G01 X249.985 Y249.869
G01 X249.991 Y249.862
G01 X249.997 Y249.856
G01 X250.005 Y249.850
G01 X250.013 Y249.845
G01 X250.021 Y249.840
G01 X250.030 Y249.835
G01 X250.039 Y249.831
G01 X250.049 Y249.827
G01 X250.060 Y249.824
G01 X250.070 Y249.822
G01 X250.081 Y249.820
G01 X250.093 Y249.819
G01 X250.105 Y249.818
G01 X250.117 Y249.819
G01 X250.129 Y249.820
G01 X250.141 Y249.821
G01 X250.154 Y249.824
G01 X250.167 Y249.828
G01 X250.179 Y249.832
G01 X250.192 Y249.837
G01 X250.204 Y249.843
G01 X250.217 Y249.850
G01 X250.229 Y249.857
G01 X250.241 Y249.866
G01 X250.252 Y249.875
G01 X250.264 Y249.885
G01 X250.275 Y249.896
G01 X250.285 Y249.908
G01 X250.295 Y249.921
G01 X250.305 Y249.934
G01 X250.313 Y249.948
G01 X250.321 Y249.963
G01 X250.329 Y249.978
G01 X250.336 Y249.994
G01 X250.341 Y250.011
G01 X250.346 Y250.028
G01 X250.351 Y250.046
G01 X250.354 Y250.064
G01 X250.356 Y250.083
G01 X250.357 Y250.102
G01 X250.358 Y250.121
G01 X250.357 Y250.141
G01 X250.355 Y250.160
G01 X250.352 Y250.180
G01 X250.348 Y250.200
G01 X250.343 Y250.220
G01 X250.336 Y250.240
G01 X250.329 Y250.260
G01 X250.320 Y250.280
G01 X250.310 Y250.300
G01 X250.299 Y250.319
G01 X250.287 Y250.338
G01 X250.274 Y250.356
G01 X250.260 Y250.374
G01 X250.244 Y250.392
G01 X250.228 Y250.408
G01 X250.210 Y250.424
G01 X250.191 Y250.440
G01 X250.172 Y250.454
G01 X250.151 Y250.468
G01 X250.129 Y250.480
G01 X250.107 Y250.492
G01 X250.084 Y250.503
G01 X250.060 Y250.512
G01 X250.035 Y250.520
G01 X250.020 Y250.525
G01 X250.105 Y251.209
G01 X250.257 Y251.885
G01 X250.476 Y252.547
G01 X250.760 Y253.191
G01 X251.108 Y253.811
G01 X251.518 Y254.403
G01 X251.988 Y254.963
G01 X252.517 Y255.485
G01 X253.100 Y255.967
G01 X253.736 Y256.402
G01 X254.422 Y256.788
G01 X255.154 Y257.121
G01 X255.927 Y257.397
G01 X256.740 Y257.613
G01 X257.587 Y257.766
G01 X258.463 Y257.853
G01 X259.366 Y257.871
G01 X260.289 Y257.819
G01 X261.229 Y257.694
G01 X262.179 Y257.495
G01 X263.136 Y257.220
G01 X264.093 Y256.868
G01 X265.047 Y256.439
G01 X265.990 Y255.933
G01 X266.919 Y255.349
G01 X267.827 Y254.687
G01 X268.709 Y253.949
G01 X269.561 Y253.135
G01 X270.376 Y252.247
G01 X271.149 Y251.287
G01 X271.875 Y250.255
G01 X272.550 Y249.156
G01 X273.167 Y247.991
G01 X273.723 Y246.763
G01 X274.213 Y245.477
G01 X274.632 Y244.135
G01 X274.976 Y242.741
G01 X275.241 Y241.300
G01 X275.423 Y239.815
G01 X275.519 Y238.293
G01 X275.525 Y236.738
G01 X275.438 Y235.154
G01 X275.256 Y233.548
G01 X274.976 Y231.924
G01 X274.597 Y230.290
G01 X274.116 Y228.650
G01 X273.532 Y227.011
G01 X272.844 Y225.379
G01 X272.051 Y223.761
G01 X271.154 Y222.162
G01 X270.152 Y220.590
G01 X269.045 Y219.050
G01 X267.836 Y217.549
G01 X266.524 Y216.093
G01 X265.111 Y214.690
G01 X263.600 Y213.346
G01 X261.992 Y212.066
G01 X260.292 Y210.857
G01 X258.501 Y209.725
G01 X256.624 Y208.676
G01 X254.663 Y207.717
G01 X252.625 Y206.851
G01 X250.513 Y206.086
G01 X248.331 Y205.425
G01 X246.087 Y204.874
G01 X243.784 Y204.438
G01 X241.430 Y204.121
G01 X239.029 Y203.927
G01 X236.589 Y203.859
G01 X234.117 Y203.922
G01 X231.619 Y204.117
G01 X229.103 Y204.448
G01 X226.575 Y204.917
G01 X224.044 Y205.526
G01 X221.517 Y206.276
G01 X219.002 Y207.169
G01 X216.507 Y208.204
G01 X214.040 Y209.382
G01 X211.609 Y210.702
G01 X209.222 Y212.165
G01 X206.888 Y213.768
G01 X204.613 Y215.511
G01 X202.408 Y217.390
G01 X200.278 Y219.404
G01 X198.233 Y221.548
G01 X196.280 Y223.821
G01 X194.427 Y226.217
G01 X192.682 Y228.733
G01 X191.050 Y231.364
G01 X189.541 Y234.104
G01 X188.160 Y236.947
G01 X186.914 Y239.888
G01 X185.809 Y242.920
G01 X184.851 Y246.037
G01 X184.047 Y249.230
G01 X183.400 Y252.493
G01 X182.916 Y255.817
G01 X182.600 Y259.195
G01 X182.455 Y262.618
G01 X182.486 Y266.076
G01 X182.695 Y269.562
G01 X183.084 Y273.065
G01 X183.657 Y276.577
G01 X184.415 Y280.088
G01 X185.360 Y283.587
G01 X186.491 Y287.066
G01 X187.809 Y290.513
G01 X189.313 Y293.920
G01 X191.004 Y297.275
G01 X192.879 Y300.570
G01 X194.937 Y303.793
G01 X197.174 Y306.935
G01 X199.588 Y309.986
G01 X202.175 Y312.935
G01 X204.932 Y315.774
G01 X207.853 Y318.493
G01 X210.932 Y321.082
G01 X214.166 Y323.533
G01 X217.546 Y325.836
G01 X221.066 Y327.983
G01 X224.720 Y329.965
G01 X228.499 Y331.775
G01 X232.395 Y333.406
G01 X236.400 Y334.849
G01 X240.504 Y336.099
G01 X244.698 Y337.149
G01 X248.973 Y337.992
G01 X253.318 Y338.625
G01 X257.722 Y339.042
G01 X262.175 Y339.238
G01 X266.665 Y339.210
G01 X271.182 Y338.955
G01 X275.713 Y338.470
G01 X280.248 Y337.753
G01 X284.773 Y336.802
G01 X289.278 Y335.618
G01 X293.749 Y334.198
G01 X298.175 Y332.545
G01 X302.543 Y330.659
G01 X306.842 Y328.542
G01 X311.058 Y326.195
G01 X315.180 Y323.623
G01 X319.195 Y320.829
G01 X323.092 Y317.817
G01 X326.859 Y314.592
G01 X330.484 Y311.160
G01 X333.956 Y307.526
G01 X337.264 Y303.698
G01 X340.398 Y299.684
G01 X343.346 Y295.490
G01 X346.099 Y291.126
G01 X347.864 Y288.048
G01 X252.330 Y250.906
G01 X252.245 Y251.002
G01 X252.156 Y251.092
G01 X252.064 Y251.176
G01 X251.968 Y251.254
G01 X251.870 Y251.325
G01 X251.771 Y251.389
G01 X251.669 Y251.447
G01 X251.566 Y251.499
G01 X251.462 Y251.543
G01 X251.357 Y251.582
G01 X251.252 Y251.614
G01 X251.148 Y251.639
G01 X251.044 Y251.658
G01 X250.941 Y251.671
G01 X250.839 Y251.678
G01 X250.739 Y251.679
G01 X250.641 Y251.675
G01 X250.545 Y251.665
G01 X250.452 Y251.649
G01 X250.361 Y251.629
G01 X250.274 Y251.604
G01 X250.190 Y251.574
G01 X250.109 Y251.540
G01 X250.033 Y251.502
G01 X249.960 Y251.460
G01 X249.892 Y251.415
G01 X249.828 Y251.367
G01 X249.768 Y251.316
G01 X249.713 Y251.262
G01 X249.663 Y251.206
G01 X249.617 Y251.149
G01 X249.576 Y251.090
G01 X249.540 Y251.030
G01 X249.509 Y250.969
G01 X249.483 Y250.908
G01 X249.461 Y250.846
G01 X249.444 Y250.785
G01 X249.432 Y250.724
G01 X249.424 Y250.664
G01 X249.421 Y250.605
G01 X249.423 Y250.547
G01 X249.428 Y250.491
G01 X249.437 Y250.437
G01 X249.451 Y250.385
G01 X249.468 Y250.335
G01 X249.488 Y250.288
G01 X249.512 Y250.244
G01 X249.539 Y250.203
G01 X249.568 Y250.165
G01 X249.600 Y250.131
G01 X249.634 Y250.100
G01 X249.670 Y250.073
G01 X249.708 Y250.050
G01 X249.747 Y250.031
G01 X249.787 Y250.015
G01 X249.828 Y250.004
G01 X249.870 Y249.996
G01 X249.912 Y249.993
G01 X249.954 Y249.994
G01 X249.995 Y249.999
G01 X250.000 Y250.000
G01 X249.994 Y249.999
G01 X249.989 Y249.997
G01 X249.984 Y249.994
G01 X249.979 Y249.992
G01 X249.974 Y249.988
G01 X249.969 Y249.984
G01 X249.965 Y249.980
G01 X249.961 Y249.975
G01 X249.958 Y249.970
G01 X249.955 Y249.964
G01 X249.953 Y249.958
G01 X249.951 Y249.952
G01 X249.949 Y249.946
G01 X249.948 Y249.939
G01 X249.948 Y249.932
G01 X249.948 Y249.925
G01 X249.949 Y249.917
G01 X249.950 Y249.910
G01 X249.952 Y249.902
G01 X249.954 Y249.895
G01 X249.958 Y249.887
G01 X249.961 Y249.880
G01 X249.966 Y249.873
G01 X249.971 Y249.865
G01 X249.977 Y249.858
G01 X249.983 Y249.852
G01 X249.990 Y249.845
G01 X249.997 Y249.839
G01 X250.006 Y249.834
G01 X250.014 Y249.829
G01 X250.023 Y249.824
G01 X250.033 Y249.819
G01 X250.043 Y249.816
G01 X250.054 Y249.813
G01 X250.065 Y249.810
G01 X250.076 Y249.808
G01 X250.088 Y249.807
G01 X250.100 Y249.806
G01 X250.112 Y249.806
G01 X250.124 Y249.807
G01 X250.137 Y249.809
G01 X250.150 Y249.811
G01 X250.163 Y249.815
G01 X250.176 Y249.819
G01 X250.189 Y249.824
G01 X250.201 Y249.829
G01 X250.214 Y249.836
G01 X250.226 Y249.843
G01 X250.239 Y249.852
G01 X250.251 Y249.861
G01 X250.262 Y249.871
G01 X250.274 Y249.882
G01 X250.285 Y249.893
G01 X250.295 Y249.905
G01 X250.305 Y249.919
G01 X250.314 Y249.932
G01 X250.323 Y249.947
G01 X250.331 Y249.962
G01 X250.338 Y249.978
G01 X250.344 Y249.995
G01 X250.350 Y250.012
G01 X250.354 Y250.029
G01 X250.358 Y250.047
G01 X250.361 Y250.066
G01 X250.363 Y250.085
G01 X250.364 Y250.104
G01 X250.364 Y250.124
G01 X250.363 Y250.144
G01 X250.360 Y250.164
G01 X250.357 Y250.184
G01 X250.353 Y250.204
G01 X250.347 Y250.224
G01 X250.340 Y250.244
G01 X250.332 Y250.264
G01 X250.323 Y250.284
G01 X250.313 Y250.303
G01 X250.302 Y250.323
G01 X250.289 Y250.341
G01 X250.276 Y250.360
G01 X250.261 Y250.377
G01 X250.245 Y250.395
G01 X250.228 Y250.411
G01 X250.210 Y250.427
G01 X250.191 Y250.442
G01 X250.171 Y250.456
G01 X250.151 Y250.470
G01 X250.129 Y250.482
G01 X250.106 Y250.493
G01 X250.083 Y250.504
G01 X250.059 Y250.513
G01 X250.034 Y250.521
G01 X250.020 Y250.525
G01 X250.104 Y251.183
G01 X250.253 Y251.832
G01 X250.465 Y252.468
G01 X250.740 Y253.086
G01 X251.076 Y253.682
G01 X251.472 Y254.251
G01 X251.926 Y254.788
G01 X252.436 Y255.289
G01 X252.999 Y255.750
G01 X253.612 Y256.167
G01 X254.272 Y256.537
G01 X254.977 Y256.855
G01 X255.722 Y257.119
G01 X256.504 Y257.325
G01 X257.320 Y257.470
G01 X258.163 Y257.551
G01 X259.032 Y257.567
G01 X259.920 Y257.515
G01 X260.824 Y257.392
G01 X261.738 Y257.199
G01 X262.658 Y256.932
G01 X263.578 Y256.592
G01 X264.495 Y256.177
G01 X265.401 Y255.688
G01 X266.294 Y255.124
G01 X267.166 Y254.486
G01 X268.014 Y253.774
G01 X268.831 Y252.989
G01 X269.614 Y252.133
G01 X270.356 Y251.208
G01 X271.053 Y250.214
G01 X271.700 Y249.155
G01 X272.292 Y248.033
G01 X272.824 Y246.851
G01 X273.293 Y245.613
G01 X273.694 Y244.321
G01 X274.022 Y242.979
G01 X274.274 Y241.592
G01 X274.447 Y240.164
G01 X274.536 Y238.699
G01 X274.539 Y237.203
G01 X274.453 Y235.679
G01 X274.276 Y234.134
G01 X274.004 Y232.573
G01 X273.636 Y231.002
G01 X273.170 Y229.425
G01 X272.606 Y227.849
G01 X271.941 Y226.281
G01 X271.176 Y224.725
G01 X270.311 Y223.189
G01 X269.344 Y221.677
G01 X268.277 Y220.198
G01 X267.111 Y218.756
G01 X265.847 Y217.358
G01 X264.485 Y216.011
G01 X263.030 Y214.720
G01 X261.482 Y213.491
G01 X259.844 Y212.331
G01 X258.119 Y211.245
G01 X256.312 Y210.240
G01 X254.425 Y209.320
G01 X252.463 Y208.490
G01 X250.430 Y207.757
G01 X248.331 Y207.125
G01 X246.171 Y206.599
G01 X243.955 Y206.184
G01 X241.690 Y205.882
G01 X239.381 Y205.699
G01 X237.034 Y205.638
G01 X234.656 Y205.702
G01 X232.254 Y205.894
G01 X229.834 Y206.216
G01 X227.404 Y206.671
G01 X224.970 Y207.261
G01 X222.541 Y207.986
G01 X220.124 Y208.848
G01 X217.725 Y209.847
G01 X215.354 Y210.984
G01 X213.018 Y212.258
G01 X210.725 Y213.669
G01 X208.482 Y215.214
G01 X206.297 Y216.893
G01 X204.178 Y218.704
G01 X202.133 Y220.644
G01 X200.170 Y222.710
G01 X198.295 Y224.899
G01 X196.516 Y227.206
G01 X194.841 Y229.629
G01 X193.276 Y232.161
G01 X191.829 Y234.798
G01 X190.505 Y237.535
G01 X189.311 Y240.366
G01 X188.253 Y243.284
G01 X187.337 Y246.282
G01 X186.567 Y249.355
G01 X185.950 Y252.494
G01 X185.490 Y255.692
G01 X185.191 Y258.941
G01 X185.057 Y262.233
G01 X185.092 Y265.559
G01 X185.298 Y268.911
G01 X185.678 Y272.279
G01 X186.234 Y275.656
G01 X186.968 Y279.031
G01 X187.882 Y282.395
G01 X188.975 Y285.739
G01 X190.247 Y289.052
G01 X191.700 Y292.326
G01 X193.331 Y295.551
G01 X195.139 Y298.716
G01 X197.122 Y301.813
G01 X199.279 Y304.831
G01 X201.605 Y307.762
G01 X204.097 Y310.594
G01 X206.752 Y313.321
G01 X209.565 Y315.931
G01 X212.531 Y318.416
G01 X215.644 Y320.768
G01 X218.898 Y322.978
G01 X222.287 Y325.037
G01 X225.804 Y326.938
G01 X229.441 Y328.674
G01 X233.190 Y330.236
G01 X237.043 Y331.618
G01 X240.992 Y332.814
G01 X245.027 Y333.817
G01 X249.139 Y334.622
G01 X253.318 Y335.224
G01 X257.554 Y335.619
G01 X261.837 Y335.801
G01 X266.155 Y335.768
G01 X270.498 Y335.515
G01 X274.856 Y335.042
G01 X279.215 Y334.346
G01 X283.566 Y333.425
G01 X287.896 Y332.279
G01 X292.194 Y330.908
G01 X296.448 Y329.311
G01 X300.646 Y327.491
G01 X304.776 Y325.449
G01 X308.827 Y323.186
G01 X312.787 Y320.707
G01 X316.644 Y318.014
G01 X320.387 Y315.111
G01 X324.005 Y312.005
G01 X327.486 Y308.699
G01 X330.820 Y305.199
G01 X333.995 Y301.513
G01 X337.003 Y297.648
G01 X339.832 Y293.611
G01 X342.472 Y289.410
G01 X344.916 Y285.055
G01 X347.153 Y280.554
G01 X349.176 Y275.917
G01 X350.977 Y271.155
G01 X352.547 Y266.279
G01 X353.881 Y261.299
G01 X354.737 Y257.427
G01 X252.494 Y250.177
G01 X252.418 Y250.291
G01 X252.338 Y250.399
G01 X252.253 Y250.499
G01 X252.164 Y250.592
G01 X252.071 Y250.678
G01 X251.975 Y250.756
G01 X251.877 Y250.826
G01 X251.777 Y250.888
G01 X251.675 Y250.943
G01 X251.573 Y250.990
G01 X251.470 Y251.029
G01 X251.367 Y251.060
G01 X251.264 Y251.084
G01 X251.163 Y251.101
G01 X251.063 Y251.110
G01 X250.965 Y251.113
G01 X250.870 Y251.108
G01 X250.778 Y251.097
G01 X250.688 Y251.080
G01 X250.603 Y251.057
G01 X250.521 Y251.028
G01 X250.444 Y250.994
G01 X250.371 Y250.954
G01 X250.304 Y250.911
G01 X250.241 Y250.863
G01 X250.184 Y250.811
G01 X250.133 Y250.756
G01 X250.088 Y250.698
G01 X250.049 Y250.637
G01 X250.016 Y250.575
G01 X249.989 Y250.511
G01 X249.968 Y250.445
G01 X249.954 Y250.380
G01 X249.946 Y250.314
G01 X249.945 Y250.248
G01 X249.950 Y250.183
G01 X249.961 Y250.119
G01 X249.978 Y250.057
G01 X250.000 Y250.000
G01 X249.919 Y250.213
G01 X249.859 Y250.434
G01 X249.821 Y250.661
G01 X249.804 Y250.892
G01 X249.810 Y251.126
G01 X249.839 Y251.361
G01 X249.890 Y251.595
G01 X249.964 Y251.827
G01 X250.061 Y252.054
G01 X250.179 Y252.277
G01 X250.320 Y252.492
G01 X250.482 Y252.698
G01 X250.665 Y252.893
G01 X250.682 Y252.910
G01 X250.999 Y253.486
G01 X251.375 Y254.036
G01 X251.806 Y254.557
G01 X252.291 Y255.043
G01 X252.828 Y255.492
G01 X253.413 Y255.898
G01 X254.044 Y256.259
G01 X254.719 Y256.571
G01 X255.432 Y256.831
G01 X256.182 Y257.035
G01 X256.963 Y257.181
G01 X257.773 Y257.266
G01 X258.607 Y257.288
G01 X259.460 Y257.244
G01 X260.329 Y257.134
G01 X261.209 Y256.955
G01 X262.094 Y256.705
G01 X262.981 Y256.385
G01 X263.864 Y255.994
G01 X264.738 Y255.530
G01 X265.599 Y254.995
G01 X266.441 Y254.388
G01 X267.260 Y253.710
G01 X268.051 Y252.962
G01 X268.808 Y252.145
G01 X269.527 Y251.260
G01 X270.202 Y250.311
G01 X270.831 Y249.297
G01 X271.407 Y248.223
G01 X271.926 Y247.091
G01 X272.384 Y245.904
G01 X272.777 Y244.665
G01 X273.100 Y243.379
G01 X273.351 Y242.047
G01 X273.526 Y240.676
G01 X273.620 Y239.269
G01 X273.632 Y237.831
G01 X273.559 Y236.367
G01 X273.397 Y234.882
G01 X273.145 Y233.380
G01 X272.801 Y231.867
G01 X272.362 Y230.349
G01 X271.829 Y228.832
G01 X271.199 Y227.320
G01 X270.473 Y225.821
G01 X269.650 Y224.339
G01 X268.729 Y222.881
G01 X267.712 Y221.453
G01 X266.599 Y220.061
G01 X265.392 Y218.710
G01 X264.091 Y217.407
G01 X262.699 Y216.158
G01 X261.217 Y214.969
G01 X259.649 Y213.844
G01 X257.998 Y212.791
G01 X256.266 Y211.814
G01 X254.457 Y210.919
G01 X252.575 Y210.111
G01 X250.624 Y209.395
G01 X248.610 Y208.776
G01 X246.536 Y208.259
G01 X244.408 Y207.847
G01 X242.232 Y207.545
G01 X240.012 Y207.356
G01 X237.756 Y207.285
G01 X235.469 Y207.334
G01 X233.158 Y207.505
G01 X230.830 Y207.802
G01 X228.491 Y208.227
G01 X226.147 Y208.781
G01 X223.807 Y209.465
G01 X221.478 Y210.281
G01 X219.167 Y211.229
G01 X216.881 Y212.310
G01 X214.627 Y213.523
G01 X212.414 Y214.867
G01 X210.249 Y216.341
G01 X208.139 Y217.945
G01 X206.092 Y219.675
G01 X204.115 Y221.530
G01 X202.216 Y223.506
G01 X200.401 Y225.602
G01 X198.678 Y227.812
G01 X197.054 Y230.133
G01 X195.536 Y232.560
G01 X194.130 Y235.089
G01 X192.842 Y237.714
G01 X191.679 Y240.431
G01 X190.646 Y243.232
G01 X189.749 Y246.111
G01 X188.993 Y249.062
G01 X188.383 Y252.078
G01 X187.924 Y255.152
G01 X187.620 Y258.275
G01 X187.474 Y261.441
G01 X187.490 Y264.641
G01 X187.670 Y267.866
G01 X188.018 Y271.109
G01 X188.536 Y274.359
G01 X189.225 Y277.610
G01 X190.086 Y280.850
G01 X191.120 Y284.072
G01 X192.327 Y287.267
G01 X193.707 Y290.423
G01 X195.259 Y293.534
G01 X196.982 Y296.588
G01 X198.874 Y299.578
G01 X200.933 Y302.492
G01 X203.156 Y305.323
G01 X205.539 Y308.061
G01 X208.080 Y310.698
G01 X210.772 Y313.223
G01 X213.612 Y315.630
G01 X216.595 Y317.908
G01 X219.714 Y320.051
G01 X222.964 Y322.049
G01 X226.337 Y323.897
G01 X229.827 Y325.585
G01 X233.427 Y327.107
G01 X237.127 Y328.456
G01 X240.920 Y329.627
G01 X244.797 Y330.613
G01 X248.749 Y331.409
G01 X252.766 Y332.009
G01 X256.840 Y332.410
G01 X260.959 Y332.608
G01 X265.114 Y332.598
G01 X269.294 Y332.377
G01 X273.488 Y331.944
G01 X277.686 Y331.297
G01 X281.877 Y330.433
G01 X286.049 Y329.353
G01 X290.191 Y328.055
G01 X294.292 Y326.541
G01 X298.341 Y324.811
G01 X302.325 Y322.867
G01 X306.234 Y320.711
G01 X310.057 Y318.345
G01 X313.782 Y315.774
G01 X317.399 Y313.000
G01 X320.895 Y310.029
G01 X324.262 Y306.866
G01 X327.487 Y303.516
G01 X330.562 Y299.986
G01 X333.475 Y296.282
G01 X336.217 Y292.411
G01 X338.780 Y288.383
G01 X341.153 Y284.205
G01 X343.329 Y279.885
G01 X345.299 Y275.434
G01 X347.056 Y270.861
G01 X348.592 Y266.177
G01 X349.900 Y261.392
G01 X350.975 Y256.518
G01 X351.811 Y251.565
G01 X352.402 Y246.546
G01 X352.745 Y241.473
G01 X352.835 Y236.358
G01 X352.669 Y231.214
G01 X352.254 Y226.144
G01 X252.435 Y249.432
G01 X252.377 Y249.321
G01 X252.315 Y249.214
G01 X252.248 Y249.112
G01 X252.176 Y249.014
G01 X252.100 Y248.921
G01 X252.021 Y248.833
G01 X251.938 Y248.750
G01 X251.852 Y248.673
G01 X251.762 Y248.601
G01 X251.671 Y248.534
G01 X251.577 Y248.473
G01 X251.481 Y248.418
G01 X251.384 Y248.368
G01 X251.285 Y248.325
G01 X251.186 Y248.286
G01 X251.086 Y248.254
G01 X250.985 Y248.227
G01 X250.885 Y248.206
G01 X250.784 Y248.190
G01 X250.685 Y248.179
G01 X250.586 Y248.174
G01 X250.489 Y248.175
G01 X250.393 Y248.180
G01 X250.299 Y248.190
G01 X250.206 Y248.205
G01 X250.116 Y248.225
G01 X250.028 Y248.249
G01 X249.943 Y248.278
G01 X249.861 Y248.310
G01 X249.782 Y248.347
G01 X249.706 Y248.387
G01 X249.634 Y248.430
G01 X249.565 Y248.476
G01 X249.499 Y248.526
G01 X249.438 Y248.578
G01 X249.380 Y248.633
G01 X249.327 Y248.689
G01 X249.277 Y248.748
G01 X249.231 Y248.808
G01 X249.190 Y248.870
G01 X249.153 Y248.933
G01 X249.120 Y248.997
G01 X249.091 Y249.061
G01 X249.066 Y249.126
G01 X249.045 Y249.190
G01 X249.029 Y249.255
G01 X249.016 Y249.319
G01 X249.008 Y249.383
G01 X249.003 Y249.446
G01 X249.002 Y249.508
G01 X249.004 Y249.568
G01 X249.010 Y249.628
G01 X249.020 Y249.685
G01 X249.032 Y249.741
G01 X249.048 Y249.794
G01 X249.066 Y249.846
G01 X249.087 Y249.895
G01 X249.111 Y249.942
G01 X249.137 Y249.986
G01 X249.165 Y250.027
G01 X249.195 Y250.066
G01 X249.227 Y250.102
G01 X249.260 Y250.135
G01 X249.294 Y250.165
G01 X249.330 Y250.191
G01 X249.366 Y250.215
G01 X249.404 Y250.236
G01 X249.441 Y250.253
G01 X249.479 Y250.268
G01 X249.517 Y250.279
G01 X249.554 Y250.287
G01 X249.591 Y250.293
G01 X249.628 Y250.295
G01 X249.664 Y250.295
G01 X249.699 Y250.292
G01 X249.732 Y250.286
G01 X249.765 Y250.278
G01 X249.795 Y250.267
G01 X249.825 Y250.254
G01 X249.852 Y250.238
G01 X249.877 Y250.221
G01 X249.900 Y250.202
G01 X249.921 Y250.181
G01 X249.940 Y250.159
G01 X249.957 Y250.135
G01 X249.970 Y250.110
G01 X249.982 Y250.085
G01 X249.990 Y250.058
G01 X249.996 Y250.031
G01 X250.000 Y250.003
G01 X250.000 Y250.000
G01 X249.994 Y250.600
G01 X250.046 Y251.199
G01 X250.158 Y251.792
G01 X250.327 Y252.377
G01 X250.554 Y252.947
G01 X250.838 Y253.500
G01 X251.177 Y254.030
G01 X251.569 Y254.535
G01 X252.014 Y255.009
G01 X252.508 Y255.449
G01 X253.049 Y255.851
G01 X253.636 Y256.212
G01 X254.264 Y256.528
G01 X254.932 Y256.796
G01 X255.635 Y257.014
G01 X256.370 Y257.178
G01 X257.134 Y257.285
G01 X257.924 Y257.333
G01 X258.733 Y257.321
G01 X259.560 Y257.246
G01 X260.399 Y257.107
G01 X261.247 Y256.902
G01 X262.098 Y256.630
G01 X262.948 Y256.290
G01 X263.793 Y255.883
G01 X264.628 Y255.407
G01 X265.447 Y254.862
G01 X266.248 Y254.250
G01 X267.024 Y253.571
G01 X267.771 Y252.826
G01 X268.484 Y252.015
G01 X269.160 Y251.142
G01 X269.792 Y250.206
G01 X270.378 Y249.212
G01 X270.912 Y248.160
G01 X271.391 Y247.055
G01 X271.810 Y245.898
G01 X272.166 Y244.693
G01 X272.455 Y243.444
G01 X272.673 Y242.153
G01 X272.817 Y240.827
G01 X272.884 Y239.467
G01 X272.872 Y238.080
G01 X272.777 Y236.669
G01 X272.597 Y235.240
G01 X272.331 Y233.796
G01 X271.977 Y232.344
G01 X271.533 Y230.889
G01 X270.998 Y229.436
G01 X270.621 Y228.540
G01 X269.946 Y227.090
G01 X269.179 Y225.656
G01 X268.318 Y224.244
G01 X267.363 Y222.858
G01 X266.316 Y221.505
G01 X265.177 Y220.191
G01 X263.948 Y218.921
G01 X262.630 Y217.702
G01 X261.225 Y216.538
G01 X259.737 Y215.436
G01 X258.166 Y214.400
G01 X256.518 Y213.437
G01 X254.794 Y212.552
G01 X252.999 Y211.749
G01 X251.136 Y211.033
G01 X249.210 Y210.409
G01 X247.226 Y209.882
G01 X245.189 Y209.456
G01 X243.103 Y209.135
G01 X240.974 Y208.922
G01 X238.808 Y208.821
G01 X236.611 Y208.835
G01 X234.388 Y208.967
G01 X232.147 Y209.220
G01 X229.894 Y209.594
G01 X227.635 Y210.093
G01 X225.377 Y210.718
G01 X223.128 Y211.469
G01 X220.893 Y212.347
G01 X218.681 Y213.354
G01 X216.499 Y214.487
G01 X214.354 Y215.748
G01 X212.252 Y217.134
G01 X210.202 Y218.646
G01 X208.210 Y220.280
G01 X206.285 Y222.035
G01 X204.431 Y223.908
G01 X202.658 Y225.897
G01 X200.972 Y227.997
G01 X199.378 Y230.205
G01 X197.885 Y232.517
G01 X196.498 Y234.929
G01 X195.224 Y237.435
G01 X194.068 Y240.030
G01 X193.036 Y242.708
G01 X192.134 Y245.464
G01 X191.367 Y248.291
G01 X190.739 Y251.182
G01 X190.255 Y254.131
G01 X189.919 Y257.130
G01 X189.735 Y260.172
G01 X189.706 Y263.248
G01 X189.836 Y266.352
G01 X190.126 Y269.475
G01 X190.579 Y272.608
G01 X191.197 Y275.743
G01 X191.980 Y278.871
G01 X192.930 Y281.984
G01 X194.047 Y285.072
G01 X195.331 Y288.127
G01 X196.782 Y291.140
G01 X198.397 Y294.101
G01 X200.176 Y297.002
G01 X202.116 Y299.833
G01 X204.215 Y302.586
G01 X206.470 Y305.252
G01 X208.877 Y307.823
G01 X211.433 Y310.289
G01 X214.132 Y312.642
G01 X216.970 Y314.875
G01 X219.941 Y316.978
G01 X223.040 Y318.945
G01 X226.260 Y320.768
G01 X229.594 Y322.439
G01 X233.036 Y323.952
G01 X236.577 Y325.301
G01 X240.210 Y326.479
G01 X243.926 Y327.480
G01 X247.718 Y328.299
G01 X251.574 Y328.931
G01 X255.488 Y329.372
G01 X259.448 Y329.618
G01 X263.446 Y329.665
G01 X267.471 Y329.510
G01 X271.512 Y329.150
G01 X275.560 Y328.584
G01 X279.604 Y327.809
G01 X283.633 Y326.826
G01 X287.636 Y325.634
G01 X291.602 Y324.233
G01 X295.521 Y322.623
G01 X299.382 Y320.806
G01 X303.172 Y318.784
G01 X306.883 Y316.559
G01 X310.502 Y314.135
G01 X314.020 Y311.515
G01 X317.425 Y308.704
G01 X320.707 Y305.705
G01 X323.856 Y302.525
G01 X326.862 Y299.169
G01 X329.716 Y295.644
G01 X332.407 Y291.956
G01 X334.928 Y288.114
G01 X337.268 Y284.125
G01 X339.420 Y279.997
G01 X341.376 Y275.740
G01 X343.129 Y271.363
G01 X344.670 Y266.876
G01 X345.994 Y262.288
G01 X347.094 Y257.611
G01 X347.965 Y252.856
G01 X348.602 Y248.033
G01 X349.000 Y243.155
G01 X349.155 Y238.233
G01 X349.065 Y233.280
G01 X348.726 Y228.307
G01 X348.135 Y223.328
G01 X347.293 Y218.354
G01 X346.198 Y213.400
G01 X344.849 Y208.477
G01 X343.248 Y203.599
G01 X341.395 Y198.779
G01 X340.637 Y196.991
G01 X252.158 Y248.738
G01 X252.067 Y248.651
G01 X251.972 Y248.570
G01 X251.875 Y248.495
G01 X251.775 Y248.426
G01 X251.673 Y248.363
G01 X251.569 Y248.306
G01 X251.464 Y248.255
G01 X251.357 Y248.211
G01 X251.250 Y248.173
G01 X251.142 Y248.141
G01 X251.034 Y248.115
G01 X250.926 Y248.095
G01 X250.819 Y248.081
G01 X250.713 Y248.073
G01 X250.608 Y248.071
G01 X250.505 Y248.074
G01 X250.403 Y248.083
G01 X250.303 Y248.097
G01 X250.206 Y248.116
G01 X250.111 Y248.139
G01 X250.020 Y248.168
G01 X249.931 Y248.201
G01 X249.846 Y248.238
G01 X249.764 Y248.280
G01 X249.685 Y248.324
G01 X249.611 Y248.373
G01 X249.541 Y248.424
G01 X249.474 Y248.479
G01 X249.412 Y248.536
G01 X249.354 Y248.596
G01 X249.301 Y248.657
G01 X249.252 Y248.721
G01 X249.207 Y248.785
G01 X249.167 Y248.852
G01 X249.132 Y248.919
G01 X249.101 Y248.986
G01 X249.075 Y249.054
G01 X249.053 Y249.123
G01 X249.035 Y249.191
G01 X249.022 Y249.258
G01 X249.013 Y249.325
G01 X249.008 Y249.391
G01 X249.007 Y249.456
G01 X249.010 Y249.519
G01 X249.017 Y249.580
G01 X249.028 Y249.640
G01 X249.041 Y249.698
G01 X249.058 Y249.753
G01 X249.079 Y249.806
G01 X249.102 Y249.857
G01 X249.127 Y249.905
G01 X249.155 Y249.949
G01 X249.186 Y249.991
G01 X249.218 Y250.030
G01 X249.252 Y250.066
G01 X249.288 Y250.098
G01 X249.325 Y250.127
G01 X249.363 Y250.152
G01 X249.402 Y250.175
G01 X249.441 Y250.193
G01 X249.481 Y250.209
G01 X249.520 Y250.221
G01 X249.560 Y250.229
G01 X249.599 Y250.234
G01 X249.638 Y250.236
G01 X249.676 Y250.235
G01 X249.712 Y250.231
G01 X249.748 Y250.224
G01 X249.782 Y250.214
G01 X249.814 Y250.201
G01 X249.845 Y250.185
G01 X249.873 Y250.167
G01 X249.899 Y250.147
G01 X249.923 Y250.125
G01 X249.945 Y250.100
G01 X249.964 Y250.074
G01 X249.980 Y250.047
G01 X249.993 Y250.018
G01 X250.000 Y250.000
G01 X249.923 Y250.274
G01 X249.872 Y250.554
G01 X249.849 Y250.840
G01 X249.854 Y251.128
G01 X249.887 Y251.417
G01 X249.948 Y251.705
G01 X250.037 Y251.990
G01 X250.154 Y252.269
G01 X250.298 Y252.541
G01 X250.470 Y252.804
G01 X250.667 Y253.055
G01 X250.891 Y253.293
G01 X251.063 Y253.452
G01 X251.433 Y253.954
G01 X251.855 Y254.426
G01 X252.326 Y254.865
G01 X252.844 Y255.268
G01 X253.406 Y255.630
G01 X254.010 Y255.948
G01 X254.653 Y256.219
G01 X255.331 Y256.441
G01 X256.041 Y256.609
G01 X256.779 Y256.723
G01 X257.542 Y256.779
G01 X258.326 Y256.775
G01 X259.127 Y256.710
G01 X259.940 Y256.582
G01 X260.762 Y256.390
G01 X261.587 Y256.131
G01 X262.411 Y255.807
G01 X263.231 Y255.416
G01 X264.040 Y254.958
G01 X264.835 Y254.433
G01 X265.611 Y253.841
G01 X266.364 Y253.184
G01 X267.088 Y252.462
G01 X267.779 Y251.676
G01 X268.433 Y250.829
G01 X269.045 Y249.921
G01 X269.611 Y248.955
G01 X270.126 Y247.933
G01 X270.587 Y246.858
G01 X270.990 Y245.734
G01 X271.331 Y244.562
G01 X271.606 Y243.348
G01 X271.811 Y242.093
G01 X271.944 Y240.803
G01 X272.002 Y239.481
G01 X271.982 Y238.132
G01 X271.881 Y236.761
G01 X271.697 Y235.371
G01 X271.428 Y233.969
G01 X271.073 Y232.558
G01 X270.630 Y231.145
G01 X270.098 Y229.734
G01 X269.476 Y228.330
G01 X268.764 Y226.940
G01 X267.962 Y225.569
G01 X267.069 Y224.222
G01 X266.087 Y222.906
G01 X265.016 Y221.624
G01 X263.857 Y220.384
G01 X262.612 Y219.190
G01 X261.282 Y218.049
G01 X259.871 Y216.965
G01 X258.380 Y215.944
G01 X256.812 Y214.991
G01 X255.171 Y214.112
G01 X253.459 Y213.310
G01 X251.682 Y212.592
G01 X249.842 Y211.961
G01 X247.944 Y211.422
G01 X245.993 Y210.979
G01 X243.993 Y210.635
G01 X241.951 Y210.396
G01 X239.870 Y210.263
G01 X237.758 Y210.241
G01 X235.620 Y210.331
G01 X233.461 Y210.537
G01 X231.289 Y210.861
G01 X229.109 Y211.304
G01 X226.928 Y211.868
G01 X224.753 Y212.554
G01 X222.590 Y213.362
G01 X220.447 Y214.294
G01 X218.330 Y215.349
G01 X216.247 Y216.527
G01 X214.203 Y217.826
G01 X212.207 Y219.247
G01 X210.266 Y220.787
G01 X208.385 Y222.444
G01 X206.573 Y224.216
G01 X204.835 Y226.100
G01 X203.179 Y228.094
G01 X201.612 Y230.193
G01 X200.138 Y232.393
G01 X198.766 Y234.691
G01 X197.500 Y237.082
G01 X196.346 Y239.560
G01 X195.311 Y242.120
G01 X194.400 Y244.758
G01 X193.616 Y247.465
G01 X192.966 Y250.238
G01 X192.454 Y253.067
G01 X192.083 Y255.948
G01 X191.858 Y258.872
G01 X191.782 Y261.833
G01 X191.857 Y264.822
G01 X192.087 Y267.831
G01 X192.474 Y270.854
G01 X193.019 Y273.881
G01 X193.724 Y276.904
G01 X194.590 Y279.915
G01 X195.616 Y282.905
G01 X196.804 Y285.866
G01 X198.153 Y288.788
G01 X199.661 Y291.664
G01 X201.328 Y294.484
G01 X203.151 Y297.240
G01 X205.129 Y299.924
G01 X207.258 Y302.526
G01 X209.535 Y305.038
G01 X211.957 Y307.452
G01 X214.519 Y309.760
G01 X217.216 Y311.954
G01 X220.044 Y314.025
G01 X222.997 Y315.967
G01 X226.069 Y317.772
G01 X229.253 Y319.434
G01 X232.543 Y320.945
G01 X235.932 Y322.298
G01 X239.412 Y323.489
G01 X242.974 Y324.511
G01 X246.612 Y325.359
G01 X250.317 Y326.028
G01 X254.078 Y326.514
G01 X257.888 Y326.812
G01 X261.737 Y326.919
G01 X265.616 Y326.832
G01 X269.514 Y326.549
G01 X273.421 Y326.066
G01 X277.327 Y325.383
G01 X281.223 Y324.499
G01 X285.097 Y323.413
G01 X288.939 Y322.125
G01 X292.738 Y320.635
G01 X296.484 Y318.945
G01 X300.167 Y317.057
G01 X303.775 Y314.971
G01 X307.299 Y312.693
G01 X310.727 Y310.224
G01 X314.051 Y307.568
G01 X317.259 Y304.731
G01 X320.341 Y301.716
G01 X323.289 Y298.530
G01 X326.093 Y295.178
G01 X328.742 Y291.668
G01 X331.230 Y288.006
G01 X333.546 Y284.199
G01 X335.683 Y280.256
G01 X337.633 Y276.185
G01 X339.389 Y271.996
G01 X340.943 Y267.696
G01 X342.290 Y263.297
G01 X343.422 Y258.809
G01 X344.335 Y254.241
G01 X345.023 Y249.604
G01 X345.481 Y244.911
G01 X345.707 Y240.171
G01 X345.696 Y235.397
G01 X345.446 Y230.601
G01 X344.955 Y225.794
G01 X344.220 Y220.990
G01 X343.241 Y216.199
G01 X342.017 Y211.435
G01 X340.550 Y206.711
G01 X338.839 Y202.038
G01 X336.887 Y197.429
G01 X334.694 Y192.897
G01 X332.266 Y188.455
G01 X329.604 Y184.114
G01 X326.714 Y179.887
G01 X323.599 Y175.786
G01 X320.924 Y172.574
G01 X251.689 Y248.157
G01 X251.576 Y248.101
G01 X251.461 Y248.052
G01 X251.346 Y248.009
G01 X251.229 Y247.973
G01 X251.113 Y247.944
G01 X250.997 Y247.921
G01 X250.881 Y247.904
G01 X250.766 Y247.894
G01 X250.652 Y247.890
G01 X250.540 Y247.892
G01 X250.429 Y247.899
G01 X250.321 Y247.913
G01 X250.215 Y247.932
G01 X250.111 Y247.956
G01 X250.011 Y247.985
G01 X249.913 Y248.020
G01 X249.819 Y248.058
G01 X249.729 Y248.102
G01 X249.642 Y248.149
G01 X249.559 Y248.200
G01 X249.481 Y248.255
G01 X249.406 Y248.313
G01 X249.337 Y248.374
G01 X249.271 Y248.438
G01 X249.211 Y248.504
G01 X249.155 Y248.573
G01 X249.104 Y248.643
G01 X249.057 Y248.715
G01 X249.016 Y248.788
G01 X248.979 Y248.861
G01 X248.947 Y248.936
G01 X248.920 Y249.011
G01 X248.898 Y249.086
G01 X248.880 Y249.160
G01 X248.867 Y249.234
G01 X248.858 Y249.308
G01 X248.854 Y249.380
G01 X248.854 Y249.451
G01 X248.859 Y249.520
G01 X248.867 Y249.588
G01 X248.879 Y249.653
G01 X248.895 Y249.717
G01 X248.914 Y249.778
G01 X248.936 Y249.836
G01 X248.962 Y249.892
G01 X248.990 Y249.945
G01 X249.021 Y249.995
G01 X249.054 Y250.041
G01 X249.089 Y250.085
G01 X249.127 Y250.125
G01 X249.166 Y250.161
G01 X249.206 Y250.194
G01 X249.248 Y250.224
G01 X249.290 Y250.250
G01 X249.333 Y250.272
G01 X249.377 Y250.291
G01 X249.420 Y250.306
G01 X249.464 Y250.318
G01 X249.507 Y250.326
G01 X249.550 Y250.330
G01 X249.592 Y250.332
G01 X249.632 Y250.330
G01 X249.672 Y250.325
G01 X249.710 Y250.316
G01 X249.747 Y250.305
G01 X249.781 Y250.292
G01 X249.814 Y250.275
G01 X249.845 Y250.256
G01 X249.873 Y250.235
G01 X249.898 Y250.212
G01 X249.921 Y250.187
G01 X249.942 Y250.160
G01 X249.959 Y250.132
G01 X249.974 Y250.102
G01 X249.985 Y250.072
G01 X249.994 Y250.040
G01 X249.999 Y250.008
G01 X250.000 Y250.000
G01 X249.978 Y250.538
G01 X250.008 Y251.076
G01 X250.091 Y251.612
G01 X250.227 Y252.141
G01 X250.415 Y252.659
G01 X250.654 Y253.163
G01 X250.943 Y253.648
G01 X251.281 Y254.111
G01 X251.666 Y254.549
G01 X252.097 Y254.957
G01 X252.572 Y255.333
G01 X253.087 Y255.673
G01 X253.642 Y255.975
G01 X254.233 Y256.234
G01 X254.858 Y256.449
G01 X255.513 Y256.616
G01 X256.196 Y256.734
G01 X256.902 Y256.799
G01 X257.629 Y256.811
G01 X258.373 Y256.767
G01 X259.129 Y256.665
G01 X259.895 Y256.505
G01 X260.666 Y256.285
G01 X261.438 Y256.004
G01 X262.207 Y255.662
G01 X262.969 Y255.258
G01 X263.720 Y254.793
G01 X264.455 Y254.266
G01 X265.170 Y253.679
G01 X265.755 Y253.135
G01 X266.458 Y252.443
G01 X267.129 Y251.689
G01 X267.764 Y250.874
G01 X268.359 Y250.002
G01 X268.910 Y249.073
G01 X269.413 Y248.090
G01 X269.863 Y247.055
G01 X270.258 Y245.972
G01 X270.592 Y244.844
G01 X270.864 Y243.673
G01 X271.068 Y242.464
G01 X271.203 Y241.220
G01 X271.265 Y239.945
G01 X271.252 Y238.643
G01 X271.162 Y237.319
G01 X270.991 Y235.977
G01 X270.739 Y234.622
G01 X270.403 Y233.259
G01 X269.982 Y231.893
G01 X269.475 Y230.529
G01 X268.882 Y229.171
G01 X268.201 Y227.826
G01 X267.433 Y226.499
G01 X266.577 Y225.195
G01 X265.635 Y223.920
G01 X264.607 Y222.678
G01 X263.494 Y221.475
G01 X262.298 Y220.317
G01 X261.020 Y219.210
G01 X259.663 Y218.157
G01 X258.228 Y217.165
G01 X256.719 Y216.238
G01 X255.139 Y215.381
G01 X253.490 Y214.600
G01 X251.777 Y213.898
G01 X250.003 Y213.281
G01 X248.174 Y212.752
G01 X246.292 Y212.315
G01 X244.363 Y211.975
G01 X242.392 Y211.734
G01 X240.384 Y211.597
G01 X238.345 Y211.566
G01 X236.280 Y211.644
G01 X234.195 Y211.834
G01 X232.096 Y212.136
G01 X229.989 Y212.554
G01 X227.881 Y213.089
G01 X225.778 Y213.742
G01 X223.686 Y214.513
G01 X221.613 Y215.404
G01 X219.564 Y216.413
G01 X217.547 Y217.541
G01 X215.568 Y218.787
G01 X213.635 Y220.150
G01 X211.753 Y221.629
G01 X209.930 Y223.221
G01 X208.172 Y224.924
G01 X206.486 Y226.736
G01 X204.879 Y228.654
G01 X203.355 Y230.674
G01 X201.923 Y232.793
G01 X200.588 Y235.006
G01 X199.355 Y237.309
G01 X198.231 Y239.697
G01 X197.220 Y242.166
G01 X196.328 Y244.709
G01 X195.560 Y247.320
G01 X194.920 Y249.995
G01 X194.413 Y252.726
G01 X194.043 Y255.506
G01 X193.813 Y258.329
G01 X193.727 Y261.188
G01 X193.787 Y264.075
G01 X193.996 Y266.983
G01 X194.357 Y269.904
G01 X194.870 Y272.829
G01 X195.538 Y275.752
G01 X196.361 Y278.664
G01 X197.340 Y281.556
G01 X198.475 Y284.421
G01 X199.765 Y287.249
G01 X201.210 Y290.033
G01 X202.808 Y292.765
G01 X204.557 Y295.434
G01 X206.456 Y298.034
G01 X208.501 Y300.557
G01 X210.690 Y302.993
G01 X213.019 Y305.335
G01 X215.484 Y307.575
G01 X218.080 Y309.705
G01 X220.802 Y311.718
G01 X223.646 Y313.607
G01 X226.606 Y315.363
G01 X229.675 Y316.981
G01 X232.846 Y318.455
G01 X236.114 Y319.777
G01 X239.470 Y320.941
G01 X242.907 Y321.944
G01 X246.418 Y322.778
G01 X249.993 Y323.440
G01 X253.625 Y323.925
G01 X257.304 Y324.229
G01 X261.021 Y324.349
G01 X264.768 Y324.281
G01 X268.535 Y324.024
G01 X272.311 Y323.574
G01 X276.087 Y322.931
G01 X279.854 Y322.093
G01 X283.601 Y321.060
G01 X287.318 Y319.832
G01 X290.994 Y318.409
G01 X294.620 Y316.792
G01 X298.185 Y314.983
G01 X301.680 Y312.984
G01 X305.093 Y310.797
G01 X308.416 Y308.427
G01 X311.637 Y305.875
G01 X314.748 Y303.148
G01 X317.739 Y300.248
G01 X320.600 Y297.183
G01 X323.322 Y293.957
G01 X325.897 Y290.577
G01 X328.315 Y287.049
G01 X330.569 Y283.381
G01 X332.650 Y279.581
G01 X334.551 Y275.657
G01 X336.264 Y271.617
G01 X337.784 Y267.470
G01 X339.103 Y263.226
G01 X340.215 Y258.894
G01 X341.116 Y254.485
G01 X341.800 Y250.009
G01 X342.263 Y245.476
G01 X342.501 Y240.898
G01 X342.511 Y236.286
G01 X342.289 Y231.652
G01 X341.834 Y227.006
G01 X341.144 Y222.361
G01 X340.218 Y217.729
G01 X339.056 Y213.121
G01 X337.658 Y208.551
G01 X336.025 Y204.029
G01 X334.158 Y199.568
G01 X332.059 Y195.181
G01 X329.731 Y190.879
G01 X327.178 Y186.674
G01 X324.403 Y182.578
G01 X321.411 Y178.603
G01 X318.207 Y174.760
G01 X314.797 Y171.060
G01 X311.187 Y167.515
G01 X307.385 Y164.135
G01 X303.397 Y160.931
G01 X299.233 Y157.912
G01 X294.901 Y155.088
G01 X294.875 Y155.072
G01 X251.068 Y247.740
G01 X250.942 Y247.724
G01 X250.817 Y247.715
G01 X250.693 Y247.713
G01 X250.571 Y247.717
G01 X250.451 Y247.728
G01 X250.334 Y247.745
G01 X250.219 Y247.768
G01 X250.108 Y247.797
G01 X250.000 Y247.831
G01 X249.895 Y247.870
G01 X249.794 Y247.914
G01 X249.697 Y247.963
G01 X249.605 Y248.017
G01 X249.517 Y248.074
G01 X249.434 Y248.135
G01 X249.355 Y248.200
G01 X249.282 Y248.268
G01 X249.214 Y248.338
G01 X249.150 Y248.411
G01 X249.092 Y248.486
G01 X249.039 Y248.563
G01 X248.992 Y248.641
G01 X248.950 Y248.721
G01 X248.913 Y248.801
G01 X248.882 Y248.882
G01 X248.855 Y248.963
G01 X248.834 Y249.044
G01 X248.818 Y249.124
G01 X248.807 Y249.203
G01 X248.801 Y249.282
G01 X248.800 Y249.359
G01 X248.803 Y249.434
G01 X248.810 Y249.508
G01 X248.822 Y249.579
G01 X248.838 Y249.648
G01 X248.858 Y249.714
G01 X248.881 Y249.778
G01 X248.908 Y249.838
G01 X248.938 Y249.896
G01 X248.971 Y249.950
G01 X249.007 Y250.000
G01 X249.044 Y250.047
G01 X249.084 Y250.090
G01 X249.126 Y250.130
G01 X249.170 Y250.165
G01 X249.215 Y250.197
G01 X249.260 Y250.225
G01 X249.307 Y250.248
G01 X249.354 Y250.268
G01 X249.401 Y250.284
G01 X249.448 Y250.295
G01 X249.495 Y250.303
G01 X249.541 Y250.307
G01 X249.586 Y250.307
G01 X249.630 Y250.304
G01 X249.672 Y250.297
G01 X249.713 Y250.287
G01 X249.752 Y250.273
G01 X249.789 Y250.257
G01 X249.824 Y250.237
G01 X249.856 Y250.215
G01 X249.886 Y250.190
G01 X249.913 Y250.163
G01 X249.937 Y250.134
G01 X249.957 Y250.103
G01 X249.975 Y250.071
G01 X249.989 Y250.037
G01 X250.000 Y250.001
G01 X250.000 Y250.000
G01 X249.951 Y250.251
G01 X249.926 Y250.506
G01 X249.926 Y250.764
G01 X249.952 Y251.022
G01 X250.003 Y251.279
G01 X250.079 Y251.533
G01 X250.179 Y251.782
G01 X250.305 Y252.024
G01 X250.454 Y252.257
G01 X250.627 Y252.481
G01 X250.823 Y252.691
G01 X251.040 Y252.889
G01 X251.279 Y253.070
G01 X251.538 Y253.235
G01 X251.816 Y253.381
G01 X252.112 Y253.507
G01 X252.424 Y253.611
G01 X252.751 Y253.693
G01 X253.092 Y253.751
G01 X253.444 Y253.784
G01 X253.807 Y253.791
G01 X254.108 Y253.777
G01 X254.543 Y253.783
G01 X254.988 Y253.755
G01 X255.440 Y253.691
G01 X255.897 Y253.592
G01 X256.357 Y253.457
G01 X256.818 Y253.284
G01 X257.276 Y253.075
G01 X257.729 Y252.828
G01 X258.174 Y252.543
G01 X258.610 Y252.222
G01 X259.033 Y251.864
G01 X259.440 Y251.469
G01 X259.830 Y251.039
G01 X260.200 Y250.574
G01 X260.547 Y250.075
G01 X260.869 Y249.544
G01 X261.163 Y248.981
G01 X261.428 Y248.388
G01 X261.660 Y247.767
G01 X261.858 Y247.119
G01 X262.020 Y246.447
G01 X262.144 Y245.752
G01 X262.227 Y245.037
G01 X262.270 Y244.304
G01 X262.268 Y243.554
G01 X262.223 Y242.792
G01 X262.131 Y242.019
G01 X261.992 Y241.238
G01 X261.805 Y240.452
G01 X261.569 Y239.664
G01 X261.284 Y238.876
G01 X260.949 Y238.092
G01 X260.563 Y237.315
G01 X260.127 Y236.547
G01 X259.640 Y235.792
G01 X259.104 Y235.054
G01 X258.518 Y234.334
G01 X257.883 Y233.637
G01 X257.199 Y232.965
G01 X256.468 Y232.321
G01 X255.691 Y231.709
G01 X254.870 Y231.131
G01 X254.005 Y230.590
G01 X253.099 Y230.090
G01 X252.153 Y229.633
G01 X251.169 Y229.221
G01 X250.151 Y228.858
G01 X249.099 Y228.545
G01 X248.018 Y228.285
G01 X246.908 Y228.081
G01 X245.774 Y227.934
G01 X244.618 Y227.846
G01 X243.444 Y227.819
G01 X242.254 Y227.855
G01 X241.052 Y227.955
G01 X239.842 Y228.120
G01 X238.627 Y228.352
G01 X237.410 Y228.651
G01 X236.195 Y229.018
G01 X234.987 Y229.453
G01 X233.789 Y229.957
G01 X232.604 Y230.530
G01 X231.437 Y231.171
G01 X230.292 Y231.880
G01 X229.172 Y232.657
G01 X228.082 Y233.501
G01 X227.025 Y234.410
G01 X226.005 Y235.384
G01 X225.026 Y236.421
G01 X224.091 Y237.519
G01 X223.205 Y238.677
G01 X222.371 Y239.891
G01 X221.592 Y241.161
G01 X220.872 Y242.483
G01 X220.213 Y243.854
G01 X219.621 Y245.272
G01 X219.096 Y246.734
G01 X218.642 Y248.235
G01 X218.262 Y249.774
G01 X217.959 Y251.345
G01 X217.734 Y252.946
G01 X217.589 Y254.572
G01 X217.527 Y256.219
G01 X217.550 Y257.883
G01 X217.658 Y259.560
G01 X217.854 Y261.244
G01 X218.137 Y262.933
G01 X218.510 Y264.620
G01 X218.972 Y266.301
G01 X219.524 Y267.972
G01 X220.166 Y269.628
G01 X220.898 Y271.264
G01 X221.719 Y272.874
G01 X222.628 Y274.455
G01 X223.625 Y276.001
G01 X224.709 Y277.508
G01 X225.877 Y278.970
G01 X227.129 Y280.383
G01 X228.461 Y281.743
G01 X229.872 Y283.044
G01 X231.360 Y284.283
G01 X232.921 Y285.455
G01 X234.552 Y286.555
G01 X236.251 Y287.580
G01 X238.013 Y288.525
G01 X239.835 Y289.388
G01 X241.713 Y290.163
G01 X243.643 Y290.849
G01 X245.620 Y291.441
G01 X247.640 Y291.936
G01 X249.698 Y292.333
G01 X251.790 Y292.627
G01 X253.909 Y292.818
G01 X256.052 Y292.903
G01 X258.212 Y292.879
G01 X260.384 Y292.746
G01 X262.563 Y292.503
G01 X264.743 Y292.148
G01 X266.917 Y291.680
G01 X269.082 Y291.100
G01 X271.229 Y290.408
G01 X273.355 Y289.603
G01 X275.452 Y288.686
G01 X277.515 Y287.657
G01 X279.537 Y286.519
G01 X281.514 Y285.273
G01 X283.440 Y283.920
G01 X285.308 Y282.462
G01 X287.112 Y280.903
G01 X288.848 Y279.244
G01 X290.511 Y277.488
G01 X292.093 Y275.640
G01 X293.592 Y273.701
G01 X295.000 Y271.678
G01 X296.315 Y269.572
G01 X297.530 Y267.390
G01 X298.643 Y265.135
G01 X299.647 Y262.813
G01 X300.540 Y260.428
G01 X301.318 Y257.987
G01 X301.978 Y255.494
G01 X302.515 Y252.955
G01 X302.928 Y250.377
G01 X303.214 Y247.766
G01 X303.370 Y245.128
G01 X303.394 Y242.468
G01 X303.286 Y239.795
G01 X303.042 Y237.115
G01 X302.664 Y234.434
G01 X302.149 Y231.759
G01 X301.498 Y229.098
G01 X300.711 Y226.457
G01 X299.788 Y223.843
G01 X298.729 Y221.263
G01 X297.537 Y218.725
G01 X296.213 Y216.234
G01 X294.758 Y213.799
G01 X293.174 Y211.426
G01 X291.465 Y209.122
G01 X289.634 Y206.893
G01 X287.683 Y204.745
G01 X285.616 Y202.686
G01 X283.437 Y200.722
G01 X281.151 Y198.858
G01 X278.763 Y197.100
G01 X276.276 Y195.454
G01 X273.697 Y193.925
G01 X271.030 Y192.519
G01 X268.283 Y191.240
G01 X265.461 Y190.093
G01 X262.569 Y189.083
G01 X259.616 Y188.212
G01 X256.608 Y187.485
G01 X253.551 Y186.906
G01 X250.453 Y186.477
G01 X247.322 Y186.200
G01 X244.164 Y186.079
G01 X240.989 Y186.114
G01 X237.802 Y186.308
G01 X234.614 Y186.662
G01 X231.430 Y187.175
G01 X228.261 Y187.850
G01 X225.113 Y188.684
G01 X221.995 Y189.679
G01 X218.915 Y190.833
G01 X215.881 Y192.144
G01 X212.901 Y193.611
G01 X209.984 Y195.232
G01 X207.136 Y197.004
G01 X204.367 Y198.924
G01 X201.683 Y200.989
G01 X199.093 Y203.195
G01 X196.603 Y205.537
G01 X194.221 Y208.012
G01 X191.954 Y210.613
G01 X189.809 Y213.337
G01 X187.791 Y216.176
G01 X185.908 Y219.126
G01 X184.166 Y222.179
G01 X182.569 Y225.329
G01 X181.123 Y228.569
G01 X179.834 Y231.892
G01 X178.706 Y235.289
G01 X177.743 Y238.755
G01 X176.949 Y242.279
G01 X176.327 Y245.854
G01 X175.881 Y249.471
G01 X175.614 Y253.123
G01 X175.527 Y256.799
G01 X175.623 Y260.491
G01 X175.902 Y264.191
G01 X176.365 Y267.887
G01 X177.014 Y271.573
G01 X177.848 Y275.237
G01 X178.867 Y278.872
G01 X180.069 Y282.467
G01 X181.453 Y286.013
G01 X183.017 Y289.501
G01 X184.760 Y292.922
G01 X186.677 Y296.267
G01 X188.766 Y299.527
G01 X191.023 Y302.692
G01 X193.444 Y305.755
G01 X196.024 Y308.707
G01 X198.757 Y311.539
G01 X201.640 Y314.244
G01 X204.664 Y316.814
G01 X207.825 Y319.240
G01 X211.115 Y321.517
G01 X214.527 Y323.637
G01 X218.054 Y325.594
G01 X221.688 Y327.382
G01 X225.421 Y328.994
G01 X229.244 Y330.425
G01 X233.148 Y331.671
G01 X237.125 Y332.727
G01 X241.165 Y333.588
G01 X245.259 Y334.252
G01 X249.396 Y334.714
G01 X253.567 Y334.972
G01 X257.762 Y335.025
G01 X261.971 Y334.869
G01 X266.184 Y334.505
G01 X270.389 Y333.931
G01 X274.576 Y333.147
G01 X278.736 Y332.153
G01 X282.857 Y330.951
G01 X286.929 Y329.542
G01 X290.941 Y327.927
G01 X294.884 Y326.109
G01 X298.746 Y324.092
G01 X302.518 Y321.878
G01 X306.190 Y319.472
G01 X309.752 Y316.878
G01 X313.194 Y314.102
G01 X316.507 Y311.148
G01 X319.681 Y308.023
G01 X322.709 Y304.733
G01 X325.581 Y301.285
G01 X328.289 Y297.687
G01 X330.826 Y293.946
G01 X333.183 Y290.071
G01 X335.354 Y286.070
G01 X337.332 Y281.952
G01 X339.111 Y277.727
G01 X340.685 Y273.404
G01 X342.048 Y268.993
G01 X343.196 Y264.504
G01 X344.125 Y259.949
G01 X344.830 Y255.337
G01 X345.309 Y250.680
G01 X345.558 Y245.988
G01 X345.576 Y241.274
G01 X345.361 Y236.549
G01 X344.911 Y231.824
G01 X344.227 Y227.110
G01 X343.308 Y222.420
G01 X342.154 Y217.766
G01 X340.769 Y213.158
G01 X339.152 Y208.610
G01 X337.307 Y204.131
G01 X335.236 Y199.734
G01 X332.944 Y195.430
G01 X330.433 Y191.231
G01 X327.710 Y187.147
G01 X324.779 Y183.189
G01 X321.647 Y179.368
G01 X318.319 Y175.693
G01 X314.802 Y172.176
G01 X311.105 Y168.826
G01 X307.234 Y165.651
G01 X303.199 Y162.662
G01 X299.007 Y159.866
G01 X294.669 Y157.271
G01 X290.194 Y154.886
G01 X285.593 Y152.718
G01 X280.875 Y150.772
G01 X276.051 Y149.056
G01 X271.134 Y147.575
G01 X266.134 Y146.334
G01 X264.818 Y146.051
G01 X250.353 Y247.525
G01 X250.227 Y247.551
G01 X250.105 Y247.584
G01 X249.987 Y247.622
G01 X249.872 Y247.666
G01 X249.762 Y247.716
G01 X249.656 Y247.771
G01 X249.556 Y247.830
G01 X249.460 Y247.894
G01 X249.369 Y247.962
G01 X249.284 Y248.033
G01 X249.204 Y248.108
G01 X249.130 Y248.186
G01 X249.061 Y248.267
G01 X248.998 Y248.350
G01 X248.941 Y248.435
G01 X248.890 Y248.521
G01 X248.845 Y248.609
G01 X248.806 Y248.697
G01 X248.772 Y248.786
G01 X248.744 Y248.875
G01 X248.722 Y248.963
G01 X248.706 Y249.051
G01 X248.695 Y249.139
G01 X248.689 Y249.224
G01 X248.689 Y249.309
G01 X248.693 Y249.391
G01 X248.702 Y249.471
G01 X248.717 Y249.549
G01 X248.735 Y249.624
G01 X248.758 Y249.696
G01 X248.784 Y249.765
G01 X248.814 Y249.831
G01 X248.848 Y249.893
G01 X248.885 Y249.952
G01 X248.924 Y250.006
G01 X248.967 Y250.057
G01 X249.011 Y250.103
G01 X249.058 Y250.145
G01 X249.106 Y250.183
G01 X249.155 Y250.217
G01 X249.206 Y250.246
G01 X249.257 Y250.271
G01 X249.309 Y250.291
G01 X249.361 Y250.307
G01 X249.412 Y250.318
G01 X249.463 Y250.326
G01 X249.514 Y250.329
G01 X249.563 Y250.328
G01 X249.611 Y250.323
G01 X249.657 Y250.314
G01 X249.702 Y250.302
G01 X249.744 Y250.286
G01 X249.784 Y250.266
G01 X249.821 Y250.244
G01 X249.856 Y250.218
G01 X249.888 Y250.190
G01 X249.916 Y250.159
G01 X249.941 Y250.126
G01 X249.963 Y250.091
G01 X249.981 Y250.055
G01 X249.995 Y250.017
G01 X250.000 Y250.000
G01 X249.928 Y250.322
G01 X249.889 Y250.650
G01 X249.881 Y250.982
G01 X249.906 Y251.315
G01 X249.963 Y251.648
G01 X250.053 Y251.977
G01 X250.175 Y252.301
G01 X250.328 Y252.617
G01 X250.513 Y252.922
G01 X250.729 Y253.215
G01 X250.975 Y253.493
G01 X251.249 Y253.754
G01 X251.551 Y253.995
G01 X251.879 Y254.216
G01 X251.914 Y254.236
G01 X252.364 Y254.616
G01 X252.856 Y254.961
G01 X253.387 Y255.267
G01 X253.954 Y255.532
G01 X254.555 Y255.753
G01 X255.186 Y255.927
G01 X255.844 Y256.052
G01 X256.526 Y256.127
G01 X257.229 Y256.147
G01 X257.948 Y256.113
G01 X258.680 Y256.022
G01 X259.421 Y255.874
G01 X260.168 Y255.666
G01 X260.916 Y255.399
G01 X261.661 Y255.071
G01 X262.399 Y254.683
G01 X263.126 Y254.234
G01 X263.837 Y253.725
G01 X264.529 Y253.156
G01 X265.197 Y252.527
G01 X265.836 Y251.840
G01 X266.444 Y251.097
G01 X267.016 Y250.298
G01 X267.548 Y249.446
G01 X268.036 Y248.542
G01 X268.476 Y247.589
G01 X268.864 Y246.590
G01 X269.198 Y245.547
G01 X269.474 Y244.463
G01 X269.688 Y243.342
G01 X269.838 Y242.187
G01 X269.921 Y241.002
G01 X269.934 Y239.790
G01 X269.876 Y238.556
G01 X269.742 Y237.303
G01 X269.533 Y236.037
G01 X269.246 Y234.762
G01 X268.880 Y233.481
G01 X268.434 Y232.201
G01 X267.906 Y230.926
G01 X267.297 Y229.661
G01 X266.606 Y228.410
G01 X265.834 Y227.180
G01 X264.979 Y225.974
G01 X264.044 Y224.798
G01 X263.029 Y223.657
G01 X261.935 Y222.556
G01 X260.764 Y221.500
G01 X259.518 Y220.495
G01 X258.199 Y219.544
G01 X256.808 Y218.653
G01 X255.350 Y217.826
G01 X253.827 Y217.068
G01 X252.243 Y216.383
G01 X250.600 Y215.776
G01 X248.903 Y215.250
G01 X247.156 Y214.810
G01 X245.363 Y214.458
G01 X243.529 Y214.199
G01 X241.658 Y214.036
G01 X239.757 Y213.971
G01 X237.829 Y214.008
G01 X235.880 Y214.148
G01 X233.917 Y214.394
G01 X231.944 Y214.747
G01 X229.968 Y215.210
G01 X227.994 Y215.782
G01 X226.028 Y216.466
G01 X224.078 Y217.260
G01 X222.149 Y218.167
G01 X220.247 Y219.185
G01 X218.378 Y220.314
G01 X216.550 Y221.553
G01 X214.768 Y222.901
G01 X213.039 Y224.355
G01 X211.369 Y225.915
G01 X209.764 Y227.578
G01 X208.230 Y229.341
G01 X206.773 Y231.201
G01 X205.400 Y233.155
G01 X204.115 Y235.198
G01 X202.925 Y237.328
G01 X201.834 Y239.539
G01 X200.848 Y241.826
G01 X199.972 Y244.186
G01 X199.211 Y246.612
G01 X198.568 Y249.099
G01 X198.048 Y251.640
G01 X197.655 Y254.231
G01 X197.392 Y256.864
G01 X197.263 Y259.533
G01 X197.270 Y262.230
G01 X197.417 Y264.950
G01 X197.704 Y267.684
G01 X198.134 Y270.426
G01 X198.709 Y273.168
G01 X199.429 Y275.902
G01 X200.295 Y278.620
G01 X201.306 Y281.316
G01 X202.464 Y283.980
G01 X203.767 Y286.606
G01 X205.214 Y289.184
G01 X206.804 Y291.708
G01 X208.534 Y294.169
G01 X210.403 Y296.561
G01 X212.408 Y298.874
G01 X214.544 Y301.101
G01 X216.810 Y303.236
G01 X219.200 Y305.270
G01 X221.711 Y307.197
G01 X224.337 Y309.009
G01 X227.073 Y310.701
G01 X229.914 Y312.264
G01 X232.854 Y313.694
G01 X235.886 Y314.984
G01 X239.003 Y316.129
G01 X242.199 Y317.123
G01 X245.466 Y317.962
G01 X248.797 Y318.640
G01 X252.183 Y319.154
G01 X255.617 Y319.500
G01 X259.090 Y319.674
G01 X262.594 Y319.673
G01 X266.119 Y319.495
G01 X269.657 Y319.138
G01 X273.198 Y318.600
G01 X276.733 Y317.879
G01 X280.253 Y316.976
G01 X283.748 Y315.889
G01 X287.208 Y314.620
G01 X290.625 Y313.169
G01 X293.989 Y311.537
G01 X297.289 Y309.726
G01 X300.517 Y307.739
G01 X303.663 Y305.577
G01 X306.717 Y303.245
G01 X309.671 Y300.747
G01 X312.516 Y298.086
G01 X315.242 Y295.267
G01 X317.841 Y292.295
G01 X320.304 Y289.178
G01 X322.624 Y285.919
G01 X324.792 Y282.527
G01 X326.801 Y279.008
G01 X328.644 Y275.370
G01 X330.313 Y271.620
G01 X331.803 Y267.767
G01 X333.107 Y263.820
G01 X334.219 Y259.788
G01 X335.135 Y255.679
G01 X335.848 Y251.505
G01 X336.356 Y247.273
G01 X336.655 Y242.996
G01 X336.740 Y238.683
G01 X336.609 Y234.345
G01 X336.261 Y229.992
G01 X335.693 Y225.637
G01 X334.903 Y221.289
G01 X333.893 Y216.961
G01 X332.661 Y212.663
G01 X331.208 Y208.406
G01 X329.535 Y204.203
G01 X327.645 Y200.065
G01 X325.538 Y196.003
G01 X323.220 Y192.027
G01 X320.692 Y188.150
G01 X317.959 Y184.383
G01 X315.025 Y180.735
G01 X311.897 Y177.218
G01 X308.579 Y173.842
G01 X305.078 Y170.618
G01 X301.401 Y167.554
G01 X297.555 Y164.662
G01 X293.549 Y161.949
G01 X289.391 Y159.425
G01 X285.089 Y157.098
G01 X280.653 Y154.977
G01 X276.094 Y153.068
G01 X271.420 Y151.378
G01 X266.643 Y149.916
G01 X261.775 Y148.685
G01 X256.825 Y147.693
G01 X251.806 Y146.943
G01 X246.730 Y146.441
G01 X241.610 Y146.190
G01 X236.456 Y146.194
G01 X233.437 Y146.315
G01 X249.606 Y247.531
G01 X249.495 Y247.603
G01 X249.391 Y247.679
G01 X249.293 Y247.759
G01 X249.201 Y247.843
G01 X249.116 Y247.931
G01 X249.037 Y248.022
G01 X248.966 Y248.116
G01 X248.901 Y248.211
G01 X248.842 Y248.309
G01 X248.791 Y248.407
G01 X248.747 Y248.507
G01 X248.709 Y248.607
G01 X248.678 Y248.707
G01 X248.653 Y248.807
G01 X248.635 Y248.905
G01 X248.624 Y249.003
G01 X248.619 Y249.099
G01 X248.619 Y249.193
G01 X248.626 Y249.285
G01 X248.638 Y249.374
G01 X248.655 Y249.460
G01 X248.678 Y249.543
G01 X248.705 Y249.623
G01 X248.737 Y249.698
G01 X248.773 Y249.770
G01 X248.812 Y249.837
G01 X248.856 Y249.900
G01 X248.902 Y249.958
G01 X248.951 Y250.012
G01 X249.003 Y250.060
G01 X249.057 Y250.103
G01 X249.113 Y250.142
G01 X249.170 Y250.175
G01 X249.228 Y250.203
G01 X249.286 Y250.225
G01 X249.345 Y250.243
G01 X249.404 Y250.255
G01 X249.462 Y250.262
G01 X249.519 Y250.264
G01 X249.576 Y250.261
G01 X249.630 Y250.253
G01 X249.683 Y250.241
G01 X249.733 Y250.224
G01 X249.781 Y250.203
G01 X249.827 Y250.177
G01 X249.869 Y250.148
G01 X249.908 Y250.115
G01 X249.943 Y250.079
G01 X249.974 Y250.040
G01 X250.000 Y250.000
G01 X249.931 Y250.132
G01 X249.875 Y250.270
G01 X249.833 Y250.414
G01 X249.804 Y250.562
G01 X249.790 Y250.714
G01 X249.791 Y250.868
G01 X249.806 Y251.024
G01 X249.836 Y251.180
G01 X249.880 Y251.335
G01 X249.940 Y251.488
G01 X250.014 Y251.638
G01 X250.103 Y251.784
G01 X250.207 Y251.924
G01 X250.324 Y252.059
G01 X250.455 Y252.186
G01 X250.475 Y252.204
G01 X250.717 Y252.682
G01 X251.007 Y253.140
G01 X251.343 Y253.575
G01 X251.724 Y253.983
G01 X252.148 Y254.362
G01 X252.613 Y254.707
G01 X253.116 Y255.016
G01 X253.655 Y255.286
G01 X254.227 Y255.514
G01 X254.829 Y255.698
G01 X255.460 Y255.835
G01 X256.114 Y255.923
G01 X256.789 Y255.960
G01 X257.482 Y255.944
G01 X258.188 Y255.874
G01 X258.905 Y255.748
G01 X259.627 Y255.565
G01 X260.353 Y255.324
G01 X261.076 Y255.026
G01 X261.794 Y254.668
G01 X262.503 Y254.251
G01 X263.198 Y253.776
G01 X263.875 Y253.243
G01 X264.531 Y252.652
G01 X265.160 Y252.004
G01 X265.760 Y251.300
G01 X266.326 Y250.543
G01 X266.855 Y249.733
G01 X267.342 Y248.872
G01 X267.783 Y247.964
G01 X268.177 Y247.009
G01 X268.518 Y246.011
G01 X268.804 Y244.972
G01 X269.031 Y243.896
G01 X269.197 Y242.786
G01 X269.298 Y241.646
G01 X269.333 Y240.479
G01 X269.298 Y239.288
G01 X269.192 Y238.079
G01 X269.013 Y236.855
G01 X268.759 Y235.621
G01 X268.429 Y234.381
G01 X268.021 Y233.139
G01 X267.535 Y231.900
G01 X266.970 Y230.670
G01 X266.325 Y229.452
G01 X265.601 Y228.252
G01 X264.798 Y227.075
G01 X263.917 Y225.925
G01 X262.957 Y224.807
G01 X261.921 Y223.727
G01 X260.809 Y222.688
G01 X259.624 Y221.697
G01 X258.367 Y220.758
G01 X257.041 Y219.874
G01 X255.648 Y219.052
G01 X254.191 Y218.295
G01 X252.673 Y217.608
G01 X251.098 Y216.995
G01 X249.469 Y216.459
G01 X247.790 Y216.005
G01 X246.065 Y215.637
G01 X244.299 Y215.357
G01 X242.496 Y215.168
G01 X240.661 Y215.075
G01 X238.799 Y215.078
G01 X236.916 Y215.182
G01 X235.016 Y215.387
G01 X233.105 Y215.696
G01 X231.189 Y216.110
G01 X229.274 Y216.631
G01 X227.365 Y217.259
G01 X225.469 Y217.996
G01 X223.591 Y218.840
G01 X221.737 Y219.793
G01 X219.914 Y220.853
G01 X218.129 Y222.020
G01 X216.386 Y223.293
G01 X214.692 Y224.671
G01 X213.054 Y226.151
G01 X211.476 Y227.732
G01 X209.966 Y229.410
G01 X208.529 Y231.184
G01 X207.171 Y233.050
G01 X205.897 Y235.004
G01 X204.713 Y237.042
G01 X203.624 Y239.161
G01 X202.635 Y241.356
G01 X201.751 Y243.622
G01 X200.976 Y245.955
G01 X200.316 Y248.348
G01 X199.773 Y250.796
G01 X199.352 Y253.293
G01 X199.057 Y255.834
G01 X198.890 Y258.411
G01 X198.854 Y261.019
G01 X198.953 Y263.650
G01 X199.187 Y266.297
G01 X199.560 Y268.954
G01 X200.072 Y271.614
G01 X200.725 Y274.268
G01 X201.519 Y276.910
G01 X202.455 Y279.531
G01 X203.532 Y282.125
G01 X204.751 Y284.684
G01 X206.109 Y287.199
G01 X207.606 Y289.665
G01 X209.241 Y292.071
G01 X211.010 Y294.413
G01 X212.912 Y296.681
G01 X214.943 Y298.868
G01 X217.101 Y300.967
G01 X219.380 Y302.972
G01 X221.778 Y304.874
G01 X224.289 Y306.668
G01 X226.908 Y308.346
G01 X229.631 Y309.903
G01 X232.451 Y311.331
G01 X235.363 Y312.626
G01 X238.360 Y313.782
G01 X241.436 Y314.793
G01 X244.582 Y315.655
G01 X247.793 Y316.363
G01 X251.060 Y316.913
G01 X254.376 Y317.301
G01 X257.732 Y317.523
G01 X261.121 Y317.577
G01 X264.533 Y317.460
G01 X267.961 Y317.169
G01 X271.394 Y316.704
G01 X274.825 Y316.062
G01 X278.243 Y315.243
G01 X281.641 Y314.246
G01 X285.009 Y313.072
G01 X288.336 Y311.721
G01 X291.615 Y310.195
G01 X294.836 Y308.494
G01 X297.989 Y306.622
G01 X301.066 Y304.580
G01 X304.057 Y302.371
G01 X306.954 Y300.000
G01 X309.747 Y297.469
G01 X312.428 Y294.784
G01 X314.988 Y291.950
G01 X317.420 Y288.972
G01 X319.715 Y285.855
G01 X321.865 Y282.607
G01 X323.863 Y279.233
G01 X325.702 Y275.741
G01 X327.376 Y272.139
G01 X328.877 Y268.435
G01 X330.199 Y264.636
G01 X331.338 Y260.751
G01 X332.287 Y256.790
G01 X333.042 Y252.762
G01 X333.599 Y248.675
G01 X333.954 Y244.541
G01 X334.103 Y240.369
G01 X334.044 Y236.169
G01 X333.774 Y231.952
G01 X333.291 Y227.729
G01 X332.595 Y223.509
G01 X331.683 Y219.305
G01 X330.558 Y215.127
G01 X329.217 Y210.986
G01 X327.663 Y206.892
G01 X325.898 Y202.858
G01 X323.922 Y198.895
G01 X321.739 Y195.012
G01 X319.353 Y191.221
G01 X316.766 Y187.532
G01 X313.983 Y183.957
G01 X311.009 Y180.505
G01 X307.850 Y177.187
G01 X304.512 Y174.012
G01 X301.001 Y170.991
G01 X297.323 Y168.132
G01 X293.488 Y165.445
G01 X289.502 Y162.938
G01 X285.374 Y160.619
G01 X281.114 Y158.498
G01 X276.730 Y156.580
G01 X272.233 Y154.873
G01 X267.632 Y153.384
G01 X262.938 Y152.118
G01 X258.163 Y151.081
G01 X253.316 Y150.278
G01 X248.411 Y149.714
G01 X243.458 Y149.393
G01 X238.470 Y149.317
G01 X233.459 Y149.489
G01 X228.438 Y149.912
G01 X223.418 Y150.587
G01 X218.412 Y151.514
G01 X213.435 Y152.695
G01 X208.497 Y154.128
G01 X203.612 Y155.812
G01 X203.535 Y155.840
G01 X248.894 Y247.758
G01 X248.810 Y247.859
G01 X248.733 Y247.963
G01 X248.663 Y248.069
G01 X248.600 Y248.177
G01 X248.545 Y248.286
G01 X248.497 Y248.396
G01 X248.457 Y248.507
G01 X248.423 Y248.618
G01 X248.397 Y248.728
G01 X248.377 Y248.838
G01 X248.364 Y248.946
G01 X248.358 Y249.053
G01 X248.358 Y249.157
G01 X248.365 Y249.260
G01 X248.377 Y249.359
G01 X248.396 Y249.456
G01 X248.419 Y249.549
G01 X248.448 Y249.639
G01 X248.482 Y249.724
G01 X248.520 Y249.806
G01 X248.563 Y249.883
G01 X248.609 Y249.955
G01 X248.659 Y250.022
G01 X248.712 Y250.085
G01 X248.767 Y250.142
G01 X248.826 Y250.194
G01 X248.886 Y250.241
G01 X248.948 Y250.282
G01 X249.011 Y250.318
G01 X249.075 Y250.349
G01 X249.139 Y250.374
G01 X249.204 Y250.393
G01 X249.268 Y250.407
G01 X249.331 Y250.416
G01 X249.394 Y250.420
G01 X249.455 Y250.418
G01 X249.515 Y250.412
G01 X249.572 Y250.401
G01 X249.628 Y250.385
G01 X249.680 Y250.365
G01 X249.730 Y250.341
G01 X249.776 Y250.313
G01 X249.819 Y250.281
G01 X249.858 Y250.246
G01 X249.893 Y250.208
G01 X249.925 Y250.167
G01 X249.951 Y250.123
G01 X249.974 Y250.078
G01 X249.991 Y250.031
G01 X250.000 Y250.000
G01 X249.934 Y250.330
G01 X249.900 Y250.665
G01 X249.900 Y251.004
G01 X249.932 Y251.343
G01 X249.998 Y251.681
G01 X250.096 Y252.015
G01 X250.227 Y252.342
G01 X250.391 Y252.661
G01 X250.586 Y252.969
G01 X250.812 Y253.262
G01 X251.069 Y253.540
G01 X251.354 Y253.801
G01 X251.667 Y254.040
G01 X252.007 Y254.258
G01 X252.362 Y254.447
G01 X252.837 Y254.760
G01 X253.347 Y255.037
G01 X253.890 Y255.274
G01 X254.465 Y255.469
G01 X255.067 Y255.619
G01 X255.693 Y255.722
G01 X256.341 Y255.777
G01 X257.007 Y255.781
G01 X257.688 Y255.733
G01 X258.381 Y255.631
G01 X259.080 Y255.474
G01 X259.784 Y255.262
G01 X260.487 Y254.993
G01 X261.187 Y254.667
G01 X261.878 Y254.284
G01 X262.558 Y253.845
G01 X263.222 Y253.348
G01 X263.867 Y252.795
G01 X264.488 Y252.187
G01 X265.081 Y251.524
G01 X265.643 Y250.809
G01 X266.170 Y250.041
G01 X266.658 Y249.224
G01 X267.104 Y248.360
G01 X267.504 Y247.449
G01 X267.854 Y246.496
G01 X268.152 Y245.502
G01 X268.394 Y244.471
G01 X268.578 Y243.406
G01 X268.700 Y242.310
G01 X268.758 Y241.187
G01 X268.750 Y240.039
G01 X268.674 Y238.872
G01 X268.527 Y237.689
G01 X268.308 Y236.494
G01 X268.015 Y235.292
G01 X267.648 Y234.087
G01 X267.204 Y232.883
G01 X266.685 Y231.686
G01 X266.088 Y230.499
G01 X265.414 Y229.327
G01 X264.664 Y228.175
G01 X263.836 Y227.049
G01 X262.933 Y225.952
G01 X261.955 Y224.889
G01 X260.904 Y223.866
G01 X259.780 Y222.886
G01 X258.586 Y221.955
G01 X257.324 Y221.077
G01 X255.996 Y220.256
G01 X254.604 Y219.497
G01 X253.153 Y218.804
G01 X251.645 Y218.182
G01 X250.083 Y217.633
G01 X248.471 Y217.162
G01 X246.813 Y216.773
G01 X245.114 Y216.469
G01 X243.377 Y216.252
G01 X241.607 Y216.127
G01 X239.809 Y216.094
G01 X237.989 Y216.158
G01 X236.150 Y216.320
G01 X234.299 Y216.582
G01 X232.441 Y216.946
G01 X230.581 Y217.413
G01 X228.725 Y217.983
G01 X226.879 Y218.658
G01 X225.049 Y219.439
G01 X223.241 Y220.324
G01 X221.460 Y221.314
G01 X219.713 Y222.408
G01 X218.005 Y223.605
G01 X216.342 Y224.904
G01 X214.731 Y226.304
G01 X213.178 Y227.801
G01 X211.687 Y229.395
G01 X210.265 Y231.082
G01 X208.918 Y232.860
G01 X207.650 Y234.725
G01 X206.468 Y236.673
G01 X205.375 Y238.701
G01 X204.379 Y240.804
G01 X203.482 Y242.978
G01 X202.690 Y245.218
G01 X202.007 Y247.519
G01 X201.437 Y249.876
G01 X200.983 Y252.282
G01 X200.651 Y254.733
G01 X200.441 Y257.222
G01 X200.359 Y259.742
G01 X200.405 Y262.288
G01 X200.583 Y264.853
G01 X200.895 Y267.429
G01 X201.341 Y270.010
G01 X201.923 Y272.588
G01 X202.642 Y275.158
G01 X203.499 Y277.710
G01 X204.493 Y280.239
G01 X205.624 Y282.736
G01 X206.892 Y285.194
G01 X208.295 Y287.605
G01 X209.832 Y289.963
G01 X211.500 Y292.260
G01 X213.298 Y294.489
G01 X215.223 Y296.642
G01 X217.271 Y298.713
G01 X219.439 Y300.693
G01 X221.724 Y302.578
G01 X224.120 Y304.359
G01 X226.624 Y306.030
G01 X229.229 Y307.586
G01 X231.932 Y309.020
G01 X234.725 Y310.326
G01 X237.604 Y311.499
G01 X240.561 Y312.533
G01 X243.589 Y313.425
G01 X246.683 Y314.168
G01 X249.834 Y314.760
G01 X253.036 Y315.196
G01 X256.279 Y315.472
G01 X259.557 Y315.586
G01 X262.862 Y315.535
G01 X266.183 Y315.316
G01 X269.515 Y314.928
G01 X272.846 Y314.369
G01 X276.170 Y313.639
G01 X279.476 Y312.736
G01 X282.756 Y311.661
G01 X286.001 Y310.414
G01 X289.203 Y308.997
G01 X292.351 Y307.409
G01 X295.437 Y305.654
G01 X298.452 Y303.734
G01 X301.387 Y301.650
G01 X304.234 Y299.408
G01 X306.983 Y297.009
G01 X309.627 Y294.459
G01 X312.157 Y291.762
G01 X314.564 Y288.923
G01 X316.842 Y285.948
G01 X318.983 Y282.842
G01 X320.978 Y279.613
G01 X322.822 Y276.266
G01 X324.507 Y272.810
G01 X326.027 Y269.250
G01 X327.376 Y265.597
G01 X328.549 Y261.857
G01 X329.539 Y258.039
G01 X330.344 Y254.153
G01 X330.957 Y250.207
G01 X331.375 Y246.211
G01 X331.595 Y242.174
G01 X331.613 Y238.107
G01 X331.428 Y234.019
G01 X331.037 Y229.921
G01 X330.439 Y225.823
G01 X329.633 Y221.736
G01 X328.618 Y217.670
G01 X327.395 Y213.637
G01 X325.965 Y209.645
G01 X324.328 Y205.707
G01 X322.487 Y201.834
G01 X320.443 Y198.034
G01 X318.201 Y194.320
G01 X315.762 Y190.702
G01 X313.132 Y187.190
G01 X310.315 Y183.793
G01 X307.316 Y180.523
G01 X304.141 Y177.389
G01 X300.795 Y174.399
G01 X297.285 Y171.565
G01 X293.619 Y168.893
G01 X289.805 Y166.394
G01 X285.849 Y164.074
G01 X281.762 Y161.942
G01 X277.551 Y160.006
G01 X273.226 Y158.272
G01 X268.797 Y156.747
G01 X264.274 Y155.436
G01 X259.668 Y154.346
G01 X254.989 Y153.481
G01 X250.248 Y152.847
G01 X245.457 Y152.446
G01 X240.628 Y152.283
G01 X235.771 Y152.359
G01 X230.900 Y152.678
G01 X226.026 Y153.241
G01 X221.161 Y154.050
G01 X216.319 Y155.103
G01 X211.511 Y156.402
G01 X206.749 Y157.945
G01 X202.047 Y159.731
G01 X197.416 Y161.758
G01 X192.870 Y164.023
G01 X188.419 Y166.523
G01 X184.077 Y169.253
G01 X179.856 Y172.209
G01 X177.785 Y173.777
G01 X248.281 Y248.185
G01 X248.238 Y248.315
G01 X248.205 Y248.444
G01 X248.179 Y248.572
G01 X248.162 Y248.699
G01 X248.153 Y248.824
G01 X248.151 Y248.947
G01 X248.157 Y249.067
G01 X248.170 Y249.184
G01 X248.190 Y249.297
G01 X248.217 Y249.406
G01 X248.249 Y249.511
G01 X248.288 Y249.611
G01 X248.332 Y249.706
G01 X248.381 Y249.796
G01 X248.435 Y249.881
G01 X248.493 Y249.959
G01 X248.555 Y250.032
G01 X248.620 Y250.098
G01 X248.688 Y250.159
G01 X248.759 Y250.212
G01 X248.831 Y250.259
G01 X248.905 Y250.300
G01 X248.980 Y250.334
G01 X249.056 Y250.362
G01 X249.131 Y250.382
G01 X249.207 Y250.397
G01 X249.281 Y250.405
G01 X249.354 Y250.407
G01 X249.426 Y250.402
G01 X249.495 Y250.392
G01 X249.562 Y250.376
G01 X249.626 Y250.354
G01 X249.687 Y250.327
G01 X249.744 Y250.295
G01 X249.797 Y250.259
G01 X249.846 Y250.218
G01 X249.890 Y250.173
G01 X249.929 Y250.124
G01 X249.964 Y250.072
G01 X249.992 Y250.017
G01 X250.000 Y250.000
G01 X249.931 Y250.187
G01 X249.880 Y250.379
G01 X249.848 Y250.577
G01 X249.835 Y250.779
G01 X249.842 Y250.982
G01 X249.868 Y251.187
G01 X249.914 Y251.391
G01 X249.980 Y251.592
G01 X250.066 Y251.790
G01 X250.171 Y251.983
G01 X250.294 Y252.169
G01 X250.437 Y252.348
G01 X250.598 Y252.517
G01 X250.751 Y252.655
G01 X251.037 Y253.081
G01 X251.366 Y253.484
G01 X251.737 Y253.861
G01 X252.148 Y254.210
G01 X252.597 Y254.526
G01 X253.081 Y254.807
G01 X253.598 Y255.050
G01 X254.146 Y255.253
G01 X254.722 Y255.414
G01 X255.323 Y255.530
G01 X255.946 Y255.599
G01 X256.588 Y255.620
G01 X257.245 Y255.590
G01 X257.914 Y255.509
G01 X258.592 Y255.375
G01 X259.274 Y255.186
G01 X259.958 Y254.944
G01 X260.639 Y254.646
G01 X261.314 Y254.293
G01 X261.978 Y253.884
G01 X262.629 Y253.420
G01 X263.262 Y252.902
G01 X263.873 Y252.329
G01 X264.459 Y251.703
G01 X265.016 Y251.025
G01 X265.540 Y250.296
G01 X266.027 Y249.518
G01 X266.474 Y248.694
G01 X266.878 Y247.824
G01 X267.235 Y246.912
G01 X267.541 Y245.959
G01 X267.795 Y244.970
G01 X267.993 Y243.946
G01 X268.132 Y242.891
G01 X268.210 Y241.808
G01 X268.224 Y240.701
G01 X268.172 Y239.573
G01 X268.052 Y238.429
G01 X267.863 Y237.272
G01 X267.603 Y236.106
G01 X267.271 Y234.936
G01 X266.865 Y233.765
G01 X266.385 Y232.600
G01 X265.831 Y231.442
G01 X265.201 Y230.299
G01 X264.497 Y229.173
G01 X263.718 Y228.070
G01 X262.866 Y226.994
G01 X261.940 Y225.950
G01 X260.942 Y224.943
G01 X259.874 Y223.976
G01 X258.737 Y223.055
G01 X257.533 Y222.185
G01 X256.264 Y221.368
G01 X254.933 Y220.610
G01 X253.543 Y219.916
G01 X252.096 Y219.287
G01 X250.595 Y218.730
G01 X249.046 Y218.247
G01 X247.450 Y217.842
G01 X245.812 Y217.518
G01 X244.137 Y217.279
G01 X242.428 Y217.127
G01 X240.690 Y217.065
G01 X238.929 Y217.095
G01 X237.148 Y217.221
G01 X235.353 Y217.442
G01 X233.550 Y217.762
G01 X231.743 Y218.182
G01 X229.939 Y218.702
G01 X228.142 Y219.324
G01 X226.358 Y220.047
G01 X224.594 Y220.873
G01 X222.854 Y221.800
G01 X221.145 Y222.829
G01 X219.473 Y223.959
G01 X217.843 Y225.188
G01 X216.260 Y226.515
G01 X214.732 Y227.938
G01 X213.262 Y229.455
G01 X211.858 Y231.064
G01 X210.524 Y232.761
G01 X209.266 Y234.544
G01 X208.089 Y236.410
G01 X206.999 Y238.354
G01 X205.999 Y240.373
G01 X205.094 Y242.463
G01 X204.290 Y244.618
G01 X203.591 Y246.833
G01 X203.000 Y249.105
G01 X202.521 Y251.427
G01 X202.158 Y253.794
G01 X201.914 Y256.200
G01 X201.792 Y258.638
G01 X201.795 Y261.104
G01 X201.925 Y263.589
G01 X202.184 Y266.089
G01 X202.573 Y268.595
G01 X203.094 Y271.102
G01 X203.748 Y273.601
G01 X204.536 Y276.087
G01 X205.456 Y278.552
G01 X206.511 Y280.988
G01 X207.698 Y283.389
G01 X209.016 Y285.748
G01 X210.466 Y288.057
G01 X212.044 Y290.309
G01 X213.748 Y292.497
G01 X215.577 Y294.614
G01 X217.526 Y296.653
G01 X219.594 Y298.607
G01 X221.775 Y300.469
G01 X224.067 Y302.234
G01 X226.465 Y303.894
G01 X228.963 Y305.443
G01 X231.557 Y306.877
G01 X234.242 Y308.188
G01 X237.011 Y309.371
G01 X239.858 Y310.422
G01 X242.778 Y311.335
G01 X245.762 Y312.106
G01 X248.806 Y312.731
G01 X251.900 Y313.205
G01 X255.038 Y313.526
G01 X258.212 Y313.690
G01 X261.414 Y313.694
G01 X264.635 Y313.536
G01 X267.869 Y313.215
G01 X271.106 Y312.728
G01 X274.338 Y312.074
G01 X277.556 Y311.254
G01 X280.752 Y310.266
G01 X283.917 Y309.111
G01 X287.042 Y307.789
G01 X290.118 Y306.303
G01 X293.137 Y304.652
G01 X296.090 Y302.840
G01 X298.968 Y300.869
G01 X301.763 Y298.742
G01 X304.467 Y296.463
G01 X307.070 Y294.035
G01 X309.566 Y291.462
G01 X311.945 Y288.750
G01 X314.201 Y285.904
G01 X316.326 Y282.929
G01 X318.312 Y279.832
G01 X320.153 Y276.618
G01 X321.843 Y273.296
G01 X323.374 Y269.871
G01 X324.741 Y266.352
G01 X325.938 Y262.746
G01 X326.960 Y259.062
G01 X327.803 Y255.309
G01 X328.461 Y251.494
G01 X328.931 Y247.628
G01 X329.210 Y243.719
G01 X329.294 Y239.777
G01 X329.181 Y235.811
G01 X328.868 Y231.833
G01 X328.355 Y227.851
G01 X327.640 Y223.876
G01 X326.722 Y219.919
G01 X325.602 Y215.989
G01 X324.280 Y212.097
G01 X322.757 Y208.253
G01 X321.035 Y204.468
G01 X319.116 Y200.752
G01 X317.002 Y197.115
G01 X314.697 Y193.568
G01 X312.204 Y190.121
G01 X309.528 Y186.783
G01 X306.673 Y183.564
G01 X303.646 Y180.474
G01 X300.450 Y177.522
G01 X297.094 Y174.717
G01 X293.583 Y172.067
G01 X289.926 Y169.582
G01 X286.128 Y167.270
G01 X282.200 Y165.137
G01 X278.149 Y163.191
G01 X273.984 Y161.440
G01 X269.714 Y159.890
G01 X265.351 Y158.546
G01 X260.902 Y157.415
G01 X256.380 Y156.501
G01 X251.793 Y155.809
G01 X247.155 Y155.343
G01 X242.475 Y155.106
G01 X237.765 Y155.102
G01 X233.036 Y155.333
G01 X228.301 Y155.800
G01 X223.572 Y156.505
G01 X218.859 Y157.449
G01 X214.176 Y158.630
G01 X209.534 Y160.050
G01 X204.946 Y161.706
G01 X200.423 Y163.597
G01 X195.978 Y165.719
G01 X191.622 Y168.071
G01 X187.368 Y170.648
G01 X183.226 Y173.447
G01 X179.209 Y176.461
G01 X175.328 Y179.686
G01 X171.594 Y183.116
G01 X168.017 Y186.743
G01 X164.609 Y190.561
G01 X161.378 Y194.562
G01 X158.485 Y198.523
G01 X247.821 Y248.774
G01 X247.822 Y248.912
G01 X247.832 Y249.047
G01 X247.849 Y249.178
G01 X247.873 Y249.305
G01 X247.905 Y249.427
G01 X247.943 Y249.545
G01 X247.988 Y249.657
G01 X248.039 Y249.764
G01 X248.095 Y249.865
G01 X248.157 Y249.960
G01 X248.222 Y250.049
G01 X248.292 Y250.131
G01 X248.366 Y250.207
G01 X248.443 Y250.275
G01 X248.522 Y250.337
G01 X248.604 Y250.391
G01 X248.687 Y250.438
G01 X248.771 Y250.478
G01 X248.856 Y250.511
G01 X248.941 Y250.537
G01 X249.025 Y250.556
G01 X249.109 Y250.568
G01 X249.192 Y250.573
G01 X249.272 Y250.571
G01 X249.351 Y250.563
G01 X249.427 Y250.549
G01 X249.499 Y250.529
G01 X249.569 Y250.503
G01 X249.634 Y250.472
G01 X249.695 Y250.435
G01 X249.752 Y250.394
G01 X249.804 Y250.349
G01 X249.850 Y250.299
G01 X249.892 Y250.246
G01 X249.927 Y250.190
G01 X249.957 Y250.131
G01 X249.981 Y250.070
G01 X249.999 Y250.006
G01 X250.000 Y250.000
G01 X249.943 Y250.342
G01 X249.921 Y250.689
G01 X249.932 Y251.038
G01 X249.977 Y251.387
G01 X250.056 Y251.733
G01 X250.170 Y252.074
G01 X250.316 Y252.407
G01 X250.496 Y252.730
G01 X250.708 Y253.040
G01 X250.952 Y253.335
G01 X251.225 Y253.613
G01 X251.529 Y253.871
G01 X251.860 Y254.107
G01 X252.217 Y254.319
G01 X252.600 Y254.506
G01 X252.926 Y254.636
G01 X253.425 Y254.878
G01 X253.954 Y255.082
G01 X254.510 Y255.244
G01 X255.091 Y255.363
G01 X255.694 Y255.437
G01 X256.315 Y255.464
G01 X256.952 Y255.442
G01 X257.601 Y255.370
G01 X258.259 Y255.247
G01 X258.922 Y255.071
G01 X259.586 Y254.843
G01 X260.249 Y254.561
G01 X260.906 Y254.225
G01 X261.554 Y253.836
G01 X262.189 Y253.392
G01 X262.807 Y252.896
G01 X263.404 Y252.346
G01 X263.978 Y251.745
G01 X264.523 Y251.093
G01 X265.037 Y250.391
G01 X265.516 Y249.642
G01 X265.956 Y248.847
G01 X266.355 Y248.007
G01 X266.709 Y247.126
G01 X267.014 Y246.206
G01 X267.268 Y245.249
G01 X267.468 Y244.258
G01 X267.612 Y243.236
G01 X267.696 Y242.187
G01 X267.719 Y241.114
G01 X267.677 Y240.020
G01 X267.571 Y238.910
G01 X267.396 Y237.786
G01 X267.153 Y236.654
G01 X266.840 Y235.517
G01 X266.456 Y234.379
G01 X266.000 Y233.244
G01 X265.471 Y232.118
G01 X264.870 Y231.004
G01 X264.195 Y229.907
G01 X263.449 Y228.831
G01 X262.630 Y227.781
G01 X261.740 Y226.761
G01 X260.780 Y225.777
G01 X259.751 Y224.831
G01 X258.655 Y223.929
G01 X257.494 Y223.076
G01 X256.269 Y222.274
G01 X254.983 Y221.529
G01 X253.639 Y220.845
G01 X252.240 Y220.225
G01 X250.789 Y219.673
G01 X249.289 Y219.193
G01 X247.744 Y218.788
G01 X246.157 Y218.462
G01 X244.533 Y218.217
G01 X242.876 Y218.057
G01 X241.191 Y217.984
G01 X239.481 Y218.001
G01 X237.752 Y218.110
G01 X236.009 Y218.312
G01 X234.257 Y218.609
G01 X232.501 Y219.003
G01 X230.746 Y219.495
G01 X228.997 Y220.085
G01 X227.261 Y220.775
G01 X225.543 Y221.563
G01 X223.848 Y222.451
G01 X222.182 Y223.437
G01 X220.551 Y224.521
G01 X218.960 Y225.702
G01 X217.414 Y226.979
G01 X215.921 Y228.349
G01 X214.484 Y229.811
G01 X213.109 Y231.363
G01 X211.803 Y233.001
G01 X210.569 Y234.723
G01 X209.413 Y236.526
G01 X208.340 Y238.405
G01 X207.355 Y240.358
G01 X206.463 Y242.380
G01 X205.667 Y244.466
G01 X204.972 Y246.612
G01 X204.382 Y248.813
G01 X203.901 Y251.064
G01 X203.532 Y253.359
G01 X203.279 Y255.693
G01 X203.143 Y258.060
G01 X203.128 Y260.453
G01 X203.237 Y262.867
G01 X203.471 Y265.295
G01 X203.831 Y267.731
G01 X204.319 Y270.169
G01 X204.937 Y272.600
G01 X205.684 Y275.019
G01 X206.561 Y277.418
G01 X207.567 Y279.791
G01 X208.703 Y282.131
G01 X209.967 Y284.431
G01 X211.358 Y286.682
G01 X212.874 Y288.880
G01 X214.514 Y291.016
G01 X216.274 Y293.085
G01 X218.153 Y295.078
G01 X220.147 Y296.990
G01 X222.253 Y298.813
G01 X224.466 Y300.543
G01 X226.782 Y302.172
G01 X229.197 Y303.694
G01 X231.706 Y305.103
G01 X234.304 Y306.395
G01 X236.985 Y307.564
G01 X239.743 Y308.604
G01 X242.571 Y309.511
G01 X245.464 Y310.280
G01 X248.415 Y310.908
G01 X251.417 Y311.390
G01 X254.462 Y311.723
G01 X257.543 Y311.905
G01 X260.652 Y311.931
G01 X263.782 Y311.800
G01 X266.925 Y311.510
G01 X270.072 Y311.060
G01 X273.215 Y310.448
G01 X276.346 Y309.673
G01 X279.457 Y308.736
G01 X282.538 Y307.636
G01 X285.582 Y306.374
G01 X288.580 Y304.951
G01 X291.524 Y303.369
G01 X294.404 Y301.630
G01 X297.213 Y299.736
G01 X299.942 Y297.689
G01 X302.584 Y295.494
G01 X305.129 Y293.154
G01 X307.570 Y290.672
G01 X309.900 Y288.055
G01 X312.111 Y285.306
G01 X314.195 Y282.431
G01 X316.146 Y279.437
G01 X317.956 Y276.328
G01 X319.620 Y273.113
G01 X321.130 Y269.797
G01 X322.482 Y266.388
G01 X323.670 Y262.895
G01 X324.688 Y259.323
G01 X325.532 Y255.683
G01 X326.198 Y251.983
G01 X326.681 Y248.230
G01 X326.979 Y244.435
G01 X327.088 Y240.607
G01 X327.005 Y236.755
G01 X326.729 Y232.888
G01 X326.258 Y229.017
G01 X325.590 Y225.151
G01 X324.726 Y221.301
G01 X323.665 Y217.476
G01 X322.408 Y213.686
G01 X320.955 Y209.942
G01 X319.308 Y206.254
G01 X317.469 Y202.631
G01 X315.441 Y199.084
G01 X313.226 Y195.622
G01 X310.829 Y192.256
G01 X308.252 Y188.996
G01 X305.501 Y185.849
G01 X302.581 Y182.827
G01 X299.498 Y179.937
G01 X296.257 Y177.190
G01 X292.865 Y174.592
G01 X289.328 Y172.153
G01 X285.656 Y169.880
G01 X281.854 Y167.781
G01 X277.932 Y165.864
G01 X273.898 Y164.134
G01 X269.762 Y162.599
G01 X265.532 Y161.264
G01 X261.218 Y160.134
G01 X256.831 Y159.215
G01 X252.380 Y158.512
G01 X247.877 Y158.027
G01 X243.333 Y157.765
G01 X238.757 Y157.729
G01 X234.162 Y157.921
G01 X229.559 Y158.342
G01 X224.959 Y158.995
G01 X220.375 Y159.879
G01 X215.817 Y160.995
G01 X211.298 Y162.342
G01 X206.829 Y163.920
G01 X202.423 Y165.725
G01 X198.090 Y167.757
G01 X193.842 Y170.012
G01 X189.691 Y172.487
G01 X185.649 Y175.177
G01 X181.726 Y178.078
G01 X177.933 Y181.185
G01 X174.282 Y184.491
G01 X170.783 Y187.991
G01 X167.445 Y191.676
G01 X164.279 Y195.541
G01 X161.295 Y199.577
G01 X158.501 Y203.774
G01 X155.906 Y208.125
G01 X153.519 Y212.620
G01 X151.348 Y217.249
G01 X149.399 Y222.001
G01 X147.680 Y226.865
G01 X147.359 Y227.866
G01 X247.556 Y249.473
G01 X247.612 Y249.361
G01 X247.672 Y249.253
G01 X247.737 Y249.149
G01 X247.807 Y249.050
G01 X247.881 Y248.956
G01 X247.959 Y248.867
G01 X248.040 Y248.782
G01 X248.125 Y248.703
G01 X248.213 Y248.630
G01 X248.303 Y248.561
G01 X248.396 Y248.499
G01 X248.491 Y248.442
G01 X248.587 Y248.390
G01 X248.685 Y248.344
G01 X248.784 Y248.304
G01 X248.884 Y248.270
G01 X248.984 Y248.241
G01 X249.084 Y248.218
G01 X249.184 Y248.200
G01 X249.283 Y248.188
G01 X249.382 Y248.181
G01 X249.479 Y248.179
G01 X249.576 Y248.183
G01 X249.670 Y248.191
G01 X249.763 Y248.204
G01 X249.854 Y248.222
G01 X249.942 Y248.245
G01 X250.028 Y248.272
G01 X250.111 Y248.303
G01 X250.191 Y248.337
G01 X250.268 Y248.376
G01 X250.341 Y248.418
G01 X250.411 Y248.463
G01 X250.478 Y248.512
G01 X250.540 Y248.563
G01 X250.599 Y248.616
G01 X250.654 Y248.672
G01 X250.705 Y248.730
G01 X250.752 Y248.789
G01 X250.795 Y248.850
G01 X250.834 Y248.913
G01 X250.868 Y248.976
G01 X250.899 Y249.040
G01 X250.925 Y249.104
G01 X250.947 Y249.169
G01 X250.965 Y249.233
G01 X250.979 Y249.298
G01 X250.989 Y249.362
G01 X250.996 Y249.425
G01 X250.998 Y249.487
G01 X250.997 Y249.548
G01 X250.993 Y249.607
G01 X250.985 Y249.665
G01 X250.973 Y249.722
G01 X250.959 Y249.776
G01 X250.942 Y249.828
G01 X250.922 Y249.878
G01 X250.899 Y249.926
G01 X250.874 Y249.971
G01 X250.847 Y250.014
G01 X250.818 Y250.053
G01 X250.787 Y250.090
G01 X250.754 Y250.124
G01 X250.720 Y250.155
G01 X250.685 Y250.183
G01 X250.649 Y250.208
G01 X250.612 Y250.230
G01 X250.575 Y250.249
G01 X250.537 Y250.265
G01 X250.500 Y250.277
G01 X250.462 Y250.287
G01 X250.425 Y250.294
G01 X250.388 Y250.297
G01 X250.352 Y250.298
G01 X250.317 Y250.296
G01 X250.283 Y250.292
G01 X250.250 Y250.285
G01 X250.218 Y250.275
G01 X250.189 Y250.263
G01 X250.160 Y250.249
G01 X250.134 Y250.232
G01 X250.110 Y250.214
G01 X250.088 Y250.194
G01 X250.068 Y250.173
G01 X250.051 Y250.150
G01 X250.036 Y250.126
G01 X250.023 Y250.100
G01 X250.014 Y250.074
G01 X250.006 Y250.048
G01 X250.002 Y250.020
G01 X250.000 Y250.000
G01 X250.045 Y250.469
G01 X250.135 Y250.932
G01 X250.271 Y251.387
G01 X250.452 Y251.829
G01 X250.676 Y252.256
G01 X250.943 Y252.665
G01 X251.252 Y253.051
G01 X251.600 Y253.412
G01 X251.986 Y253.746
G01 X252.408 Y254.049
G01 X252.865 Y254.318
G01 X253.352 Y254.552
G01 X253.869 Y254.747
G01 X254.413 Y254.902
G01 X254.980 Y255.013
G01 X255.568 Y255.081
G01 X256.174 Y255.101
G01 X256.794 Y255.074
G01 X257.426 Y254.998
G01 X258.065 Y254.871
G01 X258.709 Y254.693
G01 X259.354 Y254.463
G01 X259.997 Y254.180
G01 X260.633 Y253.845
G01 X261.259 Y253.456
G01 X261.871 Y253.016
G01 X262.467 Y252.523
G01 X263.041 Y251.979
G01 X263.592 Y251.384
G01 X264.114 Y250.741
G01 X264.604 Y250.049
G01 X265.059 Y249.311
G01 X265.476 Y248.528
G01 X265.852 Y247.703
G01 X266.182 Y246.837
G01 X266.465 Y245.934
G01 X266.697 Y244.996
G01 X266.875 Y244.025
G01 X266.998 Y243.026
G01 X267.062 Y242.000
G01 X267.065 Y240.952
G01 X267.005 Y239.885
G01 X266.881 Y238.802
G01 X266.690 Y237.708
G01 X266.432 Y236.606
G01 X266.105 Y235.501
G01 X265.709 Y234.396
G01 X265.242 Y233.296
G01 X264.704 Y232.205
G01 X264.095 Y231.127
G01 X263.415 Y230.068
G01 X262.664 Y229.030
G01 X261.843 Y228.019
G01 X260.953 Y227.040
G01 X259.995 Y226.095
G01 X258.971 Y225.190
G01 X257.881 Y224.330
G01 X256.728 Y223.517
G01 X255.514 Y222.757
G01 X254.241 Y222.054
G01 X252.912 Y221.411
G01 X251.531 Y220.832
G01 X250.099 Y220.321
G01 X248.621 Y219.881
G01 X247.100 Y219.516
G01 X245.541 Y219.229
G01 X243.946 Y219.022
G01 X242.320 Y218.899
G01 X240.668 Y218.863
G01 X238.994 Y218.914
G01 X237.303 Y219.055
G01 X236.306 Y219.181
G01 X234.600 Y219.475
G01 X232.892 Y219.863
G01 X231.184 Y220.346
G01 X229.484 Y220.925
G01 X227.795 Y221.601
G01 X226.125 Y222.372
G01 X224.477 Y223.241
G01 X222.857 Y224.205
G01 X221.272 Y225.264
G01 X219.726 Y226.418
G01 X218.225 Y227.664
G01 X216.774 Y229.002
G01 X215.379 Y230.429
G01 X214.045 Y231.942
G01 X212.777 Y233.540
G01 X211.580 Y235.220
G01 X210.459 Y236.977
G01 X209.420 Y238.809
G01 X208.466 Y240.713
G01 X207.602 Y242.683
G01 X206.832 Y244.715
G01 X206.161 Y246.806
G01 X205.592 Y248.950
G01 X205.129 Y251.142
G01 X204.775 Y253.377
G01 X204.534 Y255.649
G01 X204.408 Y257.953
G01 X204.400 Y260.283
G01 X204.511 Y262.633
G01 X204.744 Y264.996
G01 X205.101 Y267.366
G01 X205.582 Y269.737
G01 X206.189 Y272.102
G01 X206.922 Y274.455
G01 X207.781 Y276.789
G01 X208.766 Y279.096
G01 X209.877 Y281.371
G01 X211.113 Y283.606
G01 X212.472 Y285.794
G01 X213.953 Y287.930
G01 X215.554 Y290.005
G01 X217.273 Y292.014
G01 X219.107 Y293.950
G01 X221.052 Y295.806
G01 X223.106 Y297.576
G01 X225.264 Y299.254
G01 X227.522 Y300.833
G01 X229.877 Y302.309
G01 X232.322 Y303.675
G01 X234.853 Y304.926
G01 X237.465 Y306.057
G01 X240.152 Y307.063
G01 X242.907 Y307.939
G01 X245.725 Y308.681
G01 X248.598 Y309.285
G01 X251.521 Y309.747
G01 X254.485 Y310.065
G01 X257.484 Y310.234
G01 X260.511 Y310.252
G01 X263.557 Y310.117
G01 X266.615 Y309.828
G01 X269.677 Y309.382
G01 X272.735 Y308.779
G01 X275.780 Y308.017
G01 X278.805 Y307.098
G01 X281.802 Y306.020
G01 X284.761 Y304.785
G01 X287.676 Y303.393
G01 X290.537 Y301.846
G01 X293.336 Y300.147
G01 X296.065 Y298.296
G01 X298.717 Y296.298
G01 X301.282 Y294.155
G01 X303.754 Y291.872
G01 X306.124 Y289.451
G01 X308.386 Y286.898
G01 X310.531 Y284.218
G01 X312.552 Y281.415
G01 X314.444 Y278.496
G01 X316.198 Y275.467
G01 X317.810 Y272.333
G01 X319.272 Y269.103
G01 X320.580 Y265.782
