;  Created by Sandify
;  https://sandify.org
;  Version: 0.2.6
;
;  Machine type: Rectangular
;    Min X (mm): 0
;    Max X (mm): 500
;    Min Y (mm): 0
;    Max Y (mm): 500
;  Content type: shape
;  Layer:
;    Shape: FileImport
;    Name: WiltonWindmill 5-22-2010.thr
;    From file:: WiltonWindmill 5-22-2010.thr
;    Aspect Ratio: true
;    Comments: 
;    Visible: true
;    Initial width: 10
;    Initial height: 10
;    X offset: 0
;    Y offset: 0
;    Rotate (degrees): 0
;    Reverse path: false
;    Fine tuning:
;      Connect to next layer: line
;      Draw portion of path (%): 100
;      Backtrack at end (%): 0
;      Rotate starting point (%): 0
;  Reverse export path: false
;
; File name: 'WiltonWindmill (C C)'
; File type: gcode
;

G01 X250.000 Y250.000
G01 X250.000 Y322.925
G01 X246.422 Y322.837
G01 X242.852 Y322.574
G01 X239.300 Y322.136
G01 X238.778 Y322.056
G01 X242.327 Y322.520
G01 X245.895 Y322.809
G01 X249.472 Y322.923
G01 X250.000 Y322.925
G01 X250.000 Y364.575
G01 X244.378 Y364.437
G01 X238.770 Y364.023
G01 X233.188 Y363.335
G01 X227.957 Y362.435
G01 X233.500 Y363.381
G01 X239.083 Y364.054
G01 X244.693 Y364.452
G01 X250.000 Y364.575
G01 X250.000 Y406.250
G01 X242.333 Y406.062
G01 X234.685 Y405.498
G01 X227.073 Y404.559
G01 X219.517 Y403.248
G01 X217.153 Y402.758
G01 X224.688 Y404.186
G01 X232.284 Y405.242
G01 X239.923 Y405.925
G01 X247.586 Y406.231
G01 X250.000 Y406.250
G01 X250.000 Y427.075
G01 X241.311 Y426.862
G01 X232.644 Y426.222
G01 X224.018 Y425.158
G01 X215.454 Y423.673
G01 X211.755 Y422.895
G01 X220.284 Y424.564
G01 X228.885 Y425.812
G01 X237.538 Y426.636
G01 X246.220 Y427.035
G01 X250.000 Y427.075
G01 X250.000 Y487.500
G01 X261.654 Y487.214
G01 X273.279 Y486.356
G01 X284.848 Y484.929
G01 X296.334 Y482.937
G01 X307.708 Y480.382
G01 X318.943 Y477.273
G01 X330.011 Y473.617
G01 X340.887 Y469.421
G01 X351.544 Y464.697
G01 X361.957 Y459.456
G01 X372.099 Y453.711
G01 X381.948 Y447.474
G01 X391.479 Y440.762
G01 X400.668 Y433.590
G01 X409.495 Y425.976
G01 X417.938 Y417.938
G01 X425.976 Y409.495
G01 X433.590 Y400.668
G01 X440.762 Y391.479
G01 X447.474 Y381.948
G01 X453.711 Y372.099
G01 X459.456 Y361.957
G01 X464.697 Y351.544
G01 X469.421 Y340.887
G01 X473.617 Y330.011
G01 X477.273 Y318.943
G01 X480.382 Y307.708
G01 X482.937 Y296.334
G01 X484.929 Y284.848
G01 X486.356 Y273.279
G01 X487.214 Y261.654
G01 X487.500 Y250.000
G01 X487.214 Y238.346
G01 X486.356 Y226.721
G01 X484.929 Y215.152
G01 X482.937 Y203.666
G01 X480.382 Y192.292
G01 X477.273 Y181.057
G01 X473.617 Y169.989
G01 X469.421 Y159.113
G01 X464.697 Y148.456
G01 X459.456 Y138.043
G01 X453.711 Y127.901
G01 X447.474 Y118.052
G01 X440.762 Y108.521
G01 X433.590 Y99.332
G01 X425.976 Y90.505
G01 X417.938 Y82.062
G01 X409.495 Y74.024
G01 X400.668 Y66.410
G01 X391.479 Y59.238
G01 X381.948 Y52.526
G01 X372.099 Y46.289
G01 X361.957 Y40.544
G01 X351.544 Y35.303
G01 X340.887 Y30.579
G01 X330.011 Y26.383
G01 X318.943 Y22.727
G01 X307.708 Y19.618
G01 X296.334 Y17.063
G01 X284.848 Y15.071
G01 X273.279 Y13.644
G01 X261.654 Y12.786
G01 X250.000 Y12.500
G01 X238.346 Y12.786
G01 X226.721 Y13.644
G01 X215.152 Y15.071
G01 X203.666 Y17.063
G01 X192.292 Y19.618
G01 X181.057 Y22.727
G01 X169.989 Y26.383
G01 X159.113 Y30.579
G01 X148.456 Y35.303
G01 X138.043 Y40.544
G01 X127.901 Y46.289
G01 X118.052 Y52.526
G01 X108.521 Y59.238
G01 X99.332 Y66.410
G01 X90.505 Y74.024
G01 X82.062 Y82.062
G01 X74.024 Y90.505
G01 X66.410 Y99.332
G01 X59.238 Y108.521
G01 X52.526 Y118.052
G01 X46.289 Y127.901
G01 X40.544 Y138.043
G01 X35.303 Y148.456
G01 X30.579 Y159.113
G01 X26.383 Y169.989
G01 X22.727 Y181.057
G01 X19.618 Y192.292
G01 X17.063 Y203.666
G01 X15.071 Y215.152
G01 X13.644 Y226.721
G01 X12.786 Y238.346
G01 X12.500 Y250.000
G01 X12.786 Y261.654
G01 X13.644 Y273.279
G01 X15.071 Y284.848
G01 X17.063 Y296.334
G01 X19.618 Y307.708
G01 X22.727 Y318.943
G01 X26.383 Y330.011
G01 X30.579 Y340.887
G01 X35.303 Y351.544
G01 X40.544 Y361.957
G01 X46.289 Y372.099
G01 X52.526 Y381.948
G01 X59.238 Y391.479
G01 X66.410 Y400.668
G01 X74.024 Y409.495
G01 X82.062 Y417.938
G01 X90.505 Y425.976
G01 X99.332 Y433.590
G01 X108.521 Y440.762
G01 X118.052 Y447.474
G01 X127.901 Y453.711
G01 X138.043 Y459.456
G01 X148.456 Y464.697
G01 X159.113 Y469.421
G01 X169.989 Y473.617
G01 X181.057 Y477.273
G01 X192.292 Y480.382
G01 X203.666 Y482.937
G01 X215.152 Y484.929
G01 X226.721 Y486.356
G01 X238.346 Y487.214
G01 X250.000 Y487.500
G01 X250.003 Y487.500
G01 X250.004 Y500.000
G01 X237.737 Y499.699
G01 X225.499 Y498.797
G01 X213.321 Y497.295
G01 X201.231 Y495.197
G01 X189.259 Y492.509
G01 X177.432 Y489.236
G01 X165.781 Y485.387
G01 X154.333 Y480.971
G01 X143.115 Y475.999
G01 X132.154 Y470.482
G01 X121.477 Y464.434
G01 X111.110 Y457.869
G01 X101.078 Y450.804
G01 X91.405 Y443.255
G01 X82.113 Y435.240
G01 X73.226 Y426.779
G01 X64.765 Y417.892
G01 X56.750 Y408.601
G01 X49.200 Y398.928
G01 X42.135 Y388.896
G01 X35.570 Y378.529
G01 X29.521 Y367.852
G01 X24.004 Y356.892
G01 X19.032 Y345.674
G01 X14.615 Y334.226
G01 X10.766 Y322.575
G01 X7.493 Y310.749
G01 X4.804 Y298.776
G01 X2.706 Y286.686
G01 X1.204 Y274.508
G01 X0.301 Y262.271
G01 X0.000 Y250.004
G01 X0.301 Y237.737
G01 X1.203 Y225.499
G01 X2.705 Y213.321
G01 X4.803 Y201.231
G01 X7.491 Y189.259
G01 X10.764 Y177.432
G01 X14.613 Y165.781
G01 X19.029 Y154.333
G01 X24.001 Y143.115
G01 X29.518 Y132.154
G01 X35.566 Y121.477
G01 X42.131 Y111.110
G01 X49.196 Y101.078
G01 X56.745 Y91.405
G01 X64.760 Y82.113
G01 X73.221 Y73.226
G01 X82.108 Y64.765
G01 X91.399 Y56.750
G01 X101.072 Y49.200
G01 X111.104 Y42.135
G01 X121.471 Y35.570
G01 X132.148 Y29.521
G01 X143.108 Y24.004
G01 X154.326 Y19.032
G01 X165.774 Y14.615
G01 X177.425 Y10.766
G01 X189.251 Y7.493
G01 X201.224 Y4.804
G01 X213.314 Y2.706
G01 X225.492 Y1.204
G01 X237.729 Y0.301
G01 X249.996 Y0.000
G01 X262.263 Y0.301
G01 X274.501 Y1.203
G01 X286.679 Y2.705
G01 X298.769 Y4.803
G01 X310.741 Y7.491
G01 X322.568 Y10.764
G01 X334.219 Y14.613
G01 X345.667 Y19.029
G01 X356.885 Y24.001
G01 X367.846 Y29.518
G01 X378.523 Y35.566
G01 X388.890 Y42.131
G01 X398.922 Y49.196
G01 X408.595 Y56.745
G01 X417.887 Y64.760
G01 X426.774 Y73.221
G01 X435.235 Y82.108
G01 X443.250 Y91.399
G01 X450.800 Y101.072
G01 X457.865 Y111.104
G01 X464.430 Y121.471
G01 X470.479 Y132.148
G01 X475.996 Y143.108
G01 X480.968 Y154.326
G01 X485.385 Y165.774
G01 X489.234 Y177.425
G01 X492.507 Y189.251
G01 X495.196 Y201.224
G01 X497.294 Y213.314
G01 X498.796 Y225.492
G01 X499.699 Y237.729
G01 X500.000 Y249.996
G01 X499.699 Y262.263
G01 X498.797 Y274.501
G01 X497.295 Y286.679
G01 X495.197 Y298.769
G01 X492.509 Y310.741
G01 X489.236 Y322.568
G01 X485.387 Y334.219
G01 X480.971 Y345.667
G01 X475.999 Y356.885
G01 X470.482 Y367.846
G01 X464.434 Y378.523
G01 X457.869 Y388.890
G01 X450.804 Y398.922
G01 X443.255 Y408.595
G01 X435.240 Y417.887
G01 X426.779 Y426.774
G01 X417.892 Y435.235
G01 X408.601 Y443.250
G01 X398.928 Y450.800
G01 X388.896 Y457.865
G01 X378.529 Y464.430
G01 X367.852 Y470.479
G01 X356.892 Y475.996
G01 X345.674 Y480.968
G01 X334.226 Y485.385
G01 X322.575 Y489.234
G01 X310.749 Y492.507
G01 X298.776 Y495.196
G01 X286.686 Y497.294
G01 X274.508 Y498.796
G01 X262.271 Y499.699
G01 X250.004 Y500.000
G01 X250.000 Y500.000
G01 X250.000 Y447.925
G01 X259.712 Y447.687
G01 X269.400 Y446.972
G01 X279.042 Y445.783
G01 X288.613 Y444.122
G01 X293.637 Y443.055
G01 X284.112 Y444.963
G01 X274.504 Y446.402
G01 X264.838 Y447.368
G01 X255.136 Y447.858
G01 X250.000 Y447.925
G01 X250.000 Y385.425
G01 X256.645 Y385.262
G01 X263.274 Y384.773
G01 X269.871 Y383.959
G01 X276.420 Y382.823
G01 X277.449 Y382.614
G01 X270.909 Y383.801
G01 X264.318 Y384.666
G01 X257.693 Y385.206
G01 X251.050 Y385.421
G01 X250.000 Y385.425
G01 X250.000 Y343.750
G01 X254.600 Y343.637
G01 X259.189 Y343.299
G01 X263.756 Y342.735
G01 X266.636 Y342.262
G01 X262.089 Y342.967
G01 X257.513 Y343.448
G01 X252.919 Y343.705
G01 X250.000 Y343.750
G01 X250.000 Y322.925
G01 X253.578 Y322.837
G01 X257.148 Y322.574
G01 X260.700 Y322.136
G01 X261.222 Y322.056
G01 X257.673 Y322.520
G01 X254.105 Y322.809
G01 X250.528 Y322.923
G01 X250.000 Y322.925
G01 X250.000 Y296.925
G01 X247.697 Y296.868
G01 X245.401 Y296.699
G01 X243.643 Y296.492
G01 X245.931 Y296.748
G01 X248.230 Y296.892
G01 X250.000 Y296.925
G01 X250.000 Y281.250
G01 X251.533 Y281.212
G01 X253.063 Y281.100
G01 X254.585 Y280.912
G01 X256.097 Y280.650
G01 X257.593 Y280.313
G01 X259.071 Y279.904
G01 X260.528 Y279.423
G01 X261.959 Y278.871
G01 X263.361 Y278.250
G01 X264.731 Y277.560
G01 X265.625 Y277.063
G01 X317.713 Y367.281
G01 X311.876 Y370.463
G01 X305.891 Y373.354
G01 X299.771 Y375.948
G01 X293.531 Y378.238
G01 X292.536 Y378.571
G01 X298.793 Y376.329
G01 X304.933 Y373.783
G01 X310.941 Y370.939
G01 X316.802 Y367.803
G01 X317.713 Y367.281
G01 X328.125 Y385.316
G01 X321.391 Y388.987
G01 X314.486 Y392.322
G01 X307.425 Y395.315
G01 X300.225 Y397.958
G01 X297.933 Y398.716
G01 X305.173 Y396.185
G01 X312.279 Y393.302
G01 X319.236 Y390.073
G01 X326.025 Y386.507
G01 X328.125 Y385.316
G01 X338.538 Y403.351
G01 X330.906 Y407.511
G01 X323.080 Y411.291
G01 X315.078 Y414.683
G01 X306.919 Y417.678
G01 X303.326 Y418.855
G01 X311.547 Y416.035
G01 X319.620 Y412.815
G01 X327.525 Y409.202
G01 X335.244 Y405.207
G01 X338.538 Y403.351
G01 X348.963 Y421.408
G01 X340.433 Y426.057
G01 X331.685 Y430.283
G01 X322.741 Y434.074
G01 X313.621 Y437.421
G01 X308.737 Y439.009
G01 X317.940 Y435.899
G01 X326.980 Y432.341
G01 X335.834 Y428.345
G01 X344.482 Y423.918
G01 X348.963 Y421.408
G01 X359.375 Y439.443
G01 X307.288 Y349.225
G01 X312.087 Y346.294
G01 X316.737 Y343.132
G01 X321.227 Y339.745
G01 X325.308 Y336.349
G01 X320.980 Y339.940
G01 X316.481 Y343.315
G01 X311.822 Y346.465
G01 X307.288 Y349.225
G01 X296.875 Y331.190
G01 X300.802 Y328.792
G01 X304.607 Y326.204
G01 X308.281 Y323.433
G01 X310.539 Y321.583
G01 X306.953 Y324.467
G01 X303.231 Y327.172
G01 X299.380 Y329.691
G01 X296.875 Y331.190
G01 X286.463 Y313.155
G01 X289.518 Y311.290
G01 X292.477 Y309.277
G01 X295.335 Y307.121
G01 X295.741 Y306.796
G01 X292.899 Y308.972
G01 X289.954 Y311.006
G01 X286.912 Y312.893
G01 X286.463 Y313.155
G01 X273.438 Y290.595
G01 X271.426 Y291.712
G01 X269.361 Y292.730
G01 X267.740 Y293.442
G01 X269.843 Y292.503
G01 X271.896 Y291.462
G01 X273.438 Y290.595
G01 X265.625 Y277.063
G01 X266.934 Y276.264
G01 X268.202 Y275.401
G01 X269.427 Y274.478
G01 X270.605 Y273.495
G01 X271.733 Y272.456
G01 X272.808 Y271.362
G01 X273.829 Y270.217
G01 X274.792 Y269.024
G01 X275.696 Y267.784
G01 X276.538 Y266.502
G01 X277.063 Y265.625
G01 X349.225 Y307.287
G01 X346.295 Y312.087
G01 X343.132 Y316.737
G01 X339.745 Y321.227
G01 X336.350 Y325.307
G01 X339.941 Y320.980
G01 X343.315 Y316.481
G01 X346.465 Y311.822
G01 X349.225 Y307.287
G01 X385.317 Y328.125
G01 X381.320 Y334.670
G01 X377.008 Y341.012
G01 X372.389 Y347.134
G01 X367.475 Y353.022
G01 X365.870 Y354.825
G01 X370.873 Y349.013
G01 X375.586 Y342.963
G01 X379.996 Y336.689
G01 X384.093 Y330.206
G01 X385.317 Y328.125
G01 X403.352 Y338.537
G01 X398.823 Y345.955
G01 X393.935 Y353.142
G01 X388.701 Y360.080
G01 X383.132 Y366.753
G01 X380.609 Y369.569
G01 X386.319 Y363.016
G01 X391.700 Y356.191
G01 X396.740 Y349.110
G01 X401.427 Y341.791
G01 X403.352 Y338.537
G01 X439.443 Y359.375
G01 X421.408 Y348.962
G01 X426.058 Y340.432
G01 X430.283 Y331.685
G01 X434.074 Y322.740
G01 X437.421 Y313.620
G01 X439.009 Y308.736
G01 X435.899 Y317.939
G01 X432.342 Y326.979
G01 X428.345 Y335.834
G01 X423.918 Y344.481
G01 X421.408 Y348.962
G01 X367.282 Y317.712
G01 X370.463 Y311.876
G01 X373.354 Y305.891
G01 X375.948 Y299.771
G01 X378.238 Y293.531
G01 X378.572 Y292.535
G01 X376.330 Y298.793
G01 X373.783 Y304.933
G01 X370.939 Y310.940
G01 X367.803 Y316.801
G01 X367.282 Y317.712
G01 X331.190 Y296.875
G01 X333.392 Y292.835
G01 X335.394 Y288.691
G01 X337.189 Y284.454
G01 X338.220 Y281.723
G01 X336.557 Y286.014
G01 X334.685 Y290.218
G01 X332.610 Y294.324
G01 X331.190 Y296.875
G01 X313.155 Y286.462
G01 X314.868 Y283.320
G01 X316.425 Y280.096
G01 X317.822 Y276.801
G01 X318.011 Y276.316
G01 X316.638 Y279.622
G01 X315.104 Y282.856
G01 X313.414 Y286.011
G01 X313.155 Y286.462
G01 X290.595 Y273.437
G01 X289.411 Y275.411
G01 X288.132 Y277.325
G01 X287.085 Y278.752
G01 X288.436 Y276.887
G01 X289.694 Y274.959
G01 X290.595 Y273.437
G01 X277.063 Y265.625
G01 X277.797 Y264.278
G01 X278.465 Y262.897
G01 X279.063 Y261.485
G01 X279.592 Y260.045
G01 X280.049 Y258.581
G01 X280.434 Y257.096
G01 X280.745 Y255.594
G01 X280.983 Y254.079
G01 X281.145 Y252.554
G01 X281.233 Y251.022
G01 X281.250 Y250.000
G01 X296.875 Y250.000
G01 X296.837 Y252.301
G01 X296.685 Y254.598
G01 X296.492 Y256.357
G01 X296.730 Y254.067
G01 X296.856 Y251.768
G01 X296.875 Y250.000
G01 X322.925 Y250.000
G01 X322.837 Y253.578
G01 X322.574 Y257.148
G01 X322.136 Y260.700
G01 X322.056 Y261.222
G01 X322.520 Y257.673
G01 X322.809 Y254.105
G01 X322.923 Y250.528
G01 X322.925 Y250.000
G01 X364.575 Y250.000
G01 X364.437 Y255.622
G01 X364.023 Y261.230
G01 X363.335 Y266.811
G01 X362.435 Y272.043
G01 X363.381 Y266.500
G01 X364.054 Y260.916
G01 X364.452 Y255.307
G01 X364.575 Y250.000
G01 X406.250 Y249.999
G01 X406.062 Y257.666
G01 X405.498 Y265.315
G01 X404.559 Y272.926
G01 X403.248 Y280.482
G01 X402.759 Y282.846
G01 X404.186 Y275.311
G01 X405.243 Y267.715
G01 X405.925 Y260.076
G01 X406.231 Y252.413
G01 X406.250 Y249.999
G01 X427.075 Y249.999
G01 X426.862 Y258.688
G01 X426.222 Y267.356
G01 X425.159 Y275.982
G01 X423.673 Y284.545
G01 X422.896 Y288.245
G01 X424.564 Y279.715
G01 X425.812 Y271.114
G01 X426.636 Y262.462
G01 X427.035 Y253.780
G01 X427.075 Y249.999
G01 X447.925 Y249.999
G01 X468.750 Y249.999
G01 X447.925 Y249.999
G01 X447.687 Y240.288
G01 X446.972 Y230.599
G01 X445.783 Y220.958
G01 X444.122 Y211.386
G01 X443.054 Y206.362
G01 X444.963 Y215.887
G01 X446.402 Y225.495
G01 X447.368 Y235.161
G01 X447.858 Y244.864
G01 X447.925 Y249.999
G01 X385.425 Y250.000
G01 X385.262 Y243.355
G01 X384.773 Y236.726
G01 X383.959 Y230.129
G01 X382.823 Y223.579
G01 X382.614 Y222.551
G01 X383.801 Y229.091
G01 X384.666 Y235.681
G01 X385.206 Y242.306
G01 X385.421 Y248.950
G01 X385.425 Y250.000
G01 X343.750 Y250.000
G01 X343.637 Y245.400
G01 X343.299 Y240.811
G01 X342.735 Y236.244
G01 X342.262 Y233.363
G01 X342.967 Y237.910
G01 X343.448 Y242.487
G01 X343.705 Y247.081
G01 X343.750 Y250.000
G01 X281.250 Y250.000
G01 X281.212 Y248.467
G01 X281.100 Y246.937
G01 X280.912 Y245.415
G01 X280.650 Y243.903
G01 X280.313 Y242.407
G01 X279.904 Y240.928
G01 X279.423 Y239.472
G01 X278.871 Y238.041
G01 X278.250 Y236.639
G01 X277.560 Y235.269
G01 X277.063 Y234.375
G01 X290.595 Y226.562
G01 X291.712 Y228.574
G01 X292.730 Y230.639
G01 X293.442 Y232.259
G01 X292.503 Y230.157
G01 X291.462 Y228.104
G01 X290.595 Y226.562
G01 X313.155 Y213.537
G01 X314.868 Y216.680
G01 X316.425 Y219.903
G01 X317.821 Y223.199
G01 X318.014 Y223.690
G01 X316.641 Y220.385
G01 X315.107 Y217.150
G01 X313.417 Y213.995
G01 X313.155 Y213.537
G01 X367.281 Y182.287
G01 X370.462 Y188.123
G01 X373.353 Y194.109
G01 X375.947 Y200.229
G01 X378.238 Y206.468
G01 X378.571 Y207.464
G01 X376.329 Y201.206
G01 X373.783 Y195.066
G01 X370.938 Y189.059
G01 X367.802 Y183.198
G01 X367.281 Y182.287
G01 X385.316 Y171.874
G01 X388.987 Y178.608
G01 X392.322 Y185.514
G01 X395.315 Y192.575
G01 X397.958 Y199.774
G01 X398.716 Y202.066
G01 X396.185 Y194.827
G01 X393.301 Y187.720
G01 X390.073 Y180.764
G01 X386.507 Y173.974
G01 X385.316 Y171.874
G01 X403.475 Y161.677
G01 X407.624 Y169.314
G01 X411.393 Y177.145
G01 X414.773 Y185.152
G01 X417.757 Y193.315
G01 X418.854 Y196.673
G01 X416.034 Y188.452
G01 X412.814 Y180.379
G01 X409.202 Y172.474
G01 X405.206 Y164.756
G01 X403.351 Y161.462
G01 X439.443 Y140.624
G01 X421.408 Y151.037
G01 X416.345 Y142.745
G01 X410.882 Y134.712
G01 X405.031 Y126.957
G01 X398.807 Y119.498
G01 X395.371 Y115.681
G01 X401.787 Y122.976
G01 X407.837 Y130.577
G01 X413.506 Y138.465
G01 X418.782 Y146.622
G01 X421.408 Y151.037
G01 X349.225 Y192.712
G01 X346.294 Y187.912
G01 X343.132 Y183.262
G01 X339.745 Y178.773
G01 X336.349 Y174.692
G01 X339.940 Y179.020
G01 X343.315 Y183.518
G01 X346.464 Y188.177
G01 X349.225 Y192.712
G01 X331.190 Y203.125
G01 X328.792 Y199.197
G01 X326.204 Y195.392
G01 X323.433 Y191.719
G01 X321.583 Y189.461
G01 X324.467 Y193.046
G01 X327.172 Y196.769
G01 X329.691 Y200.620
G01 X331.190 Y203.125
G01 X277.063 Y234.375
G01 X276.264 Y233.066
G01 X275.401 Y231.797
G01 X274.478 Y230.573
G01 X273.495 Y229.395
G01 X272.456 Y228.267
G01 X271.362 Y227.192
G01 X270.217 Y226.171
G01 X269.024 Y225.208
G01 X267.784 Y224.304
G01 X266.502 Y223.462
G01 X265.625 Y222.937
G01 X273.437 Y209.405
G01 X275.411 Y210.589
G01 X277.324 Y211.868
G01 X278.752 Y212.915
G01 X276.887 Y211.564
G01 X274.959 Y210.306
G01 X273.437 Y209.405
G01 X286.462 Y186.845
G01 X289.517 Y188.710
G01 X292.477 Y190.723
G01 X295.334 Y192.879
G01 X295.746 Y193.208
G01 X292.905 Y191.032
G01 X289.960 Y188.998
G01 X286.918 Y187.110
G01 X286.462 Y186.845
G01 X296.875 Y168.810
G01 X300.802 Y171.208
G01 X304.607 Y173.795
G01 X308.280 Y176.567
G01 X310.538 Y178.417
G01 X306.953 Y175.532
G01 X303.230 Y172.827
G01 X299.379 Y170.309
G01 X296.875 Y168.810
G01 X338.537 Y96.648
G01 X345.955 Y101.177
G01 X353.141 Y106.065
G01 X360.080 Y111.299
G01 X366.753 Y116.867
G01 X369.568 Y119.390
G01 X363.016 Y113.681
G01 X356.191 Y108.299
G01 X349.110 Y103.259
G01 X341.790 Y98.573
G01 X338.537 Y96.648
G01 X359.374 Y60.556
G01 X348.961 Y78.591
G01 X340.432 Y73.942
G01 X331.684 Y69.717
G01 X322.739 Y65.926
G01 X313.620 Y62.578
G01 X308.735 Y60.991
G01 X317.939 Y64.100
G01 X326.979 Y67.658
G01 X335.833 Y71.655
G01 X344.480 Y76.081
G01 X348.961 Y78.591
G01 X328.124 Y114.683
G01 X321.390 Y111.013
G01 X314.485 Y107.677
G01 X307.423 Y104.684
G01 X300.224 Y102.042
G01 X297.932 Y101.284
G01 X305.172 Y103.815
G01 X312.278 Y106.698
G01 X319.235 Y109.926
G01 X326.024 Y113.492
G01 X328.124 Y114.683
G01 X317.712 Y132.718
G01 X311.875 Y129.537
G01 X305.890 Y126.646
G01 X299.770 Y124.052
G01 X293.530 Y121.762
G01 X292.535 Y121.428
G01 X298.792 Y123.670
G01 X304.932 Y126.216
G01 X310.940 Y129.061
G01 X316.801 Y132.197
G01 X317.712 Y132.718
G01 X307.287 Y150.775
G01 X302.349 Y148.083
G01 X297.285 Y145.637
G01 X292.107 Y143.443
G01 X287.126 Y141.607
G01 X292.400 Y143.559
G01 X297.572 Y145.768
G01 X302.629 Y148.228
G01 X307.287 Y150.775
G01 X296.875 Y168.810
G01 X292.834 Y166.608
G01 X288.691 Y164.606
G01 X284.454 Y162.811
G01 X281.723 Y161.780
G01 X286.013 Y163.443
G01 X290.217 Y165.314
G01 X294.324 Y167.390
G01 X296.875 Y168.810
G01 X265.625 Y222.937
G01 X264.278 Y222.203
G01 X262.897 Y221.535
G01 X261.485 Y220.937
G01 X260.045 Y220.408
G01 X258.581 Y219.951
G01 X257.096 Y219.566
G01 X255.594 Y219.255
G01 X254.079 Y219.017
G01 X252.554 Y218.855
G01 X251.022 Y218.767
G01 X250.000 Y218.750
G01 X250.000 Y203.125
G01 X252.301 Y203.163
G01 X254.598 Y203.315
G01 X256.357 Y203.508
G01 X254.067 Y203.270
G01 X251.768 Y203.144
G01 X250.000 Y203.125
G01 X249.999 Y177.075
G01 X253.578 Y177.163
G01 X257.147 Y177.426
G01 X260.700 Y177.864
G01 X261.222 Y177.944
G01 X257.672 Y177.480
G01 X254.105 Y177.191
G01 X250.527 Y177.077
G01 X249.999 Y177.075
G01 X249.999 Y114.575
G01 X256.644 Y114.738
G01 X263.273 Y115.227
G01 X269.870 Y116.041
G01 X276.419 Y117.177
G01 X277.448 Y117.386
G01 X270.908 Y116.199
G01 X264.317 Y115.334
G01 X257.692 Y114.794
G01 X251.049 Y114.579
G01 X249.999 Y114.575
G01 X249.999 Y93.750
G01 X257.666 Y93.938
G01 X265.314 Y94.502
G01 X272.926 Y95.441
G01 X280.482 Y96.752
G01 X282.846 Y97.241
G01 X275.311 Y95.814
G01 X267.715 Y94.757
G01 X260.076 Y94.075
G01 X252.413 Y93.769
G01 X249.999 Y93.750
G01 X249.999 Y72.925
G01 X258.687 Y73.138
G01 X267.355 Y73.778
G01 X275.981 Y74.841
G01 X284.544 Y76.327
G01 X288.244 Y77.104
G01 X279.715 Y75.436
G01 X271.113 Y74.188
G01 X262.461 Y73.364
G01 X253.779 Y72.965
G01 X249.999 Y72.925
G01 X249.999 Y52.075
G01 X259.710 Y52.313
G01 X269.399 Y53.028
G01 X279.040 Y54.217
G01 X288.612 Y55.878
G01 X293.636 Y56.945
G01 X284.111 Y55.036
G01 X274.503 Y53.598
G01 X264.836 Y52.632
G01 X255.134 Y52.142
G01 X249.999 Y52.075
G01 X249.998 Y31.250
G01 X249.999 Y135.425
G01 X244.377 Y135.563
G01 X238.769 Y135.977
G01 X233.188 Y136.665
G01 X227.956 Y137.566
G01 X233.499 Y136.619
G01 X239.082 Y135.946
G01 X244.692 Y135.548
G01 X249.999 Y135.425
G01 X249.999 Y156.250
G01 X245.399 Y156.363
G01 X240.810 Y156.701
G01 X236.243 Y157.265
G01 X233.363 Y157.738
G01 X237.910 Y157.033
G01 X242.486 Y156.552
G01 X247.081 Y156.295
G01 X249.999 Y156.250
G01 X250.000 Y218.750
G01 X248.466 Y218.788
G01 X246.937 Y218.900
G01 X245.414 Y219.088
G01 X243.903 Y219.351
G01 X242.407 Y219.687
G01 X240.928 Y220.096
G01 X239.472 Y220.577
G01 X238.041 Y221.129
G01 X236.639 Y221.750
G01 X235.269 Y222.440
G01 X234.375 Y222.937
G01 X192.712 Y150.776
G01 X197.649 Y148.084
G01 X202.713 Y145.638
G01 X207.891 Y143.444
G01 X212.872 Y141.607
G01 X207.598 Y143.560
G01 X202.426 Y145.769
G01 X197.369 Y148.228
G01 X192.712 Y150.776
G01 X182.286 Y132.719
G01 X188.123 Y129.538
G01 X194.108 Y126.647
G01 X200.228 Y124.053
G01 X206.468 Y121.762
G01 X207.463 Y121.429
G01 X201.206 Y123.671
G01 X195.066 Y126.217
G01 X189.058 Y129.062
G01 X183.198 Y132.198
G01 X182.286 Y132.719
G01 X161.461 Y96.649
G01 X169.092 Y92.490
G01 X176.919 Y88.709
G01 X184.921 Y85.318
G01 X193.080 Y82.323
G01 X196.672 Y81.146
G01 X188.451 Y83.966
G01 X180.379 Y87.186
G01 X172.473 Y90.798
G01 X164.755 Y94.794
G01 X161.461 Y96.649
G01 X140.623 Y60.558
G01 X151.036 Y78.593
G01 X142.745 Y83.655
G01 X134.712 Y89.118
G01 X126.957 Y94.969
G01 X119.498 Y101.193
G01 X115.680 Y104.630
G01 X122.975 Y98.214
G01 X130.576 Y92.164
G01 X138.465 Y86.494
G01 X146.622 Y81.218
G01 X151.036 Y78.593
G01 X171.874 Y114.684
G01 X165.328 Y118.681
G01 X158.987 Y122.993
G01 X152.864 Y127.612
G01 X146.976 Y132.526
G01 X145.174 Y134.132
G01 X150.985 Y129.128
G01 X157.035 Y124.415
G01 X163.310 Y120.005
G01 X169.793 Y115.907
G01 X171.874 Y114.684
G01 X203.124 Y168.811
G01 X199.197 Y171.208
G01 X195.392 Y173.796
G01 X191.719 Y176.567
G01 X189.461 Y178.417
G01 X193.046 Y175.533
G01 X196.769 Y172.828
G01 X200.619 Y170.309
G01 X203.124 Y168.811
G01 X213.537 Y186.845
G01 X210.482 Y188.711
G01 X207.522 Y190.724
G01 X204.665 Y192.879
G01 X204.258 Y193.204
G01 X207.100 Y191.028
G01 X210.046 Y188.994
G01 X213.087 Y187.107
G01 X213.537 Y186.845
G01 X226.562 Y209.405
G01 X228.574 Y208.288
G01 X230.639 Y207.271
G01 X232.259 Y206.558
G01 X230.157 Y207.497
G01 X228.103 Y208.538
G01 X226.562 Y209.405
G01 X234.375 Y222.937
G01 X233.066 Y223.736
G01 X231.797 Y224.599
G01 X230.573 Y225.522
G01 X229.395 Y226.505
G01 X228.267 Y227.545
G01 X227.192 Y228.638
G01 X226.171 Y229.783
G01 X225.208 Y230.976
G01 X224.304 Y232.216
G01 X223.462 Y233.498
G01 X222.937 Y234.375
G01 X168.810 Y203.126
G01 X171.207 Y199.198
G01 X173.795 Y195.393
G01 X176.566 Y191.720
G01 X178.416 Y189.462
G01 X175.532 Y193.047
G01 X172.827 Y196.770
G01 X170.308 Y200.621
G01 X168.810 Y203.126
G01 X78.591 Y151.039
G01 X83.653 Y142.748
G01 X89.116 Y134.715
G01 X94.967 Y126.959
G01 X101.191 Y119.500
G01 X104.627 Y115.683
G01 X98.212 Y122.978
G01 X92.162 Y130.579
G01 X86.492 Y138.468
G01 X81.216 Y146.625
G01 X78.591 Y151.039
G01 X60.556 Y140.627
G01 X96.648 Y161.464
G01 X92.488 Y169.095
G01 X88.708 Y176.921
G01 X85.317 Y184.924
G01 X82.322 Y193.083
G01 X81.145 Y196.675
G01 X83.965 Y188.454
G01 X87.185 Y180.382
G01 X90.797 Y172.476
G01 X94.792 Y164.758
G01 X96.648 Y161.464
G01 X114.683 Y171.876
G01 X111.012 Y178.610
G01 X107.677 Y185.516
G01 X104.684 Y192.577
G01 X102.042 Y199.777
G01 X101.283 Y202.068
G01 X103.814 Y194.829
G01 X106.698 Y187.722
G01 X109.926 Y180.766
G01 X113.492 Y173.976
G01 X114.683 Y171.876
G01 X132.718 Y182.289
G01 X129.537 Y188.125
G01 X126.646 Y194.110
G01 X124.052 Y200.230
G01 X121.762 Y206.470
G01 X121.428 Y207.466
G01 X123.670 Y201.208
G01 X126.216 Y195.068
G01 X129.061 Y189.060
G01 X132.197 Y183.200
G01 X132.718 Y182.289
G01 X150.775 Y192.713
G01 X148.083 Y197.651
G01 X145.637 Y202.715
G01 X143.443 Y207.893
G01 X141.607 Y212.874
G01 X143.559 Y207.600
G01 X145.768 Y202.428
G01 X148.228 Y197.371
G01 X150.775 Y192.713
G01 X186.845 Y213.538
G01 X185.132 Y216.681
G01 X183.575 Y219.904
G01 X182.178 Y223.200
G01 X181.989 Y223.684
G01 X183.362 Y220.379
G01 X184.896 Y217.145
G01 X186.586 Y213.990
G01 X186.845 Y213.538
G01 X209.405 Y226.563
G01 X210.589 Y224.589
G01 X211.868 Y222.676
G01 X212.915 Y221.248
G01 X211.564 Y223.113
G01 X210.306 Y225.041
G01 X209.405 Y226.563
G01 X222.937 Y234.375
G01 X222.202 Y235.722
G01 X221.535 Y237.103
G01 X220.937 Y238.515
G01 X220.408 Y239.955
G01 X219.951 Y241.419
G01 X219.566 Y242.904
G01 X219.255 Y244.406
G01 X219.017 Y245.921
G01 X218.854 Y247.447
G01 X218.767 Y248.978
G01 X218.750 Y250.000
G01 X203.125 Y250.001
G01 X203.163 Y247.700
G01 X203.315 Y245.402
G01 X203.508 Y243.643
G01 X203.270 Y245.934
G01 X203.144 Y248.232
G01 X203.125 Y250.001
G01 X177.075 Y250.001
G01 X177.163 Y246.423
G01 X177.426 Y242.853
G01 X177.864 Y239.300
G01 X177.944 Y238.779
G01 X177.480 Y242.328
G01 X177.191 Y245.895
G01 X177.077 Y249.473
G01 X177.075 Y250.001
G01 X135.425 Y250.001
G01 X135.563 Y244.379
G01 X135.977 Y238.771
G01 X136.665 Y233.190
G01 X137.565 Y227.958
G01 X136.619 Y233.501
G01 X135.946 Y239.084
G01 X135.548 Y244.694
G01 X135.425 Y250.001
G01 X93.750 Y250.002
G01 X93.938 Y242.335
G01 X94.502 Y234.687
G01 X95.441 Y227.075
G01 X96.752 Y219.519
G01 X97.241 Y217.155
G01 X95.814 Y224.690
G01 X94.757 Y232.286
G01 X94.075 Y239.925
G01 X93.769 Y247.588
G01 X93.750 Y250.002
G01 X72.925 Y250.002
G01 X73.138 Y241.313
G01 X73.777 Y232.646
G01 X74.841 Y224.020
G01 X76.327 Y215.456
G01 X77.104 Y211.756
G01 X75.436 Y220.286
G01 X74.188 Y228.887
G01 X73.364 Y237.539
G01 X72.965 Y246.222
G01 X72.925 Y250.002
G01 X52.075 Y250.002
G01 X52.313 Y240.290
G01 X53.028 Y230.602
G01 X54.217 Y220.961
G01 X55.878 Y211.389
G01 X56.945 Y206.365
G01 X55.036 Y215.890
G01 X53.597 Y225.498
G01 X52.632 Y235.164
G01 X52.142 Y244.867
G01 X52.075 Y250.002
G01 X31.250 Y250.002
G01 X114.575 Y250.001
G01 X114.738 Y256.646
G01 X115.227 Y263.275
G01 X116.041 Y269.872
G01 X117.177 Y276.422
G01 X117.386 Y277.450
G01 X116.199 Y270.910
G01 X115.334 Y264.320
G01 X114.794 Y257.695
G01 X114.579 Y251.051
G01 X114.575 Y250.001
G01 X156.250 Y250.001
G01 X156.363 Y254.601
G01 X156.702 Y259.190
G01 X157.265 Y263.757
G01 X157.738 Y266.637
G01 X157.033 Y262.090
G01 X156.552 Y257.514
G01 X156.295 Y252.920
G01 X156.250 Y250.001
G01 X218.750 Y250.000
G01 X218.788 Y251.534
G01 X218.901 Y253.063
G01 X219.088 Y254.586
G01 X219.351 Y256.097
G01 X219.687 Y257.593
G01 X220.096 Y259.072
G01 X220.577 Y260.528
G01 X221.129 Y261.959
G01 X221.750 Y263.361
G01 X222.440 Y264.731
G01 X222.937 Y265.625
G01 X150.776 Y307.289
G01 X148.084 Y302.351
G01 X145.638 Y297.287
G01 X143.444 Y292.109
G01 X141.608 Y287.128
G01 X143.560 Y292.402
G01 X145.769 Y297.574
G01 X148.229 Y302.631
G01 X150.776 Y307.289
G01 X114.684 Y328.127
G01 X111.014 Y321.393
G01 X107.678 Y314.487
G01 X104.686 Y307.426
G01 X102.043 Y300.227
G01 X101.284 Y297.935
G01 X103.816 Y305.174
G01 X106.699 Y312.281
G01 X109.928 Y319.237
G01 X113.494 Y326.027
G01 X114.684 Y328.127
G01 X96.650 Y338.539
G01 X92.490 Y330.908
G01 X88.710 Y323.082
G01 X85.318 Y315.080
G01 X82.323 Y306.921
G01 X81.146 Y303.328
G01 X83.966 Y311.549
G01 X87.186 Y319.622
G01 X90.799 Y327.527
G01 X94.794 Y335.245
G01 X96.650 Y338.539
G01 X60.558 Y359.377
G01 X132.719 Y317.714
G01 X136.183 Y323.387
G01 X139.921 Y328.883
G01 X143.924 Y334.190
G01 X148.183 Y339.293
G01 X148.878 Y340.080
G01 X144.580 Y335.009
G01 X140.536 Y329.734
G01 X136.755 Y324.267
G01 X133.248 Y318.621
G01 X132.719 Y317.714
G01 X168.811 Y296.876
G01 X171.209 Y300.803
G01 X173.796 Y304.608
G01 X176.568 Y308.282
G01 X178.418 Y310.539
G01 X175.533 Y306.954
G01 X172.828 Y303.232
G01 X170.309 Y299.381
G01 X168.811 Y296.876
G01 X186.846 Y286.463
G01 X188.711 Y289.518
G01 X190.724 Y292.478
G01 X192.879 Y295.335
G01 X193.204 Y295.742
G01 X191.028 Y292.900
G01 X188.994 Y289.955
G01 X187.107 Y286.913
G01 X186.846 Y286.463
G01 X209.362 Y273.463
G01 X208.260 Y271.441
G01 X207.258 Y269.367
G01 X206.558 Y267.741
G01 X207.481 Y269.851
G01 X208.506 Y271.914
G01 X209.362 Y273.463
G01 X222.937 Y265.625
G01 X223.856 Y266.857
G01 X224.831 Y268.037
G01 X225.858 Y269.161
G01 X226.934 Y270.229
G01 X228.057 Y271.237
G01 X229.223 Y272.184
G01 X230.229 Y272.928
G01 X231.222 Y274.071
G01 X232.279 Y275.172
G01 X233.399 Y276.226
G01 X234.375 Y277.064
G01 X192.714 Y349.226
G01 X187.914 Y346.295
G01 X183.264 Y343.133
G01 X178.774 Y339.746
G01 X174.694 Y336.350
G01 X179.021 Y339.942
G01 X183.520 Y343.316
G01 X188.179 Y346.466
G01 X192.714 Y349.226
G01 X171.877 Y385.318
G01 X165.331 Y381.321
G01 X158.990 Y377.009
G01 X152.867 Y372.390
G01 X146.979 Y367.476
G01 X145.176 Y365.871
G01 X150.988 Y370.875
G01 X157.038 Y375.587
G01 X163.312 Y379.997
G01 X169.796 Y384.094
G01 X171.877 Y385.318
G01 X161.465 Y403.353
G01 X154.047 Y398.824
G01 X146.860 Y393.936
G01 X139.921 Y388.702
G01 X133.248 Y383.134
G01 X130.432 Y380.611
G01 X136.985 Y386.320
G01 X143.810 Y391.701
G01 X150.891 Y396.741
G01 X158.211 Y401.428
G01 X161.465 Y403.353
G01 X140.628 Y439.445
G01 X151.040 Y421.409
G01 X159.570 Y426.059
G01 X168.317 Y430.284
G01 X177.262 Y434.075
G01 X186.382 Y437.422
G01 X191.266 Y439.010
G01 X182.063 Y435.900
G01 X173.023 Y432.343
G01 X164.168 Y428.346
G01 X155.521 Y423.919
G01 X151.040 Y421.409
G01 X182.289 Y367.282
G01 X188.125 Y370.464
G01 X194.111 Y373.354
G01 X200.231 Y375.948
G01 X206.471 Y378.239
G01 X207.466 Y378.572
G01 X201.208 Y376.330
G01 X195.069 Y373.784
G01 X189.061 Y370.939
G01 X183.200 Y367.804
G01 X182.289 Y367.282
G01 X203.126 Y331.191
G01 X207.166 Y333.393
G01 X211.310 Y335.394
G01 X215.547 Y337.190
G01 X218.278 Y338.220
G01 X213.987 Y336.557
G01 X209.783 Y334.686
G01 X205.677 Y332.610
G01 X203.126 Y331.191
G01 X213.538 Y313.155
G01 X216.681 Y314.868
G01 X219.904 Y316.425
G01 X223.200 Y317.822
G01 X223.685 Y318.011
G01 X220.379 Y316.638
G01 X217.145 Y315.105
G01 X213.990 Y313.414
G01 X213.538 Y313.155
G01 X226.538 Y290.639
G01 X224.572 Y289.438
G01 X222.668 Y288.143
G01 X221.230 Y287.071
G01 X223.084 Y288.438
G01 X225.002 Y289.712
G01 X226.538 Y290.639
G01 X234.375 Y277.064
G01 X234.788 Y277.183
G01 X236.139 Y277.899
G01 X237.524 Y278.548
G01 X238.939 Y279.128
G01 X240.381 Y279.638
G01 X241.846 Y280.076
G01 X243.331 Y280.443
G01 X244.832 Y280.736
G01 X246.346 Y280.954
G01 X247.870 Y281.099
G01 X249.398 Y281.168
G01 X249.916 Y281.175
G01 X251.446 Y281.148
G01 X252.974 Y281.047
G01 X254.495 Y280.871
G01 X256.005 Y280.620
G01 X257.502 Y280.295
G01 X258.982 Y279.897
G01 X260.440 Y279.427
G01 X261.874 Y278.886
G01 X263.280 Y278.275
G01 X264.655 Y277.595
G01 X265.625 Y277.063
G01 X266.935 Y276.264
G01 X268.203 Y275.401
G01 X269.427 Y274.477
G01 X270.605 Y273.495
G01 X271.733 Y272.455
G01 X272.809 Y271.362
G01 X273.829 Y270.217
G01 X274.793 Y269.023
G01 X275.696 Y267.784
G01 X276.538 Y266.502
G01 X277.064 Y265.625
G01 X277.798 Y264.278
G01 X278.465 Y262.897
G01 X279.063 Y261.484
G01 X279.592 Y260.044
G01 X280.049 Y258.580
G01 X280.434 Y257.096
G01 X280.745 Y255.594
G01 X280.983 Y254.078
G01 X281.146 Y252.553
G01 X281.233 Y251.022
G01 X281.250 Y249.999
G01 X281.212 Y248.466
G01 X281.099 Y246.936
G01 X280.912 Y245.414
G01 X280.649 Y243.903
G01 X280.313 Y242.406
G01 X279.904 Y240.928
G01 X279.423 Y239.472
G01 X278.871 Y238.041
G01 X278.249 Y236.638
G01 X277.560 Y235.268
G01 X277.063 Y234.374
G01 X276.264 Y233.065
G01 X275.401 Y231.797
G01 X274.477 Y230.573
G01 X273.495 Y229.395
G01 X272.455 Y228.267
G01 X271.362 Y227.191
G01 X270.217 Y226.171
G01 X269.023 Y225.207
G01 X267.784 Y224.304
G01 X266.502 Y223.462
G01 X265.624 Y222.936
G01 X264.278 Y222.202
G01 X262.897 Y221.535
G01 X261.484 Y220.937
G01 X260.044 Y220.408
G01 X258.580 Y219.951
G01 X257.095 Y219.566
G01 X255.594 Y219.255
G01 X254.078 Y219.017
G01 X252.553 Y218.854
G01 X251.022 Y218.767
G01 X249.999 Y218.750
G01 X248.466 Y218.788
G01 X246.936 Y218.901
G01 X245.414 Y219.088
G01 X243.903 Y219.351
G01 X242.406 Y219.687
G01 X240.928 Y220.096
G01 X239.472 Y220.577
G01 X238.041 Y221.129
G01 X236.638 Y221.751
G01 X235.268 Y222.440
G01 X234.374 Y222.937
G01 X233.065 Y223.736
G01 X231.797 Y224.599
G01 X230.573 Y225.523
G01 X229.395 Y226.505
G01 X228.267 Y227.545
G01 X227.191 Y228.638
G01 X226.171 Y229.783
G01 X225.207 Y230.977
G01 X224.304 Y232.216
G01 X223.462 Y233.498
G01 X222.936 Y234.376
G01 X222.202 Y235.722
G01 X221.535 Y237.104
G01 X220.937 Y238.516
G01 X220.408 Y239.956
G01 X219.951 Y241.420
G01 X219.566 Y242.905
G01 X219.255 Y244.406
G01 X219.017 Y245.922
G01 X218.854 Y247.447
G01 X218.767 Y248.978
G01 X218.750 Y250.001
G01 X218.788 Y251.534
G01 X218.901 Y253.064
G01 X219.088 Y254.586
G01 X219.351 Y256.097
G01 X219.687 Y257.594
G01 X220.096 Y259.072
G01 X220.577 Y260.529
G01 X221.129 Y261.960
G01 X221.751 Y263.362
G01 X222.440 Y264.732
G01 X222.937 Y265.626
G01 X223.736 Y266.935
G01 X224.599 Y268.203
G01 X225.523 Y269.428
G01 X226.506 Y270.605
G01 X227.545 Y271.733
G01 X228.638 Y272.809
G01 X229.783 Y273.830
G01 X230.977 Y274.793
G01 X232.216 Y275.696
G01 X233.499 Y276.538
G01 X234.376 Y277.064
G01 X235.723 Y277.798
G01 X237.104 Y278.465
G01 X238.516 Y279.063
G01 X239.956 Y279.592
G01 X241.420 Y280.049
G01 X242.905 Y280.434
G01 X244.407 Y280.745
G01 X245.922 Y280.983
G01 X247.447 Y281.146
G01 X248.978 Y281.233
G01 X250.001 Y281.250
G01 X250.231 Y279.899
G01 X250.321 Y279.373
G01 X251.762 Y279.323
G01 X253.199 Y279.202
G01 X254.628 Y279.011
G01 X256.046 Y278.749
G01 X257.450 Y278.419
G01 X258.835 Y278.020
G01 X260.200 Y277.553
G01 X261.540 Y277.020
G01 X262.852 Y276.422
G01 X264.133 Y275.760
G01 X265.381 Y275.037
G01 X266.591 Y274.252
G01 X267.762 Y273.410
G01 X268.889 Y272.511
G01 X269.972 Y271.557
G01 X271.006 Y270.552
G01 X271.990 Y269.497
G01 X272.921 Y268.395
G01 X273.796 Y267.249
G01 X274.615 Y266.061
G01 X275.374 Y264.834
G01 X276.072 Y263.571
G01 X276.707 Y262.276
G01 X277.278 Y260.951
G01 X277.783 Y259.600
G01 X278.221 Y258.225
G01 X278.592 Y256.831
G01 X278.893 Y255.420
G01 X279.125 Y253.995
G01 X279.287 Y252.562
G01 X279.378 Y251.122
G01 X279.400 Y249.999
G01 X279.374 Y248.556
G01 X279.277 Y247.115
G01 X279.109 Y245.681
G01 X278.872 Y244.256
G01 X278.564 Y242.844
G01 X278.188 Y241.448
G01 X277.743 Y240.072
G01 X277.231 Y238.720
G01 X276.653 Y237.393
G01 X276.011 Y236.096
G01 X275.305 Y234.832
G01 X274.538 Y233.603
G01 X273.712 Y232.413
G01 X272.827 Y231.265
G01 X271.887 Y230.161
G01 X270.894 Y229.104
G01 X269.850 Y228.097
G01 X268.757 Y227.142
G01 X267.619 Y226.242
G01 X266.437 Y225.398
G01 X265.215 Y224.613
G01 X263.955 Y223.889
G01 X262.661 Y223.227
G01 X261.336 Y222.630
G01 X259.983 Y222.098
G01 X258.604 Y221.632
G01 X257.204 Y221.235
G01 X255.786 Y220.907
G01 X254.353 Y220.649
G01 X252.908 Y220.462
G01 X251.456 Y220.345
G01 X249.999 Y220.300
G01 X249.990 Y220.300
G01 X248.533 Y220.345
G01 X247.081 Y220.461
G01 X245.636 Y220.648
G01 X244.203 Y220.906
G01 X242.784 Y221.234
G01 X241.384 Y221.631
G01 X240.005 Y222.096
G01 X238.651 Y222.628
G01 X237.326 Y223.226
G01 X236.031 Y223.887
G01 X234.771 Y224.612
G01 X233.549 Y225.397
G01 X232.366 Y226.240
G01 X231.227 Y227.141
G01 X230.134 Y228.096
G01 X229.089 Y229.103
G01 X228.095 Y230.160
G01 X227.155 Y231.264
G01 X226.270 Y232.413
G01 X225.443 Y233.603
G01 X224.675 Y234.832
G01 X223.969 Y236.097
G01 X223.326 Y237.395
G01 X222.747 Y238.722
G01 X222.235 Y240.076
G01 X221.790 Y241.453
G01 X221.413 Y242.849
G01 X221.105 Y244.262
G01 X220.866 Y245.688
G01 X220.698 Y247.124
G01 X220.601 Y248.566
G01 X220.575 Y250.010
G01 X220.575 Y250.045
G01 X220.676 Y251.486
G01 X220.847 Y252.917
G01 X221.088 Y254.334
G01 X221.398 Y255.735
G01 X221.775 Y257.116
G01 X222.219 Y258.474
G01 X222.728 Y259.806
G01 X223.300 Y261.108
G01 X223.934 Y262.377
G01 X224.629 Y263.611
G01 X225.382 Y264.807
G01 X226.191 Y265.962
G01 X227.053 Y267.073
G01 X227.968 Y268.138
G01 X228.931 Y269.155
G01 X229.941 Y270.121
G01 X230.995 Y271.034
G01 X232.090 Y271.892
G01 X233.223 Y272.694
G01 X234.392 Y273.437
G01 X235.594 Y274.120
G01 X236.824 Y274.742
G01 X238.081 Y275.301
G01 X239.361 Y275.797
G01 X240.661 Y276.228
G01 X241.977 Y276.594
G01 X243.307 Y276.895
G01 X244.647 Y277.128
G01 X245.994 Y277.296
G01 X247.344 Y277.396
G01 X248.695 Y277.430
G01 X250.001 Y277.400
G01 X251.346 Y277.367
G01 X252.687 Y277.268
G01 X254.022 Y277.103
G01 X255.347 Y276.873
G01 X256.659 Y276.579
G01 X257.955 Y276.220
G01 X259.232 Y275.798
G01 X260.487 Y275.314
G01 X261.716 Y274.769
G01 X262.917 Y274.164
G01 X264.087 Y273.501
G01 X265.224 Y272.782
G01 X266.323 Y272.007
G01 X267.383 Y271.180
G01 X268.402 Y270.301
G01 X269.376 Y269.374
G01 X270.303 Y268.400
G01 X271.181 Y267.381
G01 X272.009 Y266.321
G01 X272.783 Y265.222
G01 X273.502 Y264.085
G01 X274.165 Y262.915
G01 X274.770 Y261.714
G01 X275.315 Y260.484
G01 X275.799 Y259.230
G01 X276.221 Y257.953
G01 X276.579 Y256.656
G01 X276.874 Y255.344
G01 X277.104 Y254.019
G01 X277.268 Y252.684
G01 X277.367 Y251.343
G01 X277.400 Y249.999
G01 X277.367 Y248.654
G01 X277.268 Y247.313
G01 X277.103 Y245.978
G01 X276.873 Y244.653
G01 X276.579 Y243.341
G01 X276.220 Y242.045
G01 X275.798 Y240.768
G01 X275.314 Y239.513
G01 X274.769 Y238.284
G01 X274.164 Y237.083
G01 X273.501 Y235.912
G01 X272.782 Y234.776
G01 X272.007 Y233.677
G01 X271.180 Y232.617
G01 X270.301 Y231.598
G01 X269.374 Y230.624
G01 X268.400 Y229.697
G01 X267.381 Y228.819
G01 X266.321 Y227.991
G01 X265.222 Y227.217
G01 X264.085 Y226.498
G01 X262.915 Y225.835
G01 X261.714 Y225.230
G01 X260.484 Y224.685
G01 X259.230 Y224.201
G01 X257.953 Y223.779
G01 X256.656 Y223.421
G01 X255.344 Y223.126
G01 X254.019 Y222.896
G01 X252.684 Y222.732
G01 X251.343 Y222.633
G01 X250.001 Y222.600
G01 X248.657 Y222.633
G01 X247.316 Y222.732
G01 X245.981 Y222.896
G01 X244.656 Y223.126
G01 X243.344 Y223.421
G01 X242.047 Y223.779
G01 X240.770 Y224.201
G01 X239.516 Y224.685
G01 X238.286 Y225.230
G01 X237.085 Y225.835
G01 X235.915 Y226.498
G01 X234.778 Y227.217
G01 X233.679 Y227.991
G01 X232.619 Y228.819
G01 X231.600 Y229.697
G01 X230.626 Y230.624
G01 X229.699 Y231.598
G01 X228.820 Y232.617
G01 X227.993 Y233.677
G01 X227.218 Y234.776
G01 X226.499 Y235.912
G01 X225.836 Y237.083
G01 X225.231 Y238.284
G01 X224.686 Y239.513
G01 X224.202 Y240.768
G01 X223.780 Y242.045
G01 X223.421 Y243.341
G01 X223.127 Y244.653
G01 X222.897 Y245.978
G01 X222.732 Y247.313
G01 X222.633 Y248.654
G01 X222.600 Y249.999
G01 X222.711 Y251.339
G01 X222.887 Y252.669
G01 X223.128 Y253.985
G01 X223.433 Y255.283
G01 X223.800 Y256.562
G01 X224.228 Y257.817
G01 X224.716 Y259.045
G01 X225.263 Y260.245
G01 X225.866 Y261.413
G01 X226.524 Y262.547
G01 X227.235 Y263.644
G01 X227.997 Y264.701
G01 X228.807 Y265.716
G01 X229.664 Y266.688
G01 X230.565 Y267.613
G01 X231.508 Y268.490
G01 X232.490 Y269.317
G01 X233.509 Y270.093
G01 X234.561 Y270.815
G01 X235.644 Y271.482
G01 X236.756 Y272.094
G01 X237.893 Y272.648
G01 X239.052 Y273.144
G01 X240.231 Y273.582
G01 X241.426 Y273.959
G01 X242.635 Y274.276
G01 X243.854 Y274.532
G01 X245.080 Y274.728
G01 X246.311 Y274.862
G01 X247.543 Y274.935
G01 X248.773 Y274.948
G01 X249.999 Y274.900
G01 X251.221 Y274.870
G01 X252.440 Y274.780
G01 X253.653 Y274.631
G01 X254.857 Y274.422
G01 X256.049 Y274.154
G01 X257.227 Y273.828
G01 X258.388 Y273.445
G01 X259.528 Y273.005
G01 X260.645 Y272.510
G01 X261.737 Y271.960
G01 X262.800 Y271.358
G01 X263.833 Y270.704
G01 X264.832 Y270.000
G01 X265.796 Y269.249
G01 X266.721 Y268.450
G01 X267.606 Y267.608
G01 X268.449 Y266.723
G01 X269.247 Y265.797
G01 X269.999 Y264.834
G01 X270.703 Y263.835
G01 X271.357 Y262.802
G01 X271.959 Y261.739
G01 X272.509 Y260.647
G01 X273.004 Y259.530
G01 X273.444 Y258.390
G01 X273.828 Y257.229
G01 X274.154 Y256.051
G01 X274.421 Y254.859
G01 X274.630 Y253.655
G01 X274.780 Y252.442
G01 X274.870 Y251.223
G01 X274.900 Y250.001
G01 X274.870 Y248.779
G01 X274.780 Y247.560
G01 X274.631 Y246.347
G01 X274.422 Y245.143
G01 X274.154 Y243.951
G01 X273.828 Y242.773
G01 X273.445 Y241.612
G01 X273.005 Y240.472
G01 X272.510 Y239.355
G01 X271.960 Y238.263
G01 X271.358 Y237.200
G01 X270.704 Y236.167
G01 X270.000 Y235.168
G01 X269.249 Y234.204
G01 X268.450 Y233.279
G01 X267.608 Y232.394
G01 X266.723 Y231.551
G01 X265.797 Y230.753
G01 X264.834 Y230.001
G01 X263.834 Y229.297
G01 X262.802 Y228.643
G01 X261.739 Y228.041
G01 X260.647 Y227.491
G01 X259.530 Y226.996
G01 X258.389 Y226.556
G01 X257.229 Y226.172
G01 X256.051 Y225.846
G01 X254.859 Y225.579
G01 X253.655 Y225.370
G01 X252.442 Y225.220
G01 X251.223 Y225.130
G01 X250.001 Y225.100
G01 X248.779 Y225.130
G01 X247.560 Y225.220
G01 X246.347 Y225.369
G01 X245.143 Y225.578
G01 X243.951 Y225.846
G01 X242.773 Y226.172
G01 X241.612 Y226.555
G01 X240.472 Y226.995
G01 X239.355 Y227.490
G01 X238.263 Y228.040
G01 X237.200 Y228.642
G01 X236.167 Y229.296
G01 X235.168 Y230.000
G01 X234.204 Y230.752
G01 X233.279 Y231.550
G01 X232.394 Y232.392
G01 X231.551 Y233.278
G01 X230.753 Y234.203
G01 X230.001 Y235.166
G01 X229.297 Y236.166
G01 X228.643 Y237.198
G01 X228.041 Y238.261
G01 X227.491 Y239.353
G01 X226.996 Y240.470
G01 X226.556 Y241.611
G01 X226.172 Y242.771
G01 X225.846 Y243.949
G01 X225.579 Y245.141
G01 X225.370 Y246.346
G01 X225.220 Y247.559
G01 X225.130 Y248.777
G01 X225.100 Y249.999
G01 X225.208 Y251.217
G01 X225.375 Y252.425
G01 X225.601 Y253.618
G01 X225.885 Y254.796
G01 X226.225 Y255.955
G01 X226.621 Y257.091
G01 X227.070 Y258.204
G01 X227.573 Y259.289
G01 X228.126 Y260.345
G01 X228.729 Y261.369
G01 X229.379 Y262.359
G01 X230.076 Y263.312
G01 X230.815 Y264.227
G01 X231.597 Y265.102
G01 X232.418 Y265.934
G01 X233.276 Y266.723
G01 X234.170 Y267.465
G01 X235.095 Y268.160
G01 X236.051 Y268.807
G01 X237.034 Y269.404
G01 X238.042 Y269.950
G01 X239.072 Y270.444
G01 X240.122 Y270.885
G01 X241.188 Y271.272
G01 X242.269 Y271.605
G01 X243.361 Y271.884
G01 X244.462 Y272.107
G01 X245.568 Y272.276
G01 X246.678 Y272.389
G01 X247.788 Y272.448
G01 X248.896 Y272.451
G01 X249.999 Y272.400
G01 X251.099 Y272.373
G01 X252.195 Y272.292
G01 X253.286 Y272.158
G01 X254.369 Y271.970
G01 X255.442 Y271.729
G01 X256.502 Y271.436
G01 X257.546 Y271.091
G01 X258.572 Y270.695
G01 X259.577 Y270.250
G01 X260.559 Y269.755
G01 X261.515 Y269.213
G01 X262.444 Y268.625
G01 X263.343 Y267.992
G01 X264.210 Y267.316
G01 X265.042 Y266.598
G01 X265.839 Y265.840
G01 X266.597 Y265.043
G01 X267.315 Y264.211
G01 X267.991 Y263.344
G01 X268.625 Y262.445
G01 X269.213 Y261.516
G01 X269.755 Y260.560
G01 X270.249 Y259.578
G01 X270.695 Y258.573
G01 X271.090 Y257.547
G01 X271.435 Y256.503
G01 X271.729 Y255.443
G01 X271.969 Y254.371
G01 X272.157 Y253.287
G01 X272.292 Y252.196
G01 X272.373 Y251.100
G01 X272.400 Y250.001
G01 X272.373 Y248.901
G01 X272.292 Y247.805
G01 X272.158 Y246.714
G01 X271.970 Y245.630
G01 X271.729 Y244.558
G01 X271.436 Y243.498
G01 X271.091 Y242.454
G01 X270.695 Y241.428
G01 X270.250 Y240.423
G01 X269.755 Y239.441
G01 X269.213 Y238.485
G01 X268.625 Y237.556
G01 X267.992 Y236.657
G01 X267.316 Y235.790
G01 X266.598 Y234.957
G01 X265.840 Y234.161
G01 X265.043 Y233.403
G01 X264.211 Y232.685
G01 X263.344 Y232.008
G01 X262.445 Y231.375
G01 X261.516 Y230.787
G01 X260.560 Y230.245
G01 X259.578 Y229.751
G01 X258.573 Y229.305
G01 X257.547 Y228.910
G01 X256.503 Y228.565
G01 X255.443 Y228.271
G01 X254.371 Y228.031
G01 X253.287 Y227.843
G01 X252.196 Y227.708
G01 X251.100 Y227.627
G01 X250.001 Y227.600
G01 X248.901 Y227.627
G01 X247.805 Y227.708
G01 X246.714 Y227.842
G01 X245.630 Y228.030
G01 X244.558 Y228.271
G01 X243.498 Y228.564
G01 X242.454 Y228.909
G01 X241.428 Y229.305
G01 X240.423 Y229.750
G01 X239.441 Y230.245
G01 X238.484 Y230.787
G01 X237.556 Y231.375
G01 X236.657 Y232.008
G01 X235.790 Y232.684
G01 X234.957 Y233.402
G01 X234.161 Y234.161
G01 X233.403 Y234.957
G01 X232.685 Y235.789
G01 X232.008 Y236.656
G01 X231.375 Y237.555
G01 X230.787 Y238.484
G01 X230.245 Y239.440
G01 X229.751 Y240.422
G01 X229.305 Y241.427
G01 X228.910 Y242.453
G01 X228.565 Y243.497
G01 X228.271 Y244.557
G01 X228.030 Y245.630
G01 X227.843 Y246.713
G01 X227.708 Y247.804
G01 X227.627 Y248.900
G01 X227.600 Y250.000
G01 X227.705 Y251.095
G01 X227.863 Y252.180
G01 X228.074 Y253.252
G01 X228.337 Y254.309
G01 X228.650 Y255.348
G01 X229.013 Y256.366
G01 X229.424 Y257.362
G01 X229.882 Y258.333
G01 X230.386 Y259.276
G01 X230.934 Y260.191
G01 X231.524 Y261.074
G01 X232.154 Y261.924
G01 X232.824 Y262.738
G01 X233.530 Y263.516
G01 X234.271 Y264.256
G01 X235.044 Y264.955
G01 X235.849 Y265.613
G01 X236.681 Y266.228
G01 X237.540 Y266.799
G01 X238.423 Y267.326
G01 X239.327 Y267.806
G01 X240.251 Y268.239
G01 X241.191 Y268.625
G01 X242.145 Y268.963
G01 X243.111 Y269.252
G01 X244.087 Y269.492
G01 X245.069 Y269.682
G01 X246.056 Y269.824
G01 X247.045 Y269.916
G01 X248.034 Y269.960
G01 X249.019 Y269.954
G01 X250.000 Y269.900
G01 X250.976 Y269.876
G01 X251.950 Y269.804
G01 X252.920 Y269.685
G01 X253.882 Y269.518
G01 X254.835 Y269.304
G01 X255.776 Y269.043
G01 X256.704 Y268.737
G01 X257.615 Y268.385
G01 X258.508 Y267.989
G01 X259.381 Y267.550
G01 X260.230 Y267.069
G01 X261.056 Y266.546
G01 X261.854 Y265.984
G01 X262.624 Y265.383
G01 X263.364 Y264.745
G01 X264.071 Y264.072
G01 X264.745 Y263.364
G01 X265.383 Y262.625
G01 X265.984 Y261.855
G01 X266.546 Y261.056
G01 X267.069 Y260.231
G01 X267.550 Y259.381
G01 X267.989 Y258.509
G01 X268.385 Y257.616
G01 X268.737 Y256.704
G01 X269.043 Y255.777
G01 X269.304 Y254.836
G01 X269.518 Y253.883
G01 X269.685 Y252.920
G01 X269.804 Y251.951
G01 X269.876 Y250.977
G01 X269.900 Y250.000
G01 X269.876 Y249.024
G01 X269.804 Y248.050
G01 X269.685 Y247.080
G01 X269.518 Y246.118
G01 X269.304 Y245.165
G01 X269.043 Y244.223
G01 X268.737 Y243.296
G01 X268.385 Y242.385
G01 X267.989 Y241.492
G01 X267.550 Y240.619
G01 X267.069 Y239.769
G01 X266.546 Y238.944
G01 X265.984 Y238.146
G01 X265.383 Y237.376
G01 X264.745 Y236.636
G01 X264.072 Y235.929
G01 X263.364 Y235.255
G01 X262.625 Y234.617
G01 X261.855 Y234.016
G01 X261.056 Y233.454
G01 X260.231 Y232.931
G01 X259.381 Y232.450
G01 X258.508 Y232.011
G01 X257.616 Y231.615
G01 X256.704 Y231.263
G01 X255.777 Y230.957
G01 X254.835 Y230.696
G01 X253.882 Y230.482
G01 X252.920 Y230.315
G01 X251.951 Y230.196
G01 X250.977 Y230.124
G01 X250.000 Y230.100
G01 X249.024 Y230.124
G01 X248.050 Y230.196
G01 X247.080 Y230.315
G01 X246.118 Y230.482
G01 X245.165 Y230.696
G01 X244.223 Y230.957
G01 X243.296 Y231.263
G01 X242.385 Y231.615
G01 X241.492 Y232.011
G01 X240.619 Y232.450
G01 X239.769 Y232.931
G01 X238.944 Y233.454
G01 X238.146 Y234.016
G01 X237.376 Y234.617
G01 X236.636 Y235.255
G01 X235.929 Y235.929
G01 X235.255 Y236.636
G01 X234.617 Y237.376
G01 X234.016 Y238.146
G01 X233.454 Y238.944
G01 X232.931 Y239.769
G01 X232.450 Y240.619
G01 X232.011 Y241.492
G01 X231.615 Y242.385
G01 X231.263 Y243.296
G01 X230.957 Y244.223
G01 X230.696 Y245.165
G01 X230.482 Y246.118
G01 X230.315 Y247.080
G01 X230.196 Y248.049
G01 X230.124 Y249.023
G01 X230.100 Y250.000
G01 X230.202 Y250.973
G01 X230.351 Y251.935
G01 X230.547 Y252.886
G01 X230.789 Y253.821
G01 X231.075 Y254.740
G01 X231.405 Y255.641
G01 X231.778 Y256.520
G01 X232.192 Y257.376
G01 X232.646 Y258.208
G01 X233.139 Y259.013
G01 X233.668 Y259.789
G01 X234.233 Y260.535
G01 X234.832 Y261.249
G01 X235.463 Y261.931
G01 X236.123 Y262.577
G01 X236.812 Y263.188
G01 X237.528 Y263.761
G01 X238.268 Y264.296
G01 X239.030 Y264.792
G01 X239.812 Y265.247
G01 X240.613 Y265.662
G01 X241.429 Y266.034
G01 X242.260 Y266.365
G01 X243.102 Y266.653
G01 X243.954 Y266.898
G01 X244.813 Y267.099
G01 X245.677 Y267.257
G01 X246.544 Y267.372
G01 X247.412 Y267.444
G01 X248.279 Y267.472
G01 X249.142 Y267.457
G01 X250.000 Y267.400
G01 X250.854 Y267.379
G01 X251.706 Y267.316
G01 X252.553 Y267.212
G01 X253.395 Y267.066
G01 X254.228 Y266.879
G01 X255.051 Y266.651
G01 X255.862 Y266.383
G01 X256.659 Y266.075
G01 X257.440 Y265.729
G01 X258.202 Y265.345
G01 X258.945 Y264.924
G01 X259.667 Y264.468
G01 X260.365 Y263.976
G01 X261.038 Y263.450
G01 X261.685 Y262.893
G01 X262.304 Y262.304
G01 X262.893 Y261.685
G01 X263.450 Y261.038
G01 X263.976 Y260.365
G01 X264.468 Y259.667
G01 X264.925 Y258.945
G01 X265.345 Y258.202
G01 X265.729 Y257.439
G01 X266.076 Y256.659
G01 X266.383 Y255.862
G01 X266.651 Y255.051
G01 X266.879 Y254.228
G01 X267.066 Y253.395
G01 X267.212 Y252.553
G01 X267.316 Y251.705
G01 X267.379 Y250.854
G01 X267.400 Y250.000
G01 X267.379 Y249.146
G01 X267.316 Y248.294
G01 X267.212 Y247.447
G01 X267.066 Y246.605
G01 X266.879 Y245.772
G01 X266.651 Y244.949
G01 X266.383 Y244.138
G01 X266.075 Y243.341
G01 X265.729 Y242.560
G01 X265.345 Y241.798
G01 X264.924 Y241.055
G01 X264.468 Y240.333
G01 X263.976 Y239.635
G01 X263.450 Y238.961
G01 X262.892 Y238.315
G01 X262.304 Y237.696
G01 X261.685 Y237.107
G01 X261.038 Y236.550
G01 X260.365 Y236.024
G01 X259.667 Y235.532
G01 X258.945 Y235.075
G01 X258.202 Y234.655
G01 X257.439 Y234.271
G01 X256.659 Y233.924
G01 X255.862 Y233.617
G01 X255.051 Y233.349
G01 X254.228 Y233.121
G01 X253.394 Y232.934
G01 X252.553 Y232.788
G01 X251.705 Y232.684
G01 X250.854 Y232.621
G01 X250.000 Y232.600
G01 X249.146 Y232.621
G01 X248.294 Y232.684
G01 X247.447 Y232.788
G01 X246.605 Y232.934
G01 X245.772 Y233.121
G01 X244.949 Y233.349
G01 X244.138 Y233.617
G01 X243.341 Y233.925
G01 X242.560 Y234.271
G01 X241.798 Y234.655
G01 X241.054 Y235.076
G01 X240.333 Y235.533
G01 X239.635 Y236.024
G01 X238.961 Y236.550
G01 X238.315 Y237.108
G01 X237.696 Y237.696
G01 X237.107 Y238.315
G01 X236.550 Y238.962
G01 X236.024 Y239.635
G01 X235.532 Y240.333
G01 X235.075 Y241.055
G01 X234.654 Y241.798
G01 X234.271 Y242.561
G01 X233.924 Y243.341
G01 X233.617 Y244.138
G01 X233.349 Y244.949
G01 X233.121 Y245.772
G01 X232.934 Y246.606
G01 X232.788 Y247.447
G01 X232.684 Y248.295
G01 X232.621 Y249.146
G01 X232.600 Y250.000
G01 X232.699 Y250.850
G01 X232.839 Y251.690
G01 X233.020 Y252.519
G01 X233.241 Y253.334
G01 X233.500 Y254.133
G01 X233.798 Y254.915
G01 X234.132 Y255.678
G01 X234.502 Y256.420
G01 X234.906 Y257.139
G01 X235.344 Y257.834
G01 X235.813 Y258.504
G01 X236.312 Y259.146
G01 X236.840 Y259.760
G01 X237.395 Y260.345
G01 X237.976 Y260.898
G01 X238.580 Y261.420
G01 X239.207 Y261.909
G01 X239.854 Y262.363
G01 X240.519 Y262.784
G01 X241.201 Y263.169
G01 X241.898 Y263.517
G01 X242.608 Y263.830
G01 X243.329 Y264.105
G01 X244.059 Y264.343
G01 X244.796 Y264.544
G01 X245.539 Y264.707
G01 X246.285 Y264.832
G01 X247.032 Y264.920
G01 X247.780 Y264.971
G01 X248.524 Y264.984
G01 X249.265 Y264.960
G01 X250.000 Y264.900
G01 X250.731 Y264.882
G01 X251.461 Y264.828
G01 X252.187 Y264.739
G01 X252.907 Y264.614
G01 X253.621 Y264.453
G01 X254.325 Y264.258
G01 X255.020 Y264.029
G01 X255.702 Y263.766
G01 X256.371 Y263.469
G01 X257.024 Y263.141
G01 X257.660 Y262.780
G01 X258.278 Y262.389
G01 X258.876 Y261.968
G01 X259.453 Y261.518
G01 X260.006 Y261.040
G01 X260.536 Y260.536
G01 X261.040 Y260.006
G01 X261.518 Y259.452
G01 X261.968 Y258.876
G01 X262.389 Y258.278
G01 X262.780 Y257.660
G01 X263.141 Y257.024
G01 X263.470 Y256.370
G01 X263.766 Y255.702
G01 X264.029 Y255.019
G01 X264.258 Y254.325
G01 X264.454 Y253.620
G01 X264.614 Y252.907
G01 X264.739 Y252.186
G01 X264.828 Y251.460
G01 X264.882 Y250.731
G01 X264.900 Y250.000
G01 X264.882 Y249.269
G01 X264.828 Y248.539
G01 X264.739 Y247.813
G01 X264.614 Y247.093
G01 X264.453 Y246.379
G01 X264.258 Y245.674
G01 X264.029 Y244.980
G01 X263.766 Y244.298
G01 X263.469 Y243.629
G01 X263.140 Y242.976
G01 X262.780 Y242.340
G01 X262.389 Y241.722
G01 X261.968 Y241.124
G01 X261.518 Y240.547
G01 X261.040 Y239.994
G01 X260.536 Y239.464
G01 X260.006 Y238.960
G01 X259.452 Y238.482
G01 X258.876 Y238.032
G01 X258.278 Y237.611
G01 X257.660 Y237.220
G01 X257.024 Y236.859
G01 X256.370 Y236.530
G01 X255.702 Y236.234
G01 X255.019 Y235.971
G01 X254.325 Y235.741
G01 X253.620 Y235.546
G01 X252.907 Y235.386
G01 X252.186 Y235.261
G01 X251.460 Y235.172
G01 X250.731 Y235.118
G01 X250.000 Y235.100
G01 X249.269 Y235.118
G01 X248.539 Y235.172
G01 X247.813 Y235.261
G01 X247.093 Y235.386
G01 X246.379 Y235.547
G01 X245.674 Y235.742
G01 X244.980 Y235.971
G01 X244.298 Y236.234
G01 X243.629 Y236.531
G01 X242.976 Y236.860
G01 X242.340 Y237.220
G01 X241.722 Y237.611
G01 X241.124 Y238.032
G01 X240.547 Y238.482
G01 X239.993 Y238.960
G01 X239.464 Y239.464
G01 X238.960 Y239.994
G01 X238.482 Y240.548
G01 X238.032 Y241.124
G01 X237.611 Y241.722
G01 X237.220 Y242.340
G01 X236.859 Y242.977
G01 X236.530 Y243.630
G01 X236.234 Y244.298
G01 X235.971 Y244.981
G01 X235.741 Y245.675
G01 X235.546 Y246.380
G01 X235.386 Y247.094
G01 X235.261 Y247.814
G01 X235.172 Y248.540
G01 X235.118 Y249.269
G01 X235.100 Y250.000
G01 X235.196 Y250.728
G01 X235.327 Y251.446
G01 X235.493 Y252.152
G01 X235.693 Y252.846
G01 X235.926 Y253.526
G01 X236.190 Y254.190
G01 X236.486 Y254.836
G01 X236.812 Y255.463
G01 X237.166 Y256.070
G01 X237.549 Y256.656
G01 X237.957 Y257.219
G01 X238.391 Y257.757
G01 X238.848 Y258.271
G01 X239.328 Y258.759
G01 X239.828 Y259.220
G01 X240.348 Y259.652
G01 X240.886 Y260.056
G01 X241.440 Y260.431
G01 X242.009 Y260.776
G01 X242.590 Y261.090
G01 X243.184 Y261.373
G01 X243.787 Y261.625
G01 X244.398 Y261.845
G01 X245.016 Y262.034
G01 X245.639 Y262.190
G01 X246.265 Y262.315
G01 X246.892 Y262.407
G01 X247.520 Y262.468
G01 X248.147 Y262.498
G01 X248.770 Y262.496
G01 X249.388 Y262.463
G01 X250.000 Y262.400
G01 X250.609 Y262.385
G01 X251.216 Y262.340
G01 X251.820 Y262.266
G01 X252.420 Y262.162
G01 X253.013 Y262.028
G01 X253.600 Y261.866
G01 X254.178 Y261.675
G01 X254.746 Y261.456
G01 X255.302 Y261.209
G01 X255.846 Y260.936
G01 X256.375 Y260.636
G01 X256.889 Y260.310
G01 X257.387 Y259.960
G01 X257.867 Y259.585
G01 X258.328 Y259.188
G01 X258.768 Y258.768
G01 X259.188 Y258.327
G01 X259.586 Y257.866
G01 X259.960 Y257.386
G01 X260.310 Y256.889
G01 X260.636 Y256.375
G01 X260.936 Y255.845
G01 X261.210 Y255.301
G01 X261.456 Y254.745
G01 X261.675 Y254.177
G01 X261.866 Y253.599
G01 X262.028 Y253.013
G01 X262.162 Y252.419
G01 X262.266 Y251.819
G01 X262.340 Y251.215
G01 X262.385 Y250.608
G01 X262.400 Y250.000
G01 X262.385 Y249.391
G01 X262.340 Y248.784
G01 X262.266 Y248.180
G01 X262.162 Y247.580
G01 X262.028 Y246.987
G01 X261.866 Y246.400
G01 X261.675 Y245.822
G01 X261.456 Y245.254
G01 X261.209 Y244.698
G01 X260.936 Y244.154
G01 X260.636 Y243.625
G01 X260.310 Y243.111
G01 X259.960 Y242.613
G01 X259.585 Y242.133
G01 X259.187 Y241.672
G01 X258.768 Y241.232
G01 X258.327 Y240.812
G01 X257.866 Y240.414
G01 X257.386 Y240.040
G01 X256.889 Y239.690
G01 X256.374 Y239.364
G01 X255.845 Y239.064
G01 X255.301 Y238.790
G01 X254.745 Y238.544
G01 X254.177 Y238.325
G01 X253.599 Y238.134
G01 X253.013 Y237.972
G01 X252.419 Y237.838
G01 X251.819 Y237.734
G01 X251.215 Y237.660
G01 X250.608 Y237.615
G01 X250.000 Y237.600
G01 X249.391 Y237.615
G01 X248.784 Y237.660
G01 X248.180 Y237.734
G01 X247.580 Y237.838
G01 X246.987 Y237.972
G01 X246.400 Y238.134
G01 X245.822 Y238.325
G01 X245.254 Y238.544
G01 X244.698 Y238.791
G01 X244.154 Y239.064
G01 X243.625 Y239.364
G01 X243.111 Y239.690
G01 X242.613 Y240.041
G01 X242.133 Y240.415
G01 X241.672 Y240.813
G01 X241.232 Y241.232
G01 X240.812 Y241.673
G01 X240.414 Y242.134
G01 X240.040 Y242.614
G01 X239.690 Y243.111
G01 X239.364 Y243.626
G01 X239.064 Y244.155
G01 X238.790 Y244.699
G01 X238.544 Y245.255
G01 X238.325 Y245.823
G01 X238.134 Y246.401
G01 X237.971 Y246.988
G01 X237.838 Y247.581
G01 X237.734 Y248.181
G01 X237.660 Y248.785
G01 X237.615 Y249.392
G01 X237.600 Y250.000
G01 X237.693 Y250.605
G01 X237.815 Y251.201
G01 X237.966 Y251.786
G01 X238.145 Y252.359
G01 X238.351 Y252.919
G01 X238.583 Y253.464
G01 X238.840 Y253.994
G01 X239.122 Y254.507
G01 X239.426 Y255.002
G01 X239.753 Y255.477
G01 X240.102 Y255.933
G01 X240.470 Y256.369
G01 X240.856 Y256.782
G01 X241.260 Y257.173
G01 X241.681 Y257.541
G01 X242.116 Y257.885
G01 X242.565 Y258.204
G01 X243.026 Y258.499
G01 X243.498 Y258.768
G01 X243.979 Y259.011
G01 X244.469 Y259.229
G01 X244.965 Y259.420
G01 X245.467 Y259.585
G01 X245.973 Y259.724
G01 X246.481 Y259.836
G01 X246.991 Y259.922
G01 X247.500 Y259.982
G01 X248.008 Y260.016
G01 X248.513 Y260.025
G01 X249.015 Y260.008
G01 X249.511 Y259.966
G01 X250.000 Y259.900
G01 X250.486 Y259.888
G01 X250.971 Y259.852
G01 X251.453 Y259.793
G01 X251.932 Y259.710
G01 X252.406 Y259.603
G01 X252.874 Y259.474
G01 X253.336 Y259.321
G01 X253.789 Y259.146
G01 X254.233 Y258.949
G01 X254.667 Y258.731
G01 X255.090 Y258.491
G01 X255.501 Y258.231
G01 X255.898 Y257.951
G01 X256.281 Y257.653
G01 X256.649 Y257.335
G01 X257.001 Y257.000
G01 X257.336 Y256.648
G01 X257.653 Y256.280
G01 X257.952 Y255.897
G01 X258.232 Y255.500
G01 X258.492 Y255.089
G01 X258.731 Y254.666
G01 X258.950 Y254.232
G01 X259.147 Y253.788
G01 X259.321 Y253.335
G01 X259.474 Y252.873
G01 X259.603 Y252.405
G01 X259.710 Y251.931
G01 X259.793 Y251.452
G01 X259.852 Y250.970
G01 X259.888 Y250.485
G01 X259.900 Y250.000
G01 X259.888 Y249.515
G01 X259.852 Y249.030
G01 X259.793 Y248.548
G01 X259.710 Y248.069
G01 X259.603 Y247.595
G01 X259.474 Y247.127
G01 X259.321 Y246.665
G01 X259.147 Y246.212
G01 X258.950 Y245.768
G01 X258.731 Y245.334
G01 X258.492 Y244.911
G01 X258.232 Y244.500
G01 X257.952 Y244.103
G01 X257.653 Y243.720
G01 X257.336 Y243.352
G01 X257.001 Y243.000
G01 X256.649 Y242.665
G01 X256.281 Y242.348
G01 X255.898 Y242.049
G01 X255.501 Y241.769
G01 X255.090 Y241.509
G01 X254.667 Y241.269
G01 X254.233 Y241.051
G01 X253.789 Y240.854
G01 X253.336 Y240.679
G01 X252.874 Y240.526
G01 X252.406 Y240.397
G01 X251.932 Y240.290
G01 X251.453 Y240.207
G01 X250.971 Y240.148
G01 X250.486 Y240.112
G01 X250.000 Y240.100
G01 X249.515 Y240.112
G01 X249.030 Y240.148
G01 X248.548 Y240.207
G01 X248.069 Y240.290
G01 X247.595 Y240.397
G01 X247.127 Y240.526
G01 X246.665 Y240.679
G01 X246.212 Y240.853
G01 X245.768 Y241.050
G01 X245.334 Y241.269
G01 X244.911 Y241.508
G01 X244.500 Y241.768
G01 X244.103 Y242.048
G01 X243.720 Y242.347
G01 X243.352 Y242.664
G01 X243.000 Y242.999
G01 X242.665 Y243.351
G01 X242.347 Y243.719
G01 X242.049 Y244.102
G01 X241.769 Y244.499
G01 X241.509 Y244.910
G01 X241.269 Y245.333
G01 X241.051 Y245.767
G01 X240.854 Y246.211
G01 X240.679 Y246.664
G01 X240.526 Y247.126
G01 X240.397 Y247.594
G01 X240.290 Y248.068
G01 X240.207 Y248.547
G01 X240.148 Y249.029
G01 X240.112 Y249.514
G01 X240.100 Y250.000
G01 X240.190 Y250.482
G01 X240.303 Y250.955
G01 X240.439 Y251.418
G01 X240.597 Y251.870
G01 X240.776 Y252.310
G01 X240.975 Y252.737
G01 X241.193 Y253.151
G01 X241.431 Y253.549
G01 X241.686 Y253.932
G01 X241.958 Y254.298
G01 X242.245 Y254.647
G01 X242.548 Y254.979
G01 X242.864 Y255.292
G01 X243.192 Y255.586
G01 X243.533 Y255.861
G01 X243.883 Y256.116
G01 X244.243 Y256.351
G01 X244.611 Y256.566
G01 X244.987 Y256.759
G01 X245.368 Y256.932
G01 X245.754 Y257.084
G01 X246.143 Y257.215
G01 X246.535 Y257.325
G01 X246.929 Y257.414
G01 X247.322 Y257.482
G01 X247.716 Y257.530
G01 X248.107 Y257.557
G01 X248.495 Y257.564
G01 X248.879 Y257.552
G01 X249.259 Y257.520
G01 X249.633 Y257.469
G01 X250.000 Y257.400
G01 X250.363 Y257.391
G01 X250.725 Y257.364
G01 X251.086 Y257.320
G01 X251.443 Y257.258
G01 X251.798 Y257.178
G01 X252.148 Y257.081
G01 X252.493 Y256.968
G01 X252.832 Y256.837
G01 X253.164 Y256.690
G01 X253.488 Y256.526
G01 X253.804 Y256.347
G01 X254.111 Y256.153
G01 X254.408 Y255.944
G01 X254.694 Y255.720
G01 X254.969 Y255.483
G01 X255.232 Y255.233
G01 X255.483 Y254.970
G01 X255.720 Y254.695
G01 X255.944 Y254.408
G01 X256.153 Y254.111
G01 X256.347 Y253.805
G01 X256.526 Y253.489
G01 X256.689 Y253.164
G01 X256.837 Y252.832
G01 X256.967 Y252.493
G01 X257.081 Y252.148
G01 X257.178 Y251.798
G01 X257.258 Y251.444
G01 X257.320 Y251.086
G01 X257.364 Y250.726
G01 X257.391 Y250.363
G01 X257.400 Y250.000
G01 X257.391 Y249.637
G01 X257.364 Y249.275
G01 X257.320 Y248.914
G01 X257.258 Y248.557
G01 X257.178 Y248.202
G01 X257.081 Y247.852
G01 X256.968 Y247.507
G01 X256.837 Y247.168
G01 X256.690 Y246.836
G01 X256.526 Y246.512
G01 X256.347 Y246.196
G01 X256.153 Y245.889
G01 X255.944 Y245.592
G01 X255.720 Y245.306
G01 X255.483 Y245.031
G01 X255.233 Y244.768
G01 X254.970 Y244.517
G01 X254.695 Y244.280
G01 X254.408 Y244.056
G01 X254.111 Y243.847
G01 X253.805 Y243.653
G01 X253.489 Y243.474
G01 X253.164 Y243.311
G01 X252.832 Y243.163
G01 X252.493 Y243.033
G01 X252.148 Y242.919
G01 X251.798 Y242.822
G01 X251.444 Y242.742
G01 X251.086 Y242.680
G01 X250.726 Y242.636
G01 X250.363 Y242.609
G01 X250.000 Y242.600
G01 X249.637 Y242.609
G01 X249.275 Y242.636
G01 X248.914 Y242.680
G01 X248.557 Y242.742
G01 X248.202 Y242.822
G01 X247.852 Y242.919
G01 X247.507 Y243.032
G01 X247.168 Y243.163
G01 X246.836 Y243.310
G01 X246.512 Y243.474
G01 X246.196 Y243.653
G01 X245.889 Y243.847
G01 X245.592 Y244.056
G01 X245.306 Y244.280
G01 X245.031 Y244.517
G01 X244.768 Y244.767
G01 X244.517 Y245.030
G01 X244.280 Y245.305
G01 X244.056 Y245.592
G01 X243.847 Y245.889
G01 X243.653 Y246.195
G01 X243.474 Y246.511
G01 X243.311 Y246.836
G01 X243.163 Y247.168
G01 X243.033 Y247.507
G01 X242.919 Y247.852
G01 X242.822 Y248.202
G01 X242.742 Y248.556
G01 X242.680 Y248.914
G01 X242.636 Y249.274
G01 X242.609 Y249.637
G01 X242.600 Y250.000
G01 X242.687 Y250.359
G01 X242.791 Y250.710
G01 X242.912 Y251.051
G01 X243.049 Y251.383
G01 X243.201 Y251.703
G01 X243.367 Y252.012
G01 X243.547 Y252.309
G01 X243.741 Y252.593
G01 X243.946 Y252.863
G01 X244.163 Y253.120
G01 X244.390 Y253.362
G01 X244.627 Y253.590
G01 X244.872 Y253.803
G01 X245.125 Y254.001
G01 X245.385 Y254.182
G01 X245.651 Y254.349
G01 X245.922 Y254.499
G01 X246.197 Y254.633
G01 X246.476 Y254.751
G01 X246.757 Y254.854
G01 X247.039 Y254.940
G01 X247.322 Y255.010
G01 X247.604 Y255.065
G01 X247.886 Y255.104
G01 X248.165 Y255.128
G01 X248.441 Y255.138
G01 X248.714 Y255.132
G01 X248.983 Y255.112
G01 X249.246 Y255.079
G01 X249.504 Y255.032
G01 X249.756 Y254.972
G01 X250.000 Y254.900
G01 X250.240 Y254.894
G01 X250.480 Y254.876
G01 X250.719 Y254.847
G01 X250.956 Y254.806
G01 X251.190 Y254.753
G01 X251.422 Y254.689
G01 X251.651 Y254.614
G01 X251.875 Y254.527
G01 X252.095 Y254.430
G01 X252.310 Y254.321
G01 X252.519 Y254.203
G01 X252.722 Y254.074
G01 X252.919 Y253.936
G01 X253.108 Y253.788
G01 X253.291 Y253.631
G01 X253.465 Y253.465
G01 X253.631 Y253.291
G01 X253.788 Y253.109
G01 X253.936 Y252.919
G01 X254.074 Y252.722
G01 X254.203 Y252.519
G01 X254.321 Y252.310
G01 X254.429 Y252.095
G01 X254.527 Y251.875
G01 X254.614 Y251.651
G01 X254.689 Y251.423
G01 X254.753 Y251.191
G01 X254.806 Y250.956
G01 X254.847 Y250.719
G01 X254.876 Y250.480
G01 X254.894 Y250.241
G01 X254.900 Y250.000
G01 X254.894 Y249.760
G01 X254.876 Y249.520
G01 X254.847 Y249.281
G01 X254.806 Y249.044
G01 X254.753 Y248.809
G01 X254.689 Y248.578
G01 X254.614 Y248.349
G01 X254.527 Y248.125
G01 X254.430 Y247.905
G01 X254.321 Y247.690
G01 X254.203 Y247.481
G01 X254.074 Y247.278
G01 X253.936 Y247.081
G01 X253.788 Y246.892
G01 X253.631 Y246.709
G01 X253.465 Y246.535
G01 X253.291 Y246.369
G01 X253.109 Y246.212
G01 X252.919 Y246.064
G01 X252.722 Y245.926
G01 X252.519 Y245.797
G01 X252.310 Y245.679
G01 X252.095 Y245.570
G01 X251.875 Y245.473
G01 X251.651 Y245.386
G01 X251.422 Y245.311
G01 X251.191 Y245.247
G01 X250.956 Y245.194
G01 X250.719 Y245.153
G01 X250.480 Y245.124
G01 X250.241 Y245.106
G01 X250.000 Y245.100
G01 X249.760 Y245.106
G01 X249.520 Y245.124
G01 X249.281 Y245.153
G01 X249.044 Y245.194
G01 X248.809 Y245.247
G01 X248.578 Y245.311
G01 X248.349 Y245.386
G01 X248.125 Y245.473
G01 X247.905 Y245.570
G01 X247.690 Y245.679
G01 X247.481 Y245.797
G01 X247.278 Y245.926
G01 X247.081 Y246.064
G01 X246.892 Y246.212
G01 X246.709 Y246.369
G01 X246.535 Y246.535
G01 X246.369 Y246.709
G01 X246.212 Y246.891
G01 X246.064 Y247.081
G01 X245.926 Y247.278
G01 X245.797 Y247.481
G01 X245.679 Y247.690
G01 X245.570 Y247.905
G01 X245.473 Y248.125
G01 X245.386 Y248.349
G01 X245.311 Y248.578
G01 X245.247 Y248.809
G01 X245.194 Y249.044
G01 X245.153 Y249.281
G01 X245.124 Y249.520
G01 X245.106 Y249.759
G01 X245.100 Y250.000
G01 X245.184 Y250.237
G01 X245.279 Y250.465
G01 X245.385 Y250.685
G01 X245.501 Y250.895
G01 X245.626 Y251.096
G01 X245.760 Y251.286
G01 X245.901 Y251.466
G01 X246.050 Y251.636
G01 X246.206 Y251.794
G01 X246.368 Y251.942
G01 X246.534 Y252.077
G01 X246.705 Y252.201
G01 X246.880 Y252.314
G01 X247.058 Y252.415
G01 X247.238 Y252.504
G01 X247.419 Y252.581
G01 X247.601 Y252.647
G01 X247.784 Y252.701
G01 X247.965 Y252.743
G01 X248.146 Y252.775
G01 X248.324 Y252.796
G01 X248.500 Y252.806
G01 X248.673 Y252.805
G01 X248.842 Y252.795
G01 X249.007 Y252.775
G01 X249.167 Y252.745
G01 X249.322 Y252.707
G01 X249.471 Y252.660
G01 X249.613 Y252.606
G01 X249.749 Y252.544
G01 X249.878 Y252.475
G01 X250.000 Y252.400
G01 X250.118 Y252.397
G01 X250.235 Y252.388
G01 X250.352 Y252.374
G01 X250.468 Y252.354
G01 X250.583 Y252.328
G01 X250.697 Y252.297
G01 X250.809 Y252.260
G01 X250.918 Y252.217
G01 X251.026 Y252.170
G01 X251.131 Y252.117
G01 X251.234 Y252.059
G01 X251.333 Y251.996
G01 X251.430 Y251.928
G01 X251.523 Y251.855
G01 X251.612 Y251.778
G01 X251.697 Y251.697
G01 X251.778 Y251.612
G01 X251.855 Y251.523
G01 X251.928 Y251.430
G01 X251.996 Y251.333
G01 X252.059 Y251.234
G01 X252.117 Y251.131
G01 X252.170 Y251.026
G01 X252.217 Y250.918
G01 X252.260 Y250.809
G01 X252.297 Y250.697
G01 X252.328 Y250.583
G01 X252.354 Y250.468
G01 X252.374 Y250.352
G01 X252.388 Y250.235
G01 X252.397 Y250.118
G01 X252.400 Y250.000
G01 X252.397 Y249.882
G01 X252.388 Y249.765
G01 X252.374 Y249.648
G01 X252.354 Y249.532
G01 X252.328 Y249.417
G01 X252.297 Y249.303
G01 X252.260 Y249.191
G01 X252.217 Y249.082
G01 X252.170 Y248.974
G01 X252.117 Y248.869
G01 X252.059 Y248.766
G01 X251.996 Y248.667
G01 X251.928 Y248.570
G01 X251.855 Y248.477
G01 X251.778 Y248.388
G01 X251.697 Y248.303
G01 X251.612 Y248.222
G01 X251.523 Y248.145
G01 X251.430 Y248.072
G01 X251.333 Y248.004
G01 X251.234 Y247.941
G01 X251.131 Y247.883
G01 X251.026 Y247.830
G01 X250.918 Y247.783
G01 X250.809 Y247.740
G01 X250.697 Y247.703
G01 X250.583 Y247.672
G01 X250.468 Y247.646
G01 X250.352 Y247.626
G01 X250.235 Y247.612
G01 X250.118 Y247.603
G01 X250.000 Y247.600
G01 X249.882 Y247.603
G01 X249.765 Y247.612
G01 X249.648 Y247.626
G01 X249.532 Y247.646
G01 X249.417 Y247.672
G01 X249.303 Y247.703
G01 X249.191 Y247.740
G01 X249.082 Y247.783
G01 X248.974 Y247.830
G01 X248.869 Y247.883
G01 X248.766 Y247.941
G01 X248.667 Y248.004
G01 X248.570 Y248.072
G01 X248.477 Y248.145
G01 X248.388 Y248.222
G01 X248.303 Y248.303
G01 X248.222 Y248.388
G01 X248.145 Y248.477
G01 X248.072 Y248.570
G01 X248.004 Y248.667
G01 X247.941 Y248.766
G01 X247.883 Y248.869
G01 X247.830 Y248.974
G01 X247.783 Y249.082
G01 X247.740 Y249.191
G01 X247.703 Y249.303
G01 X247.672 Y249.417
G01 X247.646 Y249.532
G01 X247.626 Y249.648
G01 X247.612 Y249.765
G01 X247.603 Y249.882
G01 X247.600 Y250.000

