;  Created by Sandify
;  https://sandify.org
;  Version: 0.2.6
;
;  Machine type: Rectangular
;    Min X (mm): 0
;    Max X (mm): 500
;    Min Y (mm): 0
;    Max Y (mm): 500
;  Content type: shape
;  Layer:
;    Shape: FileImport
;    Name: maze12download.thr
;    From file:: maze12download.thr
;    Aspect Ratio: true
;    Comments: 
;    Visible: true
;    Initial width: 10
;    Initial height: 10
;    X offset: 0
;    Y offset: 0
;    Rotate (degrees): 180
;    Reverse path: false
;    Fine tuning:
;      Connect to next layer: line
;      Draw portion of path (%): 100
;      Backtrack at end (%): 0
;      Rotate starting point (%): 0
;  Reverse export path: false
;
; File name: 'Maze2 (S S)'
; File type: gcode
;

G01 X143.484 Y23.827
G01 X143.085 Y24.225
G01 X142.687 Y24.623
G01 X142.289 Y24.623
G01 X141.891 Y25.021
G01 X141.493 Y25.021
G01 X141.094 Y25.420
G01 X140.696 Y25.420
G01 X140.298 Y25.420
G01 X139.900 Y25.818
G01 X139.502 Y25.818
G01 X139.104 Y26.216
G01 X138.705 Y26.216
G01 X138.307 Y26.614
G01 X137.909 Y27.012
G01 X137.511 Y27.012
G01 X137.113 Y27.012
G01 X136.714 Y27.411
G01 X136.316 Y27.411
G01 X135.918 Y27.809
G01 X135.520 Y27.809
G01 X135.122 Y28.207
G01 X134.723 Y28.207
G01 X134.325 Y28.605
G01 X133.927 Y28.605
G01 X133.529 Y29.003
G01 X133.131 Y29.402
G01 X132.732 Y29.402
G01 X132.334 Y29.800
G01 X131.936 Y29.800
G01 X131.538 Y30.198
G01 X131.140 Y30.198
G01 X130.741 Y30.596
G01 X130.343 Y30.596
G01 X129.945 Y30.994
G01 X129.547 Y30.994
G01 X129.149 Y31.393
G01 X128.751 Y31.791
G01 X128.352 Y31.791
G01 X127.954 Y32.189
G01 X127.556 Y32.189
G01 X127.158 Y32.587
G01 X126.760 Y32.587
G01 X126.361 Y32.985
G01 X125.963 Y32.985
G01 X125.565 Y33.384
G01 X125.167 Y33.782
G01 X124.769 Y33.782
G01 X124.370 Y34.180
G01 X123.972 Y34.180
G01 X123.574 Y34.578
G01 X123.176 Y34.976
G01 X122.778 Y34.976
G01 X122.379 Y35.374
G01 X121.981 Y35.374
G01 X121.583 Y35.773
G01 X121.185 Y36.171
G01 X120.787 Y36.171
G01 X120.388 Y36.569
G01 X119.990 Y36.569
G01 X119.592 Y36.967
G01 X119.194 Y36.967
G01 X118.796 Y37.365
G01 X118.398 Y37.764
G01 X117.999 Y37.764
G01 X117.601 Y38.162
G01 X117.203 Y38.560
G01 X116.805 Y38.560
G01 X116.407 Y38.958
G01 X116.008 Y39.356
G01 X115.610 Y39.356
G01 X115.212 Y39.755
G01 X114.814 Y39.755
G01 X114.416 Y40.153
G01 X114.017 Y40.551
G01 X113.619 Y40.551
G01 X113.221 Y40.949
G01 X112.823 Y41.347
G01 X112.425 Y41.746
G01 X112.026 Y42.144
G01 X112.026 Y42.542
G01 X112.026 Y42.940
G01 X111.628 Y42.940
G01 X111.230 Y42.940
G01 X110.832 Y42.940
G01 X110.434 Y43.338
G01 X110.035 Y43.338
G01 X109.637 Y43.338
G01 X109.239 Y43.737
G01 X108.841 Y44.135
G01 X108.443 Y44.135
G01 X108.045 Y44.533
G01 X107.646 Y44.931
G01 X107.248 Y44.931
G01 X106.850 Y45.329
G01 X106.452 Y45.727
G01 X106.054 Y45.727
G01 X105.655 Y46.126
G01 X105.257 Y46.524
G01 X104.859 Y46.524
G01 X104.461 Y46.922
G01 X104.063 Y47.320
G01 X103.664 Y47.718
G01 X103.266 Y47.718
G01 X102.868 Y48.117
G01 X102.470 Y48.515
G01 X102.072 Y48.515
G01 X101.673 Y48.913
G01 X101.275 Y49.311
G01 X100.877 Y49.709
G01 X100.479 Y49.709
G01 X100.081 Y50.108
G01 X99.683 Y50.506
G01 X99.284 Y50.904
G01 X98.886 Y51.302
G01 X98.488 Y51.302
G01 X98.090 Y51.700
G01 X97.692 Y52.099
G01 X97.293 Y52.497
G01 X96.895 Y52.497
G01 X96.497 Y52.895
G01 X96.099 Y53.293
G01 X95.701 Y53.691
G01 X95.302 Y54.090
G01 X94.904 Y54.090
G01 X94.506 Y54.488
G01 X94.108 Y54.886
G01 X93.710 Y55.284
G01 X93.311 Y55.284
G01 X92.913 Y55.682
G01 X92.515 Y56.080
G01 X92.117 Y56.479
G01 X91.719 Y56.877
G01 X91.320 Y56.877
G01 X90.922 Y57.275
G01 X90.524 Y57.673
G01 X90.126 Y58.071
G01 X89.728 Y58.470
G01 X89.330 Y58.868
G01 X88.931 Y59.266
G01 X88.533 Y59.266
G01 X88.135 Y59.664
G01 X87.737 Y60.062
G01 X87.339 Y60.461
G01 X86.940 Y60.859
G01 X86.542 Y61.257
G01 X86.144 Y61.655
G01 X85.746 Y61.655
G01 X85.348 Y62.053
G01 X84.949 Y62.452
G01 X84.551 Y62.850
G01 X84.153 Y63.248
G01 X83.755 Y63.646
G01 X83.357 Y64.044
G01 X82.958 Y64.443
G01 X82.560 Y64.443
G01 X82.162 Y64.841
G01 X81.764 Y65.239
G01 X81.366 Y65.637
G01 X80.967 Y66.035
G01 X80.569 Y66.433
G01 X80.171 Y66.832
G01 X79.773 Y67.230
G01 X79.375 Y67.628
G01 X78.977 Y68.026
G01 X78.578 Y68.424
G01 X78.180 Y68.823
G01 X77.782 Y69.221
G01 X77.384 Y69.619
G01 X76.986 Y70.017
G01 X76.587 Y70.415
G01 X76.189 Y70.814
G01 X75.791 Y71.212
G01 X75.393 Y71.610
G01 X74.995 Y72.008
G01 X74.596 Y72.406
G01 X74.198 Y72.805
G01 X73.800 Y73.203
G01 X73.402 Y73.601
G01 X73.004 Y73.999
G01 X72.605 Y74.397
G01 X72.207 Y74.795
G01 X71.809 Y75.194
G01 X71.411 Y75.592
G01 X71.013 Y75.990
G01 X71.013 Y76.388
G01 X70.614 Y76.786
G01 X70.216 Y77.185
G01 X69.818 Y77.583
G01 X69.420 Y77.981
G01 X69.022 Y78.379
G01 X68.624 Y78.777
G01 X68.225 Y79.176
G01 X67.827 Y79.574
G01 X67.429 Y79.972
G01 X67.031 Y80.370
G01 X66.633 Y80.768
G01 X66.234 Y81.167
G01 X65.836 Y81.565
G01 X65.438 Y81.963
G01 X65.438 Y82.361
G01 X65.040 Y82.759
G01 X64.642 Y83.158
G01 X64.243 Y83.556
G01 X63.845 Y83.954
G01 X63.447 Y84.352
G01 X63.049 Y84.750
G01 X62.651 Y85.148
G01 X62.651 Y85.547
G01 X62.252 Y85.945
G01 X61.854 Y86.343
G01 X61.456 Y86.741
G01 X61.058 Y87.139
G01 X60.660 Y87.538
G01 X60.261 Y87.936
G01 X59.863 Y88.334
G01 X59.465 Y88.732
G01 X59.465 Y89.130
G01 X59.067 Y89.529
G01 X58.669 Y89.927
G01 X58.271 Y90.325
G01 X57.872 Y90.723
G01 X57.474 Y91.121
G01 X57.474 Y91.520
G01 X57.076 Y91.918
G01 X56.678 Y92.316
G01 X56.280 Y92.714
G01 X55.881 Y93.112
G01 X55.881 Y93.511
G01 X55.483 Y93.909
G01 X55.085 Y94.307
G01 X54.687 Y94.705
G01 X54.687 Y95.103
G01 X54.289 Y95.501
G01 X53.890 Y95.900
G01 X53.492 Y96.298
G01 X53.094 Y96.696
G01 X53.094 Y97.094
G01 X52.696 Y97.492
G01 X52.298 Y97.891
G01 X51.899 Y98.289
G01 X51.899 Y98.687
G01 X51.501 Y99.085
G01 X51.103 Y99.483
G01 X50.705 Y99.882
G01 X50.307 Y100.280
G01 X50.307 Y100.678
G01 X49.908 Y101.076
G01 X49.510 Y101.474
G01 X49.112 Y101.873
G01 X49.112 Y102.271
G01 X48.714 Y102.669
G01 X48.316 Y103.067
G01 X48.316 Y103.465
G01 X47.918 Y103.864
G01 X47.519 Y104.262
G01 X47.121 Y104.660
G01 X47.121 Y105.058
G01 X46.723 Y105.456
G01 X46.325 Y105.854
G01 X46.325 Y106.253
G01 X45.927 Y106.651
G01 X45.528 Y107.049
G01 X45.130 Y107.447
G01 X45.130 Y107.845
G01 X44.732 Y108.244
G01 X44.334 Y108.642
G01 X44.334 Y109.040
G01 X43.936 Y109.438
G01 X43.537 Y109.836
G01 X43.537 Y110.235
G01 X43.139 Y110.633
G01 X42.741 Y111.031
G01 X42.741 Y111.429
G01 X42.343 Y111.827
G01 X41.945 Y112.226
G01 X41.945 Y112.624
G01 X41.546 Y113.022
G01 X41.148 Y113.420
G01 X41.148 Y113.818
G01 X40.750 Y114.217
G01 X40.352 Y114.615
G01 X40.352 Y115.013
G01 X39.954 Y115.411
G01 X39.556 Y115.809
G01 X39.556 Y116.207
G01 X39.157 Y116.606
G01 X38.759 Y117.004
G01 X38.759 Y117.402
G01 X38.361 Y117.800
G01 X38.361 Y118.198
G01 X37.963 Y118.597
G01 X37.565 Y118.995
G01 X37.565 Y119.393
G01 X37.166 Y119.791
G01 X37.166 Y120.189
G01 X36.768 Y120.588
G01 X36.370 Y120.986
G01 X36.370 Y121.384
G01 X35.972 Y121.782
G01 X35.972 Y122.180
G01 X35.574 Y122.579
G01 X35.175 Y122.977
G01 X35.175 Y123.375
G01 X34.777 Y123.773
G01 X34.777 Y124.171
G01 X34.379 Y124.570
G01 X34.379 Y124.968
G01 X33.981 Y125.366
G01 X33.583 Y125.764
G01 X33.583 Y126.162
G01 X33.184 Y126.560
G01 X33.184 Y126.959
G01 X32.786 Y127.357
G01 X32.388 Y127.755
G01 X32.388 Y128.153
G01 X31.990 Y128.551
G01 X31.990 Y128.950
G01 X31.592 Y129.348
G01 X31.592 Y129.746
G01 X31.193 Y130.144
G01 X31.193 Y130.542
G01 X30.795 Y130.941
G01 X30.795 Y131.339
G01 X30.397 Y131.737
G01 X29.999 Y132.135
G01 X29.999 Y132.533
G01 X29.601 Y132.932
G01 X29.601 Y133.330
G01 X29.203 Y133.728
G01 X29.203 Y134.126
G01 X28.804 Y134.524
G01 X28.804 Y134.922
G01 X28.406 Y135.321
G01 X28.406 Y135.719
G01 X28.008 Y136.117
G01 X28.008 Y136.515
G01 X27.610 Y136.913
G01 X27.610 Y137.312
G01 X27.212 Y137.710
G01 X27.212 Y138.108
G01 X26.813 Y138.506
G01 X26.813 Y138.904
G01 X26.415 Y139.303
G01 X26.415 Y139.701
G01 X26.017 Y140.099
G01 X26.017 Y140.497
G01 X25.619 Y140.895
G01 X25.619 Y141.294
G01 X25.221 Y141.692
G01 X25.221 Y142.090
G01 X24.822 Y142.488
G01 X24.822 Y142.886
G01 X24.424 Y143.285
G01 X24.424 Y143.683
G01 X24.026 Y144.081
G01 X24.026 Y144.479
G01 X23.628 Y144.877
G01 X23.628 Y145.275
G01 X23.628 Y145.674
G01 X23.230 Y146.072
G01 X23.230 Y146.470
G01 X22.831 Y146.868
G01 X22.831 Y147.266
G01 X22.433 Y147.665
G01 X22.433 Y148.063
G01 X22.035 Y148.461
G01 X22.035 Y148.859
G01 X22.035 Y149.257
G01 X21.637 Y149.656
G01 X21.637 Y150.054
G01 X21.239 Y150.452
G01 X21.239 Y150.850
G01 X20.840 Y151.248
G01 X20.840 Y151.647
G01 X20.840 Y152.045
G01 X20.442 Y152.443
G01 X20.442 Y152.841
G01 X20.044 Y153.239
G01 X20.044 Y153.638
G01 X19.646 Y154.036
G01 X19.646 Y154.434
G01 X19.646 Y154.832
G01 X19.248 Y155.230
G01 X19.248 Y155.628
G01 X18.850 Y156.027
G01 X18.850 Y156.425
G01 X18.850 Y156.823
G01 X18.451 Y157.221
G01 X18.451 Y157.619
G01 X18.053 Y158.018
G01 X18.053 Y158.416
G01 X18.053 Y158.814
G01 X17.655 Y159.212
G01 X17.655 Y159.610
G01 X17.257 Y160.009
G01 X17.257 Y160.407
G01 X17.257 Y160.805
G01 X16.859 Y161.203
G01 X16.859 Y161.601
G01 X16.859 Y162.000
G01 X16.460 Y162.398
G01 X16.460 Y162.796
G01 X16.062 Y163.194
G01 X16.062 Y163.592
G01 X15.664 Y163.991
G01 X15.664 Y164.389
G01 X15.664 Y164.787
G01 X15.266 Y165.185
G01 X15.266 Y165.583
G01 X15.266 Y165.981
G01 X14.868 Y166.380
G01 X14.868 Y166.778
G01 X14.868 Y167.176
G01 X14.469 Y167.574
G01 X14.469 Y167.972
G01 X14.469 Y168.371
G01 X14.071 Y168.769
G01 X14.071 Y169.167
G01 X14.071 Y169.565
G01 X13.673 Y169.963
G01 X13.673 Y170.362
G01 X13.673 Y170.760
G01 X13.275 Y171.158
G01 X13.275 Y171.556
G01 X13.275 Y171.954
G01 X12.877 Y172.353
G01 X12.877 Y172.751
G01 X12.877 Y173.149
G01 X12.478 Y173.547
G01 X12.478 Y173.945
G01 X12.478 Y174.344
G01 X12.080 Y174.742
G01 X12.080 Y175.140
G01 X12.080 Y175.538
G01 X11.682 Y175.936
G01 X11.682 Y176.334
G01 X11.682 Y176.733
G01 X11.682 Y177.131
G01 X11.682 Y177.529
G01 X11.284 Y177.927
G01 X11.284 Y178.325
G01 X10.886 Y178.724
G01 X10.886 Y179.122
G01 X10.886 Y179.520
G01 X10.487 Y179.918
G01 X10.487 Y180.316
G01 X10.487 Y180.715
G01 X10.089 Y181.113
G01 X10.089 Y181.511
G01 X10.089 Y181.909
G01 X10.089 Y182.307
G01 X9.691 Y182.706
G01 X9.691 Y183.104
G01 X9.691 Y183.502
G01 X9.293 Y183.900
G01 X9.293 Y184.298
G01 X9.293 Y184.697
G01 X9.293 Y185.095
G01 X8.895 Y185.493
G01 X8.895 Y185.891
G01 X8.895 Y186.289
G01 X8.895 Y186.687
G01 X8.497 Y187.086
G01 X8.497 Y187.484
G01 X8.497 Y187.882
G01 X8.098 Y188.280
G01 X8.098 Y188.678
G01 X8.098 Y189.077
G01 X8.098 Y189.475
G01 X7.700 Y189.873
G01 X7.700 Y190.271
G01 X7.700 Y190.669
G01 X7.700 Y191.068
G01 X7.302 Y191.466
G01 X7.302 Y191.864
G01 X7.302 Y192.262
G01 X7.302 Y192.660
G01 X7.302 Y193.059
G01 X6.904 Y193.457
G01 X6.904 Y193.855
G01 X6.904 Y194.253
G01 X6.904 Y194.651
G01 X6.506 Y195.049
G01 X6.506 Y195.448
G01 X6.506 Y195.846
G01 X6.506 Y196.244
G01 X6.107 Y196.642
G01 X6.107 Y197.040
G01 X6.107 Y197.439
G01 X6.107 Y197.837
G01 X6.107 Y198.235
G01 X5.709 Y198.633
G01 X5.709 Y199.031
G01 X5.709 Y199.430
G01 X5.709 Y199.828
G01 X5.709 Y200.226
G01 X5.311 Y200.624
G01 X5.311 Y201.022
G01 X5.311 Y201.421
G01 X5.311 Y201.819
G01 X5.311 Y202.217
G01 X4.913 Y202.615
G01 X4.913 Y203.013
G01 X4.913 Y203.412
G01 X4.913 Y203.810
G01 X4.913 Y204.208
G01 X4.515 Y204.606
G01 X4.515 Y205.004
G01 X4.515 Y205.402
G01 X4.515 Y205.801
G01 X4.515 Y206.199
G01 X4.515 Y206.597
G01 X4.116 Y206.995
G01 X4.116 Y207.393
G01 X4.116 Y207.792
G01 X4.116 Y208.190
G01 X4.116 Y208.588
G01 X4.116 Y208.986
G01 X3.718 Y209.384
G01 X3.718 Y209.783
G01 X3.718 Y210.181
G01 X3.718 Y210.579
G01 X3.718 Y210.977
G01 X3.718 Y211.375
G01 X3.320 Y211.774
G01 X3.320 Y212.172
G01 X3.320 Y212.570
G01 X3.320 Y212.968
G01 X3.320 Y213.366
G01 X3.320 Y213.765
G01 X2.922 Y214.163
G01 X2.922 Y214.561
G01 X2.922 Y214.959
G01 X2.922 Y215.357
G01 X2.922 Y215.755
G01 X2.922 Y216.154
G01 X2.922 Y216.552
G01 X2.524 Y216.950
G01 X2.524 Y217.348
G01 X2.524 Y217.746
G01 X2.524 Y218.145
G01 X2.524 Y218.543
G01 X2.524 Y218.941
G01 X2.524 Y219.339
G01 X2.524 Y219.737
G01 X2.125 Y220.136
G01 X2.125 Y220.534
G01 X2.125 Y220.932
G01 X2.125 Y221.330
G01 X2.125 Y221.728
G01 X2.125 Y222.127
G01 X2.125 Y222.525
G01 X2.125 Y222.923
G01 X2.125 Y223.321
G01 X1.727 Y223.719
G01 X1.727 Y224.118
G01 X1.727 Y224.516
G01 X1.727 Y224.914
G01 X1.727 Y225.312
G01 X1.727 Y225.710
G01 X1.727 Y226.108
G01 X1.727 Y226.507
G01 X1.727 Y226.905
G01 X1.727 Y227.303
G01 X1.329 Y227.701
G01 X1.329 Y228.099
G01 X1.329 Y228.498
G01 X1.329 Y228.896
G01 X1.329 Y229.294
G01 X1.329 Y229.692
G01 X1.329 Y230.090
G01 X1.329 Y230.489
G01 X1.329 Y230.887
G01 X1.329 Y231.285
G01 X1.329 Y231.683
G01 X1.329 Y232.081
G01 X0.931 Y232.480
G01 X0.931 Y232.878
G01 X0.931 Y233.276
G01 X0.931 Y233.674
G01 X0.931 Y234.072
G01 X0.931 Y234.471
G01 X0.931 Y234.869
G01 X0.931 Y235.267
G01 X0.931 Y235.665
G01 X0.931 Y236.063
G01 X0.931 Y236.461
G01 X0.931 Y236.860
G01 X0.931 Y237.258
G01 X0.931 Y237.656
G01 X0.931 Y238.054
G01 X0.931 Y238.452
G01 X0.931 Y238.851
G01 X0.533 Y239.249
G01 X0.533 Y239.647
G01 X0.533 Y240.045
G01 X0.533 Y240.443
G01 X0.533 Y240.842
G01 X0.533 Y241.240
G01 X0.533 Y241.638
G01 X0.533 Y242.036
G01 X0.533 Y242.434
G01 X0.533 Y242.833
G01 X0.533 Y243.231
G01 X0.533 Y243.629
G01 X0.533 Y244.027
G01 X0.533 Y244.425
G01 X0.533 Y244.824
G01 X0.533 Y245.222
G01 X0.533 Y245.620
G01 X0.533 Y246.018
G01 X0.533 Y246.416
G01 X0.533 Y246.814
G01 X0.533 Y247.213
G01 X0.533 Y247.611
G01 X0.533 Y248.009
G01 X0.533 Y248.407
G01 X0.533 Y248.805
G01 X0.533 Y249.204
G01 X0.533 Y249.602
G01 X0.533 Y250.000
G01 X0.533 Y250.398
G01 X0.533 Y250.796
G01 X0.533 Y251.195
G01 X0.533 Y251.593
G01 X0.533 Y251.991
G01 X0.533 Y252.389
G01 X0.533 Y252.787
G01 X0.533 Y253.186
G01 X0.533 Y253.584
G01 X0.533 Y253.982
G01 X0.533 Y254.380
G01 X0.533 Y254.778
G01 X0.533 Y255.176
G01 X0.533 Y255.575
G01 X0.533 Y255.973
G01 X0.533 Y256.371
G01 X0.533 Y256.769
G01 X0.533 Y257.167
G01 X0.533 Y257.566
G01 X0.533 Y257.964
G01 X0.533 Y258.362
G01 X0.533 Y258.760
G01 X0.533 Y259.158
G01 X0.533 Y259.557
G01 X0.533 Y259.955
G01 X0.931 Y260.353
G01 X0.931 Y260.751
G01 X0.931 Y261.149
G01 X0.931 Y261.548
G01 X0.931 Y261.946
G01 X0.931 Y262.344
G01 X0.931 Y262.742
G01 X0.931 Y263.140
G01 X0.931 Y263.539
G01 X0.931 Y263.937
G01 X0.931 Y264.335
G01 X0.931 Y264.733
G01 X0.931 Y265.131
G01 X0.931 Y265.529
G01 X0.931 Y265.928
G01 X0.931 Y266.326
G01 X0.931 Y266.724
G01 X1.329 Y267.122
G01 X1.329 Y267.520
G01 X1.329 Y267.919
G01 X1.329 Y268.317
G01 X1.329 Y268.715
G01 X1.329 Y269.113
G01 X1.329 Y269.511
G01 X1.329 Y269.910
G01 X1.329 Y270.308
G01 X1.329 Y270.706
G01 X1.329 Y271.104
G01 X1.329 Y271.502
G01 X1.727 Y271.901
G01 X1.727 Y272.299
G01 X1.727 Y272.697
G01 X1.727 Y273.095
G01 X1.727 Y273.493
G01 X1.727 Y273.892
G01 X1.727 Y274.290
G01 X1.727 Y274.688
G01 X1.727 Y275.086
G01 X1.727 Y275.484
G01 X2.125 Y275.882
G01 X2.125 Y276.281
G01 X2.125 Y276.679
G01 X2.125 Y277.077
G01 X2.125 Y277.475
G01 X2.125 Y277.873
G01 X2.125 Y278.272
G01 X2.125 Y278.670
G01 X2.125 Y279.068
G01 X2.524 Y279.466
G01 X2.524 Y279.864
G01 X2.524 Y280.263
G01 X2.524 Y280.661
G01 X2.524 Y281.059
G01 X2.524 Y281.457
G01 X2.524 Y281.855
G01 X2.524 Y282.254
G01 X2.922 Y282.652
G01 X2.922 Y283.050
G01 X2.922 Y283.448
G01 X2.922 Y283.846
G01 X2.922 Y284.245
G01 X2.922 Y284.643
G01 X2.922 Y285.041
G01 X3.320 Y285.439
G01 X3.320 Y285.837
G01 X3.320 Y286.235
G01 X3.320 Y286.634
G01 X3.320 Y287.032
G01 X3.320 Y287.430
G01 X3.320 Y287.828
G01 X3.718 Y288.226
G01 X3.718 Y288.625
G01 X3.718 Y289.023
G01 X3.718 Y289.421
G01 X3.718 Y289.819
G01 X3.718 Y290.217
G01 X4.116 Y290.616
G01 X4.116 Y291.014
G01 X4.116 Y291.412
G01 X4.116 Y291.810
G01 X4.116 Y292.208
G01 X4.116 Y292.607
G01 X4.515 Y293.005
G01 X4.515 Y293.403
G01 X4.515 Y293.801
G01 X4.515 Y294.199
G01 X4.515 Y294.598
G01 X4.515 Y294.996
G01 X4.913 Y295.394
G01 X4.913 Y295.792
G01 X4.913 Y296.190
G01 X4.913 Y296.588
G01 X4.913 Y296.987
G01 X5.311 Y297.385
G01 X5.311 Y297.783
G01 X5.709 Y298.181
G01 X5.709 Y298.579
G01 X5.709 Y298.978
G01 X5.709 Y299.376
G01 X5.709 Y299.774
G01 X5.709 Y300.172
G01 X5.709 Y300.570
G01 X5.709 Y300.969
G01 X6.107 Y301.367
G01 X6.107 Y301.765
G01 X6.107 Y302.163
G01 X6.107 Y302.561
G01 X6.107 Y302.960
G01 X6.506 Y303.358
G01 X6.506 Y303.756
G01 X6.506 Y304.154
G01 X6.506 Y304.552
G01 X6.904 Y304.951
G01 X6.904 Y305.349
G01 X6.904 Y305.747
G01 X6.904 Y306.145
G01 X6.904 Y306.543
G01 X7.302 Y306.941
G01 X7.302 Y307.340
G01 X7.302 Y307.738
G01 X7.302 Y308.136
G01 X7.700 Y308.534
G01 X7.700 Y308.932
G01 X7.700 Y309.331
G01 X7.700 Y309.729
G01 X8.098 Y310.127
G01 X8.098 Y310.525
G01 X8.098 Y310.923
G01 X8.098 Y311.322
G01 X8.497 Y311.720
G01 X8.497 Y312.118
G01 X8.497 Y312.516
G01 X8.497 Y312.914
G01 X8.895 Y313.313
G01 X8.895 Y313.711
G01 X8.895 Y314.109
G01 X9.293 Y314.507
G01 X9.293 Y314.905
G01 X9.293 Y315.303
G01 X9.293 Y315.702
G01 X9.691 Y316.100
G01 X9.691 Y316.498
G01 X9.691 Y316.896
G01 X9.691 Y317.294
G01 X10.089 Y317.693
G01 X10.089 Y318.091
G01 X10.089 Y318.489
G01 X10.487 Y318.887
G01 X10.487 Y319.285
G01 X10.487 Y319.684
G01 X10.487 Y320.082
G01 X10.886 Y320.480
G01 X10.886 Y320.878
G01 X10.886 Y321.276
G01 X11.284 Y321.675
G01 X11.284 Y322.073
G01 X11.284 Y322.471
G01 X11.682 Y322.869
G01 X11.682 Y323.267
G01 X11.682 Y323.666
G01 X11.682 Y324.064
G01 X12.080 Y324.462
G01 X12.080 Y324.860
G01 X12.080 Y325.258
G01 X12.478 Y325.656
G01 X12.478 Y326.055
G01 X12.478 Y326.453
G01 X12.877 Y326.851
G01 X12.877 Y327.249
G01 X12.877 Y327.647
G01 X13.275 Y328.046
G01 X13.275 Y328.444
G01 X13.275 Y328.842
G01 X13.275 Y329.240
G01 X13.673 Y329.638
G01 X13.673 Y330.037
G01 X13.673 Y330.435
G01 X14.071 Y330.833
G01 X14.071 Y331.231
G01 X14.469 Y331.629
G01 X14.469 Y332.028
G01 X14.469 Y332.426
G01 X14.868 Y332.824
G01 X14.868 Y333.222
G01 X14.868 Y333.620
G01 X15.266 Y334.019
G01 X15.266 Y334.417
G01 X15.266 Y334.815
G01 X15.664 Y335.213
G01 X15.664 Y335.611
G01 X15.664 Y336.009
G01 X16.062 Y336.408
G01 X16.062 Y336.806
G01 X16.062 Y337.204
G01 X16.460 Y337.602
G01 X16.460 Y338.000
G01 X16.859 Y338.399
G01 X16.859 Y338.797
G01 X16.859 Y339.195
G01 X17.257 Y339.593
G01 X17.257 Y339.991
G01 X17.655 Y340.390
G01 X17.655 Y340.788
G01 X17.655 Y341.186
G01 X18.053 Y341.584
G01 X18.053 Y341.982
G01 X18.451 Y342.381
G01 X18.451 Y342.779
G01 X18.451 Y343.177
G01 X18.850 Y343.575
G01 X18.850 Y343.973
G01 X19.248 Y344.372
G01 X19.248 Y344.770
G01 X19.248 Y345.168
G01 X19.646 Y345.566
G01 X19.646 Y345.964
G01 X20.044 Y346.362
G01 X20.044 Y346.761
G01 X20.044 Y347.159
G01 X20.442 Y347.557
G01 X20.442 Y347.955
G01 X20.840 Y348.353
G01 X20.840 Y348.752
G01 X21.239 Y349.150
G01 X21.239 Y349.548
G01 X21.239 Y349.946
G01 X21.637 Y350.344
G01 X21.637 Y350.743
G01 X22.035 Y351.141
G01 X22.035 Y351.539
G01 X22.433 Y351.937
G01 X22.433 Y352.335
G01 X22.831 Y352.734
G01 X22.831 Y353.132
G01 X22.831 Y353.530
G01 X23.230 Y353.928
G01 X23.230 Y354.326
G01 X23.628 Y354.725
G01 X23.628 Y355.123
G01 X24.026 Y355.521
G01 X24.026 Y355.919
G01 X24.424 Y356.317
G01 X24.424 Y356.715
G01 X24.822 Y357.114
G01 X24.822 Y357.512
G01 X25.221 Y357.910
G01 X25.221 Y358.308
G01 X25.619 Y358.706
G01 X25.619 Y359.105
G01 X26.017 Y359.503
G01 X26.017 Y359.901
G01 X26.017 Y360.299
G01 X26.415 Y360.697
G01 X26.813 Y361.096
G01 X26.813 Y361.494
G01 X27.212 Y361.892
G01 X27.212 Y362.290
G01 X27.610 Y362.688
G01 X27.610 Y363.087
G01 X28.008 Y363.485
G01 X28.008 Y363.883
G01 X28.406 Y364.281
G01 X28.406 Y364.679
G01 X28.804 Y365.078
G01 X28.804 Y365.476
G01 X29.203 Y365.874
G01 X29.203 Y366.272
G01 X29.601 Y366.670
G01 X29.601 Y367.068
G01 X29.999 Y367.467
G01 X29.999 Y367.865
G01 X30.397 Y368.263
G01 X30.397 Y368.661
G01 X30.795 Y369.059
G01 X31.193 Y369.458
G01 X31.193 Y369.856
G01 X31.592 Y370.254
G01 X31.592 Y370.652
G01 X31.990 Y371.050
G01 X31.990 Y371.449
G01 X32.388 Y371.847
G01 X32.388 Y372.245
G01 X32.786 Y372.643
G01 X32.786 Y373.041
G01 X33.184 Y373.440
G01 X33.583 Y373.838
G01 X33.583 Y374.236
G01 X33.981 Y374.634
G01 X33.981 Y375.032
G01 X34.379 Y375.430
G01 X34.379 Y375.829
G01 X34.777 Y376.227
G01 X35.175 Y376.625
G01 X35.175 Y377.023
G01 X35.574 Y377.421
G01 X35.972 Y377.820
G01 X35.972 Y378.218
G01 X36.370 Y378.616
G01 X36.370 Y379.014
G01 X36.768 Y379.412
G01 X36.768 Y379.811
G01 X37.166 Y380.209
G01 X37.565 Y380.607
G01 X37.565 Y381.005
G01 X37.963 Y381.403
G01 X38.361 Y381.802
G01 X38.361 Y382.200
G01 X38.759 Y382.598
G01 X38.759 Y382.996
G01 X39.157 Y383.394
G01 X39.556 Y383.793
G01 X39.556 Y384.191
G01 X39.954 Y384.589
G01 X40.352 Y384.987
G01 X40.352 Y385.385
G01 X40.750 Y385.783
G01 X41.148 Y386.182
G01 X41.148 Y386.580
G01 X41.546 Y386.978
G01 X41.546 Y387.376
G01 X41.945 Y387.774
G01 X42.343 Y388.173
G01 X42.343 Y388.571
G01 X42.741 Y388.969
G01 X43.139 Y389.367
G01 X43.139 Y389.765
G01 X43.537 Y390.164
G01 X43.936 Y390.562
G01 X44.334 Y390.960
G01 X44.334 Y391.358
G01 X44.732 Y391.756
G01 X45.130 Y392.155
G01 X45.130 Y392.553
G01 X45.528 Y392.951
G01 X45.927 Y393.349
G01 X46.325 Y393.747
G01 X46.325 Y394.146
G01 X46.723 Y394.544
G01 X47.121 Y394.942
G01 X47.121 Y395.340
G01 X47.519 Y395.738
G01 X47.918 Y396.136
G01 X47.918 Y396.535
G01 X48.316 Y396.933
G01 X48.714 Y397.331
G01 X49.112 Y397.729
G01 X49.112 Y398.127
G01 X49.510 Y398.526
G01 X49.908 Y398.924
G01 X50.307 Y399.322
G01 X50.307 Y399.720
G01 X50.705 Y400.118
G01 X51.103 Y400.517
G01 X51.501 Y400.915
G01 X51.501 Y401.313
G01 X51.899 Y401.711
G01 X52.298 Y402.109
G01 X52.696 Y402.508
G01 X53.094 Y402.906
G01 X53.094 Y403.304
G01 X53.492 Y403.702
G01 X53.890 Y404.100
G01 X54.289 Y404.499
G01 X54.289 Y404.897
G01 X54.687 Y405.295
G01 X55.085 Y405.693
G01 X55.483 Y406.091
G01 X55.881 Y406.489
G01 X55.881 Y406.888
G01 X56.280 Y407.286
G01 X56.678 Y407.684
G01 X57.076 Y408.082
G01 X57.474 Y408.480
G01 X57.474 Y408.879
G01 X57.872 Y409.277
G01 X58.271 Y409.675
G01 X58.669 Y410.073
G01 X59.067 Y410.471
G01 X59.465 Y410.870
G01 X59.863 Y411.268
G01 X59.863 Y411.666
G01 X60.261 Y412.064
G01 X60.660 Y412.462
G01 X61.058 Y412.861
G01 X61.456 Y413.259
G01 X61.854 Y413.657
G01 X62.252 Y414.055
G01 X62.252 Y414.453
G01 X62.651 Y414.852
G01 X63.049 Y415.250
G01 X63.447 Y415.648
G01 X63.845 Y416.046
G01 X64.243 Y416.444
G01 X64.642 Y416.842
G01 X65.040 Y417.241
G01 X65.438 Y417.639
G01 X65.836 Y418.037
G01 X66.234 Y418.435
G01 X66.633 Y418.833
G01 X67.031 Y419.232
G01 X67.429 Y419.630
G01 X67.827 Y420.028
G01 X68.225 Y420.426
G01 X68.624 Y420.824
G01 X69.022 Y421.223
G01 X69.420 Y421.621
G01 X69.818 Y422.019
G01 X70.216 Y422.417
G01 X70.614 Y422.815
G01 X71.013 Y423.214
G01 X71.411 Y423.612
G01 X71.809 Y424.010
G01 X72.207 Y424.408
G01 X72.605 Y424.806
G01 X73.004 Y425.204
G01 X73.402 Y425.603
G01 X73.800 Y425.603
G01 X74.198 Y426.001
G01 X74.198 Y426.399
G01 X74.596 Y426.797
G01 X74.995 Y427.195
G01 X75.393 Y427.594
G01 X75.791 Y427.992
G01 X76.189 Y428.390
G01 X76.587 Y428.788
G01 X76.986 Y429.186
G01 X77.384 Y429.585
G01 X77.782 Y429.983
G01 X78.180 Y430.381
G01 X78.578 Y430.779
G01 X78.977 Y431.177
G01 X79.375 Y431.576
G01 X79.773 Y431.974
G01 X80.171 Y432.372
G01 X80.569 Y432.770
G01 X80.967 Y433.168
G01 X81.366 Y433.567
G01 X81.764 Y433.965
G01 X82.162 Y433.965
G01 X82.560 Y434.363
G01 X82.958 Y434.761
G01 X83.357 Y435.159
G01 X83.755 Y435.557
G01 X84.153 Y435.956
G01 X84.551 Y436.354
G01 X84.949 Y436.752
G01 X85.348 Y437.150
G01 X85.746 Y437.150
G01 X86.144 Y437.548
G01 X86.542 Y437.947
G01 X86.940 Y438.345
G01 X87.339 Y438.743
G01 X87.737 Y439.141
G01 X88.135 Y439.539
G01 X88.533 Y439.539
G01 X88.931 Y439.938
G01 X89.330 Y440.336
G01 X89.728 Y440.734
G01 X90.126 Y441.132
G01 X90.524 Y441.530
G01 X90.922 Y441.929
G01 X91.320 Y441.929
G01 X91.719 Y442.327
G01 X92.117 Y442.725
G01 X92.515 Y443.123
G01 X92.913 Y443.521
G01 X93.311 Y443.521
G01 X93.710 Y443.920
G01 X94.108 Y444.318
G01 X94.506 Y444.716
G01 X94.904 Y445.114
G01 X95.302 Y445.114
G01 X95.701 Y445.512
G01 X96.099 Y445.910
G01 X96.497 Y446.309
G01 X96.895 Y446.309
G01 X97.293 Y446.707
G01 X97.692 Y447.105
G01 X98.090 Y447.503
G01 X98.488 Y447.901
G01 X98.886 Y448.300
G01 X99.284 Y448.300
G01 X99.683 Y448.698
G01 X100.081 Y449.096
G01 X100.479 Y449.494
G01 X100.877 Y449.494
G01 X101.275 Y449.892
G01 X101.673 Y450.291
G01 X102.072 Y450.291
G01 X102.470 Y450.689
G01 X102.868 Y451.087
G01 X103.266 Y451.485
G01 X103.664 Y451.485
G01 X104.063 Y451.883
G01 X104.461 Y452.282
G01 X104.859 Y452.282
G01 X105.257 Y452.680
G01 X105.655 Y453.078
G01 X106.054 Y453.476
G01 X106.452 Y453.476
G01 X106.850 Y453.874
G01 X107.248 Y454.273
G01 X107.646 Y454.273
G01 X108.045 Y454.671
G01 X108.443 Y455.069
G01 X108.841 Y455.069
G01 X109.239 Y455.467
G01 X109.637 Y455.865
G01 X110.035 Y456.263
G01 X110.434 Y456.263
G01 X110.832 Y456.263
G01 X111.230 Y456.662
G01 X111.628 Y456.662
G01 X112.026 Y456.662
G01 X112.026 Y457.060
G01 X112.425 Y457.458
G01 X112.823 Y457.856
G01 X113.221 Y458.254
G01 X113.619 Y458.653
G01 X114.017 Y458.653
G01 X114.416 Y459.051
G01 X114.814 Y459.449
G01 X115.212 Y459.449
G01 X115.610 Y459.847
G01 X116.008 Y459.847
G01 X116.407 Y460.245
G01 X116.805 Y460.644
G01 X117.203 Y460.644
G01 X117.601 Y461.042
G01 X117.999 Y461.440
G01 X118.398 Y461.440
G01 X118.796 Y461.838
G01 X119.194 Y461.838
G01 X119.592 Y462.236
G01 X119.990 Y462.635
G01 X120.388 Y462.635
G01 X120.787 Y463.033
G01 X121.185 Y463.431
G01 X121.583 Y463.431
G01 X121.981 Y463.829
G01 X122.379 Y463.829
G01 X122.778 Y464.227
G01 X123.176 Y464.626
G01 X123.574 Y464.626
G01 X123.972 Y465.024
G01 X124.370 Y465.024
G01 X124.769 Y465.422
G01 X125.167 Y465.820
G01 X125.565 Y465.820
G01 X125.963 Y466.218
G01 X126.361 Y466.218
G01 X126.760 Y466.616
G01 X127.158 Y466.616
G01 X127.556 Y467.015
G01 X127.954 Y467.413
G01 X128.352 Y467.413
G01 X128.751 Y467.811
G01 X129.149 Y467.811
G01 X129.547 Y468.209
G01 X129.945 Y468.209
G01 X130.343 Y468.607
G01 X130.741 Y468.607
G01 X131.140 Y469.006
G01 X131.538 Y469.006
G01 X131.936 Y469.404
G01 X132.334 Y469.802
G01 X132.732 Y469.802
G01 X133.131 Y470.200
G01 X133.529 Y470.200
G01 X133.927 Y470.598
G01 X134.325 Y470.598
G01 X134.723 Y470.997
G01 X135.122 Y470.997
G01 X135.520 Y471.395
G01 X135.918 Y471.395
G01 X136.316 Y471.793
G01 X136.714 Y471.793
G01 X137.113 Y472.191
G01 X137.511 Y472.191
G01 X137.909 Y472.589
G01 X138.307 Y472.589
G01 X138.705 Y472.988
G01 X139.104 Y472.988
G01 X139.502 Y473.386
G01 X139.900 Y473.386
G01 X140.298 Y473.784
G01 X140.696 Y473.784
G01 X141.094 Y474.182
G01 X141.493 Y474.182
G01 X141.891 Y474.580
G01 X142.289 Y474.580
G01 X142.687 Y474.979
G01 X143.085 Y474.979
G01 X143.484 Y475.377
G01 X143.882 Y475.377
G01 X144.280 Y475.775
G01 X144.678 Y475.775
G01 X145.076 Y476.173
G01 X145.475 Y476.173
G01 X145.873 Y476.571
G01 X146.271 Y476.571
G01 X146.669 Y476.571
G01 X147.067 Y476.969
G01 X147.466 Y476.969
G01 X147.864 Y477.368
G01 X148.262 Y477.368
G01 X148.660 Y477.766
G01 X149.058 Y477.766
G01 X149.457 Y477.766
G01 X149.855 Y478.164
G01 X150.253 Y478.164
G01 X150.651 Y478.562
G01 X151.049 Y478.562
G01 X151.447 Y478.960
G01 X151.846 Y478.960
G01 X152.244 Y479.359
G01 X152.642 Y479.359
G01 X153.040 Y479.757
G01 X153.438 Y479.757
G01 X153.837 Y479.757
G01 X154.235 Y480.155
G01 X154.633 Y480.155
G01 X155.031 Y480.553
G01 X155.429 Y480.553
G01 X155.828 Y480.553
G01 X156.226 Y480.951
G01 X156.624 Y480.951
G01 X157.022 Y481.350
G01 X157.420 Y481.350
G01 X157.819 Y481.350
G01 X158.217 Y481.748
G01 X158.615 Y481.748
G01 X159.013 Y482.146
G01 X159.411 Y482.146
G01 X159.810 Y482.146
G01 X160.208 Y482.544
G01 X160.606 Y482.544
G01 X161.004 Y482.544
G01 X161.402 Y482.942
G01 X161.800 Y482.942
G01 X162.199 Y483.341
G01 X162.597 Y483.341
G01 X162.995 Y483.739
G01 X163.393 Y483.739
G01 X163.791 Y483.739
G01 X164.190 Y484.137
G01 X164.588 Y484.137
G01 X164.986 Y484.137
G01 X165.384 Y484.535
G01 X165.782 Y484.535
G01 X166.181 Y484.535
G01 X166.579 Y484.933
G01 X166.977 Y484.933
G01 X167.375 Y484.933
G01 X167.773 Y485.331
G01 X168.172 Y485.331
G01 X168.570 Y485.730
G01 X168.968 Y485.730
G01 X169.366 Y485.730
G01 X169.764 Y486.128
G01 X170.162 Y486.128
G01 X170.561 Y486.128
G01 X170.959 Y486.526
G01 X171.357 Y486.526
G01 X171.755 Y486.526
G01 X172.153 Y486.924
G01 X172.552 Y486.924
G01 X172.950 Y486.924
G01 X173.348 Y486.924
G01 X173.746 Y487.322
G01 X174.144 Y487.322
G01 X174.543 Y487.322
G01 X174.941 Y487.721
G01 X175.339 Y487.721
G01 X175.737 Y487.721
G01 X176.135 Y487.721
G01 X176.534 Y488.119
G01 X176.932 Y488.119
G01 X177.330 Y488.119
G01 X177.728 Y488.119
G01 X178.126 Y488.517
G01 X178.525 Y488.517
G01 X178.923 Y488.915
G01 X179.321 Y488.915
G01 X179.719 Y488.915
G01 X180.117 Y489.313
G01 X180.515 Y489.313
G01 X180.914 Y489.313
G01 X181.312 Y489.313
G01 X181.710 Y489.712
G01 X182.108 Y489.712
G01 X182.506 Y489.712
G01 X182.905 Y490.110
G01 X183.303 Y490.110
G01 X183.701 Y490.110
G01 X184.099 Y490.110
G01 X184.497 Y490.508
G01 X184.896 Y490.508
G01 X185.294 Y490.508
G01 X185.692 Y490.906
G01 X186.090 Y490.906
G01 X186.488 Y490.906
G01 X186.887 Y490.906
G01 X187.285 Y491.304
G01 X187.683 Y491.304
G01 X188.081 Y491.304
G01 X188.479 Y491.304
G01 X188.878 Y491.703
G01 X189.276 Y491.703
G01 X189.674 Y491.703
G01 X190.072 Y491.703
G01 X190.470 Y492.101
G01 X190.868 Y492.101
G01 X191.267 Y492.101
G01 X191.665 Y492.101
G01 X192.063 Y492.499
G01 X192.461 Y492.499
G01 X192.859 Y492.499
G01 X193.258 Y492.499
G01 X193.656 Y492.897
G01 X194.054 Y492.897
G01 X194.452 Y492.897
G01 X194.850 Y492.897
G01 X195.249 Y492.897
G01 X195.647 Y493.295
G01 X196.045 Y493.295
G01 X196.443 Y493.295
G01 X196.841 Y493.295
G01 X197.240 Y493.694
G01 X197.638 Y493.694
G01 X198.036 Y493.694
G01 X198.434 Y493.694
G01 X198.832 Y494.092
G01 X199.231 Y494.092
G01 X199.629 Y494.092
G01 X200.027 Y494.092
G01 X200.425 Y494.092
G01 X200.823 Y494.092
G01 X201.221 Y494.490
G01 X201.620 Y494.490
G01 X202.018 Y494.490
G01 X202.416 Y494.490
G01 X202.814 Y494.888
G01 X203.212 Y494.888
G01 X203.611 Y494.888
G01 X204.009 Y494.888
G01 X204.407 Y494.888
G01 X204.805 Y494.888
G01 X205.203 Y495.286
G01 X205.602 Y495.286
G01 X206.000 Y495.286
G01 X206.398 Y495.286
G01 X206.796 Y495.286
G01 X207.194 Y495.684
G01 X207.593 Y495.684
G01 X207.991 Y495.684
G01 X208.389 Y495.684
G01 X208.787 Y495.684
G01 X209.185 Y495.684
G01 X209.584 Y496.083
G01 X209.982 Y496.083
G01 X210.380 Y496.083
G01 X210.778 Y496.083
G01 X211.176 Y496.083
G01 X211.574 Y496.083
G01 X211.973 Y496.481
G01 X212.371 Y496.481
G01 X212.769 Y496.481
G01 X213.167 Y496.481
G01 X213.565 Y496.481
G01 X213.964 Y496.481
G01 X214.362 Y496.481
G01 X214.760 Y496.879
G01 X215.158 Y496.879
G01 X215.556 Y496.879
G01 X215.955 Y496.879
G01 X216.353 Y496.879
G01 X216.751 Y496.879
G01 X217.149 Y496.879
G01 X217.547 Y497.277
G01 X217.946 Y497.277
G01 X218.344 Y497.277
G01 X218.742 Y497.277
G01 X219.140 Y497.277
G01 X219.538 Y497.277
G01 X219.937 Y497.277
G01 X220.335 Y497.277
G01 X220.733 Y497.675
G01 X221.131 Y497.675
G01 X221.529 Y497.675
G01 X221.927 Y497.675
G01 X222.326 Y497.675
G01 X222.724 Y497.675
G01 X223.122 Y497.675
G01 X223.520 Y497.675
G01 X223.918 Y497.675
G01 X224.317 Y498.074
G01 X224.715 Y498.074
G01 X225.113 Y498.074
G01 X225.511 Y498.074
G01 X225.909 Y498.074
G01 X226.308 Y498.074
G01 X226.706 Y498.074
G01 X227.104 Y498.074
G01 X227.502 Y498.074
G01 X227.900 Y498.074
G01 X228.299 Y498.472
G01 X228.697 Y498.472
G01 X229.095 Y498.472
G01 X229.493 Y498.472
G01 X229.891 Y498.472
G01 X230.289 Y498.472
G01 X230.688 Y498.472
G01 X231.086 Y498.472
G01 X231.484 Y498.472
G01 X231.882 Y498.472
G01 X232.280 Y498.472
G01 X232.679 Y498.472
G01 X233.077 Y498.870
G01 X233.475 Y498.870
G01 X233.873 Y498.870
G01 X234.271 Y498.870
G01 X234.670 Y498.870
G01 X235.068 Y498.870
G01 X235.466 Y498.870
G01 X235.864 Y498.870
G01 X236.262 Y498.870
G01 X236.661 Y498.870
G01 X237.059 Y498.870
G01 X237.457 Y498.870
G01 X237.855 Y498.870
G01 X238.253 Y498.870
G01 X238.652 Y498.870
G01 X239.050 Y498.870
G01 X239.448 Y499.268
G01 X239.846 Y499.268
G01 X240.244 Y499.268
G01 X240.642 Y499.268
G01 X241.041 Y499.268
G01 X241.439 Y499.268
G01 X241.837 Y499.268
G01 X242.235 Y499.268
G01 X242.633 Y499.268
G01 X243.032 Y499.268
G01 X243.430 Y499.268
G01 X243.828 Y499.268
G01 X244.226 Y499.268
G01 X244.624 Y499.268
G01 X245.023 Y499.268
G01 X245.421 Y499.268
G01 X245.819 Y499.268
G01 X246.217 Y499.268
G01 X246.615 Y499.268
G01 X247.014 Y499.268
G01 X247.412 Y499.268
G01 X247.810 Y499.268
G01 X248.208 Y499.268
G01 X248.606 Y499.268
G01 X249.005 Y499.268
G01 X249.403 Y499.268
G01 X249.801 Y499.268
G01 X249.801 Y498.870
G01 X249.801 Y498.472
G01 X249.801 Y498.074
G01 X249.801 Y497.675
G01 X249.801 Y497.277
G01 X249.801 Y496.879
G01 X249.801 Y496.481
G01 X249.801 Y496.083
G01 X249.801 Y495.684
G01 X249.801 Y495.286
G01 X249.801 Y494.888
G01 X249.801 Y494.490
G01 X249.801 Y494.092
G01 X249.801 Y493.694
G01 X249.801 Y493.295
G01 X249.801 Y492.897
G01 X249.801 Y492.499
G01 X249.801 Y492.101
G01 X249.801 Y491.703
G01 X249.801 Y491.304
G01 X249.801 Y490.906
G01 X249.801 Y490.508
G01 X249.801 Y490.110
G01 X249.801 Y489.712
G01 X249.801 Y489.313
G01 X249.801 Y488.915
G01 X249.801 Y488.517
G01 X249.801 Y488.119
G01 X249.801 Y487.721
G01 X249.801 Y487.322
G01 X249.801 Y486.924
G01 X249.801 Y486.526
G01 X249.801 Y486.128
G01 X249.801 Y485.730
G01 X249.801 Y485.331
G01 X249.801 Y484.933
G01 X249.801 Y484.535
G01 X249.801 Y484.137
G01 X249.801 Y483.739
G01 X249.801 Y483.341
G01 X249.801 Y482.942
G01 X249.801 Y482.544
G01 X249.801 Y482.942
G01 X249.801 Y483.341
G01 X249.801 Y483.739
G01 X249.801 Y484.137
G01 X249.801 Y484.535
G01 X249.801 Y484.933
G01 X249.801 Y485.331
G01 X249.801 Y485.730
G01 X249.801 Y486.128
G01 X249.801 Y486.526
G01 X249.801 Y486.924
G01 X249.801 Y487.322
G01 X249.801 Y487.721
G01 X249.801 Y488.119
G01 X249.801 Y488.517
G01 X249.801 Y488.915
G01 X249.801 Y489.313
G01 X249.801 Y489.712
G01 X249.801 Y490.110
G01 X249.801 Y490.508
G01 X249.801 Y490.906
G01 X249.801 Y491.304
G01 X249.801 Y491.703
G01 X249.801 Y492.101
G01 X249.801 Y492.499
G01 X249.801 Y492.897
G01 X249.801 Y493.295
G01 X249.801 Y493.694
G01 X249.801 Y494.092
G01 X249.801 Y494.490
G01 X249.801 Y494.888
G01 X249.801 Y495.286
G01 X249.801 Y495.684
G01 X249.801 Y496.083
G01 X249.801 Y496.481
G01 X249.801 Y496.879
G01 X249.801 Y497.277
G01 X249.801 Y497.675
G01 X249.801 Y498.074
G01 X249.801 Y498.472
G01 X249.801 Y498.870
G01 X249.801 Y499.268
G01 X250.199 Y499.268
G01 X250.597 Y499.268
G01 X250.995 Y499.268
G01 X251.394 Y499.268
G01 X251.792 Y499.268
G01 X252.190 Y499.268
G01 X252.588 Y499.268
G01 X252.986 Y499.268
G01 X253.385 Y499.268
G01 X253.783 Y499.268
G01 X254.181 Y499.268
G01 X254.579 Y499.268
G01 X254.977 Y499.268
G01 X255.376 Y499.268
G01 X255.774 Y499.268
G01 X256.172 Y499.268
G01 X256.570 Y499.268
G01 X256.968 Y499.268
G01 X257.367 Y499.268
G01 X257.765 Y499.268
G01 X258.163 Y499.268
G01 X258.561 Y499.268
G01 X258.959 Y499.268
G01 X259.358 Y499.268
G01 X259.756 Y498.870
G01 X260.154 Y498.870
G01 X260.552 Y498.870
G01 X260.950 Y498.870
G01 X261.348 Y498.870
G01 X261.747 Y498.870
G01 X262.145 Y498.870
G01 X262.543 Y498.870
G01 X262.941 Y498.870
G01 X263.339 Y498.870
G01 X263.738 Y498.870
G01 X264.136 Y498.870
G01 X264.534 Y498.870
G01 X264.932 Y498.870
G01 X265.330 Y498.870
G01 X265.729 Y498.870
G01 X266.127 Y498.870
G01 X266.525 Y498.870
G01 X266.923 Y498.472
G01 X267.321 Y498.472
G01 X267.720 Y498.472
G01 X268.118 Y498.472
G01 X268.516 Y498.472
G01 X268.914 Y498.472
G01 X269.312 Y498.472
G01 X269.711 Y498.472
G01 X270.109 Y498.472
G01 X270.507 Y498.472
G01 X270.905 Y498.472
G01 X271.303 Y498.472
G01 X271.701 Y498.074
G01 X272.100 Y498.074
G01 X272.498 Y498.074
G01 X272.896 Y498.074
G01 X273.294 Y498.074
G01 X273.692 Y498.074
G01 X274.091 Y498.074
G01 X274.489 Y498.074
G01 X274.887 Y498.074
G01 X275.285 Y498.074
G01 X275.683 Y497.675
G01 X276.082 Y497.675
G01 X276.480 Y497.675
G01 X276.878 Y497.675
G01 X277.276 Y497.675
G01 X277.674 Y497.675
G01 X278.073 Y497.675
G01 X278.471 Y497.675
G01 X278.869 Y497.675
G01 X279.267 Y497.277
G01 X279.665 Y497.277
G01 X280.063 Y497.277
G01 X280.462 Y497.277
G01 X280.860 Y497.277
G01 X281.258 Y497.277
G01 X281.656 Y497.277
G01 X282.054 Y496.879
G01 X282.453 Y496.879
G01 X282.851 Y496.879
G01 X283.249 Y496.879
G01 X283.647 Y496.879
G01 X284.045 Y496.879
G01 X284.444 Y496.879
G01 X284.842 Y496.879
G01 X285.240 Y496.481
G01 X285.638 Y496.481
G01 X286.036 Y496.481
G01 X286.435 Y496.481
G01 X286.833 Y496.481
G01 X287.231 Y496.481
G01 X287.629 Y496.083
G01 X288.027 Y496.083
G01 X288.426 Y496.083
G01 X288.824 Y496.083
G01 X289.222 Y496.083
G01 X289.620 Y496.083
G01 X290.018 Y496.083
G01 X290.416 Y495.684
G01 X290.815 Y495.684
G01 X291.213 Y495.684
G01 X291.611 Y495.684
G01 X292.009 Y495.684
G01 X292.407 Y495.286
G01 X292.806 Y495.286
G01 X293.204 Y495.286
G01 X293.602 Y495.286
G01 X294.000 Y495.286
G01 X294.398 Y495.286
G01 X294.797 Y494.888
G01 X295.195 Y494.888
G01 X295.593 Y494.888
G01 X295.991 Y494.888
G01 X296.389 Y494.888
G01 X296.788 Y494.490
G01 X297.186 Y494.490
G01 X297.584 Y494.490
G01 X297.982 Y494.490
G01 X298.380 Y494.490
G01 X298.779 Y494.092
G01 X299.177 Y494.092
G01 X299.575 Y494.092
G01 X299.973 Y494.092
G01 X300.371 Y494.092
G01 X300.769 Y493.694
G01 X301.168 Y493.694
G01 X301.566 Y493.694
G01 X301.964 Y493.694
G01 X302.362 Y493.694
G01 X302.760 Y493.295
G01 X303.159 Y493.295
G01 X303.557 Y493.295
G01 X303.955 Y493.295
G01 X304.353 Y493.295
G01 X304.751 Y492.897
G01 X305.150 Y492.897
G01 X305.548 Y492.897
G01 X305.946 Y492.897
G01 X306.344 Y492.499
G01 X306.742 Y492.499
G01 X307.141 Y492.499
G01 X307.539 Y492.499
G01 X307.937 Y492.101
G01 X308.335 Y492.101
G01 X308.733 Y492.101
G01 X309.132 Y492.101
G01 X309.530 Y491.703
G01 X309.928 Y491.703
G01 X310.326 Y491.703
G01 X310.724 Y491.703
G01 X311.122 Y491.304
G01 X311.521 Y491.304
G01 X311.919 Y491.304
G01 X312.317 Y491.304
G01 X312.715 Y490.906
G01 X313.113 Y490.906
G01 X313.512 Y490.906
G01 X313.910 Y490.906
G01 X314.308 Y490.508
G01 X314.706 Y490.508
G01 X315.104 Y490.508
G01 X315.503 Y490.508
G01 X315.901 Y490.110
G01 X316.299 Y490.110
G01 X316.697 Y490.110
G01 X317.095 Y489.712
G01 X317.494 Y489.712
G01 X317.892 Y489.712
G01 X318.290 Y489.313
G01 X318.688 Y489.313
G01 X319.086 Y489.313
G01 X319.485 Y489.313
G01 X319.883 Y488.915
G01 X320.281 Y488.915
G01 X320.679 Y488.915
G01 X321.077 Y488.517
G01 X321.475 Y488.517
G01 X321.874 Y488.517
G01 X322.272 Y488.517
G01 X322.670 Y488.119
G01 X323.068 Y488.119
G01 X323.466 Y488.119
G01 X323.865 Y487.721
G01 X324.263 Y487.721
G01 X324.661 Y487.721
G01 X325.059 Y487.322
G01 X325.457 Y487.322
G01 X325.856 Y487.322
G01 X326.254 Y487.322
G01 X326.652 Y486.924
G01 X327.050 Y486.924
G01 X327.448 Y486.924
G01 X327.847 Y486.526
G01 X328.245 Y486.526
G01 X328.643 Y486.526
G01 X329.041 Y486.128
G01 X329.439 Y486.128
G01 X329.838 Y486.128
G01 X330.236 Y485.730
G01 X330.634 Y485.730
G01 X331.032 Y485.730
G01 X331.430 Y485.331
G01 X331.828 Y485.331
G01 X332.227 Y485.331
G01 X332.625 Y484.933
G01 X333.023 Y484.933
G01 X333.421 Y484.933
G01 X333.819 Y484.535
G01 X334.218 Y484.535
G01 X334.616 Y484.137
G01 X335.014 Y484.137
G01 X335.412 Y484.137
G01 X335.810 Y483.739
G01 X336.209 Y483.739
G01 X336.607 Y483.739
G01 X337.005 Y483.341
G01 X337.403 Y483.341
G01 X337.801 Y483.341
G01 X338.200 Y482.942
G01 X338.598 Y482.942
G01 X338.996 Y482.544
G01 X339.394 Y482.544
G01 X339.792 Y482.544
G01 X340.190 Y482.146
G01 X340.589 Y482.146
G01 X340.987 Y481.748
G01 X341.385 Y481.748
G01 X341.783 Y481.748
G01 X342.181 Y481.350
G01 X342.580 Y481.350
G01 X342.978 Y480.951
G01 X343.376 Y480.951
G01 X343.774 Y480.951
G01 X344.172 Y480.553
G01 X344.571 Y480.553
G01 X344.969 Y480.155
G01 X344.969 Y479.757
G01 X344.969 Y479.359
G01 X344.969 Y478.960
G01 X344.571 Y478.562
G01 X344.571 Y478.164
G01 X344.172 Y477.766
G01 X344.172 Y477.368
G01 X343.774 Y476.969
G01 X343.774 Y476.571
G01 X343.774 Y476.173
G01 X343.376 Y475.775
G01 X343.376 Y475.377
G01 X342.978 Y474.979
G01 X342.978 Y474.580
G01 X342.978 Y474.182
G01 X342.580 Y473.784
G01 X342.580 Y473.386
G01 X342.181 Y472.988
G01 X342.181 Y472.589
G01 X342.181 Y472.191
G01 X341.783 Y471.793
G01 X341.783 Y471.395
G01 X341.385 Y470.997
G01 X341.385 Y470.598
G01 X340.987 Y470.200
G01 X340.987 Y469.802
G01 X340.987 Y469.404
G01 X340.589 Y469.006
G01 X340.589 Y468.607
G01 X340.190 Y468.209
G01 X340.190 Y467.811
G01 X340.190 Y467.413
G01 X339.792 Y467.015
G01 X339.792 Y466.616
G01 X339.394 Y466.218
G01 X339.394 Y465.820
G01 X339.394 Y465.422
G01 X338.996 Y465.024
G01 X338.996 Y464.626
G01 X338.598 Y464.227
G01 X338.598 Y463.829
G01 X338.200 Y463.431
G01 X338.200 Y463.033
G01 X338.200 Y462.635
G01 X337.801 Y462.236
G01 X337.801 Y461.838
G01 X337.403 Y461.440
G01 X337.403 Y461.042
G01 X337.403 Y460.644
G01 X337.005 Y460.245
G01 X337.005 Y459.847
G01 X336.607 Y459.449
G01 X336.607 Y459.051
G01 X336.209 Y458.653
G01 X336.209 Y458.254
G01 X336.209 Y457.856
G01 X335.810 Y457.458
G01 X335.810 Y457.060
G01 X335.412 Y456.662
G01 X335.412 Y456.263
G01 X335.412 Y455.865
G01 X335.014 Y455.467
G01 X335.014 Y455.069
G01 X334.616 Y454.671
G01 X334.616 Y454.273
G01 X334.218 Y453.874
G01 X334.218 Y453.476
G01 X334.218 Y453.078
G01 X333.819 Y452.680
G01 X333.819 Y452.282
G01 X333.421 Y451.883
G01 X333.421 Y451.485
G01 X333.421 Y451.087
G01 X333.023 Y450.689
G01 X333.023 Y450.291
G01 X332.625 Y449.892
G01 X332.625 Y449.494
G01 X332.625 Y449.096
G01 X332.227 Y448.698
G01 X332.227 Y448.300
G01 X331.828 Y447.901
G01 X331.430 Y447.901
G01 X331.032 Y447.901
G01 X330.634 Y447.901
G01 X330.236 Y447.901
G01 X329.838 Y447.901
G01 X329.439 Y448.300
G01 X329.041 Y448.300
G01 X328.643 Y448.698
G01 X328.245 Y448.698
G01 X327.847 Y448.698
G01 X327.448 Y449.096
G01 X327.050 Y449.096
G01 X326.652 Y449.494
G01 X326.254 Y449.494
G01 X325.856 Y449.494
G01 X325.457 Y449.892
G01 X325.059 Y449.892
G01 X324.661 Y450.291
G01 X324.263 Y450.291
G01 X323.865 Y450.291
G01 X323.466 Y450.689
G01 X323.068 Y450.689
G01 X322.670 Y450.689
G01 X322.272 Y451.087
G01 X321.874 Y451.087
G01 X321.475 Y451.087
G01 X321.077 Y451.485
G01 X320.679 Y451.485
G01 X320.281 Y451.485
G01 X319.883 Y451.883
G01 X319.485 Y451.883
G01 X319.086 Y451.883
G01 X318.688 Y452.282
G01 X318.290 Y452.282
G01 X317.892 Y452.282
G01 X317.494 Y452.680
G01 X317.095 Y452.680
G01 X316.697 Y452.680
G01 X316.299 Y453.078
G01 X315.901 Y453.078
G01 X315.503 Y453.078
G01 X315.104 Y453.476
G01 X314.706 Y453.476
G01 X314.308 Y453.476
G01 X313.910 Y453.874
G01 X313.512 Y453.874
G01 X313.113 Y453.874
G01 X312.715 Y453.874
G01 X312.317 Y454.273
G01 X312.317 Y454.671
G01 X312.317 Y455.069
G01 X312.715 Y455.467
G01 X312.715 Y455.865
G01 X312.715 Y456.263
G01 X312.715 Y456.662
G01 X313.113 Y457.060
G01 X313.113 Y457.458
G01 X313.113 Y457.856
G01 X313.113 Y458.254
G01 X313.512 Y458.653
G01 X313.512 Y459.051
G01 X313.512 Y459.449
G01 X313.910 Y459.847
G01 X313.910 Y460.245
G01 X313.910 Y460.644
G01 X314.308 Y461.042
G01 X314.308 Y461.440
G01 X314.308 Y461.838
G01 X314.706 Y462.236
G01 X314.706 Y462.635
G01 X314.706 Y463.033
G01 X315.104 Y463.431
G01 X315.104 Y463.829
G01 X315.104 Y464.227
G01 X315.104 Y464.626
G01 X315.503 Y465.024
G01 X315.503 Y465.422
G01 X315.503 Y465.820
G01 X315.901 Y466.218
G01 X315.901 Y466.616
G01 X315.901 Y467.015
G01 X315.901 Y467.413
G01 X316.299 Y467.811
G01 X316.299 Y468.209
G01 X316.299 Y468.607
G01 X316.697 Y469.006
G01 X316.697 Y469.404
G01 X316.697 Y469.802
G01 X316.697 Y470.200
G01 X316.697 Y469.802
G01 X316.697 Y469.404
G01 X316.697 Y469.006
G01 X316.299 Y468.607
G01 X316.299 Y468.209
G01 X316.299 Y467.811
G01 X315.901 Y467.413
G01 X315.901 Y467.015
G01 X315.901 Y466.616
G01 X315.901 Y466.218
G01 X315.503 Y465.820
G01 X315.503 Y465.422
G01 X315.503 Y465.024
G01 X315.104 Y464.626
G01 X315.104 Y464.227
G01 X315.104 Y463.829
G01 X315.104 Y463.431
G01 X314.706 Y463.033
G01 X314.706 Y462.635
G01 X314.706 Y462.236
G01 X314.308 Y461.838
G01 X314.308 Y461.440
G01 X314.308 Y461.042
G01 X313.910 Y460.644
G01 X313.910 Y460.245
G01 X313.910 Y459.847
G01 X313.512 Y459.449
G01 X313.512 Y459.051
G01 X313.512 Y458.653
G01 X313.113 Y458.254
G01 X313.113 Y457.856
G01 X313.113 Y457.458
G01 X313.113 Y457.060
G01 X312.715 Y456.662
G01 X312.715 Y456.263
G01 X312.715 Y455.865
G01 X312.715 Y455.467
G01 X312.317 Y455.069
G01 X312.317 Y454.671
G01 X312.317 Y454.273
G01 X312.715 Y453.874
G01 X313.113 Y453.874
G01 X313.512 Y453.874
G01 X313.910 Y453.874
G01 X314.308 Y453.476
G01 X314.706 Y453.476
G01 X315.104 Y453.476
G01 X315.503 Y453.078
G01 X315.901 Y453.078
G01 X316.299 Y453.078
G01 X316.697 Y452.680
G01 X317.095 Y452.680
G01 X317.494 Y452.680
G01 X317.892 Y452.282
G01 X318.290 Y452.282
G01 X318.688 Y452.282
G01 X319.086 Y451.883
G01 X319.485 Y451.883
G01 X319.883 Y451.883
G01 X320.281 Y451.485
G01 X320.679 Y451.485
G01 X321.077 Y451.485
G01 X321.475 Y451.087
G01 X321.874 Y451.087
G01 X322.272 Y451.087
G01 X322.670 Y450.689
G01 X323.068 Y450.689
G01 X323.466 Y450.689
G01 X323.865 Y450.291
G01 X324.263 Y450.291
G01 X324.661 Y450.291
G01 X325.059 Y449.892
G01 X325.457 Y449.892
G01 X325.856 Y449.494
G01 X326.254 Y449.494
G01 X326.652 Y449.494
G01 X327.050 Y449.096
G01 X327.448 Y449.096
G01 X327.847 Y448.698
G01 X328.245 Y448.698
G01 X328.643 Y448.698
G01 X329.041 Y448.300
G01 X329.439 Y448.300
G01 X329.838 Y447.901
G01 X330.236 Y447.901
G01 X330.634 Y447.901
G01 X331.032 Y447.901
G01 X331.430 Y447.901
G01 X331.828 Y447.901
G01 X332.227 Y448.300
G01 X332.227 Y448.698
G01 X332.625 Y449.096
G01 X332.625 Y449.494
G01 X332.625 Y449.892
G01 X333.023 Y450.291
G01 X333.023 Y450.689
G01 X333.421 Y451.087
G01 X333.421 Y451.485
G01 X333.421 Y451.883
G01 X333.819 Y452.282
G01 X333.819 Y452.680
G01 X334.218 Y453.078
G01 X334.218 Y453.476
G01 X334.218 Y453.874
G01 X334.616 Y454.273
G01 X334.616 Y454.671
G01 X335.014 Y455.069
G01 X335.014 Y455.467
G01 X335.412 Y455.865
G01 X335.412 Y456.263
G01 X335.412 Y456.662
G01 X335.810 Y457.060
G01 X335.810 Y457.458
G01 X336.209 Y457.856
G01 X336.209 Y458.254
G01 X336.209 Y458.653
G01 X336.607 Y459.051
G01 X336.607 Y459.449
G01 X337.005 Y459.847
G01 X337.005 Y460.245
G01 X337.403 Y460.644
G01 X337.403 Y461.042
G01 X337.403 Y461.440
G01 X337.801 Y461.838
G01 X337.801 Y462.236
G01 X338.200 Y462.635
G01 X338.200 Y463.033
G01 X338.200 Y463.431
G01 X338.598 Y463.829
G01 X338.598 Y464.227
G01 X338.996 Y464.626
G01 X338.996 Y465.024
G01 X339.394 Y465.422
G01 X339.394 Y465.820
G01 X339.394 Y466.218
G01 X339.792 Y466.616
G01 X339.792 Y467.015
G01 X340.190 Y467.413
G01 X340.190 Y467.811
G01 X340.190 Y468.209
G01 X340.589 Y468.607
G01 X340.589 Y469.006
G01 X340.987 Y469.404
G01 X340.987 Y469.802
G01 X340.987 Y470.200
G01 X341.385 Y470.598
G01 X341.385 Y470.997
G01 X341.783 Y471.395
G01 X341.783 Y471.793
G01 X342.181 Y472.191
G01 X342.181 Y472.589
G01 X342.181 Y472.988
G01 X342.580 Y473.386
G01 X342.580 Y473.784
G01 X342.978 Y474.182
G01 X342.978 Y474.580
G01 X342.978 Y474.979
G01 X343.376 Y475.377
G01 X343.376 Y475.775
G01 X343.774 Y476.173
G01 X343.774 Y476.571
G01 X343.774 Y476.969
G01 X344.172 Y477.368
G01 X344.172 Y477.766
G01 X344.571 Y478.164
G01 X344.571 Y478.562
G01 X344.969 Y478.960
G01 X344.969 Y479.359
G01 X344.969 Y479.757
G01 X345.367 Y479.757
G01 X345.765 Y479.757
G01 X346.163 Y479.757
G01 X346.562 Y479.359
G01 X346.960 Y479.359
G01 X347.358 Y479.359
G01 X347.756 Y478.960
G01 X348.154 Y478.960
G01 X348.553 Y478.960
G01 X348.951 Y478.562
G01 X349.349 Y478.562
G01 X349.747 Y478.164
G01 X350.145 Y478.164
G01 X350.543 Y477.766
G01 X350.942 Y477.766
G01 X351.340 Y477.368
G01 X351.738 Y477.368
G01 X352.136 Y477.368
G01 X352.534 Y476.969
G01 X352.933 Y476.969
G01 X353.331 Y476.571
G01 X353.729 Y476.571
G01 X354.127 Y476.173
G01 X354.525 Y476.173
G01 X354.924 Y476.173
G01 X355.322 Y475.775
G01 X355.720 Y475.377
G01 X356.118 Y475.377
G01 X356.516 Y475.377
G01 X356.915 Y474.979
G01 X357.313 Y474.979
G01 X357.711 Y474.580
G01 X358.109 Y474.580
G01 X358.507 Y474.182
G01 X358.906 Y474.182
G01 X359.304 Y473.784
G01 X359.702 Y473.784
G01 X360.100 Y473.386
G01 X360.498 Y473.386
G01 X360.896 Y472.988
G01 X361.295 Y472.988
G01 X361.693 Y472.589
G01 X362.091 Y472.589
G01 X362.489 Y472.191
G01 X362.887 Y472.191
G01 X363.286 Y471.793
G01 X363.684 Y471.793
G01 X364.082 Y471.395
G01 X364.480 Y471.395
G01 X364.878 Y470.997
G01 X365.277 Y470.997
G01 X365.675 Y470.598
G01 X366.073 Y470.598
G01 X366.471 Y470.200
G01 X366.869 Y469.802
G01 X367.268 Y469.802
G01 X367.666 Y469.404
G01 X368.064 Y469.404
G01 X368.462 Y469.006
G01 X368.860 Y469.006
G01 X369.259 Y468.607
G01 X369.657 Y468.607
G01 X370.055 Y468.209
G01 X370.453 Y468.209
G01 X370.851 Y467.811
G01 X371.249 Y467.413
G01 X371.648 Y467.413
G01 X372.046 Y467.015
G01 X372.444 Y467.015
G01 X372.842 Y466.616
G01 X373.240 Y466.616
G01 X373.639 Y466.218
G01 X374.037 Y465.820
G01 X374.435 Y465.820
G01 X374.833 Y465.422
G01 X375.231 Y465.422
G01 X375.630 Y465.024
G01 X376.028 Y465.024
G01 X376.426 Y464.626
G01 X376.824 Y464.227
G01 X377.222 Y464.227
G01 X377.621 Y463.829
G01 X378.019 Y463.431
G01 X378.417 Y463.431
G01 X378.815 Y463.033
G01 X379.213 Y463.033
G01 X379.612 Y462.635
G01 X380.010 Y462.635
G01 X380.408 Y462.236
G01 X380.806 Y461.838
G01 X381.204 Y461.838
G01 X381.602 Y461.440
G01 X382.001 Y461.042
G01 X382.399 Y461.042
G01 X382.797 Y460.644
G01 X383.195 Y460.245
G01 X383.593 Y460.245
G01 X383.992 Y459.847
G01 X384.390 Y459.847
G01 X384.788 Y459.449
G01 X385.186 Y459.051
G01 X385.584 Y459.051
G01 X385.983 Y458.653
G01 X386.381 Y458.254
G01 X386.779 Y458.254
G01 X387.177 Y457.856
G01 X387.575 Y457.458
G01 X387.974 Y457.458
G01 X388.372 Y457.060
G01 X388.770 Y456.662
G01 X389.168 Y456.662
G01 X389.566 Y456.263
G01 X389.965 Y455.865
G01 X390.363 Y455.865
G01 X390.761 Y455.467
G01 X391.159 Y455.069
G01 X391.557 Y455.069
G01 X391.955 Y454.671
G01 X392.354 Y454.273
G01 X392.752 Y453.874
G01 X393.150 Y453.874
G01 X393.548 Y453.476
G01 X393.946 Y453.078
G01 X394.345 Y453.078
G01 X394.743 Y452.680
G01 X395.141 Y452.282
G01 X395.539 Y451.883
G01 X395.937 Y451.883
G01 X396.336 Y451.485
G01 X396.734 Y451.087
G01 X397.132 Y451.087
G01 X397.530 Y450.689
G01 X397.928 Y450.291
G01 X398.327 Y449.892
G01 X398.725 Y449.892
G01 X399.123 Y449.494
G01 X399.521 Y449.096
G01 X399.919 Y448.698
G01 X400.317 Y448.698
G01 X400.716 Y448.300
G01 X401.114 Y447.901
G01 X401.512 Y447.503
G01 X401.910 Y447.105
G01 X402.308 Y447.105
G01 X402.707 Y446.707
G01 X403.105 Y446.309
G01 X403.503 Y445.910
G01 X403.901 Y445.910
G01 X404.299 Y445.512
G01 X404.698 Y445.114
G01 X405.096 Y444.716
G01 X405.494 Y444.716
G01 X405.892 Y444.318
G01 X406.290 Y443.920
G01 X406.689 Y443.521
G01 X407.087 Y443.123
G01 X407.485 Y442.725
G01 X407.883 Y442.725
G01 X408.281 Y442.327
G01 X408.680 Y441.929
G01 X409.078 Y441.530
G01 X409.476 Y441.132
G01 X409.874 Y440.734
G01 X410.272 Y440.734
G01 X410.670 Y440.336
G01 X411.069 Y439.938
G01 X411.467 Y439.539
G01 X411.865 Y439.141
G01 X412.263 Y438.743
G01 X412.661 Y438.743
G01 X413.060 Y438.345
G01 X413.458 Y437.947
G01 X413.856 Y437.548
G01 X414.254 Y437.150
G01 X414.652 Y436.752
G01 X415.051 Y436.354
G01 X415.449 Y435.956
G01 X415.847 Y435.557
G01 X416.245 Y435.557
G01 X416.643 Y435.159
G01 X417.042 Y434.761
G01 X417.440 Y434.363
G01 X417.838 Y433.965
G01 X418.236 Y433.567
G01 X418.634 Y433.168
G01 X419.033 Y432.770
G01 X419.431 Y432.372
G01 X419.829 Y431.974
G01 X420.227 Y431.576
G01 X420.625 Y431.177
G01 X421.023 Y431.177
G01 X421.422 Y430.779
G01 X421.820 Y430.381
G01 X422.218 Y429.983
G01 X422.616 Y429.585
G01 X423.014 Y429.186
G01 X423.413 Y428.788
G01 X423.811 Y428.390
G01 X424.209 Y427.992
G01 X424.607 Y427.594
G01 X425.005 Y427.195
G01 X425.404 Y426.797
G01 X425.802 Y426.399
G01 X426.200 Y426.001
G01 X426.598 Y425.603
G01 X426.996 Y425.205
G01 X427.395 Y424.806
G01 X427.793 Y424.408
G01 X428.191 Y424.010
G01 X428.589 Y423.612
G01 X428.987 Y423.214
G01 X429.386 Y422.815
G01 X429.784 Y422.417
G01 X430.182 Y422.019
G01 X430.580 Y421.621
G01 X430.978 Y421.223
G01 X431.376 Y420.824
G01 X431.775 Y420.426
G01 X432.173 Y420.028
G01 X432.571 Y419.630
G01 X432.969 Y419.232
G01 X433.367 Y418.833
G01 X433.766 Y418.435
G01 X434.164 Y418.037
G01 X434.562 Y417.639
G01 X434.960 Y417.241
G01 X435.358 Y416.842
G01 X435.757 Y416.444
G01 X435.757 Y416.046
G01 X436.155 Y415.648
G01 X436.553 Y415.250
G01 X436.951 Y414.852
G01 X437.349 Y414.453
G01 X437.748 Y414.055
G01 X438.146 Y413.657
G01 X438.544 Y413.259
G01 X438.942 Y412.861
G01 X438.942 Y412.462
G01 X439.340 Y412.064
G01 X439.739 Y411.666
G01 X440.137 Y411.268
G01 X440.535 Y410.870
G01 X440.933 Y410.471
G01 X440.933 Y410.073
G01 X441.331 Y409.675
G01 X441.729 Y409.277
G01 X442.128 Y408.879
G01 X442.526 Y408.480
G01 X442.924 Y408.082
G01 X442.924 Y407.684
G01 X443.322 Y407.286
G01 X443.720 Y406.888
G01 X444.119 Y406.489
G01 X444.517 Y406.091
G01 X444.915 Y405.693
G01 X444.915 Y405.295
G01 X445.313 Y404.897
G01 X445.711 Y404.499
G01 X446.110 Y404.100
G01 X446.110 Y403.702
G01 X446.508 Y403.304
G01 X446.906 Y402.906
G01 X447.304 Y402.508
G01 X447.304 Y402.109
G01 X447.702 Y401.711
G01 X448.101 Y401.313
G01 X448.499 Y400.915
G01 X448.897 Y400.517
G01 X448.897 Y400.118
G01 X449.295 Y399.720
G01 X449.693 Y399.322
G01 X450.092 Y398.924
G01 X450.092 Y398.526
G01 X450.490 Y398.127
G01 X450.888 Y397.729
G01 X451.286 Y397.331
G01 X451.286 Y396.933
G01 X451.684 Y396.535
G01 X452.082 Y396.136
G01 X452.082 Y395.738
G01 X452.481 Y395.340
G01 X452.879 Y394.942
G01 X453.277 Y394.544
G01 X453.277 Y394.146
G01 X453.675 Y393.747
G01 X454.073 Y393.349
G01 X454.073 Y392.951
G01 X454.472 Y392.553
G01 X454.870 Y392.155
G01 X455.268 Y391.756
G01 X455.268 Y391.358
G01 X455.666 Y390.960
G01 X456.064 Y390.562
G01 X456.064 Y390.164
G01 X456.463 Y389.765
G01 X456.861 Y389.367
G01 X457.259 Y388.969
G01 X457.259 Y388.571
G01 X457.657 Y388.173
G01 X458.055 Y387.774
G01 X458.055 Y387.376
G01 X458.454 Y386.978
G01 X458.454 Y386.580
G01 X458.852 Y386.182
G01 X459.250 Y385.783
G01 X459.250 Y385.385
G01 X459.648 Y384.987
G01 X460.046 Y384.589
G01 X460.046 Y384.191
G01 X460.444 Y383.793
G01 X460.843 Y383.394
G01 X460.843 Y382.996
G01 X461.241 Y382.598
G01 X461.241 Y382.200
G01 X461.639 Y381.802
G01 X462.037 Y381.403
G01 X462.037 Y381.005
G01 X462.435 Y380.607
G01 X462.834 Y380.209
G01 X462.834 Y379.811
G01 X463.232 Y379.412
G01 X463.232 Y379.014
G01 X463.630 Y378.616
G01 X464.028 Y378.218
G01 X464.028 Y377.820
G01 X464.426 Y377.421
G01 X464.426 Y377.023
G01 X464.825 Y376.625
G01 X465.223 Y376.227
G01 X465.223 Y375.829
G01 X465.621 Y375.430
G01 X465.621 Y375.032
G01 X466.019 Y374.634
G01 X466.417 Y374.236
G01 X466.417 Y373.838
G01 X466.816 Y373.440
G01 X466.816 Y373.041
G01 X467.214 Y372.643
G01 X467.214 Y372.245
G01 X467.612 Y371.847
G01 X468.010 Y371.449
G01 X468.010 Y371.050
G01 X468.408 Y370.652
G01 X468.408 Y370.254
G01 X468.807 Y369.856
G01 X468.807 Y369.458
G01 X469.205 Y369.059
G01 X469.205 Y368.661
G01 X469.205 Y368.263
G01 X469.205 Y367.865
G01 X469.205 Y367.467
G01 X469.205 Y367.068
G01 X468.807 Y366.670
G01 X468.408 Y366.272
G01 X468.010 Y366.272
G01 X467.612 Y365.874
G01 X467.214 Y365.874
G01 X466.816 Y365.476
G01 X466.417 Y365.476
G01 X466.019 Y365.078
G01 X465.621 Y365.078
G01 X465.223 Y364.679
G01 X464.825 Y364.679
G01 X464.426 Y364.281
G01 X464.028 Y364.281
G01 X463.630 Y363.883
G01 X463.232 Y363.883
G01 X462.834 Y363.485
G01 X462.435 Y363.485
G01 X462.037 Y363.087
G01 X461.639 Y362.688
G01 X461.241 Y362.688
G01 X460.843 Y362.290
G01 X460.444 Y362.290
G01 X460.046 Y361.892
G01 X459.648 Y361.892
G01 X459.250 Y361.494
G01 X458.852 Y361.494
G01 X458.454 Y361.096
G01 X458.055 Y361.096
G01 X457.657 Y360.697
G01 X457.259 Y360.697
G01 X456.861 Y360.299
G01 X456.463 Y359.901
G01 X456.064 Y359.901
G01 X455.666 Y359.503
G01 X455.268 Y359.503
G01 X454.870 Y359.105
G01 X454.472 Y359.105
G01 X454.073 Y358.706
G01 X453.675 Y358.706
G01 X453.277 Y358.308
G01 X452.879 Y358.308
G01 X452.481 Y357.910
G01 X452.082 Y357.910
G01 X451.684 Y357.512
G01 X451.286 Y357.114
G01 X450.888 Y357.114
G01 X450.490 Y356.715
G01 X450.092 Y356.715
G01 X449.693 Y356.317
G01 X449.295 Y356.317
G01 X448.897 Y355.919
G01 X448.499 Y355.919
G01 X448.101 Y355.521
G01 X447.702 Y355.521
G01 X447.304 Y355.123
G01 X446.906 Y355.123
G01 X446.508 Y354.725
G01 X446.110 Y354.725
G01 X445.711 Y354.326
G01 X445.313 Y353.928
G01 X444.915 Y353.928
G01 X444.517 Y353.530
G01 X444.119 Y353.530
G01 X443.720 Y353.132
G01 X443.322 Y353.132
G01 X442.924 Y352.734
G01 X442.526 Y352.734
G01 X442.128 Y352.335
G01 X441.729 Y352.335
G01 X441.331 Y351.937
G01 X440.933 Y351.539
G01 X440.535 Y351.539
G01 X440.137 Y351.141
G01 X439.739 Y351.141
G01 X439.340 Y351.141
G01 X439.739 Y351.141
G01 X440.137 Y351.141
G01 X440.535 Y351.539
G01 X440.933 Y351.539
G01 X441.331 Y351.937
G01 X441.729 Y352.335
G01 X442.128 Y352.335
G01 X442.526 Y352.734
G01 X442.924 Y352.734
G01 X443.322 Y353.132
G01 X443.720 Y353.132
G01 X444.119 Y353.530
G01 X444.517 Y353.530
G01 X444.915 Y353.928
G01 X445.313 Y353.928
G01 X445.711 Y354.326
G01 X446.110 Y354.725
G01 X446.508 Y354.725
G01 X446.906 Y355.123
G01 X447.304 Y355.123
G01 X447.702 Y355.521
G01 X448.101 Y355.521
G01 X448.499 Y355.919
G01 X448.897 Y355.919
G01 X449.295 Y356.317
G01 X449.693 Y356.317
G01 X450.092 Y356.715
G01 X450.490 Y356.715
G01 X450.888 Y357.114
G01 X451.286 Y357.114
G01 X451.684 Y357.512
G01 X452.082 Y357.910
G01 X452.481 Y357.910
G01 X452.879 Y358.308
G01 X453.277 Y358.308
G01 X453.675 Y358.706
G01 X454.073 Y358.706
G01 X454.472 Y359.105
G01 X454.870 Y359.105
G01 X455.268 Y359.503
G01 X455.666 Y359.503
G01 X456.064 Y359.901
G01 X456.463 Y359.901
G01 X456.861 Y360.299
G01 X457.259 Y360.697
G01 X457.657 Y360.697
G01 X458.055 Y361.096
G01 X458.454 Y361.096
G01 X458.852 Y361.494
G01 X459.250 Y361.494
G01 X459.648 Y361.892
G01 X460.046 Y361.892
G01 X460.444 Y362.290
G01 X460.843 Y362.290
G01 X461.241 Y362.688
G01 X461.639 Y362.688
G01 X462.037 Y363.087
G01 X462.435 Y363.485
G01 X462.834 Y363.485
G01 X463.232 Y363.883
G01 X463.630 Y363.883
G01 X464.028 Y364.281
G01 X464.426 Y364.281
G01 X464.825 Y364.679
G01 X465.223 Y364.679
G01 X465.621 Y365.078
G01 X466.019 Y365.078
G01 X466.417 Y365.476
G01 X466.816 Y365.476
G01 X467.214 Y365.874
G01 X467.612 Y365.874
G01 X468.010 Y366.272
G01 X468.408 Y366.272
G01 X468.807 Y366.670
G01 X469.205 Y367.068
G01 X469.603 Y367.068
G01 X470.001 Y366.670
G01 X470.399 Y366.272
G01 X470.797 Y365.874
G01 X471.196 Y365.476
G01 X471.196 Y365.078
G01 X471.594 Y364.679
G01 X471.594 Y364.281
G01 X471.992 Y363.883
G01 X471.992 Y363.485
G01 X472.390 Y363.087
G01 X472.390 Y362.688
G01 X472.788 Y362.290
G01 X472.788 Y361.892
G01 X473.187 Y361.494
G01 X473.187 Y361.096
G01 X473.585 Y360.697
G01 X473.585 Y360.299
G01 X473.983 Y359.901
G01 X473.983 Y359.503
G01 X474.381 Y359.105
G01 X474.381 Y358.706
G01 X474.779 Y358.308
G01 X474.779 Y357.910
G01 X475.178 Y357.512
G01 X475.178 Y357.114
G01 X475.576 Y356.715
G01 X475.576 Y356.317
G01 X475.974 Y355.919
G01 X475.974 Y355.521
G01 X476.372 Y355.123
G01 X476.372 Y354.725
G01 X476.770 Y354.326
G01 X476.770 Y353.928
G01 X476.770 Y353.530
G01 X477.169 Y353.132
G01 X477.169 Y352.734
G01 X477.567 Y352.335
G01 X477.567 Y351.937
G01 X477.965 Y351.539
G01 X477.965 Y351.141
G01 X478.363 Y350.743
G01 X478.363 Y350.344
G01 X478.363 Y349.946
G01 X478.761 Y349.548
G01 X478.761 Y349.150
G01 X479.160 Y348.752
G01 X479.160 Y348.353
G01 X479.558 Y347.955
G01 X479.558 Y347.557
G01 X479.558 Y347.159
G01 X479.956 Y346.761
G01 X479.956 Y346.362
G01 X480.354 Y345.964
G01 X480.354 Y345.566
G01 X480.752 Y345.168
G01 X480.752 Y344.770
G01 X480.752 Y344.372
G01 X481.150 Y343.973
G01 X481.150 Y343.575
G01 X481.150 Y343.177
G01 X481.549 Y342.779
G01 X481.549 Y342.381
G01 X481.947 Y341.982
G01 X481.947 Y341.584
G01 X482.345 Y341.186
G01 X482.345 Y340.788
G01 X482.345 Y340.390
G01 X482.743 Y339.991
G01 X482.743 Y339.593
G01 X483.141 Y339.195
G01 X483.141 Y338.797
G01 X483.141 Y338.399
G01 X483.540 Y338.000
G01 X483.540 Y337.602
G01 X483.540 Y337.204
G01 X483.938 Y336.806
G01 X483.938 Y336.408
G01 X484.336 Y336.009
G01 X484.336 Y335.611
G01 X484.336 Y335.213
G01 X484.734 Y334.815
G01 X484.734 Y334.417
G01 X484.734 Y334.019
G01 X485.132 Y333.620
G01 X485.132 Y333.222
G01 X485.132 Y332.824
G01 X485.531 Y332.426
G01 X485.531 Y332.028
G01 X485.929 Y331.629
G01 X485.929 Y331.231
G01 X485.929 Y330.833
G01 X486.327 Y330.435
G01 X486.327 Y330.037
G01 X486.327 Y329.638
G01 X486.725 Y329.240
G01 X486.725 Y328.842
G01 X486.725 Y328.444
G01 X487.123 Y328.046
G01 X487.123 Y327.647
G01 X487.123 Y327.249
G01 X487.123 Y326.851
G01 X487.522 Y326.453
G01 X487.522 Y326.055
G01 X487.522 Y325.656
G01 X487.920 Y325.258
G01 X487.920 Y324.860
G01 X487.920 Y324.462
G01 X487.920 Y324.064
G01 X487.920 Y323.666
G01 X487.920 Y323.267
G01 X488.318 Y322.869
G01 X488.318 Y322.471
G01 X488.318 Y322.073
G01 X488.318 Y321.675
G01 X488.716 Y321.675
G01 X489.114 Y321.276
G01 X489.114 Y320.878
G01 X489.114 Y320.480
G01 X489.513 Y320.082
G01 X489.513 Y319.684
G01 X489.513 Y319.285
G01 X489.911 Y318.887
G01 X489.911 Y318.489
G01 X489.911 Y318.091
G01 X489.911 Y317.693
G01 X490.309 Y317.294
G01 X490.309 Y316.896
G01 X490.309 Y316.498
G01 X490.309 Y316.100
G01 X490.707 Y315.702
G01 X490.707 Y315.303
G01 X490.707 Y314.905
G01 X491.105 Y314.507
G01 X491.105 Y314.109
G01 X491.105 Y313.711
G01 X491.105 Y313.313
G01 X491.503 Y312.914
G01 X491.503 Y312.516
G01 X491.503 Y312.118
G01 X491.503 Y311.720
G01 X491.902 Y311.322
G01 X491.902 Y310.923
G01 X491.902 Y310.525
G01 X491.902 Y310.127
G01 X492.300 Y309.729
G01 X492.300 Y309.331
G01 X492.300 Y308.932
G01 X492.300 Y308.534
G01 X492.698 Y308.136
G01 X492.698 Y307.738
G01 X492.698 Y307.340
G01 X492.698 Y306.941
G01 X493.096 Y306.543
G01 X493.096 Y306.145
G01 X493.096 Y305.747
G01 X493.096 Y305.349
G01 X493.494 Y304.951
G01 X493.494 Y304.552
G01 X493.494 Y304.154
G01 X493.494 Y303.756
G01 X493.494 Y303.358
G01 X493.893 Y302.960
G01 X493.893 Y302.561
G01 X493.893 Y302.163
G01 X493.893 Y301.765
G01 X493.893 Y301.367
G01 X494.291 Y300.969
G01 X494.291 Y300.570
G01 X494.291 Y300.172
G01 X494.291 Y299.774
G01 X494.689 Y299.376
G01 X494.689 Y298.978
G01 X494.689 Y298.579
G01 X494.689 Y298.181
G01 X494.689 Y297.783
G01 X495.087 Y297.385
G01 X495.087 Y296.987
G01 X495.087 Y296.588
G01 X495.087 Y296.190
G01 X495.087 Y295.792
G01 X495.087 Y295.394
G01 X495.485 Y294.996
G01 X495.485 Y294.598
G01 X495.485 Y294.199
G01 X495.485 Y293.801
G01 X495.485 Y293.403
G01 X495.485 Y293.005
G01 X495.884 Y292.607
G01 X495.884 Y292.208
G01 X495.884 Y291.810
G01 X495.884 Y291.412
G01 X495.884 Y291.014
G01 X495.884 Y290.616
G01 X496.282 Y290.217
G01 X496.282 Y289.819
G01 X496.282 Y289.421
G01 X496.282 Y289.023
G01 X496.282 Y288.625
G01 X496.282 Y288.226
G01 X496.680 Y287.828
G01 X496.680 Y287.430
G01 X496.680 Y287.032
G01 X496.680 Y286.634
G01 X496.680 Y286.235
G01 X496.680 Y285.837
G01 X496.680 Y285.439
G01 X497.078 Y285.041
G01 X497.078 Y284.643
G01 X497.078 Y284.245
G01 X497.078 Y283.846
G01 X497.078 Y283.448
G01 X497.078 Y283.050
G01 X497.078 Y282.652
G01 X497.078 Y282.254
G01 X497.476 Y281.855
G01 X497.476 Y281.457
G01 X497.476 Y281.059
G01 X497.476 Y280.661
G01 X497.476 Y280.263
G01 X497.476 Y279.864
G01 X497.476 Y279.466
G01 X497.476 Y279.068
G01 X497.875 Y278.670
G01 X497.875 Y278.272
G01 X497.875 Y277.873
G01 X497.875 Y277.475
G01 X497.875 Y277.077
G01 X497.875 Y276.679
G01 X497.875 Y276.281
G01 X497.875 Y275.882
G01 X497.875 Y275.484
G01 X497.875 Y275.086
G01 X498.273 Y274.688
G01 X498.273 Y274.290
G01 X498.273 Y273.892
G01 X498.273 Y273.493
G01 X498.273 Y273.095
G01 X498.273 Y272.697
G01 X498.273 Y272.299
G01 X498.273 Y271.901
G01 X498.273 Y271.502
G01 X498.273 Y271.104
G01 X498.273 Y270.706
G01 X498.671 Y270.308
G01 X498.671 Y269.910
G01 X498.671 Y269.511
G01 X498.671 Y269.113
G01 X498.671 Y268.715
G01 X498.671 Y268.317
G01 X498.671 Y267.919
G01 X498.671 Y267.520
G01 X498.671 Y267.122
G01 X498.671 Y266.724
G01 X498.671 Y266.326
G01 X498.671 Y265.928
G01 X498.671 Y265.529
G01 X498.671 Y265.131
G01 X498.671 Y264.733
G01 X498.671 Y264.335
G01 X499.069 Y263.937
G01 X499.069 Y263.539
G01 X499.069 Y263.140
G01 X499.069 Y262.742
G01 X499.069 Y262.344
G01 X499.069 Y261.946
G01 X499.069 Y261.548
G01 X499.069 Y261.149
G01 X499.069 Y260.751
G01 X499.069 Y260.353
G01 X499.069 Y259.955
G01 X499.069 Y259.557
G01 X499.069 Y259.158
G01 X499.069 Y258.760
G01 X499.069 Y258.362
G01 X499.069 Y257.964
G01 X499.069 Y257.566
G01 X499.069 Y257.167
G01 X499.069 Y256.769
G01 X499.069 Y256.371
G01 X499.069 Y255.973
G01 X499.069 Y255.575
G01 X499.069 Y255.176
G01 X499.069 Y254.778
G01 X499.069 Y254.380
G01 X499.069 Y253.982
G01 X499.069 Y253.584
G01 X499.069 Y253.186
G01 X499.069 Y252.787
G01 X499.069 Y252.389
G01 X499.069 Y251.991
G01 X499.069 Y251.593
G01 X499.069 Y251.195
G01 X499.467 Y250.796
G01 X499.467 Y250.398
G01 X499.467 Y250.000
G01 X499.467 Y249.602
G01 X499.467 Y249.204
G01 X499.467 Y248.805
G01 X499.467 Y248.407
G01 X499.467 Y248.009
G01 X499.467 Y247.611
G01 X499.069 Y247.213
G01 X499.069 Y246.814
G01 X499.069 Y246.416
G01 X499.069 Y246.018
G01 X499.069 Y245.620
G01 X499.069 Y245.222
G01 X499.069 Y244.824
G01 X499.069 Y244.425
G01 X499.069 Y244.027
G01 X499.069 Y243.629
G01 X499.069 Y243.231
G01 X499.069 Y242.833
G01 X499.069 Y242.434
G01 X499.069 Y242.036
G01 X499.069 Y241.638
G01 X499.069 Y241.240
G01 X499.069 Y240.842
G01 X499.069 Y240.443
G01 X499.069 Y240.045
G01 X499.069 Y239.647
G01 X499.069 Y239.249
G01 X499.069 Y238.851
G01 X499.069 Y238.452
G01 X499.069 Y238.054
G01 X499.069 Y237.656
G01 X499.069 Y237.258
G01 X499.069 Y236.860
G01 X499.069 Y236.461
G01 X499.069 Y236.063
G01 X498.671 Y235.665
G01 X498.671 Y235.267
G01 X498.671 Y234.869
G01 X498.671 Y234.471
G01 X498.671 Y234.072
G01 X498.671 Y233.674
G01 X498.671 Y233.276
G01 X498.671 Y232.878
G01 X498.671 Y232.480
G01 X498.671 Y232.081
G01 X498.671 Y231.683
G01 X498.671 Y231.285
G01 X498.671 Y230.887
G01 X498.671 Y230.489
G01 X498.671 Y230.090
G01 X498.273 Y229.692
G01 X498.273 Y229.294
G01 X498.273 Y228.896
G01 X498.273 Y228.498
G01 X498.273 Y228.099
G01 X498.273 Y227.701
G01 X498.273 Y227.303
G01 X498.273 Y226.905
G01 X498.273 Y226.507
G01 X498.273 Y226.108
G01 X498.273 Y225.710
G01 X498.273 Y225.312
G01 X497.875 Y224.914
G01 X497.875 Y224.516
G01 X497.875 Y224.118
G01 X497.875 Y223.719
G01 X497.875 Y223.321
G01 X497.875 Y222.923
G01 X497.875 Y222.525
G01 X497.875 Y222.127
G01 X497.875 Y221.728
G01 X497.476 Y221.330
G01 X497.476 Y220.932
G01 X497.476 Y220.534
G01 X497.476 Y220.136
G01 X497.476 Y219.737
G01 X497.476 Y219.339
G01 X497.476 Y218.941
G01 X497.476 Y218.543
G01 X497.476 Y218.145
G01 X497.078 Y217.746
G01 X497.078 Y217.348
G01 X497.078 Y216.950
G01 X497.078 Y216.552
G01 X497.078 Y216.154
G01 X497.078 Y215.755
G01 X497.078 Y215.357
G01 X496.680 Y214.959
G01 X496.680 Y214.561
G01 X496.680 Y214.163
G01 X496.680 Y213.765
G01 X496.680 Y213.366
G01 X496.680 Y212.968
G01 X496.680 Y212.570
G01 X496.282 Y212.172
G01 X496.282 Y211.774
G01 X496.282 Y211.375
G01 X496.282 Y210.977
G01 X496.282 Y210.579
G01 X496.282 Y210.181
G01 X496.282 Y209.783
G01 X495.884 Y209.384
G01 X495.884 Y208.986
G01 X495.884 Y208.588
G01 X495.884 Y208.190
G01 X495.884 Y207.792
G01 X495.884 Y207.393
G01 X495.485 Y206.995
G01 X495.485 Y206.597
G01 X495.485 Y206.199
G01 X495.485 Y205.801
G01 X495.485 Y205.402
G01 X495.485 Y205.004
G01 X495.087 Y204.606
G01 X495.087 Y204.208
G01 X495.087 Y203.810
G01 X495.087 Y203.412
G01 X495.087 Y203.013
G01 X494.689 Y202.615
G01 X494.689 Y202.217
G01 X494.689 Y201.819
G01 X494.689 Y201.421
G01 X494.689 Y201.022
G01 X494.291 Y200.624
G01 X494.291 Y200.226
G01 X494.291 Y199.828
G01 X494.291 Y199.430
G01 X494.291 Y199.031
G01 X493.893 Y198.633
G01 X493.893 Y198.235
G01 X493.893 Y197.837
G01 X493.893 Y197.439
G01 X493.893 Y197.040
G01 X493.494 Y196.642
G01 X493.494 Y196.244
G01 X493.494 Y195.846
G01 X493.494 Y195.448
G01 X493.494 Y195.049
G01 X493.096 Y194.651
G01 X493.096 Y194.253
G01 X493.096 Y193.855
G01 X493.096 Y193.457
G01 X492.698 Y193.059
G01 X492.698 Y192.660
G01 X492.698 Y192.262
G01 X492.698 Y191.864
G01 X492.300 Y191.466
G01 X492.300 Y191.068
G01 X492.300 Y190.669
G01 X492.300 Y190.271
G01 X491.902 Y189.873
G01 X491.902 Y189.475
G01 X491.902 Y189.077
G01 X491.902 Y188.678
G01 X491.503 Y188.280
G01 X491.503 Y187.882
G01 X491.503 Y187.484
G01 X491.503 Y187.086
G01 X491.105 Y186.687
G01 X491.105 Y186.289
G01 X491.105 Y185.891
G01 X491.105 Y185.493
G01 X490.707 Y185.095
G01 X490.707 Y184.697
G01 X490.707 Y184.298
G01 X490.707 Y183.900
G01 X490.309 Y183.502
G01 X490.309 Y183.104
G01 X490.309 Y182.706
G01 X489.911 Y182.307
G01 X489.911 Y181.909
G01 X489.911 Y181.511
G01 X489.911 Y181.113
G01 X489.513 Y180.715
G01 X489.513 Y180.316
G01 X489.513 Y179.918
G01 X489.114 Y179.520
G01 X489.114 Y179.122
G01 X489.114 Y178.724
G01 X489.114 Y178.325
G01 X488.716 Y177.927
G01 X488.318 Y177.927
G01 X488.318 Y177.529
G01 X488.318 Y177.131
G01 X487.920 Y176.733
G01 X487.920 Y176.334
G01 X487.920 Y175.936
G01 X487.920 Y175.538
G01 X487.920 Y175.140
G01 X487.920 Y174.742
G01 X487.522 Y174.344
G01 X487.522 Y173.945
G01 X487.522 Y173.547
G01 X487.123 Y173.149
G01 X487.123 Y172.751
G01 X487.123 Y172.353
G01 X486.725 Y171.954
G01 X486.725 Y171.556
G01 X486.725 Y171.158
G01 X486.327 Y170.760
G01 X486.327 Y170.362
G01 X486.327 Y169.963
G01 X485.929 Y169.565
G01 X485.929 Y169.167
G01 X485.929 Y168.769
G01 X485.531 Y168.371
G01 X485.531 Y167.972
G01 X485.531 Y167.574
G01 X485.132 Y167.176
G01 X485.132 Y166.778
G01 X485.132 Y166.380
G01 X484.734 Y165.981
G01 X484.734 Y165.583
G01 X484.734 Y165.185
G01 X484.336 Y164.787
G01 X484.336 Y164.389
G01 X483.938 Y163.991
G01 X483.938 Y163.592
G01 X483.938 Y163.194
G01 X483.540 Y162.796
G01 X483.540 Y162.398
G01 X483.540 Y162.000
G01 X483.141 Y161.601
G01 X483.141 Y161.203
G01 X482.743 Y160.805
G01 X482.743 Y160.407
G01 X482.743 Y160.009
G01 X482.345 Y159.610
G01 X482.345 Y159.212
G01 X481.947 Y158.814
G01 X481.947 Y158.416
G01 X481.947 Y158.018
G01 X481.549 Y157.619
G01 X481.549 Y157.221
G01 X481.150 Y156.823
G01 X481.150 Y156.425
G01 X481.150 Y156.027
G01 X480.752 Y155.628
G01 X480.752 Y155.230
G01 X480.354 Y154.832
G01 X480.354 Y154.434
G01 X480.354 Y154.036
G01 X479.956 Y153.638
G01 X479.956 Y153.239
G01 X479.558 Y152.841
G01 X479.558 Y152.443
G01 X479.558 Y152.045
G01 X479.160 Y151.647
G01 X479.160 Y151.248
G01 X478.761 Y150.850
G01 X478.761 Y150.452
G01 X478.363 Y150.054
G01 X478.363 Y149.656
G01 X477.965 Y149.257
G01 X477.965 Y148.859
G01 X477.965 Y148.461
G01 X477.567 Y148.063
G01 X477.567 Y147.665
G01 X477.169 Y147.266
G01 X477.169 Y146.868
G01 X476.770 Y146.470
G01 X476.770 Y146.072
G01 X476.372 Y145.674
G01 X476.372 Y145.275
G01 X476.372 Y144.877
G01 X475.974 Y144.479
G01 X475.974 Y144.081
G01 X475.576 Y143.683
G01 X475.576 Y143.285
G01 X475.178 Y142.886
G01 X475.178 Y142.488
G01 X474.779 Y142.090
G01 X474.779 Y141.692
G01 X474.381 Y141.294
G01 X474.381 Y140.895
G01 X473.983 Y140.497
G01 X473.983 Y140.099
G01 X473.585 Y139.701
G01 X473.585 Y139.303
G01 X473.187 Y138.904
G01 X473.187 Y138.506
G01 X472.788 Y138.108
G01 X472.788 Y137.710
G01 X472.390 Y137.312
G01 X472.390 Y136.913
G01 X471.992 Y136.515
G01 X471.992 Y136.117
G01 X471.594 Y135.719
G01 X471.594 Y135.321
G01 X471.196 Y134.922
G01 X471.196 Y134.524
G01 X470.797 Y134.126
G01 X470.797 Y133.728
G01 X470.399 Y133.330
G01 X470.399 Y132.932
G01 X470.001 Y132.533
G01 X469.603 Y132.135
G01 X469.603 Y131.737
G01 X469.205 Y131.339
G01 X469.205 Y130.941
G01 X468.807 Y130.542
G01 X468.807 Y130.144
G01 X468.408 Y129.746
G01 X468.408 Y129.348
G01 X468.010 Y128.950
G01 X468.010 Y128.551
G01 X467.612 Y128.153
G01 X467.612 Y127.755
G01 X467.214 Y127.357
G01 X466.816 Y126.959
G01 X466.816 Y126.560
G01 X466.417 Y126.162
G01 X466.417 Y125.764
G01 X466.019 Y125.366
G01 X465.621 Y124.968
G01 X465.621 Y124.570
G01 X465.223 Y124.171
G01 X465.223 Y123.773
G01 X464.825 Y123.375
G01 X464.426 Y122.977
G01 X464.426 Y122.579
G01 X464.028 Y122.180
G01 X464.028 Y121.782
G01 X463.630 Y121.384
G01 X463.232 Y120.986
G01 X463.232 Y120.588
G01 X462.834 Y120.189
G01 X462.834 Y119.791
G01 X462.435 Y119.393
G01 X462.435 Y118.995
G01 X462.037 Y118.597
G01 X461.639 Y118.198
G01 X461.639 Y117.800
G01 X461.241 Y117.402
G01 X460.843 Y117.004
G01 X460.843 Y116.606
G01 X460.444 Y116.207
G01 X460.046 Y115.809
G01 X460.046 Y115.411
G01 X459.648 Y115.013
G01 X459.250 Y114.615
G01 X459.250 Y114.217
G01 X458.852 Y113.818
G01 X458.852 Y113.420
G01 X458.454 Y113.022
G01 X458.055 Y112.624
G01 X457.657 Y112.226
G01 X457.259 Y111.827
G01 X456.861 Y111.827
G01 X456.861 Y111.429
G01 X456.463 Y111.031
G01 X456.463 Y110.633
G01 X456.463 Y110.235
G01 X456.064 Y109.836
G01 X456.064 Y109.438
G01 X455.666 Y109.040
G01 X455.268 Y108.642
G01 X455.268 Y108.244
G01 X454.870 Y107.845
G01 X454.472 Y107.447
G01 X454.472 Y107.049
G01 X454.073 Y106.651
G01 X453.675 Y106.253
G01 X453.277 Y105.854
G01 X453.277 Y105.456
G01 X452.879 Y105.058
G01 X452.481 Y104.660
G01 X452.481 Y104.262
G01 X452.082 Y103.864
G01 X451.684 Y103.465
G01 X451.286 Y103.067
G01 X451.286 Y102.669
G01 X450.888 Y102.271
G01 X450.490 Y101.873
G01 X450.490 Y101.474
G01 X450.092 Y101.076
G01 X449.693 Y100.678
G01 X449.295 Y100.280
G01 X448.897 Y99.882
G01 X448.897 Y99.483
G01 X448.499 Y99.085
G01 X448.101 Y98.687
G01 X447.702 Y98.289
G01 X447.702 Y97.891
G01 X447.304 Y97.492
G01 X446.906 Y97.094
G01 X446.508 Y96.696
G01 X446.110 Y96.298
G01 X446.110 Y95.900
G01 X445.711 Y95.501
G01 X445.313 Y95.103
G01 X444.915 Y94.705
G01 X444.915 Y94.307
G01 X444.517 Y93.909
G01 X444.119 Y93.511
G01 X443.720 Y93.112
G01 X443.322 Y92.714
G01 X442.924 Y92.316
G01 X442.526 Y92.316
G01 X442.128 Y92.316
G01 X442.128 Y91.918
G01 X441.729 Y91.520
G01 X441.729 Y91.121
G01 X441.729 Y90.723
G01 X441.729 Y90.325
G01 X441.331 Y89.927
G01 X440.933 Y89.529
G01 X440.535 Y89.130
G01 X440.137 Y88.732
G01 X439.739 Y88.334
G01 X439.340 Y87.936
G01 X438.942 Y87.538
G01 X438.942 Y87.139
G01 X438.544 Y86.741
G01 X438.146 Y86.343
G01 X437.748 Y85.945
G01 X437.349 Y85.547
G01 X436.951 Y85.148
G01 X436.553 Y84.750
G01 X436.553 Y84.352
G01 X436.155 Y83.954
G01 X435.757 Y83.556
G01 X435.358 Y83.158
G01 X434.960 Y82.759
G01 X434.562 Y82.361
G01 X434.164 Y81.963
G01 X433.766 Y81.565
G01 X433.367 Y81.167
G01 X432.969 Y80.768
G01 X432.969 Y80.370
G01 X432.571 Y79.972
G01 X432.173 Y79.574
G01 X431.775 Y79.176
G01 X431.376 Y78.777
G01 X430.978 Y78.379
G01 X430.580 Y77.981
G01 X430.182 Y77.583
G01 X429.784 Y77.185
G01 X429.386 Y76.786
G01 X428.987 Y76.388
G01 X428.589 Y75.990
G01 X428.191 Y75.592
G01 X427.793 Y75.194
G01 X427.395 Y74.796
G01 X426.996 Y74.397
G01 X426.598 Y73.999
G01 X426.200 Y73.601
G01 X425.802 Y73.203
G01 X425.404 Y72.805
G01 X425.005 Y72.406
G01 X424.607 Y72.008
G01 X424.209 Y71.610
G01 X423.811 Y71.212
G01 X423.413 Y70.814
G01 X423.014 Y70.415
G01 X422.616 Y70.017
G01 X422.218 Y69.619
G01 X421.820 Y69.221
G01 X421.422 Y68.823
G01 X421.023 Y68.424
G01 X420.625 Y68.026
G01 X420.227 Y67.628
G01 X419.829 Y67.230
G01 X419.431 Y66.832
G01 X419.033 Y66.433
G01 X418.634 Y66.035
G01 X418.236 Y65.637
G01 X417.838 Y65.239
G01 X417.440 Y64.841
G01 X417.042 Y64.443
G01 X416.643 Y64.044
G01 X416.245 Y63.646
G01 X415.847 Y63.248
G01 X415.449 Y63.248
G01 X415.051 Y62.850
G01 X414.652 Y62.452
G01 X414.254 Y62.053
G01 X413.856 Y61.655
G01 X413.458 Y61.257
G01 X413.060 Y60.859
G01 X412.661 Y60.859
G01 X412.263 Y60.461
G01 X411.865 Y60.062
G01 X411.467 Y59.664
G01 X411.069 Y59.266
G01 X410.670 Y58.868
G01 X410.272 Y58.470
G01 X409.874 Y58.470
G01 X409.476 Y58.071
G01 X409.078 Y57.673
G01 X408.680 Y57.275
G01 X408.281 Y56.877
G01 X407.883 Y56.479
G01 X407.485 Y56.479
G01 X407.087 Y56.080
G01 X406.689 Y55.682
G01 X406.290 Y55.284
G01 X405.892 Y54.886
G01 X405.494 Y54.886
G01 X405.096 Y54.488
G01 X404.698 Y54.090
G01 X404.299 Y53.691
G01 X403.901 Y53.691
G01 X403.503 Y53.293
G01 X403.105 Y52.895
G01 X402.707 Y52.497
G01 X402.308 Y52.099
G01 X401.910 Y52.099
G01 X401.512 Y51.700
G01 X401.114 Y51.302
G01 X400.716 Y50.904
G01 X400.317 Y50.904
G01 X399.919 Y50.506
G01 X399.521 Y50.108
G01 X399.123 Y49.709
G01 X398.725 Y49.311
G01 X398.327 Y49.311
G01 X397.928 Y48.913
G01 X397.530 Y48.515
G01 X397.132 Y48.515
G01 X396.734 Y48.117
G01 X396.336 Y47.718
G01 X395.937 Y47.320
G01 X395.539 Y47.320
G01 X395.141 Y46.922
G01 X394.743 Y46.524
G01 X394.345 Y46.524
G01 X393.946 Y46.126
G01 X393.548 Y45.727
G01 X393.150 Y45.329
G01 X392.752 Y45.329
G01 X392.354 Y44.931
G01 X391.955 Y44.533
G01 X391.557 Y44.533
G01 X391.159 Y44.135
G01 X390.761 Y43.737
G01 X390.363 Y43.737
G01 X389.965 Y43.338
G01 X389.566 Y43.338
G01 X389.168 Y43.338
G01 X388.770 Y42.940
G01 X388.372 Y42.940
G01 X387.974 Y42.940
G01 X387.575 Y42.542
G01 X387.575 Y42.144
G01 X387.177 Y41.746
G01 X386.779 Y41.347
G01 X386.381 Y40.949
G01 X385.983 Y40.551
G01 X385.584 Y40.551
G01 X385.186 Y40.153
G01 X384.788 Y39.755
G01 X384.390 Y39.755
G01 X383.992 Y39.356
G01 X383.593 Y38.958
G01 X383.195 Y38.958
G01 X382.797 Y38.560
G01 X382.399 Y38.162
G01 X382.001 Y38.162
G01 X381.602 Y37.764
G01 X381.204 Y37.764
G01 X380.806 Y37.365
G01 X380.408 Y36.967
G01 X380.010 Y36.967
G01 X379.612 Y36.569
G01 X379.213 Y36.569
G01 X378.815 Y36.171
G01 X378.417 Y35.773
G01 X378.019 Y35.773
G01 X377.621 Y35.374
G01 X377.222 Y35.374
G01 X376.824 Y34.976
G01 X376.426 Y34.578
G01 X376.028 Y34.578
G01 X375.630 Y34.180
G01 X375.231 Y34.180
G01 X374.833 Y33.782
G01 X374.435 Y33.782
G01 X374.037 Y33.384
G01 X373.639 Y32.985
G01 X373.240 Y32.985
G01 X372.842 Y32.587
G01 X372.444 Y32.587
G01 X372.046 Y32.189
G01 X371.648 Y32.189
G01 X371.249 Y31.791
G01 X370.851 Y31.393
G01 X370.453 Y31.393
G01 X370.055 Y30.994
G01 X369.657 Y30.994
G01 X369.259 Y30.596
G01 X368.860 Y30.596
G01 X368.462 Y30.596
G01 X368.064 Y30.596
G01 X367.666 Y30.198
G01 X367.268 Y30.198
G01 X366.869 Y30.198
G01 X366.869 Y29.800
G01 X366.471 Y29.402
G01 X366.073 Y29.003
G01 X365.675 Y28.605
G01 X365.277 Y28.605
G01 X364.878 Y28.207
G01 X364.480 Y28.207
G01 X364.082 Y27.809
G01 X363.684 Y27.809
G01 X363.286 Y27.411
G01 X362.887 Y27.411
G01 X362.489 Y27.012
G01 X362.091 Y27.012
G01 X361.693 Y26.614
G01 X361.295 Y26.614
G01 X360.896 Y26.216
G01 X360.498 Y26.216
G01 X360.100 Y25.818
G01 X359.702 Y25.818
G01 X359.304 Y25.420
G01 X358.906 Y25.420
G01 X358.507 Y25.021
G01 X358.109 Y25.021
G01 X357.711 Y24.623
G01 X357.313 Y24.623
G01 X356.915 Y24.623
G01 X356.516 Y24.225
G01 X356.118 Y23.827
G01 X355.720 Y23.827
G01 X355.322 Y23.429
G01 X354.924 Y23.429
G01 X354.525 Y23.429
G01 X354.127 Y23.031
G01 X353.729 Y23.031
G01 X353.331 Y22.632
G01 X352.933 Y22.632
G01 X352.534 Y22.234
G01 X352.136 Y22.234
G01 X351.738 Y21.836
G01 X351.340 Y21.836
G01 X350.942 Y21.836
G01 X350.543 Y21.438
G01 X350.145 Y21.438
G01 X349.747 Y21.040
G01 X349.349 Y21.040
G01 X348.951 Y20.641
G01 X348.553 Y20.641
G01 X348.154 Y20.641
G01 X347.756 Y20.243
G01 X347.358 Y20.243
G01 X346.960 Y19.845
G01 X346.562 Y19.845
G01 X346.163 Y19.447
G01 X345.765 Y19.447
G01 X345.367 Y19.447
G01 X344.969 Y19.049
G01 X344.571 Y19.049
G01 X344.172 Y18.650
G01 X343.774 Y18.650
G01 X343.376 Y18.650
G01 X342.978 Y18.252
G01 X342.580 Y18.252
G01 X342.181 Y17.854
G01 X341.783 Y17.854
G01 X341.385 Y17.854
G01 X340.987 Y17.456
G01 X340.589 Y17.456
G01 X340.190 Y17.058
G01 X339.792 Y17.058
G01 X339.394 Y17.058
G01 X338.996 Y16.659
G01 X338.598 Y16.659
G01 X338.200 Y16.261
G01 X337.801 Y16.261
G01 X337.403 Y16.261
G01 X337.005 Y15.863
G01 X336.607 Y15.863
G01 X336.209 Y15.863
G01 X335.810 Y15.465
G01 X335.412 Y15.465
G01 X335.014 Y15.067
G01 X334.616 Y15.067
G01 X334.218 Y15.067
G01 X333.819 Y14.669
G01 X333.421 Y14.669
G01 X333.023 Y14.669
G01 X332.625 Y14.270
G01 X332.227 Y14.270
G01 X331.828 Y14.270
G01 X331.430 Y13.872
G01 X331.032 Y13.872
G01 X330.634 Y13.872
G01 X330.236 Y13.474
G01 X329.838 Y13.474
G01 X329.439 Y13.076
G01 X329.041 Y13.076
G01 X328.643 Y13.076
G01 X328.245 Y13.076
G01 X327.847 Y12.678
G01 X327.448 Y12.678
G01 X327.050 Y12.678
G01 X326.652 Y12.279
G01 X326.254 Y12.279
G01 X325.856 Y12.279
G01 X325.457 Y11.881
G01 X325.059 Y11.881
G01 X324.661 Y11.881
G01 X324.263 Y11.483
G01 X323.865 Y11.483
G01 X323.466 Y11.483
G01 X323.068 Y11.085
G01 X322.670 Y11.085
G01 X322.272 Y11.085
G01 X321.874 Y10.687
G01 X321.475 Y10.687
G01 X321.077 Y10.687
G01 X320.679 Y10.687
G01 X320.281 Y10.288
G01 X319.883 Y10.288
G01 X319.485 Y10.288
G01 X319.086 Y9.890
G01 X318.688 Y9.890
G01 X318.290 Y9.890
G01 X317.892 Y9.890
G01 X317.494 Y9.492
G01 X317.095 Y9.492
G01 X316.697 Y9.492
G01 X316.299 Y9.094
G01 X315.901 Y9.094
G01 X315.503 Y9.094
G01 X315.104 Y9.094
G01 X314.706 Y8.696
G01 X314.308 Y8.696
G01 X313.910 Y8.696
G01 X313.512 Y8.696
G01 X313.113 Y8.297
G01 X312.715 Y8.297
G01 X312.317 Y8.297
G01 X311.919 Y8.297
G01 X311.521 Y7.899
G01 X311.122 Y7.899
G01 X310.724 Y7.899
G01 X310.326 Y7.899
G01 X309.928 Y7.501
G01 X309.530 Y7.501
G01 X309.132 Y7.501
G01 X308.733 Y7.103
G01 X308.335 Y7.103
G01 X307.937 Y7.103
G01 X307.539 Y7.103
G01 X307.141 Y7.103
G01 X306.742 Y6.705
G01 X306.344 Y6.705
G01 X305.946 Y6.705
G01 X305.548 Y6.705
G01 X305.150 Y6.306
G01 X304.751 Y6.306
G01 X304.353 Y6.306
G01 X303.955 Y6.306
G01 X303.557 Y5.908
G01 X303.159 Y5.908
G01 X302.760 Y5.908
G01 X302.362 Y5.908
G01 X301.964 Y5.908
G01 X301.566 Y5.510
G01 X301.168 Y5.510
G01 X300.769 Y5.510
G01 X300.371 Y5.510
G01 X299.973 Y5.510
G01 X299.575 Y5.112
G01 X299.177 Y5.112
G01 X298.779 Y5.112
G01 X298.380 Y5.112
G01 X297.982 Y5.112
G01 X297.584 Y5.112
G01 X297.186 Y4.714
G01 X296.788 Y4.714
G01 X296.389 Y4.714
G01 X295.991 Y4.714
G01 X295.593 Y4.714
G01 X295.195 Y4.316
G01 X294.797 Y4.316
G01 X294.398 Y4.316
G01 X294.000 Y4.316
G01 X293.602 Y4.316
G01 X293.204 Y4.316
G01 X292.806 Y3.917
G01 X292.407 Y3.917
G01 X292.009 Y3.917
G01 X291.611 Y3.917
G01 X291.213 Y3.917
G01 X290.815 Y3.917
G01 X290.416 Y3.519
G01 X290.018 Y3.519
G01 X289.620 Y3.519
G01 X289.222 Y3.519
G01 X288.824 Y3.519
G01 X288.426 Y3.519
G01 X288.027 Y3.121
G01 X287.629 Y3.121
G01 X287.231 Y3.121
G01 X286.833 Y3.121
G01 X286.435 Y3.121
G01 X286.036 Y3.121
G01 X285.638 Y3.121
G01 X285.240 Y2.723
G01 X284.842 Y2.723
G01 X284.444 Y2.723
G01 X284.045 Y2.723
G01 X283.647 Y2.723
G01 X283.249 Y2.723
G01 X282.851 Y2.723
G01 X282.453 Y2.723
G01 X282.054 Y2.325
G01 X281.656 Y2.325
G01 X281.258 Y2.325
G01 X280.860 Y2.325
G01 X280.462 Y2.325
G01 X280.063 Y2.325
G01 X279.665 Y2.325
G01 X279.267 Y2.325
G01 X278.869 Y1.926
G01 X278.471 Y1.926
G01 X278.073 Y1.926
G01 X277.674 Y1.926
G01 X277.276 Y1.926
G01 X276.878 Y1.926
G01 X276.480 Y1.926
G01 X276.082 Y1.926
G01 X275.683 Y1.926
G01 X275.285 Y1.926
G01 X274.887 Y1.926
G01 X274.489 Y1.926
G01 X274.091 Y1.926
G01 X273.692 Y1.528
G01 X273.294 Y1.528
G01 X272.896 Y1.528
G01 X272.498 Y1.528
G01 X272.100 Y1.528
G01 X271.701 Y1.528
G01 X271.303 Y1.528
G01 X270.905 Y1.528
G01 X270.507 Y1.528
G01 X270.109 Y1.130
G01 X269.711 Y1.130
G01 X269.312 Y1.130
G01 X268.914 Y1.130
G01 X268.516 Y1.130
G01 X268.118 Y1.130
G01 X267.720 Y1.130
G01 X267.321 Y1.130
G01 X266.923 Y1.130
G01 X266.525 Y1.130
G01 X266.127 Y1.130
G01 X265.729 Y1.130
G01 X265.330 Y1.130
G01 X264.932 Y1.130
G01 X264.534 Y0.732
G01 X264.136 Y0.732
G01 X263.738 Y0.732
G01 X263.339 Y0.732
G01 X262.941 Y0.732
G01 X262.543 Y0.732
G01 X262.145 Y0.732
G01 X261.747 Y0.732
G01 X261.348 Y0.732
G01 X260.950 Y0.732
G01 X260.552 Y0.732
G01 X260.154 Y0.732
G01 X259.756 Y0.732
G01 X259.358 Y0.732
G01 X258.959 Y0.732
G01 X258.561 Y0.732
G01 X258.163 Y0.732
G01 X257.765 Y0.732
G01 X257.367 Y0.732
G01 X256.968 Y0.732
G01 X256.570 Y0.732
G01 X256.172 Y0.732
G01 X255.774 Y0.732
G01 X255.376 Y0.732
G01 X254.977 Y0.732
G01 X254.579 Y0.732
G01 X254.181 Y0.732
G01 X253.783 Y0.732
G01 X253.385 Y0.732
G01 X252.986 Y0.732
G01 X252.588 Y0.732
G01 X252.190 Y0.732
G01 X251.792 Y0.732
G01 X251.394 Y0.732
G01 X250.995 Y0.732
G01 X250.597 Y0.732
G01 X250.199 Y0.732
G01 X250.597 Y0.732
G01 X250.995 Y0.732
G01 X251.394 Y0.732
G01 X251.792 Y0.732
G01 X252.190 Y0.732
G01 X252.588 Y0.732
G01 X252.986 Y0.732
G01 X253.385 Y0.732
G01 X253.783 Y0.732
G01 X254.181 Y0.732
G01 X254.579 Y0.732
G01 X254.977 Y0.732
G01 X255.376 Y0.732
G01 X255.774 Y0.732
G01 X256.172 Y0.732
G01 X256.570 Y0.732
G01 X256.968 Y0.732
G01 X257.367 Y0.732
G01 X257.765 Y0.732
G01 X258.163 Y0.732
G01 X258.561 Y0.732
G01 X258.959 Y0.732
G01 X259.358 Y0.732
G01 X259.756 Y0.732
G01 X260.154 Y0.732
G01 X260.552 Y0.732
G01 X260.950 Y0.732
G01 X261.348 Y0.732
G01 X261.747 Y0.732
G01 X262.145 Y0.732
G01 X262.543 Y0.732
G01 X262.941 Y0.732
G01 X263.339 Y0.732
G01 X263.738 Y0.732
G01 X264.136 Y0.732
G01 X264.534 Y0.732
G01 X264.932 Y1.130
G01 X265.330 Y1.130
G01 X265.729 Y1.130
G01 X266.127 Y1.130
G01 X266.525 Y1.130
G01 X266.923 Y1.130
G01 X267.321 Y1.130
G01 X267.720 Y1.130
G01 X268.118 Y1.130
G01 X268.516 Y1.130
G01 X268.914 Y1.130
G01 X269.312 Y1.130
G01 X269.711 Y1.130
G01 X270.109 Y1.130
G01 X270.507 Y1.528
G01 X270.905 Y1.528
G01 X271.303 Y1.528
G01 X271.701 Y1.528
G01 X272.100 Y1.528
G01 X272.498 Y1.528
G01 X272.896 Y1.528
G01 X273.294 Y1.528
G01 X273.692 Y1.528
G01 X274.091 Y1.926
G01 X274.091 Y2.325
G01 X274.091 Y2.723
G01 X274.091 Y3.121
G01 X274.091 Y3.519
G01 X274.091 Y3.917
G01 X274.091 Y4.316
G01 X274.091 Y4.714
G01 X274.091 Y5.112
G01 X274.091 Y5.510
G01 X274.091 Y5.908
G01 X273.692 Y6.306
G01 X273.692 Y6.705
G01 X273.692 Y7.103
G01 X273.692 Y7.501
G01 X273.692 Y7.899
G01 X273.692 Y8.297
G01 X273.692 Y8.696
G01 X273.692 Y9.094
G01 X273.692 Y9.492
G01 X273.692 Y9.890
G01 X273.294 Y10.288
G01 X273.294 Y10.687
G01 X273.294 Y11.085
G01 X273.294 Y11.483
G01 X273.294 Y11.881
G01 X273.294 Y12.279
G01 X273.294 Y12.678
G01 X273.294 Y13.076
G01 X273.294 Y13.474
G01 X273.294 Y13.872
G01 X272.896 Y14.270
G01 X272.896 Y14.669
G01 X272.896 Y15.067
G01 X272.896 Y15.465
G01 X272.896 Y15.863
G01 X272.896 Y16.261
G01 X272.896 Y16.659
G01 X272.896 Y17.058
G01 X272.896 Y17.456
G01 X272.896 Y17.854
G01 X272.896 Y18.252
G01 X272.896 Y17.854
G01 X272.896 Y17.456
G01 X272.896 Y17.058
G01 X272.896 Y16.659
G01 X272.896 Y16.261
G01 X272.896 Y15.863
G01 X272.896 Y15.465
G01 X272.896 Y15.067
G01 X272.896 Y14.669
G01 X272.896 Y14.270
G01 X273.294 Y13.872
G01 X273.294 Y13.474
G01 X273.294 Y13.076
G01 X273.294 Y12.678
G01 X273.294 Y12.279
G01 X273.294 Y11.881
G01 X273.294 Y11.483
G01 X273.294 Y11.085
G01 X273.294 Y10.687
G01 X273.294 Y10.288
G01 X273.692 Y9.890
G01 X273.692 Y9.492
G01 X273.692 Y9.094
G01 X273.692 Y8.696
G01 X273.692 Y8.297
G01 X273.692 Y7.899
G01 X273.692 Y7.501
G01 X273.692 Y7.103
G01 X273.692 Y6.705
G01 X273.692 Y6.306
G01 X274.091 Y5.908
G01 X274.091 Y5.510
G01 X274.091 Y5.112
G01 X274.091 Y4.714
G01 X274.091 Y4.316
G01 X274.091 Y3.917
G01 X274.091 Y3.519
G01 X274.091 Y3.121
G01 X274.091 Y2.723
G01 X274.091 Y2.325
G01 X274.091 Y1.926
G01 X274.489 Y1.926
G01 X274.887 Y1.926
G01 X275.285 Y1.926
G01 X275.683 Y1.926
G01 X276.082 Y1.926
G01 X276.480 Y1.926
G01 X276.878 Y1.926
G01 X277.276 Y1.926
G01 X277.674 Y1.926
G01 X278.073 Y1.926
G01 X278.471 Y1.926
G01 X278.869 Y1.926
G01 X279.267 Y2.325
G01 X279.665 Y2.325
G01 X280.063 Y2.325
G01 X280.462 Y2.325
G01 X280.860 Y2.325
G01 X281.258 Y2.325
G01 X281.656 Y2.325
G01 X282.054 Y2.325
G01 X282.453 Y2.723
G01 X282.851 Y2.723
G01 X283.249 Y2.723
G01 X283.647 Y2.723
G01 X284.045 Y2.723
G01 X284.444 Y2.723
G01 X284.842 Y2.723
G01 X285.240 Y2.723
G01 X285.638 Y3.121
G01 X286.036 Y3.121
G01 X286.435 Y3.121
G01 X286.833 Y3.121
G01 X287.231 Y3.121
G01 X287.629 Y3.121
G01 X288.027 Y3.121
G01 X288.426 Y3.519
G01 X288.824 Y3.519
G01 X289.222 Y3.519
G01 X289.620 Y3.519
G01 X290.018 Y3.519
G01 X290.416 Y3.519
G01 X290.815 Y3.917
G01 X291.213 Y3.917
G01 X291.611 Y3.917
G01 X292.009 Y3.917
G01 X292.407 Y3.917
G01 X292.806 Y3.917
G01 X293.204 Y4.316
G01 X293.602 Y4.316
G01 X294.000 Y4.316
G01 X294.398 Y4.316
G01 X294.797 Y4.316
G01 X295.195 Y4.316
G01 X295.593 Y4.714
G01 X295.991 Y4.714
G01 X296.389 Y4.714
G01 X296.788 Y4.714
G01 X297.186 Y4.714
G01 X297.584 Y5.112
G01 X297.982 Y5.112
G01 X298.380 Y5.112
G01 X298.779 Y5.112
G01 X299.177 Y5.112
G01 X299.575 Y5.112
G01 X299.973 Y5.510
G01 X300.371 Y5.510
G01 X300.769 Y5.510
G01 X301.168 Y5.510
G01 X301.566 Y5.510
G01 X301.964 Y5.908
G01 X302.362 Y5.908
G01 X302.760 Y5.908
G01 X303.159 Y5.908
G01 X303.557 Y5.908
G01 X303.955 Y6.306
G01 X304.353 Y6.306
G01 X304.751 Y6.306
G01 X305.150 Y6.306
G01 X305.548 Y6.705
G01 X305.946 Y6.705
G01 X306.344 Y6.705
G01 X306.742 Y6.705
G01 X307.141 Y7.103
G01 X307.539 Y7.103
G01 X307.937 Y7.103
G01 X308.335 Y7.103
G01 X308.733 Y7.103
G01 X309.132 Y7.501
G01 X309.530 Y7.501
G01 X309.928 Y7.501
G01 X310.326 Y7.899
G01 X310.724 Y7.899
G01 X311.122 Y7.899
G01 X311.521 Y7.899
G01 X311.919 Y8.297
G01 X312.317 Y8.297
G01 X312.715 Y8.297
G01 X313.113 Y8.297
G01 X313.512 Y8.696
G01 X313.910 Y8.696
G01 X314.308 Y8.696
G01 X314.706 Y8.696
G01 X315.104 Y9.094
G01 X315.503 Y9.094
G01 X315.901 Y9.094
G01 X316.299 Y9.094
G01 X316.697 Y9.492
G01 X317.095 Y9.492
G01 X317.494 Y9.492
G01 X317.892 Y9.890
G01 X318.290 Y9.890
G01 X318.688 Y9.890
G01 X319.086 Y9.890
G01 X319.485 Y10.288
G01 X319.883 Y10.288
G01 X320.281 Y10.288
G01 X320.679 Y10.687
G01 X321.077 Y10.687
G01 X321.475 Y10.687
G01 X321.874 Y10.687
G01 X322.272 Y11.085
G01 X322.670 Y11.085
G01 X323.068 Y11.085
G01 X323.466 Y11.483
G01 X323.865 Y11.483
G01 X324.263 Y11.483
G01 X324.661 Y11.881
G01 X325.059 Y11.881
G01 X325.457 Y11.881
G01 X325.856 Y12.279
G01 X326.254 Y12.279
G01 X326.652 Y12.279
G01 X327.050 Y12.678
G01 X327.448 Y12.678
G01 X327.847 Y12.678
G01 X328.245 Y13.076
G01 X328.643 Y13.076
G01 X329.041 Y13.076
G01 X329.439 Y13.076
G01 X329.838 Y13.474
G01 X330.236 Y13.474
G01 X330.634 Y13.872
G01 X331.032 Y13.872
G01 X331.430 Y13.872
G01 X331.828 Y14.270
G01 X332.227 Y14.270
G01 X332.625 Y14.270
G01 X333.023 Y14.669
G01 X333.421 Y14.669
G01 X333.819 Y14.669
G01 X334.218 Y15.067
G01 X334.616 Y15.067
G01 X335.014 Y15.067
G01 X335.412 Y15.465
G01 X335.810 Y15.465
G01 X336.209 Y15.863
G01 X336.607 Y15.863
G01 X337.005 Y15.863
G01 X337.403 Y16.261
G01 X337.801 Y16.261
G01 X338.200 Y16.261
G01 X338.598 Y16.659
G01 X338.996 Y16.659
G01 X339.394 Y17.058
G01 X339.792 Y17.058
G01 X340.190 Y17.058
G01 X340.589 Y17.456
G01 X340.987 Y17.456
G01 X341.385 Y17.854
G01 X341.783 Y17.854
G01 X342.181 Y17.854
G01 X342.580 Y18.252
G01 X342.978 Y18.252
G01 X343.376 Y18.650
G01 X343.774 Y18.650
G01 X344.172 Y18.650
G01 X344.571 Y19.049
G01 X344.969 Y19.049
G01 X345.367 Y19.447
G01 X345.765 Y19.447
G01 X346.163 Y19.447
G01 X346.562 Y19.845
G01 X346.960 Y19.845
G01 X347.358 Y20.243
G01 X347.756 Y20.243
G01 X348.154 Y20.641
G01 X348.553 Y20.641
G01 X348.951 Y20.641
G01 X349.349 Y21.040
G01 X349.747 Y21.040
G01 X350.145 Y21.438
G01 X350.543 Y21.438
G01 X350.942 Y21.836
G01 X351.340 Y21.836
G01 X351.738 Y21.836
G01 X352.136 Y22.234
G01 X352.534 Y22.234
G01 X352.933 Y22.632
G01 X353.331 Y22.632
G01 X353.729 Y23.031
G01 X354.127 Y23.031
G01 X354.525 Y23.429
G01 X354.924 Y23.429
G01 X355.322 Y23.429
G01 X355.720 Y23.827
G01 X356.118 Y23.827
G01 X356.516 Y24.225
G01 X356.915 Y24.623
G01 X357.313 Y24.623
G01 X357.711 Y24.623
G01 X358.109 Y25.021
G01 X358.507 Y25.021
G01 X358.906 Y25.420
G01 X359.304 Y25.420
G01 X359.702 Y25.818
G01 X360.100 Y25.818
G01 X360.498 Y26.216
G01 X360.896 Y26.216
G01 X361.295 Y26.614
G01 X361.693 Y26.614
G01 X362.091 Y27.012
G01 X362.489 Y27.012
G01 X362.887 Y27.411
G01 X363.286 Y27.411
G01 X363.684 Y27.809
G01 X364.082 Y27.809
G01 X364.480 Y28.207
G01 X364.878 Y28.207
G01 X365.277 Y28.605
G01 X365.675 Y28.605
G01 X366.073 Y29.003
G01 X366.471 Y29.402
G01 X366.869 Y29.800
G01 X366.869 Y30.198
G01 X366.869 Y30.596
G01 X366.869 Y30.994
G01 X366.471 Y31.393
G01 X366.471 Y31.791
G01 X366.073 Y32.189
G01 X366.073 Y32.587
G01 X365.675 Y32.985
G01 X365.675 Y33.384
G01 X365.277 Y33.782
G01 X365.277 Y34.180
G01 X364.878 Y34.578
G01 X364.878 Y34.976
G01 X364.480 Y35.374
G01 X364.480 Y35.773
G01 X364.082 Y36.171
G01 X363.684 Y36.569
G01 X363.684 Y36.967
G01 X363.286 Y37.365
G01 X363.286 Y37.764
G01 X362.887 Y38.162
G01 X362.887 Y38.560
G01 X362.489 Y38.958
G01 X362.489 Y39.356
G01 X362.091 Y39.755
G01 X362.091 Y40.153
G01 X361.693 Y40.551
G01 X361.693 Y40.949
G01 X361.295 Y41.347
G01 X360.896 Y41.746
G01 X360.896 Y42.144
G01 X360.498 Y42.542
G01 X360.498 Y42.940
G01 X360.100 Y43.338
G01 X360.100 Y43.737
G01 X359.702 Y44.135
G01 X359.702 Y44.533
G01 X359.702 Y44.931
G01 X359.702 Y44.533
G01 X359.702 Y44.135
G01 X360.100 Y43.737
G01 X360.100 Y43.338
G01 X360.498 Y42.940
G01 X360.498 Y42.542
G01 X360.896 Y42.144
G01 X360.896 Y41.746
G01 X361.295 Y41.347
G01 X361.693 Y40.949
G01 X361.693 Y40.551
G01 X362.091 Y40.153
G01 X362.091 Y39.755
G01 X362.489 Y39.356
G01 X362.489 Y38.958
G01 X362.887 Y38.560
G01 X362.887 Y38.162
G01 X363.286 Y37.764
G01 X363.286 Y37.365
G01 X363.684 Y36.967
G01 X363.684 Y36.569
G01 X364.082 Y36.171
G01 X364.480 Y35.773
G01 X364.480 Y35.374
G01 X364.878 Y34.976
G01 X364.878 Y34.578
G01 X365.277 Y34.180
G01 X365.277 Y33.782
G01 X365.675 Y33.384
G01 X365.675 Y32.985
G01 X366.073 Y32.587
G01 X366.073 Y32.189
G01 X366.471 Y31.791
G01 X366.471 Y31.393
G01 X366.869 Y30.994
G01 X366.869 Y30.596
G01 X366.869 Y30.198
G01 X367.268 Y30.198
G01 X367.666 Y30.198
G01 X368.064 Y30.596
G01 X368.462 Y30.596
G01 X368.860 Y30.596
G01 X369.259 Y30.596
G01 X369.657 Y30.994
G01 X370.055 Y30.994
G01 X370.453 Y31.393
G01 X370.851 Y31.393
G01 X371.249 Y31.791
G01 X371.648 Y32.189
G01 X372.046 Y32.189
G01 X372.444 Y32.587
G01 X372.842 Y32.587
G01 X373.240 Y32.985
G01 X373.639 Y32.985
G01 X374.037 Y33.384
G01 X374.435 Y33.782
G01 X374.833 Y33.782
G01 X375.231 Y34.180
G01 X375.630 Y34.180
G01 X376.028 Y34.578
G01 X376.426 Y34.578
G01 X376.824 Y34.976
G01 X377.222 Y35.374
G01 X377.621 Y35.374
G01 X378.019 Y35.773
G01 X378.417 Y35.773
G01 X378.815 Y36.171
G01 X379.213 Y36.569
G01 X379.612 Y36.569
G01 X380.010 Y36.967
G01 X380.408 Y36.967
G01 X380.806 Y37.365
G01 X381.204 Y37.764
G01 X381.602 Y37.764
G01 X382.001 Y38.162
G01 X382.399 Y38.162
G01 X382.797 Y38.560
G01 X383.195 Y38.958
G01 X383.593 Y38.958
G01 X383.992 Y39.356
G01 X384.390 Y39.755
G01 X384.788 Y39.755
G01 X385.186 Y40.153
G01 X385.584 Y40.551
G01 X385.983 Y40.551
G01 X386.381 Y40.949
G01 X386.779 Y41.347
G01 X387.177 Y41.746
G01 X387.575 Y42.144
G01 X387.575 Y42.542
G01 X387.575 Y42.940
G01 X387.575 Y43.338
G01 X387.575 Y43.737
G01 X387.177 Y44.135
G01 X386.779 Y44.533
G01 X386.779 Y44.931
G01 X386.381 Y45.329
G01 X385.983 Y45.727
G01 X385.983 Y46.126
G01 X385.584 Y46.524
G01 X385.186 Y46.922
G01 X385.186 Y47.320
G01 X384.788 Y47.718
G01 X384.390 Y48.117
G01 X384.390 Y48.515
G01 X383.992 Y48.913
G01 X383.593 Y49.311
G01 X383.593 Y49.709
G01 X383.195 Y50.108
G01 X382.797 Y50.506
G01 X382.797 Y50.904
G01 X382.399 Y51.302
G01 X382.001 Y51.700
G01 X382.001 Y52.099
G01 X381.602 Y52.497
G01 X381.602 Y52.895
G01 X381.204 Y53.293
G01 X380.806 Y53.691
G01 X380.408 Y54.090
G01 X380.408 Y54.488
G01 X380.010 Y54.886
G01 X380.010 Y55.284
G01 X379.612 Y55.682
G01 X379.213 Y56.080
G01 X378.815 Y56.479
G01 X378.815 Y56.877
G01 X378.417 Y57.275
G01 X378.019 Y57.673
G01 X378.019 Y58.071
G01 X377.621 Y58.470
G01 X377.222 Y58.868
G01 X377.222 Y59.266
G01 X376.824 Y59.664
G01 X376.426 Y60.062
G01 X376.426 Y60.461
G01 X376.028 Y60.859
G01 X375.630 Y61.257
G01 X375.630 Y61.655
G01 X375.231 Y62.053
G01 X374.833 Y62.452
G01 X374.833 Y62.850
G01 X374.435 Y63.248
G01 X374.037 Y63.646
G01 X374.037 Y64.044
G01 X373.639 Y64.443
G01 X373.240 Y64.841
G01 X373.240 Y65.239
G01 X372.842 Y65.637
G01 X372.444 Y66.035
G01 X372.444 Y66.433
G01 X372.046 Y66.832
G01 X371.648 Y67.230
G01 X371.648 Y67.628
G01 X371.249 Y68.026
G01 X371.249 Y68.424
G01 X370.851 Y68.823
G01 X370.453 Y69.221
G01 X370.055 Y69.619
G01 X370.055 Y70.017
G01 X369.657 Y70.415
G01 X369.259 Y70.814
G01 X368.860 Y71.212
G01 X368.462 Y71.610
G01 X368.064 Y71.212
G01 X367.666 Y71.212
G01 X367.268 Y70.814
G01 X366.869 Y70.814
G01 X366.471 Y70.415
G01 X366.073 Y70.017
G01 X365.675 Y70.017
G01 X365.277 Y69.619
G01 X364.878 Y69.619
G01 X364.480 Y69.221
G01 X364.082 Y68.823
G01 X363.684 Y68.823
G01 X363.286 Y68.424
G01 X362.887 Y68.026
G01 X362.489 Y68.026
G01 X362.091 Y67.628
G01 X361.693 Y67.230
G01 X361.295 Y67.230
G01 X360.896 Y66.832
G01 X360.498 Y66.832
G01 X360.100 Y66.433
G01 X359.702 Y66.433
G01 X359.304 Y66.035
G01 X358.906 Y66.035
G01 X358.507 Y66.035
G01 X358.507 Y65.637
G01 X358.109 Y65.239
G01 X357.711 Y65.239
G01 X357.711 Y65.637
G01 X358.109 Y66.035
G01 X357.711 Y65.637
G01 X357.711 Y65.239
G01 X357.313 Y64.841
G01 X356.915 Y64.443
G01 X356.516 Y64.443
G01 X356.118 Y64.044
G01 X355.720 Y64.044
G01 X355.322 Y63.646
G01 X354.924 Y63.646
G01 X354.525 Y63.248
G01 X354.127 Y62.850
G01 X353.729 Y62.850
G01 X353.331 Y62.452
G01 X352.933 Y62.452
G01 X352.534 Y62.053
G01 X352.136 Y62.053
G01 X351.738 Y62.053
G01 X351.340 Y62.053
G01 X350.942 Y61.655
G01 X350.543 Y61.655
G01 X350.145 Y61.655
G01 X349.747 Y61.257
G01 X349.349 Y60.859
G01 X348.951 Y60.461
G01 X348.553 Y60.062
G01 X348.154 Y59.664
G01 X347.756 Y59.664
G01 X347.358 Y59.266
G01 X346.960 Y59.266
G01 X346.562 Y58.868
G01 X346.163 Y58.868
G01 X345.765 Y58.470
G01 X345.367 Y58.470
G01 X344.969 Y58.071
G01 X344.571 Y58.071
G01 X344.172 Y57.673
G01 X343.774 Y57.673
G01 X343.376 Y57.275
G01 X342.978 Y57.275
G01 X342.580 Y56.877
G01 X342.181 Y56.877
G01 X341.783 Y56.479
G01 X341.385 Y56.479
G01 X340.987 Y56.479
G01 X340.589 Y56.080
G01 X340.190 Y56.080
G01 X339.792 Y55.682
G01 X339.394 Y55.682
G01 X338.996 Y55.284
G01 X338.598 Y55.284
G01 X338.200 Y54.886
G01 X337.801 Y54.886
G01 X337.403 Y54.488
G01 X337.005 Y54.488
G01 X336.607 Y54.488
G01 X336.209 Y54.090
G01 X335.810 Y54.090
G01 X335.412 Y53.691
G01 X335.014 Y53.691
G01 X334.616 Y53.293
G01 X334.218 Y53.293
G01 X333.819 Y53.293
G01 X333.421 Y52.895
G01 X333.023 Y52.895
G01 X332.625 Y52.497
G01 X332.227 Y52.497
G01 X331.828 Y52.099
G01 X331.430 Y52.099
G01 X331.032 Y52.099
G01 X330.634 Y51.700
G01 X330.236 Y51.700
G01 X329.838 Y51.302
G01 X329.439 Y51.302
G01 X329.041 Y50.904
G01 X328.643 Y50.904
G01 X328.245 Y50.904
G01 X327.847 Y50.506
G01 X327.448 Y50.506
G01 X327.050 Y50.506
G01 X326.652 Y50.108
G01 X326.254 Y50.108
G01 X325.856 Y49.709
G01 X325.457 Y49.709
G01 X325.059 Y49.709
G01 X324.661 Y49.311
G01 X324.263 Y49.311
G01 X323.865 Y49.311
G01 X323.466 Y48.913
G01 X323.068 Y48.913
G01 X322.670 Y48.515
G01 X322.272 Y48.515
G01 X321.874 Y48.515
G01 X321.475 Y48.117
G01 X321.077 Y48.117
G01 X320.679 Y48.117
G01 X320.281 Y47.718
G01 X319.883 Y47.718
G01 X319.485 Y47.718
G01 X319.086 Y47.320
G01 X318.688 Y47.320
G01 X318.290 Y47.320
G01 X317.892 Y46.922
G01 X317.494 Y46.922
G01 X317.095 Y46.922
G01 X316.697 Y46.524
G01 X316.299 Y46.524
G01 X315.901 Y46.524
G01 X315.503 Y46.126
G01 X315.104 Y46.126
G01 X314.706 Y46.126
G01 X314.308 Y46.126
G01 X313.910 Y45.727
G01 X313.512 Y45.727
G01 X313.113 Y45.727
G01 X312.715 Y45.727
G01 X312.317 Y45.727
G01 X311.919 Y46.126
G01 X311.521 Y46.524
G01 X311.521 Y46.922
G01 X311.521 Y47.320
G01 X311.122 Y47.718
G01 X311.122 Y48.117
G01 X311.122 Y48.515
G01 X310.724 Y48.913
G01 X310.724 Y49.311
G01 X310.724 Y49.709
G01 X310.326 Y50.108
G01 X310.326 Y50.506
G01 X310.326 Y50.904
G01 X310.326 Y51.302
G01 X309.928 Y51.700
G01 X309.928 Y52.099
G01 X309.928 Y52.497
G01 X309.530 Y52.895
G01 X309.530 Y53.293
G01 X309.530 Y53.691
G01 X309.132 Y54.090
G01 X309.132 Y54.488
G01 X309.132 Y54.886
G01 X309.132 Y55.284
G01 X308.733 Y55.682
G01 X308.733 Y56.080
G01 X308.733 Y56.479
G01 X308.335 Y56.877
G01 X308.335 Y57.275
G01 X308.335 Y57.673
G01 X307.937 Y58.071
G01 X307.937 Y58.470
G01 X307.937 Y58.868
G01 X307.539 Y59.266
G01 X307.539 Y59.664
G01 X307.539 Y60.062
G01 X307.539 Y60.461
G01 X307.141 Y60.859
G01 X307.141 Y61.257
G01 X306.742 Y61.655
G01 X306.344 Y62.053
G01 X306.344 Y62.452
G01 X306.344 Y62.850
G01 X306.344 Y63.248
G01 X306.344 Y63.646
G01 X306.344 Y64.044
G01 X306.344 Y64.443
G01 X305.946 Y64.841
G01 X305.946 Y65.239
G01 X305.946 Y65.637
G01 X305.548 Y66.035
G01 X305.548 Y66.433
G01 X305.548 Y66.832
G01 X305.150 Y67.230
G01 X305.150 Y67.628
G01 X305.150 Y68.026
G01 X305.150 Y68.424
G01 X304.751 Y68.823
G01 X304.751 Y69.221
G01 X304.751 Y69.619
G01 X304.353 Y70.017
G01 X304.353 Y70.415
G01 X304.353 Y70.814
G01 X304.353 Y71.212
G01 X303.955 Y71.610
G01 X303.955 Y72.008
G01 X303.955 Y72.406
G01 X303.557 Y72.805
G01 X303.557 Y73.203
G01 X303.557 Y73.601
G01 X303.159 Y73.999
G01 X303.159 Y74.397
G01 X303.159 Y74.796
G01 X302.760 Y75.194
G01 X302.760 Y75.592
G01 X302.760 Y75.990
G01 X302.362 Y76.388
G01 X302.362 Y76.786
G01 X302.362 Y77.185
G01 X302.362 Y77.583
G01 X302.362 Y77.981
