;  Created by Sandify
;  https://sandify.org
;  Version: 0.2.6
;
;  Machine type: Rectangular
;    Min X (mm): 0
;    Max X (mm): 500
;    Min Y (mm): 0
;    Max Y (mm): 500
;  Content type: shape
;  Layer:
;    Shape: FileImport
;    Name: dither_wormhole.thr
;    From file:: dither_wormhole.thr
;    Aspect Ratio: true
;    Comments: 
;    Visible: true
;    Initial width: 10
;    Initial height: 10
;    X offset: 0
;    Y offset: 0
;    Rotate (degrees): 0
;    Reverse path: false
;    Fine tuning:
;      Connect to next layer: line
;      Draw portion of path (%): 100
;      Backtrack at end (%): 0
;      Rotate starting point (%): 0
;  Reverse export path: false
;
; File name: 'Wormhole (E) (C W)'
; File type: gcode
;

G01 X250.000 Y250.000
G01 X250.003 Y250.062
G01 X250.012 Y250.123
G01 X250.013 Y250.125
G01 X250.029 Y250.190
G01 X250.051 Y250.254
G01 X250.052 Y250.256
G01 X250.086 Y250.337
G01 X250.127 Y250.415
G01 X250.129 Y250.417
G01 X250.176 Y250.484
G01 X250.230 Y250.546
G01 X250.232 Y250.549
G01 X250.276 Y250.574
G01 X250.324 Y250.595
G01 X250.326 Y250.596
G01 X250.373 Y250.609
G01 X250.422 Y250.620
G01 X250.424 Y250.620
G01 X250.506 Y250.666
G01 X250.593 Y250.706
G01 X250.596 Y250.707
G01 X250.713 Y250.767
G01 X250.838 Y250.817
G01 X250.843 Y250.818
G01 X250.940 Y250.827
G01 X251.041 Y250.829
G01 X251.044 Y250.829
G01 X251.087 Y250.779
G01 X251.128 Y250.727
G01 X251.129 Y250.725
G01 X251.178 Y250.677
G01 X251.224 Y250.626
G01 X251.225 Y250.624
G01 X251.357 Y250.609
G01 X251.490 Y250.583
G01 X251.495 Y250.581
G01 X251.670 Y250.557
G01 X251.845 Y250.516
G01 X251.852 Y250.514
G01 X251.941 Y250.438
G01 X252.027 Y250.353
G01 X252.031 Y250.350
G01 X252.011 Y250.246
G01 X251.986 Y250.144
G01 X251.985 Y250.141
G01 X251.995 Y250.043
G01 X252.000 Y249.945
G01 X252.000 Y249.942
G01 X252.141 Y249.832
G01 X252.276 Y249.709
G01 X252.281 Y249.704
G01 X252.445 Y249.559
G01 X252.601 Y249.398
G01 X252.606 Y249.392
G01 X252.620 Y249.252
G01 X252.626 Y249.108
G01 X252.626 Y249.103
G01 X252.510 Y249.003
G01 X252.390 Y248.911
G01 X252.386 Y248.908
G01 X252.333 Y248.790
G01 X252.275 Y248.675
G01 X252.273 Y248.671
G01 X252.361 Y248.459
G01 X252.433 Y248.235
G01 X252.436 Y248.227
G01 X252.507 Y247.980
G01 X252.559 Y247.722
G01 X252.561 Y247.712
G01 X252.460 Y247.575
G01 X252.351 Y247.443
G01 X252.347 Y247.438
G01 X252.146 Y247.413
G01 X251.949 Y247.400
G01 X251.942 Y247.400
G01 X251.820 Y247.297
G01 X251.692 Y247.199
G01 X251.687 Y247.196
G01 X251.656 Y246.913
G01 X251.602 Y246.627
G01 X251.599 Y246.617
G01 X251.516 Y246.338
G01 X251.409 Y246.060
G01 X251.405 Y246.049
G01 X251.204 Y246.002
G01 X251.002 Y245.965
G01 X250.995 Y245.964
G01 X250.767 Y246.064
G01 X250.552 Y246.177
G01 X250.544 Y246.182
G01 X250.359 Y246.127
G01 X250.170 Y246.081
G01 X250.163 Y246.079
G01 X249.969 Y245.799
G01 X249.747 Y245.530
G01 X249.738 Y245.520
G01 X249.494 Y245.313
G01 X249.230 Y245.120
G01 X249.219 Y245.113
G01 X248.993 Y245.218
G01 X248.776 Y245.333
G01 X248.768 Y245.338
G01 X248.594 Y245.572
G01 X248.440 Y245.813
G01 X248.435 Y245.822
G01 X248.207 Y245.846
G01 X247.978 Y245.883
G01 X247.969 Y245.884
G01 X247.613 Y245.707
G01 X247.234 Y245.555
G01 X247.220 Y245.549
G01 X246.878 Y245.509
G01 X246.526 Y245.492
G01 X246.513 Y245.492
G01 X246.369 Y245.754
G01 X246.243 Y246.020
G01 X246.238 Y246.030
G01 X246.192 Y246.357
G01 X246.169 Y246.679
G01 X246.168 Y246.690
G01 X245.930 Y246.820
G01 X245.695 Y246.964
G01 X245.687 Y246.970
G01 X245.232 Y246.989
G01 X244.770 Y247.046
G01 X244.753 Y247.048
G01 X244.430 Y247.218
G01 X244.112 Y247.411
G01 X244.101 Y247.419
G01 X244.137 Y247.771
G01 X244.194 Y248.113
G01 X244.197 Y248.126
G01 X244.317 Y248.468
G01 X244.457 Y248.794
G01 X244.463 Y248.806
G01 X244.263 Y249.055
G01 X244.074 Y249.320
G01 X244.067 Y249.330
G01 X243.633 Y249.596
G01 X243.212 Y249.904
G01 X243.197 Y249.916
G01 X243.023 Y250.256
G01 X242.866 Y250.614
G01 X242.860 Y250.627
G01 X243.122 Y250.946
G01 X243.397 Y251.241
G01 X243.407 Y251.252
G01 X243.688 Y251.523
G01 X243.978 Y251.769
G01 X243.989 Y251.778
G01 X243.888 Y252.139
G01 X243.809 Y252.514
G01 X243.807 Y252.529
G01 X243.536 Y253.017
G01 X243.299 Y253.538
G01 X243.291 Y253.558
G01 X243.353 Y253.955
G01 X243.438 Y254.353
G01 X243.442 Y254.368
G01 X243.891 Y254.517
G01 X244.338 Y254.633
G01 X244.354 Y254.637
G01 X244.744 Y254.768
G01 X245.132 Y254.872
G01 X245.146 Y254.875
G01 X245.211 Y255.308
G01 X245.306 Y255.745
G01 X245.311 Y255.761
G01 X245.320 Y256.364
G01 X245.377 Y256.979
G01 X245.380 Y257.002
G01 X245.683 Y257.299
G01 X246.004 Y257.583
G01 X246.016 Y257.593
G01 X246.535 Y257.473
G01 X247.033 Y257.322
G01 X247.051 Y257.315
G01 X247.476 Y257.272
G01 X247.889 Y257.204
G01 X247.904 Y257.202
G01 X248.182 Y257.624
G01 X248.496 Y258.035
G01 X248.509 Y258.051
G01 X248.840 Y258.599
G01 X249.222 Y259.133
G01 X249.237 Y259.153
G01 X249.686 Y259.211
G01 X250.139 Y259.247
G01 X250.155 Y259.248
G01 X250.583 Y258.841
G01 X250.972 Y258.416
G01 X250.986 Y258.400
G01 X251.370 Y258.185
G01 X251.737 Y257.953
G01 X251.750 Y257.944
G01 X252.245 Y258.243
G01 X252.773 Y258.510
G01 X252.793 Y258.520
G01 X253.386 Y258.836
G01 X254.015 Y259.114
G01 X254.039 Y259.123
G01 X254.466 Y258.881
G01 X254.878 Y258.620
G01 X254.893 Y258.609
G01 X255.077 Y257.992
G01 X255.212 Y257.379
G01 X255.216 Y257.356
G01 X255.501 Y257.002
G01 X255.763 Y256.638
G01 X255.772 Y256.624
G01 X256.423 Y256.678
G01 X257.092 Y256.684
G01 X257.117 Y256.683
G01 X257.810 Y256.644
G01 X258.516 Y256.552
G01 X258.542 Y256.548
G01 X258.761 Y256.057
G01 X258.952 Y255.560
G01 X258.958 Y255.542
G01 X258.807 Y254.867
G01 X258.612 Y254.222
G01 X258.604 Y254.198
G01 X258.747 Y253.749
G01 X258.866 Y253.295
G01 X258.870 Y253.278
G01 X259.545 Y253.004
G01 X260.212 Y252.671
G01 X260.237 Y252.657
G01 X260.817 Y252.248
G01 X261.381 Y251.788
G01 X261.402 Y251.770
G01 X261.282 Y251.188
G01 X261.132 Y250.622
G01 X261.126 Y250.601
G01 X260.644 Y250.052
G01 X260.135 Y249.552
G01 X260.116 Y249.534
G01 X260.092 Y249.037
G01 X260.044 Y248.542
G01 X260.041 Y248.523
G01 X260.561 Y247.913
G01 X261.043 Y247.249
G01 X261.060 Y247.223
G01 X261.331 Y246.556
G01 X261.563 Y245.855
G01 X261.571 Y245.829
G01 X261.093 Y245.374
G01 X260.600 Y244.955
G01 X260.581 Y244.941
G01 X259.868 Y244.672
G01 X259.155 Y244.460
G01 X259.129 Y244.453
G01 X258.920 Y243.961
G01 X258.685 Y243.477
G01 X258.676 Y243.459
G01 X258.863 Y242.608
G01 X258.987 Y241.725
G01 X258.991 Y241.691
G01 X258.847 Y240.979
G01 X258.655 Y240.262
G01 X258.647 Y240.235
G01 X257.928 Y240.110
G01 X257.217 Y240.031
G01 X257.191 Y240.029
G01 X256.412 Y240.121
G01 X255.660 Y240.264
G01 X255.633 Y240.270
G01 X255.230 Y239.847
G01 X254.800 Y239.440
G01 X254.783 Y239.425
G01 X254.526 Y238.526
G01 X254.190 Y237.629
G01 X254.177 Y237.596
G01 X253.653 Y237.086
G01 X253.090 Y236.598
G01 X253.068 Y236.580
G01 X252.327 Y236.894
G01 X251.623 Y237.247
G01 X251.598 Y237.261
G01 X250.933 Y237.699
G01 X250.315 Y238.171
G01 X250.293 Y238.190
G01 X249.706 Y237.915
G01 X249.093 Y237.670
G01 X249.070 Y237.662
G01 X248.371 Y236.960
G01 X247.600 Y236.298
G01 X247.570 Y236.274
G01 X246.842 Y236.158
G01 X246.097 Y236.081
G01 X246.069 Y236.079
G01 X245.562 Y236.800
G01 X245.117 Y237.536
G01 X245.101 Y237.563
G01 X244.692 Y238.251
G01 X244.339 Y238.948
G01 X244.327 Y238.974
G01 X243.604 Y238.941
G01 X242.866 Y238.952
G01 X242.838 Y238.953
G01 X241.838 Y238.671
G01 X240.795 Y238.462
G01 X240.755 Y238.455
G01 X240.086 Y238.795
G01 X239.429 Y239.172
G01 X239.405 Y239.187
G01 X239.341 Y240.139
G01 X239.343 Y241.071
G01 X239.344 Y241.105
G01 X239.264 Y241.898
G01 X239.236 Y242.677
G01 X239.236 Y242.706
G01 X238.480 Y242.993
G01 X237.728 Y243.337
G01 X237.700 Y243.351
G01 X236.656 Y243.612
G01 X235.610 Y243.960
G01 X235.571 Y243.975
G01 X235.225 Y244.665
G01 X234.911 Y245.376
G01 X234.900 Y245.402
G01 X235.360 Y246.317
G01 X235.872 Y247.174
G01 X235.892 Y247.205
G01 X236.138 Y247.955
G01 X236.423 Y248.673
G01 X236.434 Y248.700
G01 X235.801 Y249.340
G01 X235.199 Y250.039
G01 X235.177 Y250.066
G01 X234.389 Y250.836
G01 X233.643 Y251.684
G01 X233.616 Y251.717
G01 X233.755 Y252.514
G01 X233.933 Y253.301
G01 X233.940 Y253.330
G01 X234.847 Y253.926
G01 X235.772 Y254.442
G01 X235.807 Y254.459
G01 X236.319 Y255.049
G01 X236.854 Y255.599
G01 X236.874 Y255.618
G01 X236.545 Y256.558
G01 X236.278 Y257.543
G01 X236.269 Y257.581
G01 X235.983 Y258.662
G01 X235.773 Y259.788
G01 X235.766 Y259.831
G01 X236.387 Y260.425
G01 X237.030 Y260.982
G01 X237.055 Y261.002
G01 X238.190 Y261.080
G01 X239.300 Y261.074
G01 X239.341 Y261.073
G01 X240.031 Y261.429
G01 X240.729 Y261.746
G01 X240.755 Y261.757
G01 X240.886 Y262.840
G01 X241.102 Y263.938
G01 X241.112 Y263.979
G01 X241.434 Y265.055
G01 X241.842 Y266.132
G01 X241.859 Y266.172
G01 X242.773 Y266.302
G01 X243.680 Y266.381
G01 X243.714 Y266.383
G01 X244.784 Y265.886
G01 X245.788 Y265.325
G01 X245.825 Y265.303
G01 X246.602 Y265.395
G01 X247.377 Y265.447
G01 X247.406 Y265.448
G01 X248.064 Y266.433
G01 X248.813 Y267.388
G01 X248.842 Y267.423
G01 X249.686 Y268.160
G01 X250.600 Y268.855
G01 X250.635 Y268.880
G01 X251.528 Y268.429
G01 X252.378 Y267.937
G01 X252.409 Y267.918
G01 X253.132 Y266.949
G01 X253.766 Y265.955
G01 X253.788 Y265.918
G01 X254.570 Y265.732
G01 X255.343 Y265.508
G01 X255.372 Y265.499
G01 X256.486 Y266.112
G01 X257.673 Y266.650
G01 X257.718 Y266.669
G01 X258.819 Y266.827
G01 X259.953 Y266.916
G01 X259.995 Y266.918
G01 X260.526 Y265.970
G01 X260.988 Y265.012
G01 X261.003 Y264.977
G01 X261.195 Y263.767
G01 X261.296 Y262.576
G01 X261.298 Y262.533
G01 X262.004 Y262.068
G01 X262.692 Y261.565
G01 X262.717 Y261.545
G01 X264.067 Y261.565
G01 X265.448 Y261.477
G01 X265.500 Y261.472
G01 X266.492 Y260.996
G01 X267.474 Y260.450
G01 X267.510 Y260.428
G01 X267.431 Y259.254
G01 X267.280 Y258.113
G01 X267.273 Y258.072
G01 X266.892 Y256.905
G01 X266.439 Y255.796
G01 X266.421 Y255.756
G01 X266.957 Y255.024
G01 X267.460 Y254.254
G01 X267.478 Y254.224
G01 X268.735 Y253.565
G01 X269.966 Y252.793
G01 X270.011 Y252.762
G01 X270.551 Y251.815
G01 X271.046 Y250.821
G01 X271.063 Y250.783
G01 X270.315 Y249.757
G01 X269.519 Y248.807
G01 X269.488 Y248.774
G01 X268.635 Y247.905
G01 X267.745 Y247.118
G01 X267.712 Y247.090
G01 X267.965 Y246.134
G01 X268.166 Y245.147
G01 X268.173 Y245.110
G01 X268.983 Y243.878
G01 X269.714 Y242.556
G01 X269.740 Y242.505
G01 X269.631 Y241.423
G01 X269.462 Y240.333
G01 X269.454 Y240.292
G01 X268.197 Y239.775
G01 X266.937 Y239.357
G01 X266.890 Y239.343
G01 X265.765 Y238.936
G01 X264.642 Y238.612
G01 X264.600 Y238.602
G01 X264.457 Y237.525
G01 X264.241 Y236.436
G01 X264.232 Y236.396
G01 X264.335 Y234.883
G01 X264.322 Y233.329
G01 X264.319 Y233.271
G01 X263.586 Y232.453
G01 X262.807 Y231.667
G01 X262.777 Y231.638
G01 X261.349 Y231.852
G01 X259.974 Y232.159
G01 X259.924 Y232.172
G01 X258.759 Y232.269
G01 X257.629 Y232.436
G01 X257.587 Y232.444
G01 X256.969 Y231.422
G01 X256.267 Y230.419
G01 X256.240 Y230.382
G01 X255.562 Y228.996
G01 X254.762 Y227.631
G01 X254.730 Y227.580
G01 X253.628 Y227.352
G01 X252.515 Y227.179
G01 X252.474 Y227.173
G01 X251.289 Y228.124
G01 X250.204 Y229.133
G01 X250.165 Y229.172
G01 X249.165 Y229.712
G01 X248.217 Y230.299
G01 X248.183 Y230.322
G01 X247.099 Y229.585
G01 X245.939 Y228.909
G01 X245.894 Y228.886
G01 X244.596 Y228.027
G01 X243.205 Y227.248
G01 X243.151 Y227.221
G01 X242.086 Y227.710
G01 X241.053 Y228.249
G01 X241.015 Y228.270
G01 X240.434 Y229.741
G01 X239.974 Y231.215
G01 X239.960 Y231.269
G01 X239.259 Y232.129
G01 X238.619 Y233.010
G01 X238.596 Y233.044
G01 X237.184 Y232.828
G01 X235.725 Y232.712
G01 X235.670 Y232.710
G01 X234.116 Y232.645
G01 X232.524 Y232.692
G01 X232.464 Y232.696
G01 X231.857 Y233.775
G01 X231.313 Y234.871
G01 X231.294 Y234.912
G01 X231.510 Y236.529
G01 X231.837 Y238.086
G01 X231.851 Y238.142
G01 X231.517 Y239.179
G01 X231.241 Y240.220
G01 X231.231 Y240.259
G01 X229.761 Y240.727
G01 X228.293 Y241.316
G01 X228.239 Y241.340
G01 X226.894 Y242.095
G01 X225.574 Y242.961
G01 X225.525 Y242.996
G01 X225.661 Y244.310
G01 X225.866 Y245.595
G01 X225.875 Y245.642
G01 X226.859 Y246.983
G01 X227.913 Y248.217
G01 X227.953 Y248.261
G01 X228.001 Y249.348
G01 X228.103 Y250.426
G01 X228.107 Y250.466
G01 X226.932 Y251.626
G01 X225.820 Y252.902
G01 X225.780 Y252.952
G01 X225.061 Y254.290
G01 X224.417 Y255.706
G01 X224.395 Y255.760
G01 X225.313 Y256.842
G01 X226.275 Y257.848
G01 X226.311 Y257.884
G01 X227.824 Y258.610
G01 X229.349 Y259.208
G01 X229.406 Y259.228
G01 X229.830 Y260.255
G01 X230.305 Y261.262
G01 X230.323 Y261.299
G01 X229.788 Y262.965
G01 X229.372 Y264.709
G01 X229.359 Y264.776
G01 X229.489 Y266.262
G01 X229.717 Y267.770
G01 X229.727 Y267.826
G01 X231.193 Y268.250
G01 X232.650 Y268.574
G01 X232.704 Y268.584
G01 X234.379 Y268.529
G01 X236.006 Y268.357
G01 X236.065 Y268.349
G01 X236.848 Y269.206
G01 X237.682 Y270.031
G01 X237.714 Y270.061
G01 X238.042 Y271.866
G01 X238.520 Y273.685
G01 X238.540 Y273.752
G01 X239.465 Y274.889
G01 X240.473 Y275.990
G01 X240.512 Y276.030
G01 X242.080 Y275.564
G01 X243.578 Y275.009
G01 X243.633 Y274.986
G01 X245.086 Y274.189
G01 X246.445 Y273.311
G01 X246.493 Y273.277
G01 X247.597 Y273.841
G01 X248.749 Y274.351
G01 X248.792 Y274.369
G01 X249.989 Y275.850
G01 X251.328 Y277.269
G01 X251.380 Y277.321
G01 X252.769 Y277.717
G01 X254.199 Y278.041
G01 X254.253 Y278.051
G01 X255.410 Y276.745
G01 X256.448 Y275.396
G01 X256.485 Y275.345
G01 X257.418 Y274.016
G01 X258.237 Y272.659
G01 X258.265 Y272.609
G01 X259.601 Y272.736
G01 X260.969 Y272.786
G01 X261.021 Y272.787
G01 X262.835 Y273.518
G01 X264.746 Y274.124
G01 X264.819 Y274.144
G01 X266.170 Y273.657
G01 X267.508 Y273.095
G01 X267.558 Y273.073
G01 X267.888 Y271.256
G01 X268.084 Y269.464
G01 X268.089 Y269.398
G01 X268.356 Y267.843
G01 X268.516 Y266.310
G01 X268.520 Y266.254
G01 X269.918 Y265.820
G01 X271.316 Y265.287
G01 X271.368 Y265.265
G01 X273.340 Y265.001
G01 X275.334 Y264.578
G01 X275.409 Y264.559
G01 X276.218 Y263.358
G01 X276.969 Y262.113
G01 X276.996 Y262.066
G01 X276.324 Y260.247
G01 X275.541 Y258.525
G01 X275.510 Y258.462
G01 X275.125 Y256.987
G01 X274.659 Y255.570
G01 X274.640 Y255.518
G01 X275.844 Y254.469
G01 X277.002 Y253.314
G01 X277.045 Y253.270
G01 X278.629 Y252.043
G01 X280.155 Y250.668
G01 X280.211 Y250.614
G01 X280.147 Y249.132
G01 X280.012 Y247.658
G01 X280.005 Y247.604
G01 X278.453 Y246.316
G01 X276.850 Y245.173
G01 X276.789 Y245.134
G01 X275.886 Y243.972
G01 X274.935 Y242.887
G01 X274.899 Y242.849
G01 X275.607 Y241.264
G01 X276.218 Y239.593
G01 X276.238 Y239.530
G01 X276.974 Y237.669
G01 X277.588 Y235.712
G01 X277.608 Y235.638
G01 X276.644 Y234.433
G01 X275.628 Y233.287
G01 X275.590 Y233.246
G01 X273.544 Y232.878
G01 X271.527 Y232.668
G01 X271.453 Y232.663
G01 X270.219 Y231.950
G01 X268.968 Y231.316
G01 X268.921 Y231.293
G01 X268.868 Y229.420
G01 X268.673 Y227.509
G01 X268.664 Y227.438
G01 X268.330 Y225.485
G01 X267.847 Y223.513
G01 X267.826 Y223.439
G01 X266.259 Y222.999
G01 X264.692 Y222.649
G01 X264.634 Y222.637
G01 X262.627 Y223.319
G01 X260.723 Y224.129
G01 X260.654 Y224.161
G01 X259.277 Y223.943
G01 X257.903 Y223.797
G01 X257.852 Y223.793
G01 X256.906 Y222.023
G01 X255.805 Y220.287
G01 X255.761 Y220.223
G01 X254.466 Y218.768
G01 X253.041 Y217.371
G01 X252.985 Y217.320
G01 X251.350 Y217.891
G01 X249.777 Y218.542
G01 X249.720 Y218.567
G01 X248.266 Y220.138
G01 X246.966 Y221.772
G01 X246.921 Y221.834
G01 X245.556 Y222.103
G01 X244.210 Y222.438
G01 X244.160 Y222.452
G01 X242.411 Y221.240
G01 X240.530 Y220.137
G01 X240.458 Y220.099
G01 X238.622 Y219.586
G01 X236.713 Y219.183
G01 X236.641 Y219.171
G01 X235.534 Y220.655
G01 X234.540 Y222.171
G01 X234.506 Y222.228
G01 X233.956 Y224.295
G01 X233.571 Y226.347
G01 X233.560 Y226.422
G01 X232.342 Y227.153
G01 X231.157 Y227.947
G01 X231.113 Y227.978
G01 X228.896 Y227.706
G01 X226.609 Y227.602
G01 X226.523 Y227.601
G01 X224.752 Y228.175
G01 X222.982 Y228.870
G01 X222.917 Y228.898
G01 X222.795 Y230.872
G01 X222.800 Y232.806
G01 X222.803 Y232.877
G01 X223.259 Y234.943
G01 X223.849 Y236.922
G01 X223.874 Y236.994
G01 X222.939 Y238.148
G01 X222.056 Y239.363
G01 X222.025 Y239.409
G01 X219.861 Y240.252
G01 X217.716 Y241.283
G01 X217.637 Y241.325
G01 X216.526 Y242.767
G01 X215.480 Y244.297
G01 X215.442 Y244.356
G01 X216.458 Y246.200
G01 X217.568 Y247.931
G01 X217.611 Y247.993
G01 X218.920 Y249.602
G01 X220.305 Y251.078
G01 X220.358 Y251.130
G01 X219.864 Y252.634
G01 X219.447 Y254.190
G01 X219.433 Y254.249
G01 X217.898 Y256.080
G01 X216.474 Y258.072
G01 X216.424 Y258.149
G01 X216.349 Y259.939
G01 X216.371 Y261.755
G01 X216.374 Y261.823
G01 X218.313 Y262.921
G01 X220.276 Y263.859
G01 X220.349 Y263.891
G01 X222.175 Y264.741
G01 X224.011 Y265.447
G01 X224.080 Y265.471
G01 X224.189 Y267.177
G01 X224.405 Y268.909
G01 X224.415 Y268.974
G01 X223.964 Y271.366
G01 X223.688 Y273.846
G01 X223.682 Y273.940
G01 X224.666 Y275.425
G01 X225.734 Y276.871
G01 X225.775 Y276.924
G01 X228.115 Y276.865
G01 X230.389 Y276.644
G01 X230.472 Y276.632
G01 X232.416 Y276.630
G01 X234.310 Y276.503
G01 X234.380 Y276.496
G01 X235.214 Y278.155
G01 X236.173 Y279.793
G01 X236.212 Y279.853
G01 X237.014 Y282.176
G01 X238.013 Y284.487
G01 X238.054 Y284.572
G01 X239.743 Y285.192
G01 X241.464 Y285.728
G01 X241.529 Y285.747
G01 X243.601 Y284.461
G01 X245.526 Y283.062
G01 X245.595 Y283.008
G01 X247.298 Y282.246
G01 X248.916 Y281.398
G01 X248.975 Y281.364
G01 X250.536 Y282.637
G01 X252.219 Y283.830
G01 X252.284 Y283.872
G01 X254.148 Y285.472
G01 X256.174 Y286.967
G01 X256.253 Y287.020
G01 X258.025 Y286.504
G01 X259.763 Y285.904
G01 X259.827 Y285.880
G01 X261.022 Y283.666
G01 X262.026 Y281.424
G01 X262.059 Y281.340
G01 X263.281 Y280.029
G01 X264.404 Y278.675
G01 X264.443 Y278.624
G01 X266.553 Y279.153
G01 X268.748 Y279.542
G01 X268.831 Y279.554
G01 X271.232 Y279.967
G01 X273.715 Y280.212
G01 X273.809 Y280.218
G01 X274.987 Y278.697
G01 X276.074 Y277.133
G01 X276.113 Y277.074
G01 X276.071 Y274.502
G01 X275.843 Y272.002
G01 X275.831 Y271.911
G01 X276.457 Y270.297
G01 X276.988 Y268.674
G01 X277.006 Y268.614
G01 X279.289 Y268.135
G01 X281.587 Y267.474
G01 X281.672 Y267.446
G01 X283.898 Y266.558
G01 X286.109 Y265.493
G01 X286.191 Y265.450
G01 X286.275 Y263.422
G01 X286.248 Y261.424
G01 X286.245 Y261.350
G01 X284.954 Y259.089
G01 X283.533 Y256.983
G01 X283.477 Y256.907
G01 X283.492 Y255.212
G01 X283.422 Y253.532
G01 X283.418 Y253.470
G01 X285.357 Y251.925
G01 X287.221 Y250.197
G01 X287.289 Y250.129
G01 X288.667 Y248.235
G01 X289.946 Y246.206
G01 X289.991 Y246.128
G01 X288.842 Y244.304
G01 X287.612 Y242.583
G01 X287.565 Y242.521
G01 X285.352 Y241.138
G01 X283.098 Y239.953
G01 X283.014 Y239.913
G01 X282.449 Y238.316
G01 X281.807 Y236.750
G01 X281.782 Y236.693
G01 X282.849 Y234.309
G01 X283.755 Y231.791
G01 X283.785 Y231.695
G01 X283.905 Y229.416
G01 X283.881 Y227.083
G01 X283.877 Y226.996
G01 X281.781 Y226.059
G01 X279.676 Y225.272
G01 X279.598 Y225.245
G01 X277.016 Y225.052
G01 X274.490 Y225.050
G01 X274.398 Y225.053
G01 X273.299 Y223.711
G01 X272.128 Y222.416
G01 X272.083 Y222.369
G01 X271.904 Y219.652
G01 X271.508 Y216.890
G01 X271.489 Y216.787
G01 X270.351 Y214.880
G01 X269.076 Y213.007
G01 X269.026 Y212.938
G01 X266.612 Y213.311
G01 X264.283 Y213.830
G01 X264.198 Y213.852
G01 X261.854 Y214.839
G01 X259.643 Y215.965
G01 X259.563 Y216.010
G01 X257.997 Y215.087
G01 X256.363 Y214.237
G01 X256.301 Y214.207
G01 X254.803 Y211.828
G01 X253.086 Y209.515
G01 X253.018 Y209.430
G01 X251.044 Y208.533
G01 X248.989 Y207.733
G01 X248.911 Y207.706
G01 X246.956 Y209.398
G01 X245.165 Y211.177
G01 X245.101 Y211.245
G01 X243.486 Y213.122
G01 X242.043 Y215.059
G01 X241.993 Y215.132
G01 X240.079 Y214.814
G01 X238.116 Y214.602
G01 X238.042 Y214.596
G01 X235.525 Y213.208
G01 X232.846 Y211.987
G01 X232.743 Y211.945
G01 X230.648 Y212.354
G01 X228.552 Y212.878
G01 X228.474 Y212.900
G01 X227.646 Y215.492
G01 X227.017 Y218.072
G01 X226.998 Y218.168
G01 X226.377 Y220.476
G01 X225.925 Y222.766
G01 X225.911 Y222.850
G01 X223.871 Y223.312
G01 X221.819 Y223.911
G01 X221.743 Y223.936
G01 X218.834 Y223.963
G01 X215.863 Y224.217
G01 X215.752 Y224.231
G01 X214.305 Y225.790
G01 X212.929 Y227.430
G01 X212.879 Y227.493
G01 X213.519 Y230.261
G01 X214.337 Y232.910
G01 X214.371 Y233.006
G01 X214.756 Y235.267
G01 X215.276 Y237.447
G01 X215.297 Y237.527
G01 X213.468 Y238.861
G01 X211.689 Y240.345
G01 X211.624 Y240.403
G01 X209.109 Y241.883
G01 X206.652 Y243.587
G01 X206.562 Y243.655
G01 X206.319 Y245.795
G01 X206.180 Y247.944
G01 X206.177 Y248.024
G01 X208.190 Y250.169
G01 X210.303 Y252.111
G01 X210.383 Y252.179
G01 X211.590 Y254.010
G01 X212.879 Y255.729
G01 X212.928 Y255.791
G01 X211.724 Y257.920
G01 X210.643 Y260.180
G01 X210.606 Y260.267
G01 X209.198 Y262.802
G01 X207.949 Y265.499
G01 X207.905 Y265.602
G01 X209.007 Y267.527
G01 X210.195 Y269.382
G01 X210.240 Y269.449
G01 X213.122 Y270.340
G01 X215.991 Y270.998
G01 X216.097 Y271.018
G01 X217.838 Y272.194
G01 X219.611 Y273.252
G01 X219.678 Y273.289
G01 X219.489 Y275.910
G01 X219.488 Y278.604
G01 X219.491 Y278.705
G01 X219.593 Y281.562
G01 X219.904 Y284.475
G01 X219.920 Y284.585
G01 X222.029 Y285.542
G01 X224.158 Y286.376
G01 X224.238 Y286.405
G01 X227.235 Y285.771
G01 X230.105 Y284.935
G01 X230.210 Y284.900
G01 X232.190 Y285.345
G01 X234.166 Y285.680
G01 X234.239 Y285.690
G01 X235.292 Y288.287
G01 X236.564 Y290.863
G01 X236.615 Y290.958
G01 X238.172 Y293.285
G01 X239.925 Y295.553
G01 X239.994 Y295.636
G01 X242.395 Y295.182
G01 X244.727 Y294.605
G01 X244.812 Y294.582
G01 X247.153 Y292.578
G01 X249.285 Y290.457
G01 X249.360 Y290.376
G01 X251.334 Y290.106
G01 X253.279 Y289.740
G01 X253.351 Y289.725
G01 X255.585 Y291.670
G01 X258.018 Y293.486
G01 X258.112 Y293.551
G01 X260.607 Y294.648
G01 X263.228 Y295.601
G01 X263.328 Y295.634
G01 X265.162 Y293.802
G01 X266.850 Y291.902
G01 X266.910 Y291.831
G01 X268.027 Y288.972
G01 X268.906 Y286.110
G01 X268.934 Y286.003
G01 X270.705 Y285.076
G01 X272.430 Y284.061
G01 X272.493 Y284.022
G01 X275.508 Y284.748
G01 X278.646 Y285.256
G01 X278.765 Y285.270
G01 X281.374 Y284.830
G01 X284.007 Y284.216
G01 X284.105 Y284.190
G01 X284.660 Y281.493
G01 X285.035 Y278.825
G01 X285.045 Y278.727
G01 X284.719 Y275.718
G01 X284.186 Y272.814
G01 X284.163 Y272.708
G01 X285.552 Y271.193
G01 X286.875 Y269.596
G01 X286.923 Y269.535
G01 X290.036 Y268.729
G01 X293.153 Y267.661
G01 X293.269 Y267.616
G01 X295.125 Y265.839
G01 X296.910 Y263.920
G01 X296.974 Y263.847
G01 X295.930 Y261.121
G01 X294.735 Y258.533
G01 X294.688 Y258.439
G01 X293.074 Y255.963
G01 X291.330 Y253.666
G01 X291.263 Y253.584
G01 X292.078 Y251.581
G01 X292.794 Y249.507
G01 X292.818 Y249.429
G01 X295.228 Y247.173
G01 X297.513 Y244.679
G01 X297.596 Y244.582
G01 X298.084 Y242.120
G01 X298.443 Y239.598
G01 X298.454 Y239.503
G01 X296.003 Y237.642
G01 X293.490 Y235.996
G01 X293.396 Y235.939
G01 X290.937 Y234.478
G01 X288.443 Y233.222
G01 X288.350 Y233.179
G01 X288.381 Y230.868
G01 X288.275 Y228.514
G01 X288.268 Y228.426
G01 X289.294 Y225.232
G01 X290.093 Y221.888
G01 X290.118 Y221.761
G01 X289.090 Y219.510
G01 X287.937 Y217.292
G01 X287.892 Y217.211
G01 X284.687 Y216.871
G01 X281.545 Y216.763
G01 X281.429 Y216.764
G01 X278.694 Y216.507
G01 X276.011 Y216.436
G01 X275.913 Y216.437
G01 X274.989 Y214.123
G01 X273.899 Y211.821
G01 X273.855 Y211.736
G01 X273.164 Y208.430
G01 X272.204 Y205.105
G01 X272.163 Y204.981
G01 X270.003 Y203.773
G01 X267.777 Y202.669
G01 X267.693 Y202.630
G01 X264.647 Y204.017
G01 X261.782 Y205.584
G01 X261.679 Y205.646
G01 X259.198 Y206.502
G01 X256.829 Y207.492
G01 X256.744 Y207.531
G01 X254.826 Y205.643
G01 X252.740 Y203.845
G01 X252.659 Y203.780
G01 X250.409 Y201.274
G01 X247.918 Y198.883
G01 X247.821 Y198.797
G01 X245.325 Y199.111
G01 X242.854 Y199.547
G01 X242.763 Y199.566
G01 X240.760 Y202.369
G01 X239.014 Y205.242
G01 X238.954 Y205.350
G01 X237.104 Y207.037
G01 X235.392 Y208.795
G01 X235.331 Y208.861
G01 X232.607 Y207.879
G01 X229.752 Y207.069
G01 X229.644 Y207.042
G01 X226.465 Y206.047
G01 X223.142 Y205.265
G01 X223.016 Y205.240
G01 X221.125 Y207.024
G01 X219.344 Y208.885
G01 X219.280 Y208.956
G01 X218.907 Y212.450
G01 X218.799 Y215.877
G01 X218.800 Y216.003
G01 X217.768 Y218.166
G01 X216.872 Y220.347
G01 X216.841 Y220.428
G01 X213.759 Y220.742
G01 X210.632 Y221.290
G01 X210.515 Y221.314
G01 X207.343 Y222.102
G01 X204.158 Y223.134
G01 X204.039 Y223.177
G01 X203.517 Y225.848
G01 X203.143 Y228.504
G01 X203.132 Y228.603
G01 X204.511 Y231.873
G01 X206.091 Y234.955
G01 X206.154 Y235.065
G01 X205.972 Y237.378
G01 X205.911 Y239.672
G01 X205.911 Y239.756
G01 X203.130 Y241.510
G01 X200.421 Y243.512
G01 X200.322 Y243.591
G01 X198.107 Y245.881
G01 X196.002 Y248.373
G01 X195.926 Y248.470
G01 X197.084 Y251.100
G01 X198.366 Y253.614
G01 X198.416 Y253.705
G01 X201.185 Y255.925
G01 X204.042 Y257.883
G01 X204.150 Y257.951
G01 X204.767 Y260.153
G01 X205.489 Y262.313
G01 X205.518 Y262.392
G01 X203.755 Y265.366
G01 X202.183 Y268.540
G01 X202.128 Y268.661
G01 X201.525 Y271.693
G01 X201.108 Y274.828
G01 X201.096 Y274.946
G01 X203.671 Y276.574
G01 X206.285 Y278.012
G01 X206.383 Y278.062
G01 X209.835 Y278.722
G01 X213.242 Y279.114
G01 X213.368 Y279.123
G01 X214.705 Y281.005
G01 X216.139 Y282.825
G01 X216.194 Y282.891
G01 X216.009 Y286.486
G01 X216.099 Y290.173
G01 X216.108 Y290.312
G01 X217.248 Y293.081
G01 X218.581 Y295.833
G01 X218.635 Y295.935
G01 X221.863 Y295.890
G01 X225.010 Y295.644
G01 X225.125 Y295.631
G01 X228.429 Y294.652
G01 X231.576 Y293.465
G01 X231.689 Y293.417
G01 X233.655 Y294.775
G01 X235.710 Y296.043
G01 X235.788 Y296.089
G01 X237.425 Y299.243
G01 X237.560 Y299.479
G01 X239.332 Y302.870
G01 X241.768 Y304.459
G01 X244.335 Y305.933
G01 X244.433 Y305.985
G01 X247.290 Y304.124
G01 X249.951 Y302.123
G01 X250.046 Y302.046
G01 X252.489 Y299.756
G01 X254.707 Y297.357
G01 X254.785 Y297.266
G01 X257.234 Y297.875
G01 X259.755 Y298.355
G01 X259.849 Y298.370
G01 X262.865 Y300.389
G01 X263.101 Y300.534
G01 X266.352 Y302.698
G01 X269.194 Y302.588
G01 X272.064 Y302.325
G01 X272.171 Y302.312
G01 X273.705 Y299.077
G01 X274.977 Y295.822
G01 X275.019 Y295.701
G01 X276.171 Y292.689
G01 X277.090 Y289.679
G01 X277.120 Y289.567
G01 X279.798 Y289.200
G01 X282.503 Y288.663
G01 X282.604 Y288.640
G01 X286.265 Y288.931
G01 X286.541 Y288.942
G01 X290.479 Y289.245
G01 X292.690 Y287.505
G01 X294.828 Y285.643
G01 X294.905 Y285.571
G01 X294.405 Y281.854
G01 X293.944 Y278.365
G01 X293.905 Y278.137
G01 X293.684 Y275.061
G01 X293.271 Y272.076
G01 X293.252 Y271.967
G01 X295.754 Y270.479
G01 X298.211 Y268.797
G01 X298.301 Y268.730
G01 X301.637 Y267.160
G01 X301.876 Y267.036
G01 X305.450 Y265.342
G01 X306.204 Y262.618
G01 X306.824 Y259.857
G01 X306.844 Y259.754
G01 X304.457 Y256.701
G01 X302.229 Y253.837
G01 X302.069 Y253.647
G01 X300.683 Y251.057
G01 X299.172 Y248.611
G01 X299.114 Y248.523
G01 X300.922 Y245.961
G01 X302.593 Y243.218
G01 X302.652 Y243.113
G01 X304.730 Y240.089
G01 X304.868 Y239.872
G01 X307.083 Y236.631
G01 X306.054 Y233.933
G01 X304.899 Y231.304
G01 X304.854 Y231.207
G01 X301.177 Y229.710
G01 X297.747 Y228.301
G01 X297.501 Y228.212
G01 X295.325 Y226.453
G01 X293.093 Y224.853
G01 X293.009 Y224.797
G01 X293.603 Y221.486
G01 X293.970 Y218.060
G01 X293.979 Y217.930
G01 X294.208 Y214.313
G01 X294.215 Y214.073
G01 X294.450 Y210.216
G01 X291.943 Y208.578
G01 X289.384 Y207.089
G01 X289.288 Y207.037
G01 X285.291 Y207.535
G01 X281.560 Y207.991
G01 X281.294 Y208.034
G01 X278.733 Y207.240
G01 X276.170 Y206.595
G01 X276.075 Y206.574
G01 X275.102 Y203.127
G01 X273.850 Y199.676
G01 X273.798 Y199.548
G01 X272.135 Y196.404
G01 X272.026 Y196.214
G01 X270.253 Y192.881
G01 X267.113 Y192.999
G01 X264.034 Y193.285
G01 X263.921 Y193.299
G01 X260.642 Y195.670
G01 X257.576 Y197.874
G01 X257.362 Y198.041
G01 X254.762 Y198.198
G01 X252.195 Y198.484
G01 X252.100 Y198.497
G01 X249.549 Y195.903
G01 X249.358 Y195.724
G01 X246.616 Y192.951
G01 X243.592 Y191.077
G01 X240.376 Y189.368
G01 X240.253 Y189.308
G01 X237.589 Y191.289
G01 X235.095 Y193.382
G01 X235.006 Y193.462
G01 X233.247 Y197.084
G01 X231.596 Y200.461
G01 X231.488 Y200.706
G01 X229.117 Y201.731
G01 X226.802 Y202.871
G01 X226.717 Y202.916
G01 X223.108 Y201.734
G01 X222.836 Y201.657
G01 X218.955 Y200.398
G01 X215.512 Y200.478
G01 X212.004 Y200.780
G01 X211.872 Y200.795
G01 X210.685 Y204.104
G01 X209.728 Y207.408
G01 X209.697 Y207.530
G01 X209.819 Y211.495
G01 X209.924 Y215.202
G01 X209.941 Y215.459
G01 X208.024 Y217.256
G01 X206.188 Y219.157
G01 X206.121 Y219.230
G01 X202.250 Y219.898
G01 X201.958 Y219.960
G01 X197.795 Y220.691
G01 X195.073 Y222.617
G01 X192.418 Y224.740
G01 X192.321 Y224.823
G01 X193.160 Y228.444
G01 X194.210 Y231.920
G01 X194.253 Y232.046
G01 X196.119 Y235.437
G01 X197.860 Y238.620
G01 X197.985 Y238.828
G01 X196.755 Y241.271
G01 X195.641 Y243.809
G01 X195.602 Y243.905
G01 X192.438 Y246.398
G01 X192.204 Y246.598
G01 X188.805 Y249.292
G01 X187.702 Y252.338
G01 X186.754 Y255.491
G01 X186.722 Y255.610
G01 X189.602 Y258.289
G01 X192.315 Y260.823
G01 X192.481 Y260.968
G01 X195.458 Y263.203
G01 X198.510 Y265.174
G01 X198.625 Y265.243
G01 X198.338 Y268.130
G01 X198.213 Y271.081
G01 X198.212 Y271.192
G01 X196.623 Y274.966
G01 X196.514 Y275.257
G01 X194.816 Y279.322
G01 X195.675 Y282.380
G01 X196.703 Y285.423
G01 X196.744 Y285.536
G01 X200.773 Y286.359
G01 X204.560 Y287.143
G01 X204.802 Y287.183
G01 X208.304 Y287.882
G01 X211.761 Y288.330
G01 X211.888 Y288.342
G01 X212.771 Y291.325
G01 X213.857 Y294.312
G01 X213.901 Y294.423
G01 X214.376 Y298.522
G01 X214.424 Y298.825
G01 X214.946 Y303.227
G01 X217.427 Y305.176
G01 X220.015 Y307.009
G01 X220.113 Y307.075
G01 X224.143 Y305.673
G01 X227.923 Y304.369
G01 X228.173 Y304.272
G01 X231.484 Y303.482
G01 X234.663 Y302.502
G01 X234.778 Y302.462
G01 X236.922 Y305.034
G01 X239.283 Y307.518
G01 X239.375 Y307.609
G01 X241.831 Y310.920
G01 X242.016 Y311.151
G01 X244.657 Y314.694
G01 X247.841 Y314.792
G01 X251.022 Y314.735
G01 X251.140 Y314.729
G01 X254.000 Y311.400
G01 X256.683 Y308.294
G01 X256.861 Y308.071
G01 X259.442 Y306.121
G01 X261.850 Y304.061
G01 X261.936 Y303.983
G01 X265.175 Y305.547
G01 X268.596 Y306.919
G01 X268.726 Y306.966
G01 X272.490 Y308.559
G01 X272.752 Y308.658
G01 X276.777 Y310.350
G01 X279.473 Y308.500
G01 X282.052 Y306.532
G01 X282.145 Y306.457
G01 X283.004 Y302.066
G01 X283.816 Y297.969
G01 X283.862 Y297.675
G01 X285.423 Y295.018
G01 X286.807 Y292.326
G01 X286.855 Y292.225
G01 X290.573 Y292.121
G01 X290.817 Y292.105
G01 X294.778 Y291.984
G01 X298.759 Y291.414
G01 X299.014 Y291.368
G01 X303.250 Y290.751
G01 X304.402 Y287.548
G01 X305.370 Y284.332
G01 X305.403 Y284.213
G01 X304.005 Y279.917
G01 X302.712 Y275.906
G01 X302.607 Y275.621
G01 X303.075 Y272.698
G01 X303.385 Y269.792
G01 X303.394 Y269.685
G01 X306.868 Y267.848
G01 X307.105 Y267.711
G01 X310.817 Y265.737
G01 X313.833 Y263.214
G01 X314.007 Y263.057
G01 X317.198 Y260.377
G01 X316.258 Y256.924
G01 X315.145 Y253.589
G01 X315.100 Y253.468
G01 X311.819 Y250.364
G01 X308.765 Y247.459
G01 X308.537 Y247.259
G01 X307.973 Y244.425
G01 X307.272 Y241.639
G01 X307.243 Y241.537
G01 X309.617 Y238.171
G01 X309.781 Y237.919
G01 X312.318 Y234.301
G01 X313.474 Y230.652
G01 X313.530 Y230.452
G01 X314.742 Y226.604
G01 X311.775 Y224.215
G01 X308.941 Y221.926
G01 X308.808 Y221.826
G01 X304.496 Y220.640
G01 X300.472 Y219.522
G01 X300.184 Y219.454
G01 X298.694 Y216.981
G01 X297.083 Y214.581
G01 X297.020 Y214.494
G01 X297.590 Y210.251
G01 X297.620 Y209.931
G01 X298.219 Y205.369
G01 X297.210 Y201.792
G01 X297.156 Y201.620
G01 X296.093 Y197.871
G01 X292.088 Y197.490
G01 X288.278 Y197.121
G01 X288.082 Y197.108
G01 X283.794 Y198.026
G01 X279.780 Y198.875
G01 X279.506 Y198.944
G01 X277.212 Y197.079
G01 X274.805 Y195.316
G01 X274.714 Y195.253
G01 X273.172 Y191.121
G01 X273.042 Y190.812
G01 X271.371 Y186.372
G01 X268.605 Y184.044
G01 X268.486 Y183.950
G01 X265.602 Y181.529
G01 X261.828 Y183.463
G01 X258.253 Y185.287
G01 X258.054 Y185.397
G01 X254.739 Y188.072
G01 X251.622 Y190.574
G01 X251.424 Y190.746
G01 X248.490 Y189.753
G01 X245.462 Y188.907
G01 X245.348 Y188.878
G01 X241.946 Y185.929
G01 X241.678 Y185.715
G01 X238.008 Y182.553
G01 X234.466 Y182.142
G01 X230.855 Y181.920
G01 X230.719 Y181.915
G01 X228.426 Y185.725
G01 X226.257 Y189.311
G01 X226.132 Y189.535
G01 X224.397 Y193.251
G01 X222.755 Y196.748
G01 X222.662 Y196.967
G01 X219.369 Y197.122
G01 X216.027 Y197.476
G01 X215.902 Y197.493
G01 X211.442 Y196.562
G01 X211.104 Y196.505
G01 X206.305 Y195.517
G01 X203.243 Y197.229
G01 X200.246 Y199.112
G01 X200.136 Y199.185
G01 X200.142 Y203.817
G01 X200.139 Y208.166
G01 X200.149 Y208.448
G01 X200.163 Y212.369
G01 X200.169 Y216.080
G01 X200.176 Y216.289
G01 X196.977 Y217.800
G01 X193.809 Y219.545
G01 X193.693 Y219.615
G01 X189.340 Y221.014
G01 X189.025 Y221.130
G01 X184.357 Y222.644
G01 X182.905 Y225.830
G01 X181.608 Y229.093
G01 X181.562 Y229.215
G01 X183.998 Y233.335
G01 X186.269 Y237.198
G01 X186.434 Y237.455
G01 X187.857 Y240.877
G01 X189.458 Y244.129
G01 X189.521 Y244.246
G01 X187.181 Y247.123
G01 X187.054 Y247.291
G01 X184.587 Y250.336
G01 X181.540 Y253.716
G01 X181.335 Y253.963
G01 X178.082 Y257.590
G01 X178.813 Y261.067
G01 X179.711 Y264.491
G01 X179.748 Y264.617
G01 X184.016 Y267.028
G01 X187.998 Y269.291
G01 X188.284 Y269.439
G01 X190.808 Y271.891
G01 X193.420 Y274.143
G01 X193.518 Y274.223
G01 X192.544 Y278.054
G01 X192.492 Y278.296
G01 X191.465 Y282.369
G01 X190.583 Y286.775
G01 X190.535 Y287.072
G01 X189.605 Y291.775
G01 X192.326 Y294.229
G01 X195.141 Y296.518
G01 X195.247 Y296.600
G01 X200.222 Y296.604
G01 X204.864 Y296.620
G01 X205.197 Y296.607
G01 X208.305 Y297.869
G01 X211.427 Y298.940
G01 X211.543 Y298.976
G01 X212.376 Y303.084
G01 X212.443 Y303.358
G01 X213.342 Y307.740
G01 X214.850 Y311.880
G01 X214.954 Y312.136
G01 X216.566 Y316.532
G01 X220.413 Y316.865
G01 X220.418 Y316.866
G01 X224.137 Y317.192
G01 X224.270 Y317.199
G01 X228.649 Y314.786
G01 X232.739 Y312.547
G01 X233.028 Y312.373
G01 X236.261 Y312.437
G01 X239.460 Y312.336
G01 X239.578 Y312.329
G01 X242.293 Y315.807
G01 X242.495 Y316.046
G01 X245.412 Y319.764
G01 X248.799 Y322.406
G01 X248.999 Y322.551
G01 X252.587 Y325.339
G01 X256.111 Y323.317
G01 X259.495 Y321.380
G01 X259.634 Y321.294
G01 X262.327 Y317.110
G01 X264.851 Y313.212
G01 X265.020 Y312.925
G01 X268.026 Y311.892
G01 X270.966 Y310.716
G01 X271.074 Y310.670
G01 X275.253 Y312.606
G01 X275.567 Y312.736
G01 X280.059 Y314.803
G01 X284.215 Y315.178
G01 X284.432 Y315.191
G01 X288.805 Y315.578
G01 X290.697 Y311.732
G01 X292.508 Y308.065
G01 X292.589 Y307.886
G01 X293.011 Y303.000
G01 X293.417 Y298.435
G01 X293.433 Y298.114
G01 X295.929 Y296.113
G01 X298.334 Y293.984
G01 X298.421 Y293.902
G01 X303.182 Y293.661
G01 X303.540 Y293.628
G01 X308.659 Y293.355
G01 X312.218 Y291.424
G01 X312.379 Y291.331
G01 X316.099 Y289.307
G01 X315.556 Y284.818
G01 X315.049 Y280.556
G01 X315.014 Y280.329
G01 X313.197 Y275.900
G01 X311.506 Y271.747
G01 X311.380 Y271.471
G01 X313.097 Y268.651
G01 X314.683 Y265.714
G01 X314.739 Y265.602
G01 X318.922 Y263.070
G01 X319.233 Y262.864
G01 X323.726 Y260.126
G01 X325.517 Y256.618
G01 X325.583 Y256.477
G01 X327.440 Y252.828
G01 X324.438 Y249.143
G01 X321.607 Y245.655
G01 X321.435 Y245.458
G01 X317.948 Y242.412
G01 X314.678 Y239.542
G01 X314.460 Y239.366
G01 X315.100 Y235.948
G01 X315.557 Y232.443
G01 X315.570 Y232.311
G01 X318.057 Y228.005
G01 X318.232 Y227.671
G01 X320.895 Y223.032
G01 X320.339 Y219.212
G01 X320.317 Y219.088
G01 X319.743 Y215.161
G01 X319.740 Y215.143
G01 X315.050 Y213.503
G01 X310.639 Y211.950
G01 X310.360 Y211.863
G01 X306.076 Y210.688
G01 X302.037 Y209.571
G01 X301.793 Y209.512
G01 X300.977 Y205.955
G01 X300.934 Y205.792
G01 X300.075 Y202.072
G01 X300.137 Y197.060
G01 X300.127 Y196.687
G01 X300.179 Y191.301
G01 X297.509 Y188.560
G01 X297.438 Y188.490
G01 X294.729 Y185.710
G01 X294.698 Y185.679
G01 X289.647 Y186.718
G01 X284.908 Y187.681
G01 X284.597 Y187.757
G01 X280.423 Y188.459
G01 X276.463 Y189.118
G01 X276.248 Y189.161
G01 X273.957 Y186.009
G01 X273.830 Y185.846
G01 X271.412 Y182.532
G01 X268.976 Y178.154
G01 X268.787 Y177.845
G01 X266.163 Y173.158
G01 X262.362 Y172.526
G01 X262.290 Y172.516
G01 X258.486 Y171.885
G01 X258.416 Y171.875
G01 X254.468 Y175.420
G01 X250.766 Y178.727
G01 X250.520 Y178.965
G01 X247.164 Y181.179
G01 X243.961 Y183.284
G01 X243.809 Y183.392
G01 X240.198 Y181.325
G01 X239.981 Y181.211
G01 X236.154 Y179.030
G01 X231.877 Y176.505
G01 X231.574 Y176.341
G01 X226.994 Y173.652
G01 X223.476 Y175.437
G01 X223.435 Y175.460
G01 X219.961 Y177.221
G01 X219.875 Y177.267
G01 X218.173 Y182.405
G01 X216.571 Y187.198
G01 X216.471 Y187.543
G01 X214.342 Y190.715
G01 X212.294 Y193.757
G01 X212.212 Y193.888
G01 X207.802 Y193.532
G01 X207.518 Y193.519
G01 X202.825 Y193.151
G01 X197.938 Y193.183
G01 X197.618 Y193.197
G01 X192.411 Y193.243
G01 X190.542 Y196.893
G01 X190.532 Y196.912
G01 X188.708 Y200.467
G01 X188.653 Y200.581
G01 X189.687 Y205.951
G01 X190.638 Y210.962
G01 X190.721 Y211.321
G01 X189.851 Y214.835
G01 X189.181 Y218.340
G01 X189.159 Y218.470
G01 X184.807 Y220.177
G01 X184.513 Y220.305
G01 X179.867 Y222.140
G01 X175.813 Y224.668
G01 X175.572 Y224.831
G01 X171.277 Y227.522
G01 X171.891 Y231.785
G01 X172.478 Y235.892
G01 X172.505 Y236.047
G01 X175.994 Y240.263
G01 X179.237 Y244.204
G01 X179.483 Y244.479
G01 X179.892 Y247.963
G01 X180.473 Y251.393
G01 X180.497 Y251.520
G01 X177.227 Y255.172
G01 X177.002 Y255.444
G01 X173.507 Y259.368
G01 X171.489 Y263.554
G01 X171.385 Y263.790
G01 X169.262 Y268.212
G01 X172.333 Y271.543
G01 X175.271 Y274.736
G01 X175.405 Y274.874
G01 X180.426 Y276.923
G01 X185.107 Y278.848
G01 X185.446 Y278.972
G01 X187.001 Y282.076
G01 X188.706 Y285.097
G01 X188.772 Y285.208
G01 X187.499 Y290.144
G01 X187.419 Y290.515
G01 X186.067 Y295.821
G01 X186.644 Y300.291
G01 X186.680 Y300.513
G01 X187.292 Y305.205
G01 X191.935 Y306.335
G01 X196.355 Y307.419
G01 X196.578 Y307.466
G01 X201.875 Y306.964
G01 X206.829 Y306.506
G01 X207.172 Y306.461
G01 X209.722 Y308.892
G01 X212.407 Y311.209
G01 X212.510 Y311.292
G01 X213.736 Y316.402
G01 X213.845 Y316.785
G01 X215.179 Y322.277
G01 X218.065 Y325.562
G01 X218.195 Y325.701
G01 X221.211 Y329.125
G01 X225.966 Y327.479
G01 X230.475 Y325.927
G01 X230.721 Y325.833
G01 X235.087 Y323.059
G01 X239.186 Y320.469
G01 X239.452 Y320.286
G01 X242.821 Y321.642
G01 X242.936 Y321.685
G01 X246.406 Y323.079
G01 X246.419 Y323.084
G01 X250.010 Y327.075
G01 X250.295 Y327.368
G01 X254.171 Y331.652
G01 X258.306 Y332.674
G01 X258.460 Y332.708
G01 X262.747 Y333.764
G01 X262.749 Y333.764
G01 X266.062 Y329.658
G01 X269.196 Y325.791
G01 X269.375 Y325.552
G01 X271.962 Y321.293
G01 X274.404 Y317.292
G01 X274.548 Y317.035
G01 X278.372 Y317.084
G01 X278.530 Y317.081
G01 X282.512 Y317.127
G01 X287.652 Y318.902
G01 X288.045 Y319.020
G01 X293.578 Y320.913
G01 X297.468 Y319.366
G01 X297.585 Y319.316
G01 X301.563 Y317.732
G01 X301.591 Y317.720
G01 X302.318 Y312.271
G01 X303.013 Y307.152
G01 X303.045 Y306.822
G01 X303.525 Y302.083
G01 X303.988 Y297.606
G01 X304.005 Y297.344
G01 X307.788 Y295.847
G01 X307.969 Y295.768
G01 X311.932 Y294.192
G01 X317.302 Y293.203
G01 X317.695 Y293.115
G01 X323.459 Y292.037
G01 X325.680 Y288.508
G01 X325.729 Y288.424
G01 X327.970 Y284.862
G01 X328.000 Y284.811
G01 X325.773 Y279.583
G01 X323.698 Y274.679
G01 X323.545 Y274.354
G01 X322.090 Y270.066
G01 X320.713 Y265.990
G01 X320.634 Y265.778
G01 X323.699 Y262.703
G01 X323.862 Y262.528
G01 X327.090 Y259.278
G01 X331.229 Y255.752
G01 X331.514 Y255.489
G01 X335.938 Y251.700
G01 X335.629 Y247.490
G01 X335.622 Y247.421
G01 X335.316 Y243.229
G01 X335.307 Y243.142
G01 X330.644 Y239.649
G01 X326.294 Y236.374
G01 X325.981 Y236.157
G01 X323.094 Y232.976
G01 X320.340 Y229.932
G01 X320.208 Y229.795
G01 X321.817 Y225.457
G01 X321.905 Y225.189
G01 X323.603 Y220.584
G01 X325.353 Y215.505
G01 X325.459 Y215.156
G01 X327.315 Y209.728
G01 X324.497 Y206.421
G01 X324.469 Y206.390
G01 X321.703 Y203.140
G01 X321.624 Y203.052
G01 X315.754 Y202.303
G01 X310.278 Y201.589
G01 X309.884 Y201.553
G01 X306.194 Y199.795
G01 X302.647 Y198.100
G01 X302.505 Y198.037
G01 X302.065 Y193.150
G01 X302.024 Y192.830
G01 X301.544 Y187.623
G01 X300.435 Y182.472
G01 X300.353 Y182.146
G01 X299.161 Y176.670
G01 X294.758 Y175.587
G01 X294.745 Y175.584
G01 X290.476 Y174.531
G01 X290.329 Y174.499
G01 X284.799 Y176.706
G01 X279.637 Y178.752
G01 X279.269 Y178.915
G01 X275.371 Y178.619
G01 X275.353 Y178.618
G01 X271.558 Y178.328
G01 X271.436 Y178.322
G01 X268.741 Y173.914
G01 X268.541 Y173.613
G01 X265.647 Y168.904
G01 X262.080 Y165.208
G01 X261.862 Y164.997
G01 X258.077 Y161.090
G01 X253.637 Y162.814
G01 X249.367 Y164.465
G01 X249.197 Y164.537
G01 X245.406 Y169.101
G01 X241.859 Y173.349
G01 X241.616 Y173.665
G01 X237.966 Y174.705
G01 X237.921 Y174.719
G01 X234.314 Y175.745
G01 X234.226 Y175.772
G01 X229.627 Y172.945
G01 X229.284 Y172.752
G01 X224.342 Y169.733
G01 X219.492 Y168.574
G01 X219.230 Y168.521
G01 X214.119 Y167.309
G01 X211.271 Y171.436
G01 X208.543 Y175.376
G01 X208.422 Y175.563
G01 X207.233 Y181.295
G01 X206.108 Y186.645
G01 X206.044 Y187.027
G01 X202.980 Y189.224
G01 X202.918 Y189.271
G01 X199.843 Y191.477
G01 X199.793 Y191.515
G01 X194.214 Y191.127
G01 X193.795 Y191.114
G01 X187.798 Y190.713
G01 X183.257 Y192.363
G01 X183.044 Y192.448
G01 X178.290 Y194.183
G01 X178.169 Y199.466
G01 X178.047 Y204.488
G01 X178.049 Y204.749
G01 X179.596 Y210.256
G01 X181.031 Y215.414
G01 X181.143 Y215.764
G01 X178.968 Y218.931
G01 X178.909 Y219.023
G01 X176.693 Y222.253
G01 X176.675 Y222.282
G01 X171.435 Y224.632
G01 X171.045 Y224.826
G01 X165.415 Y227.370
G01 X162.675 Y231.175
G01 X162.567 Y231.335
G01 X159.719 Y235.299
G01 X162.594 Y240.050
G01 X165.306 Y244.550
G01 X165.470 Y244.802
G01 X169.208 Y248.888
G01 X172.708 Y252.732
G01 X172.946 Y252.974
G01 X171.984 Y256.857
G01 X171.953 Y256.999
G01 X170.960 Y261.020
G01 X170.959 Y261.024
G01 X167.427 Y265.681
G01 X167.173 Y266.045
G01 X163.387 Y271.065
G01 X163.334 Y275.642
G01 X163.337 Y275.800
G01 X163.286 Y280.521
G01 X163.286 Y280.535
G01 X168.457 Y283.178
G01 X173.323 Y285.679
G01 X173.628 Y285.822
G01 X178.573 Y287.772
G01 X183.229 Y289.619
G01 X183.518 Y289.722
G01 X184.082 Y293.912
G01 X184.113 Y294.095
G01 X184.707 Y298.469
G01 X183.883 Y304.309
G01 X183.839 Y304.748
G01 X182.972 Y311.027
G01 X185.572 Y314.720
G01 X185.646 Y314.820
G01 X188.295 Y318.578
G01 X188.321 Y318.613
G01 X194.337 Y318.194
G01 X199.984 Y317.814
G01 X200.353 Y317.775
G01 X205.409 Y317.453
G01 X210.196 Y317.157
G01 X210.465 Y317.131
G01 X212.745 Y321.014
G01 X212.867 Y321.208
G01 X215.269 Y325.285
G01 X217.445 Y330.769
G01 X217.619 Y331.163
G01 X219.969 Y337.040
G01 X224.255 Y338.481
G01 X224.344 Y338.509
G01 X228.648 Y339.956
G01 X228.720 Y339.978
G01 X233.843 Y336.465
G01 X238.646 Y333.188
G01 X238.966 Y332.951
G01 X243.218 Y330.708
G01 X247.268 Y328.580
G01 X247.469 Y328.465
G01 X251.369 Y331.268
G01 X251.598 Y331.420
G01 X255.726 Y334.375
G01 X260.329 Y337.993
G01 X260.661 Y338.234
G01 X265.596 Y342.092
G01 X269.979 Y340.687
G01 X270.039 Y340.666
G01 X274.382 Y339.274
G01 X274.482 Y339.239
G01 X277.229 Y333.522
G01 X279.809 Y328.189
G01 X279.977 Y327.804
G01 X282.853 Y324.268
G01 X285.613 Y320.885
G01 X285.730 Y320.732
G01 X290.746 Y321.689
G01 X291.062 Y321.737
G01 X296.395 Y322.743
G01 X302.112 Y323.485
G01 X302.493 Y323.520
G01 X308.591 Y324.298
G01 X311.398 Y320.452
G01 X311.417 Y320.424
G01 X314.163 Y316.666
G01 X314.243 Y316.551
G01 X313.828 Y310.147
G01 X313.457 Y304.173
G01 X313.413 Y303.744
G01 X314.702 Y299.593
G01 X315.948 Y295.592
G01 X315.990 Y295.442
G01 X321.206 Y294.046
G01 X321.553 Y293.939
G01 X327.116 Y292.435
G01 X332.266 Y290.142
G01 X332.580 Y289.989
G01 X338.045 Y287.542
G01 X338.098 Y282.555
G01 X338.098 Y282.553
G01 X338.154 Y277.739
G01 X338.152 Y277.564
G01 X334.691 Y272.144
G01 X331.478 Y267.082
G01 X331.231 Y266.725
G01 X330.974 Y262.567
G01 X330.971 Y262.536
G01 X330.722 Y258.468
G01 X330.711 Y258.348
G01 X334.953 Y254.589
G01 X335.244 Y254.311
G01 X339.776 Y250.275
G01 X342.834 Y245.724
G01 X342.999 Y245.459
G01 X346.223 Y240.643
G01 X343.287 Y236.308
G01 X340.476 Y232.147
G01 X340.351 Y231.973
G01 X334.777 Y228.869
G01 X329.583 Y225.959
G01 X329.202 Y225.766
G01 X327.576 Y222.032
G01 X327.550 Y221.976
G01 X325.935 Y218.265
G01 X325.898 Y218.185
G01 X328.035 Y212.687
G01 X328.177 Y212.276
G01 X330.456 Y206.366
G01 X330.551 Y201.054
G01 X330.547 Y200.781
G01 X330.638 Y195.195
G01 X325.528 Y193.126
G01 X320.657 Y191.146
G01 X320.417 Y191.057
G01 X314.149 Y190.913
G01 X308.293 Y190.763
G01 X307.881 Y190.768
G01 X305.085 Y187.797
G01 X305.018 Y187.729
G01 X302.195 Y184.730
G01 X302.155 Y184.690
G01 X301.461 Y178.641
G01 X301.390 Y178.188
G01 X300.625 Y171.686
G01 X297.846 Y167.355
G01 X297.714 Y167.163
G01 X294.802 Y162.640
G01 X289.105 Y163.743
G01 X283.697 Y164.781
G01 X283.408 Y164.847
G01 X277.917 Y167.509
G01 X272.768 Y169.991
G01 X272.427 Y170.172
G01 X268.683 Y168.290
G01 X268.565 Y168.235
G01 X264.726 Y166.309
G01 X264.702 Y166.297
G01 X261.141 Y161.188
G01 X260.855 Y160.811
G01 X257.007 Y155.325
G01 X252.396 Y153.393
G01 X252.215 Y153.323
G01 X247.422 Y151.322
G01 X242.983 Y155.485
G01 X238.783 Y159.409
G01 X238.544 Y159.649
G01 X234.952 Y164.311
G01 X231.566 Y168.683
G01 X231.359 Y168.972
G01 X226.995 Y168.529
G01 X226.824 Y168.516
G01 X222.289 Y168.061
G01 X216.626 Y165.265
G01 X216.190 Y165.071
G01 X210.091 Y162.080
G01 X205.315 Y163.153
G01 X205.163 Y163.191
G01 X200.260 Y164.295
G01 X200.235 Y164.302
G01 X198.555 Y170.421
G01 X196.962 Y176.173
G01 X196.875 Y176.539
G01 X195.716 Y182.049
G01 X194.610 Y187.246
G01 X194.556 Y187.558
G01 X190.090 Y188.855
G01 X189.885 Y188.922
G01 X185.214 Y190.286
G01 X178.874 Y190.624
G01 X178.405 Y190.668
G01 X171.596 Y191.051
G01 X168.391 Y194.694
G01 X168.313 Y194.787
G01 X165.069 Y198.478
G01 X165.031 Y198.524
G01 X166.784 Y204.852
G01 X168.413 Y210.789
G01 X168.537 Y211.181
G01 X169.735 Y216.397
G01 X170.863 Y221.346
G01 X170.934 Y221.613
G01 X167.103 Y224.755
G01 X166.905 Y224.929
G01 X162.876 Y228.245
G01 X157.563 Y231.684
G01 X157.190 Y231.946
G01 X151.504 Y235.648
G01 X151.080 Y240.513
G01 X151.074 Y240.602
G01 X150.650 Y245.463
G01 X150.644 Y245.556
G01 X155.470 Y250.260
G01 X159.971 Y254.671
G01 X160.296 Y254.966
G01 X163.328 Y259.030
G01 X166.215 Y262.912
G01 X166.361 Y263.094
G01 X164.016 Y267.823
G01 X163.887 Y268.107
G01 X161.414 Y273.120
G01 X158.602 Y278.712
G01 X158.423 Y279.104
G01 X155.433 Y285.088
G01 X158.032 Y289.359
G01 X158.063 Y289.407
G01 X160.623 Y293.619
G01 X160.692 Y293.725
G01 X167.327 Y295.450
G01 X173.516 Y297.076
G01 X173.962 Y297.175
G01 X178.102 Y299.626
G01 X182.074 Y301.985
G01 X182.242 Y302.078
G01 X182.130 Y307.676
G01 X182.136 Y308.036
G01 X182.031 Y313.995
G01 X182.491 Y320.121
G01 X182.535 Y320.517
G01 X183.040 Y327.040
G01 X187.831 Y329.051
G01 X187.852 Y329.059
G01 X192.512 Y331.019
G01 X192.665 Y331.079
G01 X199.349 Y329.336
G01 X205.588 Y327.728
G01 X206.034 Y327.593
G01 X210.566 Y328.324
G01 X210.577 Y328.326
G01 X214.967 Y329.038
G01 X215.119 Y329.058
G01 X217.607 Y334.410
G01 X217.792 Y334.771
G01 X220.464 Y340.484
G01 X223.981 Y345.335
G01 X224.204 Y345.620
G01 X227.943 Y350.756
G01 X233.262 Y349.580
G01 X238.384 Y348.453
G01 X238.582 Y348.404
G01 X243.600 Y343.677
G01 X248.293 Y339.283
G01 X248.619 Y338.951
G01 X252.958 Y338.085
G01 X253.002 Y338.075
G01 X257.270 Y337.225
G01 X257.384 Y337.199
G01 X262.230 Y341.023
G01 X262.590 Y341.284
G01 X267.796 Y345.370
G01 X273.200 Y347.519
G01 X273.501 Y347.627
G01 X279.207 Y349.884
G01 X283.120 Y345.706
G01 X286.870 Y341.713
G01 X287.033 Y341.528
G01 X289.203 Y335.070
G01 X291.245 Y329.048
G01 X291.374 Y328.612
G01 X295.106 Y326.359
G01 X295.172 Y326.317
G01 X298.901 Y324.066
G01 X298.971 Y324.021
G01 X305.260 Y325.226
G01 X305.730 Y325.297
G01 X312.490 Y326.573
G01 X318.007 Y325.451
G01 X318.277 Y325.387
G01 X324.064 Y324.202
G01 X325.068 Y318.259
G01 X326.032 Y312.604
G01 X326.072 Y312.317
G01 X325.028 Y305.731
G01 X324.068 Y299.570
G01 X323.985 Y299.145
G01 X326.763 Y295.727
G01 X326.833 Y295.636
G01 X329.651 Y292.166
G01 X329.682 Y292.127
G01 X335.973 Y290.186
G01 X336.442 Y290.020
G01 X343.203 Y287.913
G01 X347.025 Y284.021
G01 X347.184 Y283.850
G01 X351.164 Y279.785
G01 X348.677 Y273.960
G01 X346.333 Y268.438
G01 X346.191 Y268.134
G01 X342.395 Y262.902
G01 X338.848 Y257.987
G01 X338.599 Y257.669
G01 X340.067 Y253.357
G01 X340.113 Y253.208
G01 X341.622 Y248.763
G01 X341.626 Y248.748
G01 X346.316 Y243.949
G01 X346.657 Y243.570
G01 X351.688 Y238.392
G01 X352.573 Y233.158
G01 X352.599 Y232.967
G01 X353.510 Y227.548
G01 X353.511 Y227.542
G01 X348.080 Y223.745
G01 X342.965 Y220.154
G01 X342.648 Y219.948
G01 X337.153 Y217.052
G01 X331.987 Y214.314
G01 X331.657 Y214.154
G01 X331.451 Y209.367
G01 X331.436 Y209.168
G01 X331.216 Y204.181
G01 X333.007 Y197.642
G01 X333.122 Y197.145
G01 X335.028 Y190.109
G01 X332.738 Y185.423
G01 X332.666 Y185.287
G01 X330.324 Y180.501
G01 X330.305 Y180.465
G01 X323.432 Y180.018
G01 X316.975 Y179.584
G01 X316.558 Y179.572
G01 X310.637 Y179.326
G01 X305.042 Y179.084
G01 X304.718 Y179.081
G01 X302.576 Y174.464
G01 X302.465 Y174.241
G01 X300.212 Y169.402
G01 X298.545 Y162.817
G01 X298.404 Y162.339
G01 X296.596 Y155.276
G01 X291.999 Y152.855
G01 X291.894 Y152.803
G01 X287.262 Y150.363
G01 X287.193 Y150.329
G01 X280.857 Y153.543
G01 X274.916 Y156.539
G01 X274.521 Y156.758
G01 X269.314 Y158.872
G01 X264.361 Y160.873
G01 X264.106 Y160.986
G01 X260.048 Y157.389
G01 X259.816 Y157.197
G01 X255.527 Y153.409
G01 X250.819 Y148.575
G01 X250.472 Y148.246
G01 X245.417 Y143.083
G01 X240.216 Y143.869
G01 X240.135 Y143.884
G01 X234.964 Y144.664
G01 X234.854 Y144.684
G01 X230.891 Y150.773
G01 X227.173 Y156.453
G01 X226.928 Y156.862
G01 X223.196 Y160.657
G01 X219.624 Y164.280
G01 X219.465 Y164.452
G01 X213.948 Y162.772
G01 X213.608 Y162.681
G01 X207.750 Y160.911
G01 X201.330 Y159.173
G01 X200.893 Y159.072
G01 X194.036 Y157.234
G01 X190.194 Y161.048
G01 X190.161 Y161.082
G01 X186.391 Y164.823
G01 X186.287 Y164.931
G01 X185.832 Y172.278
G01 X185.388 Y179.133
G01 X185.376 Y179.626
G01 X183.458 Y184.304
G01 X181.607 Y188.805
G01 X181.539 Y188.983
G01 X175.506 Y189.897
G01 X175.110 Y189.972
G01 X168.681 Y190.961
G01 X162.426 Y192.764
G01 X162.034 Y192.892
G01 X155.388 Y194.822
G01 X154.454 Y200.393
G01 X154.452 Y200.405
G01 X153.544 Y205.799
G01 X153.518 Y205.987
G01 X156.693 Y212.659
G01 X159.636 Y218.888
G01 X159.867 Y219.331
G01 X159.765 Y224.161
G01 X159.765 Y224.186
G01 X159.661 Y228.891
G01 X159.662 Y229.041
G01 X154.407 Y232.714
G01 X154.049 Y232.985
G01 X148.436 Y236.930
G01 X144.196 Y241.636
G01 X143.958 Y241.919
G01 X139.480 Y246.907
G01 X142.024 Y252.256
G01 X144.461 Y257.398
G01 X144.568 Y257.606
G01 X150.504 Y261.930
G01 X156.030 Y265.978
G01 X156.440 Y266.254
G01 X157.963 Y270.688
G01 X157.984 Y270.745
G01 X159.489 Y275.131
G01 X159.528 Y275.235
G01 X156.389 Y281.136
G01 X156.177 Y281.575
G01 X152.826 Y287.915
G01 X151.827 Y293.971
G01 X151.784 Y294.293
G01 X150.743 Y300.670
G01 X156.112 Y303.830
G01 X161.235 Y306.855
G01 X161.480 Y306.990
G01 X168.637 Y308.012
G01 X175.318 Y308.983
G01 X175.794 Y309.033
G01 X178.706 Y312.668
G01 X178.769 Y312.743
G01 X181.694 Y316.395
G01 X181.743 Y316.453
G01 X181.698 Y323.361
G01 X181.715 Y323.878
G01 X181.687 Y331.303
G01 X184.113 Y336.723
G01 X184.235 Y336.974
G01 X186.783 Y342.644
G01 X193.329 Y342.330
G01 X199.549 Y342.042
G01 X199.875 Y342.016
G01 X206.530 Y339.694
G01 X212.763 Y337.536
G01 X213.184 Y337.371
G01 X217.234 Y339.844
G01 X217.354 Y339.912
G01 X221.488 Y342.433
G01 X221.523 Y342.453
G01 X223.308 Y345.816
G01 X225.094 Y349.178
G01 X226.879 Y352.540
G01 X228.665 Y355.903
G01 X233.571 Y358.914
G01 X233.773 Y359.030
G01 X238.883 Y362.157
G01 X244.503 Y358.197
G01 X249.826 Y354.465
G01 X250.125 Y354.238
G01 X254.858 Y349.345
G01 X259.312 Y344.763
G01 X259.591 Y344.453
G01 X264.443 Y345.377
G01 X264.622 Y345.406
G01 X269.650 Y346.360
G01 X269.653 Y346.360
G01 X272.883 Y348.484
G01 X276.113 Y350.609
G01 X279.344 Y352.733
G01 X282.573 Y354.857
G01 X288.179 Y354.501
G01 X288.368 Y354.484
G01 X294.142 Y354.111
G01 X294.163 Y354.110
G01 X296.986 Y347.514
G01 X299.657 Y341.309
G01 X299.809 Y340.918
G01 X301.833 Y334.720
G01 X303.753 Y328.882
G01 X303.857 Y328.522
G01 X308.979 Y327.538
G01 X309.204 Y327.488
G01 X314.552 Y326.454
G01 X318.430 Y326.734
G01 X322.308 Y327.015
G01 X326.187 Y327.295
G01 X330.065 Y327.576
G01 X334.340 Y324.050
G01 X334.453 Y323.952
G01 X338.798 Y320.367
G01 X338.842 Y320.329
G01 X337.828 Y312.964
G01 X336.894 Y306.051
G01 X336.815 Y305.599
G01 X336.058 Y299.443
G01 X335.351 Y293.613
G01 X335.300 Y293.288
G01 X339.916 Y290.211
G01 X340.147 Y290.045
G01 X344.993 Y286.803
G01 X348.488 Y285.131
G01 X351.983 Y283.458
G01 X355.478 Y281.786
G01 X358.973 Y280.114
G01 X360.335 Y274.735
G01 X360.360 Y274.626
G01 X361.725 Y269.231
G01 X361.746 Y269.138
G01 X359.381 Y266.137
G01 X357.017 Y263.136
G01 X354.652 Y260.134
G01 X352.288 Y257.133
G01 X349.253 Y252.104
G01 X346.370 Y247.312
G01 X346.218 Y247.076
G01 X349.378 Y242.086
G01 X349.550 Y241.794
G01 X352.881 Y236.510
G01 X355.032 Y233.346
G01 X357.182 Y230.182
G01 X359.333 Y227.017
G01 X361.483 Y223.853
G01 X359.353 Y218.619
G01 X359.323 Y218.551
G01 X357.217 Y213.373
G01 X357.163 Y213.249
G01 X353.552 Y211.796
G01 X349.940 Y210.343
G01 X346.329 Y208.890
G01 X342.717 Y207.436
G01 X338.213 Y204.175
G01 X333.901 Y201.043
G01 X333.708 Y200.912
G01 X334.513 Y194.695
G01 X334.550 Y194.302
G01 X335.391 Y187.692
G01 X335.823 Y180.675
G01 X335.834 Y180.212
G01 X336.278 Y172.732
G01 X331.310 Y169.651
G01 X331.278 Y169.633
G01 X326.429 Y166.622
G01 X326.278 Y166.534
G01 X322.381 Y167.040
G01 X318.484 Y167.547
G01 X314.587 Y168.053
G01 X310.691 Y168.559
G01 X305.555 Y167.268
G01 X305.553 Y167.268
G01 X300.598 Y166.017
G01 X300.416 Y165.976
G01 X298.320 Y159.702
G01 X298.163 Y159.284
G01 X295.910 Y152.591
G01 X292.696 Y146.529
G01 X292.484 Y146.163
G01 X289.059 Y139.735
G01 X282.952 Y140.124
G01 X277.063 Y140.492
G01 X276.845 Y140.512
G01 X273.675 Y142.833
G01 X270.505 Y145.154
G01 X267.336 Y147.476
G01 X264.166 Y149.797
G01 X259.126 Y150.380
G01 X259.086 Y150.386
G01 X254.150 Y150.954
G01 X254.007 Y150.974
G01 X249.102 Y146.081
G01 X248.739 Y145.746
G01 X243.472 Y140.518
G01 X237.696 Y137.198
G01 X237.364 Y137.022
G01 X231.257 Y133.525
G01 X226.219 Y137.499
G01 X221.386 Y141.303
G01 X221.182 Y141.474
G01 X219.507 Y144.985
G01 X217.834 Y148.496
G01 X216.160 Y152.007
G01 X214.485 Y155.518
G01 X210.048 Y157.736
G01 X209.979 Y157.773
G01 X205.566 Y159.978
G01 X205.473 Y160.027
G01 X201.788 Y158.864
G01 X198.103 Y157.700
G01 X194.418 Y156.537
G01 X190.734 Y155.374
G01 X184.295 Y155.717
G01 X183.969 Y155.745
G01 X177.205 Y156.117
G01 X175.125 Y162.538
G01 X173.132 Y168.654
G01 X173.044 Y168.958
G01 X173.193 Y172.770
G01 X173.344 Y176.580
G01 X173.493 Y180.391
G01 X173.643 Y184.202
G01 X170.207 Y187.795
G01 X170.128 Y187.883
G01 X166.658 Y191.514
G01 X166.613 Y191.563
G01 X162.692 Y192.278
G01 X158.771 Y192.992
G01 X154.849 Y193.706
G01 X150.928 Y194.420
G01 X145.938 Y198.161
G01 X145.720 Y198.335
G01 X140.512 Y202.249
G01 X142.344 Y209.102
G01 X144.069 Y215.604
G01 X144.176 Y215.955
G01 X147.811 Y222.410
G01 X151.202 Y228.465
G01 X151.447 Y228.864
G01 X149.402 Y233.541
G01 X149.341 Y233.691
G01 X147.246 Y238.491
G01 X147.235 Y238.519
G01 X144.058 Y241.064
G01 X140.880 Y243.609
G01 X137.703 Y246.154
G01 X134.526 Y248.699
G01 X132.605 Y254.443
G01 X132.539 Y254.663
G01 X130.551 Y260.627
G01 X135.991 Y265.682
G01 X141.117 Y270.465
G01 X141.431 Y270.737
G01 X147.332 Y274.740
G01 X152.869 Y278.515
G01 X153.232 Y278.743
G01 X152.984 Y284.080
G01 X152.981 Y284.291
G01 X152.729 Y289.839
G01 X151.158 Y293.646
G01 X149.587 Y297.452
G01 X148.016 Y301.259
G01 X146.445 Y305.066
G01 X148.174 Y310.736
G01 X148.233 Y310.912
G01 X150.009 Y316.722
G01 X150.021 Y316.758
G01 X153.808 Y317.527
G01 X157.595 Y318.296
G01 X161.381 Y319.064
G01 X165.168 Y319.833
G01 X171.901 Y320.838
G01 X178.255 Y321.799
G01 X178.634 Y321.842
G01 X180.515 Y327.179
G01 X180.611 Y327.426
G01 X182.588 Y333.010
G01 X183.087 Y337.106
G01 X183.586 Y341.202
G01 X184.086 Y345.298
G01 X184.585 Y349.394
G01 X189.279 Y352.928
G01 X189.396 Y353.012
G01 X194.144 Y356.586
G01 X194.206 Y356.630
G01 X197.972 Y355.311
G01 X201.740 Y353.992
G01 X205.506 Y352.673
G01 X209.274 Y351.354
G01 X215.475 Y349.543
G01 X221.361 Y347.836
G01 X221.676 Y347.733
G01 X225.757 Y352.162
G01 X225.983 Y352.392
G01 X230.290 Y357.050
G01 X232.746 Y360.328
G01 X235.203 Y363.607
G01 X237.658 Y366.885
G01 X240.115 Y370.163
G01 X246.032 Y370.228
G01 X246.135 Y370.227
G01 X252.039 Y370.292
G01 X252.155 Y370.290
G01 X254.811 Y367.182
G01 X257.466 Y364.074
G01 X260.121 Y360.965
G01 X262.777 Y357.857
G01 X267.460 Y353.930
G01 X271.935 Y350.189
G01 X272.144 Y350.003
G01 X278.039 Y352.506
G01 X278.395 Y352.643
G01 X284.646 Y355.283
G01 X288.364 Y356.840
G01 X292.082 Y358.397
G01 X295.801 Y359.954
G01 X299.519 Y361.512
G01 X304.443 Y357.979
G01 X304.493 Y357.941
G01 X309.342 Y354.465
G01 X309.469 Y354.369
G01 X310.250 Y350.294
G01 X311.031 Y346.218
G01 X311.813 Y342.142
G01 X312.594 Y338.067
G01 X315.266 Y332.927
G01 X317.837 Y327.993
G01 X317.937 Y327.787
G01 X324.714 Y327.516
G01 X325.152 Y327.482
G01 X332.366 Y327.178
G01 X336.260 Y326.609
G01 X340.154 Y326.041
G01 X344.048 Y325.472
G01 X347.941 Y324.904
G01 X349.938 Y318.931
G01 X349.945 Y318.908
G01 X351.890 Y313.106
G01 X351.949 Y312.912
G01 X350.640 Y308.950
G01 X349.330 Y304.988
G01 X348.021 Y301.026
G01 X346.712 Y297.063
G01 X347.296 Y291.574
G01 X347.297 Y291.558
G01 X347.868 Y286.233
G01 X347.883 Y286.052
G01 X351.233 Y284.229
G01 X354.583 Y282.406
G01 X357.933 Y280.582
G01 X361.283 Y278.759
G01 X364.205 Y276.307
G01 X367.127 Y273.855
G01 X370.049 Y271.403
G01 X372.971 Y268.950
G01 X371.078 Y262.631
G01 X369.264 Y256.549
G01 X369.186 Y256.311
G01 X366.150 Y253.472
G01 X363.115 Y250.633
G01 X360.080 Y247.794
G01 X357.045 Y244.955
G01 X355.729 Y239.799
G01 X355.713 Y239.744
G01 X354.420 Y234.667
G01 X354.382 Y234.534
G01 X356.649 Y231.246
G01 X358.917 Y227.958
G01 X361.184 Y224.670
G01 X363.451 Y221.382
G01 X365.569 Y214.733
G01 X365.672 Y214.368
G01 X367.893 Y207.354
G01 X362.510 Y202.995
G01 X357.367 Y198.818
G01 X357.127 Y198.636
G01 X353.168 Y197.575
G01 X349.208 Y196.516
G01 X345.249 Y195.455
G01 X341.289 Y194.395
G01 X338.347 Y190.053
G01 X338.290 Y189.974
G01 X335.348 Y185.631
G01 X335.291 Y185.552
G01 X335.804 Y181.441
G01 X336.317 Y177.329
G01 X336.830 Y173.217
G01 X337.343 Y169.106
G01 X335.530 Y162.607
G01 X335.432 Y162.295
G01 X333.521 Y155.483
G01 X326.271 Y154.779
G01 X319.375 Y154.098
G01 X319.021 Y154.075
G01 X315.113 Y154.945
G01 X311.205 Y155.815
G01 X307.297 Y156.684
G01 X303.388 Y157.553
G01 X299.104 Y154.431
G01 X298.987 Y154.351
G01 X294.633 Y151.180
G01 X294.586 Y151.148
G01 X293.066 Y147.171
G01 X291.545 Y143.195
G01 X290.024 Y139.219
G01 X288.504 Y135.242
G01 X283.523 Y131.018
G01 X283.308 Y130.846
G01 X278.111 Y126.450
G01 X274.708 Y128.190
G01 X271.305 Y129.930
G01 X267.902 Y131.670
G01 X264.499 Y133.410
G01 X261.508 Y135.872
G01 X258.516 Y138.333
G01 X255.524 Y140.795
G01 X252.533 Y143.257
G01 X247.254 Y141.771
G01 X247.070 Y141.724
G01 X241.624 Y140.196
G01 X241.608 Y140.192
G01 X238.315 Y137.378
G01 X235.022 Y134.564
G01 X231.729 Y131.750
G01 X228.436 Y128.935
G01 X222.110 Y128.344
G01 X221.883 Y128.329
G01 X215.343 Y127.723
G01 X215.332 Y127.723
G01 X213.272 Y131.143
G01 X211.213 Y134.563
G01 X209.153 Y137.983
G01 X207.094 Y141.403
G01 X204.028 Y148.174
G01 X201.129 Y154.540
G01 X200.963 Y154.944
G01 X195.223 Y155.508
G01 X194.982 Y155.539
G01 X189.002 Y156.134
G01 X184.724 Y155.267
G01 X180.445 Y154.400
G01 X176.167 Y153.533
G01 X171.889 Y152.666
G01 X166.502 Y155.821
G01 X166.349 Y155.916
G01 X160.855 Y159.137
G01 X160.810 Y159.165
G01 X160.819 Y163.308
G01 X160.827 Y167.451
G01 X160.837 Y171.593
G01 X160.846 Y175.736
G01 X160.969 Y182.811
G01 X161.072 Y189.501
G01 X161.092 Y189.885
G01 X155.693 Y192.769
G01 X155.431 Y192.920
G01 X149.771 Y195.954
G01 X145.629 Y197.308
G01 X141.488 Y198.661
G01 X137.346 Y200.015
G01 X133.203 Y201.369
G01 X130.729 Y207.077
G01 X130.678 Y207.203
G01 X128.189 Y212.947
G01 X128.153 Y213.036
G01 X130.329 Y216.704
G01 X132.506 Y220.372
G01 X134.682 Y224.040
G01 X136.859 Y227.708
G01 X139.733 Y233.762
G01 X142.455 Y239.522
G01 X142.607 Y239.816
G01 X138.574 Y244.932
G01 X138.360 Y245.224
G01 X134.112 Y250.632
G01 X131.238 Y253.845
G01 X128.364 Y257.058
G01 X125.490 Y260.270
G01 X122.616 Y263.483
G01 X124.027 Y269.625
G01 X124.050 Y269.715
G01 X125.449 Y275.814
G01 X125.484 Y275.948
G01 X129.279 Y278.080
G01 X133.075 Y280.212
G01 X136.870 Y282.343
G01 X140.666 Y284.475
G01 X145.428 Y288.659
G01 X149.976 Y292.666
G01 X150.189 Y292.842
G01 X148.568 Y299.566
G01 X148.483 Y299.982
G01 X146.778 Y307.123
G01 X145.959 Y311.271
G01 X145.140 Y315.419
G01 X144.320 Y319.566
G01 X143.501 Y323.715
G01 X148.405 Y327.962
G01 X148.445 Y327.995
G01 X153.248 Y332.160
G01 X153.390 Y332.277
G01 X157.793 Y332.266
G01 X162.195 Y332.254
G01 X166.598 Y332.243
G01 X171.001 Y332.232
G01 X176.685 Y334.208
G01 X182.156 Y336.117
G01 X182.369 Y336.184
G01 X183.192 Y339.992
G01 X184.014 Y343.799
G01 X184.837 Y347.607
G01 X185.659 Y351.414
G01 X187.072 Y355.279
G01 X188.487 Y359.143
G01 X189.900 Y363.008
G01 X191.314 Y366.872
G01 X198.055 Y367.494
G01 X198.065 Y367.495
G01 X204.584 Y368.102
G01 X204.816 Y368.117
G01 X208.670 Y365.972
G01 X212.523 Y363.827
G01 X216.378 Y361.682
G01 X220.231 Y359.537
G01 X225.974 Y359.354
G01 X226.007 Y359.352
G01 X231.607 Y359.177
G01 X231.782 Y359.167
G01 X234.340 Y362.372
G01 X236.898 Y365.577
G01 X239.457 Y368.782
G01 X242.015 Y371.987
G01 X245.153 Y374.435
G01 X248.291 Y376.882
G01 X251.428 Y379.330
G01 X254.566 Y381.778
G01 X260.733 Y378.275
G01 X266.658 Y374.919
G01 X266.901 Y374.772
G01 X269.249 Y371.080
G01 X271.598 Y367.388
G01 X273.947 Y363.696
G01 X276.295 Y360.004
G01 X281.468 Y357.919
G01 X281.537 Y357.889
G01 X286.659 Y355.826
G01 X286.778 Y355.774
G01 X290.678 Y357.536
G01 X294.577 Y359.298
G01 X298.477 Y361.060
G01 X302.376 Y362.822
G01 X306.191 Y363.172
G01 X310.006 Y363.521
G01 X313.821 Y363.871
G01 X317.636 Y364.221
G01 X320.949 Y357.546
G01 X324.122 Y351.178
G01 X324.263 Y350.870
G01 X324.605 Y346.585
G01 X324.946 Y342.299
G01 X325.289 Y338.014
G01 X325.630 Y333.728
G01 X329.771 Y330.041
G01 X329.858 Y329.960
G01 X334.023 Y326.251
G01 X334.087 Y326.191
G01 X338.501 Y325.930
G01 X342.916 Y325.671
G01 X347.331 Y325.411
G01 X351.746 Y325.151
G01 X357.946 Y321.822
G01 X358.229 Y321.659
G01 X364.712 Y318.167
G01 X364.252 Y314.278
G01 X363.791 Y310.389
G01 X363.331 Y306.500
G01 X362.871 Y302.611
G01 X361.252 Y298.753
G01 X359.634 Y294.895
G01 X358.016 Y291.038
G01 X356.398 Y287.180
G01 X359.085 Y282.207
G01 X359.160 Y282.058
G01 X361.902 Y276.977
G01 X361.922 Y276.937
G01 X365.778 Y274.565
G01 X369.633 Y272.193
G01 X373.489 Y269.821
G01 X377.344 Y267.450
G01 X380.477 Y261.393
G01 X380.594 Y261.148
G01 X383.845 Y254.845
G01 X381.258 Y251.661
G01 X378.671 Y248.477
G01 X376.084 Y245.293
G01 X373.497 Y242.108
G01 X370.434 Y239.485
G01 X367.370 Y236.860
G01 X364.307 Y234.236
G01 X361.244 Y231.612
G01 X362.033 Y225.781
G01 X362.056 Y225.563
G01 X362.869 Y219.514
G01 X365.139 Y215.527
G01 X367.410 Y211.540
G01 X369.681 Y207.553
G01 X371.952 Y203.566
G01 X371.037 Y196.976
G01 X371.001 Y196.758
G01 X370.055 Y189.979
G01 X370.050 Y189.951
G01 X366.016 Y188.537
G01 X361.982 Y187.124
G01 X357.948 Y185.712
G01 X353.913 Y184.299
G01 X350.183 Y183.322
G01 X346.452 Y182.344
G01 X342.721 Y181.367
G01 X338.990 Y180.390
G01 X337.484 Y174.364
G01 X337.409 Y174.096
G01 X335.826 Y167.803
G01 X335.861 Y163.196
G01 X335.895 Y158.590
G01 X335.929 Y153.983
G01 X335.964 Y149.377
G01 X331.418 Y144.640
G01 X331.295 Y144.518
G01 X326.679 Y139.710
G01 X326.627 Y139.659
G01 X322.296 Y140.552
G01 X317.965 Y141.444
G01 X313.634 Y142.337
G01 X309.303 Y143.229
G01 X302.097 Y144.546
G01 X295.269 Y145.780
G01 X294.891 Y145.861
G01 X290.923 Y140.586
G01 X290.709 Y140.320
G01 X286.528 Y134.779
G01 X284.284 Y130.784
G01 X282.040 Y126.789
G01 X279.797 Y122.794
G01 X277.553 Y118.799
G01 X271.072 Y117.671
G01 X270.947 Y117.652
G01 X264.456 Y116.522
G01 X264.339 Y116.505
G01 X260.966 Y119.541
G01 X257.595 Y122.577
G01 X254.222 Y125.613
G01 X250.850 Y128.649
G01 X245.131 Y132.560
G01 X239.677 Y136.277
G01 X239.412 Y136.471
G01 X233.273 Y133.066
G01 X232.911 Y132.881
G01 X226.411 Y129.291
G01 X222.515 Y127.006
G01 X218.619 Y124.720
G01 X214.723 Y122.434
G01 X210.827 Y120.148
G01 X204.827 Y123.136
G01 X204.753 Y123.175
G01 X198.823 Y126.124
G01 X198.679 Y126.201
G01 X197.237 Y130.585
G01 X195.795 Y134.969
G01 X194.353 Y139.353
G01 X192.912 Y143.736
G01 X189.367 Y149.250
G01 X185.961 Y154.531
G01 X185.821 Y154.763
G01 X181.875 Y154.497
G01 X177.928 Y154.231
G01 X173.982 Y153.965
G01 X170.035 Y153.699
G01 X165.619 Y153.734
G01 X161.203 Y153.770
G01 X156.787 Y153.806
G01 X152.371 Y153.841
G01 X149.165 Y159.992
G01 X149.147 Y160.028
G01 X146.017 Y166.024
G01 X145.924 Y166.214
G01 X146.818 Y170.777
G01 X147.711 Y175.340
G01 X148.604 Y179.904
G01 X149.498 Y184.467
G01 X148.305 Y190.589
G01 X148.304 Y190.593
G01 X147.146 Y196.505
G01 X147.110 Y196.719
G01 X143.232 Y198.291
G01 X139.353 Y199.863
G01 X135.474 Y201.435
G01 X131.596 Y203.007
G01 X127.959 Y205.276
G01 X124.323 Y207.545
G01 X120.687 Y209.814
G01 X117.050 Y212.083
G01 X118.041 Y219.272
G01 X118.987 Y226.201
G01 X119.030 Y226.462
G01 X122.004 Y230.025
G01 X124.977 Y233.588
G01 X127.951 Y237.152
G01 X130.924 Y240.714
G01 X131.922 Y246.606
G01 X131.932 Y246.655
G01 X132.908 Y252.432
G01 X132.940 Y252.596
G01 X130.043 Y255.896
G01 X127.146 Y259.196
G01 X124.250 Y262.496
G01 X121.353 Y265.796
G01 X119.552 Y269.520
G01 X117.751 Y273.242
G01 X115.950 Y276.966
G01 X114.148 Y280.689
G01 X116.713 Y283.498
G01 X119.277 Y286.306
G01 X121.841 Y289.114
G01 X124.406 Y291.923
G01 X128.662 Y293.635
G01 X132.917 Y295.345
G01 X137.172 Y297.056
G01 X141.428 Y298.768
G01 X144.310 Y303.854
G01 X144.359 Y303.936
G01 X147.227 Y309.000
G01 X147.289 Y309.104
G01 X146.187 Y313.534
G01 X145.085 Y317.963
G01 X143.984 Y322.393
G01 X142.882 Y326.823
G01 X143.380 Y330.769
G01 X143.878 Y334.714
G01 X144.377 Y338.660
G01 X144.875 Y342.605
G01 X148.754 Y343.566
G01 X152.635 Y344.527
G01 X156.514 Y345.488
G01 X160.394 Y346.449
G01 X164.861 Y345.996
G01 X169.328 Y345.543
G01 X173.794 Y345.089
G01 X178.260 Y344.637
G01 X182.703 Y348.463
G01 X182.814 Y348.553
G01 X187.308 Y352.421
G01 X187.367 Y352.470
G01 X188.498 Y357.032
G01 X189.628 Y361.594
G01 X190.759 Y366.156
G01 X191.889 Y370.718
G01 X194.400 Y373.600
G01 X196.909 Y376.482
G01 X199.420 Y379.363
G01 X201.930 Y382.246
G01 X205.899 Y380.884
G01 X209.869 Y379.522
G01 X213.837 Y378.161
G01 X217.806 Y376.799
G01 X221.462 Y374.436
G01 X225.117 Y372.073
G01 X228.773 Y369.710
G01 X232.428 Y367.347
G01 X238.067 Y369.465
G01 X238.251 Y369.528
G01 X244.045 Y371.700
G01 X244.075 Y371.710
G01 X247.302 Y375.253
G01 X250.530 Y378.796
G01 X253.757 Y382.339
G01 X256.984 Y385.882
G01 X263.871 Y387.635
G01 X264.130 Y387.693
G01 X271.277 Y389.505
G01 X274.038 Y386.095
G01 X276.798 Y382.686
G01 X279.559 Y379.276
G01 X282.320 Y375.867
G01 X284.457 Y372.271
G01 X286.593 Y368.675
G01 X288.730 Y365.080
G01 X290.866 Y361.484
G01 X297.172 Y361.436
G01 X297.424 Y361.426
G01 X303.982 Y361.368
G01 X308.565 Y362.924
G01 X313.147 Y364.479
G01 X317.730 Y366.035
G01 X322.313 Y367.591
G01 X328.798 Y365.072
G01 X328.995 Y364.989
G01 X335.632 Y362.406
G01 X335.676 Y362.388
G01 X336.282 Y357.869
G01 X336.888 Y353.351
G01 X337.494 Y348.833
G01 X338.100 Y344.314
G01 X338.455 Y340.343
G01 X338.810 Y336.372
G01 X339.165 Y332.401
G01 X339.521 Y328.430
G01 X345.684 Y325.864
G01 X345.972 Y325.733
G01 X352.423 Y323.037
G01 X357.180 Y322.140
G01 X361.938 Y321.244
G01 X366.695 Y320.348
G01 X371.453 Y319.452
G01 X375.177 Y313.644
G01 X375.263 Y313.504
G01 X379.024 Y307.636
G01 X379.072 Y307.556
G01 X377.229 Y303.231
G01 X375.385 Y298.906
G01 X373.542 Y294.581
G01 X371.698 Y290.257
G01 X370.433 Y286.697
G01 X369.167 Y283.136
G01 X367.901 Y279.576
G01 X366.636 Y276.016
G01 X371.573 Y270.916
G01 X371.830 Y270.632
G01 X377.025 Y265.248
G01 X380.668 Y262.125
G01 X384.311 Y259.002
G01 X387.954 Y255.879
G01 X391.597 Y252.757
G01 X391.150 Y245.818
G01 X391.139 Y245.702
G01 X390.694 Y238.786
G01 X390.682 Y238.646
G01 X386.830 Y235.769
G01 X382.979 Y232.890
G01 X379.128 Y230.013
G01 X375.276 Y227.135
G01 X370.387 Y221.928
G01 X365.728 Y216.951
G01 X365.499 Y216.722
G01 X366.836 Y212.956
G01 X368.173 Y209.190
G01 X369.510 Y205.424
G01 X370.848 Y201.658
G01 X372.376 Y197.198
G01 X373.904 Y192.738
G01 X375.432 Y188.278
G01 X376.960 Y183.818
G01 X372.385 Y178.356
G01 X372.338 Y178.303
G01 X367.842 Y172.930
G01 X367.716 Y172.788
G01 X362.882 Y172.181
G01 X358.048 Y171.574
G01 X353.213 Y170.966
G01 X348.379 Y170.359
G01 X342.215 Y167.571
G01 X336.295 Y164.886
G01 X336.051 Y164.784
G01 X335.620 Y160.559
G01 X335.189 Y156.334
G01 X334.758 Y152.110
G01 X334.326 Y147.885
G01 X333.358 Y143.393
G01 X332.388 Y138.901
G01 X331.419 Y134.409
G01 X330.450 Y129.918
G01 X323.271 Y128.094
G01 X323.248 Y128.089
G01 X316.282 Y126.314
G01 X316.045 Y126.260
G01 X311.509 Y128.088
G01 X306.971 Y129.915
G01 X302.434 Y131.742
G01 X297.897 Y133.570
G01 X291.463 Y133.230
G01 X291.441 Y133.229
G01 X285.193 Y132.893
G01 X284.984 Y132.888
G01 X282.609 Y129.090
G01 X280.233 Y125.293
G01 X277.858 Y121.496
G01 X275.483 Y117.699
G01 X272.397 Y114.495
G01 X269.311 Y111.291
G01 X266.224 Y108.087
G01 X263.138 Y104.883
G01 X259.514 Y106.262
G01 X255.891 Y107.641
G01 X252.267 Y109.020
G01 X248.644 Y110.399
G01 X245.552 Y114.153
G01 X242.460 Y117.907
G01 X239.368 Y121.661
G01 X236.276 Y125.414
G01 X230.344 Y127.263
G01 X230.278 Y127.285
G01 X224.430 Y129.104
G01 X224.279 Y129.155
G01 X220.268 Y126.739
G01 X216.257 Y124.322
G01 X212.247 Y121.905
G01 X208.235 Y119.488
G01 X204.070 Y118.483
G01 X199.905 Y117.477
G01 X195.739 Y116.472
G01 X191.574 Y115.466
G01 X189.245 Y118.803
G01 X186.917 Y122.138
G01 X184.588 Y125.475
G01 X182.259 Y128.811
G01 X181.310 Y133.505
G01 X180.362 Y138.198
G01 X179.414 Y142.892
G01 X178.465 Y147.585
G01 X173.575 Y151.282
G01 X173.483 Y151.355
G01 X168.588 Y155.056
G01 X168.501 Y155.125
G01 X163.660 Y154.825
G01 X158.819 Y154.524
G01 X153.978 Y154.225
G01 X149.137 Y153.925
G01 X145.263 Y155.315
G01 X141.388 Y156.705
G01 X137.513 Y158.096
G01 X133.638 Y159.487
G01 X133.523 Y163.760
G01 X133.409 Y168.033
G01 X133.294 Y172.307
G01 X133.179 Y176.581
G01 X134.472 Y181.068
G01 X135.764 Y185.555
G01 X137.056 Y190.042
G01 X138.348 Y194.529
G01 X134.961 Y199.725
G01 X134.872 Y199.868
G01 X131.430 Y205.154
G01 X131.396 Y205.208
G01 X126.871 Y207.274
G01 X122.344 Y209.339
G01 X117.818 Y211.406
G01 X113.292 Y213.471
G01 X110.961 Y216.670
G01 X108.629 Y219.870
G01 X106.298 Y223.069
G01 X103.966 Y226.268
G01 X106.276 Y230.108
G01 X108.585 Y233.950
G01 X110.894 Y237.790
G01 X113.204 Y241.631
G01 X116.275 Y244.934
G01 X119.347 Y248.237
G01 X122.419 Y251.542
G01 X125.491 Y254.845
G01 X124.082 Y261.107
G01 X124.038 Y261.328
G01 X122.589 Y267.796
G01 X122.586 Y267.811
G01 X119.554 Y271.855
G01 X116.521 Y275.898
G01 X113.489 Y279.941
G01 X110.456 Y283.985
G01 X110.385 Y287.810
G01 X110.314 Y291.636
G01 X110.242 Y295.462
G01 X110.171 Y299.288
G01 X114.330 Y301.424
G01 X118.488 Y303.559
G01 X122.647 Y305.694
G01 X126.806 Y307.830
G01 X130.840 Y309.375
G01 X134.875 Y310.920
G01 X138.910 Y312.465
G01 X142.944 Y314.010
G01 X143.970 Y320.682
G01 X144.022 Y320.965
G01 X145.100 Y327.921
G01 X144.413 Y332.959
G01 X143.725 Y337.997
G01 X143.037 Y343.035
G01 X142.350 Y348.074
G01 X146.480 Y354.054
G01 X146.601 Y354.220
G01 X150.812 Y360.310
G01 X150.851 Y360.365
G01 X155.684 Y360.031
G01 X160.516 Y359.698
G01 X165.349 Y359.366
G01 X170.182 Y359.033
G01 X174.277 Y358.722
G01 X178.374 Y358.412
G01 X182.470 Y358.102
G01 X186.565 Y357.791
G01 X188.524 Y360.999
G01 X190.483 Y364.207
G01 X192.441 Y367.414
G01 X194.400 Y370.622
G01 X196.284 Y375.327
G01 X198.169 Y380.032
G01 X200.054 Y384.736
G01 X201.938 Y389.441
G01 X208.784 Y391.816
G01 X208.931 Y391.863
G01 X215.812 Y394.250
G01 X215.924 Y394.285
G01 X220.030 Y391.468
G01 X224.137 Y388.652
G01 X228.243 Y385.835
G01 X232.349 Y383.018
G01 X235.759 Y381.154
G01 X239.169 Y379.291
G01 X242.580 Y377.427
G01 X245.990 Y375.564
G01 X249.289 Y377.861
G01 X252.589 Y380.159
G01 X255.888 Y382.456
G01 X259.187 Y384.754
G01 X263.129 Y387.838
G01 X267.073 Y390.923
G01 X271.015 Y394.008
G01 X274.958 Y397.093
G01 X281.974 Y394.916
G01 X282.073 Y394.883
G01 X289.032 Y392.725
G01 X289.189 Y392.672
G01 X291.382 Y388.096
G01 X293.576 Y383.519
G01 X295.768 Y378.943
G01 X297.961 Y374.366
G01 X302.496 Y368.589
G01 X306.842 Y363.066
G01 X307.030 Y362.811
G01 X311.251 Y363.561
G01 X315.472 Y364.311
G01 X319.693 Y365.060
G01 X323.914 Y365.809
G01 X328.777 Y366.436
G01 X333.639 Y367.063
G01 X338.502 Y367.689
G01 X343.364 Y368.317
G01 X345.639 Y365.257
G01 X347.913 Y362.197
G01 X350.188 Y359.137
G01 X352.462 Y356.078
G01 X352.120 Y350.965
G01 X351.779 Y345.852
G01 X351.438 Y340.739
G01 X351.096 Y335.626
G01 X353.027 Y328.928
G01 X354.894 Y322.477
G01 X354.959 Y322.229
G01 X359.334 Y321.006
G01 X363.710 Y319.782
G01 X368.085 Y318.560
G01 X372.460 Y317.336
G01 X376.814 Y315.400
G01 X381.169 Y313.464
G01 X385.523 Y311.528
G01 X389.877 Y309.592
G01 X389.950 Y305.639
G01 X390.024 Y301.686
G01 X390.097 Y297.734
G01 X390.171 Y293.782
G01 X387.400 Y289.470
G01 X384.629 Y285.159
G01 X381.857 Y280.848
G01 X379.086 Y276.536
G01 X378.524 Y269.906
G01 X378.520 Y269.865
G01 X377.976 Y263.392
G01 X377.954 Y263.193
G01 X381.499 Y259.993
G01 X385.044 Y256.791
G01 X388.588 Y253.592
G01 X392.133 Y250.390
G01 X394.707 Y246.575
G01 X397.282 Y242.760
G01 X399.857 Y238.945
G01 X402.431 Y235.129
G01 X400.135 Y231.689
G01 X397.840 Y228.251
G01 X395.544 Y224.811
G01 X393.249 Y221.372
G01 X388.803 Y218.921
G01 X384.357 Y216.469
G01 X379.911 Y214.018
G01 X375.465 Y211.567
G01 X372.743 Y205.704
G01 X372.702 Y205.623
G01 X370.004 Y199.811
G01 X369.939 Y199.679
G01 X371.705 Y195.028
G01 X373.470 Y190.376
G01 X375.236 Y185.724
G01 X377.001 Y181.072
G01 X377.096 Y176.647
G01 X377.190 Y172.221
G01 X377.285 Y167.795
G01 X377.380 Y163.369
G01 X373.363 Y161.718
G01 X369.347 Y160.067
G01 X365.331 Y158.416
G01 X361.314 Y156.765
G01 X356.335 Y156.676
G01 X351.356 Y156.588
G01 X346.377 Y156.500
G01 X341.397 Y156.412
G01 X336.877 Y151.834
G01 X336.775 Y151.736
G01 X332.223 Y147.128
G01 X332.153 Y147.060
G01 X331.532 Y141.963
G01 X330.911 Y136.866
G01 X330.290 Y131.770
G01 X329.669 Y126.673
G01 X327.392 Y123.083
G01 X325.113 Y119.494
G01 X322.836 Y115.904
G01 X320.558 Y112.314
G01 X316.078 Y113.163
G01 X311.597 Y114.011
G01 X307.118 Y114.860
G01 X302.638 Y115.708
G01 X298.299 Y117.849
G01 X293.958 Y119.989
G01 X289.619 Y122.129
G01 X285.280 Y124.269
G01 X279.350 Y121.455
G01 X279.170 Y121.375
G01 X273.104 Y118.501
G01 X273.059 Y118.481
G01 X270.033 Y114.194
G01 X267.008 Y109.907
G01 X263.983 Y105.620
G01 X260.957 Y101.333
G01 X257.192 Y99.726
G01 X253.428 Y98.120
G01 X249.663 Y96.513
G01 X245.900 Y94.906
G01 X242.410 Y98.160
G01 X238.921 Y101.414
G01 X235.430 Y104.668
G01 X231.941 Y107.922
G01 X229.128 Y111.635
G01 X226.315 Y115.349
G01 X223.502 Y119.062
G01 X220.690 Y122.775
G01 X213.876 Y122.222
G01 X213.617 Y122.208
G01 X206.546 Y121.641
G01 X201.773 Y119.312
G01 X197.000 Y116.984
G01 X192.228 Y114.655
G01 X187.454 Y112.326
G01 X183.576 Y113.164
G01 X179.698 Y114.001
G01 X175.820 Y114.838
G01 X171.941 Y115.676
G01 X170.618 Y120.462
G01 X169.295 Y125.247
G01 X167.971 Y130.033
G01 X166.648 Y134.818
G01 X165.777 Y139.179
G01 X164.905 Y143.541
G01 X164.034 Y147.903
G01 X163.162 Y152.264
G01 X159.561 Y153.383
G01 X155.960 Y154.502
G01 X152.358 Y155.621
G01 X148.756 Y156.740
G01 X143.442 Y157.043
G01 X138.126 Y157.347
G01 X132.811 Y157.651
G01 X127.497 Y157.955
G01 X124.899 Y160.853
G01 X122.302 Y163.751
G01 X119.705 Y166.649
G01 X117.107 Y169.547
G01 X118.473 Y174.492
G01 X119.838 Y179.436
G01 X121.204 Y184.380
G01 X122.569 Y189.324
G01 X123.565 Y193.424
G01 X124.561 Y197.524
G01 X125.557 Y201.624
G01 X126.553 Y205.723
G01 X123.477 Y208.329
G01 X120.401 Y210.936
G01 X117.325 Y213.542
G01 X114.249 Y216.148
G01 X109.818 Y219.032
G01 X105.387 Y221.916
G01 X100.955 Y224.801
G01 X96.524 Y227.685
G01 X96.149 Y231.543
G01 X95.774 Y235.401
G01 X95.399 Y239.259
G01 X95.024 Y243.117
G01 X98.788 Y246.784
G01 X102.552 Y250.452
G01 X106.316 Y254.121
G01 X110.080 Y257.789
G01 X112.512 Y260.948
G01 X114.944 Y264.107
G01 X117.376 Y267.266
G01 X119.808 Y270.424
G01 X117.946 Y274.310
G01 X116.085 Y278.196
G01 X114.224 Y282.083
G01 X112.362 Y285.968
G01 X110.031 Y290.621
G01 X107.699 Y295.275
G01 X105.368 Y299.928
G01 X103.036 Y304.582
G01 X105.044 Y307.955
G01 X107.052 Y311.328
G01 X109.060 Y314.702
G01 X111.068 Y318.075
G01 X116.235 Y319.412
G01 X121.402 Y320.748
G01 X126.570 Y322.086
G01 X131.737 Y323.423
G01 X135.015 Y325.285
G01 X138.292 Y327.147
G01 X141.569 Y329.009
G01 X144.847 Y330.871
G01 X144.809 Y335.456
G01 X144.771 Y340.040
G01 X144.733 Y344.625
G01 X144.695 Y349.209
G01 X145.076 Y354.277
G01 X145.458 Y359.345
G01 X145.839 Y364.412
G01 X146.220 Y369.479
G01 X149.928 Y371.076
G01 X153.637 Y372.672
G01 X157.346 Y374.268
G01 X161.054 Y375.864
G01 X166.248 Y374.499
G01 X171.441 Y373.133
G01 X176.634 Y371.768
G01 X181.828 Y370.402
G01 X188.927 Y371.397
G01 X188.937 Y371.398
G01 X195.801 Y372.366
G01 X196.045 Y372.394
G01 X198.130 Y376.766
G01 X200.217 Y381.138
G01 X202.303 Y385.510
G01 X204.388 Y389.882
G01 X207.275 Y393.874
G01 X210.161 Y397.867
G01 X213.046 Y401.859
G01 X215.933 Y405.851
G01 X220.042 Y404.977
G01 X224.151 Y404.103
G01 X228.261 Y403.229
G01 X232.370 Y402.355
G01 X236.254 Y398.674
G01 X240.138 Y394.993
G01 X244.022 Y391.313
G01 X247.907 Y387.632
G01 X254.614 Y386.133
G01 X254.674 Y386.118
G01 X261.257 Y384.650
G01 X261.441 Y384.604
G01 X265.452 Y387.714
G01 X269.463 Y390.823
G01 X273.474 Y393.932
G01 X277.485 Y397.041
G01 X281.893 Y398.809
G01 X286.300 Y400.576
G01 X290.707 Y402.343
G01 X295.115 Y404.111
G01 X298.146 Y400.918
G01 X301.177 Y397.725
G01 X304.208 Y394.532
G01 X307.239 Y391.340
G01 X308.900 Y386.327
G01 X310.562 Y381.314
G01 X312.223 Y376.301
G01 X313.884 Y371.289
G01 X319.561 Y367.675
G01 X319.656 Y367.611
G01 X325.315 Y364.010
G01 X325.427 Y363.934
G01 X330.609 Y364.887
G01 X335.790 Y365.840
G01 X340.970 Y366.794
G01 X346.152 Y367.747
G01 X350.627 Y366.858
G01 X355.102 Y365.969
G01 X359.576 Y365.081
G01 X364.051 Y364.192
G01 X364.846 Y359.636
G01 X365.640 Y355.082
G01 X366.434 Y350.527
G01 X367.229 Y345.971
G01 X366.393 Y340.879
G01 X365.559 Y335.785
G01 X364.723 Y330.692
G01 X363.887 Y325.599
G01 X368.027 Y320.258
G01 X368.127 Y320.122
G01 X372.317 Y314.713
G01 X372.367 Y314.645
G01 X377.532 Y313.016
G01 X382.698 Y311.387
G01 X387.863 Y309.757
G01 X393.029 Y308.129
G01 X396.118 Y305.021
G01 X399.208 Y301.913
G01 X402.297 Y298.805
G01 X405.387 Y295.697
G01 X403.501 Y291.229
G01 X401.615 Y286.761
G01 X399.730 Y282.293
G01 X397.844 Y277.825
G01 X394.882 Y273.800
G01 X391.920 Y269.776
G01 X388.959 Y265.752
G01 X385.996 Y261.728
G01 X388.095 Y255.103
G01 X388.158 Y254.884
G01 X390.312 Y248.071
G01 X390.321 Y248.039
G01 X394.154 Y244.075
G01 X397.988 Y240.111
G01 X401.822 Y236.147
G01 X405.655 Y232.183
G01 X406.392 Y228.021
G01 X407.129 Y223.860
G01 X407.866 Y219.698
G01 X408.602 Y215.537
G01 X404.459 Y212.623
G01 X400.316 Y209.710
G01 X396.173 Y206.796
G01 X392.031 Y203.882
G01 X387.770 Y201.683
G01 X383.510 Y199.483
G01 X379.249 Y197.285
G01 X374.989 Y195.086
G01 X374.752 Y191.307
G01 X374.514 Y187.528
G01 X374.277 Y183.749
G01 X374.039 Y179.971
G01 X375.486 Y174.601
G01 X376.933 Y169.232
G01 X378.380 Y163.862
G01 X379.827 Y158.493
G01 X378.056 Y154.783
G01 X376.285 Y151.073
G01 X374.513 Y147.362
G01 X372.742 Y143.652
G01 X367.497 Y143.302
G01 X362.252 Y142.951
G01 X357.008 Y142.602
G01 X351.762 Y142.252
G01 X347.200 Y142.112
G01 X342.637 Y141.971
G01 X338.074 Y141.831
G01 X333.512 Y141.691
G01 X331.752 Y138.060
G01 X329.992 Y134.428
G01 X328.231 Y130.797
G01 X326.472 Y127.165
G01 X325.092 Y121.785
G01 X323.713 Y116.404
G01 X322.333 Y111.023
G01 X320.955 Y105.643
G01 X317.388 Y103.718
G01 X313.822 Y101.793
G01 X310.254 Y99.867
G01 X306.688 Y97.942
G01 X301.858 Y100.388
G01 X297.028 Y102.833
G01 X292.198 Y105.279
G01 X287.368 Y107.724
G01 X283.386 Y109.402
G01 X279.404 Y111.080
G01 X275.421 Y112.757
G01 X271.439 Y114.435
G01 X268.168 Y111.620
G01 X264.897 Y108.805
G01 X261.627 Y105.991
G01 X258.356 Y103.176
G01 X254.513 Y99.245
G01 X250.668 Y95.314
G01 X246.825 Y91.384
G01 X242.982 Y87.453
G01 X238.961 Y88.018
G01 X234.940 Y88.583
G01 X230.918 Y89.148
G01 X226.897 Y89.714
G01 X223.883 Y94.348
G01 X220.868 Y98.982
G01 X217.853 Y103.616
G01 X214.838 Y108.250
G01 X212.023 Y111.205
G01 X209.208 Y114.160
G01 X206.393 Y117.114
G01 X203.578 Y120.069
G01 X199.156 Y118.783
G01 X194.734 Y117.497
G01 X190.312 Y116.211
G01 X185.890 Y114.925
G01 X180.682 Y113.519
G01 X175.475 Y112.113
G01 X170.266 Y110.707
G01 X165.058 Y109.301
G01 X162.095 Y112.185
G01 X159.131 Y115.070
G01 X156.166 Y117.955
G01 X153.202 Y120.839
G01 X152.863 Y126.424
G01 X152.523 Y132.008
G01 X152.184 Y137.592
G01 X151.844 Y143.177
G01 X150.444 Y146.779
G01 X149.044 Y150.381
G01 X147.645 Y153.983
G01 X146.245 Y157.585
G01 X141.420 Y158.369
G01 X136.596 Y159.152
G01 X131.772 Y159.936
G01 X126.947 Y160.721
G01 X121.900 Y162.171
G01 X116.852 Y163.622
G01 X111.805 Y165.072
G01 X106.758 Y166.522
G01 X106.013 Y170.730
G01 X105.268 Y174.937
G01 X104.523 Y179.145
G01 X103.778 Y183.353
G01 X106.199 Y188.412
G01 X108.620 Y193.471
G01 X111.041 Y198.529
G01 X113.462 Y203.589
G01 X113.461 Y210.948
G01 X113.461 Y210.977
G01 X113.454 Y218.131
G01 X113.461 Y218.366
G01 X109.268 Y221.355
G01 X105.076 Y224.343
G01 X100.884 Y227.332
G01 X96.692 Y230.321
G01 X93.284 Y234.086
G01 X89.876 Y237.850
G01 X86.468 Y241.615
G01 X83.060 Y245.380
G01 X84.942 Y249.423
G01 X86.825 Y253.465
G01 X88.708 Y257.507
G01 X90.591 Y261.550
G01 X95.102 Y264.814
G01 X99.613 Y268.077
G01 X104.125 Y271.341
G01 X108.636 Y274.605
G01 X111.096 Y281.268
G01 X111.127 Y281.346
G01 X113.551 Y287.922
G01 X113.617 Y288.087
G01 X111.130 Y292.852
G01 X108.643 Y297.618
G01 X106.156 Y302.383
G01 X103.669 Y307.148
G01 X102.855 Y311.967
G01 X102.041 Y316.785
G01 X101.227 Y321.604
G01 X100.414 Y326.423
G01 X104.430 Y328.822
G01 X108.446 Y331.222
G01 X112.462 Y333.622
G01 X116.478 Y336.021
G01 X121.901 Y336.771
G01 X127.324 Y337.521
G01 X132.747 Y338.270
G01 X138.171 Y339.021
G01 X142.682 Y344.393
G01 X142.774 Y344.497
G01 X147.296 Y349.881
G01 X147.377 Y349.973
G01 X147.378 Y355.533
G01 X147.379 Y361.092
G01 X147.379 Y366.652
G01 X147.380 Y372.211
G01 X149.273 Y376.504
G01 X151.167 Y380.797
G01 X153.061 Y385.090
G01 X154.954 Y389.383
G01 X159.862 Y389.173
G01 X164.770 Y388.963
G01 X169.678 Y388.753
G01 X174.586 Y388.544
G01 X179.610 Y386.759
G01 X184.632 Y384.973
G01 X189.656 Y383.188
G01 X194.679 Y381.402
G01 X200.825 Y384.970
G01 X200.998 Y385.065
G01 X207.256 Y388.694
G01 X207.317 Y388.727
G01 X210.002 Y393.749
G01 X212.686 Y398.771
G01 X215.372 Y403.793
G01 X218.057 Y408.815
G01 X221.884 Y411.202
G01 X225.711 Y413.589
G01 X229.538 Y415.975
G01 X233.365 Y418.362
G01 X237.583 Y415.416
G01 X241.801 Y412.470
G01 X246.018 Y409.524
G01 X250.237 Y406.578
G01 X253.785 Y402.855
G01 X257.335 Y399.133
G01 X260.883 Y395.410
G01 X264.432 Y391.688
G01 X268.190 Y392.323
G01 X271.948 Y392.959
G01 X275.706 Y393.594
G01 X279.463 Y394.229
G01 X284.295 Y397.396
G01 X289.127 Y400.561
G01 X293.960 Y403.727
G01 X298.792 Y406.893
G01 X303.146 Y406.654
G01 X307.499 Y406.416
G01 X311.853 Y406.177
G01 X316.207 Y405.939
G01 X318.330 Y401.016
G01 X320.453 Y396.094
G01 X322.575 Y391.171
G01 X324.699 Y386.248
G01 X326.184 Y381.557
G01 X327.668 Y376.868
G01 X329.152 Y372.178
G01 X330.637 Y367.488
G01 X334.588 Y366.653
G01 X338.539 Y365.819
G01 X342.490 Y364.985
G01 X346.441 Y364.151
G01 X352.230 Y364.565
G01 X358.019 Y364.979
G01 X363.809 Y365.393
G01 X369.598 Y365.808
G01 X372.912 Y363.131
G01 X376.226 Y360.454
G01 X379.539 Y357.778
G01 X382.853 Y355.102
G01 X382.106 Y349.604
G01 X381.359 Y344.106
G01 X380.612 Y338.608
G01 X379.865 Y333.111
G01 X379.242 Y328.481
G01 X378.620 Y323.851
G01 X377.997 Y319.221
G01 X377.375 Y314.590
G01 X380.923 Y312.142
G01 X384.472 Y309.693
G01 X388.020 Y307.244
G01 X391.569 Y304.796
G01 X396.781 Y302.304
G01 X401.993 Y299.813
G01 X407.205 Y297.320
G01 X412.417 Y294.829
G01 X413.497 Y290.748
G01 X414.577 Y286.666
G01 X415.657 Y282.584
G01 X416.737 Y278.503
G01 X413.215 Y274.027
G01 X409.693 Y269.550
G01 X406.170 Y265.073
G01 X402.648 Y260.597
G01 X400.315 Y256.848
G01 X397.982 Y253.099
G01 X395.649 Y249.349
G01 X393.315 Y245.600
G01 X395.728 Y241.674
G01 X398.140 Y237.747
G01 X400.553 Y233.821
G01 X402.965 Y229.895
G01 X406.174 Y225.185
G01 X409.384 Y220.477
G01 X412.593 Y215.768
G01 X415.802 Y211.058
G01 X414.240 Y207.101
G01 X412.679 Y203.142
G01 X411.117 Y199.184
G01 X409.555 Y195.226
G01 X404.177 Y193.064
G01 X398.798 Y190.902
G01 X393.419 Y188.740
G01 X388.040 Y186.577
G01 X384.623 Y184.187
G01 X381.206 Y181.796
G01 X377.788 Y179.405
G01 X374.371 Y177.015
G01 X374.945 Y172.140
G01 X375.518 Y167.264
G01 X376.092 Y162.389
G01 X376.666 Y157.514
G01 X377.009 Y151.950
G01 X377.352 Y146.386
G01 X377.695 Y140.823
G01 X378.038 Y135.260
G01 X374.358 Y132.926
G01 X370.679 Y130.592
G01 X366.999 Y128.258
G01 X363.319 Y125.924
G01 X357.523 Y126.685
G01 X351.728 Y127.446
G01 X345.932 Y128.207
G01 X340.136 Y128.968
G01 X336.280 Y128.076
G01 X332.422 Y127.184
G01 X328.566 Y126.293
G01 X324.709 Y125.401
G01 X323.014 Y120.489
G01 X321.320 Y115.578
G01 X319.624 Y110.666
G01 X317.930 Y105.754
G01 X315.402 Y100.970
G01 X312.874 Y96.185
G01 X310.346 Y91.400
G01 X307.818 Y86.615
G01 X303.305 Y86.860
G01 X298.791 Y87.105
G01 X294.278 Y87.351
G01 X289.765 Y87.596
G01 X285.062 Y91.057
G01 X280.359 Y94.517
G01 X275.657 Y97.978
G01 X270.955 Y101.439
G01 X267.187 Y101.957
G01 X263.418 Y102.476
G01 X259.650 Y102.994
G01 X255.882 Y103.513
G01 X251.987 Y99.693
G01 X248.092 Y95.874
G01 X244.199 Y92.054
G01 X240.304 Y88.234
G01 X235.785 Y85.617
G01 X231.266 Y83.001
G01 X226.748 Y80.384
G01 X222.229 Y77.768
G01 X218.494 Y80.667
G01 X214.759 Y83.566
G01 X211.025 Y86.466
G01 X207.290 Y89.365
G01 X204.823 Y94.586
G01 X202.355 Y99.808
G01 X199.887 Y105.030
G01 X197.420 Y110.251
G01 X190.923 Y113.684
G01 X190.829 Y113.737
G01 X184.381 Y117.143
G01 X184.238 Y117.223
G01 X178.818 Y115.539
G01 X173.399 Y113.855
G01 X167.979 Y112.171
G01 X162.559 Y110.487
G01 X157.547 Y110.731
G01 X152.535 Y110.974
G01 X147.522 Y111.218
G01 X142.511 Y111.461
G01 X140.951 Y116.173
G01 X139.391 Y120.884
G01 X137.830 Y125.596
G01 X136.270 Y130.307
G01 X136.519 Y135.959
G01 X136.767 Y141.611
G01 X137.015 Y147.264
G01 X137.263 Y152.915
G01 X132.323 Y158.321
G01 X132.214 Y158.446
G01 X127.235 Y163.896
G01 X127.165 Y163.976
G01 X121.415 Y165.043
G01 X115.664 Y166.111
G01 X109.914 Y167.177
G01 X104.164 Y168.245
G01 X100.291 Y171.108
G01 X96.417 Y173.973
G01 X92.544 Y176.837
G01 X88.671 Y179.700
G01 X89.991 Y184.738
G01 X91.310 Y189.776
G01 X92.630 Y194.813
G01 X93.949 Y199.850
G01 X96.672 Y204.616
G01 X99.395 Y209.383
G01 X102.117 Y214.150
G01 X104.840 Y218.917
G01 X103.373 Y222.482
G01 X101.907 Y226.046
G01 X100.440 Y229.610
G01 X98.973 Y233.175
G01 X94.323 Y236.917
G01 X89.672 Y240.659
G01 X85.022 Y244.400
G01 X80.372 Y248.143
G01 X78.865 Y252.528
G01 X77.359 Y256.913
G01 X75.852 Y261.298
G01 X74.346 Y265.683
G01 X78.320 Y269.404
G01 X82.294 Y273.124
G01 X86.269 Y276.846
G01 X90.243 Y280.567
G01 X94.633 Y283.497
G01 X99.023 Y286.426
G01 X103.413 Y289.356
G01 X107.804 Y292.285
G01 X107.696 Y296.331
G01 X107.587 Y300.377
G01 X107.479 Y304.424
G01 X107.371 Y308.469
G01 X105.076 Y314.049
G01 X102.781 Y319.628
G01 X100.486 Y325.207
G01 X98.191 Y330.786
G01 X99.461 Y335.100
G01 X100.731 Y339.413
G01 X102.000 Y343.726
G01 X103.270 Y348.040
G01 X108.813 Y349.181
G01 X114.355 Y350.321
G01 X119.899 Y351.462
G01 X125.441 Y352.602
G01 X130.426 Y353.296
G01 X135.412 Y353.992
G01 X140.397 Y354.687
G01 X145.382 Y355.382
G01 X146.882 Y359.415
G01 X148.382 Y363.449
G01 X149.882 Y367.482
G01 X151.381 Y371.515
G01 X152.113 Y377.510
G01 X152.846 Y383.505
G01 X153.578 Y389.500
G01 X154.310 Y395.495
G01 X157.806 Y398.188
G01 X161.303 Y400.881
G01 X164.799 Y403.574
G01 X168.295 Y406.267
G01 X173.809 Y404.345
G01 X179.323 Y402.424
G01 X184.837 Y400.502
G01 X190.351 Y398.580
G01 X194.913 Y397.190
G01 X199.475 Y395.800
G01 X204.039 Y394.410
G01 X208.600 Y393.020
G01 X211.766 Y396.355
G01 X214.931 Y399.690
G01 X218.096 Y403.026
G01 X221.261 Y406.361
G01 X224.849 Y411.158
G01 X228.437 Y415.955
G01 X232.026 Y420.753
G01 X235.613 Y425.550
G01 X240.011 Y425.647
G01 X244.410 Y425.745
G01 X248.809 Y425.843
G01 X253.208 Y425.941
G01 X257.091 Y421.399
G01 X260.975 Y416.858
G01 X264.858 Y412.317
G01 X268.741 Y407.775
G01 X272.150 Y404.832
G01 X275.559 Y401.890
G01 X278.968 Y398.947
G01 X282.378 Y396.005
G01 X286.921 Y397.867
G01 X291.465 Y399.729
G01 X296.008 Y401.591
G01 X300.551 Y403.453
G01 X305.980 Y405.738
G01 X311.408 Y408.024
G01 X316.836 Y410.309
G01 X322.264 Y412.595
G01 X325.916 Y410.035
G01 X329.569 Y407.475
G01 X333.222 Y404.915
G01 X336.874 Y402.356
G01 X338.012 Y396.403
G01 X339.149 Y390.451
G01 X340.288 Y384.498
G01 X341.425 Y378.546
G01 X343.324 Y374.736
G01 X345.223 Y370.926
G01 X347.122 Y367.116
G01 X349.020 Y363.306
G01 X354.232 Y363.041
G01 X359.445 Y362.777
G01 X364.656 Y362.513
G01 X369.869 Y362.248
G01 X375.555 Y361.436
G01 X381.241 Y360.623
G01 X386.927 Y359.810
G01 X392.613 Y358.997
G01 X394.113 Y354.659
G01 X395.614 Y350.321
G01 X397.114 Y345.983
G01 X398.614 Y341.645
G01 X396.694 Y335.866
G01 X394.775 Y330.088
G01 X392.856 Y324.308
G01 X390.936 Y318.530
G01 X391.286 Y314.491
G01 X391.636 Y310.452
G01 X391.985 Y306.413
G01 X392.335 Y302.374
G01 X397.155 Y299.708
G01 X401.974 Y297.044
G01 X406.794 Y294.378
G01 X411.614 Y291.712
G01 X415.890 Y288.156
G01 X420.166 Y284.598
G01 X424.442 Y281.041
G01 X428.718 Y277.484
G01 X427.389 Y272.895
G01 X426.059 Y268.305
G01 X424.730 Y263.716
G01 X423.401 Y259.128
G01 X418.965 Y254.999
G01 X414.529 Y250.871
G01 X410.093 Y246.743
G01 X405.657 Y242.615
G01 X404.605 Y238.839
G01 X403.553 Y235.063
G01 X402.501 Y231.288
G01 X401.449 Y227.512
G01 X404.696 Y222.750
G01 X407.942 Y217.989
G01 X411.189 Y213.228
G01 X414.436 Y208.467
G01 X416.081 Y203.369
G01 X417.727 Y198.271
G01 X419.373 Y193.174
G01 X421.019 Y188.076
G01 X417.153 Y184.895
G01 X413.287 Y181.715
G01 X409.421 Y178.536
G01 X405.555 Y175.356
G01 X399.781 Y173.833
G01 X394.006 Y172.309
G01 X388.232 Y170.786
G01 X382.457 Y169.263
G01 X380.212 Y166.106
G01 X377.966 Y162.950
G01 X375.721 Y159.795
G01 X373.476 Y156.639
G01 X374.193 Y150.708
G01 X374.908 Y144.776
G01 X375.625 Y138.845
G01 X376.341 Y132.914
G01 X374.988 Y127.952
G01 X373.634 Y122.990
G01 X372.279 Y118.028
G01 X370.926 Y113.067
G01 X365.699 Y112.527
G01 X360.471 Y111.986
G01 X355.244 Y111.446
G01 X350.016 Y110.906
G01 X344.333 Y112.200
G01 X338.650 Y113.495
G01 X332.965 Y114.788
G01 X327.282 Y116.083
G01 X324.059 Y113.842
G01 X320.836 Y111.602
G01 X317.613 Y109.362
G01 X314.390 Y107.122
G01 X312.183 Y101.398
G01 X309.976 Y95.675
G01 X307.769 Y89.951
G01 X305.562 Y84.227
G01 X301.820 Y81.005
G01 X298.077 Y77.783
G01 X294.335 Y74.560
G01 X290.592 Y71.338
G01 X285.677 Y73.822
G01 X280.761 Y76.306
G01 X275.845 Y78.790
G01 X270.929 Y81.274
G01 X266.599 Y84.882
G01 X262.271 Y88.491
G01 X257.941 Y92.100
G01 X253.613 Y95.709
G01 X249.671 Y94.687
G01 X245.730 Y93.665
G01 X241.787 Y92.643
G01 X237.846 Y91.621
G01 X233.098 Y87.577
G01 X228.349 Y83.533
G01 X223.600 Y79.488
G01 X218.851 Y75.444
G01 X214.114 Y74.957
G01 X209.374 Y74.471
G01 X204.636 Y73.984
G01 X199.898 Y73.497
G01 X196.917 Y78.409
G01 X193.934 Y83.322
G01 X190.953 Y88.234
G01 X187.971 Y93.147
G01 X185.783 Y98.085
G01 X183.595 Y103.023
G01 X181.407 Y107.961
G01 X179.219 Y112.899
G01 X174.950 Y113.399
G01 X170.681 Y113.898
G01 X166.413 Y114.398
G01 X162.144 Y114.897
G01 X155.986 Y113.654
G01 X149.830 Y112.409
G01 X143.672 Y111.166
G01 X137.515 Y109.922
G01 X133.489 Y112.223
G01 X129.464 Y114.524
G01 X125.439 Y116.825
G01 X121.414 Y119.126
G01 X121.414 Y125.082
G01 X121.412 Y131.040
G01 X121.411 Y136.997
G01 X121.410 Y142.954
G01 X121.551 Y148.089
G01 X121.692 Y153.225
G01 X121.833 Y158.360
G01 X121.974 Y163.494
G01 X117.969 Y165.717
G01 X113.964 Y167.939
G01 X109.959 Y170.162
G01 X105.954 Y172.384
G01 X99.996 Y174.329
G01 X94.040 Y176.274
G01 X88.082 Y178.220
G01 X82.126 Y180.164
G01 X80.258 Y184.340
G01 X78.391 Y188.516
G01 X76.524 Y192.691
G01 X74.657 Y196.867
G01 X77.777 Y202.141
G01 X80.898 Y207.416
G01 X84.018 Y212.690
G01 X87.139 Y217.964
G01 X89.277 Y222.327
G01 X91.414 Y226.690
G01 X93.552 Y231.053
G01 X95.689 Y235.416
G01 X92.712 Y239.302
G01 X89.734 Y243.188
G01 X86.757 Y247.073
G01 X83.780 Y250.959
G01 X79.643 Y255.570
G01 X75.507 Y260.181
G01 X71.370 Y264.792
G01 X67.234 Y269.403
G01 X68.209 Y273.885
G01 X69.183 Y278.368
G01 X70.159 Y282.851
G01 X71.134 Y287.333
G01 X76.582 Y290.395
G01 X82.031 Y293.458
G01 X87.480 Y296.520
G01 X92.929 Y299.582
G01 X96.418 Y302.556
G01 X99.908 Y305.531
G01 X103.398 Y308.506
G01 X106.888 Y311.481
G01 X105.725 Y316.569
G01 X104.561 Y321.657
G01 X103.397 Y326.746
G01 X102.233 Y331.834
G01 X101.042 Y337.787
G01 X99.851 Y343.740
G01 X98.661 Y349.694
G01 X97.470 Y355.646
G01 X100.971 Y358.748
G01 X104.470 Y361.848
G01 X107.972 Y364.950
G01 X111.472 Y368.051
G01 X117.789 Y368.030
G01 X124.106 Y368.010
G01 X130.423 Y367.989
G01 X136.740 Y367.968
G01 X140.865 Y369.321
G01 X144.991 Y370.674
G01 X149.117 Y372.028
G01 X153.243 Y373.381
G01 X154.452 Y378.781
G01 X155.662 Y384.181
G01 X156.873 Y389.581
G01 X158.082 Y394.981
G01 X160.090 Y400.533
G01 X162.098 Y406.085
G01 X164.106 Y411.637
G01 X166.114 Y417.189
G01 X170.923 Y417.682
G01 X175.732 Y418.175
G01 X180.542 Y418.668
G01 X185.351 Y419.161
G01 X190.872 Y416.076
G01 X196.392 Y412.990
G01 X201.913 Y409.905
G01 X207.434 Y406.820
G01 X211.582 Y406.603
G01 X215.729 Y406.387
G01 X219.876 Y406.170
G01 X224.024 Y405.954
G01 X227.683 Y410.482
G01 X231.343 Y415.011
G01 X235.002 Y419.539
G01 X238.661 Y424.067
G01 X243.140 Y427.598
G01 X247.620 Y431.128
G01 X252.100 Y434.658
G01 X256.579 Y438.189
G01 X260.989 Y435.735
G01 X265.399 Y433.282
G01 X269.808 Y430.829
G01 X274.218 Y428.376
G01 X277.569 Y423.075
G01 X280.920 Y417.775
G01 X284.271 Y412.474
G01 X287.622 Y407.174
G01 X291.338 Y405.580
G01 X295.054 Y403.986
G01 X298.770 Y402.393
G01 X302.487 Y400.799
G01 X308.030 Y403.273
G01 X313.575 Y405.748
G01 X319.119 Y408.222
G01 X324.662 Y410.697
G01 X330.121 Y411.232
G01 X335.579 Y411.768
G01 X341.037 Y412.304
G01 X346.495 Y412.840
G01 X348.883 Y408.116
G01 X351.271 Y403.393
G01 X353.658 Y398.670
G01 X356.046 Y393.946
G01 X356.512 Y387.806
G01 X356.977 Y381.666
G01 X357.442 Y375.526
G01 X357.907 Y369.386
G01 X360.856 Y366.639
G01 X363.806 Y363.891
G01 X366.755 Y361.144
G01 X369.705 Y358.396
G01 X375.964 Y358.007
G01 X382.223 Y357.617
G01 X388.482 Y357.228
G01 X394.741 Y356.838
G01 X399.395 Y354.379
G01 X404.048 Y351.921
G01 X408.701 Y349.461
G01 X413.354 Y347.003
G01 X412.733 Y341.483
G01 X412.113 Y335.964
G01 X411.493 Y330.444
G01 X410.872 Y324.925
G01 X408.526 Y319.415
G01 X406.181 Y313.905
G01 X403.836 Y308.395
G01 X401.490 Y302.884
G01 X403.371 Y299.217
G01 X405.250 Y295.550
G01 X407.130 Y291.883
G01 X409.010 Y288.217
G01 X414.467 Y284.843
G01 X419.924 Y281.470
G01 X425.382 Y278.096
G01 X430.838 Y274.723
G01 X433.200 Y270.249
G01 X435.561 Y265.776
G01 X437.922 Y261.302
G01 X440.283 Y256.829
G01 X436.638 Y252.301
G01 X432.993 Y247.773
G01 X429.348 Y243.245
G01 X425.704 Y238.717
G01 X421.296 Y234.992
G01 X416.888 Y231.268
G01 X412.481 Y227.545
G01 X408.073 Y223.821
G01 X408.566 Y219.545
G01 X409.059 Y215.268
G01 X409.552 Y210.992
G01 X410.045 Y206.717
G01 X413.256 Y201.065
G01 X416.466 Y195.413
G01 X419.677 Y189.762
G01 X422.887 Y184.110
G01 X422.263 Y179.258
G01 X421.639 Y174.407
G01 X421.015 Y169.556
G01 X420.391 Y164.704
G01 X414.687 Y162.685
G01 X408.982 Y160.666
G01 X403.279 Y158.648
G01 X397.574 Y156.629
G01 X392.230 Y155.278
G01 X386.885 Y153.926
G01 X381.540 Y152.575
G01 X376.195 Y151.224
G01 X375.012 Y146.817
G01 X373.829 Y142.412
G01 X372.647 Y138.006
G01 X371.463 Y133.600
G01 X371.510 Y127.077
G01 X371.558 Y120.554
G01 X371.607 Y114.034
G01 X371.654 Y107.511
G01 X368.381 Y104.022
G01 X365.110 Y100.534
G01 X361.840 Y97.047
G01 X358.567 Y93.558
G01 X352.439 Y94.806
G01 X346.311 Y96.053
G01 X340.184 Y97.301
G01 X334.055 Y98.548
G01 X328.918 Y99.545
G01 X323.781 Y100.541
G01 X318.644 Y101.538
G01 X313.509 Y102.535
G01 X310.521 Y98.693
G01 X307.535 Y94.852
G01 X304.548 Y91.010
G01 X301.560 Y87.168
G01 X298.391 Y81.511
G01 X295.221 Y75.854
G01 X292.050 Y70.197
G01 X288.881 Y64.539
G01 X284.218 Y63.661
G01 X279.555 Y62.782
G01 X274.893 Y61.903
G01 X270.230 Y61.024
G01 X265.457 Y65.306
G01 X260.685 Y69.588
G01 X255.912 Y73.870
G01 X251.141 Y78.152
G01 X247.099 Y81.005
G01 X243.060 Y83.857
G01 X239.018 Y86.710
G01 X234.977 Y89.563
G01 X230.398 Y87.111
G01 X225.819 Y84.659
G01 X221.240 Y82.207
G01 X216.662 Y79.754
G01 X211.159 Y76.505
G01 X205.654 Y73.257
G01 X200.150 Y70.008
G01 X194.644 Y66.760
G01 X190.327 Y68.824
G01 X186.012 Y70.889
G01 X181.695 Y72.954
G01 X177.379 Y75.018
G01 X175.338 Y81.208
G01 X173.298 Y87.398
G01 X171.258 Y93.588
G01 X169.218 Y99.778
G01 X166.767 Y103.758
G01 X164.317 Y107.737
G01 X161.866 Y111.717
G01 X159.415 Y115.698
G01 X153.900 Y115.388
G01 X148.385 Y115.078
G01 X142.869 Y114.768
G01 X137.354 Y114.458
G01 X131.106 Y114.479
G01 X124.855 Y114.502
G01 X118.607 Y114.523
G01 X112.357 Y114.545
G01 X110.020 Y118.852
G01 X107.683 Y123.159
G01 X105.346 Y127.466
G01 X103.011 Y131.771
G01 X104.275 Y138.215
G01 X105.540 Y144.658
G01 X106.805 Y151.101
G01 X108.070 Y157.544
G01 X107.329 Y161.921
G01 X106.589 Y166.297
G01 X105.848 Y170.675
G01 X105.107 Y175.051
G01 X99.717 Y177.296
G01 X94.327 Y179.539
G01 X88.939 Y181.782
G01 X83.549 Y184.026
G01 X78.380 Y187.202
G01 X73.212 Y190.376
G01 X68.042 Y193.553
G01 X62.874 Y196.727
G01 X63.484 Y201.769
G01 X64.093 Y206.813
G01 X64.702 Y211.856
G01 X65.312 Y216.898
G01 X69.521 Y221.922
G01 X73.731 Y226.944
G01 X77.940 Y231.969
G01 X82.150 Y236.992
G01 X82.990 Y241.175
G01 X83.829 Y245.359
G01 X84.668 Y249.544
G01 X85.508 Y253.729
G01 X81.505 Y258.361
G01 X77.502 Y262.991
G01 X73.500 Y267.624
G01 X69.497 Y272.254
G01 X66.895 Y277.496
G01 X64.294 Y282.739
G01 X61.692 Y287.984
G01 X59.090 Y293.228
G01 X62.608 Y297.205
G01 X66.125 Y301.177
G01 X69.643 Y305.154
G01 X73.160 Y309.129
G01 X79.182 Y311.524
G01 X85.205 Y313.918
G01 X91.227 Y316.313
G01 X97.249 Y318.707
G01 X99.435 Y322.273
G01 X101.620 Y325.838
G01 X103.806 Y329.404
G01 X105.991 Y332.970
G01 X104.492 Y339.152
G01 X102.994 Y345.336
G01 X101.496 Y351.520
G01 X99.996 Y357.702
G01 X100.625 Y363.293
G01 X101.253 Y368.884
G01 X101.883 Y374.476
G01 X102.510 Y380.066
G01 X107.895 Y381.481
G01 X113.277 Y382.894
G01 X118.660 Y384.309
G01 X124.044 Y385.724
G01 X130.356 Y385.045
G01 X136.667 Y384.365
G01 X142.979 Y383.686
G01 X149.290 Y383.007
G01 X152.570 Y385.627
G01 X155.849 Y388.248
G01 X159.128 Y390.868
G01 X162.406 Y393.489
G01 X164.010 Y399.841
G01 X165.611 Y406.193
G01 X167.213 Y412.545
G01 X168.816 Y418.897
G01 X172.290 Y423.033
G01 X175.765 Y427.169
G01 X179.241 Y431.306
G01 X182.716 Y435.442
G01 X188.258 Y433.618
G01 X193.799 Y431.793
G01 X199.341 Y429.968
G01 X204.882 Y428.143
G01 X210.026 Y424.753
G01 X215.167 Y421.361
G01 X220.310 Y417.970
G01 X225.455 Y414.580
G01 X229.548 Y415.948
G01 X233.641 Y417.317
G01 X237.730 Y418.685
G01 X241.824 Y420.053
G01 X246.335 Y424.983
G01 X250.847 Y429.913
G01 X255.359 Y434.843
G01 X259.870 Y439.773
G01 X264.882 Y441.163
G01 X269.893 Y442.554
G01 X274.904 Y443.944
G01 X279.916 Y445.335
G01 X283.799 Y440.640
G01 X287.685 Y435.944
G01 X291.567 Y431.248
G01 X295.453 Y426.552
G01 X298.417 Y421.420
G01 X301.380 Y416.288
G01 X304.341 Y411.157
G01 X307.304 Y406.025
G01 X311.823 Y405.833
G01 X316.343 Y405.642
G01 X320.860 Y405.451
G01 X325.380 Y405.259
G01 X331.774 Y407.429
G01 X338.170 Y409.598
