;  Created by Sandify
;  https://sandify.org
;  Version: 0.2.6
;
;  Machine type: Rectangular
;    Min X (mm): 0
;    Max X (mm): 500
;    Min Y (mm): 0
;    Max Y (mm): 500
;  Content type: shape
;  Layer:
;    Shape: Text
;    Name: text
;    Text: The Lord is my shepherd
;    Font: Sans Serif
;    Rotate: Top
;    Visible: true
;    Initial width: 19
;    Initial height: 20
;    X offset: 14
;    Y offset: -50
;    Rotate (degrees): 0
;    Reverse path: false
;    Fine tuning:
;      Connect to next layer: along perimeter
;      Draw portion of path (%): 100
;      Backtrack at end (%): 0
;      Rotate starting point (%): 0
;  Reverse export path: false
;
; File name: 'The Lord is my shepherd (SW SE) (BJ)'
; File type: gcode
;

G01 X98.084 Y86.003
G01 X96.567 Y88.489
G01 X95.083 Y90.997
G01 X93.633 Y93.526
G01 X92.217 Y96.078
G01 X90.836 Y98.650
G01 X89.489 Y101.242
G01 X86.644 Y99.632
G01 X83.799 Y98.022
G01 X80.954 Y96.412
G01 X78.109 Y94.802
G01 X75.264 Y93.192
G01 X72.420 Y91.582
G01 X69.575 Y89.972
G01 X66.730 Y88.362
G01 X63.885 Y86.752
G01 X61.040 Y85.142
G01 X58.195 Y83.532
G01 X55.350 Y81.922
G01 X52.505 Y80.312
G01 X49.660 Y78.702
G01 X46.815 Y77.092
G01 X43.970 Y75.482
G01 X41.125 Y73.872
G01 X38.280 Y72.262
G01 X36.875 Y71.467
G01 X38.627 Y68.093
G01 X40.425 Y64.745
G01 X42.268 Y61.425
G01 X44.155 Y58.132
G01 X46.086 Y54.868
G01 X48.061 Y51.634
G01 X46.086 Y54.868
G01 X44.155 Y58.132
G01 X42.268 Y61.425
G01 X40.425 Y64.745
G01 X38.627 Y68.093
G01 X36.875 Y71.467
G01 X35.168 Y74.867
G01 X33.507 Y78.291
G01 X31.892 Y81.741
G01 X30.324 Y85.214
G01 X28.802 Y88.710
G01 X27.328 Y92.228
G01 X28.802 Y88.710
G01 X30.324 Y85.214
G01 X31.892 Y81.741
G01 X33.507 Y78.291
G01 X35.168 Y74.867
G01 X38.280 Y72.262
G01 X41.125 Y73.872
G01 X43.970 Y75.482
G01 X46.815 Y77.092
G01 X49.660 Y78.702
G01 X52.505 Y80.312
G01 X55.350 Y81.922
G01 X58.195 Y83.532
G01 X61.040 Y85.142
G01 X63.885 Y86.752
G01 X66.730 Y88.362
G01 X69.575 Y89.972
G01 X72.420 Y91.582
G01 X75.264 Y93.192
G01 X78.109 Y94.802
G01 X80.954 Y96.412
G01 X83.799 Y98.022
G01 X86.644 Y99.632
G01 X89.489 Y101.242
G01 X88.178 Y103.854
G01 X86.901 Y106.486
G01 X85.660 Y109.136
G01 X84.456 Y111.804
G01 X83.287 Y114.490
G01 X82.154 Y117.194
G01 X77.991 Y128.168
G01 X77.042 Y130.949
G01 X73.995 Y129.823
G01 X70.947 Y128.697
G01 X67.899 Y127.572
G01 X64.851 Y126.446
G01 X61.803 Y125.320
G01 X58.756 Y124.195
G01 X55.708 Y123.069
G01 X52.660 Y121.943
G01 X49.612 Y120.818
G01 X46.564 Y119.692
G01 X43.516 Y118.566
G01 X40.469 Y117.441
G01 X37.421 Y116.315
G01 X34.373 Y115.189
G01 X31.325 Y114.063
G01 X28.277 Y112.938
G01 X25.229 Y111.812
G01 X22.182 Y110.686
G01 X20.676 Y110.130
G01 X25.229 Y111.812
G01 X28.277 Y112.938
G01 X31.325 Y114.063
G01 X34.373 Y115.189
G01 X37.421 Y116.315
G01 X40.469 Y117.441
G01 X43.516 Y118.566
G01 X46.564 Y119.692
G01 X52.660 Y121.943
G01 X50.943 Y122.022
G01 X49.097 Y123.496
G01 X46.245 Y126.082
G01 X43.710 Y128.832
G01 X42.592 Y132.784
G01 X43.286 Y136.545
G01 X44.331 Y140.352
G01 X45.111 Y142.648
G01 X46.507 Y143.703
G01 X49.644 Y144.515
G01 X52.780 Y145.326
G01 X55.917 Y146.138
G01 X59.054 Y146.950
G01 X62.190 Y147.762
G01 X65.327 Y148.574
G01 X68.463 Y149.386
G01 X71.600 Y150.198
G01 X70.949 Y153.072
G01 X68.734 Y164.656
G01 X68.278 Y167.572
G01 X67.861 Y170.493
G01 X67.483 Y173.421
G01 X67.021 Y177.529
G01 X66.843 Y176.318
G01 X66.061 Y174.428
G01 X64.353 Y172.392
G01 X63.225 Y171.017
G01 X61.466 Y169.531
G01 X58.479 Y167.535
G01 X55.423 Y166.079
G01 X52.274 Y165.263
G01 X51.828 Y168.423
G01 X51.465 Y171.255
G01 X51.132 Y174.128
G01 X50.838 Y176.968
G01 X50.604 Y179.513
G01 X50.473 Y181.086
G01 X50.260 Y183.972
G01 X50.084 Y186.823
G01 X49.941 Y189.713
G01 X46.758 Y188.605
G01 X43.564 Y187.779
G01 X40.428 Y185.913
G01 X38.574 Y184.446
G01 X37.372 Y183.005
G01 X35.586 Y180.816
G01 X34.803 Y178.685
G01 X34.643 Y176.600
G01 X34.909 Y173.866
G01 X35.394 Y172.540
G01 X36.567 Y170.618
G01 X38.733 Y168.850
G01 X40.185 Y167.691
G01 X42.281 Y166.645
G01 X45.702 Y165.517
G01 X49.038 Y165.041
G01 X55.423 Y166.079
G01 X58.479 Y167.535
G01 X61.466 Y169.531
G01 X63.225 Y171.017
G01 X64.353 Y172.392
G01 X66.061 Y174.428
G01 X66.843 Y176.318
G01 X66.792 Y179.880
G01 X66.588 Y182.234
G01 X66.410 Y184.590
G01 X66.256 Y186.948
G01 X66.129 Y189.308
G01 X65.984 Y192.851
G01 X65.918 Y204.667
G01 X66.000 Y207.620
G01 X66.123 Y210.572
G01 X66.285 Y213.522
G01 X66.487 Y216.469
G01 X66.728 Y219.412
G01 X67.009 Y222.352
G01 X67.330 Y225.287
G01 X67.690 Y228.217
G01 X69.523 Y239.876
G01 X70.079 Y242.772
G01 X66.918 Y243.469
G01 X63.757 Y244.166
G01 X60.595 Y244.863
G01 X57.434 Y245.561
G01 X54.273 Y246.258
G01 X51.111 Y246.955
G01 X47.950 Y247.653
G01 X44.789 Y248.350
G01 X41.627 Y249.047
G01 X38.466 Y249.744
G01 X35.304 Y250.442
G01 X32.143 Y251.139
G01 X28.982 Y251.836
G01 X25.820 Y252.534
G01 X22.659 Y253.231
G01 X19.498 Y253.928
G01 X16.336 Y254.625
G01 X13.175 Y255.323
G01 X11.613 Y255.667
G01 X13.175 Y255.323
G01 X16.336 Y254.625
G01 X19.498 Y253.928
G01 X22.659 Y253.231
G01 X25.820 Y252.534
G01 X28.982 Y251.836
G01 X32.143 Y251.139
G01 X35.304 Y250.442
G01 X38.466 Y249.744
G01 X41.627 Y249.047
G01 X44.789 Y248.350
G01 X47.950 Y247.653
G01 X51.111 Y246.955
G01 X54.273 Y246.258
G01 X57.434 Y245.561
G01 X60.595 Y244.863
G01 X63.757 Y244.166
G01 X66.918 Y243.469
G01 X70.079 Y242.772
G01 X70.674 Y245.659
G01 X71.308 Y248.537
G01 X71.981 Y251.406
G01 X72.692 Y254.264
G01 X73.441 Y257.111
G01 X74.229 Y259.947
G01 X75.055 Y262.771
G01 X75.919 Y265.582
G01 X68.271 Y268.249
G01 X63.654 Y269.859
G01 X68.271 Y268.249
G01 X72.852 Y266.651
G01 X75.919 Y265.582
G01 X75.055 Y262.771
G01 X75.919 Y265.582
G01 X76.820 Y268.380
G01 X80.800 Y279.430
G01 X81.887 Y282.153
G01 X83.011 Y284.861
G01 X84.171 Y287.551
G01 X85.367 Y290.224
G01 X86.600 Y292.879
G01 X87.867 Y295.515
G01 X89.170 Y298.132
G01 X89.969 Y299.692
G01 X90.242 Y300.883
G01 X90.202 Y302.944
G01 X89.359 Y305.511
G01 X88.813 Y307.235
G01 X87.723 Y309.314
G01 X85.541 Y312.106
G01 X83.383 Y314.927
G01 X80.934 Y317.233
G01 X77.855 Y318.445
G01 X74.446 Y319.075
G01 X71.025 Y319.668
G01 X68.709 Y319.541
G01 X66.948 Y319.051
G01 X64.305 Y318.284
G01 X62.525 Y316.976
G01 X61.598 Y315.944
G01 X60.363 Y313.522
G01 X59.154 Y311.086
G01 X57.971 Y308.635
G01 X56.814 Y306.170
G01 X56.555 Y304.777
G01 X56.576 Y302.492
G01 X57.517 Y299.781
G01 X58.161 Y297.988
G01 X59.407 Y295.928
G01 X61.851 Y293.341
G01 X64.317 Y290.785
G01 X67.043 Y288.850
G01 X70.248 Y288.089
G01 X73.683 Y287.877
G01 X77.110 Y287.628
G01 X79.350 Y287.900
G01 X81.001 Y288.433
G01 X83.476 Y289.200
G01 X85.093 Y290.362
G01 X85.856 Y291.288
G01 X86.600 Y292.879
G01 X87.867 Y295.515
G01 X89.170 Y298.132
G01 X90.509 Y300.729
G01 X91.882 Y303.306
G01 X93.289 Y305.862
G01 X94.731 Y308.397
G01 X96.207 Y310.910
G01 X102.444 Y320.735
G01 X104.085 Y323.132
G01 X101.478 Y325.140
G01 X98.871 Y327.147
G01 X96.264 Y329.154
G01 X93.657 Y331.162
G01 X91.050 Y333.169
G01 X88.443 Y335.177
G01 X85.836 Y337.184
G01 X83.229 Y339.191
G01 X80.622 Y341.199
G01 X78.015 Y343.206
G01 X80.622 Y341.199
G01 X75.408 Y345.213
G01 X74.120 Y346.205
G01 X75.408 Y345.213
G01 X80.622 Y341.199
G01 X81.393 Y343.977
G01 X82.964 Y347.861
G01 X83.824 Y350.633
G01 X85.192 Y353.000
G01 X87.114 Y354.893
G01 X89.516 Y356.345
G01 X92.672 Y357.077
G01 X89.516 Y356.345
G01 X87.114 Y354.893
G01 X85.192 Y353.000
G01 X83.824 Y350.633
G01 X82.964 Y347.861
G01 X81.393 Y343.977
G01 X80.622 Y341.199
G01 X83.229 Y339.191
G01 X85.836 Y337.184
G01 X88.443 Y335.177
G01 X91.050 Y333.169
G01 X93.657 Y331.162
G01 X96.264 Y329.154
G01 X98.871 Y327.147
G01 X101.478 Y325.140
G01 X104.085 Y323.132
G01 X105.758 Y325.505
G01 X107.463 Y327.852
G01 X109.199 Y330.173
G01 X110.966 Y332.469
G01 X112.764 Y334.737
G01 X114.593 Y336.979
G01 X116.451 Y339.193
G01 X124.177 Y347.766
G01 X126.180 Y349.836
G01 X128.210 Y351.876
G01 X130.268 Y353.886
G01 X133.194 Y356.648
G01 X134.888 Y358.198
G01 X136.600 Y359.728
G01 X138.328 Y361.238
G01 X140.072 Y362.726
G01 X141.832 Y364.194
G01 X139.840 Y366.871
G01 X137.849 Y369.548
G01 X135.857 Y372.225
G01 X133.865 Y374.901
G01 X131.874 Y377.578
G01 X129.882 Y380.255
G01 X127.890 Y382.932
G01 X125.899 Y385.608
G01 X123.907 Y388.285
G01 X121.916 Y390.962
G01 X119.924 Y393.639
G01 X117.932 Y396.315
G01 X115.941 Y398.992
G01 X113.949 Y401.669
G01 X111.958 Y404.346
G01 X109.966 Y407.022
G01 X107.974 Y409.699
G01 X105.983 Y412.376
G01 X104.999 Y413.698
G01 X105.983 Y412.376
G01 X107.974 Y409.699
G01 X109.966 Y407.022
G01 X111.958 Y404.346
G01 X113.949 Y401.669
G01 X115.941 Y398.992
G01 X117.932 Y396.315
G01 X119.924 Y393.639
G01 X121.916 Y390.962
G01 X119.869 Y389.255
G01 X117.840 Y387.523
G01 X115.831 Y385.767
G01 X113.840 Y383.988
G01 X111.869 Y382.185
G01 X111.118 Y381.005
G01 X110.299 Y378.889
G01 X110.172 Y376.006
G01 X110.107 Y374.090
G01 X110.501 Y371.684
G01 X111.806 Y368.303
G01 X113.143 Y364.943
G01 X114.946 Y362.050
G01 X117.623 Y360.044
G01 X120.714 Y358.452
G01 X123.783 Y356.828
G01 X125.950 Y356.169
G01 X127.667 Y355.989
G01 X130.232 Y355.690
G01 X132.150 Y356.104
G01 X133.194 Y356.648
G01 X134.888 Y358.198
G01 X136.600 Y359.728
G01 X138.328 Y361.238
G01 X140.072 Y362.726
G01 X141.832 Y364.194
G01 X144.054 Y366.000
G01 X153.178 Y372.884
G01 X155.516 Y374.519
G01 X157.875 Y376.119
G01 X160.256 Y377.684
G01 X162.658 Y379.213
G01 X165.080 Y380.707
G01 X167.522 Y382.164
G01 X169.983 Y383.584
G01 X172.463 Y384.968
G01 X182.562 Y390.128
G01 X185.129 Y391.323
G01 X183.843 Y394.442
G01 X182.557 Y397.561
G01 X181.271 Y400.680
G01 X179.986 Y403.799
G01 X178.700 Y406.918
G01 X177.414 Y410.037
G01 X176.128 Y413.156
G01 X174.843 Y416.275
G01 X173.557 Y419.394
G01 X172.271 Y422.513
G01 X173.557 Y419.394
G01 X174.843 Y416.275
G01 X176.128 Y413.156
G01 X177.414 Y410.037
G01 X178.700 Y406.918
G01 X179.986 Y403.799
G01 X181.271 Y400.680
G01 X182.557 Y397.561
G01 X183.843 Y394.442
G01 X185.129 Y391.323
G01 X187.711 Y392.480
G01 X198.190 Y396.719
G01 X200.844 Y397.681
G01 X203.511 Y398.603
G01 X206.190 Y399.485
G01 X208.880 Y400.327
G01 X211.582 Y401.129
G01 X214.294 Y401.890
G01 X215.926 Y402.328
G01 X216.944 Y402.922
G01 X218.358 Y404.348
G01 X219.582 Y406.739
G01 X220.418 Y408.329
G01 X221.134 Y410.580
G01 X220.425 Y412.506
G01 X219.306 Y413.641
G01 X216.648 Y414.731
G01 X213.952 Y415.823
G01 X210.652 Y416.682
G01 X207.309 Y417.523
G01 X203.943 Y418.269
G01 X200.535 Y418.997
G01 X197.698 Y419.827
G01 X194.824 Y420.656
G01 X193.317 Y423.332
G01 X193.204 Y425.822
G01 X194.023 Y427.534
G01 X195.282 Y430.098
G01 X196.865 Y431.661
G01 X198.015 Y432.403
G01 X200.522 Y433.175
G01 X203.036 Y433.917
G01 X205.559 Y434.629
G01 X208.089 Y435.312
G01 X209.437 Y435.292
G01 X211.557 Y434.798
G01 X213.882 Y433.269
G01 X215.417 Y432.236
G01 X213.882 Y433.269
G01 X211.557 Y434.798
G01 X209.437 Y435.292
G01 X208.089 Y435.312
G01 X205.559 Y434.629
G01 X203.036 Y433.917
G01 X200.522 Y433.175
G01 X198.015 Y432.403
G01 X196.865 Y431.661
G01 X195.282 Y430.098
G01 X194.023 Y427.534
G01 X193.204 Y425.822
G01 X193.317 Y423.332
G01 X194.824 Y420.656
G01 X197.698 Y419.827
G01 X200.535 Y418.997
G01 X203.943 Y418.269
G01 X207.309 Y417.523
G01 X210.652 Y416.682
G01 X213.952 Y415.823
G01 X216.648 Y414.731
G01 X219.306 Y413.641
G01 X220.425 Y412.506
G01 X221.134 Y410.580
G01 X220.418 Y408.329
G01 X219.582 Y406.739
G01 X218.358 Y404.348
G01 X216.944 Y402.922
G01 X215.926 Y402.328
G01 X214.294 Y401.890
G01 X211.582 Y401.129
G01 X208.880 Y400.327
G01 X207.265 Y399.826
G01 X206.101 Y399.791
G01 X204.194 Y400.258
G01 X201.982 Y401.656
G01 X200.492 Y402.575
G01 X197.978 Y403.838
G01 X200.492 Y402.575
G01 X201.982 Y401.656
G01 X204.194 Y400.258
G01 X206.101 Y399.791
G01 X207.265 Y399.826
G01 X208.880 Y400.327
G01 X211.582 Y401.129
G01 X214.294 Y401.890
G01 X217.016 Y402.611
G01 X219.747 Y403.291
G01 X222.488 Y403.931
G01 X225.236 Y404.529
G01 X236.303 Y406.512
G01 X239.085 Y406.904
G01 X241.872 Y407.255
G01 X244.663 Y407.564
G01 X247.459 Y407.832
G01 X250.257 Y408.058
G01 X253.059 Y408.242
G01 X255.862 Y408.384
G01 X258.668 Y408.484
G01 X269.894 Y408.468
G01 X272.699 Y408.359
G01 X272.840 Y411.756
G01 X272.982 Y415.152
G01 X273.124 Y418.549
G01 X273.266 Y421.946
G01 X273.408 Y425.343
G01 X273.549 Y428.739
G01 X273.691 Y432.136
G01 X273.833 Y435.533
G01 X273.975 Y438.929
G01 X276.599 Y439.794
G01 X280.541 Y440.571
G01 X283.184 Y441.036
G01 X285.778 Y440.791
G01 X288.300 Y439.840
G01 X292.049 Y438.338
G01 X293.847 Y437.087
G01 X294.052 Y433.628
G01 X293.619 Y430.259
G01 X293.185 Y426.890
G01 X292.752 Y423.520
G01 X292.318 Y420.151
G01 X291.885 Y416.782
G01 X291.452 Y413.413
G01 X291.018 Y410.043
G01 X290.473 Y405.802
G01 X291.018 Y410.043
G01 X291.452 Y413.413
G01 X291.885 Y416.782
G01 X292.318 Y420.151
G01 X292.752 Y423.520
G01 X293.185 Y426.890
G01 X293.619 Y430.259
G01 X294.052 Y433.628
G01 X295.123 Y436.905
G01 X297.173 Y437.608
G01 X301.166 Y438.006
G01 X303.838 Y438.217
G01 X306.400 Y437.727
G01 X308.830 Y436.539
G01 X312.434 Y434.686
G01 X314.118 Y433.269
G01 X314.024 Y429.804
G01 X313.303 Y426.490
G01 X312.581 Y423.176
G01 X311.860 Y419.862
G01 X311.138 Y416.548
G01 X310.417 Y413.234
G01 X309.696 Y409.920
G01 X308.974 Y406.606
G01 X308.253 Y403.291
G01 X310.984 Y402.611
G01 X321.810 Y399.485
G01 X324.489 Y398.603
G01 X327.156 Y397.681
G01 X329.810 Y396.719
G01 X332.451 Y395.718
G01 X336.401 Y394.137
G01 X336.362 Y397.801
G01 X336.312 Y401.460
G01 X336.221 Y405.126
G01 X336.088 Y408.799
G01 X335.881 Y412.491
G01 X335.665 Y416.176
G01 X335.408 Y419.866
G01 X335.109 Y423.562
G01 X334.733 Y427.275
G01 X334.350 Y430.980
G01 X334.733 Y427.275
G01 X335.109 Y423.562
G01 X335.408 Y419.866
G01 X335.665 Y416.176
G01 X335.881 Y412.491
G01 X336.088 Y408.799
G01 X336.221 Y405.126
G01 X336.312 Y401.460
G01 X336.362 Y397.801
G01 X336.401 Y394.137
G01 X338.767 Y396.807
G01 X341.168 Y399.453
G01 X343.604 Y402.076
G01 X346.074 Y404.673
G01 X348.612 Y407.231
G01 X351.151 Y409.778
G01 X353.724 Y412.299
G01 X356.331 Y414.795
G01 X359.006 Y417.247
G01 X361.681 Y419.688
G01 X359.006 Y417.247
G01 X356.331 Y414.795
G01 X353.724 Y412.299
G01 X351.151 Y409.778
G01 X348.612 Y407.231
G01 X346.074 Y404.673
G01 X343.604 Y402.076
G01 X341.168 Y399.453
G01 X338.767 Y396.807
G01 X336.401 Y394.137
G01 X334.040 Y391.455
G01 X331.745 Y388.738
G01 X329.486 Y385.997
G01 X327.262 Y383.235
G01 X325.046 Y380.461
G01 X322.895 Y377.654
G01 X320.780 Y374.826
G01 X322.895 Y377.654
G01 X325.046 Y380.461
G01 X327.262 Y383.235
G01 X329.486 Y385.997
G01 X331.745 Y388.738
G01 X334.040 Y391.455
G01 X336.401 Y394.137
G01 X338.976 Y393.051
G01 X341.567 Y391.913
G01 X344.172 Y390.723
G01 X346.700 Y389.523
G01 X350.522 Y387.623
G01 X360.478 Y382.164
G01 X362.920 Y380.707
G01 X365.342 Y379.213
G01 X367.744 Y377.684
G01 X370.125 Y376.119
G01 X372.484 Y374.519
G01 X374.822 Y372.884
G01 X377.138 Y371.214
G01 X379.431 Y369.510
G01 X388.366 Y362.356
G01 X390.538 Y360.485
G01 X392.685 Y358.582
G01 X394.806 Y356.648
G01 X396.902 Y354.681
G01 X398.970 Y352.684
G01 X401.011 Y350.656
G01 X402.223 Y349.425
G01 X403.238 Y348.826
G01 X405.134 Y348.309
G01 X407.710 Y348.470
G01 X409.434 Y348.558
G01 X411.630 Y349.100
G01 X412.813 Y350.748
G01 X413.143 Y352.346
G01 X412.626 Y355.299
G01 X412.091 Y358.288
G01 X411.049 Y361.694
G01 X409.971 Y365.129
G01 X408.805 Y368.536
G01 X407.601 Y371.970
G01 X406.780 Y374.946
G01 X405.938 Y377.956
G01 X407.310 Y380.712
G01 X409.261 Y382.122
G01 X411.076 Y382.289
G01 X413.810 Y382.510
G01 X415.905 Y381.914
G01 X417.109 Y381.274
G01 X419.051 Y379.436
G01 X420.973 Y377.575
G01 X422.875 Y375.691
G01 X424.756 Y373.784
G01 X425.449 Y372.566
G01 X426.164 Y370.409
G01 X426.151 Y367.523
G01 X426.123 Y365.606
G01 X426.151 Y367.523
G01 X426.164 Y370.409
G01 X425.449 Y372.566
G01 X424.756 Y373.784
G01 X422.875 Y375.691
G01 X420.973 Y377.575
G01 X419.051 Y379.436
G01 X417.109 Y381.274
G01 X415.905 Y381.914
G01 X413.810 Y382.510
G01 X411.076 Y382.289
G01 X409.261 Y382.122
G01 X407.310 Y380.712
G01 X405.938 Y377.956
G01 X406.780 Y374.946
G01 X407.601 Y371.970
G01 X408.805 Y368.536
G01 X409.971 Y365.129
G01 X411.049 Y361.694
G01 X412.091 Y358.288
G01 X412.626 Y355.299
G01 X413.143 Y352.346
G01 X412.813 Y350.748
G01 X411.630 Y349.100
G01 X409.434 Y348.558
G01 X407.710 Y348.470
G01 X405.134 Y348.309
G01 X403.238 Y348.826
G01 X402.223 Y349.425
G01 X401.011 Y350.656
G01 X398.970 Y352.684
G01 X396.902 Y354.681
G01 X395.648 Y355.865
G01 X395.007 Y356.888
G01 X394.382 Y358.841
G01 X394.349 Y361.557
G01 X394.308 Y363.374
G01 X394.007 Y366.290
G01 X394.308 Y363.374
G01 X394.349 Y361.557
G01 X394.382 Y358.841
G01 X395.007 Y356.888
G01 X395.648 Y355.865
G01 X396.902 Y354.681
G01 X398.970 Y352.684
G01 X401.011 Y350.656
G01 X403.025 Y348.598
G01 X405.011 Y346.510
G01 X406.968 Y344.392
G01 X408.897 Y342.246
G01 X416.318 Y333.379
G01 X418.098 Y331.095
G01 X420.610 Y333.232
G01 X423.122 Y335.369
G01 X425.634 Y337.506
G01 X428.146 Y339.643
G01 X430.659 Y341.780
G01 X433.171 Y343.917
G01 X435.683 Y346.054
G01 X438.195 Y348.192
G01 X440.707 Y350.329
G01 X443.219 Y352.466
G01 X445.731 Y354.603
G01 X448.244 Y356.740
G01 X450.756 Y358.877
G01 X453.268 Y361.014
G01 X455.780 Y363.152
G01 X458.292 Y365.289
G01 X460.804 Y367.426
G01 X463.316 Y369.563
G01 X464.558 Y370.619
G01 X460.804 Y367.426
G01 X458.292 Y365.289
G01 X455.780 Y363.152
G01 X453.268 Y361.014
G01 X450.756 Y358.877
G01 X448.244 Y356.740
G01 X445.731 Y354.603
G01 X443.219 Y352.466
G01 X438.195 Y348.192
G01 X439.837 Y348.724
G01 X442.046 Y347.988
G01 X445.557 Y346.560
G01 X448.822 Y344.865
G01 X451.135 Y341.537
G01 X451.681 Y337.748
G01 X451.910 Y333.793
G01 X451.908 Y331.354
G01 X450.928 Y329.868
G01 X448.233 Y327.995
G01 X445.537 Y326.122
G01 X442.841 Y324.249
G01 X440.145 Y322.376
G01 X437.449 Y320.503
G01 X434.754 Y318.631
G01 X432.058 Y316.758
G01 X429.362 Y314.885
G01 X430.892 Y312.407
G01 X436.672 Y302.277
G01 X438.031 Y299.692
G01 X439.355 Y297.087
G01 X440.644 Y294.463
G01 X442.389 Y290.756
G01 X442.171 Y291.960
G01 X442.305 Y294.017
G01 X443.265 Y296.538
G01 X443.889 Y298.232
G01 X445.072 Y300.253
G01 X447.249 Y303.188
G01 X449.664 Y305.640
G01 X452.370 Y307.521
G01 X453.798 Y304.701
G01 X455.043 Y302.162
G01 X456.272 Y299.573
G01 X457.455 Y297.002
G01 X458.487 Y294.688
G01 X459.112 Y293.252
G01 X460.233 Y290.609
G01 X461.307 Y287.985
G01 X462.364 Y285.313
G01 X465.009 Y287.481
G01 X467.754 Y289.388
G01 X470.113 Y292.253
G01 X471.392 Y294.290
G01 X472.064 Y296.072
G01 X473.049 Y298.766
G01 X473.107 Y301.050
G01 X472.594 Y303.070
G01 X471.470 Y305.552
G01 X470.592 Y306.629
G01 X468.874 Y308.026
G01 X466.269 Y308.926
G01 X464.532 Y309.504
G01 X462.225 Y309.749
G01 X458.642 Y309.603
G01 X455.347 Y308.873
G01 X449.664 Y305.640
G01 X447.249 Y303.188
G01 X445.072 Y300.253
G01 X443.889 Y298.232
G01 X443.265 Y296.538
G01 X442.305 Y294.017
G01 X442.171 Y291.960
G01 X443.355 Y288.622
G01 X444.297 Y286.477
G01 X445.217 Y284.321
G01 X446.113 Y282.153
G01 X446.986 Y279.976
G01 X448.251 Y276.690
G01 X452.081 Y265.582
G01 X452.945 Y262.771
G01 X449.865 Y261.748
G01 X446.785 Y260.724
G01 X443.704 Y259.701
G01 X440.624 Y258.678
G01 X437.544 Y257.654
G01 X434.464 Y256.631
G01 X431.384 Y255.608
G01 X428.303 Y254.584
G01 X425.223 Y253.561
G01 X437.544 Y257.654
G01 X425.223 Y253.561
G01 X428.303 Y254.584
G01 X431.384 Y255.608
G01 X434.464 Y256.631
G01 X437.544 Y257.654
G01 X440.624 Y258.678
G01 X443.704 Y259.701
G01 X446.785 Y260.724
G01 X449.865 Y261.748
G01 X453.609 Y260.513
G01 X454.248 Y258.247
G01 X454.863 Y255.974
G01 X455.453 Y253.693
G01 X456.034 Y252.631
G01 X457.410 Y251.164
G01 X459.700 Y249.912
G01 X461.222 Y249.057
G01 X463.372 Y248.338
G01 X466.781 Y247.892
G01 X470.191 Y247.407
G01 X473.475 Y247.508
G01 X476.502 Y248.858
G01 X479.387 Y250.870
G01 X482.257 Y252.917
G01 X483.855 Y254.687
G01 X484.813 Y256.318
G01 X486.230 Y258.788
G01 X486.666 Y261.027
G01 X486.665 Y262.446
G01 X485.978 Y265.099
G01 X485.263 Y267.743
G01 X484.519 Y270.378
G01 X483.747 Y273.004
G01 X480.667 Y271.981
G01 X477.587 Y270.957
G01 X474.507 Y269.934
G01 X471.427 Y268.911
G01 X468.346 Y267.888
G01 X465.266 Y266.864
G01 X462.186 Y265.841
G01 X459.106 Y264.818
G01 X456.025 Y263.794
G01 X452.945 Y262.771
G01 X453.609 Y260.513
G01 X454.248 Y258.247
G01 X454.863 Y255.974
G01 X455.453 Y253.693
G01 X456.560 Y249.112
G01 X457.202 Y246.235
G01 X457.805 Y243.350
G01 X458.259 Y241.035
G01 X460.155 Y229.388
G01 X460.531 Y226.460
G01 X463.735 Y226.891
G01 X466.939 Y227.323
G01 X470.143 Y227.754
G01 X473.347 Y228.185
G01 X476.550 Y228.617
G01 X479.754 Y229.048
G01 X482.958 Y229.480
G01 X486.162 Y229.911
G01 X489.366 Y230.342
G01 X492.570 Y230.774
G01 X495.774 Y231.205
G01 X498.978 Y231.636
G01 X500.000 Y231.774
G01 X500.000 Y231.774
G01 X498.978 Y231.636
G01 X495.774 Y231.205
G01 X492.570 Y230.774
G01 X486.162 Y229.911
G01 X487.825 Y229.457
G01 X489.339 Y227.610
G01 X491.616 Y224.454
G01 X493.550 Y221.208
G01 X493.859 Y217.098
G01 X492.434 Y213.571
G01 X490.658 Y210.077
G01 X489.440 Y208.003
G01 X487.865 Y207.279
G01 X484.637 Y207.174
G01 X481.408 Y207.069
G01 X478.180 Y206.964
G01 X474.951 Y206.859
G01 X471.723 Y206.754
G01 X468.494 Y206.649
G01 X465.266 Y206.544
G01 X462.038 Y206.439
G01 X462.104 Y203.485
G01 X461.974 Y191.669
G01 X461.842 Y188.718
G01 X461.670 Y185.769
G01 X461.459 Y182.823
G01 X461.096 Y178.704
G01 X461.510 Y179.849
G01 X462.650 Y181.526
G01 X464.724 Y183.141
G01 X466.100 Y184.239
G01 X468.115 Y185.305
G01 X471.432 Y186.601
G01 X474.710 Y187.354
G01 X477.951 Y187.461
G01 X477.760 Y184.272
G01 X477.554 Y181.423
G01 X477.310 Y178.540
G01 X477.035 Y175.697
G01 X476.759 Y173.157
G01 X476.576 Y171.590
G01 X476.212 Y168.721
G01 X475.818 Y165.894
G01 X475.385 Y163.036
G01 X478.718 Y163.420
G01 X482.006 Y163.527
G01 X485.442 Y164.663
G01 X487.546 Y165.690
G01 X489.007 Y166.835
G01 X491.188 Y168.584
G01 X492.376 Y170.496
G01 X492.946 Y172.500
G01 X493.228 Y175.233
G01 X493.017 Y176.635
G01 X492.251 Y178.773
G01 X490.482 Y180.978
G01 X489.293 Y182.430
G01 X487.450 Y183.913
G01 X484.328 Y185.768
G01 X481.159 Y186.967
G01 X474.710 Y187.354
G01 X471.432 Y186.601
G01 X468.115 Y185.305
G01 X466.100 Y184.239
G01 X464.724 Y183.141
G01 X462.650 Y181.526
G01 X461.510 Y179.849
G01 X460.854 Y176.354
G01 X460.587 Y174.007
G01 X460.295 Y171.664
G01 X459.977 Y169.324
G01 X459.634 Y166.988
G01 X459.073 Y163.492
G01 X456.795 Y151.921
G01 X456.129 Y149.051
G01 X459.261 Y148.220
G01 X462.393 Y147.390
G01 X465.525 Y146.559
G01 X468.658 Y145.729
G01 X471.790 Y144.898
G01 X474.922 Y144.067
G01 X478.054 Y143.237
G01 X481.186 Y142.406
G01 X484.318 Y141.576
G01 X487.450 Y140.745
G01 X484.318 Y141.576
G01 X490.583 Y139.915
G01 X492.130 Y139.504
G01 X490.583 Y139.915
G01 X484.318 Y141.576
G01 X484.594 Y138.696
G01 X484.523 Y134.475
G01 X484.714 Y131.566
G01 X484.290 Y128.832
G01 X483.184 Y126.318
G01 X481.475 Y124.023
G01 X478.811 Y122.098
G01 X481.475 Y124.023
G01 X483.184 Y126.318
G01 X484.290 Y128.832
G01 X484.714 Y131.566
G01 X484.523 Y134.475
G01 X484.594 Y138.696
G01 X484.318 Y141.576
G01 X481.186 Y142.406
G01 X478.054 Y143.237
G01 X474.922 Y144.067
G01 X471.790 Y144.898
G01 X468.658 Y145.729
G01 X465.525 Y146.559
G01 X462.393 Y147.390
G01 X459.261 Y148.220
G01 X456.129 Y149.051
G01 X455.424 Y146.191
G01 X454.681 Y143.342
G01 X453.899 Y140.504
G01 X453.079 Y137.679
G01 X452.222 Y134.865
G01 X451.326 Y132.065
G01 X450.393 Y129.279
G01 X446.289 Y118.280
G01 X445.171 Y115.570
G01 X444.016 Y112.877
G01 X442.826 Y110.201
G01 X441.099 Y106.486
G01 X440.081 Y104.379
G01 X439.040 Y102.284
G01 X437.976 Y100.203
G01 X436.891 Y98.134
G01 X435.783 Y96.078
G01 X438.583 Y94.383
G01 X441.384 Y92.689
G01 X444.184 Y90.995
G01 X446.985 Y89.301
G01 X449.785 Y87.607
G01 X452.586 Y85.913
G01 X455.386 Y84.218
G01 X458.187 Y82.524
G01 X460.987 Y80.830
G01 X463.788 Y79.136
G01 X466.588 Y77.442
G01 X469.388 Y75.747
G01 X472.189 Y74.053
G01 X474.989 Y72.359
G01 X477.790 Y70.665
G01 X480.590 Y68.971
G01 X483.391 Y67.277
G01 X486.191 Y65.582
G01 X487.575 Y64.745
G01 X486.191 Y65.582
G01 X483.391 Y67.277
G01 X480.590 Y68.971
G01 X477.790 Y70.665
G01 X474.989 Y72.359
G01 X472.189 Y74.053
G01 X469.388 Y75.747
G01 X466.588 Y77.442
G01 X463.788 Y79.136
G01 X465.076 Y81.527
G01 X466.339 Y83.933
G01 X467.575 Y86.355
G01 X468.786 Y88.790
G01 X469.970 Y91.241
G01 X470.245 Y92.631
G01 X470.250 Y94.915
G01 X469.340 Y97.638
G01 X468.716 Y99.439
G01 X467.494 Y101.514
G01 X465.078 Y104.132
G01 X462.641 Y106.719
G01 X459.938 Y108.688
G01 X456.742 Y109.489
G01 X453.309 Y109.744
G01 X449.886 Y110.036
G01 X447.642 Y109.791
G01 X445.986 Y109.280
G01 X443.502 Y108.543
G01 X441.872 Y107.402
G01 X441.099 Y106.486
G01 X440.081 Y104.379
G01 X439.040 Y102.284
G01 X437.976 Y100.203
G01 X436.891 Y98.134
G01 X435.783 Y96.078
G01 X434.367 Y93.526
G01 X428.365 Y83.540

