;  Created by Sandify
;  https://sandify.org
;  Version: 0.2.6
;
;  Machine type: Rectangular
;    Min X (mm): 0
;    Max X (mm): 500
;    Min Y (mm): 0
;    Max Y (mm): 500
;  Content type: shape
;  Layer:
;    Shape: FileImport
;    Name: SierpinskiPentagon2.thr
;    From file:: SierpinskiPentagon2.thr
;    Aspect Ratio: true
;    Comments: 
;    Visible: true
;    Initial width: 10
;    Initial height: 10
;    X offset: 0
;    Y offset: 0
;    Rotate (degrees): 0
;    Reverse path: false
;    Fine tuning:
;      Connect to next layer: line
;      Draw portion of path (%): 100
;      Backtrack at end (%): 0
;      Rotate starting point (%): 0
;  Reverse export path: false
;
; File name: 'pentagon2'
; File type: gcode
;

G01 X250.000 Y250.000
G01 X249.949 Y251.034
G01 X249.797 Y252.060
G01 X249.544 Y253.071
G01 X249.192 Y254.060
G01 X249.000 Y254.500
G01 X245.000 Y272.500
G01 X244.739 Y280.724
G01 X245.000 Y286.136
G01 X245.000 Y297.500
G01 X247.295 Y298.429
G01 X249.670 Y299.245
G01 X252.118 Y299.943
G01 X253.646 Y300.309
G01 X256.267 Y301.352
G01 X258.998 Y302.256
G01 X261.833 Y303.012
G01 X262.292 Y303.118
G01 X265.392 Y304.244
G01 X268.631 Y305.188
G01 X268.776 Y305.225
G01 X270.880 Y302.764
G01 X272.789 Y300.232
G01 X274.502 Y297.644
G01 X275.456 Y296.032
G01 X277.196 Y293.939
G01 X278.793 Y291.789
G01 X280.247 Y289.589
G01 X280.799 Y288.677
G01 X282.297 Y286.707
G01 X283.471 Y285.000
G01 X276.591 Y275.204
G01 X274.120 Y272.129
G01 X270.767 Y267.255
G01 X268.776 Y264.775
G01 X267.623 Y265.325
G01 X266.462 Y265.799
G01 X265.298 Y266.197
G01 X264.135 Y266.519
G01 X262.978 Y266.768
G01 X262.292 Y266.882
G01 X261.366 Y267.338
G01 X260.425 Y267.744
G01 X259.471 Y268.100
G01 X258.508 Y268.405
G01 X257.538 Y268.660
G01 X256.564 Y268.865
G01 X255.807 Y268.988
G01 X254.914 Y269.431
G01 X253.992 Y269.832
G01 X253.042 Y270.188
G01 X252.066 Y270.499
G01 X251.067 Y270.762
G01 X250.048 Y270.976
G01 X249.323 Y271.095
G01 X248.247 Y271.546
G01 X247.126 Y271.941
G01 X245.961 Y272.276
G01 X245.000 Y272.500
G01 X244.739 Y280.724
G01 X245.000 Y286.136
G01 X245.000 Y297.500
G01 X247.295 Y298.429
G01 X249.670 Y299.245
G01 X252.118 Y299.943
G01 X253.646 Y300.309
G01 X256.267 Y301.352
G01 X258.998 Y302.256
G01 X261.833 Y303.012
G01 X262.292 Y303.118
G01 X265.392 Y304.244
G01 X268.631 Y305.188
G01 X268.776 Y305.225
G01 X270.880 Y302.764
G01 X272.789 Y300.232
G01 X274.502 Y297.644
G01 X275.456 Y296.032
G01 X277.196 Y293.939
G01 X278.793 Y291.789
G01 X280.247 Y289.589
G01 X280.799 Y288.677
G01 X282.297 Y286.707
G01 X283.471 Y285.000
G01 X276.591 Y275.204
G01 X274.120 Y272.129
G01 X270.767 Y267.255
G01 X268.776 Y264.775
G01 X267.623 Y265.325
G01 X266.462 Y265.799
G01 X265.298 Y266.197
G01 X264.135 Y266.519
G01 X262.978 Y266.768
G01 X262.292 Y266.882
G01 X261.366 Y267.338
G01 X260.425 Y267.744
G01 X259.471 Y268.100
G01 X258.508 Y268.405
G01 X257.538 Y268.660
G01 X256.564 Y268.865
G01 X255.807 Y268.988
G01 X254.914 Y269.431
G01 X253.992 Y269.832
G01 X253.042 Y270.188
G01 X252.066 Y270.499
G01 X251.067 Y270.762
G01 X250.048 Y270.976
G01 X249.323 Y271.095
G01 X248.247 Y271.546
G01 X247.126 Y271.941
G01 X245.961 Y272.276
G01 X245.000 Y272.500
G01 X244.876 Y279.925
G01 X245.000 Y282.500
G01 X246.552 Y283.176
G01 X248.158 Y283.778
G01 X249.815 Y284.300
G01 X251.519 Y284.740
G01 X252.608 Y284.972
G01 X254.416 Y285.562
G01 X254.511 Y285.590
G01 X255.998 Y283.896
G01 X257.332 Y282.146
G01 X258.508 Y280.350
G01 X259.213 Y279.118
G01 X260.274 Y277.670
G01 X260.388 Y277.500
G01 X257.952 Y274.647
G01 X255.824 Y271.629
G01 X254.511 Y269.410
G01 X253.595 Y269.840
G01 X252.648 Y270.227
G01 X251.671 Y270.569
G01 X250.667 Y270.862
G01 X249.639 Y271.106
G01 X248.804 Y271.264
G01 X247.707 Y271.706
G01 X246.563 Y272.090
G01 X245.376 Y272.413
G01 X245.000 Y272.500
G01 X246.184 Y272.286
G01 X247.335 Y272.011
G01 X248.449 Y271.678
G01 X249.525 Y271.290
G01 X250.558 Y270.849
G01 X251.484 Y270.393
G01 X252.475 Y270.224
G01 X253.452 Y270.006
G01 X254.413 Y269.742
G01 X255.357 Y269.432
G01 X256.282 Y269.077
G01 X257.184 Y268.678
G01 X257.969 Y268.286
G01 X258.976 Y268.115
G01 X259.986 Y267.888
G01 X260.994 Y267.605
G01 X261.999 Y267.266
G01 X262.996 Y266.870
G01 X263.983 Y266.417
G01 X264.453 Y266.179
G01 X265.663 Y265.889
G01 X266.877 Y265.519
G01 X268.092 Y265.067
G01 X268.776 Y264.775
G01 X267.602 Y265.307
G01 X266.422 Y265.761
G01 X265.240 Y266.136
G01 X264.062 Y266.435
G01 X263.070 Y266.629
G01 X262.083 Y267.031
G01 X261.089 Y267.377
G01 X260.090 Y267.668
G01 X259.266 Y267.865
G01 X259.495 Y270.737
G01 X259.462 Y273.669
G01 X259.266 Y275.865
G01 X259.266 Y277.865
G01 X261.131 Y278.688
G01 X263.098 Y279.393
G01 X265.160 Y279.971
G01 X266.874 Y280.337
G01 X268.776 Y280.955
G01 X269.986 Y279.573
G01 X271.107 Y278.147
G01 X272.136 Y276.684
G01 X273.073 Y275.189
G01 X273.479 Y274.483
G01 X274.471 Y273.131
G01 X274.654 Y272.865
G01 X271.234 Y267.837
G01 X268.776 Y264.775
G01 X272.656 Y269.702
G01 X275.456 Y273.968
G01 X282.994 Y284.271
G01 X283.471 Y285.000
G01 X277.593 Y276.910
G01 X275.739 Y277.692
G01 X273.875 Y278.359
G01 X272.009 Y278.911
G01 X270.147 Y279.349
G01 X269.985 Y279.382
G01 X268.283 Y279.941
G01 X268.083 Y280.000
G01 X268.338 Y284.104
G01 X268.230 Y288.298
G01 X268.083 Y290.000
G01 X271.146 Y291.255
G01 X274.374 Y292.300
G01 X277.593 Y293.090
G01 X279.271 Y291.118
G01 X280.823 Y289.087
G01 X282.247 Y287.003
G01 X283.471 Y285.000
G01 X282.152 Y287.107
G01 X280.707 Y289.167
G01 X279.135 Y291.174
G01 X278.128 Y292.355
G01 X276.632 Y294.719
G01 X274.970 Y297.035
G01 X273.144 Y299.294
G01 X272.784 Y299.709
G01 X270.970 Y302.397
G01 X268.945 Y305.022
G01 X268.776 Y305.225
G01 X270.862 Y302.717
G01 X272.748 Y300.141
G01 X274.433 Y297.510
G01 X274.654 Y297.135
G01 X268.776 Y289.045
G01 X266.823 Y289.884
G01 X264.832 Y290.625
G01 X262.810 Y291.266
G01 X260.760 Y291.808
G01 X259.266 Y292.135
G01 X259.266 Y302.135
G01 X262.201 Y303.313
G01 X265.272 Y304.323
G01 X268.472 Y305.157
G01 X268.776 Y305.225
G01 X265.580 Y304.459
G01 X262.506 Y303.516
G01 X259.562 Y302.406
G01 X257.969 Y301.714
G01 X255.318 Y301.043
G01 X252.752 Y300.238
G01 X250.278 Y299.307
G01 X249.323 Y298.905
G01 X246.963 Y298.195
G01 X245.000 Y297.500
G01 X247.294 Y298.454
G01 X249.670 Y299.295
G01 X252.121 Y300.019
G01 X254.511 Y300.590
G01 X256.672 Y298.038
G01 X258.595 Y295.402
G01 X260.276 Y292.698
G01 X260.388 Y292.500
G01 X257.521 Y288.972
G01 X255.027 Y285.275
G01 X254.511 Y284.410
G01 X252.860 Y285.117
G01 X251.150 Y285.744
G01 X249.386 Y286.286
G01 X247.571 Y286.740
G01 X246.902 Y286.882
G01 X245.000 Y287.500
G01 X245.000 Y297.500
G01 X244.794 Y283.548
G01 X245.000 Y279.318
G01 X244.996 Y272.591
G01 X245.000 Y272.500
G01 X246.184 Y272.286
G01 X247.335 Y272.011
G01 X248.449 Y271.678
G01 X249.525 Y271.290
G01 X250.558 Y270.849
G01 X251.484 Y270.393
G01 X252.475 Y270.224
G01 X253.452 Y270.006
G01 X254.413 Y269.742
G01 X255.357 Y269.432
G01 X256.282 Y269.077
G01 X257.184 Y268.678
G01 X257.969 Y268.286
G01 X258.976 Y268.115
G01 X259.986 Y267.888
G01 X260.994 Y267.605
G01 X261.999 Y267.266
G01 X262.996 Y266.870
G01 X263.983 Y266.417
G01 X264.453 Y266.179
G01 X265.663 Y265.889
G01 X266.877 Y265.519
G01 X268.092 Y265.067
G01 X268.776 Y264.775
G01 X273.333 Y266.573
G01 X278.101 Y267.953
G01 X279.584 Y268.286
G01 X288.980 Y271.526
G01 X292.553 Y272.500
G01 X294.124 Y270.627
G01 X295.612 Y268.654
G01 X297.012 Y266.583
G01 X297.896 Y265.145
G01 X299.636 Y263.054
G01 X301.282 Y260.828
G01 X302.828 Y258.471
G01 X303.240 Y257.791
G01 X305.171 Y255.325
G01 X306.985 Y252.687
G01 X307.247 Y252.275
G01 X305.452 Y249.480
G01 X303.525 Y246.867
G01 X301.904 Y244.920
G01 X300.415 Y242.553
G01 X298.823 Y240.320
G01 X297.135 Y238.224
G01 X296.560 Y237.565
G01 X295.215 Y235.513
G01 X293.782 Y233.563
G01 X292.553 Y232.049
G01 X277.075 Y236.979
G01 X275.261 Y237.668
G01 X268.776 Y239.775
G01 X268.937 Y240.862
G01 X269.038 Y241.940
G01 X269.078 Y243.005
G01 X269.061 Y244.055
G01 X268.988 Y245.086
G01 X268.860 Y246.095
G01 X268.776 Y246.593
G01 X268.921 Y247.518
G01 X269.020 Y248.450
G01 X269.073 Y249.385
G01 X269.081 Y250.321
G01 X269.042 Y251.257
G01 X268.958 Y252.190
G01 X268.827 Y253.118
G01 X268.776 Y253.411
G01 X268.931 Y254.408
G01 X269.032 Y255.429
G01 X269.077 Y256.470
G01 X269.065 Y257.528
G01 X268.995 Y258.600
G01 X268.865 Y259.683
G01 X268.776 Y260.229
G01 X268.879 Y261.521
G01 X268.898 Y262.846
G01 X268.831 Y264.199
G01 X268.776 Y264.775
G01 X273.181 Y266.465
G01 X277.787 Y267.752
G01 X278.287 Y267.865
G01 X279.397 Y266.606
G01 X280.451 Y265.282
G01 X281.446 Y263.893
G01 X282.376 Y262.444
G01 X282.989 Y261.393
G01 X284.064 Y259.922
G01 X284.165 Y259.775
G01 X282.918 Y257.693
G01 X281.554 Y255.758
G01 X280.082 Y253.976
G01 X279.463 Y253.302
G01 X278.358 Y251.776
G01 X278.287 Y251.684
G01 X275.625 Y252.793
G01 X272.928 Y253.645
G01 X270.679 Y254.157
G01 X268.835 Y254.758
G01 X268.776 Y254.775
G01 X268.912 Y255.811
G01 X268.990 Y256.871
G01 X269.009 Y257.953
G01 X268.966 Y259.053
G01 X268.860 Y260.168
G01 X268.776 Y260.775
G01 X268.862 Y262.091
G01 X268.861 Y263.440
G01 X268.776 Y264.775
G01 X268.952 Y263.461
G01 X269.045 Y262.167
G01 X269.058 Y260.897
G01 X268.994 Y259.656
G01 X268.855 Y258.448
G01 X268.776 Y257.956
G01 X268.930 Y256.947
G01 X269.030 Y255.942
G01 X269.078 Y254.943
G01 X269.074 Y253.955
G01 X269.020 Y252.979
G01 X268.916 Y252.018
G01 X268.776 Y251.138
G01 X268.921 Y250.217
G01 X269.021 Y249.284
G01 X269.074 Y248.342
G01 X269.080 Y247.393
G01 X269.039 Y246.439
G01 X268.950 Y245.483
G01 X268.813 Y244.528
G01 X268.776 Y244.320
G01 X268.873 Y243.264
G01 X268.910 Y242.184
G01 X268.886 Y241.085
G01 X268.798 Y239.971
G01 X268.776 Y239.775
G01 X268.915 Y240.872
G01 X268.993 Y241.959
G01 X269.010 Y243.030
G01 X268.968 Y244.084
G01 X268.870 Y245.117
G01 X268.776 Y245.775
G01 X268.853 Y246.720
G01 X268.882 Y247.662
G01 X268.865 Y248.600
G01 X268.801 Y249.530
G01 X268.776 Y249.775
G01 X272.958 Y250.852
G01 X277.069 Y252.338
G01 X278.287 Y252.865
G01 X279.504 Y251.531
G01 X280.656 Y250.084
G01 X281.734 Y248.529
G01 X282.731 Y246.867
G01 X282.989 Y246.393
G01 X284.165 Y244.775
G01 X283.259 Y243.228
G01 X282.284 Y241.758
G01 X281.247 Y240.367
G01 X280.153 Y239.057
G01 X279.463 Y238.302
G01 X278.539 Y237.014
G01 X278.287 Y236.684
G01 X270.305 Y239.194
G01 X268.776 Y239.775
G01 X278.107 Y236.437
G01 X283.907 Y234.858
G01 X292.553 Y232.049
G01 X283.042 Y235.139
G01 X283.211 Y236.983
G01 X283.279 Y238.806
G01 X283.250 Y240.605
G01 X283.126 Y242.373
G01 X283.042 Y243.139
G01 X283.051 Y244.814
G01 X283.042 Y245.139
G01 X287.539 Y246.348
G01 X291.987 Y247.988
G01 X292.553 Y248.229
G01 X294.512 Y245.953
G01 X296.346 Y243.480
G01 X298.039 Y240.819
G01 X298.431 Y240.139
G01 X297.112 Y237.973
G01 X295.698 Y235.912
G01 X294.198 Y233.960
G01 X292.618 Y232.121
G01 X292.553 Y232.049
G01 X294.112 Y233.892
G01 X295.590 Y235.846
G01 X296.982 Y237.907
G01 X297.896 Y239.404
G01 X299.680 Y241.542
G01 X301.365 Y243.830
G01 X302.943 Y246.263
G01 X303.240 Y246.759
G01 X305.266 Y249.352
G01 X307.160 Y252.137
G01 X307.247 Y252.275
G01 X305.489 Y249.480
G01 X303.598 Y246.863
G01 X301.588 Y244.430
G01 X301.370 Y244.184
G01 X291.859 Y247.275
G01 X292.054 Y249.330
G01 X292.148 Y251.398
G01 X292.139 Y253.474
G01 X292.029 Y255.552
G01 X291.859 Y257.275
G01 X301.370 Y260.365
G01 X303.305 Y258.057
G01 X305.134 Y255.583
G01 X306.844 Y252.949
G01 X307.247 Y252.275
G01 X305.616 Y254.952
G01 X303.863 Y257.474
G01 X301.999 Y259.837
G01 X300.568 Y261.468
G01 X299.154 Y263.715
G01 X297.642 Y265.851
G01 X296.042 Y267.872
G01 X295.225 Y268.823
G01 X293.837 Y270.824
G01 X292.553 Y272.500
G01 X294.145 Y270.637
G01 X295.656 Y268.672
G01 X297.080 Y266.607
G01 X298.409 Y264.448
G01 X298.431 Y264.410
G01 X296.554 Y261.398
G01 X294.504 Y258.606
G01 X292.553 Y256.320
G01 X288.983 Y257.761
G01 X285.382 Y258.869
G01 X283.042 Y259.410
G01 X283.211 Y261.247
G01 X283.278 Y263.123
G01 X283.239 Y265.031
G01 X283.091 Y266.967
G01 X283.042 Y267.410
G01 X283.042 Y269.410
G01 X292.553 Y272.500
G01 X283.013 Y269.586
G01 X279.584 Y268.286
G01 X274.757 Y267.036
G01 X270.133 Y265.363
G01 X268.776 Y264.775
G01 X268.952 Y263.461
G01 X269.045 Y262.167
G01 X269.058 Y260.897
G01 X268.994 Y259.656
G01 X268.855 Y258.448
G01 X268.776 Y257.956
G01 X268.930 Y256.947
G01 X269.030 Y255.942
G01 X269.078 Y254.943
G01 X269.074 Y253.955
G01 X269.020 Y252.979
G01 X268.916 Y252.018
G01 X268.776 Y251.138
G01 X268.921 Y250.217
G01 X269.021 Y249.284
G01 X269.074 Y248.342
G01 X269.080 Y247.393
G01 X269.039 Y246.439
G01 X268.950 Y245.483
G01 X268.813 Y244.528
G01 X268.776 Y244.320
G01 X268.873 Y243.264
G01 X268.910 Y242.184
G01 X268.886 Y241.085
G01 X268.798 Y239.971
G01 X268.776 Y239.775
G01 X270.957 Y237.215
G01 X272.926 Y234.421
G01 X274.120 Y232.420
G01 X278.112 Y227.317
G01 X280.799 Y223.227
G01 X283.471 Y219.549
G01 X282.273 Y217.606
G01 X280.963 Y215.708
G01 X279.545 Y213.862
G01 X278.128 Y212.194
G01 X276.787 Y210.041
G01 X275.302 Y207.931
G01 X273.673 Y205.871
G01 X272.784 Y204.840
G01 X271.154 Y202.395
G01 X269.338 Y200.005
G01 X268.776 Y199.324
G01 X265.750 Y200.101
G01 X262.847 Y201.048
G01 X260.130 Y202.133
G01 X257.599 Y202.755
G01 X255.153 Y203.507
G01 X252.800 Y204.383
G01 X251.484 Y204.942
G01 X249.282 Y205.531
G01 X247.140 Y206.226
G01 X245.065 Y207.022
G01 X245.000 Y207.049
G01 X244.794 Y218.732
G01 X245.000 Y222.958
G01 X244.805 Y228.005
G01 X245.000 Y232.049
G01 X245.984 Y232.256
G01 X246.936 Y232.515
G01 X247.852 Y232.823
G01 X248.731 Y233.178
G01 X249.323 Y233.454
G01 X250.134 Y233.615
G01 X250.928 Y233.816
G01 X251.703 Y234.054
G01 X252.456 Y234.329
G01 X253.186 Y234.640
G01 X253.646 Y234.858
G01 X254.399 Y235.006
G01 X255.147 Y235.190
G01 X255.887 Y235.413
G01 X256.617 Y235.672
G01 X257.336 Y235.968
G01 X257.969 Y236.263
G01 X258.792 Y236.426
G01 X259.617 Y236.638
G01 X260.443 Y236.898
G01 X261.266 Y237.208
G01 X262.083 Y237.567
G01 X262.292 Y237.668
G01 X263.382 Y237.831
G01 X264.484 Y238.073
G01 X265.594 Y238.395
G01 X266.706 Y238.798
G01 X267.814 Y239.283
G01 X268.776 Y239.775
G01 X270.858 Y237.276
G01 X272.732 Y234.553
G01 X273.479 Y233.302
G01 X274.654 Y231.684
G01 X273.891 Y230.361
G01 X273.057 Y229.069
G01 X272.153 Y227.811
G01 X271.181 Y226.592
G01 X270.143 Y225.416
G01 X269.952 Y225.212
G01 X268.993 Y223.876
G01 X268.776 Y223.594
G01 X266.585 Y224.069
G01 X264.488 Y224.692
G01 X262.494 Y225.455
G01 X261.168 Y226.066
G01 X259.560 Y226.577
G01 X259.266 Y226.684
G01 X259.517 Y229.104
G01 X259.554 Y231.487
G01 X259.384 Y233.819
G01 X259.266 Y234.684
G01 X259.285 Y236.227
G01 X259.266 Y236.684
G01 X260.163 Y236.824
G01 X261.068 Y237.021
G01 X261.978 Y237.276
G01 X262.889 Y237.589
G01 X263.797 Y237.962
G01 X264.699 Y238.395
G01 X264.972 Y238.539
G01 X266.176 Y238.832
G01 X267.385 Y239.217
G01 X268.594 Y239.694
G01 X268.776 Y239.775
G01 X267.675 Y239.217
G01 X266.566 Y238.743
G01 X265.455 Y238.350
G01 X264.346 Y238.038
G01 X263.244 Y237.806
G01 X262.292 Y237.668
G01 X261.477 Y237.295
G01 X260.655 Y236.973
G01 X259.830 Y236.700
G01 X259.004 Y236.476
G01 X258.181 Y236.301
G01 X257.969 Y236.263
G01 X257.261 Y235.935
G01 X256.541 Y235.643
G01 X255.809 Y235.387
G01 X255.069 Y235.169
G01 X254.320 Y234.988
G01 X253.646 Y234.858
G01 X252.931 Y234.526
G01 X252.192 Y234.228
G01 X251.431 Y233.966
G01 X250.650 Y233.740
G01 X249.850 Y233.554
G01 X249.323 Y233.454
G01 X248.472 Y233.067
G01 X247.582 Y232.726
G01 X246.655 Y232.432
G01 X245.693 Y232.188
G01 X245.000 Y232.049
G01 X245.973 Y232.208
G01 X246.919 Y232.418
G01 X247.834 Y232.678
G01 X248.716 Y232.984
G01 X249.563 Y233.333
G01 X250.372 Y233.724
G01 X250.706 Y233.903
G01 X251.485 Y234.071
G01 X252.248 Y234.276
G01 X252.996 Y234.517
G01 X253.725 Y234.793
G01 X254.434 Y235.103
G01 X254.511 Y235.139
G01 X256.461 Y231.953
G01 X258.731 Y228.931
G01 X260.388 Y227.049
G01 X259.589 Y225.708
G01 X258.682 Y224.391
G01 X257.669 Y223.107
G01 X256.862 Y222.195
G01 X255.752 Y220.546
G01 X254.511 Y218.959
G01 X252.933 Y219.285
G01 X251.399 Y219.689
G01 X249.912 Y220.168
G01 X248.475 Y220.720
G01 X247.091 Y221.339
G01 X246.902 Y221.431
G01 X245.542 Y221.858
G01 X245.000 Y222.049
G01 X244.769 Y227.262
G01 X245.000 Y232.049
G01 X244.716 Y226.650
G01 X244.952 Y221.192
G01 X245.000 Y220.686
G01 X244.950 Y208.070
G01 X245.000 Y207.049
G01 X245.000 Y217.049
G01 X246.681 Y217.410
G01 X248.314 Y217.855
G01 X249.895 Y218.381
G01 X251.420 Y218.983
G01 X252.608 Y219.521
G01 X254.061 Y219.980
G01 X254.511 Y220.139
G01 X256.727 Y216.643
G01 X259.296 Y213.302
G01 X260.388 Y212.049
G01 X258.947 Y209.630
G01 X257.292 Y207.267
G01 X255.426 Y204.973
G01 X254.511 Y203.959
G01 X252.212 Y204.487
G01 X249.977 Y205.127
G01 X247.809 Y205.876
G01 X245.715 Y206.727
G01 X245.000 Y207.049
G01 X247.069 Y206.188
G01 X249.210 Y205.428
G01 X251.419 Y204.773
G01 X253.646 Y204.240
G01 X256.044 Y203.261
G01 X258.546 Y202.410
G01 X261.146 Y201.695
G01 X262.292 Y201.431
G01 X265.190 Y200.362
G01 X268.221 Y199.465
G01 X268.776 Y199.324
G01 X265.761 Y200.066
G01 X262.866 Y200.978
G01 X260.099 Y202.050
G01 X259.266 Y202.414
G01 X259.269 Y212.352
G01 X259.266 Y212.414
G01 X261.130 Y212.811
G01 X262.977 Y213.300
G01 X264.803 Y213.881
G01 X266.603 Y214.553
G01 X268.373 Y215.316
G01 X268.776 Y215.504
G01 X274.654 Y207.414
G01 X273.175 Y205.014
G01 X271.517 Y202.660
G01 X269.683 Y200.363
G01 X268.776 Y199.324
G01 X270.679 Y201.620
G01 X272.402 Y203.978
G01 X273.946 Y206.385
G01 X274.120 Y206.678
G01 X275.767 Y208.636
G01 X277.281 Y210.649
G01 X278.661 Y212.709
G01 X279.463 Y214.033
G01 X280.913 Y215.832
G01 X282.257 Y217.685
G01 X283.471 Y219.549
G01 X282.289 Y217.590
G01 X280.995 Y215.673
G01 X279.589 Y213.807
G01 X278.075 Y211.997
G01 X277.593 Y211.459
G01 X274.318 Y212.248
G01 X271.191 Y213.261
G01 X268.224 Y214.484
G01 X268.083 Y214.549
G01 X268.366 Y217.979
G01 X268.360 Y221.346
G01 X268.083 Y224.549
G01 X269.751 Y224.906
G01 X271.427 Y225.367
G01 X273.104 Y225.933
G01 X274.776 Y226.606
G01 X275.691 Y227.021
G01 X277.593 Y227.639
G01 X282.692 Y220.736
G01 X283.471 Y219.549
G01 X279.130 Y226.002
G01 X275.456 Y230.581
G01 X273.268 Y233.993
G01 X270.815 Y237.138
G01 X270.112 Y237.936
G01 X268.776 Y239.775
G01 X267.675 Y239.217
G01 X266.566 Y238.743
G01 X265.455 Y238.350
G01 X264.346 Y238.038
G01 X263.244 Y237.806
G01 X262.292 Y237.668
G01 X261.477 Y237.295
G01 X260.655 Y236.973
G01 X259.830 Y236.700
G01 X259.004 Y236.476
G01 X258.181 Y236.301
G01 X257.969 Y236.263
G01 X257.261 Y235.935
G01 X256.541 Y235.643
G01 X255.809 Y235.387
G01 X255.069 Y235.169
G01 X254.320 Y234.988
G01 X253.646 Y234.858
G01 X252.931 Y234.526
G01 X252.192 Y234.228
G01 X251.431 Y233.966
G01 X250.650 Y233.740
G01 X249.850 Y233.554
G01 X249.323 Y233.454
G01 X248.472 Y233.067
G01 X247.582 Y232.726
G01 X246.655 Y232.432
G01 X245.693 Y232.188
G01 X245.000 Y232.049
G01 X242.968 Y228.832
G01 X240.610 Y225.779
G01 X239.656 Y224.694
G01 X234.945 Y217.779
G01 X231.641 Y213.662
G01 X230.305 Y211.824
G01 X228.164 Y212.332
G01 X226.025 Y212.960
G01 X223.897 Y213.708
G01 X221.785 Y214.577
G01 X221.659 Y214.633
G01 X219.216 Y215.228
G01 X216.765 Y215.980
G01 X214.316 Y216.891
G01 X213.013 Y217.442
G01 X210.143 Y218.247
G01 X207.266 Y219.257
G01 X206.529 Y219.549
G01 X206.336 Y222.505
G01 X206.325 Y225.405
G01 X206.491 Y228.238
G01 X206.529 Y228.640
G01 X206.344 Y231.149
G01 X206.298 Y233.623
G01 X206.388 Y236.056
G01 X206.529 Y237.731
G01 X206.411 Y239.978
G01 X206.409 Y242.207
G01 X206.518 Y244.412
G01 X206.529 Y244.549
G01 X214.036 Y247.274
G01 X219.498 Y248.763
G01 X223.238 Y250.229
G01 X227.039 Y251.325
G01 X228.144 Y251.572
G01 X230.305 Y252.275
G01 X230.899 Y251.260
G01 X231.544 Y250.310
G01 X232.234 Y249.426
G01 X232.964 Y248.611
G01 X232.977 Y248.597
G01 X233.417 Y247.810
G01 X233.892 Y247.062
G01 X234.399 Y246.356
G01 X234.937 Y245.692
G01 X235.501 Y245.072
G01 X235.649 Y244.920
G01 X236.009 Y244.260
G01 X236.399 Y243.624
G01 X236.818 Y243.011
G01 X237.264 Y242.425
G01 X237.736 Y241.865
G01 X238.231 Y241.333
G01 X238.321 Y241.243
G01 X238.669 Y240.601
G01 X239.053 Y239.973
G01 X239.471 Y239.360
G01 X239.923 Y238.764
G01 X240.409 Y238.187
G01 X240.927 Y237.631
G01 X240.992 Y237.565
G01 X241.405 Y236.819
G01 X241.870 Y236.084
G01 X242.387 Y235.364
G01 X242.955 Y234.661
G01 X243.574 Y233.980
G01 X243.664 Y233.888
G01 X244.261 Y233.000
G01 X244.930 Y232.133
G01 X245.000 Y232.049
G01 X242.929 Y228.715
G01 X240.522 Y225.550
G01 X239.122 Y223.959
G01 X237.722 Y224.239
G01 X236.323 Y224.595
G01 X234.930 Y225.026
G01 X233.546 Y225.534
G01 X232.177 Y226.118
G01 X231.514 Y226.431
G01 X229.988 Y226.915
G01 X229.612 Y227.049
G01 X229.389 Y228.974
G01 X229.304 Y230.863
G01 X229.353 Y232.708
G01 X229.530 Y234.500
G01 X229.612 Y235.049
G01 X229.594 Y236.525
G01 X229.612 Y237.049
G01 X232.802 Y237.851
G01 X235.858 Y238.931
G01 X237.220 Y239.521
G01 X239.103 Y240.132
G01 X239.122 Y240.139
G01 X239.454 Y239.452
G01 X239.827 Y238.774
G01 X240.242 Y238.108
G01 X240.698 Y237.456
G01 X241.195 Y236.820
G01 X241.732 Y236.203
G01 X242.309 Y235.608
G01 X242.649 Y235.285
G01 X243.154 Y234.430
G01 X243.727 Y233.590
G01 X244.366 Y232.770
G01 X245.000 Y232.049
G01 X244.295 Y232.827
G01 X243.654 Y233.630
G01 X243.077 Y234.453
G01 X242.565 Y235.291
G01 X242.328 Y235.726
G01 X241.763 Y236.330
G01 X241.239 Y236.954
G01 X240.756 Y237.595
G01 X240.314 Y238.253
G01 X239.914 Y238.923
G01 X239.656 Y239.404
G01 X239.157 Y239.931
G01 X238.684 Y240.483
G01 X238.239 Y241.056
G01 X237.824 Y241.650
G01 X237.438 Y242.263
G01 X237.083 Y242.894
G01 X236.985 Y243.081
G01 X236.462 Y243.634
G01 X235.962 Y244.223
G01 X235.488 Y244.845
G01 X235.041 Y245.499
G01 X234.624 Y246.186
G01 X234.313 Y246.759
G01 X233.673 Y247.454
G01 X233.064 Y248.205
G01 X232.491 Y249.010
G01 X231.958 Y249.866
G01 X231.641 Y250.436
G01 X230.901 Y251.393
G01 X230.305 Y252.275
G01 X230.837 Y251.265
G01 X231.418 Y250.312
G01 X232.045 Y249.420
G01 X232.714 Y248.590
G01 X233.419 Y247.825
G01 X233.832 Y247.420
G01 X234.254 Y246.688
G01 X234.709 Y245.991
G01 X235.193 Y245.331
G01 X235.705 Y244.708
G01 X236.183 Y244.184
G01 X234.933 Y242.768
G01 X233.792 Y241.217
G01 X232.770 Y239.539
G01 X232.657 Y239.330
G01 X230.803 Y236.849
G01 X230.305 Y236.094
G01 X228.680 Y236.464
G01 X227.047 Y236.961
G01 X225.413 Y237.587
G01 X224.599 Y237.948
G01 X222.484 Y238.563
G01 X220.795 Y239.184
G01 X220.626 Y240.733
G01 X220.537 Y242.273
G01 X220.529 Y243.798
G01 X220.598 Y245.306
G01 X220.743 Y246.791
G01 X220.795 Y247.184
G01 X220.781 Y248.625
G01 X220.795 Y249.184
G01 X224.340 Y250.543
G01 X227.939 Y251.552
G01 X228.403 Y251.657
G01 X230.305 Y252.275
G01 X227.100 Y251.511
G01 X223.929 Y250.438
G01 X221.659 Y249.465
G01 X215.310 Y247.639
G01 X210.852 Y245.954
G01 X206.529 Y244.549
G01 X214.955 Y247.344
G01 X216.040 Y247.639
G01 X216.954 Y246.066
G01 X217.940 Y244.577
G01 X218.990 Y243.174
G01 X220.099 Y241.861
G01 X220.742 Y241.167
G01 X221.649 Y239.898
G01 X221.917 Y239.549
G01 X219.720 Y237.006
G01 X217.711 Y234.225
G01 X216.040 Y231.459
G01 X213.092 Y232.142
G01 X210.135 Y233.072
G01 X207.185 Y234.251
G01 X206.529 Y234.549
G01 X206.327 Y236.852
G01 X206.245 Y239.138
G01 X206.281 Y241.400
G01 X206.433 Y243.631
G01 X206.529 Y244.549
G01 X206.354 Y242.336
G01 X206.293 Y240.092
G01 X206.347 Y237.825
G01 X206.521 Y235.539
G01 X206.529 Y235.458
G01 X206.344 Y232.972
G01 X206.301 Y230.433
G01 X206.404 Y227.850
G01 X206.529 Y226.367
G01 X206.408 Y223.451
G01 X206.472 Y220.468
G01 X206.529 Y219.549
G01 X206.308 Y222.487
G01 X206.267 Y225.372
G01 X206.401 Y228.193
G01 X206.529 Y229.549
G01 X216.040 Y232.639
G01 X217.014 Y231.041
G01 X218.063 Y229.496
G01 X219.184 Y228.008
G01 X220.374 Y226.581
G01 X220.742 Y226.167
G01 X221.834 Y224.659
G01 X221.917 Y224.549
G01 X216.040 Y216.459
G01 X213.272 Y217.125
G01 X210.491 Y217.985
G01 X207.709 Y219.040
G01 X206.529 Y219.549
G01 X209.336 Y218.431
G01 X212.144 Y217.513
G01 X214.942 Y216.791
G01 X215.175 Y216.740
G01 X217.520 Y215.779
G01 X219.875 Y214.966
G01 X222.229 Y214.300
G01 X223.821 Y213.931
G01 X225.908 Y213.126
G01 X228.010 Y212.439
G01 X230.121 Y211.868
G01 X230.305 Y211.824
G01 X228.152 Y212.311
G01 X225.999 Y212.919
G01 X223.854 Y213.649
G01 X221.724 Y214.501
G01 X220.795 Y214.914
G01 X220.531 Y217.937
G01 X220.490 Y220.898
G01 X220.666 Y223.782
G01 X220.795 Y224.914
G01 X224.504 Y225.827
G01 X228.047 Y227.039
G01 X230.305 Y228.004
G01 X231.075 Y226.653
G01 X231.930 Y225.325
G01 X232.871 Y224.025
G01 X233.897 Y222.760
G01 X235.006 Y221.534
G01 X235.008 Y221.532
G01 X236.066 Y220.065
G01 X236.183 Y219.914
G01 X230.305 Y211.824
G01 X236.100 Y219.466
G01 X238.321 Y222.856
G01 X241.227 Y226.496
G01 X243.664 Y230.210
G01 X245.000 Y232.049
G01 X244.295 Y232.827
G01 X243.654 Y233.630
G01 X243.077 Y234.453
G01 X242.565 Y235.291
G01 X242.328 Y235.726
G01 X241.763 Y236.330
G01 X241.239 Y236.954
G01 X240.756 Y237.595
G01 X240.314 Y238.253
G01 X239.914 Y238.923
G01 X239.656 Y239.404
G01 X239.157 Y239.931
G01 X238.684 Y240.483
G01 X238.239 Y241.056
G01 X237.824 Y241.650
G01 X237.438 Y242.263
G01 X237.083 Y242.894
G01 X236.985 Y243.081
G01 X236.462 Y243.634
G01 X235.962 Y244.223
G01 X235.488 Y244.845
G01 X235.041 Y245.499
G01 X234.624 Y246.186
G01 X234.313 Y246.759
G01 X233.673 Y247.454
G01 X233.064 Y248.205
G01 X232.491 Y249.010
G01 X231.958 Y249.866
G01 X231.641 Y250.436
G01 X230.901 Y251.393
G01 X230.305 Y252.275
G01 X222.394 Y254.570
G01 X217.336 Y256.488
G01 X206.529 Y260.000
G01 X206.349 Y262.325
G01 X206.295 Y264.691
G01 X206.369 Y267.092
G01 X206.529 Y269.091
G01 X206.340 Y271.789
G01 X206.314 Y274.550
G01 X206.456 Y277.365
G01 X206.529 Y278.182
G01 X206.412 Y281.399
G01 X206.509 Y284.693
G01 X206.529 Y285.000
G01 X209.386 Y286.124
G01 X212.247 Y287.053
G01 X215.098 Y287.792
G01 X215.175 Y287.809
G01 X217.636 Y288.797
G01 X220.108 Y289.636
G01 X222.583 Y290.327
G01 X223.821 Y290.618
G01 X226.069 Y291.468
G01 X228.336 Y292.195
G01 X230.305 Y292.725
G01 X235.511 Y285.979
G01 X238.321 Y281.693
G01 X241.178 Y278.122
G01 X243.654 Y274.356
G01 X243.664 Y274.339
G01 X245.000 Y272.500
G01 X244.087 Y271.555
G01 X243.254 Y270.575
G01 X242.502 Y269.568
G01 X241.832 Y268.538
G01 X241.245 Y267.490
G01 X240.992 Y266.984
G01 X240.300 Y266.302
G01 X239.653 Y265.594
G01 X239.052 Y264.861
G01 X238.498 Y264.108
G01 X237.990 Y263.337
G01 X237.530 Y262.551
G01 X237.118 Y261.751
G01 X236.985 Y261.468
G01 X236.369 Y260.870
G01 X235.782 Y260.239
G01 X235.223 Y259.577
G01 X234.695 Y258.884
G01 X234.200 Y258.162
G01 X233.739 Y257.413
G01 X233.314 Y256.639
G01 X232.977 Y255.952
G01 X232.324 Y255.222
G01 X231.703 Y254.442
G01 X231.117 Y253.614
G01 X230.569 Y252.738
G01 X230.305 Y252.275
G01 X223.274 Y254.425
G01 X220.795 Y255.365
G01 X220.625 Y256.901
G01 X220.537 Y258.467
G01 X220.533 Y260.058
G01 X220.615 Y261.669
G01 X220.786 Y263.296
G01 X220.795 Y263.365
G01 X220.788 Y265.143
G01 X220.795 Y265.365
G01 X222.608 Y266.175
G01 X224.427 Y266.845
G01 X226.244 Y267.378
G01 X228.049 Y267.775
G01 X228.403 Y267.837
G01 X229.896 Y268.336
G01 X230.305 Y268.455
G01 X232.750 Y264.642
G01 X235.514 Y261.121
G01 X236.183 Y260.365
G01 X235.579 Y259.750
G01 X235.003 Y259.101
G01 X234.455 Y258.418
G01 X233.939 Y257.704
G01 X233.456 Y256.959
G01 X233.007 Y256.185
G01 X232.657 Y255.511
G01 X232.006 Y254.759
G01 X231.389 Y253.957
G01 X230.808 Y253.105
G01 X230.305 Y252.275
G01 X230.764 Y253.185
G01 X231.264 Y254.055
G01 X231.802 Y254.885
G01 X232.376 Y255.671
G01 X232.982 Y256.414
G01 X233.618 Y257.111
G01 X234.281 Y257.761
G01 X234.313 Y257.791
G01 X234.693 Y258.563
G01 X235.112 Y259.316
G01 X235.567 Y260.049
G01 X236.058 Y260.760
G01 X236.585 Y261.447
G01 X237.145 Y262.107
G01 X237.738 Y262.741
G01 X238.321 Y263.307
G01 X238.748 Y264.166
G01 X239.231 Y265.015
G01 X239.772 Y265.849
G01 X240.369 Y266.666
G01 X241.021 Y267.462
G01 X241.730 Y268.233
G01 X242.328 Y268.823
G01 X242.998 Y269.925
G01 X243.758 Y271.006
G01 X244.608 Y272.058
G01 X245.000 Y272.500
G01 X244.096 Y271.522
G01 X243.275 Y270.511
G01 X242.538 Y269.473
G01 X241.887 Y268.413
G01 X241.473 Y267.646
G01 X240.802 Y266.868
G01 X240.187 Y266.067
G01 X239.627 Y265.247
G01 X239.124 Y264.412
G01 X239.122 Y264.410
G01 X237.332 Y265.171
G01 X235.444 Y265.789
G01 X233.468 Y266.254
G01 X233.416 Y266.264
G01 X230.624 Y267.220
G01 X229.612 Y267.500
G01 X229.394 Y269.523
G01 X229.328 Y271.606
G01 X229.419 Y273.741
G01 X229.612 Y275.500
G01 X229.612 Y277.500
G01 X231.177 Y278.181
G01 X232.760 Y278.774
G01 X234.355 Y279.281
G01 X235.958 Y279.702
G01 X237.220 Y279.972
G01 X238.738 Y280.476
G01 X239.122 Y280.590
G01 X241.720 Y277.488
G01 X243.985 Y274.213
G01 X245.000 Y272.500
G01 X242.936 Y275.750
G01 X240.542 Y278.844
G01 X239.656 Y279.855
G01 X235.466 Y286.114
G01 X231.641 Y290.887
G01 X230.305 Y292.725
G01 X235.843 Y285.154
G01 X236.183 Y284.635
G01 X234.862 Y283.124
G01 X233.655 Y281.568
G01 X232.563 Y279.976
G01 X231.588 Y278.355
G01 X231.481 Y278.163
G01 X230.455 Y276.763
G01 X230.305 Y276.545
G01 X227.120 Y277.869
G01 X223.762 Y278.938
G01 X220.795 Y279.635
G01 X220.541 Y282.984
G01 X220.550 Y286.425
G01 X220.795 Y289.635
G01 X223.067 Y290.580
G01 X225.361 Y291.399
G01 X227.670 Y292.091
G01 X229.986 Y292.657
G01 X230.305 Y292.725
G01 X227.999 Y292.155
G01 X225.702 Y291.461
G01 X223.420 Y290.641
G01 X221.659 Y289.916
G01 X219.108 Y289.275
G01 X216.552 Y288.477
G01 X214.002 Y287.522
G01 X213.013 Y287.107
G01 X210.100 Y286.281
G01 X207.182 Y285.257
G01 X206.529 Y285.000
G01 X209.362 Y286.145
G01 X212.201 Y287.098
G01 X215.032 Y287.863
G01 X216.040 Y288.090
G01 X221.917 Y280.000
G01 X220.577 Y278.492
G01 X219.316 Y276.924
G01 X218.138 Y275.302
G01 X217.045 Y273.629
G01 X216.040 Y271.910
G01 X206.903 Y274.898
G01 X206.529 Y275.000
G01 X206.308 Y278.066
G01 X206.288 Y281.212
G01 X206.474 Y284.425
G01 X206.529 Y285.000
G01 X206.335 Y281.755
G01 X206.352 Y278.577
G01 X206.529 Y275.909
G01 X206.339 Y273.198
G01 X206.308 Y270.532
G01 X206.430 Y267.921
G01 X206.529 Y266.818
G01 X206.409 Y264.448
G01 X206.415 Y262.108
G01 X206.529 Y260.000
G01 X206.325 Y262.332
G01 X206.246 Y264.708
G01 X206.298 Y267.120
G01 X206.482 Y269.562
G01 X206.529 Y270.000
G01 X209.343 Y271.182
G01 X212.164 Y272.137
G01 X214.976 Y272.870
G01 X216.040 Y273.090
G01 X218.577 Y269.180
G01 X221.408 Y265.581
G01 X221.917 Y265.000
G01 X220.832 Y263.785
G01 X219.799 Y262.499
G01 X218.823 Y261.145
G01 X217.908 Y259.725
G01 X217.215 Y258.528
G01 X216.138 Y257.054
G01 X216.040 Y256.910
G01 X206.529 Y260.000
G01 X220.571 Y255.265
G01 X223.821 Y254.382
G01 X230.079 Y252.336
G01 X230.305 Y252.275
G01 X230.764 Y253.185
G01 X231.264 Y254.055
G01 X231.802 Y254.885
G01 X232.376 Y255.671
G01 X232.982 Y256.414
G01 X233.618 Y257.111
G01 X234.281 Y257.761
G01 X234.313 Y257.791
G01 X234.693 Y258.563
G01 X235.112 Y259.316
G01 X235.567 Y260.049
G01 X236.058 Y260.760
G01 X236.585 Y261.447
G01 X237.145 Y262.107
G01 X237.738 Y262.741
G01 X238.321 Y263.307
G01 X238.748 Y264.166
G01 X239.231 Y265.015
G01 X239.772 Y265.849
G01 X240.369 Y266.666
G01 X241.021 Y267.462
G01 X241.730 Y268.233
G01 X242.328 Y268.823
G01 X242.998 Y269.925
G01 X243.758 Y271.006
G01 X244.608 Y272.058
G01 X245.000 Y272.500
G01 X244.087 Y271.555
G01 X243.254 Y270.575
G01 X242.502 Y269.568
G01 X241.832 Y268.538
G01 X241.245 Y267.490
G01 X240.992 Y266.984
G01 X240.300 Y266.302
G01 X239.653 Y265.594
G01 X239.052 Y264.861
G01 X238.498 Y264.108
G01 X237.990 Y263.337
G01 X237.530 Y262.551
G01 X237.118 Y261.751
G01 X236.985 Y261.468
G01 X236.369 Y260.870
G01 X235.782 Y260.239
G01 X235.223 Y259.577
G01 X234.695 Y258.884
G01 X234.200 Y258.162
G01 X233.739 Y257.413
G01 X233.314 Y256.639
G01 X232.977 Y255.952
G01 X232.324 Y255.222
G01 X231.703 Y254.442
G01 X231.117 Y253.614
G01 X230.569 Y252.738
G01 X230.305 Y252.275
G01 X222.394 Y254.570
G01 X217.336 Y256.488
G01 X206.529 Y260.000
G01 X206.349 Y262.325
G01 X206.295 Y264.691
G01 X206.369 Y267.092
G01 X206.529 Y269.091
G01 X206.340 Y271.789
G01 X206.314 Y274.550
G01 X206.456 Y277.365
G01 X206.529 Y278.182
G01 X206.412 Y281.399
G01 X206.509 Y284.693
G01 X206.529 Y285.000
G01 X209.386 Y286.124
G01 X212.247 Y287.053
G01 X215.098 Y287.792
G01 X215.175 Y287.809
G01 X217.636 Y288.797
G01 X220.108 Y289.636
G01 X222.583 Y290.327
G01 X223.821 Y290.618
G01 X226.069 Y291.468
G01 X228.336 Y292.195
G01 X230.305 Y292.725
G01 X235.511 Y285.979
G01 X238.321 Y281.693
G01 X241.178 Y278.122
G01 X243.654 Y274.356
G01 X243.664 Y274.339
G01 X245.000 Y272.500
G01 X244.096 Y271.522
G01 X243.275 Y270.511
G01 X242.538 Y269.473
G01 X241.887 Y268.413
G01 X241.473 Y267.646
G01 X240.802 Y266.868
G01 X240.187 Y266.067
G01 X239.627 Y265.247
G01 X239.124 Y264.412
G01 X239.122 Y264.410
G01 X237.332 Y265.171
G01 X235.444 Y265.789
G01 X233.468 Y266.254
G01 X233.416 Y266.264
G01 X230.624 Y267.220
G01 X229.612 Y267.500
G01 X229.394 Y269.523
G01 X229.328 Y271.606
G01 X229.419 Y273.741
G01 X229.612 Y275.500
G01 X229.612 Y277.500
G01 X231.177 Y278.181
G01 X232.760 Y278.774
G01 X234.355 Y279.281
G01 X235.958 Y279.702
G01 X237.220 Y279.972
G01 X238.738 Y280.476
G01 X239.122 Y280.590
G01 X241.720 Y277.488
G01 X243.985 Y274.213
G01 X245.000 Y272.500
G01 X242.936 Y275.750
G01 X240.542 Y278.844
G01 X239.656 Y279.855
G01 X235.466 Y286.114
G01 X231.641 Y290.887
G01 X230.305 Y292.725
G01 X235.843 Y285.154
G01 X236.183 Y284.635
G01 X234.862 Y283.124
G01 X233.655 Y281.568
G01 X232.563 Y279.976
G01 X231.588 Y278.355
G01 X231.481 Y278.163
G01 X230.455 Y276.763
G01 X230.305 Y276.545
G01 X227.120 Y277.869
G01 X223.762 Y278.938
G01 X220.795 Y279.635
G01 X220.541 Y282.984
G01 X220.550 Y286.425
G01 X220.795 Y289.635
G01 X223.067 Y290.580
G01 X225.361 Y291.399
G01 X227.670 Y292.091
G01 X229.986 Y292.657
G01 X230.305 Y292.725
G01 X227.999 Y292.155
G01 X225.702 Y291.461
G01 X223.420 Y290.641
G01 X221.659 Y289.916
G01 X219.108 Y289.275
G01 X216.552 Y288.477
G01 X214.002 Y287.522
G01 X213.013 Y287.107
G01 X210.100 Y286.281
G01 X207.182 Y285.257
G01 X206.529 Y285.000
G01 X209.362 Y286.145
G01 X212.201 Y287.098
G01 X215.032 Y287.863
G01 X216.040 Y288.090
G01 X221.917 Y280.000
G01 X220.577 Y278.492
G01 X219.316 Y276.924
G01 X218.138 Y275.302
G01 X217.045 Y273.629
G01 X216.040 Y271.910
G01 X206.903 Y274.898
G01 X206.529 Y275.000
G01 X206.308 Y278.066
G01 X206.288 Y281.212
G01 X206.474 Y284.425
G01 X206.529 Y285.000
G01 X206.335 Y281.755
G01 X206.352 Y278.577
G01 X206.529 Y275.909
G01 X206.339 Y273.198
G01 X206.308 Y270.532
G01 X206.430 Y267.921
G01 X206.529 Y266.818
G01 X206.409 Y264.448
G01 X206.415 Y262.108
G01 X206.529 Y260.000
G01 X206.325 Y262.332
G01 X206.246 Y264.708
G01 X206.298 Y267.120
G01 X206.482 Y269.562
G01 X206.529 Y270.000
G01 X209.343 Y271.182
G01 X212.164 Y272.137
G01 X214.976 Y272.870
G01 X216.040 Y273.090
G01 X218.577 Y269.180
G01 X221.408 Y265.581
G01 X221.917 Y265.000
G01 X220.832 Y263.785
G01 X219.799 Y262.499
G01 X218.823 Y261.145
G01 X217.908 Y259.725
G01 X217.215 Y258.528
G01 X216.138 Y257.054
G01 X216.040 Y256.910
G01 X206.529 Y260.000
G01 X220.571 Y255.265
G01 X223.821 Y254.382
G01 X230.079 Y252.336
G01 X230.305 Y252.275
G01 X223.274 Y254.425
G01 X220.795 Y255.365
G01 X220.625 Y256.901
G01 X220.537 Y258.467
G01 X220.533 Y260.058
G01 X220.615 Y261.669
G01 X220.786 Y263.296
G01 X220.795 Y263.365
G01 X220.788 Y265.143
G01 X220.795 Y265.365
G01 X222.608 Y266.175
G01 X224.427 Y266.845
G01 X226.244 Y267.378
G01 X228.049 Y267.775
G01 X228.403 Y267.837
G01 X229.896 Y268.336
G01 X230.305 Y268.455
G01 X232.750 Y264.642
G01 X235.514 Y261.121
G01 X236.183 Y260.365
G01 X235.579 Y259.750
G01 X235.003 Y259.101
G01 X234.455 Y258.418
G01 X233.939 Y257.704
G01 X233.456 Y256.959
G01 X233.007 Y256.185
G01 X232.657 Y255.511
G01 X232.006 Y254.759
G01 X231.389 Y253.957
G01 X230.808 Y253.105
G01 X230.305 Y252.275
G01 X230.764 Y253.185
G01 X231.264 Y254.055
G01 X231.802 Y254.885
G01 X232.376 Y255.671
G01 X232.982 Y256.414
G01 X233.618 Y257.111
G01 X234.281 Y257.761
G01 X234.313 Y257.791
G01 X234.693 Y258.563
G01 X235.112 Y259.316
G01 X235.567 Y260.049
G01 X236.058 Y260.760
G01 X236.585 Y261.447
G01 X237.145 Y262.107
G01 X237.738 Y262.741
G01 X238.321 Y263.307
G01 X238.748 Y264.166
G01 X239.231 Y265.015
G01 X239.772 Y265.849
G01 X240.369 Y266.666
G01 X241.021 Y267.462
G01 X241.730 Y268.233
G01 X242.328 Y268.823
G01 X242.998 Y269.925
G01 X243.758 Y271.006
G01 X244.608 Y272.058
G01 X245.000 Y272.500
G01 X242.936 Y275.750
G01 X240.542 Y278.844
G01 X239.656 Y279.855
G01 X235.466 Y286.114
G01 X231.641 Y290.887
G01 X230.305 Y292.725
G01 X227.034 Y294.005
G01 X223.592 Y295.060
G01 X221.659 Y295.535
G01 X217.279 Y297.237
G01 X212.668 Y298.612
G01 X210.852 Y299.046
G01 X206.529 Y300.451
G01 X206.302 Y306.057
G01 X206.528 Y311.798
G01 X206.529 Y311.814
G01 X206.268 Y319.166
G01 X206.529 Y325.451
G01 X210.536 Y327.000
G01 X214.590 Y328.338
G01 X218.680 Y329.465
G01 X219.498 Y329.665
G01 X223.424 Y331.126
G01 X227.420 Y332.393
G01 X230.305 Y333.176
G01 X235.903 Y325.993
G01 X239.656 Y320.306
G01 X243.682 Y314.942
G01 X245.000 Y312.951
G01 X242.297 Y309.688
G01 X239.901 Y306.319
G01 X238.321 Y303.757
G01 X236.215 Y301.197
G01 X234.331 Y298.564
G01 X232.977 Y296.403
G01 X231.288 Y294.172
G01 X230.305 Y292.725
G01 X227.012 Y294.046
G01 X223.545 Y295.141
G01 X220.795 Y295.816
G01 X220.612 Y301.517
G01 X220.795 Y305.816
G01 X223.683 Y306.934
G01 X226.610 Y307.905
G01 X229.569 Y308.726
G01 X230.305 Y308.906
G01 X235.412 Y301.989
G01 X236.183 Y300.816
G01 X234.219 Y298.502
G01 X232.447 Y296.122
G01 X230.869 Y293.688
G01 X230.305 Y292.725
G01 X231.820 Y295.145
G01 X233.525 Y297.515
G01 X235.421 Y299.822
G01 X235.649 Y300.080
G01 X237.553 Y303.163
G01 X239.725 Y306.173
G01 X242.165 Y309.092
G01 X242.328 Y309.274
G01 X244.979 Y312.924
G01 X245.000 Y312.951
G01 X242.307 Y309.612
G01 X239.928 Y306.168
G01 X239.122 Y304.861
G01 X235.984 Y306.100
G01 X232.699 Y307.158
G01 X229.612 Y307.951
G01 X229.612 Y317.951
G01 X232.892 Y319.185
G01 X236.245 Y320.261
G01 X239.122 Y321.041
G01 X243.226 Y315.631
G01 X245.000 Y312.951
G01 X241.125 Y318.772
G01 X236.985 Y323.983
G01 X231.442 Y331.751
G01 X230.305 Y333.176
G01 X236.028 Y325.321
G01 X236.183 Y325.086
G01 X233.220 Y321.322
G01 X230.592 Y317.455
G01 X230.305 Y316.996
G01 X226.138 Y318.544
G01 X221.774 Y319.838
G01 X220.795 Y320.086
G01 X220.795 Y330.086
G01 X224.731 Y331.515
G01 X228.737 Y332.751
G01 X230.305 Y333.176
G01 X226.250 Y332.102
G01 X222.252 Y330.831
G01 X218.322 Y329.365
G01 X217.336 Y328.962
G01 X213.240 Y327.818
G01 X209.178 Y326.460
G01 X206.529 Y325.451
G01 X210.578 Y326.918
G01 X214.666 Y328.170
G01 X216.040 Y328.541
G01 X221.917 Y320.451
G01 X219.320 Y317.180
G01 X216.974 Y313.828
G01 X216.040 Y312.361
G01 X210.813 Y314.237
G01 X206.529 Y315.451
G01 X206.432 Y323.147
G01 X206.529 Y325.451
G01 X206.268 Y317.961
G01 X206.529 Y311.814
G01 X206.302 Y306.073
G01 X206.528 Y300.467
G01 X206.529 Y300.451
G01 X206.354 Y305.991
G01 X206.529 Y310.451
G01 X210.032 Y311.762
G01 X213.559 Y312.876
G01 X216.040 Y313.541
G01 X221.917 Y305.451
G01 X219.845 Y302.927
G01 X217.951 Y300.336
G01 X216.238 Y297.689
G01 X216.040 Y297.361
G01 X210.908 Y299.224
G01 X206.529 Y300.451
G01 X211.807 Y298.995
G01 X216.830 Y297.152
G01 X217.336 Y296.939
G01 X221.253 Y295.969
G01 X224.992 Y294.733
G01 X228.144 Y293.428
G01 X230.305 Y292.725
G01 X231.820 Y295.145
G01 X233.525 Y297.515
G01 X235.421 Y299.822
G01 X235.649 Y300.080
G01 X237.553 Y303.163
G01 X239.725 Y306.173
G01 X242.165 Y309.092
G01 X242.328 Y309.274
G01 X244.979 Y312.924
G01 X245.000 Y312.951
G01 X245.000 Y337.951
G01 X249.310 Y339.606
G01 X253.770 Y341.046
G01 X257.969 Y342.165
G01 X262.789 Y343.921
G01 X267.800 Y345.421
G01 X268.776 Y345.676
G01 X272.536 Y340.956
G01 X275.879 Y336.106
G01 X276.792 Y334.644
G01 X279.952 Y330.640
G01 X282.785 Y326.536
G01 X283.471 Y325.451
G01 X274.405 Y313.213
G01 X272.784 Y310.741
G01 X268.776 Y305.225
G01 X266.110 Y306.311
G01 X263.382 Y307.268
G01 X260.599 Y308.093
G01 X257.969 Y308.737
G01 X255.148 Y309.881
G01 X252.234 Y310.887
G01 X249.233 Y311.750
G01 X247.161 Y312.249
G01 X245.000 Y312.951
G01 X245.000 Y322.951
G01 X248.563 Y324.282
G01 X252.244 Y325.436
G01 X254.511 Y326.041
G01 X257.810 Y321.804
G01 X260.388 Y317.951
G01 X256.469 Y312.819
G01 X254.511 Y309.861
G01 X251.594 Y311.001
G01 X248.576 Y311.996
G01 X245.464 Y312.840
G01 X245.000 Y312.951
G01 X248.124 Y312.169
G01 X251.158 Y311.234
G01 X254.097 Y310.153
G01 X255.807 Y309.439
G01 X258.665 Y308.733
G01 X261.468 Y307.890
G01 X264.209 Y306.914
G01 X266.615 Y305.928
G01 X268.776 Y305.225
G01 X266.101 Y306.279
G01 X263.367 Y307.203
G01 X260.581 Y307.993
G01 X259.266 Y308.316
G01 X259.266 Y318.316
G01 X262.966 Y319.709
G01 X266.824 Y320.899
G01 X268.776 Y321.406
G01 X271.495 Y317.986
G01 X273.924 Y314.476
G01 X274.654 Y313.316
G01 X268.776 Y305.225
G01 X275.796 Y315.186
G01 X278.128 Y318.096
G01 X283.471 Y325.451
G01 X277.593 Y317.361
G01 X274.248 Y318.614
G01 X270.846 Y319.701
G01 X268.083 Y320.451
G01 X268.083 Y330.451
G01 X272.747 Y332.134
G01 X277.593 Y333.541
G01 X280.684 Y329.558
G01 X283.453 Y325.480
G01 X283.471 Y325.451
G01 X280.753 Y329.657
G01 X277.701 Y333.772
G01 X275.456 Y336.483
G01 X272.098 Y341.420
G01 X268.776 Y345.676
G01 X272.495 Y340.790
G01 X274.654 Y337.586
G01 X268.776 Y329.496
G01 X264.959 Y330.892
G01 X261.049 Y332.104
G01 X259.266 Y332.586
G01 X259.266 Y342.586
G01 X264.142 Y344.318
G01 X268.776 Y345.676
G01 X263.741 Y344.301
G01 X258.887 Y342.667
G01 X255.807 Y341.462
G01 X251.292 Y340.186
G01 X246.915 Y338.690
G01 X245.000 Y337.951
G01 X249.311 Y339.503
G01 X253.762 Y340.841
G01 X254.511 Y341.041
G01 X258.486 Y335.796
G01 X260.388 Y332.951
G01 X255.811 Y326.823
G01 X254.511 Y324.861
G01 X250.846 Y326.222
G01 X247.058 Y327.402
G01 X245.000 Y327.951
G01 X245.000 Y337.951
G01 X245.000 Y312.951
G01 X248.124 Y312.169
G01 X251.158 Y311.234
G01 X254.097 Y310.153
G01 X255.807 Y309.439
G01 X258.665 Y308.733
G01 X261.468 Y307.890
G01 X264.209 Y306.914
G01 X266.615 Y305.928
G01 X268.776 Y305.225
G01 X272.431 Y306.682
G01 X276.271 Y307.908
G01 X279.584 Y308.737
G01 X284.304 Y310.520
G01 X289.266 Y311.974
G01 X290.391 Y312.249
G01 X292.553 Y312.951
G01 X294.972 Y309.962
G01 X297.202 Y306.890
G01 X299.232 Y303.757
G01 X301.499 Y300.969
G01 X303.612 Y298.088
G01 X305.566 Y295.123
G01 X305.912 Y294.564
G01 X307.247 Y292.725
G01 X301.983 Y284.961
G01 X297.896 Y279.855
G01 X294.289 Y274.675
G01 X292.553 Y272.500
G01 X289.810 Y273.619
G01 X287.063 Y274.525
G01 X284.327 Y275.220
G01 X283.907 Y275.309
G01 X281.760 Y276.229
G01 X279.607 Y277.001
G01 X277.457 Y277.626
G01 X275.318 Y278.108
G01 X275.261 Y278.118
G01 X273.461 Y278.845
G01 X271.651 Y279.463
G01 X269.838 Y279.975
G01 X268.776 Y280.225
G01 X268.996 Y284.217
G01 X268.864 Y288.296
G01 X268.776 Y289.316
G01 X269.013 Y295.418
G01 X268.776 Y300.680
G01 X268.776 Y305.225
G01 X272.409 Y306.626
G01 X276.222 Y307.798
G01 X278.287 Y308.316
G01 X280.456 Y305.654
G01 X282.434 Y302.924
G01 X284.165 Y300.225
G01 X278.287 Y292.135
G01 X275.957 Y293.094
G01 X273.602 Y293.926
G01 X271.228 Y294.632
G01 X268.843 Y295.211
G01 X268.776 Y295.225
G01 X268.894 Y302.668
G01 X268.776 Y305.225
G01 X269.083 Y298.221
G01 X268.776 Y291.589
G01 X268.980 Y287.073
G01 X268.790 Y282.646
G01 X268.776 Y282.498
G01 X268.776 Y280.225
G01 X269.032 Y284.283
G01 X268.931 Y288.432
G01 X268.776 Y290.225
G01 X271.914 Y291.503
G01 X275.220 Y292.565
G01 X278.287 Y293.316
G01 X279.978 Y291.323
G01 X281.542 Y289.271
G01 X282.979 Y287.166
G01 X284.165 Y285.225
G01 X278.287 Y277.135
G01 X276.392 Y277.931
G01 X274.489 Y278.607
G01 X272.584 Y279.165
G01 X270.685 Y279.606
G01 X270.679 Y279.607
G01 X268.943 Y280.176
G01 X268.776 Y280.225
G01 X270.625 Y279.829
G01 X272.479 Y279.323
G01 X274.333 Y278.706
G01 X276.178 Y277.976
G01 X277.422 Y277.416
G01 X279.687 Y276.901
G01 X281.965 Y276.227
G01 X284.246 Y275.393
G01 X286.068 Y274.607
G01 X288.899 Y273.829
G01 X291.736 Y272.829
G01 X292.553 Y272.500
G01 X289.846 Y273.640
G01 X287.134 Y274.572
G01 X284.430 Y275.296
G01 X283.042 Y275.590
G01 X283.291 Y278.503
G01 X283.329 Y281.498
G01 X283.151 Y284.562
G01 X283.042 Y285.590
G01 X288.455 Y287.544
G01 X292.553 Y288.680
G01 X294.351 Y286.506
G01 X296.038 Y284.248
G01 X297.611 Y281.913
G01 X298.431 Y280.590
G01 X294.794 Y275.307
G01 X292.553 Y272.500
G01 X296.536 Y277.609
G01 X299.232 Y281.693
G01 X305.052 Y289.390
G01 X307.247 Y292.725
G01 X301.370 Y284.635
G01 X298.038 Y285.939
G01 X294.706 Y287.003
G01 X291.859 Y287.725
G01 X292.074 Y291.838
G01 X291.981 Y296.058
G01 X291.859 Y297.725
G01 X298.381 Y299.985
G01 X301.370 Y300.816
G01 X303.584 Y298.039
G01 X305.651 Y295.169
G01 X307.247 Y292.725
G01 X305.333 Y295.690
G01 X303.264 Y298.569
G01 X301.046 Y301.354
G01 X300.568 Y301.919
G01 X298.560 Y305.018
G01 X296.369 Y308.044
G01 X293.996 Y310.986
G01 X293.889 Y311.112
G01 X292.553 Y312.951
G01 X294.949 Y309.932
G01 X297.153 Y306.832
G01 X298.431 Y304.861
G01 X292.553 Y296.771
G01 X289.510 Y297.956
G01 X286.454 Y298.958
G01 X283.397 Y299.777
G01 X283.042 Y299.861
G01 X283.210 Y305.888
G01 X283.042 Y309.861
G01 X288.120 Y311.696
G01 X292.553 Y312.951
G01 X287.305 Y311.489
G01 X282.308 Y309.672
G01 X281.745 Y309.439
G01 X277.575 Y308.354
G01 X273.591 Y307.008
G01 X270.938 Y305.928
G01 X268.776 Y305.225
G01 X269.083 Y298.221
G01 X268.776 Y291.589
G01 X268.980 Y287.073
G01 X268.790 Y282.646
G01 X268.776 Y282.498
G01 X268.776 Y280.225
G01 X269.981 Y278.898
G01 X271.102 Y277.526
G01 X272.137 Y276.115
G01 X273.085 Y274.670
G01 X273.945 Y273.195
G01 X274.120 Y272.871
G01 X275.221 Y271.667
G01 X276.262 Y270.410
G01 X277.241 Y269.103
G01 X278.155 Y267.749
G01 X279.001 Y266.351
G01 X279.463 Y265.516
G01 X280.563 Y264.226
G01 X281.607 Y262.864
G01 X282.589 Y261.435
G01 X283.471 Y260.000
G01 X282.166 Y257.914
G01 X280.741 Y255.981
G01 X279.463 Y254.484
G01 X278.545 Y252.920
G01 X277.547 Y251.457
G01 X276.477 Y250.100
G01 X275.456 Y248.968
G01 X274.791 Y247.773
G01 X274.072 Y246.640
G01 X273.303 Y245.572
G01 X272.489 Y244.571
G01 X271.633 Y243.639
G01 X271.448 Y243.452
G01 X270.862 Y242.493
G01 X270.235 Y241.576
G01 X269.568 Y240.702
G01 X268.865 Y239.873
G01 X268.776 Y239.775
G01 X265.477 Y240.559
G01 X262.306 Y241.638
G01 X260.130 Y242.584
G01 X258.817 Y242.855
G01 X257.557 Y243.236
G01 X256.358 Y243.721
G01 X255.807 Y243.988
G01 X255.133 Y244.137
G01 X254.487 Y244.335
G01 X253.875 Y244.582
G01 X253.646 Y244.691
G01 X253.239 Y244.749
G01 X252.847 Y244.833
G01 X252.471 Y244.943
G01 X252.113 Y245.077
G01 X251.774 Y245.233
G01 X251.484 Y245.393
G01 X251.234 Y245.412
G01 X250.988 Y245.444
G01 X250.749 Y245.489
G01 X250.516 Y245.546
G01 X250.291 Y245.615
G01 X250.074 Y245.695
G01 X249.866 Y245.786
G01 X249.666 Y245.886
G01 X249.476 Y245.996
G01 X249.323 Y246.095
G01 X249.126 Y246.106
G01 X248.929 Y246.126
G01 X248.731 Y246.157
G01 X248.534 Y246.198
G01 X248.338 Y246.249
G01 X248.143 Y246.310
G01 X247.950 Y246.381
G01 X247.760 Y246.462
G01 X247.573 Y246.553
G01 X247.390 Y246.654
G01 X247.210 Y246.765
G01 X247.161 Y246.798
G01 X246.890 Y246.820
G01 X246.614 Y246.862
G01 X246.335 Y246.924
G01 X246.054 Y247.006
G01 X245.773 Y247.108
G01 X245.493 Y247.230
G01 X245.215 Y247.374
G01 X245.000 Y247.500
G01 X244.946 Y247.776
G01 X244.907 Y248.051
G01 X244.883 Y248.325
G01 X244.873 Y248.596
G01 X244.878 Y248.864
G01 X244.896 Y249.128
G01 X244.927 Y249.388
G01 X244.972 Y249.643
G01 X245.000 Y249.773
G01 X244.950 Y250.019
G01 X244.912 Y250.269
G01 X244.887 Y250.523
G01 X244.874 Y250.780
G01 X244.874 Y251.039
G01 X244.888 Y251.300
G01 X244.915 Y251.563
G01 X244.956 Y251.826
G01 X245.000 Y252.045
G01 X244.941 Y252.366
G01 X244.902 Y252.696
G01 X244.884 Y253.036
G01 X244.887 Y253.384
G01 X244.912 Y253.739
G01 X244.960 Y254.100
G01 X245.000 Y254.318
G01 X244.935 Y254.828
G01 X244.909 Y255.353
G01 X244.923 Y255.893
G01 X244.978 Y256.443
G01 X245.000 Y256.591
G01 X244.849 Y257.531
G01 X244.779 Y258.499
G01 X244.794 Y259.491
G01 X244.893 Y260.500
G01 X245.000 Y261.136
G01 X244.788 Y263.323
G01 X244.780 Y265.552
G01 X244.980 Y267.809
G01 X245.000 Y267.955
G01 X244.984 Y272.168
G01 X245.000 Y272.500
G01 X246.062 Y272.996
G01 X247.162 Y273.442
G01 X248.295 Y273.834
G01 X249.460 Y274.171
G01 X250.655 Y274.450
G01 X251.484 Y274.607
G01 X252.765 Y275.190
G01 X254.107 Y275.705
G01 X255.505 Y276.147
G01 X256.956 Y276.512
G01 X257.969 Y276.714
G01 X259.677 Y277.446
G01 X261.476 Y278.071
G01 X263.358 Y278.584
G01 X264.453 Y278.821
G01 X266.736 Y279.646
G01 X268.776 Y280.225
G01 X269.964 Y278.874
G01 X271.065 Y277.479
G01 X272.079 Y276.046
G01 X273.003 Y274.582
G01 X273.479 Y273.753
G01 X274.455 Y272.425
G01 X274.654 Y272.135
G01 X271.583 Y267.544
G01 X268.776 Y264.045
G01 X267.614 Y264.577
G01 X266.446 Y265.029
G01 X265.276 Y265.402
G01 X264.111 Y265.698
G01 X263.070 Y265.899
G01 X262.107 Y266.296
G01 X261.136 Y266.636
G01 X260.161 Y266.922
G01 X259.266 Y267.135
G01 X259.501 Y269.839
G01 X259.491 Y272.603
G01 X259.266 Y275.135
G01 X259.266 Y277.135
G01 X261.104 Y277.953
G01 X263.044 Y278.652
G01 X265.078 Y279.225
G01 X266.874 Y279.607
G01 X268.776 Y280.225
G01 X266.459 Y279.649
G01 X264.246 Y278.922
G01 X262.292 Y278.118
G01 X260.532 Y277.725
G01 X258.841 Y277.230
G01 X257.225 Y276.637
G01 X255.807 Y276.012
G01 X254.432 Y275.731
G01 X253.099 Y275.380
G01 X251.810 Y274.961
G01 X250.571 Y274.478
G01 X249.383 Y273.934
G01 X249.323 Y273.905
G01 X248.168 Y273.620
G01 X247.039 Y273.280
G01 X245.940 Y272.887
G01 X245.000 Y272.500
G01 X246.066 Y272.975
G01 X247.167 Y273.399
G01 X248.300 Y273.770
G01 X249.462 Y274.086
G01 X250.652 Y274.344
G01 X250.706 Y274.354
G01 X251.943 Y274.835
G01 X253.229 Y275.252
G01 X254.511 Y275.590
G01 X255.552 Y274.420
G01 X256.490 Y273.212
G01 X257.324 Y271.972
G01 X258.037 Y270.736
G01 X258.818 Y269.807
G01 X259.527 Y268.852
G01 X260.165 Y267.876
G01 X260.388 Y267.500
G01 X256.952 Y263.140
G01 X254.511 Y259.410
G01 X254.055 Y259.648
G01 X253.587 Y259.863
G01 X253.108 Y260.056
G01 X252.618 Y260.226
G01 X252.119 Y260.372
G01 X251.612 Y260.493
G01 X251.099 Y260.590
G01 X250.706 Y260.646
G01 X250.187 Y260.914
G01 X249.644 Y261.156
G01 X249.077 Y261.370
G01 X248.488 Y261.555
G01 X247.879 Y261.709
G01 X247.252 Y261.830
G01 X246.902 Y261.882
G01 X246.184 Y262.158
G01 X245.432 Y262.390
G01 X245.000 Y262.500
G01 X244.756 Y265.240
G01 X244.771 Y268.028
G01 X245.000 Y270.500
G01 X245.000 Y272.500
G01 X244.723 Y269.235
G01 X244.752 Y266.005
G01 X245.000 Y263.409
G01 X244.860 Y261.958
G01 X244.848 Y260.528
G01 X244.964 Y259.128
G01 X245.000 Y258.864
G01 X244.939 Y258.024
G01 X244.948 Y257.201
G01 X245.000 Y256.591
G01 X244.934 Y256.038
G01 X244.909 Y255.496
G01 X244.924 Y254.967
G01 X244.979 Y254.452
G01 X245.000 Y254.318
G01 X244.938 Y253.955
G01 X244.899 Y253.597
G01 X244.883 Y253.245
G01 X244.888 Y252.900
G01 X244.915 Y252.563
G01 X244.962 Y252.237
G01 X245.000 Y252.045
G01 X244.948 Y251.783
G01 X244.910 Y251.520
G01 X244.885 Y251.257
G01 X244.873 Y250.996
G01 X244.875 Y250.737
G01 X244.890 Y250.481
G01 X244.917 Y250.227
G01 X244.957 Y249.978
G01 X245.000 Y249.773
G01 X244.949 Y249.521
G01 X244.910 Y249.264
G01 X244.885 Y249.002
G01 X244.874 Y248.736
G01 X244.876 Y248.466
G01 X244.893 Y248.194
G01 X244.924 Y247.919
G01 X244.970 Y247.644
G01 X245.000 Y247.500
G01 X244.953 Y247.779
G01 X244.921 Y248.057
G01 X244.905 Y248.332
G01 X244.902 Y248.604
G01 X244.915 Y248.872
G01 X244.940 Y249.136
G01 X244.980 Y249.394
G01 X245.000 Y249.500
G01 X244.957 Y249.745
G01 X244.926 Y249.992
G01 X244.907 Y250.243
G01 X244.901 Y250.495
G01 X244.907 Y250.748
G01 X244.926 Y251.001
G01 X244.957 Y251.255
G01 X245.000 Y251.500
G01 X244.952 Y251.789
G01 X244.920 Y252.086
G01 X244.905 Y252.390
G01 X244.909 Y252.701
G01 X244.931 Y253.017
G01 X244.972 Y253.337
G01 X245.000 Y253.500
G01 X244.874 Y253.977
G01 X244.784 Y254.473
G01 X244.731 Y254.988
G01 X244.717 Y255.518
G01 X244.742 Y256.060
G01 X244.809 Y256.613
G01 X244.917 Y257.173
G01 X245.000 Y257.500
G01 X245.385 Y257.718
G01 X245.779 Y257.916
G01 X246.182 Y258.095
G01 X246.592 Y258.252
G01 X247.008 Y258.390
G01 X247.429 Y258.506
G01 X247.855 Y258.601
G01 X248.284 Y258.675
G01 X248.715 Y258.728
G01 X248.804 Y258.736
G01 X249.218 Y258.970
G01 X249.652 Y259.184
G01 X250.105 Y259.377
G01 X250.577 Y259.547
G01 X251.065 Y259.693
G01 X251.568 Y259.813
G01 X252.086 Y259.907
G01 X252.608 Y259.972
G01 X253.215 Y260.216
G01 X253.852 Y260.423
G01 X254.511 Y260.590
G01 X254.935 Y260.172
G01 X255.330 Y259.738
G01 X255.695 Y259.290
G01 X256.028 Y258.830
G01 X256.330 Y258.360
G01 X256.601 Y257.883
G01 X256.841 Y257.399
G01 X256.862 Y257.354
G01 X257.217 Y257.011
G01 X257.556 Y256.652
G01 X257.876 Y256.275
G01 X258.178 Y255.884
G01 X258.460 Y255.478
G01 X258.722 Y255.058
G01 X258.963 Y254.626
G01 X259.183 Y254.182
G01 X259.213 Y254.118
G01 X259.551 Y253.718
G01 X259.872 Y253.295
G01 X260.174 Y252.850
G01 X260.388 Y252.500
G01 X260.114 Y251.914
G01 X259.807 Y251.362
G01 X259.472 Y250.844
G01 X259.110 Y250.363
G01 X258.725 Y249.919
G01 X258.320 Y249.514
G01 X258.037 Y249.264
G01 X257.885 Y248.885
G01 X257.715 Y248.520
G01 X257.529 Y248.169
G01 X257.327 Y247.832
G01 X257.111 Y247.511
G01 X256.880 Y247.205
G01 X256.637 Y246.916
G01 X256.383 Y246.644
G01 X256.118 Y246.390
G01 X255.844 Y246.153
G01 X255.686 Y246.028
G01 X255.518 Y245.727
G01 X255.335 Y245.434
G01 X255.135 Y245.148
G01 X254.921 Y244.871
G01 X254.691 Y244.603
G01 X254.511 Y244.410
G01 X253.999 Y244.513
G01 X253.509 Y244.652
G01 X253.043 Y244.825
G01 X252.608 Y245.028
G01 X252.284 Y245.072
G01 X251.971 Y245.136
G01 X251.669 Y245.218
G01 X251.381 Y245.318
G01 X251.106 Y245.434
G01 X250.847 Y245.565
G01 X250.706 Y245.646
G01 X250.486 Y245.667
G01 X250.270 Y245.699
G01 X250.058 Y245.742
G01 X249.851 Y245.795
G01 X249.649 Y245.859
G01 X249.453 Y245.931
G01 X249.263 Y246.013
G01 X249.080 Y246.104
G01 X248.904 Y246.202
G01 X248.804 Y246.264
G01 X248.605 Y246.281
G01 X248.405 Y246.309
G01 X248.204 Y246.348
G01 X248.003 Y246.397
G01 X247.803 Y246.458
G01 X247.604 Y246.529
G01 X247.407 Y246.612
G01 X247.212 Y246.706
G01 X247.020 Y246.811
G01 X246.902 Y246.882
G01 X246.620 Y246.916
G01 X246.333 Y246.971
G01 X246.044 Y247.046
G01 X245.754 Y247.143
G01 X245.465 Y247.262
G01 X245.177 Y247.402
G01 X245.000 Y247.500
G01 X245.276 Y247.340
G01 X245.554 Y247.201
G01 X245.835 Y247.083
G01 X246.116 Y246.986
G01 X246.397 Y246.909
G01 X246.675 Y246.851
G01 X246.950 Y246.814
G01 X247.161 Y246.798
G01 X247.340 Y246.684
G01 X247.522 Y246.580
G01 X247.708 Y246.486
G01 X247.897 Y246.402
G01 X248.089 Y246.328
G01 X248.284 Y246.265
G01 X248.479 Y246.211
G01 X248.676 Y246.167
G01 X248.874 Y246.134
G01 X249.071 Y246.111
G01 X249.268 Y246.097
G01 X249.323 Y246.095
G01 X249.504 Y245.978
G01 X249.696 Y245.870
G01 X249.897 Y245.771
G01 X250.107 Y245.682
G01 X250.325 Y245.604
G01 X250.551 Y245.536
G01 X250.785 Y245.481
G01 X251.025 Y245.438
G01 X251.271 Y245.408
G01 X251.484 Y245.393
G01 X251.804 Y245.218
G01 X252.145 Y245.064
G01 X252.504 Y244.932
G01 X252.882 Y244.825
G01 X253.276 Y244.742
G01 X253.646 Y244.691
G01 X254.342 Y244.298
G01 X255.085 Y243.962
G01 X255.869 Y243.687
G01 X256.692 Y243.476
G01 X257.549 Y243.331
G01 X257.969 Y243.286
G01 X259.960 Y242.412
G01 X262.052 Y241.721
G01 X264.231 Y241.219
G01 X264.453 Y241.179
G01 X268.760 Y239.779
G01 X268.776 Y239.775
G01 X265.236 Y240.705
G01 X261.840 Y241.954
G01 X261.168 Y242.247
G01 X259.276 Y242.861
G01 X259.266 Y242.865
G01 X259.371 Y243.490
G01 X259.438 Y244.109
G01 X259.467 Y244.718
G01 X259.460 Y245.315
G01 X259.417 Y245.898
G01 X259.341 Y246.466
G01 X259.266 Y246.865
G01 X259.355 Y247.338
G01 X259.420 Y247.813
G01 X259.461 Y248.288
G01 X259.479 Y248.762
G01 X259.472 Y249.233
G01 X259.443 Y249.700
G01 X259.391 Y250.163
G01 X259.316 Y250.620
G01 X259.266 Y250.865
G01 X259.304 Y251.332
G01 X259.319 Y251.804
G01 X259.310 Y252.281
G01 X259.276 Y252.762
G01 X259.266 Y252.865
G01 X268.776 Y255.955
G01 X269.531 Y255.154
G01 X270.250 Y254.294
G01 X270.931 Y253.375
G01 X271.570 Y252.399
G01 X272.162 Y251.369
G01 X272.303 Y251.101
G01 X273.204 Y250.005
G01 X274.050 Y248.824
G01 X274.654 Y247.865
G01 X274.000 Y246.728
G01 X273.294 Y245.651
G01 X272.542 Y244.635
G01 X271.747 Y243.682
G01 X271.128 Y243.011
G01 X270.536 Y242.069
G01 X269.903 Y241.168
G01 X269.232 Y240.309
G01 X268.776 Y239.775
G01 X269.538 Y240.572
G01 X270.266 Y241.419
G01 X270.958 Y242.316
G01 X271.609 Y243.260
G01 X272.218 Y244.250
G01 X272.780 Y245.284
G01 X272.784 Y245.291
G01 X273.721 Y246.300
G01 X274.613 Y247.390
G01 X275.452 Y248.559
G01 X276.235 Y249.804
G01 X276.792 Y250.807
G01 X278.036 Y252.225
G01 X279.203 Y253.767
G01 X280.283 Y255.428
G01 X280.799 Y256.323
G01 X282.341 Y258.312
G01 X283.471 Y260.000
G01 X282.237 Y257.931
G01 X280.884 Y256.008
G01 X279.424 Y254.238
G01 X278.769 Y253.528
G01 X277.681 Y252.022
G01 X277.593 Y251.910
G01 X275.075 Y252.977
G01 X272.524 Y253.803
G01 X269.985 Y254.382
G01 X268.253 Y254.952
G01 X268.083 Y255.000
G01 X268.220 Y256.015
G01 X268.301 Y257.055
G01 X268.323 Y258.117
G01 X268.284 Y259.198
G01 X268.181 Y260.295
G01 X268.083 Y261.000
G01 X268.169 Y262.313
G01 X268.169 Y263.661
G01 X268.083 Y265.000
G01 X272.123 Y266.589
G01 X276.354 Y267.811
G01 X277.593 Y268.090
G01 X278.687 Y266.855
G01 X279.725 Y265.556
G01 X280.704 Y264.195
G01 X281.620 Y262.775
G01 X282.295 Y261.618
G01 X283.348 Y260.179
G01 X283.471 Y260.000
G01 X282.608 Y261.513
G01 X281.678 Y262.966
G01 X280.685 Y264.356
G01 X279.633 Y265.679
G01 X278.525 Y266.935
G01 X278.128 Y267.355
G01 X277.325 Y268.771
G01 X276.451 Y270.150
G01 X275.508 Y271.489
G01 X274.496 Y272.783
G01 X273.419 Y274.029
G01 X272.784 Y274.709
G01 X271.872 Y276.191
G01 X270.870 Y277.641
G01 X269.776 Y279.055
G01 X268.776 Y280.225
G01 X266.459 Y279.649
G01 X264.246 Y278.922
G01 X262.292 Y278.118
G01 X260.532 Y277.725
G01 X258.841 Y277.230
G01 X257.225 Y276.637
G01 X255.807 Y276.012
G01 X254.432 Y275.731
G01 X253.099 Y275.380
G01 X251.810 Y274.961
G01 X250.571 Y274.478
G01 X249.383 Y273.934
G01 X249.323 Y273.905
G01 X248.168 Y273.620
G01 X247.039 Y273.280
G01 X245.940 Y272.887
G01 X245.000 Y272.500
G01 X246.062 Y272.996
G01 X247.162 Y273.442
G01 X248.295 Y273.834
G01 X249.460 Y274.171
G01 X250.655 Y274.450
G01 X251.484 Y274.607
G01 X252.765 Y275.190
G01 X254.107 Y275.705
G01 X255.505 Y276.147
G01 X256.956 Y276.512
G01 X257.969 Y276.714
G01 X259.677 Y277.446
G01 X261.476 Y278.071
G01 X263.358 Y278.584
G01 X264.453 Y278.821
G01 X266.736 Y279.646
G01 X268.776 Y280.225
G01 X269.981 Y278.898
G01 X271.102 Y277.526
G01 X272.137 Y276.115
G01 X273.085 Y274.670
G01 X273.945 Y273.195
G01 X274.120 Y272.871
G01 X275.221 Y271.667
G01 X276.262 Y270.410
G01 X277.241 Y269.103
G01 X278.155 Y267.749
G01 X279.001 Y266.351
G01 X279.463 Y265.516
G01 X280.563 Y264.226
G01 X281.607 Y262.864
G01 X282.589 Y261.435
G01 X283.471 Y260.000
G01 X282.166 Y257.914
G01 X280.741 Y255.981
G01 X279.463 Y254.484
G01 X278.545 Y252.920
G01 X277.547 Y251.457
G01 X276.477 Y250.100
G01 X275.456 Y248.968
G01 X274.791 Y247.773
G01 X274.072 Y246.640
G01 X273.303 Y245.572
G01 X272.489 Y244.571
G01 X271.633 Y243.639
G01 X271.448 Y243.452
G01 X270.862 Y242.493
G01 X270.235 Y241.576
G01 X269.568 Y240.702
G01 X268.865 Y239.873
G01 X268.776 Y239.775
G01 X265.477 Y240.559
G01 X262.306 Y241.638
G01 X260.130 Y242.584
G01 X258.817 Y242.855
G01 X257.557 Y243.236
G01 X256.358 Y243.721
G01 X255.807 Y243.988
G01 X255.133 Y244.137
G01 X254.487 Y244.335
G01 X253.875 Y244.582
G01 X253.646 Y244.691
G01 X253.239 Y244.749
G01 X252.847 Y244.833
G01 X252.471 Y244.943
G01 X252.113 Y245.077
G01 X251.774 Y245.233
G01 X251.484 Y245.393
G01 X251.234 Y245.412
G01 X250.988 Y245.444
G01 X250.749 Y245.489
G01 X250.516 Y245.546
G01 X250.291 Y245.615
G01 X250.074 Y245.695
G01 X249.866 Y245.786
G01 X249.666 Y245.886
G01 X249.476 Y245.996
G01 X249.323 Y246.095
G01 X249.126 Y246.106
G01 X248.929 Y246.126
G01 X248.731 Y246.157
G01 X248.534 Y246.198
G01 X248.338 Y246.249
G01 X248.143 Y246.310
G01 X247.950 Y246.381
G01 X247.760 Y246.462
G01 X247.573 Y246.553
G01 X247.390 Y246.654
G01 X247.210 Y246.765
G01 X247.161 Y246.798
G01 X246.890 Y246.820
G01 X246.614 Y246.862
G01 X246.335 Y246.924
G01 X246.054 Y247.006
G01 X245.773 Y247.108
G01 X245.493 Y247.230
G01 X245.215 Y247.374
G01 X245.000 Y247.500
G01 X244.946 Y247.776
G01 X244.907 Y248.051
G01 X244.883 Y248.325
G01 X244.873 Y248.596
G01 X244.878 Y248.864
G01 X244.896 Y249.128
G01 X244.927 Y249.388
G01 X244.972 Y249.643
G01 X245.000 Y249.773
G01 X244.950 Y250.019
G01 X244.912 Y250.269
G01 X244.887 Y250.523
G01 X244.874 Y250.780
G01 X244.874 Y251.039
G01 X244.888 Y251.300
G01 X244.915 Y251.563
G01 X244.956 Y251.826
G01 X245.000 Y252.045
G01 X244.941 Y252.366
G01 X244.902 Y252.696
G01 X244.884 Y253.036
G01 X244.887 Y253.384
G01 X244.912 Y253.739
G01 X244.960 Y254.100
G01 X245.000 Y254.318
G01 X244.935 Y254.828
G01 X244.909 Y255.353
G01 X244.923 Y255.893
G01 X244.978 Y256.443
G01 X245.000 Y256.591
G01 X244.849 Y257.531
G01 X244.779 Y258.499
G01 X244.794 Y259.491
G01 X244.893 Y260.500
G01 X245.000 Y261.136
G01 X244.788 Y263.323
G01 X244.780 Y265.552
G01 X244.980 Y267.809
G01 X245.000 Y267.955
G01 X244.984 Y272.168
G01 X245.000 Y272.500
G01 X246.066 Y272.975
G01 X247.167 Y273.399
G01 X248.300 Y273.770
G01 X249.462 Y274.086
G01 X250.652 Y274.344
G01 X250.706 Y274.354
G01 X251.943 Y274.835
G01 X253.229 Y275.252
G01 X254.511 Y275.590
G01 X255.552 Y274.420
G01 X256.490 Y273.212
G01 X257.324 Y271.972
G01 X258.037 Y270.736
G01 X258.818 Y269.807
G01 X259.527 Y268.852
G01 X260.165 Y267.876
G01 X260.388 Y267.500
G01 X256.952 Y263.140
G01 X254.511 Y259.410
G01 X254.055 Y259.648
G01 X253.587 Y259.863
G01 X253.108 Y260.056
G01 X252.618 Y260.226
G01 X252.119 Y260.372
G01 X251.612 Y260.493
G01 X251.099 Y260.590
G01 X250.706 Y260.646
G01 X250.187 Y260.914
G01 X249.644 Y261.156
G01 X249.077 Y261.370
G01 X248.488 Y261.555
G01 X247.879 Y261.709
G01 X247.252 Y261.830
G01 X246.902 Y261.882
G01 X246.184 Y262.158
G01 X245.432 Y262.390
G01 X245.000 Y262.500
G01 X244.756 Y265.240
G01 X244.771 Y268.028
G01 X245.000 Y270.500
G01 X245.000 Y272.500
G01 X244.723 Y269.235
G01 X244.752 Y266.005
G01 X245.000 Y263.409
G01 X244.860 Y261.958
G01 X244.848 Y260.528
G01 X244.964 Y259.128
G01 X245.000 Y258.864
G01 X244.939 Y258.024
G01 X244.948 Y257.201
G01 X245.000 Y256.591
G01 X244.934 Y256.038
G01 X244.909 Y255.496
G01 X244.924 Y254.967
G01 X244.979 Y254.452
G01 X245.000 Y254.318
G01 X244.938 Y253.955
G01 X244.899 Y253.597
G01 X244.883 Y253.245
G01 X244.888 Y252.900
G01 X244.915 Y252.563
G01 X244.962 Y252.237
G01 X245.000 Y252.045
G01 X244.948 Y251.783
G01 X244.910 Y251.520
G01 X244.885 Y251.257
G01 X244.873 Y250.996
G01 X244.875 Y250.737
G01 X244.890 Y250.481
G01 X244.917 Y250.227
G01 X244.957 Y249.978
G01 X245.000 Y249.773
G01 X244.949 Y249.521
G01 X244.910 Y249.264
G01 X244.885 Y249.002
G01 X244.874 Y248.736
G01 X244.876 Y248.466
G01 X244.893 Y248.194
G01 X244.924 Y247.919
G01 X244.970 Y247.644
G01 X245.000 Y247.500
G01 X244.953 Y247.779
G01 X244.921 Y248.057
G01 X244.905 Y248.332
G01 X244.902 Y248.604
G01 X244.915 Y248.872
G01 X244.940 Y249.136
G01 X244.980 Y249.394
G01 X245.000 Y249.500
G01 X244.957 Y249.745
G01 X244.926 Y249.992
G01 X244.907 Y250.243
G01 X244.901 Y250.495
G01 X244.907 Y250.748
G01 X244.926 Y251.001
G01 X244.957 Y251.255
G01 X245.000 Y251.500
G01 X244.952 Y251.789
G01 X244.920 Y252.086
G01 X244.905 Y252.390
G01 X244.909 Y252.701
G01 X244.931 Y253.017
G01 X244.972 Y253.337
G01 X245.000 Y253.500
G01 X244.874 Y253.977
G01 X244.784 Y254.473
G01 X244.731 Y254.988
G01 X244.717 Y255.518
G01 X244.742 Y256.060
G01 X244.809 Y256.613
G01 X244.917 Y257.173
G01 X245.000 Y257.500
G01 X245.385 Y257.718
G01 X245.779 Y257.916
G01 X246.182 Y258.095
G01 X246.592 Y258.252
G01 X247.008 Y258.390
G01 X247.429 Y258.506
G01 X247.855 Y258.601
G01 X248.284 Y258.675
G01 X248.715 Y258.728
G01 X248.804 Y258.736
G01 X249.218 Y258.970
G01 X249.652 Y259.184
G01 X250.105 Y259.377
G01 X250.577 Y259.547
G01 X251.065 Y259.693
G01 X251.568 Y259.813
G01 X252.086 Y259.907
G01 X252.608 Y259.972
G01 X253.215 Y260.216
G01 X253.852 Y260.423
G01 X254.511 Y260.590
G01 X254.935 Y260.172
G01 X255.330 Y259.738
G01 X255.695 Y259.290
G01 X256.028 Y258.830
G01 X256.330 Y258.360
G01 X256.601 Y257.883
G01 X256.841 Y257.399
G01 X256.862 Y257.354
G01 X257.217 Y257.011
G01 X257.556 Y256.652
G01 X257.876 Y256.275
G01 X258.178 Y255.884
G01 X258.460 Y255.478
G01 X258.722 Y255.058
G01 X258.963 Y254.626
G01 X259.183 Y254.182
G01 X259.213 Y254.118
G01 X259.551 Y253.718
G01 X259.872 Y253.295
G01 X260.174 Y252.850
G01 X260.388 Y252.500
G01 X260.114 Y251.914
G01 X259.807 Y251.362
G01 X259.472 Y250.844
G01 X259.110 Y250.363
G01 X258.725 Y249.919
G01 X258.320 Y249.514
G01 X258.037 Y249.264
G01 X257.885 Y248.885
G01 X257.715 Y248.520
G01 X257.529 Y248.169
G01 X257.327 Y247.832
G01 X257.111 Y247.511
G01 X256.880 Y247.205
G01 X256.637 Y246.916
G01 X256.383 Y246.644
G01 X256.118 Y246.390
G01 X255.844 Y246.153
G01 X255.686 Y246.028
G01 X255.518 Y245.727
G01 X255.335 Y245.434
G01 X255.135 Y245.148
G01 X254.921 Y244.871
G01 X254.691 Y244.603
G01 X254.511 Y244.410
G01 X253.999 Y244.513
G01 X253.509 Y244.652
G01 X253.043 Y244.825
G01 X252.608 Y245.028
G01 X252.284 Y245.072
G01 X251.971 Y245.136
G01 X251.669 Y245.218
G01 X251.381 Y245.318
G01 X251.106 Y245.434
G01 X250.847 Y245.565
G01 X250.706 Y245.646
G01 X250.486 Y245.667
G01 X250.270 Y245.699
G01 X250.058 Y245.742
G01 X249.851 Y245.795
G01 X249.649 Y245.859
G01 X249.453 Y245.931
G01 X249.263 Y246.013
G01 X249.080 Y246.104
G01 X248.904 Y246.202
G01 X248.804 Y246.264
G01 X248.605 Y246.281
G01 X248.405 Y246.309
G01 X248.204 Y246.348
G01 X248.003 Y246.397
G01 X247.803 Y246.458
G01 X247.604 Y246.529
G01 X247.407 Y246.612
G01 X247.212 Y246.706
G01 X247.020 Y246.811
G01 X246.902 Y246.882
G01 X246.620 Y246.916
G01 X246.333 Y246.971
G01 X246.044 Y247.046
G01 X245.754 Y247.143
G01 X245.465 Y247.262
G01 X245.177 Y247.402
G01 X245.000 Y247.500
G01 X245.276 Y247.340
G01 X245.554 Y247.201
G01 X245.835 Y247.083
G01 X246.116 Y246.986
G01 X246.397 Y246.909
G01 X246.675 Y246.851
G01 X246.950 Y246.814
G01 X247.161 Y246.798
G01 X247.340 Y246.684
G01 X247.522 Y246.580
G01 X247.708 Y246.486
G01 X247.897 Y246.402
G01 X248.089 Y246.328
G01 X248.284 Y246.265
G01 X248.479 Y246.211
G01 X248.676 Y246.167
G01 X248.874 Y246.134
G01 X249.071 Y246.111
G01 X249.268 Y246.097
G01 X249.323 Y246.095
G01 X249.504 Y245.978
G01 X249.696 Y245.870
G01 X249.897 Y245.771
G01 X250.107 Y245.682
G01 X250.325 Y245.604
G01 X250.551 Y245.536
G01 X250.785 Y245.481
G01 X251.025 Y245.438
G01 X251.271 Y245.408
G01 X251.484 Y245.393
G01 X251.804 Y245.218
G01 X252.145 Y245.064
G01 X252.504 Y244.932
G01 X252.882 Y244.825
G01 X253.276 Y244.742
G01 X253.646 Y244.691
G01 X254.342 Y244.298
G01 X255.085 Y243.962
G01 X255.869 Y243.687
G01 X256.692 Y243.476
G01 X257.549 Y243.331
G01 X257.969 Y243.286
G01 X259.960 Y242.412
G01 X262.052 Y241.721
G01 X264.231 Y241.219
G01 X264.453 Y241.179
G01 X268.760 Y239.779
G01 X268.776 Y239.775
G01 X265.236 Y240.705
G01 X261.840 Y241.954
G01 X261.168 Y242.247
G01 X259.276 Y242.861
G01 X259.266 Y242.865
G01 X259.371 Y243.490
G01 X259.438 Y244.109
G01 X259.467 Y244.718
G01 X259.460 Y245.315
G01 X259.417 Y245.898
G01 X259.341 Y246.466
G01 X259.266 Y246.865
G01 X259.355 Y247.338
G01 X259.420 Y247.813
G01 X259.461 Y248.288
G01 X259.479 Y248.762
G01 X259.472 Y249.233
G01 X259.443 Y249.700
G01 X259.391 Y250.163
G01 X259.316 Y250.620
G01 X259.266 Y250.865
G01 X259.304 Y251.332
G01 X259.319 Y251.804
G01 X259.310 Y252.281
G01 X259.276 Y252.762
G01 X259.266 Y252.865
G01 X268.776 Y255.955
G01 X269.531 Y255.154
G01 X270.250 Y254.294
G01 X270.931 Y253.375
G01 X271.570 Y252.399
G01 X272.162 Y251.369
G01 X272.303 Y251.101
G01 X273.204 Y250.005
G01 X274.050 Y248.824
G01 X274.654 Y247.865
G01 X274.000 Y246.728
G01 X273.294 Y245.651
G01 X272.542 Y244.635
G01 X271.747 Y243.682
G01 X271.128 Y243.011
G01 X270.536 Y242.069
G01 X269.903 Y241.168
G01 X269.232 Y240.309
G01 X268.776 Y239.775
G01 X269.538 Y240.572
G01 X270.266 Y241.419
G01 X270.958 Y242.316
G01 X271.609 Y243.260
G01 X272.218 Y244.250
G01 X272.780 Y245.284
G01 X272.784 Y245.291
G01 X273.721 Y246.300
G01 X274.613 Y247.390
G01 X275.452 Y248.559
G01 X276.235 Y249.804
G01 X276.792 Y250.807
G01 X278.036 Y252.225
G01 X279.203 Y253.767
G01 X280.283 Y255.428
G01 X280.799 Y256.323
G01 X282.341 Y258.312
G01 X283.471 Y260.000
G01 X282.237 Y257.931
G01 X280.884 Y256.008
G01 X279.424 Y254.238
G01 X278.769 Y253.528
G01 X277.681 Y252.022
G01 X277.593 Y251.910
G01 X275.075 Y252.977
G01 X272.524 Y253.803
G01 X269.985 Y254.382
G01 X268.253 Y254.952
G01 X268.083 Y255.000
G01 X268.220 Y256.015
G01 X268.301 Y257.055
G01 X268.323 Y258.117
G01 X268.284 Y259.198
G01 X268.181 Y260.295
G01 X268.083 Y261.000
G01 X268.169 Y262.313
G01 X268.169 Y263.661
G01 X268.083 Y265.000
G01 X272.123 Y266.589
G01 X276.354 Y267.811
G01 X277.593 Y268.090
G01 X278.687 Y266.855
G01 X279.725 Y265.556
G01 X280.704 Y264.195
G01 X281.620 Y262.775
G01 X282.295 Y261.618
G01 X283.348 Y260.179
G01 X283.471 Y260.000
G01 X282.608 Y261.513
G01 X281.678 Y262.966
G01 X280.685 Y264.356
G01 X279.633 Y265.679
G01 X278.525 Y266.935
G01 X278.128 Y267.355
G01 X277.325 Y268.771
G01 X276.451 Y270.150
G01 X275.508 Y271.489
G01 X274.496 Y272.783
G01 X273.419 Y274.029
G01 X272.784 Y274.709
G01 X271.872 Y276.191
G01 X270.870 Y277.641
G01 X269.776 Y279.055
G01 X268.776 Y280.225
G01 X269.964 Y278.874
G01 X271.065 Y277.479
G01 X272.079 Y276.046
G01 X273.003 Y274.582
G01 X273.479 Y273.753
G01 X274.455 Y272.425
G01 X274.654 Y272.135
G01 X271.583 Y267.544
G01 X268.776 Y264.045
G01 X267.614 Y264.577
G01 X266.446 Y265.029
G01 X265.276 Y265.402
G01 X264.111 Y265.698
G01 X263.070 Y265.899
G01 X262.107 Y266.296
G01 X261.136 Y266.636
G01 X260.161 Y266.922
G01 X259.266 Y267.135
G01 X259.501 Y269.839
G01 X259.491 Y272.603
G01 X259.266 Y275.135
G01 X259.266 Y277.135
G01 X261.104 Y277.953
G01 X263.044 Y278.652
G01 X265.078 Y279.225
G01 X266.874 Y279.607
G01 X268.776 Y280.225
G01 X266.459 Y279.649
G01 X264.246 Y278.922
G01 X262.292 Y278.118
G01 X260.532 Y277.725
G01 X258.841 Y277.230
G01 X257.225 Y276.637
G01 X255.807 Y276.012
G01 X254.432 Y275.731
G01 X253.099 Y275.380
G01 X251.810 Y274.961
G01 X250.571 Y274.478
G01 X249.383 Y273.934
G01 X249.323 Y273.905
G01 X248.168 Y273.620
G01 X247.039 Y273.280
G01 X245.940 Y272.887
G01 X245.000 Y272.500
G01 X244.723 Y269.235
G01 X244.752 Y266.005
G01 X245.000 Y263.409
G01 X244.860 Y261.958
G01 X244.848 Y260.528
G01 X244.964 Y259.128
G01 X245.000 Y258.864
G01 X244.939 Y258.024
G01 X244.948 Y257.201
G01 X245.000 Y256.591
G01 X244.934 Y256.038
G01 X244.909 Y255.496
G01 X244.924 Y254.967
G01 X244.979 Y254.452
G01 X245.000 Y254.318
G01 X244.938 Y253.955
G01 X244.899 Y253.597
G01 X244.883 Y253.245
G01 X244.888 Y252.900
G01 X244.915 Y252.563
G01 X244.962 Y252.237
G01 X245.000 Y252.045
G01 X244.948 Y251.783
G01 X244.910 Y251.520
G01 X244.885 Y251.257
G01 X244.873 Y250.996
G01 X244.875 Y250.737
G01 X244.890 Y250.481
G01 X244.917 Y250.227
G01 X244.957 Y249.978
G01 X245.000 Y249.773
G01 X244.949 Y249.521
G01 X244.910 Y249.264
G01 X244.885 Y249.002
G01 X244.874 Y248.736
G01 X244.876 Y248.466
G01 X244.893 Y248.194
G01 X244.924 Y247.919
G01 X244.970 Y247.644
G01 X245.000 Y247.500
G01 X245.119 Y247.252
G01 X245.251 Y247.011
G01 X245.395 Y246.775
G01 X245.550 Y246.546
G01 X245.717 Y246.325
G01 X245.894 Y246.112
G01 X246.083 Y245.907
G01 X246.281 Y245.712
G01 X246.336 Y245.661
G01 X246.473 Y245.381
G01 X246.628 Y245.104
G01 X246.802 Y244.832
G01 X246.996 Y244.565
G01 X247.207 Y244.305
G01 X247.438 Y244.052
G01 X247.672 Y243.823
G01 X247.884 Y243.425
G01 X248.130 Y243.034
G01 X248.410 Y242.653
G01 X248.722 Y242.282
G01 X249.008 Y241.984
G01 X249.351 Y241.257
G01 X249.764 Y240.546
G01 X250.244 Y239.856
G01 X250.792 Y239.192
G01 X251.406 Y238.559
G01 X251.679 Y238.307
G01 X252.586 Y236.680
G01 X253.655 Y235.119
G01 X254.882 Y233.634
G01 X255.687 Y232.791
G01 X257.908 Y229.504
G01 X259.695 Y227.275
G01 X258.909 Y225.903
G01 X258.012 Y224.556
G01 X257.003 Y223.241
G01 X255.884 Y221.966
G01 X255.687 Y221.759
G01 X254.540 Y219.888
G01 X253.222 Y218.065
G01 X251.735 Y216.304
G01 X251.679 Y216.243
G01 X250.023 Y213.553
G01 X248.106 Y210.951
G01 X246.336 Y208.888
G01 X245.000 Y207.049
G01 X242.931 Y207.539
G01 X240.897 Y208.128
G01 X238.904 Y208.814
G01 X236.957 Y209.594
G01 X236.354 Y209.858
G01 X234.308 Y210.341
G01 X232.276 Y210.929
G01 X230.265 Y211.621
G01 X228.279 Y212.417
G01 X227.708 Y212.668
G01 X225.531 Y213.248
G01 X223.359 Y213.954
G01 X221.224 Y214.775
G01 X220.994 Y217.852
G01 X220.994 Y220.863
G01 X221.215 Y223.793
G01 X221.224 Y223.865
G01 X220.992 Y226.144
G01 X220.912 Y228.381
G01 X220.978 Y230.566
G01 X221.187 Y232.691
G01 X221.224 Y232.956
G01 X221.075 Y234.733
G01 X221.029 Y236.483
G01 X221.084 Y238.200
G01 X221.224 Y239.775
G01 X238.562 Y245.292
G01 X240.677 Y246.095
G01 X243.865 Y247.069
G01 X245.000 Y247.500
G01 X245.125 Y247.256
G01 X245.262 Y247.018
G01 X245.411 Y246.786
G01 X245.571 Y246.563
G01 X245.742 Y246.347
G01 X245.923 Y246.139
G01 X246.115 Y245.941
G01 X246.176 Y245.882
G01 X246.312 Y245.616
G01 X246.466 Y245.354
G01 X246.637 Y245.097
G01 X246.825 Y244.845
G01 X247.029 Y244.601
G01 X247.250 Y244.364
G01 X247.351 Y244.264
G01 X247.514 Y243.838
G01 X247.712 Y243.415
G01 X247.946 Y242.997
G01 X248.215 Y242.587
G01 X248.520 Y242.187
G01 X248.860 Y241.800
G01 X249.235 Y241.429
G01 X249.644 Y241.075
G01 X249.702 Y241.028
G01 X250.154 Y240.325
G01 X250.674 Y239.647
G01 X250.878 Y239.410
G01 X250.390 Y238.400
G01 X249.805 Y237.415
G01 X249.125 Y236.461
G01 X248.350 Y235.547
G01 X247.484 Y234.678
G01 X247.351 Y234.556
G01 X246.170 Y232.787
G01 X245.000 Y231.320
G01 X244.060 Y231.495
G01 X243.124 Y231.717
G01 X242.197 Y231.987
G01 X241.279 Y232.304
G01 X240.374 Y232.668
G01 X239.484 Y233.079
G01 X239.294 Y233.174
G01 X238.271 Y233.423
G01 X237.247 Y233.732
G01 X236.226 Y234.102
G01 X235.489 Y234.410
G01 X235.321 Y235.704
G01 X235.243 Y236.976
G01 X235.253 Y238.220
G01 X235.348 Y239.431
G01 X235.489 Y240.410
G01 X235.396 Y241.347
G01 X235.359 Y242.269
G01 X235.377 Y243.174
G01 X235.446 Y244.058
G01 X235.489 Y244.410
G01 X240.442 Y245.768
G01 X245.000 Y247.500
G01 X239.809 Y245.515
G01 X234.423 Y244.039
G01 X234.193 Y243.988
G01 X221.224 Y239.775
G01 X230.734 Y242.865
G01 X231.223 Y241.977
G01 X231.753 Y241.121
G01 X232.320 Y240.297
G01 X232.925 Y239.507
G01 X233.564 Y238.753
G01 X234.236 Y238.036
G01 X234.261 Y238.011
G01 X234.776 Y237.175
G01 X235.335 Y236.361
G01 X235.937 Y235.571
G01 X236.582 Y234.808
G01 X236.612 Y234.775
G01 X230.734 Y226.684
G01 X229.049 Y227.039
G01 X227.353 Y227.504
G01 X225.653 Y228.082
G01 X223.958 Y228.773
G01 X223.126 Y229.157
G01 X221.224 Y229.775
G01 X221.035 Y231.697
G01 X220.963 Y233.588
G01 X221.006 Y235.440
G01 X221.158 Y237.248
G01 X221.224 Y237.775
G01 X221.213 Y239.406
G01 X221.224 Y239.775
G01 X221.078 Y238.094
G01 X221.029 Y236.375
G01 X221.081 Y234.624
G01 X221.224 Y232.956
G01 X220.997 Y230.840
G01 X220.912 Y228.662
G01 X220.973 Y226.432
G01 X221.185 Y224.158
G01 X221.224 Y223.865
G01 X220.997 Y220.938
G01 X220.991 Y217.929
G01 X221.215 Y214.853
G01 X221.224 Y214.775
G01 X220.959 Y217.813
G01 X220.920 Y220.788
G01 X221.099 Y223.687
G01 X221.224 Y224.775
G01 X224.830 Y225.651
G01 X228.276 Y226.815
G01 X230.734 Y227.865
G01 X231.502 Y226.513
G01 X232.358 Y225.184
G01 X233.299 Y223.884
G01 X234.327 Y222.617
G01 X235.436 Y221.393
G01 X236.501 Y219.918
G01 X236.612 Y219.775
G01 X230.734 Y211.684
G01 X228.591 Y212.169
G01 X226.449 Y212.773
G01 X224.315 Y213.497
G01 X222.197 Y214.342
G01 X221.224 Y214.775
G01 X223.347 Y213.894
G01 X225.487 Y213.135
G01 X227.637 Y212.498
G01 X229.789 Y211.982
G01 X229.870 Y211.965
G01 X231.819 Y211.150
G01 X233.800 Y210.434
G01 X235.808 Y209.819
G01 X237.837 Y209.305
G01 X238.516 Y209.156
G01 X240.477 Y208.396
G01 X242.486 Y207.730
G01 X244.537 Y207.162
G01 X245.000 Y207.049
G01 X242.927 Y207.517
G01 X240.888 Y208.084
G01 X238.887 Y208.748
G01 X236.929 Y209.508
G01 X235.489 Y210.139
G01 X235.251 Y214.941
G01 X235.445 Y219.660
G01 X235.489 Y220.139
G01 X237.437 Y220.552
G01 X239.307 Y221.081
G01 X241.095 Y221.721
G01 X242.793 Y222.463
G01 X243.098 Y222.611
G01 X244.607 Y223.088
G01 X245.000 Y223.229
G01 X246.093 Y221.352
G01 X247.358 Y219.522
G01 X248.794 Y217.751
G01 X249.702 Y216.757
G01 X250.878 Y215.139
G01 X249.097 Y212.227
G01 X247.032 Y209.412
G01 X245.000 Y207.049
G01 X247.313 Y209.837
G01 X249.340 Y212.742
G01 X250.344 Y214.404
G01 X251.978 Y216.367
G01 X253.421 Y218.400
G01 X254.351 Y219.920
G01 X255.595 Y221.332
G01 X256.712 Y222.790
G01 X257.699 Y224.286
G01 X258.359 Y225.436
G01 X259.256 Y226.628
G01 X259.695 Y227.275
G01 X258.898 Y225.933
G01 X257.992 Y224.617
G01 X256.978 Y223.334
G01 X256.168 Y222.420
G01 X255.048 Y220.757
G01 X253.817 Y219.184
G01 X252.265 Y219.503
G01 X250.754 Y219.899
G01 X249.288 Y220.369
G01 X247.869 Y220.908
G01 X246.502 Y221.515
G01 X246.208 Y221.657
G01 X244.859 Y222.079
G01 X244.306 Y222.275
G01 X244.046 Y226.841
G01 X244.218 Y231.356
G01 X244.306 Y232.275
G01 X245.295 Y232.434
G01 X246.254 Y232.648
G01 X247.180 Y232.911
G01 X248.071 Y233.223
G01 X248.925 Y233.581
G01 X249.739 Y233.980
G01 X250.013 Y234.129
G01 X250.784 Y234.292
G01 X251.540 Y234.493
G01 X252.277 Y234.730
G01 X252.996 Y235.001
G01 X253.693 Y235.306
G01 X253.817 Y235.365
G01 X255.404 Y232.786
G01 X257.252 Y230.335
G01 X258.519 Y228.893
G01 X259.695 Y227.275
G01 X257.401 Y229.983
G01 X255.399 Y232.854
G01 X254.351 Y234.629
G01 X253.247 Y235.928
G01 X252.282 Y237.295
G01 X251.679 Y238.307
G01 X251.039 Y238.925
G01 X250.464 Y239.577
G01 X249.955 Y240.257
G01 X249.514 Y240.959
G01 X249.142 Y241.681
G01 X249.008 Y241.984
G01 X248.668 Y242.343
G01 X248.361 Y242.716
G01 X248.087 Y243.099
G01 X247.846 Y243.491
G01 X247.672 Y243.823
G01 X247.424 Y244.066
G01 X247.195 Y244.319
G01 X246.984 Y244.579
G01 X246.792 Y244.847
G01 X246.619 Y245.120
G01 X246.464 Y245.397
G01 X246.336 Y245.661
G01 X246.135 Y245.854
G01 X245.944 Y246.056
G01 X245.763 Y246.267
G01 X245.593 Y246.486
G01 X245.435 Y246.713
G01 X245.288 Y246.947
G01 X245.153 Y247.187
G01 X245.031 Y247.433
G01 X245.000 Y247.500
G01 X239.809 Y245.515
G01 X234.423 Y244.039
G01 X234.193 Y243.988
G01 X221.224 Y239.775
G01 X219.110 Y237.284
G01 X217.178 Y234.564
G01 X215.880 Y232.420
G01 X212.568 Y228.326
G01 X209.586 Y223.870
G01 X209.201 Y223.226
G01 X206.529 Y219.549
G01 X203.009 Y220.411
G01 X199.475 Y221.547
G01 X195.943 Y222.962
G01 X195.721 Y223.061
G01 X191.115 Y224.294
G01 X186.506 Y225.918
G01 X184.914 Y226.572
G01 X182.753 Y227.275
G01 X182.547 Y230.837
G01 X182.528 Y234.365
G01 X182.690 Y237.847
G01 X182.753 Y238.638
G01 X182.554 Y241.985
G01 X182.520 Y245.323
G01 X182.652 Y248.645
G01 X182.753 Y250.002
G01 X182.753 Y252.275
G01 X190.195 Y254.969
G01 X195.721 Y256.488
G01 X200.649 Y258.373
G01 X205.620 Y259.791
G01 X206.529 Y260.000
G01 X208.059 Y257.503
G01 X209.724 Y255.181
G01 X211.511 Y253.041
G01 X211.872 Y252.645
G01 X213.063 Y250.746
G01 X214.345 Y248.969
G01 X215.710 Y247.320
G01 X215.880 Y247.129
G01 X216.835 Y245.562
G01 X217.860 Y244.081
G01 X218.948 Y242.690
G01 X219.888 Y241.613
G01 X220.816 Y240.305
G01 X221.224 Y239.775
G01 X219.046 Y237.258
G01 X217.052 Y234.505
G01 X215.346 Y231.684
G01 X212.321 Y232.394
G01 X209.287 Y233.358
G01 X206.262 Y234.580
G01 X205.835 Y234.775
G01 X205.635 Y237.103
G01 X205.555 Y239.415
G01 X205.595 Y241.703
G01 X205.750 Y243.961
G01 X205.835 Y244.775
G01 X214.126 Y247.532
G01 X215.346 Y247.865
G01 X216.287 Y246.255
G01 X217.301 Y244.733
G01 X218.381 Y243.300
G01 X219.521 Y241.961
G01 X220.048 Y241.393
G01 X220.978 Y240.094
G01 X221.224 Y239.775
G01 X220.146 Y241.015
G01 X219.122 Y242.337
G01 X218.158 Y243.739
G01 X217.258 Y245.216
G01 X217.216 Y245.291
G01 X215.932 Y246.802
G01 X214.719 Y248.429
G01 X213.587 Y250.167
G01 X213.208 Y250.807
G01 X211.524 Y252.737
G01 X209.945 Y254.834
G01 X208.483 Y257.092
G01 X207.865 Y258.161
G01 X206.529 Y260.000
G01 X208.117 Y257.492
G01 X209.842 Y255.166
G01 X211.231 Y253.528
G01 X212.407 Y251.910
G01 X210.838 Y250.065
G01 X209.364 Y248.072
G01 X207.995 Y245.934
G01 X207.705 Y245.438
G01 X206.529 Y243.820
G01 X200.879 Y245.461
G01 X197.018 Y246.910
G01 X196.837 Y249.512
G01 X196.783 Y252.125
G01 X196.859 Y254.742
G01 X197.018 Y256.910
G01 X201.842 Y258.702
G01 X206.529 Y260.000
G01 X201.554 Y258.667
G01 X196.616 Y256.867
G01 X195.721 Y256.488
G01 X188.212 Y254.325
G01 X182.753 Y252.275
G01 X190.677 Y254.929
G01 X192.263 Y255.365
G01 X194.115 Y252.436
G01 X196.110 Y249.702
G01 X198.141 Y247.275
G01 X195.830 Y244.478
G01 X193.675 Y241.448
G01 X192.263 Y239.184
G01 X185.655 Y241.189
G01 X182.753 Y242.275
G01 X182.588 Y245.592
G01 X182.587 Y248.908
G01 X182.748 Y252.212
G01 X182.753 Y252.275
G01 X182.555 Y248.970
G01 X182.520 Y245.651
G01 X182.648 Y242.326
G01 X182.753 Y240.911
G01 X182.551 Y237.487
G01 X182.525 Y234.022
G01 X182.678 Y230.524
G01 X182.753 Y229.547
G01 X182.753 Y227.275
G01 X182.583 Y230.847
G01 X182.600 Y234.381
G01 X182.753 Y237.275
G01 X192.263 Y240.365
G01 X193.897 Y237.781
G01 X195.642 Y235.334
G01 X197.490 Y233.028
G01 X198.141 Y232.275
G01 X194.847 Y228.071
G01 X192.263 Y224.184
G01 X187.323 Y225.591
G01 X182.753 Y227.275
G01 X187.604 Y225.441
G01 X192.464 Y224.025
G01 X193.560 Y223.763
G01 X197.282 Y222.270
G01 X201.009 Y221.076
G01 X204.367 Y220.251
G01 X206.529 Y219.549
G01 X203.061 Y220.443
G01 X199.581 Y221.607
G01 X197.018 Y222.639
G01 X196.821 Y225.765
G01 X196.801 Y228.843
G01 X196.952 Y231.863
G01 X197.018 Y232.639
G01 X206.529 Y235.729
G01 X207.702 Y233.775
G01 X208.961 Y231.901
G01 X210.301 Y230.111
G01 X211.717 Y228.408
G01 X212.407 Y227.639
G01 X208.421 Y222.420
G01 X206.529 Y219.549
G01 X210.133 Y224.896
G01 X213.208 Y228.743
G01 X215.497 Y232.263
G01 X218.034 Y235.504
G01 X218.552 Y236.097
G01 X220.262 Y238.563
G01 X221.224 Y239.775
G01 X220.146 Y241.015
G01 X219.122 Y242.337
G01 X218.158 Y243.739
G01 X217.258 Y245.216
G01 X217.216 Y245.291
G01 X215.932 Y246.802
G01 X214.719 Y248.429
G01 X213.587 Y250.167
G01 X213.208 Y250.807
G01 X211.524 Y252.737
G01 X209.945 Y254.834
G01 X208.483 Y257.092
G01 X207.865 Y258.161
G01 X206.529 Y260.000
G01 X182.753 Y267.725
G01 X182.545 Y271.371
G01 X182.537 Y275.078
G01 X182.732 Y278.837
G01 X182.753 Y279.089
G01 X182.540 Y283.201
G01 X182.573 Y287.401
G01 X182.753 Y290.453
G01 X182.753 Y292.725
G01 X187.166 Y294.394
G01 X191.575 Y295.736
G01 X193.560 Y296.237
G01 X197.293 Y297.687
G01 X201.029 Y298.886
G01 X204.367 Y299.749
G01 X206.529 Y300.451
G01 X221.054 Y280.436
G01 X221.224 Y280.225
G01 X219.882 Y278.676
G01 X218.622 Y277.067
G01 X217.448 Y275.405
G01 X216.361 Y273.692
G01 X215.880 Y272.871
G01 X214.540 Y271.325
G01 X213.270 Y269.702
G01 X212.075 Y268.005
G01 X210.959 Y266.239
G01 X210.537 Y265.516
G01 X209.133 Y263.794
G01 X207.805 Y261.971
G01 X206.559 Y260.050
G01 X206.529 Y260.000
G01 X197.018 Y263.090
G01 X196.828 Y265.943
G01 X196.791 Y268.846
G01 X196.914 Y271.789
G01 X197.018 Y273.090
G01 X200.580 Y274.490
G01 X204.146 Y275.599
G01 X206.529 Y276.180
G01 X209.468 Y271.775
G01 X212.407 Y268.090
G01 X210.977 Y266.472
G01 X209.618 Y264.756
G01 X208.334 Y262.946
G01 X207.132 Y261.044
G01 X206.529 Y260.000
G01 X207.710 Y261.941
G01 X208.975 Y263.790
G01 X210.318 Y265.545
G01 X211.734 Y267.202
G01 X211.872 Y267.355
G01 X212.937 Y269.118
G01 X214.083 Y270.820
G01 X215.306 Y272.455
G01 X216.602 Y274.020
G01 X217.216 Y274.709
G01 X218.312 Y276.419
G01 X219.496 Y278.079
G01 X220.768 Y279.687
G01 X221.224 Y280.225
G01 X219.865 Y278.691
G01 X218.588 Y277.097
G01 X217.395 Y275.446
G01 X216.287 Y273.744
G01 X215.346 Y272.135
G01 X205.911 Y275.205
G01 X205.835 Y275.225
G01 X205.616 Y278.326
G01 X205.599 Y281.506
G01 X205.790 Y284.754
G01 X205.835 Y285.225
G01 X208.713 Y286.384
G01 X211.595 Y287.347
G01 X214.470 Y288.118
G01 X215.346 Y288.316
G01 X221.224 Y280.225
G01 X206.678 Y300.224
G01 X206.529 Y300.451
G01 X212.407 Y292.361
G01 X210.622 Y290.212
G01 X208.956 Y287.990
G01 X207.413 Y285.703
G01 X206.529 Y284.271
G01 X197.806 Y287.145
G01 X197.018 Y287.361
G01 X196.823 Y291.550
G01 X196.916 Y295.845
G01 X197.018 Y297.361
G01 X200.606 Y298.720
G01 X204.196 Y299.844
G01 X206.529 Y300.451
G01 X202.914 Y299.510
G01 X199.289 Y298.333
G01 X195.721 Y296.939
G01 X191.472 Y295.793
G01 X187.209 Y294.340
G01 X184.914 Y293.428
G01 X182.753 Y292.725
G01 X187.213 Y294.361
G01 X191.666 Y295.665
G01 X192.263 Y295.816
G01 X198.141 Y287.725
G01 X196.148 Y285.269
G01 X194.272 Y282.708
G01 X192.518 Y280.047
G01 X192.263 Y279.635
G01 X182.753 Y282.725
G01 X182.581 Y287.006
G01 X182.672 Y291.379
G01 X182.753 Y292.725
G01 X182.538 Y288.350
G01 X182.587 Y284.060
G01 X182.753 Y281.362
G01 X182.542 Y277.516
G01 X182.544 Y273.725
G01 X182.752 Y270.003
G01 X182.753 Y269.998
G01 X182.753 Y267.725
G01 X182.582 Y271.359
G01 X182.609 Y275.051
G01 X182.753 Y277.725
G01 X187.459 Y279.454
G01 X192.164 Y280.792
G01 X192.263 Y280.816
G01 X195.892 Y275.551
G01 X198.141 Y272.725
G01 X196.269 Y270.466
G01 X194.496 Y268.076
G01 X192.830 Y265.561
G01 X192.263 Y264.635
G01 X182.753 Y267.725
G01 X206.529 Y260.000
G01 X207.710 Y261.941
G01 X208.975 Y263.790
G01 X210.318 Y265.545
G01 X211.734 Y267.202
G01 X211.872 Y267.355
G01 X212.937 Y269.118
G01 X214.083 Y270.820
G01 X215.306 Y272.455
G01 X216.602 Y274.020
G01 X217.216 Y274.709
G01 X218.312 Y276.419
G01 X219.496 Y278.079
G01 X220.768 Y279.687
G01 X221.224 Y280.225
G01 X221.004 Y283.615
G01 X221.053 Y287.093
G01 X221.224 Y289.316
G01 X220.950 Y294.075
G01 X221.080 Y298.947
G01 X221.224 Y300.680
G01 X221.224 Y305.225
G01 X224.063 Y306.365
G01 X226.945 Y307.359
G01 X229.861 Y308.206
G01 X232.031 Y308.737
G01 X234.853 Y309.870
G01 X237.744 Y310.867
G01 X240.695 Y311.724
G01 X242.839 Y312.249
G01 X245.000 Y312.951
G01 X248.220 Y308.962
G01 X251.037 Y304.818
G01 X251.679 Y303.757
G01 X254.088 Y300.792
G01 X256.211 Y297.727
G01 X257.023 Y296.403
G01 X258.876 Y293.944
G01 X259.695 Y292.725
G01 X256.897 Y289.226
G01 X254.467 Y285.565
G01 X254.351 Y285.371
G01 X252.437 Y283.183
G01 X250.749 Y280.898
G01 X249.290 Y278.533
G01 X249.008 Y278.016
G01 X247.747 Y276.603
G01 X246.622 Y275.137
G01 X245.635 Y273.628
G01 X245.000 Y272.500
G01 X243.657 Y273.119
G01 X242.243 Y273.659
G01 X240.760 Y274.113
G01 X239.215 Y274.477
G01 X238.516 Y274.607
G01 X236.579 Y275.421
G01 X234.537 Y276.101
G01 X232.397 Y276.639
G01 X232.031 Y276.714
G01 X229.175 Y277.900
G01 X226.162 Y278.865
G01 X223.385 Y279.523
G01 X221.224 Y280.225
G01 X220.970 Y283.654
G01 X220.989 Y287.175
G01 X221.224 Y290.225
G01 X223.501 Y291.171
G01 X225.802 Y291.990
G01 X228.118 Y292.684
G01 X230.444 Y293.253
G01 X230.734 Y293.316
G01 X235.999 Y286.160
G01 X236.612 Y285.225
G01 X235.268 Y283.684
G01 X234.042 Y282.098
G01 X232.935 Y280.475
G01 X231.948 Y278.822
G01 X231.910 Y278.753
G01 X230.869 Y277.333
G01 X230.734 Y277.135
G01 X227.637 Y278.431
G01 X224.371 Y279.483
G01 X221.224 Y280.225
G01 X224.683 Y279.350
G01 X227.982 Y278.214
G01 X229.870 Y277.416
G01 X232.265 Y276.820
G01 X234.550 Y276.059
G01 X236.354 Y275.309
G01 X238.097 Y274.933
G01 X239.769 Y274.450
G01 X241.364 Y273.864
G01 X242.839 Y273.202
G01 X244.171 Y272.799
G01 X245.000 Y272.500
G01 X243.666 Y273.088
G01 X242.263 Y273.598
G01 X240.795 Y274.023
G01 X239.294 Y274.354
G01 X237.504 Y275.015
G01 X235.626 Y275.557
G01 X235.489 Y275.590
G01 X235.215 Y279.343
G01 X235.278 Y283.177
G01 X235.489 Y285.590
G01 X237.218 Y286.361
G01 X238.986 Y287.048
G01 X240.792 Y287.648
G01 X242.630 Y288.160
G01 X244.496 Y288.583
G01 X245.000 Y288.680
G01 X247.126 Y286.093
G01 X248.985 Y283.397
G01 X249.702 Y282.208
G01 X250.878 Y280.590
G01 X249.409 Y278.964
G01 X248.102 Y277.272
G01 X246.959 Y275.525
G01 X246.176 Y274.118
G01 X245.221 Y272.829
G01 X245.000 Y272.500
G01 X245.885 Y274.034
G01 X246.908 Y275.533
G01 X248.070 Y276.985
G01 X249.008 Y278.016
G01 X250.416 Y280.396
G01 X252.055 Y282.700
G01 X253.921 Y284.910
G01 X254.351 Y285.371
G01 X256.761 Y289.040
G01 X259.540 Y292.548
G01 X259.695 Y292.725
G01 X256.914 Y289.326
G01 X254.492 Y285.766
G01 X253.817 Y284.635
G01 X252.147 Y285.349
G01 X250.417 Y285.982
G01 X248.629 Y286.528
G01 X246.789 Y286.985
G01 X246.208 Y287.107
G01 X244.306 Y287.725
G01 X244.306 Y297.725
G01 X246.604 Y298.679
G01 X248.981 Y299.521
G01 X251.433 Y300.244
G01 X253.817 Y300.816
G01 X256.013 Y298.217
G01 X257.963 Y295.532
G01 X259.666 Y292.776
G01 X259.695 Y292.725
G01 X257.989 Y295.437
G01 X256.039 Y298.079
G01 X254.351 Y300.080
G01 X252.021 Y303.759
G01 X249.340 Y307.321
G01 X247.672 Y309.274
G01 X245.000 Y312.951
G01 X248.224 Y308.855
G01 X250.878 Y304.861
G01 X248.289 Y301.702
G01 X246.011 Y298.428
G01 X245.000 Y296.771
G01 X242.501 Y297.811
G01 X239.887 Y298.717
G01 X237.168 Y299.477
G01 X235.489 Y299.861
G01 X235.489 Y309.861
G01 X238.354 Y310.973
G01 X241.293 Y311.948
G01 X244.299 Y312.780
G01 X245.000 Y312.951
G01 X241.974 Y312.187
G01 X239.011 Y311.278
G01 X236.118 Y310.230
G01 X234.193 Y309.439
G01 X231.260 Y308.702
G01 X228.362 Y307.819
G01 X225.505 Y306.794
G01 X223.385 Y305.928
G01 X221.224 Y305.225
G01 X224.077 Y306.334
G01 X226.970 Y307.296
G01 X229.894 Y308.110
G01 X230.734 Y308.316
G01 X235.728 Y301.570
G01 X236.612 Y300.225
G01 X234.665 Y297.939
G01 X232.910 Y295.587
G01 X231.347 Y293.182
G01 X230.734 Y292.135
G01 X227.498 Y293.439
G01 X224.091 Y294.522
G01 X221.224 Y295.225
G01 X221.038 Y300.867
G01 X221.224 Y305.225
G01 X220.975 Y299.600
G01 X221.203 Y294.093
G01 X221.224 Y293.862
G01 X221.019 Y289.772
G01 X221.141 Y285.775
G01 X221.224 Y284.771
G01 X221.173 Y281.544
G01 X221.224 Y280.225
G01 X224.683 Y279.350
G01 X227.982 Y278.214
G01 X229.870 Y277.416
G01 X232.265 Y276.820
G01 X234.550 Y276.059
G01 X236.354 Y275.309
G01 X238.097 Y274.933
G01 X239.769 Y274.450
G01 X241.364 Y273.864
G01 X242.839 Y273.202
G01 X244.171 Y272.799
G01 X245.000 Y272.500
G01 X243.657 Y273.119
G01 X242.243 Y273.659
G01 X240.760 Y274.113
G01 X239.215 Y274.477
G01 X238.516 Y274.607
G01 X236.579 Y275.421
G01 X234.537 Y276.101
G01 X232.397 Y276.639
G01 X232.031 Y276.714
G01 X229.175 Y277.900
G01 X226.162 Y278.865
G01 X223.385 Y279.523
G01 X221.224 Y280.225
G01 X221.004 Y283.615
G01 X221.053 Y287.093
G01 X221.224 Y289.316
G01 X220.950 Y294.075
G01 X221.080 Y298.947
G01 X221.224 Y300.680
G01 X221.224 Y305.225
G01 X224.063 Y306.365
G01 X226.945 Y307.359
G01 X229.861 Y308.206
G01 X232.031 Y308.737
G01 X234.853 Y309.870
G01 X237.744 Y310.867
G01 X240.695 Y311.724
G01 X242.839 Y312.249
G01 X245.000 Y312.951
G01 X248.220 Y308.962
G01 X251.037 Y304.818
G01 X251.679 Y303.757
G01 X254.088 Y300.792
G01 X256.211 Y297.727
G01 X257.023 Y296.403
G01 X258.876 Y293.944
G01 X259.695 Y292.725
G01 X256.897 Y289.226
G01 X254.467 Y285.565
G01 X254.351 Y285.371
G01 X252.437 Y283.183
G01 X250.749 Y280.898
G01 X249.290 Y278.533
G01 X249.008 Y278.016
G01 X247.747 Y276.603
G01 X246.622 Y275.137
G01 X245.635 Y273.628
G01 X245.000 Y272.500
G01 X243.666 Y273.088
G01 X242.263 Y273.598
G01 X240.795 Y274.023
G01 X239.294 Y274.354
G01 X237.504 Y275.015
G01 X235.626 Y275.557
G01 X235.489 Y275.590
G01 X235.215 Y279.343
G01 X235.278 Y283.177
G01 X235.489 Y285.590
G01 X237.218 Y286.361
G01 X238.986 Y287.048
G01 X240.792 Y287.648
G01 X242.630 Y288.160
G01 X244.496 Y288.583
G01 X245.000 Y288.680
G01 X247.126 Y286.093
G01 X248.985 Y283.397
G01 X249.702 Y282.208
G01 X250.878 Y280.590
G01 X249.409 Y278.964
G01 X248.102 Y277.272
G01 X246.959 Y275.525
G01 X246.176 Y274.118
G01 X245.221 Y272.829
G01 X245.000 Y272.500
G01 X245.885 Y274.034
G01 X246.908 Y275.533
G01 X248.070 Y276.985
G01 X249.008 Y278.016
G01 X250.416 Y280.396
G01 X252.055 Y282.700
G01 X253.921 Y284.910
G01 X254.351 Y285.371
G01 X256.761 Y289.040
G01 X259.540 Y292.548
G01 X259.695 Y292.725
G01 X256.914 Y289.326
G01 X254.492 Y285.766
G01 X253.817 Y284.635
G01 X252.147 Y285.349
G01 X250.417 Y285.982
G01 X248.629 Y286.528
G01 X246.789 Y286.985
G01 X246.208 Y287.107
G01 X244.306 Y287.725
G01 X244.306 Y297.725
G01 X246.604 Y298.679
G01 X248.981 Y299.521
G01 X251.433 Y300.244
G01 X253.817 Y300.816
G01 X256.013 Y298.217
G01 X257.963 Y295.532
G01 X259.666 Y292.776
G01 X259.695 Y292.725
G01 X257.989 Y295.437
G01 X256.039 Y298.079
G01 X254.351 Y300.080
G01 X252.021 Y303.759
G01 X249.340 Y307.321
G01 X247.672 Y309.274
G01 X245.000 Y312.951
G01 X248.224 Y308.855
G01 X250.878 Y304.861
G01 X248.289 Y301.702
G01 X246.011 Y298.428
G01 X245.000 Y296.771
G01 X242.501 Y297.811
G01 X239.887 Y298.717
G01 X237.168 Y299.477
G01 X235.489 Y299.861
G01 X235.489 Y309.861
G01 X238.354 Y310.973
G01 X241.293 Y311.948
G01 X244.299 Y312.780
G01 X245.000 Y312.951
G01 X241.974 Y312.187
G01 X239.011 Y311.278
G01 X236.118 Y310.230
G01 X234.193 Y309.439
G01 X231.260 Y308.702
G01 X228.362 Y307.819
G01 X225.505 Y306.794
G01 X223.385 Y305.928
G01 X221.224 Y305.225
G01 X224.077 Y306.334
G01 X226.970 Y307.296
G01 X229.894 Y308.110
G01 X230.734 Y308.316
G01 X235.728 Y301.570
G01 X236.612 Y300.225
G01 X234.665 Y297.939
G01 X232.910 Y295.587
G01 X231.347 Y293.182
G01 X230.734 Y292.135
G01 X227.498 Y293.439
G01 X224.091 Y294.522
G01 X221.224 Y295.225
G01 X221.038 Y300.867
G01 X221.224 Y305.225
G01 X220.975 Y299.600
G01 X221.203 Y294.093
G01 X221.224 Y293.862
G01 X221.019 Y289.772
G01 X221.141 Y285.775
G01 X221.224 Y284.771
G01 X221.173 Y281.544
G01 X221.224 Y280.225
G01 X220.970 Y283.654
G01 X220.989 Y287.175
G01 X221.224 Y290.225
G01 X223.501 Y291.171
G01 X225.802 Y291.990
G01 X228.118 Y292.684
G01 X230.444 Y293.253
G01 X230.734 Y293.316
G01 X235.999 Y286.160
G01 X236.612 Y285.225
G01 X235.268 Y283.684
G01 X234.042 Y282.098
G01 X232.935 Y280.475
G01 X231.948 Y278.822
G01 X231.910 Y278.753
G01 X230.869 Y277.333
G01 X230.734 Y277.135
G01 X227.637 Y278.431
G01 X224.371 Y279.483
G01 X221.224 Y280.225
G01 X224.683 Y279.350
G01 X227.982 Y278.214
G01 X229.870 Y277.416
G01 X232.265 Y276.820
G01 X234.550 Y276.059
G01 X236.354 Y275.309
G01 X238.097 Y274.933
G01 X239.769 Y274.450
G01 X241.364 Y273.864
G01 X242.839 Y273.202
G01 X244.171 Y272.799
G01 X245.000 Y272.500
G01 X245.885 Y274.034
G01 X246.908 Y275.533
G01 X248.070 Y276.985
G01 X249.008 Y278.016
G01 X250.416 Y280.396
G01 X252.055 Y282.700
G01 X253.921 Y284.910
G01 X254.351 Y285.371
G01 X256.761 Y289.040
G01 X259.540 Y292.548
G01 X259.695 Y292.725
G01 X259.912 Y306.378
G01 X259.695 Y310.907
G01 X259.695 Y317.725
G01 X263.392 Y319.162
G01 X267.253 Y320.395
G01 X270.502 Y321.237
G01 X274.915 Y322.903
G01 X279.539 Y324.300
G01 X281.310 Y324.749
G01 X283.471 Y325.451
G01 X286.253 Y321.972
G01 X288.777 Y318.406
G01 X290.150 Y316.257
G01 X292.648 Y313.164
G01 X294.941 Y309.987
G01 X296.830 Y307.064
G01 X298.166 Y305.225
G01 X283.471 Y285.000
G01 X281.149 Y285.949
G01 X278.816 Y286.755
G01 X276.479 Y287.421
G01 X274.825 Y287.809
G01 X272.754 Y288.666
G01 X270.659 Y289.411
G01 X268.546 Y290.044
G01 X266.421 Y290.566
G01 X266.179 Y290.618
G01 X264.176 Y291.390
G01 X262.135 Y292.063
G01 X260.063 Y292.635
G01 X259.695 Y292.725
G01 X259.695 Y302.725
G01 X262.677 Y303.917
G01 X265.799 Y304.939
G01 X269.050 Y305.781
G01 X269.205 Y305.816
G01 X271.310 Y303.278
G01 X273.213 Y300.673
G01 X274.914 Y298.012
G01 X275.083 Y297.725
G01 X269.205 Y289.635
G01 X267.218 Y290.484
G01 X265.193 Y291.233
G01 X263.137 Y291.882
G01 X261.053 Y292.428
G01 X259.695 Y292.725
G01 X261.787 Y292.225
G01 X263.853 Y291.622
G01 X265.889 Y290.918
G01 X267.889 Y290.114
G01 X268.341 Y289.916
G01 X270.501 Y289.398
G01 X272.653 Y288.763
G01 X274.793 Y288.010
G01 X276.912 Y287.140
G01 X276.987 Y287.107
G01 X279.358 Y286.463
G01 X281.731 Y285.674
G01 X283.471 Y285.000
G01 X281.167 Y285.969
G01 X278.849 Y286.798
G01 X276.526 Y287.488
G01 X274.207 Y288.040
G01 X273.960 Y288.090
G01 X274.179 Y292.982
G01 X273.970 Y297.978
G01 X273.960 Y298.090
G01 X277.816 Y299.575
G01 X281.872 Y300.790
G01 X283.471 Y301.180
G01 X285.440 Y298.785
G01 X287.255 Y296.322
G01 X288.916 Y293.799
G01 X289.349 Y293.090
G01 X283.471 Y285.000
G01 X298.166 Y305.225
G01 X292.288 Y297.135
G01 X289.247 Y298.319
G01 X286.193 Y299.321
G01 X283.137 Y300.141
G01 X282.777 Y300.225
G01 X282.942 Y306.337
G01 X282.777 Y310.225
G01 X287.832 Y312.054
G01 X292.288 Y313.316
G01 X294.692 Y310.286
G01 X296.903 Y307.175
G01 X298.166 Y305.225
G01 X296.099 Y308.410
G01 X293.833 Y311.523
G01 X291.486 Y314.419
G01 X289.178 Y317.943
G01 X286.623 Y321.392
G01 X284.807 Y323.612
G01 X283.471 Y325.451
G01 X286.233 Y321.931
G01 X288.732 Y318.326
G01 X289.349 Y317.361
G01 X283.471 Y309.271
G01 X280.334 Y310.465
G01 X277.160 Y311.495
G01 X273.960 Y312.361
G01 X273.960 Y322.361
G01 X278.626 Y324.056
G01 X283.471 Y325.451
G01 X278.608 Y324.101
G01 X273.962 Y322.463
G01 X272.664 Y321.939
G01 X268.550 Y320.841
G01 X264.601 Y319.517
G01 X261.856 Y318.428
G01 X259.695 Y317.725
G01 X263.383 Y319.116
G01 X267.231 Y320.303
G01 X269.205 Y320.816
G01 X271.894 Y317.437
G01 X274.299 Y313.972
G01 X275.083 Y312.725
G01 X269.205 Y304.635
G01 X266.552 Y305.682
G01 X263.842 Y306.600
G01 X261.082 Y307.385
G01 X259.695 Y307.725
G01 X259.695 Y317.725
G01 X259.876 Y301.002
G01 X259.695 Y297.271
G01 X259.695 Y292.725
G01 X261.787 Y292.225
G01 X263.853 Y291.622
G01 X265.889 Y290.918
G01 X267.889 Y290.114
G01 X268.341 Y289.916
G01 X270.501 Y289.398
G01 X272.653 Y288.763
G01 X274.793 Y288.010
G01 X276.912 Y287.140
G01 X276.987 Y287.107
G01 X279.358 Y286.463
G01 X281.731 Y285.674
G01 X283.471 Y285.000
G01 X289.125 Y287.085
G01 X294.279 Y288.512
G01 X302.698 Y291.474
G01 X307.247 Y292.725
G01 X309.469 Y289.996
G01 X311.561 Y287.150
G01 X313.516 Y284.196
G01 X313.927 Y283.532
G01 X316.231 Y280.696
G01 X318.408 Y277.713
G01 X320.451 Y274.591
G01 X320.606 Y274.339
G01 X321.942 Y272.500
G01 X318.872 Y267.882
G01 X315.532 Y263.621
G01 X315.263 Y263.307
G01 X312.920 Y259.641
G01 X310.382 Y256.239
G01 X308.583 Y254.113
G01 X307.247 Y252.275
G01 X300.977 Y254.539
G01 X296.440 Y255.786
G01 X292.200 Y257.376
G01 X287.924 Y258.565
G01 X287.794 Y258.595
G01 X284.615 Y259.681
G01 X283.471 Y260.000
G01 X283.671 Y261.888
G01 X283.764 Y263.820
G01 X283.747 Y265.788
G01 X283.617 Y267.787
G01 X283.471 Y269.091
G01 X283.685 Y271.470
G01 X283.744 Y273.913
G01 X283.641 Y276.413
G01 X283.471 Y278.182
G01 X283.605 Y281.238
G01 X283.516 Y284.371
G01 X283.471 Y285.000
G01 X289.031 Y286.996
G01 X292.982 Y288.090
G01 X294.778 Y285.918
G01 X296.464 Y283.662
G01 X298.037 Y281.327
G01 X298.859 Y280.000
G01 X295.335 Y274.859
G01 X292.982 Y271.910
G01 X290.236 Y273.064
G01 X287.484 Y274.005
G01 X284.741 Y274.733
G01 X283.471 Y275.000
G01 X283.718 Y277.864
G01 X283.762 Y280.809
G01 X283.594 Y283.822
G01 X283.471 Y285.000
G01 X283.689 Y281.933
G01 X283.691 Y278.932
G01 X283.482 Y276.010
G01 X283.471 Y275.909
G01 X283.687 Y273.527
G01 X283.753 Y271.188
G01 X283.673 Y268.900
G01 X283.471 Y266.818
G01 X283.609 Y264.869
G01 X283.638 Y262.948
G01 X283.561 Y261.061
G01 X283.471 Y260.000
G01 X283.640 Y261.877
G01 X283.704 Y263.795
G01 X283.659 Y265.747
G01 X283.502 Y267.726
G01 X283.471 Y268.000
G01 X283.471 Y270.000
G01 X292.982 Y273.090
G01 X294.590 Y271.204
G01 X296.115 Y269.215
G01 X297.551 Y267.127
G01 X298.859 Y265.000
G01 X296.933 Y261.923
G01 X294.829 Y259.073
G01 X292.982 Y256.910
G01 X289.436 Y258.343
G01 X285.861 Y259.447
G01 X283.471 Y260.000
G01 X286.986 Y259.100
G01 X290.486 Y257.876
G01 X292.117 Y257.191
G01 X297.467 Y255.724
G01 X302.762 Y253.749
G01 X302.924 Y253.679
G01 X307.247 Y252.275
G01 X300.799 Y254.523
G01 X297.737 Y255.365
G01 X297.929 Y257.784
G01 X297.997 Y260.235
G01 X297.940 Y262.711
G01 X297.753 Y265.205
G01 X297.737 Y265.365
G01 X307.247 Y268.455
G01 X309.299 Y265.951
G01 X311.240 Y263.288
G01 X313.059 Y260.474
G01 X313.125 Y260.365
G01 X310.911 Y256.953
G01 X308.520 Y253.784
G01 X307.247 Y252.275
G01 X309.783 Y255.323
G01 X312.151 Y258.624
G01 X313.927 Y261.468
G01 X317.134 Y265.478
G01 X320.093 Y269.828
G01 X320.606 Y270.661
G01 X321.942 Y272.500
G01 X318.786 Y267.859
G01 X316.064 Y264.410
G01 X310.603 Y266.371
G01 X306.554 Y267.500
G01 X306.742 Y270.660
G01 X306.753 Y273.879
G01 X306.583 Y277.148
G01 X306.554 Y277.500
G01 X316.064 Y280.590
G01 X318.384 Y277.675
G01 X320.574 Y274.605
G01 X321.942 Y272.500
G01 X319.877 Y275.682
G01 X317.675 Y278.715
G01 X315.346 Y281.596
G01 X315.263 Y281.693
G01 X313.325 Y284.691
G01 X311.251 Y287.575
G01 X309.047 Y290.340
G01 X308.583 Y290.887
G01 X307.247 Y292.725
G01 X309.441 Y289.977
G01 X311.503 Y287.116
G01 X313.125 Y284.635
G01 X308.941 Y278.671
G01 X307.247 Y276.545
G01 X303.400 Y278.023
G01 X299.552 Y279.190
G01 X297.737 Y279.635
G01 X297.948 Y283.132
G01 X297.926 Y286.718
