;  Created by Sandify
;  https://sandify.org
;  Version: 0.2.6
;
;  Machine type: Rectangular
;    Min X (mm): 0
;    Max X (mm): 500
;    Min Y (mm): 0
;    Max Y (mm): 500
;  Content type: shape
;  Layer:
;    Shape: FileImport
;    Name: star.thr
;    From file:: star.thr
;    Aspect Ratio: true
;    Comments: 
;    Visible: true
;    Initial width: 10
;    Initial height: 10
;    X offset: 0
;    Y offset: 0
;    Rotate (degrees): 0
;    Reverse path: false
;    Fine tuning:
;      Connect to next layer: line
;      Draw portion of path (%): 100
;      Backtrack at end (%): 0
;      Rotate starting point (%): 0
;  Reverse export path: false
;
; File name: 'Raisedstart (E) (C SE)'
; File type: gcode
;

G01 X250.000 Y250.000
G01 X249.993 Y250.147
G01 X249.971 Y250.293
G01 X249.935 Y250.436
G01 X249.885 Y250.577
G01 X249.821 Y250.713
G01 X249.744 Y250.844
G01 X249.653 Y250.969
G01 X249.550 Y251.086
G01 X249.434 Y251.196
G01 X249.307 Y251.296
G01 X249.169 Y251.387
G01 X249.020 Y251.467
G01 X248.862 Y251.535
G01 X248.695 Y251.591
G01 X248.519 Y251.634
G01 X248.337 Y251.663
G01 X248.154 Y251.678
G01 X65.015 Y418.168
G01 X73.489 Y427.042
G01 X82.389 Y435.490
G01 X91.693 Y443.491
G01 X101.377 Y451.026
G01 X111.420 Y458.076
G01 X121.797 Y464.625
G01 X132.483 Y470.657
G01 X143.451 Y476.158
G01 X154.677 Y481.114
G01 X166.132 Y485.512
G01 X177.789 Y489.344
G01 X189.620 Y492.599
G01 X201.596 Y495.269
G01 X213.689 Y497.349
G01 X225.870 Y498.833
G01 X238.109 Y499.717
G01 X250.376 Y500.000
G01 X262.643 Y499.680
G01 X274.879 Y498.759
G01 X287.055 Y497.239
G01 X299.141 Y495.123
G01 X302.144 Y494.502
G01 X299.500 Y495.000
G01 X296.750 Y495.000
G01 X294.000 Y495.000
G01 X291.250 Y495.000
G01 X288.500 Y495.000
G01 X285.750 Y495.000
G01 X283.000 Y495.000
G01 X280.250 Y495.000
G01 X277.500 Y495.000
G01 X274.750 Y495.000
G01 X272.000 Y495.000
G01 X269.250 Y495.000
G01 X266.500 Y495.000
G01 X263.750 Y495.000
G01 X261.000 Y495.000
G01 X258.250 Y495.000
G01 X255.500 Y495.000
G01 X252.750 Y495.000
G01 X250.000 Y495.000
G01 X247.250 Y495.000
G01 X244.500 Y495.000
G01 X241.750 Y495.000
G01 X239.000 Y495.000
G01 X236.250 Y495.000
G01 X233.500 Y495.000
G01 X230.750 Y495.000
G01 X228.000 Y495.000
G01 X225.250 Y495.000
G01 X222.500 Y495.000
G01 X219.750 Y495.000
G01 X217.000 Y495.000
G01 X214.250 Y495.000
G01 X211.500 Y495.000
G01 X208.750 Y495.000
G01 X206.000 Y495.000
G01 X203.250 Y495.000
G01 X200.500 Y495.000
G01 X197.856 Y494.502
G01 X185.922 Y491.649
G01 X178.621 Y489.594
G01 X181.250 Y490.000
G01 X184.000 Y490.000
G01 X186.750 Y490.000
G01 X189.500 Y490.000
G01 X192.250 Y490.000
G01 X195.000 Y490.000
G01 X197.750 Y490.000
G01 X200.500 Y490.000
G01 X203.250 Y490.000
G01 X206.000 Y490.000
G01 X208.750 Y490.000
G01 X211.500 Y490.000
G01 X214.250 Y490.000
G01 X217.000 Y490.000
G01 X219.750 Y490.000
G01 X222.500 Y490.000
G01 X225.250 Y490.000
G01 X228.000 Y490.000
G01 X230.750 Y490.000
G01 X233.500 Y490.000
G01 X236.250 Y490.000
G01 X239.000 Y490.000
G01 X241.750 Y490.000
G01 X244.500 Y490.000
G01 X247.250 Y490.000
G01 X250.000 Y490.000
G01 X252.750 Y490.000
G01 X255.500 Y490.000
G01 X258.250 Y490.000
G01 X261.000 Y490.000
G01 X263.750 Y490.000
G01 X266.500 Y490.000
G01 X269.250 Y490.000
G01 X272.000 Y490.000
G01 X274.750 Y490.000
G01 X277.500 Y490.000
G01 X280.250 Y490.000
G01 X283.000 Y490.000
G01 X285.750 Y490.000
G01 X288.500 Y490.000
G01 X291.250 Y490.000
G01 X294.000 Y490.000
G01 X296.750 Y490.000
G01 X299.500 Y490.000
G01 X302.250 Y490.000
G01 X305.000 Y490.000
G01 X307.750 Y490.000
G01 X310.500 Y490.000
G01 X313.250 Y490.000
G01 X316.000 Y490.000
G01 X318.750 Y490.000
G01 X321.379 Y489.594
G01 X333.049 Y485.803
G01 X337.672 Y484.123
G01 X335.250 Y485.000
G01 X332.500 Y485.000
G01 X329.750 Y485.000
G01 X327.000 Y485.000
G01 X324.250 Y485.000
G01 X321.500 Y485.000
G01 X318.750 Y485.000
G01 X316.000 Y485.000
G01 X313.250 Y485.000
G01 X310.500 Y485.000
G01 X307.750 Y485.000
G01 X305.000 Y485.000
G01 X302.250 Y485.000
G01 X299.500 Y485.000
G01 X296.750 Y485.000
G01 X294.000 Y485.000
G01 X291.250 Y485.000
G01 X288.500 Y485.000
G01 X285.750 Y485.000
G01 X283.000 Y485.000
G01 X280.250 Y485.000
G01 X277.500 Y485.000
G01 X274.750 Y485.000
G01 X272.000 Y485.000
G01 X269.250 Y485.000
G01 X266.500 Y485.000
G01 X263.750 Y485.000
G01 X261.000 Y485.000
G01 X258.250 Y485.000
G01 X255.500 Y485.000
G01 X252.750 Y485.000
G01 X250.000 Y485.000
G01 X247.250 Y485.000
G01 X244.500 Y485.000
G01 X241.750 Y485.000
G01 X239.000 Y485.000
G01 X236.250 Y485.000
G01 X233.500 Y485.000
G01 X230.750 Y485.000
G01 X228.000 Y485.000
G01 X225.250 Y485.000
G01 X222.500 Y485.000
G01 X219.750 Y485.000
G01 X217.000 Y485.000
G01 X214.250 Y485.000
G01 X211.500 Y485.000
G01 X208.750 Y485.000
G01 X206.000 Y485.000
G01 X203.250 Y485.000
G01 X200.500 Y485.000
G01 X197.750 Y485.000
G01 X195.000 Y485.000
G01 X192.250 Y485.000
G01 X189.500 Y485.000
G01 X186.750 Y485.000
G01 X184.000 Y485.000
G01 X181.250 Y485.000
G01 X178.500 Y485.000
G01 X175.750 Y485.000
G01 X173.000 Y485.000
G01 X170.250 Y485.000
G01 X167.500 Y485.000
G01 X164.750 Y485.000
G01 X162.328 Y484.123
G01 X151.159 Y479.631
G01 X153.750 Y480.000
G01 X156.500 Y480.000
G01 X159.250 Y480.000
G01 X162.000 Y480.000
G01 X164.750 Y480.000
G01 X167.500 Y480.000
G01 X170.250 Y480.000
G01 X173.000 Y480.000
G01 X175.750 Y480.000
G01 X178.500 Y480.000
G01 X181.250 Y480.000
G01 X184.000 Y480.000
G01 X186.750 Y480.000
G01 X189.500 Y480.000
G01 X192.250 Y480.000
G01 X195.000 Y480.000
G01 X197.750 Y480.000
G01 X200.500 Y480.000
G01 X203.250 Y480.000
G01 X206.000 Y480.000
G01 X208.750 Y480.000
G01 X211.500 Y480.000
G01 X214.250 Y480.000
G01 X217.000 Y480.000
G01 X219.750 Y480.000
G01 X222.500 Y480.000
G01 X225.250 Y480.000
G01 X228.000 Y480.000
G01 X230.750 Y480.000
G01 X233.500 Y480.000
G01 X236.250 Y480.000
G01 X239.000 Y480.000
G01 X241.750 Y480.000
G01 X244.500 Y480.000
G01 X247.250 Y480.000
G01 X250.000 Y480.000
G01 X252.750 Y480.000
G01 X255.500 Y480.000
G01 X258.250 Y480.000
G01 X261.000 Y480.000
G01 X263.750 Y480.000
G01 X266.500 Y480.000
G01 X269.250 Y480.000
G01 X272.000 Y480.000
G01 X274.750 Y480.000
G01 X277.500 Y480.000
G01 X280.250 Y480.000
G01 X283.000 Y480.000
G01 X285.750 Y480.000
G01 X288.500 Y480.000
G01 X291.250 Y480.000
G01 X294.000 Y480.000
G01 X296.750 Y480.000
G01 X299.500 Y480.000
G01 X302.250 Y480.000
G01 X305.000 Y480.000
G01 X307.750 Y480.000
G01 X310.500 Y480.000
G01 X313.250 Y480.000
G01 X316.000 Y480.000
G01 X318.750 Y480.000
G01 X321.500 Y480.000
G01 X324.250 Y480.000
G01 X327.000 Y480.000
G01 X329.750 Y480.000
G01 X332.500 Y480.000
G01 X335.250 Y480.000
G01 X338.000 Y480.000
G01 X340.750 Y480.000
G01 X343.500 Y480.000
G01 X346.250 Y480.000
G01 X348.841 Y479.631
G01 X359.803 Y474.596
G01 X357.250 Y475.000
G01 X354.500 Y475.000
G01 X351.750 Y475.000
G01 X349.000 Y475.000
G01 X346.250 Y475.000
G01 X343.500 Y475.000
G01 X340.750 Y475.000
G01 X338.000 Y475.000
G01 X335.250 Y475.000
G01 X332.500 Y475.000
G01 X329.750 Y475.000
G01 X327.000 Y475.000
G01 X324.250 Y475.000
G01 X321.500 Y475.000
G01 X318.750 Y475.000
G01 X316.000 Y475.000
G01 X313.250 Y475.000
G01 X310.500 Y475.000
G01 X307.750 Y475.000
G01 X305.000 Y475.000
G01 X302.250 Y475.000
G01 X299.500 Y475.000
G01 X296.750 Y475.000
G01 X294.000 Y475.000
G01 X291.250 Y475.000
G01 X288.500 Y475.000
G01 X285.750 Y475.000
G01 X283.000 Y475.000
G01 X280.250 Y475.000
G01 X277.500 Y475.000
G01 X274.750 Y475.000
G01 X272.000 Y475.000
G01 X269.250 Y475.000
G01 X266.500 Y475.000
G01 X263.750 Y475.000
G01 X261.000 Y475.000
G01 X258.250 Y475.000
G01 X255.500 Y475.000
G01 X252.750 Y475.000
G01 X250.000 Y475.000
G01 X247.250 Y475.000
G01 X244.500 Y475.000
G01 X241.750 Y475.000
G01 X239.000 Y475.000
G01 X236.250 Y475.000
G01 X233.500 Y475.000
G01 X230.750 Y475.000
G01 X228.000 Y475.000
G01 X225.250 Y475.000
G01 X222.500 Y475.000
G01 X219.750 Y475.000
G01 X217.000 Y475.000
G01 X214.250 Y475.000
G01 X211.500 Y475.000
G01 X208.750 Y475.000
G01 X206.000 Y475.000
G01 X203.250 Y475.000
G01 X200.500 Y475.000
G01 X197.750 Y475.000
G01 X195.000 Y475.000
G01 X192.250 Y475.000
G01 X189.500 Y475.000
G01 X186.750 Y475.000
G01 X184.000 Y475.000
G01 X181.250 Y475.000
G01 X178.500 Y475.000
G01 X175.750 Y475.000
G01 X173.000 Y475.000
G01 X170.250 Y475.000
G01 X167.500 Y475.000
G01 X164.750 Y475.000
G01 X162.000 Y475.000
G01 X159.250 Y475.000
G01 X156.500 Y475.000
G01 X153.750 Y475.000
G01 X151.000 Y475.000
G01 X148.250 Y475.000
G01 X145.500 Y475.000
G01 X142.750 Y475.000
G01 X140.197 Y474.596
G01 X129.520 Y469.054
G01 X131.750 Y470.000
G01 X134.500 Y470.000
G01 X137.250 Y470.000
G01 X140.000 Y470.000
G01 X142.750 Y470.000
G01 X145.500 Y470.000
G01 X148.250 Y470.000
G01 X151.000 Y470.000
G01 X153.750 Y470.000
G01 X156.500 Y470.000
G01 X159.250 Y470.000
G01 X162.000 Y470.000
G01 X164.750 Y470.000
G01 X167.500 Y470.000
G01 X170.250 Y470.000
G01 X173.000 Y470.000
G01 X175.750 Y470.000
G01 X178.500 Y470.000
G01 X181.250 Y470.000
G01 X184.000 Y470.000
G01 X186.750 Y470.000
G01 X189.500 Y470.000
G01 X192.250 Y470.000
G01 X195.000 Y470.000
G01 X197.750 Y470.000
G01 X200.500 Y470.000
G01 X203.250 Y470.000
G01 X206.000 Y470.000
G01 X208.750 Y470.000
G01 X211.500 Y470.000
G01 X214.250 Y470.000
G01 X217.000 Y470.000
G01 X219.750 Y470.000
G01 X222.500 Y470.000
G01 X225.250 Y470.000
G01 X228.000 Y470.000
G01 X230.750 Y470.000
G01 X233.500 Y470.000
G01 X236.250 Y470.000
G01 X239.000 Y470.000
G01 X241.750 Y470.000
G01 X244.500 Y470.000
G01 X247.250 Y470.000
G01 X250.000 Y470.000
G01 X252.750 Y470.000
G01 X255.500 Y470.000
G01 X258.250 Y470.000
G01 X261.000 Y470.000
G01 X263.750 Y470.000
G01 X266.500 Y470.000
G01 X269.250 Y470.000
G01 X272.000 Y470.000
G01 X274.750 Y470.000
G01 X277.500 Y470.000
G01 X280.250 Y470.000
G01 X283.000 Y470.000
G01 X285.750 Y470.000
G01 X288.500 Y470.000
G01 X291.250 Y470.000
G01 X294.000 Y470.000
G01 X296.750 Y470.000
G01 X299.500 Y470.000
G01 X302.250 Y470.000
G01 X305.000 Y470.000
G01 X307.750 Y470.000
G01 X310.500 Y470.000
G01 X313.250 Y470.000
G01 X316.000 Y470.000
G01 X318.750 Y470.000
G01 X321.500 Y470.000
G01 X324.250 Y470.000
G01 X327.000 Y470.000
G01 X329.750 Y470.000
G01 X332.500 Y470.000
G01 X335.250 Y470.000
G01 X338.000 Y470.000
G01 X340.750 Y470.000
G01 X343.500 Y470.000
G01 X346.250 Y470.000
G01 X349.000 Y470.000
G01 X351.750 Y470.000
G01 X354.500 Y470.000
G01 X357.250 Y470.000
G01 X360.000 Y470.000
G01 X362.750 Y470.000
G01 X365.500 Y470.000
G01 X368.250 Y470.000
G01 X370.480 Y469.054
G01 X378.807 Y464.263
G01 X376.500 Y465.000
G01 X373.750 Y465.000
G01 X371.000 Y465.000
G01 X368.250 Y465.000
G01 X365.500 Y465.000
G01 X362.750 Y465.000
G01 X360.000 Y465.000
G01 X357.250 Y465.000
G01 X354.500 Y465.000
G01 X351.750 Y465.000
G01 X349.000 Y465.000
G01 X346.250 Y465.000
G01 X343.500 Y465.000
G01 X340.750 Y465.000
G01 X338.000 Y465.000
G01 X335.250 Y465.000
G01 X332.500 Y465.000
G01 X329.750 Y465.000
G01 X327.000 Y465.000
G01 X324.250 Y465.000
G01 X321.500 Y465.000
G01 X318.750 Y465.000
G01 X316.000 Y465.000
G01 X313.250 Y465.000
G01 X310.500 Y465.000
G01 X307.750 Y465.000
G01 X305.000 Y465.000
G01 X302.250 Y465.000
G01 X299.500 Y465.000
G01 X296.750 Y465.000
G01 X294.000 Y465.000
G01 X291.250 Y465.000
G01 X288.500 Y465.000
G01 X285.750 Y465.000
G01 X283.000 Y465.000
G01 X280.250 Y465.000
G01 X277.500 Y465.000
G01 X274.750 Y465.000
G01 X272.000 Y465.000
G01 X269.250 Y465.000
G01 X266.500 Y465.000
G01 X263.750 Y465.000
G01 X261.000 Y465.000
G01 X258.250 Y465.000
G01 X255.500 Y465.000
G01 X252.750 Y465.000
G01 X250.000 Y465.000
G01 X247.250 Y465.000
G01 X244.500 Y465.000
G01 X241.750 Y465.000
G01 X239.000 Y465.000
G01 X236.250 Y465.000
G01 X233.500 Y465.000
G01 X230.750 Y465.000
G01 X228.000 Y465.000
G01 X225.250 Y465.000
G01 X222.500 Y465.000
G01 X219.750 Y465.000
G01 X217.000 Y465.000
G01 X214.250 Y465.000
G01 X211.500 Y465.000
G01 X208.750 Y465.000
G01 X206.000 Y465.000
G01 X203.250 Y465.000
G01 X200.500 Y465.000
G01 X197.750 Y465.000
G01 X195.000 Y465.000
G01 X192.250 Y465.000
G01 X189.500 Y465.000
G01 X186.750 Y465.000
G01 X184.000 Y465.000
G01 X181.250 Y465.000
G01 X178.500 Y465.000
G01 X175.750 Y465.000
G01 X173.000 Y465.000
G01 X170.250 Y465.000
G01 X167.500 Y465.000
G01 X164.750 Y465.000
G01 X162.000 Y465.000
G01 X159.250 Y465.000
G01 X156.500 Y465.000
G01 X153.750 Y465.000
G01 X151.000 Y465.000
G01 X148.250 Y465.000
G01 X145.500 Y465.000
G01 X142.750 Y465.000
G01 X140.000 Y465.000
G01 X137.250 Y465.000
G01 X134.500 Y465.000
G01 X131.750 Y465.000
G01 X129.000 Y465.000
G01 X126.250 Y465.000
G01 X123.500 Y465.000
G01 X121.193 Y464.263
G01 X113.054 Y459.155
G01 X115.250 Y460.000
G01 X118.000 Y460.000
G01 X120.750 Y460.000
G01 X123.500 Y460.000
G01 X126.250 Y460.000
G01 X129.000 Y460.000
G01 X131.750 Y460.000
G01 X134.500 Y460.000
G01 X137.250 Y460.000
G01 X140.000 Y460.000
G01 X142.750 Y460.000
G01 X145.500 Y460.000
G01 X148.250 Y460.000
G01 X151.000 Y460.000
G01 X153.750 Y460.000
G01 X156.500 Y460.000
G01 X159.250 Y460.000
G01 X162.000 Y460.000
G01 X164.750 Y460.000
G01 X167.500 Y460.000
G01 X170.250 Y460.000
G01 X173.000 Y460.000
G01 X175.750 Y460.000
G01 X178.500 Y460.000
G01 X181.250 Y460.000
G01 X184.000 Y460.000
G01 X186.750 Y460.000
G01 X189.500 Y460.000
G01 X192.250 Y460.000
G01 X195.000 Y460.000
G01 X197.750 Y460.000
G01 X200.500 Y460.000
G01 X203.250 Y460.000
G01 X206.000 Y460.000
G01 X208.750 Y460.000
G01 X211.500 Y460.000
G01 X214.250 Y460.000
G01 X217.000 Y460.000
G01 X219.750 Y460.000
G01 X222.500 Y460.000
G01 X225.250 Y460.000
G01 X228.000 Y460.000
G01 X230.750 Y460.000
G01 X233.500 Y460.000
G01 X236.250 Y460.000
G01 X239.000 Y460.000
G01 X241.750 Y460.000
G01 X244.500 Y460.000
G01 X247.250 Y460.000
G01 X250.000 Y460.000
G01 X252.750 Y460.000
G01 X255.500 Y460.000
G01 X258.250 Y460.000
G01 X261.000 Y460.000
G01 X263.750 Y460.000
G01 X266.500 Y460.000
G01 X269.250 Y460.000
G01 X272.000 Y460.000
G01 X274.750 Y460.000
G01 X277.500 Y460.000
G01 X280.250 Y460.000
G01 X283.000 Y460.000
G01 X285.750 Y460.000
G01 X288.500 Y460.000
G01 X291.250 Y460.000
G01 X294.000 Y460.000
G01 X296.750 Y460.000
G01 X299.500 Y460.000
G01 X302.250 Y460.000
G01 X305.000 Y460.000
G01 X307.750 Y460.000
G01 X310.500 Y460.000
G01 X313.250 Y460.000
G01 X316.000 Y460.000
G01 X318.750 Y460.000
G01 X321.500 Y460.000
G01 X324.250 Y460.000
G01 X327.000 Y460.000
G01 X329.750 Y460.000
G01 X332.500 Y460.000
G01 X335.250 Y460.000
G01 X338.000 Y460.000
G01 X340.750 Y460.000
G01 X343.500 Y460.000
G01 X346.250 Y460.000
G01 X349.000 Y460.000
G01 X351.750 Y460.000
G01 X354.500 Y460.000
G01 X357.250 Y460.000
G01 X360.000 Y460.000
G01 X362.750 Y460.000
G01 X365.500 Y460.000
G01 X368.250 Y460.000
G01 X371.000 Y460.000
G01 X373.750 Y460.000
G01 X376.500 Y460.000
G01 X379.250 Y460.000
G01 X382.000 Y460.000
G01 X384.750 Y460.000
G01 X386.946 Y459.155
G01 X394.863 Y453.752
G01 X393.000 Y455.000
G01 X390.250 Y455.000
G01 X387.500 Y455.000
G01 X384.750 Y455.000
G01 X382.000 Y455.000
G01 X379.250 Y455.000
G01 X376.500 Y455.000
G01 X373.750 Y455.000
G01 X371.000 Y455.000
G01 X368.250 Y455.000
G01 X365.500 Y455.000
G01 X362.750 Y455.000
G01 X360.000 Y455.000
G01 X357.250 Y455.000
G01 X354.500 Y455.000
G01 X351.750 Y455.000
G01 X349.000 Y455.000
G01 X346.250 Y455.000
G01 X343.500 Y455.000
G01 X340.750 Y455.000
G01 X338.000 Y455.000
G01 X335.250 Y455.000
G01 X332.500 Y455.000
G01 X329.750 Y455.000
G01 X327.000 Y455.000
G01 X324.250 Y455.000
G01 X321.500 Y455.000
G01 X318.750 Y455.000
G01 X316.000 Y455.000
G01 X313.250 Y455.000
G01 X310.500 Y455.000
G01 X307.750 Y455.000
G01 X305.000 Y455.000
G01 X302.250 Y455.000
G01 X299.500 Y455.000
G01 X296.750 Y455.000
G01 X294.000 Y455.000
G01 X291.250 Y455.000
G01 X288.500 Y455.000
G01 X285.750 Y455.000
G01 X283.000 Y455.000
G01 X280.250 Y455.000
G01 X277.500 Y455.000
G01 X274.750 Y455.000
G01 X272.000 Y455.000
G01 X262.826 Y471.571
G01 X260.409 Y475.455
G01 X259.250 Y477.500
G01 X256.500 Y477.500
G01 X253.750 Y477.500
G01 X251.000 Y477.500
G01 X240.633 Y459.440
G01 X239.409 Y457.045
G01 X238.250 Y455.000
G01 X235.500 Y455.000
G01 X232.750 Y455.000
G01 X230.000 Y455.000
G01 X227.250 Y455.000
G01 X224.500 Y455.000
G01 X221.750 Y455.000
G01 X219.000 Y455.000
G01 X216.250 Y455.000
G01 X213.500 Y455.000
G01 X210.750 Y455.000
G01 X208.000 Y455.000
G01 X205.250 Y455.000
G01 X202.500 Y455.000
G01 X199.750 Y455.000
G01 X197.000 Y455.000
G01 X194.250 Y455.000
G01 X191.500 Y455.000
G01 X188.750 Y455.000
G01 X186.000 Y455.000
G01 X183.250 Y455.000
G01 X180.500 Y455.000
G01 X177.750 Y455.000
G01 X175.000 Y455.000
G01 X172.250 Y455.000
G01 X169.500 Y455.000
G01 X166.750 Y455.000
G01 X164.000 Y455.000
G01 X161.250 Y455.000
G01 X158.500 Y455.000
G01 X155.750 Y455.000
G01 X153.000 Y455.000
G01 X150.250 Y455.000
G01 X147.500 Y455.000
G01 X144.750 Y455.000
G01 X142.000 Y455.000
G01 X139.250 Y455.000
G01 X136.500 Y455.000
G01 X133.750 Y455.000
G01 X131.000 Y455.000
G01 X128.250 Y455.000
G01 X125.500 Y455.000
G01 X122.750 Y455.000
G01 X120.000 Y455.000
G01 X117.250 Y455.000
G01 X114.500 Y455.000
G01 X111.750 Y455.000
G01 X109.000 Y455.000
G01 X106.467 Y454.691
G01 X99.204 Y449.400
G01 X101.500 Y450.000
G01 X104.250 Y450.000
G01 X107.000 Y450.000
G01 X109.750 Y450.000
G01 X112.500 Y450.000
G01 X115.250 Y450.000
G01 X118.000 Y450.000
G01 X120.750 Y450.000
G01 X123.500 Y450.000
G01 X126.250 Y450.000
G01 X129.000 Y450.000
G01 X131.750 Y450.000
G01 X134.500 Y450.000
G01 X137.250 Y450.000
G01 X140.000 Y450.000
G01 X142.750 Y450.000
G01 X145.500 Y450.000
G01 X148.250 Y450.000
G01 X151.000 Y450.000
G01 X153.750 Y450.000
G01 X156.500 Y450.000
G01 X159.250 Y450.000
G01 X162.000 Y450.000
G01 X164.750 Y450.000
G01 X167.500 Y450.000
G01 X170.250 Y450.000
G01 X173.000 Y450.000
G01 X175.750 Y450.000
G01 X178.500 Y450.000
G01 X181.250 Y450.000
G01 X184.000 Y450.000
G01 X186.750 Y450.000
G01 X189.500 Y450.000
G01 X192.250 Y450.000
G01 X195.000 Y450.000
G01 X197.750 Y450.000
G01 X200.500 Y450.000
G01 X203.250 Y450.000
G01 X206.000 Y450.000
G01 X208.750 Y450.000
G01 X211.500 Y450.000
G01 X214.250 Y450.000
G01 X217.000 Y450.000
G01 X219.750 Y450.000
G01 X222.500 Y450.000
G01 X225.250 Y450.000
G01 X228.000 Y450.000
G01 X230.750 Y450.000
G01 X233.500 Y450.000
G01 X236.250 Y450.000
G01 X239.000 Y450.000
G01 X241.750 Y450.000
G01 X251.712 Y467.846
G01 X253.341 Y470.455
G01 X254.500 Y472.500
G01 X257.250 Y472.500
G01 X260.000 Y472.500
G01 X269.443 Y456.234
G01 X271.591 Y452.045
G01 X272.750 Y450.000
G01 X275.500 Y450.000
G01 X278.250 Y450.000
G01 X281.000 Y450.000
G01 X283.750 Y450.000
G01 X286.500 Y450.000
G01 X289.250 Y450.000
G01 X292.000 Y450.000
G01 X294.750 Y450.000
G01 X297.500 Y450.000
G01 X300.250 Y450.000
G01 X303.000 Y450.000
G01 X305.750 Y450.000
G01 X308.500 Y450.000
G01 X311.250 Y450.000
G01 X314.000 Y450.000
G01 X316.750 Y450.000
G01 X319.500 Y450.000
G01 X322.250 Y450.000
G01 X325.000 Y450.000
G01 X327.750 Y450.000
G01 X330.500 Y450.000
G01 X333.250 Y450.000
G01 X336.000 Y450.000
G01 X338.750 Y450.000
G01 X341.500 Y450.000
G01 X344.250 Y450.000
G01 X347.000 Y450.000
G01 X349.750 Y450.000
G01 X352.500 Y450.000
G01 X355.250 Y450.000
G01 X358.000 Y450.000
G01 X360.750 Y450.000
G01 X363.500 Y450.000
G01 X366.250 Y450.000
G01 X369.000 Y450.000
G01 X371.750 Y450.000
G01 X374.500 Y450.000
G01 X377.250 Y450.000
G01 X380.000 Y450.000
G01 X382.750 Y450.000
G01 X385.500 Y450.000
G01 X388.250 Y450.000
G01 X391.000 Y450.000
G01 X393.750 Y450.000
G01 X396.500 Y450.000
G01 X399.250 Y450.000
G01 X401.271 Y449.041
G01 X406.630 Y444.851
G01 X404.000 Y445.000
G01 X401.250 Y445.000
G01 X398.500 Y445.000
G01 X395.750 Y445.000
G01 X393.000 Y445.000
G01 X390.250 Y445.000
G01 X387.500 Y445.000
G01 X384.750 Y445.000
G01 X382.000 Y445.000
G01 X379.250 Y445.000
G01 X376.500 Y445.000
G01 X373.750 Y445.000
G01 X371.000 Y445.000
G01 X368.250 Y445.000
G01 X365.500 Y445.000
G01 X362.750 Y445.000
G01 X360.000 Y445.000
G01 X357.250 Y445.000
G01 X354.500 Y445.000
G01 X351.750 Y445.000
G01 X349.000 Y445.000
G01 X346.250 Y445.000
G01 X343.500 Y445.000
G01 X340.750 Y445.000
G01 X338.000 Y445.000
G01 X335.250 Y445.000
G01 X332.500 Y445.000
G01 X329.750 Y445.000
G01 X327.000 Y445.000
G01 X324.250 Y445.000
G01 X321.500 Y445.000
G01 X318.750 Y445.000
G01 X316.000 Y445.000
G01 X313.250 Y445.000
G01 X310.500 Y445.000
G01 X307.750 Y445.000
G01 X305.000 Y445.000
G01 X302.250 Y445.000
G01 X299.500 Y445.000
G01 X296.750 Y445.000
G01 X294.000 Y445.000
G01 X291.250 Y445.000
G01 X288.500 Y445.000
G01 X285.750 Y445.000
G01 X283.000 Y445.000
G01 X280.250 Y445.000
G01 X277.500 Y445.000
G01 X274.750 Y445.000
G01 X266.258 Y460.288
G01 X264.318 Y463.409
G01 X262.000 Y467.500
G01 X259.250 Y467.500
G01 X256.500 Y467.500
G01 X253.750 Y467.500
G01 X243.631 Y449.926
G01 X242.159 Y447.045
G01 X241.000 Y445.000
G01 X238.250 Y445.000
G01 X235.500 Y445.000
G01 X232.750 Y445.000
G01 X230.000 Y445.000
G01 X227.250 Y445.000
G01 X224.500 Y445.000
G01 X221.750 Y445.000
G01 X219.000 Y445.000
G01 X216.250 Y445.000
G01 X213.500 Y445.000
G01 X210.750 Y445.000
G01 X208.000 Y445.000
G01 X205.250 Y445.000
G01 X202.500 Y445.000
G01 X199.750 Y445.000
G01 X197.000 Y445.000
G01 X194.250 Y445.000
G01 X191.500 Y445.000
G01 X188.750 Y445.000
G01 X186.000 Y445.000
G01 X183.250 Y445.000
G01 X180.500 Y445.000
G01 X177.750 Y445.000
G01 X175.000 Y445.000
G01 X172.250 Y445.000
G01 X169.500 Y445.000
G01 X166.750 Y445.000
G01 X164.000 Y445.000
G01 X161.250 Y445.000
G01 X158.500 Y445.000
G01 X155.750 Y445.000
G01 X153.000 Y445.000
G01 X150.250 Y445.000
G01 X147.500 Y445.000
G01 X144.750 Y445.000
G01 X142.000 Y445.000
G01 X139.250 Y445.000
G01 X136.500 Y445.000
G01 X133.750 Y445.000
G01 X131.000 Y445.000
G01 X128.250 Y445.000
G01 X125.500 Y445.000
G01 X122.750 Y445.000
G01 X120.000 Y445.000
G01 X117.250 Y445.000
G01 X114.500 Y445.000
G01 X111.750 Y445.000
G01 X109.000 Y445.000
G01 X106.250 Y445.000
G01 X103.500 Y445.000
G01 X100.750 Y445.000
G01 X98.000 Y445.000
G01 X95.250 Y445.000
G01 X92.916 Y444.485
G01 X86.078 Y438.758
G01 X87.750 Y440.000
G01 X90.500 Y440.000
G01 X93.250 Y440.000
G01 X96.000 Y440.000
G01 X98.750 Y440.000
G01 X101.500 Y440.000
G01 X104.250 Y440.000
G01 X107.000 Y440.000
G01 X109.750 Y440.000
G01 X112.500 Y440.000
G01 X115.250 Y440.000
G01 X118.000 Y440.000
G01 X120.750 Y440.000
G01 X123.500 Y440.000
G01 X126.250 Y440.000
G01 X129.000 Y440.000
G01 X131.750 Y440.000
G01 X134.500 Y440.000
G01 X137.250 Y440.000
G01 X140.000 Y440.000
G01 X142.750 Y440.000
G01 X145.500 Y440.000
G01 X148.250 Y440.000
G01 X151.000 Y440.000
G01 X153.750 Y440.000
G01 X156.500 Y440.000
G01 X159.250 Y440.000
G01 X162.000 Y440.000
G01 X164.750 Y440.000
G01 X167.500 Y440.000
G01 X170.250 Y440.000
G01 X173.000 Y440.000
G01 X175.750 Y440.000
G01 X178.500 Y440.000
G01 X181.250 Y440.000
G01 X184.000 Y440.000
G01 X186.750 Y440.000
G01 X189.500 Y440.000
G01 X192.250 Y440.000
G01 X195.000 Y440.000
G01 X197.750 Y440.000
G01 X200.500 Y440.000
G01 X203.250 Y440.000
G01 X206.000 Y440.000
G01 X208.750 Y440.000
G01 X211.500 Y440.000
G01 X214.250 Y440.000
G01 X217.000 Y440.000
G01 X219.750 Y440.000
G01 X222.500 Y440.000
G01 X225.250 Y440.000
G01 X228.000 Y440.000
G01 X230.750 Y440.000
G01 X233.500 Y440.000
G01 X236.250 Y440.000
G01 X245.227 Y456.076
G01 X246.682 Y458.409
G01 X249.000 Y462.500
G01 X251.750 Y462.500
G01 X254.500 Y462.500
G01 X257.250 Y462.500
G01 X260.000 Y462.500
G01 X262.750 Y462.500
G01 X265.500 Y462.500
G01 X274.192 Y447.478
G01 X275.932 Y444.091
G01 X278.250 Y440.000
G01 X281.000 Y440.000
G01 X283.750 Y440.000
G01 X286.500 Y440.000
G01 X289.250 Y440.000
G01 X292.000 Y440.000
G01 X294.750 Y440.000
G01 X297.500 Y440.000
G01 X300.250 Y440.000
G01 X303.000 Y440.000
G01 X305.750 Y440.000
G01 X308.500 Y440.000
G01 X311.250 Y440.000
G01 X314.000 Y440.000
G01 X316.750 Y440.000
G01 X319.500 Y440.000
G01 X322.250 Y440.000
G01 X325.000 Y440.000
G01 X327.750 Y440.000
G01 X330.500 Y440.000
G01 X333.250 Y440.000
G01 X336.000 Y440.000
G01 X338.750 Y440.000
G01 X341.500 Y440.000
G01 X344.250 Y440.000
G01 X347.000 Y440.000
G01 X349.750 Y440.000
G01 X352.500 Y440.000
G01 X355.250 Y440.000
G01 X358.000 Y440.000
G01 X360.750 Y440.000
G01 X363.500 Y440.000
G01 X366.250 Y440.000
G01 X369.000 Y440.000
G01 X371.750 Y440.000
G01 X374.500 Y440.000
G01 X377.250 Y440.000
G01 X380.000 Y440.000
G01 X382.750 Y440.000
G01 X385.500 Y440.000
G01 X388.250 Y440.000
G01 X391.000 Y440.000
G01 X393.750 Y440.000
G01 X396.500 Y440.000
G01 X399.250 Y440.000
G01 X402.000 Y440.000
G01 X404.750 Y440.000
G01 X407.500 Y440.000
G01 X410.250 Y440.000
G01 X412.780 Y439.744
G01 X419.426 Y433.834
G01 X417.750 Y435.000
G01 X415.000 Y435.000
G01 X412.250 Y435.000
G01 X409.500 Y435.000
G01 X406.750 Y435.000
G01 X404.000 Y435.000
G01 X401.250 Y435.000
G01 X398.500 Y435.000
G01 X395.750 Y435.000
G01 X393.000 Y435.000
G01 X390.250 Y435.000
G01 X387.500 Y435.000
G01 X384.750 Y435.000
G01 X382.000 Y435.000
G01 X379.250 Y435.000
G01 X376.500 Y435.000
G01 X373.750 Y435.000
G01 X371.000 Y435.000
G01 X368.250 Y435.000
G01 X365.500 Y435.000
G01 X362.750 Y435.000
G01 X360.000 Y435.000
G01 X357.250 Y435.000
G01 X354.500 Y435.000
G01 X351.750 Y435.000
G01 X349.000 Y435.000
G01 X346.250 Y435.000
G01 X343.500 Y435.000
G01 X340.750 Y435.000
G01 X338.000 Y435.000
G01 X335.250 Y435.000
G01 X332.500 Y435.000
G01 X329.750 Y435.000
G01 X327.000 Y435.000
G01 X324.250 Y435.000
G01 X321.500 Y435.000
G01 X318.750 Y435.000
G01 X316.000 Y435.000
G01 X313.250 Y435.000
G01 X310.500 Y435.000
G01 X307.750 Y435.000
G01 X305.000 Y435.000
G01 X302.250 Y435.000
G01 X299.500 Y435.000
G01 X296.750 Y435.000
G01 X294.000 Y435.000
G01 X291.250 Y435.000
G01 X288.500 Y435.000
G01 X285.750 Y435.000
G01 X283.000 Y435.000
G01 X280.250 Y435.000
G01 X277.500 Y435.000
G01 X269.681 Y449.202
G01 X267.068 Y453.409
G01 X264.750 Y457.500
G01 X262.000 Y457.500
G01 X259.250 Y457.500
G01 X256.500 Y457.500
G01 X253.750 Y457.500
G01 X251.000 Y457.500
G01 X248.250 Y457.500
G01 X238.980 Y441.363
G01 X237.818 Y439.091
G01 X235.500 Y435.000
G01 X232.750 Y435.000
G01 X230.000 Y435.000
G01 X227.250 Y435.000
G01 X224.500 Y435.000
G01 X221.750 Y435.000
G01 X219.000 Y435.000
G01 X216.250 Y435.000
G01 X213.500 Y435.000
G01 X210.750 Y435.000
G01 X208.000 Y435.000
G01 X205.250 Y435.000
G01 X202.500 Y435.000
G01 X199.750 Y435.000
G01 X197.000 Y435.000
G01 X194.250 Y435.000
G01 X191.500 Y435.000
G01 X188.750 Y435.000
G01 X186.000 Y435.000
G01 X183.250 Y435.000
G01 X180.500 Y435.000
G01 X177.750 Y435.000
G01 X175.000 Y435.000
G01 X172.250 Y435.000
G01 X169.500 Y435.000
G01 X166.750 Y435.000
G01 X164.000 Y435.000
G01 X161.250 Y435.000
G01 X158.500 Y435.000
G01 X155.750 Y435.000
G01 X153.000 Y435.000
G01 X150.250 Y435.000
G01 X147.500 Y435.000
G01 X144.750 Y435.000
G01 X142.000 Y435.000
G01 X139.250 Y435.000
G01 X136.500 Y435.000
G01 X133.750 Y435.000
G01 X131.000 Y435.000
G01 X128.250 Y435.000
G01 X125.500 Y435.000
G01 X122.750 Y435.000
G01 X120.000 Y435.000
G01 X117.250 Y435.000
G01 X114.500 Y435.000
G01 X111.750 Y435.000
G01 X109.000 Y435.000
G01 X106.250 Y435.000
G01 X103.500 Y435.000
G01 X100.750 Y435.000
G01 X98.000 Y435.000
G01 X95.250 Y435.000
G01 X92.500 Y435.000
G01 X89.750 Y435.000
G01 X87.000 Y435.000
G01 X84.250 Y435.000
G01 X81.658 Y434.827
G01 X75.221 Y428.752
G01 X76.750 Y430.000
G01 X79.500 Y430.000
G01 X82.250 Y430.000
G01 X85.000 Y430.000
G01 X87.750 Y430.000
G01 X90.500 Y430.000
G01 X93.250 Y430.000
G01 X96.000 Y430.000
G01 X98.750 Y430.000
G01 X101.500 Y430.000
G01 X104.250 Y430.000
G01 X107.000 Y430.000
G01 X109.750 Y430.000
G01 X112.500 Y430.000
G01 X115.250 Y430.000
G01 X118.000 Y430.000
G01 X120.750 Y430.000
G01 X123.500 Y430.000
G01 X126.250 Y430.000
G01 X129.000 Y430.000
G01 X131.750 Y430.000
G01 X134.500 Y430.000
G01 X137.250 Y430.000
G01 X140.000 Y430.000
G01 X142.750 Y430.000
G01 X145.500 Y430.000
G01 X148.250 Y430.000
G01 X151.000 Y430.000
G01 X153.750 Y430.000
G01 X156.500 Y430.000
G01 X159.250 Y430.000
G01 X162.000 Y430.000
G01 X164.750 Y430.000
G01 X167.500 Y430.000
G01 X170.250 Y430.000
G01 X173.000 Y430.000
G01 X175.750 Y430.000
G01 X178.500 Y430.000
G01 X181.250 Y430.000
G01 X184.000 Y430.000
G01 X186.750 Y430.000
G01 X189.500 Y430.000
G01 X192.250 Y430.000
G01 X195.000 Y430.000
G01 X197.750 Y430.000
G01 X200.500 Y430.000
G01 X203.250 Y430.000
G01 X206.000 Y430.000
G01 X208.750 Y430.000
G01 X211.500 Y430.000
G01 X214.250 Y430.000
G01 X217.000 Y430.000
G01 X219.750 Y430.000
G01 X222.500 Y430.000
G01 X225.250 Y430.000
G01 X228.000 Y430.000
G01 X230.750 Y430.000
G01 X233.500 Y430.000
G01 X241.746 Y444.900
G01 X243.932 Y448.409
G01 X246.250 Y452.500
G01 X249.000 Y452.500
G01 X251.750 Y452.500
G01 X254.500 Y452.500
G01 X257.250 Y452.500
G01 X260.000 Y452.500
G01 X262.750 Y452.500
G01 X265.500 Y452.500
G01 X268.250 Y452.500
G01 X276.376 Y438.576
G01 X278.682 Y434.091
G01 X281.000 Y430.000
G01 X283.750 Y430.000
G01 X286.500 Y430.000
G01 X289.250 Y430.000
G01 X292.000 Y430.000
G01 X294.750 Y430.000
G01 X297.500 Y430.000
G01 X300.250 Y430.000
G01 X303.000 Y430.000
G01 X305.750 Y430.000
G01 X308.500 Y430.000
G01 X311.250 Y430.000
G01 X314.000 Y430.000
G01 X316.750 Y430.000
G01 X319.500 Y430.000
G01 X322.250 Y430.000
G01 X325.000 Y430.000
G01 X327.750 Y430.000
G01 X330.500 Y430.000
G01 X333.250 Y430.000
G01 X336.000 Y430.000
G01 X338.750 Y430.000
G01 X341.500 Y430.000
G01 X344.250 Y430.000
G01 X347.000 Y430.000
G01 X349.750 Y430.000
G01 X352.500 Y430.000
G01 X355.250 Y430.000
G01 X358.000 Y430.000
G01 X360.750 Y430.000
G01 X363.500 Y430.000
G01 X366.250 Y430.000
G01 X369.000 Y430.000
G01 X371.750 Y430.000
G01 X374.500 Y430.000
G01 X377.250 Y430.000
G01 X380.000 Y430.000
G01 X382.750 Y430.000
G01 X385.500 Y430.000
G01 X388.250 Y430.000
G01 X391.000 Y430.000
G01 X393.750 Y430.000
G01 X396.500 Y430.000
G01 X399.250 Y430.000
G01 X402.000 Y430.000
G01 X404.750 Y430.000
G01 X407.500 Y430.000
G01 X410.250 Y430.000
G01 X413.000 Y430.000
G01 X415.750 Y430.000
G01 X418.500 Y430.000
G01 X421.250 Y430.000
G01 X423.756 Y429.747
G01 X428.641 Y424.893
G01 X426.000 Y425.000
G01 X423.250 Y425.000
G01 X420.500 Y425.000
G01 X417.750 Y425.000
G01 X415.000 Y425.000
G01 X412.250 Y425.000
G01 X409.500 Y425.000
G01 X406.750 Y425.000
G01 X404.000 Y425.000
G01 X401.250 Y425.000
G01 X398.500 Y425.000
G01 X395.750 Y425.000
G01 X393.000 Y425.000
G01 X390.250 Y425.000
G01 X387.500 Y425.000
G01 X384.750 Y425.000
G01 X382.000 Y425.000
G01 X379.250 Y425.000
G01 X376.500 Y425.000
G01 X373.750 Y425.000
G01 X371.000 Y425.000
G01 X368.250 Y425.000
G01 X365.500 Y425.000
G01 X362.750 Y425.000
G01 X360.000 Y425.000
G01 X357.250 Y425.000
G01 X354.500 Y425.000
G01 X351.750 Y425.000
G01 X349.000 Y425.000
G01 X346.250 Y425.000
G01 X343.500 Y425.000
G01 X340.750 Y425.000
G01 X338.000 Y425.000
G01 X335.250 Y425.000
G01 X332.500 Y425.000
G01 X329.750 Y425.000
G01 X327.000 Y425.000
G01 X324.250 Y425.000
G01 X321.500 Y425.000
G01 X318.750 Y425.000
G01 X316.000 Y425.000
G01 X313.250 Y425.000
G01 X310.500 Y425.000
G01 X307.750 Y425.000
G01 X305.000 Y425.000
G01 X302.250 Y425.000
G01 X299.500 Y425.000
G01 X296.750 Y425.000
G01 X294.000 Y425.000
G01 X291.250 Y425.000
G01 X288.500 Y425.000
G01 X285.750 Y425.000
G01 X283.000 Y425.000
G01 X275.965 Y437.929
G01 X272.568 Y443.409
G01 X270.250 Y447.500
G01 X267.500 Y447.500
G01 X264.750 Y447.500
G01 X262.000 Y447.500
G01 X259.250 Y447.500
G01 X256.500 Y447.500
G01 X253.750 Y447.500
G01 X251.000 Y447.500
G01 X248.250 Y447.500
G01 X245.500 Y447.500
G01 X236.856 Y432.581
G01 X235.068 Y429.091
G01 X232.750 Y425.000
G01 X230.000 Y425.000
G01 X227.250 Y425.000
G01 X224.500 Y425.000
G01 X221.750 Y425.000
G01 X219.000 Y425.000
G01 X216.250 Y425.000
G01 X213.500 Y425.000
G01 X210.750 Y425.000
G01 X208.000 Y425.000
G01 X205.250 Y425.000
G01 X202.500 Y425.000
G01 X199.750 Y425.000
G01 X197.000 Y425.000
G01 X194.250 Y425.000
G01 X191.500 Y425.000
G01 X188.750 Y425.000
G01 X186.000 Y425.000
G01 X183.250 Y425.000
G01 X180.500 Y425.000
G01 X177.750 Y425.000
G01 X175.000 Y425.000
G01 X172.250 Y425.000
G01 X169.500 Y425.000
G01 X166.750 Y425.000
G01 X164.000 Y425.000
G01 X161.250 Y425.000
G01 X158.500 Y425.000
G01 X155.750 Y425.000
G01 X153.000 Y425.000
G01 X150.250 Y425.000
G01 X147.500 Y425.000
G01 X144.750 Y425.000
G01 X142.000 Y425.000
G01 X139.250 Y425.000
G01 X136.500 Y425.000
G01 X133.750 Y425.000
G01 X131.000 Y425.000
G01 X128.250 Y425.000
G01 X125.500 Y425.000
G01 X122.750 Y425.000
G01 X120.000 Y425.000
G01 X117.250 Y425.000
G01 X114.500 Y425.000
G01 X111.750 Y425.000
G01 X109.000 Y425.000
G01 X106.250 Y425.000
G01 X103.500 Y425.000
G01 X100.750 Y425.000
G01 X98.000 Y425.000
G01 X95.250 Y425.000
G01 X92.500 Y425.000
G01 X89.750 Y425.000
G01 X87.000 Y425.000
G01 X84.250 Y425.000
G01 X81.500 Y425.000
G01 X78.750 Y425.000
G01 X76.000 Y425.000
G01 X73.250 Y425.000
G01 X70.994 Y424.519
G01 X66.261 Y419.529
G01 X68.500 Y420.000
G01 X71.250 Y420.000
G01 X74.000 Y420.000
G01 X76.750 Y420.000
G01 X79.500 Y420.000
G01 X82.250 Y420.000
G01 X85.000 Y420.000
G01 X87.750 Y420.000
G01 X90.500 Y420.000
G01 X93.250 Y420.000
G01 X96.000 Y420.000
G01 X98.750 Y420.000
G01 X101.500 Y420.000
G01 X104.250 Y420.000
G01 X107.000 Y420.000
G01 X109.750 Y420.000
G01 X112.500 Y420.000
G01 X115.250 Y420.000
G01 X118.000 Y420.000
G01 X120.750 Y420.000
G01 X123.500 Y420.000
G01 X126.250 Y420.000
G01 X129.000 Y420.000
G01 X131.750 Y420.000
G01 X134.500 Y420.000
G01 X137.250 Y420.000
G01 X140.000 Y420.000
G01 X142.750 Y420.000
G01 X145.500 Y420.000
G01 X148.250 Y420.000
G01 X151.000 Y420.000
G01 X153.750 Y420.000
G01 X156.500 Y420.000
G01 X159.250 Y420.000
G01 X162.000 Y420.000
G01 X164.750 Y420.000
G01 X167.500 Y420.000
G01 X170.250 Y420.000
G01 X173.000 Y420.000
G01 X175.750 Y420.000
G01 X178.500 Y420.000
G01 X181.250 Y420.000
G01 X184.000 Y420.000
G01 X186.750 Y420.000
G01 X189.500 Y420.000
G01 X192.250 Y420.000
G01 X195.000 Y420.000
G01 X197.750 Y420.000
G01 X200.500 Y420.000
G01 X203.250 Y420.000
G01 X206.000 Y420.000
G01 X208.750 Y420.000
G01 X211.500 Y420.000
G01 X214.250 Y420.000
G01 X217.000 Y420.000
G01 X219.750 Y420.000
G01 X222.500 Y420.000
G01 X225.250 Y420.000
G01 X228.000 Y420.000
G01 X230.750 Y420.000
G01 X238.285 Y433.753
G01 X241.182 Y438.409
G01 X243.500 Y442.500
G01 X246.250 Y442.500
G01 X249.000 Y442.500
G01 X251.750 Y442.500
G01 X254.500 Y442.500
G01 X257.250 Y442.500
G01 X260.000 Y442.500
G01 X262.750 Y442.500
G01 X265.500 Y442.500
G01 X268.250 Y442.500
G01 X271.000 Y442.500
G01 X278.576 Y429.641
G01 X281.432 Y424.091
G01 X283.750 Y420.000
G01 X286.500 Y420.000
G01 X289.250 Y420.000
G01 X292.000 Y420.000
G01 X294.750 Y420.000
G01 X297.500 Y420.000
G01 X300.250 Y420.000
G01 X303.000 Y420.000
G01 X305.750 Y420.000
G01 X308.500 Y420.000
G01 X311.250 Y420.000
G01 X314.000 Y420.000
G01 X316.750 Y420.000
G01 X319.500 Y420.000
G01 X322.250 Y420.000
G01 X325.000 Y420.000
G01 X327.750 Y420.000
G01 X330.500 Y420.000
G01 X333.250 Y420.000
G01 X336.000 Y420.000
G01 X338.750 Y420.000
G01 X341.500 Y420.000
G01 X344.250 Y420.000
G01 X347.000 Y420.000
G01 X349.750 Y420.000
G01 X352.500 Y420.000
G01 X355.250 Y420.000
G01 X358.000 Y420.000
G01 X360.750 Y420.000
G01 X363.500 Y420.000
G01 X366.250 Y420.000
G01 X369.000 Y420.000
G01 X371.750 Y420.000
G01 X374.500 Y420.000
G01 X377.250 Y420.000
G01 X380.000 Y420.000
G01 X382.750 Y420.000
G01 X385.500 Y420.000
G01 X388.250 Y420.000
G01 X391.000 Y420.000
G01 X393.750 Y420.000
G01 X396.500 Y420.000
G01 X399.250 Y420.000
G01 X402.000 Y420.000
G01 X404.750 Y420.000
G01 X407.500 Y420.000
G01 X410.250 Y420.000
G01 X413.000 Y420.000
G01 X415.750 Y420.000
G01 X418.500 Y420.000
G01 X421.250 Y420.000
G01 X424.000 Y420.000
G01 X426.750 Y420.000
G01 X429.500 Y420.000
G01 X432.250 Y420.000
G01 X434.082 Y419.156
G01 X438.651 Y414.045
G01 X437.000 Y415.000
G01 X434.250 Y415.000
G01 X431.500 Y415.000
G01 X428.750 Y415.000
G01 X426.000 Y415.000
G01 X423.250 Y415.000
G01 X420.500 Y415.000
G01 X417.750 Y415.000
G01 X415.000 Y415.000
G01 X412.250 Y415.000
G01 X409.500 Y415.000
G01 X406.750 Y415.000
G01 X404.000 Y415.000
G01 X401.250 Y415.000
G01 X398.500 Y415.000
G01 X395.750 Y415.000
G01 X393.000 Y415.000
G01 X390.250 Y415.000
G01 X387.500 Y415.000
G01 X384.750 Y415.000
G01 X382.000 Y415.000
G01 X379.250 Y415.000
G01 X376.500 Y415.000
G01 X373.750 Y415.000
G01 X371.000 Y415.000
G01 X368.250 Y415.000
G01 X365.500 Y415.000
G01 X362.750 Y415.000
G01 X360.000 Y415.000
G01 X357.250 Y415.000
G01 X354.500 Y415.000
G01 X351.750 Y415.000
G01 X349.000 Y415.000
G01 X346.250 Y415.000
G01 X343.500 Y415.000
G01 X340.750 Y415.000
G01 X338.000 Y415.000
G01 X335.250 Y415.000
G01 X332.500 Y415.000
G01 X329.750 Y415.000
G01 X327.000 Y415.000
G01 X324.250 Y415.000
G01 X321.500 Y415.000
G01 X318.750 Y415.000
G01 X316.000 Y415.000
G01 X313.250 Y415.000
G01 X310.500 Y415.000
G01 X307.750 Y415.000
G01 X305.000 Y415.000
G01 X302.250 Y415.000
G01 X299.500 Y415.000
G01 X296.750 Y415.000
G01 X294.000 Y415.000
G01 X291.250 Y415.000
G01 X288.500 Y415.000
G01 X285.750 Y415.000
G01 X279.308 Y426.791
G01 X276.477 Y431.364
G01 X273.000 Y437.500
G01 X270.250 Y437.500
G01 X267.500 Y437.500
G01 X264.750 Y437.500
G01 X262.000 Y437.500
G01 X259.250 Y437.500
G01 X256.500 Y437.500
G01 X253.750 Y437.500
G01 X251.000 Y437.500
G01 X248.250 Y437.500
G01 X245.500 Y437.500
G01 X242.750 Y437.500
G01 X234.715 Y423.768
G01 X232.318 Y419.091
G01 X230.000 Y415.000
G01 X227.250 Y415.000
G01 X224.500 Y415.000
G01 X221.750 Y415.000
G01 X219.000 Y415.000
G01 X216.250 Y415.000
G01 X213.500 Y415.000
G01 X210.750 Y415.000
G01 X208.000 Y415.000
G01 X205.250 Y415.000
G01 X202.500 Y415.000
G01 X199.750 Y415.000
G01 X197.000 Y415.000
G01 X194.250 Y415.000
G01 X191.500 Y415.000
G01 X188.750 Y415.000
G01 X186.000 Y415.000
G01 X183.250 Y415.000
G01 X180.500 Y415.000
G01 X177.750 Y415.000
G01 X175.000 Y415.000
G01 X172.250 Y415.000
G01 X169.500 Y415.000
G01 X166.750 Y415.000
G01 X164.000 Y415.000
G01 X161.250 Y415.000
G01 X158.500 Y415.000
G01 X155.750 Y415.000
G01 X153.000 Y415.000
G01 X150.250 Y415.000
G01 X147.500 Y415.000
G01 X144.750 Y415.000
G01 X142.000 Y415.000
G01 X139.250 Y415.000
G01 X136.500 Y415.000
G01 X133.750 Y415.000
G01 X131.000 Y415.000
G01 X128.250 Y415.000
G01 X125.500 Y415.000
G01 X122.750 Y415.000
G01 X120.000 Y415.000
G01 X117.250 Y415.000
G01 X114.500 Y415.000
G01 X111.750 Y415.000
G01 X109.000 Y415.000
G01 X106.250 Y415.000
G01 X103.500 Y415.000
G01 X100.750 Y415.000
G01 X98.000 Y415.000
G01 X95.250 Y415.000
G01 X92.500 Y415.000
G01 X89.750 Y415.000
G01 X87.000 Y415.000
G01 X84.250 Y415.000
G01 X81.500 Y415.000
G01 X78.750 Y415.000
G01 X76.000 Y415.000
G01 X73.250 Y415.000
G01 X70.500 Y415.000
G01 X67.750 Y415.000
G01 X65.000 Y415.000
G01 X62.250 Y415.000
G01 X61.029 Y413.676
G01 X57.740 Y409.800
G01 X60.250 Y410.000
G01 X63.000 Y410.000
G01 X65.750 Y410.000
G01 X68.500 Y410.000
G01 X71.250 Y410.000
G01 X74.000 Y410.000
G01 X76.750 Y410.000
G01 X79.500 Y410.000
G01 X82.250 Y410.000
G01 X85.000 Y410.000
G01 X87.750 Y410.000
G01 X90.500 Y410.000
G01 X93.250 Y410.000
G01 X96.000 Y410.000
G01 X98.750 Y410.000
G01 X101.500 Y410.000
G01 X104.250 Y410.000
G01 X107.000 Y410.000
G01 X109.750 Y410.000
G01 X112.500 Y410.000
G01 X115.250 Y410.000
G01 X118.000 Y410.000
G01 X120.750 Y410.000
G01 X123.500 Y410.000
G01 X126.250 Y410.000
G01 X129.000 Y410.000
G01 X131.750 Y410.000
G01 X134.500 Y410.000
G01 X137.250 Y410.000
G01 X140.000 Y410.000
G01 X142.750 Y410.000
G01 X145.500 Y410.000
G01 X148.250 Y410.000
G01 X151.000 Y410.000
G01 X153.750 Y410.000
G01 X156.500 Y410.000
G01 X159.250 Y410.000
G01 X162.000 Y410.000
G01 X164.750 Y410.000
G01 X167.500 Y410.000
G01 X170.250 Y410.000
G01 X173.000 Y410.000
G01 X175.750 Y410.000
G01 X178.500 Y410.000
G01 X181.250 Y410.000
G01 X184.000 Y410.000
G01 X186.750 Y410.000
G01 X189.500 Y410.000
G01 X192.250 Y410.000
G01 X195.000 Y410.000
G01 X197.750 Y410.000
G01 X200.500 Y410.000
G01 X203.250 Y410.000
G01 X206.000 Y410.000
G01 X208.750 Y410.000
G01 X211.500 Y410.000
G01 X214.250 Y410.000
G01 X217.000 Y410.000
G01 X219.750 Y410.000
G01 X222.500 Y410.000
G01 X225.250 Y410.000
G01 X228.000 Y410.000
G01 X234.860 Y422.480
G01 X237.273 Y426.364
G01 X240.750 Y432.500
G01 X243.500 Y432.500
G01 X246.250 Y432.500
G01 X249.000 Y432.500
G01 X251.750 Y432.500
G01 X254.500 Y432.500
G01 X257.250 Y432.500
G01 X260.000 Y432.500
G01 X262.750 Y432.500
G01 X265.500 Y432.500
G01 X268.250 Y432.500
G01 X271.000 Y432.500
G01 X273.750 Y432.500
G01 X280.765 Y420.519
G01 X283.023 Y416.136
G01 X286.500 Y410.000
G01 X289.250 Y410.000
G01 X292.000 Y410.000
G01 X294.750 Y410.000
G01 X297.500 Y410.000
G01 X300.250 Y410.000
G01 X303.000 Y410.000
G01 X305.750 Y410.000
G01 X308.500 Y410.000
G01 X311.250 Y410.000
G01 X314.000 Y410.000
G01 X316.750 Y410.000
G01 X319.500 Y410.000
G01 X322.250 Y410.000
G01 X325.000 Y410.000
G01 X327.750 Y410.000
G01 X330.500 Y410.000
G01 X333.250 Y410.000
G01 X336.000 Y410.000
G01 X338.750 Y410.000
G01 X341.500 Y410.000
G01 X344.250 Y410.000
G01 X347.000 Y410.000
G01 X349.750 Y410.000
G01 X352.500 Y410.000
G01 X355.250 Y410.000
G01 X358.000 Y410.000
G01 X360.750 Y410.000
G01 X363.500 Y410.000
G01 X366.250 Y410.000
G01 X369.000 Y410.000
G01 X371.750 Y410.000
G01 X374.500 Y410.000
G01 X377.250 Y410.000
G01 X380.000 Y410.000
G01 X382.750 Y410.000
G01 X385.500 Y410.000
G01 X388.250 Y410.000
G01 X391.000 Y410.000
G01 X393.750 Y410.000
G01 X396.500 Y410.000
G01 X399.250 Y410.000
G01 X402.000 Y410.000
G01 X404.750 Y410.000
G01 X407.500 Y410.000
G01 X410.250 Y410.000
G01 X413.000 Y410.000
G01 X415.750 Y410.000
G01 X418.500 Y410.000
G01 X421.250 Y410.000
G01 X424.000 Y410.000
G01 X426.750 Y410.000
G01 X429.500 Y410.000
G01 X432.250 Y410.000
G01 X435.000 Y410.000
G01 X437.750 Y410.000
G01 X440.500 Y410.000
G01 X442.565 Y409.433
G01 X446.855 Y404.104
G01 X445.250 Y405.000
G01 X442.500 Y405.000
G01 X439.750 Y405.000
G01 X437.000 Y405.000
G01 X434.250 Y405.000
G01 X431.500 Y405.000
G01 X428.750 Y405.000
G01 X426.000 Y405.000
G01 X423.250 Y405.000
G01 X420.500 Y405.000
G01 X417.750 Y405.000
G01 X415.000 Y405.000
G01 X412.250 Y405.000
G01 X409.500 Y405.000
G01 X406.750 Y405.000
G01 X404.000 Y405.000
G01 X401.250 Y405.000
G01 X398.500 Y405.000
G01 X395.750 Y405.000
G01 X393.000 Y405.000
G01 X390.250 Y405.000
G01 X387.500 Y405.000
G01 X384.750 Y405.000
G01 X382.000 Y405.000
G01 X379.250 Y405.000
G01 X376.500 Y405.000
G01 X373.750 Y405.000
G01 X371.000 Y405.000
G01 X368.250 Y405.000
G01 X365.500 Y405.000
G01 X362.750 Y405.000
G01 X360.000 Y405.000
G01 X357.250 Y405.000
G01 X354.500 Y405.000
G01 X351.750 Y405.000
G01 X349.000 Y405.000
G01 X346.250 Y405.000
G01 X343.500 Y405.000
G01 X340.750 Y405.000
G01 X338.000 Y405.000
G01 X335.250 Y405.000
G01 X332.500 Y405.000
G01 X329.750 Y405.000
G01 X327.000 Y405.000
G01 X324.250 Y405.000
G01 X321.500 Y405.000
G01 X318.750 Y405.000
G01 X316.000 Y405.000
G01 X313.250 Y405.000
G01 X310.500 Y405.000
G01 X307.750 Y405.000
G01 X305.000 Y405.000
G01 X302.250 Y405.000
G01 X299.500 Y405.000
G01 X296.750 Y405.000
G01 X294.000 Y405.000
G01 X291.250 Y405.000
G01 X288.500 Y405.000
G01 X282.645 Y415.833
G01 X279.227 Y421.364
G01 X275.750 Y427.500
G01 X273.000 Y427.500
G01 X270.250 Y427.500
G01 X267.500 Y427.500
G01 X264.750 Y427.500
G01 X262.000 Y427.500
G01 X259.250 Y427.500
G01 X256.500 Y427.500
G01 X253.750 Y427.500
G01 X251.000 Y427.500
G01 X248.250 Y427.500
G01 X245.500 Y427.500
G01 X242.750 Y427.500
G01 X240.000 Y427.500
G01 X237.250 Y427.500
G01 X229.969 Y415.016
G01 X227.977 Y411.136
G01 X224.500 Y405.000
G01 X221.750 Y405.000
G01 X219.000 Y405.000
G01 X216.250 Y405.000
G01 X213.500 Y405.000
G01 X210.750 Y405.000
G01 X208.000 Y405.000
G01 X205.250 Y405.000
G01 X202.500 Y405.000
G01 X199.750 Y405.000
G01 X197.000 Y405.000
G01 X194.250 Y405.000
G01 X191.500 Y405.000
G01 X188.750 Y405.000
G01 X186.000 Y405.000
G01 X183.250 Y405.000
G01 X180.500 Y405.000
G01 X177.750 Y405.000
G01 X175.000 Y405.000
G01 X172.250 Y405.000
G01 X169.500 Y405.000
G01 X166.750 Y405.000
G01 X164.000 Y405.000
G01 X161.250 Y405.000
G01 X158.500 Y405.000
G01 X155.750 Y405.000
G01 X153.000 Y405.000
G01 X150.250 Y405.000
G01 X147.500 Y405.000
G01 X144.750 Y405.000
G01 X142.000 Y405.000
G01 X139.250 Y405.000
G01 X136.500 Y405.000
G01 X133.750 Y405.000
G01 X131.000 Y405.000
G01 X128.250 Y405.000
G01 X125.500 Y405.000
G01 X122.750 Y405.000
G01 X120.000 Y405.000
G01 X117.250 Y405.000
G01 X114.500 Y405.000
G01 X111.750 Y405.000
G01 X109.000 Y405.000
G01 X106.250 Y405.000
G01 X103.500 Y405.000
G01 X100.750 Y405.000
G01 X98.000 Y405.000
G01 X95.250 Y405.000
G01 X92.500 Y405.000
G01 X89.750 Y405.000
G01 X87.000 Y405.000
G01 X84.250 Y405.000
G01 X81.500 Y405.000
G01 X78.750 Y405.000
G01 X76.000 Y405.000
G01 X73.250 Y405.000
G01 X70.500 Y405.000
G01 X67.750 Y405.000
G01 X65.000 Y405.000
G01 X62.250 Y405.000
G01 X59.500 Y405.000
G01 X56.750 Y405.000
G01 X54.000 Y405.000
G01 X52.862 Y403.743
G01 X49.731 Y399.641
G01 X52.000 Y400.000
G01 X54.750 Y400.000
G01 X57.500 Y400.000
G01 X60.250 Y400.000
G01 X63.000 Y400.000
G01 X65.750 Y400.000
G01 X68.500 Y400.000
G01 X71.250 Y400.000
G01 X74.000 Y400.000
G01 X76.750 Y400.000
G01 X79.500 Y400.000
G01 X82.250 Y400.000
G01 X85.000 Y400.000
G01 X87.750 Y400.000
G01 X90.500 Y400.000
G01 X93.250 Y400.000
G01 X96.000 Y400.000
G01 X98.750 Y400.000
G01 X101.500 Y400.000
G01 X104.250 Y400.000
G01 X107.000 Y400.000
G01 X109.750 Y400.000
G01 X112.500 Y400.000
G01 X115.250 Y400.000
G01 X118.000 Y400.000
G01 X120.750 Y400.000
G01 X123.500 Y400.000
G01 X126.250 Y400.000
G01 X129.000 Y400.000
G01 X131.750 Y400.000
G01 X134.500 Y400.000
G01 X137.250 Y400.000
G01 X140.000 Y400.000
G01 X142.750 Y400.000
G01 X145.500 Y400.000
G01 X148.250 Y400.000
G01 X151.000 Y400.000
G01 X153.750 Y400.000
G01 X156.500 Y400.000
G01 X159.250 Y400.000
G01 X162.000 Y400.000
G01 X164.750 Y400.000
G01 X167.500 Y400.000
G01 X170.250 Y400.000
G01 X173.000 Y400.000
G01 X175.750 Y400.000
G01 X178.500 Y400.000
G01 X181.250 Y400.000
G01 X184.000 Y400.000
G01 X186.750 Y400.000
G01 X189.500 Y400.000
G01 X192.250 Y400.000
G01 X195.000 Y400.000
G01 X197.750 Y400.000
G01 X200.500 Y400.000
G01 X203.250 Y400.000
G01 X206.000 Y400.000
G01 X208.750 Y400.000
G01 X211.500 Y400.000
G01 X214.250 Y400.000
G01 X217.000 Y400.000
G01 X219.750 Y400.000
G01 X222.500 Y400.000
G01 X228.561 Y411.184
G01 X231.773 Y416.364
G01 X235.250 Y422.500
G01 X238.000 Y422.500
G01 X240.750 Y422.500
G01 X243.500 Y422.500
G01 X246.250 Y422.500
G01 X249.000 Y422.500
G01 X251.750 Y422.500
G01 X254.500 Y422.500
G01 X257.250 Y422.500
G01 X260.000 Y422.500
G01 X262.750 Y422.500
G01 X265.500 Y422.500
G01 X268.250 Y422.500
G01 X271.000 Y422.500
G01 X273.750 Y422.500
G01 X276.500 Y422.500
G01 X282.996 Y411.516
G01 X285.773 Y406.136
G01 X289.250 Y400.000
G01 X292.000 Y400.000
G01 X294.750 Y400.000
G01 X297.500 Y400.000
G01 X300.250 Y400.000
G01 X303.000 Y400.000
G01 X305.750 Y400.000
G01 X308.500 Y400.000
G01 X311.250 Y400.000
G01 X314.000 Y400.000
G01 X316.750 Y400.000
G01 X319.500 Y400.000
G01 X322.250 Y400.000
G01 X325.000 Y400.000
G01 X327.750 Y400.000
G01 X330.500 Y400.000
G01 X333.250 Y400.000
G01 X336.000 Y400.000
G01 X338.750 Y400.000
G01 X341.500 Y400.000
G01 X344.250 Y400.000
G01 X347.000 Y400.000
G01 X349.750 Y400.000
G01 X352.500 Y400.000
G01 X355.250 Y400.000
G01 X358.000 Y400.000
G01 X360.750 Y400.000
G01 X363.500 Y400.000
G01 X366.250 Y400.000
G01 X369.000 Y400.000
G01 X371.750 Y400.000
G01 X374.500 Y400.000
G01 X377.250 Y400.000
G01 X380.000 Y400.000
G01 X382.750 Y400.000
G01 X385.500 Y400.000
G01 X388.250 Y400.000
G01 X391.000 Y400.000
G01 X393.750 Y400.000
G01 X396.500 Y400.000
G01 X399.250 Y400.000
G01 X402.000 Y400.000
G01 X404.750 Y400.000
G01 X407.500 Y400.000
G01 X410.250 Y400.000
G01 X413.000 Y400.000
G01 X415.750 Y400.000
G01 X418.500 Y400.000
G01 X421.250 Y400.000
G01 X424.000 Y400.000
G01 X426.750 Y400.000
G01 X429.500 Y400.000
G01 X432.250 Y400.000
G01 X435.000 Y400.000
G01 X437.750 Y400.000
G01 X440.500 Y400.000
G01 X443.250 Y400.000
G01 X446.000 Y400.000
G01 X448.750 Y400.000
G01 X450.536 Y399.282
G01 X454.516 Y393.781
G01 X453.500 Y395.000
G01 X450.750 Y395.000
G01 X448.000 Y395.000
G01 X445.250 Y395.000
G01 X442.500 Y395.000
G01 X439.750 Y395.000
G01 X437.000 Y395.000
G01 X434.250 Y395.000
G01 X431.500 Y395.000
G01 X428.750 Y395.000
G01 X426.000 Y395.000
G01 X423.250 Y395.000
G01 X420.500 Y395.000
G01 X417.750 Y395.000
G01 X415.000 Y395.000
G01 X412.250 Y395.000
G01 X409.500 Y395.000
G01 X406.750 Y395.000
G01 X404.000 Y395.000
G01 X401.250 Y395.000
G01 X398.500 Y395.000
G01 X395.750 Y395.000
G01 X393.000 Y395.000
G01 X390.250 Y395.000
G01 X387.500 Y395.000
G01 X384.750 Y395.000
G01 X382.000 Y395.000
G01 X379.250 Y395.000
G01 X376.500 Y395.000
G01 X373.750 Y395.000
G01 X371.000 Y395.000
G01 X368.250 Y395.000
G01 X365.500 Y395.000
G01 X362.750 Y395.000
G01 X360.000 Y395.000
G01 X357.250 Y395.000
G01 X354.500 Y395.000
G01 X351.750 Y395.000
G01 X349.000 Y395.000
G01 X346.250 Y395.000
G01 X343.500 Y395.000
G01 X340.750 Y395.000
G01 X338.000 Y395.000
G01 X335.250 Y395.000
G01 X332.500 Y395.000
G01 X329.750 Y395.000
G01 X327.000 Y395.000
G01 X324.250 Y395.000
G01 X321.500 Y395.000
G01 X318.750 Y395.000
G01 X316.000 Y395.000
G01 X313.250 Y395.000
G01 X310.500 Y395.000
G01 X307.750 Y395.000
G01 X305.000 Y395.000
G01 X302.250 Y395.000
G01 X299.500 Y395.000
G01 X296.750 Y395.000
G01 X294.000 Y395.000
G01 X291.250 Y395.000
G01 X285.957 Y404.913
G01 X281.977 Y411.364
G01 X278.500 Y417.500
G01 X275.750 Y417.500
G01 X273.000 Y417.500
G01 X270.250 Y417.500
G01 X267.500 Y417.500
G01 X264.750 Y417.500
G01 X262.000 Y417.500
G01 X259.250 Y417.500
G01 X256.500 Y417.500
G01 X253.750 Y417.500
G01 X251.000 Y417.500
G01 X248.250 Y417.500
G01 X245.500 Y417.500
G01 X242.750 Y417.500
G01 X240.000 Y417.500
G01 X237.250 Y417.500
G01 X234.500 Y417.500
G01 X227.784 Y406.109
G01 X225.227 Y401.136
G01 X221.750 Y395.000
G01 X219.000 Y395.000
G01 X216.250 Y395.000
G01 X213.500 Y395.000
G01 X210.750 Y395.000
G01 X208.000 Y395.000
G01 X205.250 Y395.000
G01 X202.500 Y395.000
G01 X199.750 Y395.000
G01 X197.000 Y395.000
G01 X194.250 Y395.000
G01 X191.500 Y395.000
G01 X188.750 Y395.000
G01 X186.000 Y395.000
G01 X183.250 Y395.000
G01 X180.500 Y395.000
G01 X177.750 Y395.000
G01 X175.000 Y395.000
G01 X172.250 Y395.000
G01 X169.500 Y395.000
G01 X166.750 Y395.000
G01 X164.000 Y395.000
G01 X161.250 Y395.000
G01 X158.500 Y395.000
G01 X155.750 Y395.000
G01 X153.000 Y395.000
G01 X150.250 Y395.000
G01 X147.500 Y395.000
G01 X144.750 Y395.000
G01 X142.000 Y395.000
G01 X139.250 Y395.000
G01 X136.500 Y395.000
G01 X133.750 Y395.000
G01 X131.000 Y395.000
G01 X128.250 Y395.000
G01 X125.500 Y395.000
G01 X122.750 Y395.000
G01 X120.000 Y395.000
G01 X117.250 Y395.000
G01 X114.500 Y395.000
G01 X111.750 Y395.000
G01 X109.000 Y395.000
G01 X106.250 Y395.000
G01 X103.500 Y395.000
G01 X100.750 Y395.000
G01 X98.000 Y395.000
G01 X95.250 Y395.000
G01 X92.500 Y395.000
G01 X89.750 Y395.000
G01 X87.000 Y395.000
G01 X84.250 Y395.000
G01 X81.500 Y395.000
G01 X78.750 Y395.000
G01 X76.000 Y395.000
G01 X73.250 Y395.000
G01 X70.500 Y395.000
G01 X67.750 Y395.000
G01 X65.000 Y395.000
G01 X62.250 Y395.000
G01 X59.500 Y395.000
G01 X56.750 Y395.000
G01 X54.000 Y395.000
G01 X51.250 Y395.000
G01 X48.500 Y395.000
G01 X46.146 Y394.719
G01 X42.294 Y389.133
G01 X43.750 Y390.000
G01 X46.500 Y390.000
G01 X49.250 Y390.000
G01 X52.000 Y390.000
G01 X54.750 Y390.000
G01 X57.500 Y390.000
G01 X60.250 Y390.000
G01 X63.000 Y390.000
G01 X65.750 Y390.000
G01 X68.500 Y390.000
G01 X71.250 Y390.000
G01 X74.000 Y390.000
G01 X76.750 Y390.000
G01 X79.500 Y390.000
G01 X82.250 Y390.000
G01 X85.000 Y390.000
G01 X87.750 Y390.000
G01 X90.500 Y390.000
G01 X93.250 Y390.000
G01 X96.000 Y390.000
G01 X98.750 Y390.000
G01 X101.500 Y390.000
G01 X104.250 Y390.000
G01 X107.000 Y390.000
G01 X109.750 Y390.000
G01 X112.500 Y390.000
G01 X115.250 Y390.000
G01 X118.000 Y390.000
G01 X120.750 Y390.000
G01 X123.500 Y390.000
G01 X126.250 Y390.000
G01 X129.000 Y390.000
G01 X131.750 Y390.000
G01 X134.500 Y390.000
G01 X137.250 Y390.000
G01 X140.000 Y390.000
G01 X142.750 Y390.000
G01 X145.500 Y390.000
G01 X148.250 Y390.000
G01 X151.000 Y390.000
G01 X153.750 Y390.000
G01 X156.500 Y390.000
G01 X159.250 Y390.000
G01 X162.000 Y390.000
G01 X164.750 Y390.000
G01 X167.500 Y390.000
G01 X170.250 Y390.000
G01 X173.000 Y390.000
G01 X175.750 Y390.000
G01 X178.500 Y390.000
G01 X181.250 Y390.000
G01 X184.000 Y390.000
G01 X186.750 Y390.000
G01 X189.500 Y390.000
G01 X192.250 Y390.000
G01 X195.000 Y390.000
G01 X197.750 Y390.000
G01 X200.500 Y390.000
G01 X203.250 Y390.000
G01 X206.000 Y390.000
G01 X208.750 Y390.000
G01 X211.500 Y390.000
G01 X214.250 Y390.000
G01 X217.000 Y390.000
G01 X219.750 Y390.000
G01 X225.192 Y400.176
G01 X229.023 Y406.364
G01 X232.500 Y412.500
G01 X235.250 Y412.500
G01 X238.000 Y412.500
G01 X240.750 Y412.500
G01 X243.500 Y412.500
G01 X246.250 Y412.500
G01 X249.000 Y412.500
G01 X251.750 Y412.500
G01 X254.500 Y412.500
G01 X257.250 Y412.500
G01 X260.000 Y412.500
G01 X262.750 Y412.500
G01 X265.500 Y412.500
G01 X268.250 Y412.500
G01 X271.000 Y412.500
G01 X273.750 Y412.500
G01 X276.500 Y412.500
G01 X279.250 Y412.500
G01 X282.000 Y412.500
G01 X287.919 Y402.619
G01 X291.273 Y396.136
G01 X294.750 Y390.000
G01 X297.500 Y390.000
G01 X300.250 Y390.000
G01 X303.000 Y390.000
G01 X305.750 Y390.000
G01 X308.500 Y390.000
G01 X311.250 Y390.000
G01 X314.000 Y390.000
G01 X316.750 Y390.000
G01 X319.500 Y390.000
G01 X322.250 Y390.000
G01 X325.000 Y390.000
G01 X327.750 Y390.000
G01 X330.500 Y390.000
G01 X333.250 Y390.000
G01 X336.000 Y390.000
G01 X338.750 Y390.000
G01 X341.500 Y390.000
G01 X344.250 Y390.000
G01 X347.000 Y390.000
G01 X349.750 Y390.000
G01 X352.500 Y390.000
G01 X355.250 Y390.000
G01 X358.000 Y390.000
G01 X360.750 Y390.000
G01 X363.500 Y390.000
G01 X366.250 Y390.000
G01 X369.000 Y390.000
G01 X371.750 Y390.000
G01 X374.500 Y390.000
G01 X377.250 Y390.000
G01 X380.000 Y390.000
G01 X382.750 Y390.000
G01 X385.500 Y390.000
G01 X388.250 Y390.000
G01 X391.000 Y390.000
G01 X393.750 Y390.000
G01 X396.500 Y390.000
G01 X399.250 Y390.000
G01 X402.000 Y390.000
G01 X404.750 Y390.000
G01 X407.500 Y390.000
G01 X410.250 Y390.000
G01 X413.000 Y390.000
G01 X415.750 Y390.000
G01 X418.500 Y390.000
G01 X421.250 Y390.000
G01 X424.000 Y390.000
G01 X426.750 Y390.000
G01 X429.500 Y390.000
G01 X432.250 Y390.000
G01 X435.000 Y390.000
G01 X437.750 Y390.000
G01 X440.500 Y390.000
G01 X443.250 Y390.000
G01 X446.000 Y390.000
G01 X448.750 Y390.000
G01 X451.500 Y390.000
G01 X454.250 Y390.000
G01 X457.000 Y390.000
G01 X457.936 Y388.789
G01 X460.803 Y384.396
G01 X459.000 Y385.000
G01 X456.250 Y385.000
G01 X453.500 Y385.000
G01 X450.750 Y385.000
G01 X448.000 Y385.000
G01 X445.250 Y385.000
G01 X442.500 Y385.000
G01 X439.750 Y385.000
G01 X437.000 Y385.000
G01 X434.250 Y385.000
G01 X431.500 Y385.000
G01 X428.750 Y385.000
G01 X426.000 Y385.000
G01 X423.250 Y385.000
G01 X420.500 Y385.000
G01 X417.750 Y385.000
G01 X415.000 Y385.000
G01 X412.250 Y385.000
G01 X409.500 Y385.000
G01 X406.750 Y385.000
G01 X404.000 Y385.000
G01 X401.250 Y385.000
G01 X398.500 Y385.000
G01 X395.750 Y385.000
G01 X393.000 Y385.000
G01 X390.250 Y385.000
G01 X387.500 Y385.000
G01 X384.750 Y385.000
G01 X382.000 Y385.000
G01 X379.250 Y385.000
G01 X376.500 Y385.000
G01 X373.750 Y385.000
G01 X371.000 Y385.000
G01 X368.250 Y385.000
G01 X365.500 Y385.000
G01 X362.750 Y385.000
G01 X360.000 Y385.000
G01 X357.250 Y385.000
G01 X354.500 Y385.000
G01 X351.750 Y385.000
G01 X349.000 Y385.000
G01 X346.250 Y385.000
G01 X343.500 Y385.000
G01 X340.750 Y385.000
G01 X338.000 Y385.000
G01 X335.250 Y385.000
G01 X332.500 Y385.000
G01 X329.750 Y385.000
G01 X327.000 Y385.000
G01 X324.250 Y385.000
G01 X321.500 Y385.000
G01 X318.750 Y385.000
G01 X316.000 Y385.000
G01 X313.250 Y385.000
G01 X310.500 Y385.000
G01 X307.750 Y385.000
G01 X305.000 Y385.000
G01 X302.250 Y385.000
G01 X299.500 Y385.000
G01 X296.750 Y385.000
G01 X292.022 Y393.814
G01 X288.636 Y399.318
G01 X284.000 Y407.500
G01 X281.250 Y407.500
G01 X278.500 Y407.500
G01 X275.750 Y407.500
G01 X273.000 Y407.500
G01 X270.250 Y407.500
G01 X267.500 Y407.500
G01 X264.750 Y407.500
G01 X262.000 Y407.500
G01 X259.250 Y407.500
G01 X256.500 Y407.500
G01 X253.750 Y407.500
G01 X251.000 Y407.500
G01 X248.250 Y407.500
G01 X245.500 Y407.500
G01 X242.750 Y407.500
G01 X240.000 Y407.500
G01 X237.250 Y407.500
G01 X234.500 Y407.500
G01 X231.750 Y407.500
G01 X225.579 Y397.161
G01 X222.477 Y391.136
G01 X219.000 Y385.000
G01 X216.250 Y385.000
G01 X213.500 Y385.000
G01 X210.750 Y385.000
G01 X208.000 Y385.000
G01 X205.250 Y385.000
G01 X202.500 Y385.000
G01 X199.750 Y385.000
G01 X197.000 Y385.000
G01 X194.250 Y385.000
G01 X191.500 Y385.000
G01 X188.750 Y385.000
G01 X186.000 Y385.000
G01 X183.250 Y385.000
G01 X180.500 Y385.000
G01 X177.750 Y385.000
G01 X175.000 Y385.000
G01 X172.250 Y385.000
G01 X169.500 Y385.000
G01 X166.750 Y385.000
G01 X164.000 Y385.000
G01 X161.250 Y385.000
G01 X158.500 Y385.000
G01 X155.750 Y385.000
G01 X153.000 Y385.000
G01 X150.250 Y385.000
G01 X147.500 Y385.000
G01 X144.750 Y385.000
G01 X142.000 Y385.000
G01 X139.250 Y385.000
G01 X136.500 Y385.000
G01 X133.750 Y385.000
G01 X131.000 Y385.000
G01 X128.250 Y385.000
G01 X125.500 Y385.000
G01 X122.750 Y385.000
G01 X120.000 Y385.000
G01 X117.250 Y385.000
G01 X114.500 Y385.000
G01 X111.750 Y385.000
G01 X109.000 Y385.000
G01 X106.250 Y385.000
G01 X103.500 Y385.000
G01 X100.750 Y385.000
G01 X98.000 Y385.000
G01 X95.250 Y385.000
G01 X92.500 Y385.000
G01 X89.750 Y385.000
G01 X87.000 Y385.000
G01 X84.250 Y385.000
G01 X81.500 Y385.000
G01 X78.750 Y385.000
G01 X76.000 Y385.000
G01 X73.250 Y385.000
G01 X70.500 Y385.000
G01 X67.750 Y385.000
G01 X65.000 Y385.000
G01 X62.250 Y385.000
G01 X59.500 Y385.000
G01 X56.750 Y385.000
G01 X54.000 Y385.000
G01 X51.250 Y385.000
G01 X48.500 Y385.000
G01 X45.750 Y385.000
G01 X43.000 Y385.000
G01 X40.250 Y385.000
G01 X38.982 Y384.058
G01 X36.201 Y379.575
G01 X38.250 Y380.000
G01 X41.000 Y380.000
G01 X43.750 Y380.000
G01 X46.500 Y380.000
G01 X49.250 Y380.000
G01 X52.000 Y380.000
G01 X54.750 Y380.000
G01 X57.500 Y380.000
G01 X60.250 Y380.000
G01 X63.000 Y380.000
G01 X65.750 Y380.000
G01 X68.500 Y380.000
G01 X71.250 Y380.000
G01 X74.000 Y380.000
G01 X76.750 Y380.000
G01 X79.500 Y380.000
G01 X82.250 Y380.000
G01 X85.000 Y380.000
G01 X87.750 Y380.000
G01 X90.500 Y380.000
G01 X93.250 Y380.000
G01 X96.000 Y380.000
G01 X98.750 Y380.000
G01 X101.500 Y380.000
G01 X104.250 Y380.000
G01 X107.000 Y380.000
G01 X109.750 Y380.000
G01 X112.500 Y380.000
G01 X115.250 Y380.000
G01 X118.000 Y380.000
G01 X120.750 Y380.000
G01 X123.500 Y380.000
G01 X126.250 Y380.000
G01 X129.000 Y380.000
G01 X131.750 Y380.000
G01 X134.500 Y380.000
G01 X137.250 Y380.000
G01 X140.000 Y380.000
G01 X142.750 Y380.000
G01 X145.500 Y380.000
G01 X148.250 Y380.000
G01 X151.000 Y380.000
G01 X153.750 Y380.000
G01 X156.500 Y380.000
G01 X159.250 Y380.000
G01 X162.000 Y380.000
G01 X164.750 Y380.000
G01 X167.500 Y380.000
G01 X170.250 Y380.000
G01 X173.000 Y380.000
G01 X175.750 Y380.000
G01 X178.500 Y380.000
G01 X181.250 Y380.000
G01 X184.000 Y380.000
G01 X186.750 Y380.000
G01 X189.500 Y380.000
G01 X192.250 Y380.000
G01 X195.000 Y380.000
G01 X197.750 Y380.000
G01 X200.500 Y380.000
G01 X203.250 Y380.000
G01 X206.000 Y380.000
G01 X208.750 Y380.000
G01 X211.500 Y380.000
G01 X214.250 Y380.000
G01 X217.000 Y380.000
G01 X221.878 Y389.082
G01 X225.114 Y394.318
G01 X229.750 Y402.500
G01 X232.500 Y402.500
G01 X235.250 Y402.500
G01 X238.000 Y402.500
G01 X240.750 Y402.500
G01 X243.500 Y402.500
G01 X246.250 Y402.500
G01 X249.000 Y402.500
G01 X251.750 Y402.500
G01 X254.500 Y402.500
G01 X257.250 Y402.500
G01 X260.000 Y402.500
G01 X262.750 Y402.500
G01 X265.500 Y402.500
G01 X268.250 Y402.500
G01 X271.000 Y402.500
G01 X273.750 Y402.500
G01 X276.500 Y402.500
G01 X279.250 Y402.500
G01 X282.000 Y402.500
G01 X284.750 Y402.500
G01 X290.167 Y393.385
G01 X292.864 Y388.182
G01 X297.462 Y380.073
G01 X297.500 Y380.000
G01 X300.250 Y380.000
G01 X303.000 Y380.000
G01 X305.750 Y380.000
G01 X308.500 Y380.000
G01 X311.250 Y380.000
G01 X314.000 Y380.000
G01 X316.750 Y380.000
G01 X319.500 Y380.000
G01 X322.250 Y380.000
G01 X325.000 Y380.000
G01 X327.750 Y380.000
G01 X330.500 Y380.000
G01 X333.250 Y380.000
G01 X336.000 Y380.000
G01 X338.750 Y380.000
G01 X341.500 Y380.000
G01 X344.250 Y380.000
G01 X347.000 Y380.000
G01 X349.750 Y380.000
G01 X352.500 Y380.000
G01 X355.250 Y380.000
G01 X358.000 Y380.000
G01 X360.750 Y380.000
G01 X363.500 Y380.000
G01 X366.250 Y380.000
G01 X369.000 Y380.000
G01 X371.750 Y380.000
G01 X374.500 Y380.000
G01 X377.250 Y380.000
G01 X380.000 Y380.000
G01 X382.750 Y380.000
G01 X385.500 Y380.000
G01 X388.250 Y380.000
G01 X391.000 Y380.000
G01 X393.750 Y380.000
G01 X396.500 Y380.000
G01 X399.250 Y380.000
G01 X402.000 Y380.000
G01 X404.750 Y380.000
G01 X407.500 Y380.000
G01 X410.250 Y380.000
G01 X413.000 Y380.000
G01 X415.750 Y380.000
G01 X418.500 Y380.000
G01 X421.250 Y380.000
G01 X424.000 Y380.000
G01 X426.750 Y380.000
G01 X429.500 Y380.000
G01 X432.250 Y380.000
G01 X435.000 Y380.000
G01 X437.750 Y380.000
G01 X440.500 Y380.000
G01 X443.250 Y380.000
G01 X446.000 Y380.000
G01 X448.750 Y380.000
G01 X451.500 Y380.000
G01 X454.250 Y380.000
G01 X457.000 Y380.000
G01 X459.750 Y380.000
G01 X462.500 Y380.000
G01 X464.000 Y379.245
G01 X466.692 Y374.679
G01 X464.500 Y375.000
G01 X461.750 Y375.000
G01 X459.000 Y375.000
G01 X456.250 Y375.000
G01 X453.500 Y375.000
G01 X450.750 Y375.000
G01 X448.000 Y375.000
G01 X445.250 Y375.000
G01 X442.500 Y375.000
G01 X439.750 Y375.000
G01 X437.000 Y375.000
G01 X434.250 Y375.000
G01 X431.500 Y375.000
G01 X428.750 Y375.000
G01 X426.000 Y375.000
G01 X423.250 Y375.000
G01 X420.500 Y375.000
G01 X417.750 Y375.000
G01 X415.000 Y375.000
G01 X412.250 Y375.000
G01 X409.500 Y375.000
G01 X406.750 Y375.000
G01 X404.000 Y375.000
G01 X401.250 Y375.000
G01 X398.500 Y375.000
G01 X395.750 Y375.000
G01 X393.000 Y375.000
G01 X390.250 Y375.000
G01 X387.500 Y375.000
G01 X384.750 Y375.000
G01 X382.000 Y375.000
G01 X379.250 Y375.000
G01 X376.500 Y375.000
G01 X373.750 Y375.000
G01 X371.000 Y375.000
G01 X368.250 Y375.000
G01 X365.500 Y375.000
G01 X362.750 Y375.000
G01 X360.000 Y375.000
G01 X357.250 Y375.000
G01 X354.500 Y375.000
G01 X351.750 Y375.000
G01 X349.000 Y375.000
G01 X346.250 Y375.000
G01 X343.500 Y375.000
G01 X340.750 Y375.000
G01 X338.000 Y375.000
G01 X335.250 Y375.000
G01 X332.500 Y375.000
G01 X329.750 Y375.000
G01 X327.000 Y375.000
G01 X324.250 Y375.000
G01 X321.500 Y375.000
G01 X318.750 Y375.000
G01 X316.000 Y375.000
G01 X313.250 Y375.000
G01 X310.500 Y375.000
G01 X307.750 Y375.000
G01 X305.000 Y375.000
G01 X302.250 Y375.000
G01 X299.500 Y375.000
G01 X295.257 Y383.011
G01 X291.386 Y389.318
G01 X286.750 Y397.500
G01 X284.000 Y397.500
G01 X281.250 Y397.500
G01 X278.500 Y397.500
G01 X275.750 Y397.500
G01 X273.000 Y397.500
G01 X270.250 Y397.500
G01 X267.500 Y397.500
G01 X264.750 Y397.500
G01 X262.000 Y397.500
G01 X259.250 Y397.500
G01 X256.500 Y397.500
G01 X253.750 Y397.500
G01 X251.000 Y397.500
G01 X248.250 Y397.500
G01 X245.500 Y397.500
G01 X242.750 Y397.500
G01 X240.000 Y397.500
G01 X237.250 Y397.500
G01 X234.500 Y397.500
G01 X231.750 Y397.500
G01 X229.000 Y397.500
G01 X223.383 Y388.022
G01 X220.886 Y383.182
G01 X216.250 Y375.000
G01 X213.500 Y375.000
G01 X210.750 Y375.000
G01 X208.000 Y375.000
G01 X205.250 Y375.000
G01 X202.500 Y375.000
G01 X199.750 Y375.000
G01 X197.000 Y375.000
G01 X194.250 Y375.000
G01 X191.500 Y375.000
G01 X188.750 Y375.000
G01 X186.000 Y375.000
G01 X183.250 Y375.000
G01 X180.500 Y375.000
G01 X177.750 Y375.000
G01 X175.000 Y375.000
G01 X172.250 Y375.000
G01 X169.500 Y375.000
G01 X166.750 Y375.000
G01 X164.000 Y375.000
G01 X161.250 Y375.000
G01 X158.500 Y375.000
G01 X155.750 Y375.000
G01 X153.000 Y375.000
G01 X150.250 Y375.000
G01 X147.500 Y375.000
G01 X144.750 Y375.000
G01 X142.000 Y375.000
G01 X139.250 Y375.000
G01 X136.500 Y375.000
G01 X133.750 Y375.000
G01 X131.000 Y375.000
G01 X128.250 Y375.000
G01 X125.500 Y375.000
G01 X122.750 Y375.000
G01 X120.000 Y375.000
G01 X117.250 Y375.000
G01 X114.500 Y375.000
G01 X111.750 Y375.000
G01 X109.000 Y375.000
G01 X106.250 Y375.000
G01 X103.500 Y375.000
G01 X100.750 Y375.000
G01 X98.000 Y375.000
G01 X95.250 Y375.000
G01 X92.500 Y375.000
G01 X89.750 Y375.000
G01 X87.000 Y375.000
G01 X84.250 Y375.000
G01 X81.500 Y375.000
G01 X78.750 Y375.000
G01 X76.000 Y375.000
G01 X73.250 Y375.000
G01 X70.500 Y375.000
G01 X67.750 Y375.000
G01 X65.000 Y375.000
G01 X62.250 Y375.000
G01 X59.500 Y375.000
G01 X56.750 Y375.000
G01 X54.000 Y375.000
G01 X51.250 Y375.000
G01 X48.500 Y375.000
G01 X45.750 Y375.000
G01 X43.000 Y375.000
G01 X40.250 Y375.000
G01 X37.500 Y375.000
G01 X34.750 Y375.000
G01 X33.123 Y374.356
G01 X30.526 Y369.713
G01 X32.750 Y370.000
G01 X35.500 Y370.000
G01 X38.250 Y370.000
G01 X41.000 Y370.000
G01 X43.750 Y370.000
G01 X46.500 Y370.000
G01 X49.250 Y370.000
G01 X52.000 Y370.000
G01 X54.750 Y370.000
G01 X57.500 Y370.000
G01 X60.250 Y370.000
G01 X63.000 Y370.000
G01 X65.750 Y370.000
G01 X68.500 Y370.000
G01 X71.250 Y370.000
G01 X74.000 Y370.000
G01 X76.750 Y370.000
G01 X79.500 Y370.000
G01 X82.250 Y370.000
G01 X85.000 Y370.000
G01 X87.750 Y370.000
G01 X90.500 Y370.000
G01 X93.250 Y370.000
G01 X96.000 Y370.000
G01 X98.750 Y370.000
G01 X101.500 Y370.000
G01 X104.250 Y370.000
G01 X107.000 Y370.000
G01 X109.750 Y370.000
G01 X112.500 Y370.000
G01 X115.250 Y370.000
G01 X118.000 Y370.000
G01 X120.750 Y370.000
G01 X123.500 Y370.000
G01 X126.250 Y370.000
G01 X129.000 Y370.000
G01 X131.750 Y370.000
G01 X134.500 Y370.000
G01 X137.250 Y370.000
G01 X140.000 Y370.000
G01 X142.750 Y370.000
G01 X145.500 Y370.000
G01 X148.250 Y370.000
G01 X151.000 Y370.000
G01 X153.750 Y370.000
G01 X156.500 Y370.000
G01 X159.250 Y370.000
G01 X162.000 Y370.000
G01 X164.750 Y370.000
G01 X167.500 Y370.000
G01 X170.250 Y370.000
G01 X173.000 Y370.000
G01 X175.750 Y370.000
G01 X178.500 Y370.000
G01 X181.250 Y370.000
G01 X184.000 Y370.000
G01 X186.750 Y370.000
G01 X189.500 Y370.000
G01 X192.250 Y370.000
G01 X195.000 Y370.000
G01 X197.750 Y370.000
G01 X200.500 Y370.000
G01 X203.250 Y370.000
G01 X206.000 Y370.000
G01 X208.750 Y370.000
G01 X211.500 Y370.000
G01 X214.250 Y370.000
G01 X218.573 Y378.170
G01 X222.364 Y384.318
G01 X227.000 Y392.500
G01 X229.750 Y392.500
G01 X232.500 Y392.500
G01 X235.250 Y392.500
G01 X238.000 Y392.500
G01 X240.750 Y392.500
G01 X243.500 Y392.500
G01 X246.250 Y392.500
G01 X249.000 Y392.500
G01 X251.750 Y392.500
G01 X254.500 Y392.500
G01 X257.250 Y392.500
G01 X260.000 Y392.500
G01 X262.750 Y392.500
G01 X265.500 Y392.500
G01 X268.250 Y392.500
G01 X271.000 Y392.500
G01 X273.750 Y392.500
G01 X276.500 Y392.500
G01 X279.250 Y392.500
G01 X282.000 Y392.500
G01 X284.750 Y392.500
G01 X287.500 Y392.500
G01 X292.469 Y384.236
G01 X295.614 Y378.182
G01 X299.810 Y370.844
G01 X300.250 Y370.000
G01 X303.000 Y370.000
G01 X305.750 Y370.000
G01 X308.500 Y370.000
G01 X311.250 Y370.000
G01 X314.000 Y370.000
G01 X316.750 Y370.000
G01 X319.500 Y370.000
G01 X322.250 Y370.000
G01 X325.000 Y370.000
G01 X327.750 Y370.000
G01 X330.500 Y370.000
G01 X333.250 Y370.000
G01 X336.000 Y370.000
G01 X338.750 Y370.000
G01 X341.500 Y370.000
G01 X344.250 Y370.000
G01 X347.000 Y370.000
G01 X349.750 Y370.000
G01 X352.500 Y370.000
G01 X355.250 Y370.000
G01 X358.000 Y370.000
G01 X360.750 Y370.000
G01 X363.500 Y370.000
G01 X366.250 Y370.000
G01 X369.000 Y370.000
G01 X371.750 Y370.000
G01 X374.500 Y370.000
G01 X377.250 Y370.000
G01 X380.000 Y370.000
G01 X382.750 Y370.000
G01 X385.500 Y370.000
G01 X388.250 Y370.000
G01 X391.000 Y370.000
G01 X393.750 Y370.000
G01 X396.500 Y370.000
G01 X399.250 Y370.000
G01 X402.000 Y370.000
G01 X404.750 Y370.000
G01 X407.500 Y370.000
G01 X410.250 Y370.000
G01 X413.000 Y370.000
G01 X415.750 Y370.000
G01 X418.500 Y370.000
G01 X421.250 Y370.000
G01 X424.000 Y370.000
G01 X426.750 Y370.000
G01 X429.500 Y370.000
G01 X432.250 Y370.000
G01 X435.000 Y370.000
G01 X437.750 Y370.000
G01 X440.500 Y370.000
G01 X443.250 Y370.000
G01 X446.000 Y370.000
G01 X448.750 Y370.000
G01 X451.500 Y370.000
G01 X454.250 Y370.000
G01 X457.000 Y370.000
G01 X459.750 Y370.000
G01 X462.500 Y370.000
G01 X465.250 Y370.000
G01 X468.000 Y370.000
G01 X469.645 Y369.399
G01 X472.142 Y364.686
G01 X470.000 Y365.000
G01 X467.250 Y365.000
G01 X464.500 Y365.000
G01 X461.750 Y365.000
G01 X459.000 Y365.000
G01 X456.250 Y365.000
G01 X453.500 Y365.000
G01 X450.750 Y365.000
G01 X448.000 Y365.000
G01 X445.250 Y365.000
G01 X442.500 Y365.000
G01 X439.750 Y365.000
G01 X437.000 Y365.000
G01 X434.250 Y365.000
G01 X431.500 Y365.000
G01 X428.750 Y365.000
G01 X426.000 Y365.000
G01 X423.250 Y365.000
G01 X420.500 Y365.000
G01 X417.750 Y365.000
G01 X415.000 Y365.000
G01 X412.250 Y365.000
G01 X409.500 Y365.000
G01 X406.750 Y365.000
G01 X404.000 Y365.000
G01 X401.250 Y365.000
G01 X398.500 Y365.000
G01 X395.750 Y365.000
G01 X393.000 Y365.000
G01 X390.250 Y365.000
G01 X387.500 Y365.000
G01 X384.750 Y365.000
G01 X382.000 Y365.000
G01 X379.250 Y365.000
G01 X376.500 Y365.000
G01 X373.750 Y365.000
G01 X371.000 Y365.000
G01 X368.250 Y365.000
G01 X365.500 Y365.000
G01 X362.750 Y365.000
G01 X360.000 Y365.000
G01 X357.250 Y365.000
G01 X354.500 Y365.000
G01 X351.750 Y365.000
G01 X349.000 Y365.000
G01 X346.250 Y365.000
G01 X343.500 Y365.000
G01 X340.750 Y365.000
G01 X338.000 Y365.000
G01 X335.250 Y365.000
G01 X332.500 Y365.000
G01 X329.750 Y365.000
G01 X327.000 Y365.000
G01 X324.250 Y365.000
G01 X321.500 Y365.000
G01 X318.750 Y365.000
G01 X316.000 Y365.000
G01 X313.250 Y365.000
G01 X310.500 Y365.000
G01 X307.750 Y365.000
G01 X305.000 Y365.000
G01 X302.250 Y365.000
G01 X298.459 Y372.257
G01 X294.136 Y379.318
G01 X289.508 Y387.487
G01 X289.500 Y387.500
G01 X286.750 Y387.500
G01 X284.000 Y387.500
G01 X281.250 Y387.500
G01 X278.500 Y387.500
G01 X275.750 Y387.500
G01 X273.000 Y387.500
G01 X270.250 Y387.500
G01 X267.500 Y387.500
G01 X264.750 Y387.500
G01 X262.000 Y387.500
G01 X259.250 Y387.500
G01 X256.500 Y387.500
G01 X253.750 Y387.500
G01 X251.000 Y387.500
G01 X248.250 Y387.500
G01 X245.500 Y387.500
G01 X242.750 Y387.500
G01 X240.000 Y387.500
G01 X237.250 Y387.500
G01 X234.500 Y387.500
G01 X231.750 Y387.500
G01 X229.000 Y387.500
G01 X226.250 Y387.500
G01 X223.500 Y387.500
G01 X218.468 Y379.140
G01 X215.386 Y373.182
G01 X211.209 Y365.883
G01 X210.750 Y365.000
G01 X208.000 Y365.000
G01 X205.250 Y365.000
G01 X202.500 Y365.000
G01 X199.750 Y365.000
G01 X197.000 Y365.000
G01 X194.250 Y365.000
G01 X191.500 Y365.000
G01 X188.750 Y365.000
G01 X186.000 Y365.000
G01 X183.250 Y365.000
G01 X180.500 Y365.000
G01 X177.750 Y365.000
G01 X175.000 Y365.000
G01 X172.250 Y365.000
G01 X169.500 Y365.000
G01 X166.750 Y365.000
G01 X164.000 Y365.000
G01 X161.250 Y365.000
G01 X158.500 Y365.000
G01 X155.750 Y365.000
G01 X153.000 Y365.000
G01 X150.250 Y365.000
G01 X147.500 Y365.000
G01 X144.750 Y365.000
G01 X142.000 Y365.000
G01 X139.250 Y365.000
G01 X136.500 Y365.000
G01 X133.750 Y365.000
G01 X131.000 Y365.000
G01 X128.250 Y365.000
G01 X125.500 Y365.000
G01 X122.750 Y365.000
G01 X120.000 Y365.000
G01 X117.250 Y365.000
G01 X114.500 Y365.000
G01 X111.750 Y365.000
G01 X109.000 Y365.000
G01 X106.250 Y365.000
G01 X103.500 Y365.000
G01 X100.750 Y365.000
G01 X98.000 Y365.000
G01 X95.250 Y365.000
G01 X92.500 Y365.000
G01 X89.750 Y365.000
G01 X87.000 Y365.000
G01 X84.250 Y365.000
G01 X81.500 Y365.000
G01 X78.750 Y365.000
G01 X76.000 Y365.000
G01 X73.250 Y365.000
G01 X70.500 Y365.000
G01 X67.750 Y365.000
G01 X65.000 Y365.000
G01 X62.250 Y365.000
G01 X59.500 Y365.000
G01 X56.750 Y365.000
G01 X54.000 Y365.000
G01 X51.250 Y365.000
G01 X48.500 Y365.000
G01 X45.750 Y365.000
G01 X43.000 Y365.000
G01 X40.250 Y365.000
G01 X37.500 Y365.000
G01 X34.750 Y365.000
G01 X32.000 Y365.000
G01 X29.250 Y365.000
G01 X27.701 Y364.382
G01 X25.308 Y359.606
G01 X27.250 Y360.000
G01 X30.000 Y360.000
G01 X32.750 Y360.000
G01 X35.500 Y360.000
G01 X38.250 Y360.000
G01 X41.000 Y360.000
G01 X43.750 Y360.000
G01 X46.500 Y360.000
G01 X49.250 Y360.000
G01 X52.000 Y360.000
G01 X54.750 Y360.000
G01 X57.500 Y360.000
G01 X60.250 Y360.000
G01 X63.000 Y360.000
G01 X65.750 Y360.000
G01 X68.500 Y360.000
G01 X71.250 Y360.000
G01 X74.000 Y360.000
G01 X76.750 Y360.000
G01 X79.500 Y360.000
G01 X82.250 Y360.000
G01 X85.000 Y360.000
G01 X87.750 Y360.000
G01 X90.500 Y360.000
G01 X93.250 Y360.000
G01 X96.000 Y360.000
G01 X98.750 Y360.000
G01 X101.500 Y360.000
G01 X104.250 Y360.000
G01 X107.000 Y360.000
G01 X109.750 Y360.000
G01 X112.500 Y360.000
G01 X115.250 Y360.000
G01 X118.000 Y360.000
G01 X120.750 Y360.000
G01 X123.500 Y360.000
G01 X126.250 Y360.000
G01 X129.000 Y360.000
G01 X131.750 Y360.000
G01 X134.500 Y360.000
G01 X137.250 Y360.000
G01 X140.000 Y360.000
G01 X142.750 Y360.000
G01 X145.500 Y360.000
G01 X148.250 Y360.000
G01 X151.000 Y360.000
G01 X153.750 Y360.000
G01 X156.500 Y360.000
G01 X159.250 Y360.000
G01 X162.000 Y360.000
G01 X164.750 Y360.000
G01 X167.500 Y360.000
G01 X170.250 Y360.000
G01 X173.000 Y360.000
G01 X175.750 Y360.000
G01 X178.500 Y360.000
G01 X181.250 Y360.000
G01 X184.000 Y360.000
G01 X186.750 Y360.000
G01 X189.500 Y360.000
G01 X192.250 Y360.000
G01 X195.000 Y360.000
G01 X197.750 Y360.000
G01 X200.500 Y360.000
G01 X203.250 Y360.000
G01 X206.000 Y360.000
G01 X208.750 Y360.000
G01 X212.496 Y367.209
G01 X216.853 Y374.303
G01 X216.864 Y374.318
G01 X221.500 Y382.500
G01 X224.250 Y382.500
G01 X227.000 Y382.500
G01 X229.750 Y382.500
G01 X232.500 Y382.500
G01 X235.250 Y382.500
G01 X238.000 Y382.500
G01 X240.750 Y382.500
G01 X243.500 Y382.500
G01 X246.250 Y382.500
G01 X249.000 Y382.500
G01 X251.750 Y382.500
G01 X254.500 Y382.500
G01 X257.250 Y382.500
G01 X260.000 Y382.500
G01 X262.750 Y382.500
G01 X265.500 Y382.500
G01 X268.250 Y382.500
G01 X271.000 Y382.500
G01 X273.750 Y382.500
G01 X276.500 Y382.500
G01 X279.250 Y382.500
G01 X282.000 Y382.500
G01 X284.750 Y382.500
G01 X287.500 Y382.500
G01 X290.250 Y382.500
G01 X293.000 Y382.500
G01 X297.504 Y375.106
G01 X301.114 Y368.182
G01 X304.914 Y361.595
G01 X305.750 Y360.000
G01 X308.500 Y360.000
G01 X311.250 Y360.000
G01 X314.000 Y360.000
G01 X316.750 Y360.000
G01 X319.500 Y360.000
G01 X322.250 Y360.000
G01 X325.000 Y360.000
G01 X327.750 Y360.000
G01 X330.500 Y360.000
G01 X333.250 Y360.000
G01 X336.000 Y360.000
G01 X338.750 Y360.000
G01 X341.500 Y360.000
G01 X344.250 Y360.000
G01 X347.000 Y360.000
G01 X349.750 Y360.000
G01 X352.500 Y360.000
G01 X355.250 Y360.000
G01 X358.000 Y360.000
G01 X360.750 Y360.000
G01 X363.500 Y360.000
G01 X366.250 Y360.000
G01 X369.000 Y360.000
G01 X371.750 Y360.000
G01 X374.500 Y360.000
G01 X377.250 Y360.000
G01 X380.000 Y360.000
G01 X382.750 Y360.000
G01 X385.500 Y360.000
G01 X388.250 Y360.000
G01 X391.000 Y360.000
G01 X393.750 Y360.000
G01 X396.500 Y360.000
G01 X399.250 Y360.000
G01 X402.000 Y360.000
G01 X404.750 Y360.000
G01 X407.500 Y360.000
G01 X410.250 Y360.000
G01 X413.000 Y360.000
G01 X415.750 Y360.000
G01 X418.500 Y360.000
G01 X421.250 Y360.000
G01 X424.000 Y360.000
G01 X426.750 Y360.000
G01 X429.500 Y360.000
G01 X432.250 Y360.000
G01 X435.000 Y360.000
G01 X437.750 Y360.000
G01 X440.500 Y360.000
G01 X443.250 Y360.000
G01 X446.000 Y360.000
G01 X448.750 Y360.000
G01 X451.500 Y360.000
G01 X454.250 Y360.000
G01 X457.000 Y360.000
G01 X459.750 Y360.000
G01 X462.500 Y360.000
G01 X465.250 Y360.000
G01 X468.000 Y360.000
G01 X470.750 Y360.000
G01 X473.500 Y360.000
G01 X474.835 Y359.312
G01 X477.121 Y354.481
G01 X475.500 Y355.000
G01 X472.750 Y355.000
G01 X470.000 Y355.000
G01 X467.250 Y355.000
G01 X464.500 Y355.000
G01 X461.750 Y355.000
G01 X459.000 Y355.000
G01 X456.250 Y355.000
G01 X453.500 Y355.000
G01 X450.750 Y355.000
G01 X448.000 Y355.000
G01 X445.250 Y355.000
G01 X442.500 Y355.000
G01 X439.750 Y355.000
G01 X437.000 Y355.000
G01 X434.250 Y355.000
G01 X431.500 Y355.000
G01 X428.750 Y355.000
G01 X426.000 Y355.000
G01 X423.250 Y355.000
G01 X420.500 Y355.000
G01 X417.750 Y355.000
G01 X415.000 Y355.000
G01 X412.250 Y355.000
G01 X409.500 Y355.000
G01 X406.750 Y355.000
G01 X404.000 Y355.000
G01 X401.250 Y355.000
G01 X398.500 Y355.000
G01 X395.750 Y355.000
G01 X393.000 Y355.000
G01 X390.250 Y355.000
G01 X387.500 Y355.000
G01 X384.750 Y355.000
G01 X382.000 Y355.000
G01 X379.250 Y355.000
G01 X376.500 Y355.000
G01 X373.750 Y355.000
G01 X371.000 Y355.000
G01 X368.250 Y355.000
G01 X365.500 Y355.000
G01 X362.750 Y355.000
G01 X360.000 Y355.000
G01 X357.250 Y355.000
G01 X354.500 Y355.000
G01 X351.750 Y355.000
G01 X349.000 Y355.000
G01 X346.250 Y355.000
G01 X343.500 Y355.000
G01 X340.750 Y355.000
G01 X338.000 Y355.000
G01 X335.250 Y355.000
G01 X332.500 Y355.000
G01 X329.750 Y355.000
G01 X327.000 Y355.000
G01 X324.250 Y355.000
G01 X321.500 Y355.000
G01 X318.750 Y355.000
G01 X316.000 Y355.000
G01 X313.250 Y355.000
G01 X310.500 Y355.000
G01 X307.750 Y355.000
G01 X305.000 Y355.000
G01 X301.625 Y361.556
G01 X297.735 Y368.024
G01 X296.886 Y369.318
G01 X292.739 Y376.703
G01 X292.250 Y377.500
G01 X289.500 Y377.500
G01 X286.750 Y377.500
G01 X284.000 Y377.500
G01 X281.250 Y377.500
G01 X278.500 Y377.500
G01 X275.750 Y377.500
G01 X273.000 Y377.500
G01 X270.250 Y377.500
G01 X267.500 Y377.500
G01 X264.750 Y377.500
G01 X262.000 Y377.500
G01 X259.250 Y377.500
G01 X256.500 Y377.500
G01 X253.750 Y377.500
G01 X251.000 Y377.500
G01 X248.250 Y377.500
G01 X245.500 Y377.500
G01 X242.750 Y377.500
G01 X240.000 Y377.500
G01 X237.250 Y377.500
G01 X234.500 Y377.500
G01 X231.750 Y377.500
G01 X229.000 Y377.500
G01 X226.250 Y377.500
G01 X223.500 Y377.500
G01 X220.750 Y377.500
G01 X216.186 Y370.028
G01 X212.636 Y363.182
G01 X208.875 Y356.679
G01 X208.000 Y355.000
G01 X205.250 Y355.000
G01 X202.500 Y355.000
G01 X199.750 Y355.000
G01 X197.000 Y355.000
G01 X194.250 Y355.000
G01 X191.500 Y355.000
G01 X188.750 Y355.000
G01 X186.000 Y355.000
G01 X183.250 Y355.000
G01 X180.500 Y355.000
G01 X177.750 Y355.000
G01 X175.000 Y355.000
G01 X172.250 Y355.000
G01 X169.500 Y355.000
G01 X166.750 Y355.000
G01 X164.000 Y355.000
G01 X161.250 Y355.000
G01 X158.500 Y355.000
G01 X155.750 Y355.000
G01 X153.000 Y355.000
G01 X150.250 Y355.000
G01 X147.500 Y355.000
G01 X144.750 Y355.000
G01 X142.000 Y355.000
G01 X139.250 Y355.000
G01 X136.500 Y355.000
G01 X133.750 Y355.000
G01 X131.000 Y355.000
G01 X128.250 Y355.000
G01 X125.500 Y355.000
G01 X122.750 Y355.000
G01 X120.000 Y355.000
G01 X117.250 Y355.000
G01 X114.500 Y355.000
G01 X111.750 Y355.000
G01 X109.000 Y355.000
G01 X106.250 Y355.000
G01 X103.500 Y355.000
G01 X100.750 Y355.000
G01 X98.000 Y355.000
G01 X95.250 Y355.000
G01 X92.500 Y355.000
G01 X89.750 Y355.000
G01 X87.000 Y355.000
G01 X84.250 Y355.000
G01 X81.500 Y355.000
G01 X78.750 Y355.000
G01 X76.000 Y355.000
G01 X73.250 Y355.000
G01 X70.500 Y355.000
G01 X67.750 Y355.000
G01 X65.000 Y355.000
G01 X62.250 Y355.000
G01 X59.500 Y355.000
G01 X56.750 Y355.000
G01 X54.000 Y355.000
G01 X51.250 Y355.000
G01 X48.500 Y355.000
G01 X45.750 Y355.000
G01 X43.000 Y355.000
G01 X40.250 Y355.000
G01 X37.500 Y355.000
G01 X34.750 Y355.000
G01 X32.000 Y355.000
G01 X29.250 Y355.000
G01 X26.500 Y355.000
G01 X23.750 Y355.000
G01 X22.749 Y354.198
G01 X20.575 Y349.318
G01 X21.750 Y350.000
G01 X24.500 Y350.000
G01 X27.250 Y350.000
G01 X30.000 Y350.000
G01 X32.750 Y350.000
G01 X35.500 Y350.000
G01 X38.250 Y350.000
G01 X41.000 Y350.000
G01 X43.750 Y350.000
G01 X46.500 Y350.000
G01 X49.250 Y350.000
G01 X52.000 Y350.000
G01 X54.750 Y350.000
G01 X57.500 Y350.000
G01 X60.250 Y350.000
G01 X63.000 Y350.000
G01 X65.750 Y350.000
G01 X68.500 Y350.000
G01 X71.250 Y350.000
G01 X74.000 Y350.000
G01 X76.750 Y350.000
G01 X79.500 Y350.000
G01 X82.250 Y350.000
G01 X85.000 Y350.000
G01 X87.750 Y350.000
G01 X90.500 Y350.000
G01 X93.250 Y350.000
G01 X96.000 Y350.000
G01 X98.750 Y350.000
G01 X101.500 Y350.000
G01 X104.250 Y350.000
G01 X107.000 Y350.000
G01 X109.750 Y350.000
G01 X112.500 Y350.000
G01 X115.250 Y350.000
G01 X118.000 Y350.000
G01 X120.750 Y350.000
G01 X123.500 Y350.000
G01 X126.250 Y350.000
G01 X129.000 Y350.000
G01 X131.750 Y350.000
G01 X134.500 Y350.000
G01 X137.250 Y350.000
G01 X140.000 Y350.000
G01 X142.750 Y350.000
G01 X145.500 Y350.000
G01 X148.250 Y350.000
G01 X151.000 Y350.000
G01 X153.750 Y350.000
G01 X156.500 Y350.000
G01 X159.250 Y350.000
G01 X162.000 Y350.000
G01 X164.750 Y350.000
G01 X167.500 Y350.000
G01 X170.250 Y350.000
G01 X173.000 Y350.000
G01 X175.750 Y350.000
G01 X178.500 Y350.000
G01 X181.250 Y350.000
G01 X184.000 Y350.000
G01 X186.750 Y350.000
G01 X189.500 Y350.000
G01 X192.250 Y350.000
G01 X195.000 Y350.000
G01 X197.750 Y350.000
G01 X200.500 Y350.000
G01 X203.250 Y350.000
G01 X206.000 Y350.000
G01 X209.316 Y356.334
G01 X212.955 Y362.273
G01 X216.953 Y369.581
G01 X218.750 Y372.500
G01 X221.500 Y372.500
G01 X224.250 Y372.500
G01 X227.000 Y372.500
G01 X229.750 Y372.500
G01 X232.500 Y372.500
G01 X235.250 Y372.500
G01 X238.000 Y372.500
G01 X240.750 Y372.500
G01 X243.500 Y372.500
G01 X246.250 Y372.500
G01 X249.000 Y372.500
G01 X251.750 Y372.500
G01 X254.500 Y372.500
G01 X257.250 Y372.500
G01 X260.000 Y372.500
G01 X262.750 Y372.500
G01 X265.500 Y372.500
G01 X268.250 Y372.500
G01 X271.000 Y372.500
G01 X273.750 Y372.500
G01 X276.500 Y372.500
G01 X279.250 Y372.500
G01 X282.000 Y372.500
G01 X284.750 Y372.500
G01 X287.500 Y372.500
G01 X290.250 Y372.500
G01 X293.000 Y372.500
G01 X295.750 Y372.500
G01 X299.865 Y365.831
G01 X303.440 Y359.064
G01 X303.864 Y358.182
G01 X307.326 Y352.233
G01 X308.500 Y350.000
G01 X311.250 Y350.000
G01 X314.000 Y350.000
G01 X316.750 Y350.000
G01 X319.500 Y350.000
G01 X322.250 Y350.000
G01 X325.000 Y350.000
G01 X327.750 Y350.000
G01 X330.500 Y350.000
G01 X333.250 Y350.000
G01 X336.000 Y350.000
G01 X338.750 Y350.000
G01 X341.500 Y350.000
G01 X344.250 Y350.000
G01 X347.000 Y350.000
G01 X349.750 Y350.000
G01 X352.500 Y350.000
G01 X355.250 Y350.000
G01 X358.000 Y350.000
G01 X360.750 Y350.000
G01 X363.500 Y350.000
G01 X366.250 Y350.000
G01 X369.000 Y350.000
G01 X371.750 Y350.000
G01 X374.500 Y350.000
G01 X377.250 Y350.000
G01 X380.000 Y350.000
G01 X382.750 Y350.000
G01 X385.500 Y350.000
G01 X388.250 Y350.000
G01 X391.000 Y350.000
G01 X393.750 Y350.000
G01 X396.500 Y350.000
G01 X399.250 Y350.000
G01 X402.000 Y350.000
G01 X404.750 Y350.000
G01 X407.500 Y350.000
G01 X410.250 Y350.000
G01 X413.000 Y350.000
G01 X415.750 Y350.000
G01 X418.500 Y350.000
G01 X421.250 Y350.000
G01 X424.000 Y350.000
G01 X426.750 Y350.000
G01 X429.500 Y350.000
G01 X432.250 Y350.000
G01 X435.000 Y350.000
G01 X437.750 Y350.000
G01 X440.500 Y350.000
G01 X443.250 Y350.000
G01 X446.000 Y350.000
G01 X448.750 Y350.000
G01 X451.500 Y350.000
G01 X454.250 Y350.000
G01 X457.000 Y350.000
G01 X459.750 Y350.000
G01 X462.500 Y350.000
G01 X465.250 Y350.000
G01 X468.000 Y350.000
G01 X470.750 Y350.000
G01 X473.500 Y350.000
G01 X476.250 Y350.000
G01 X479.000 Y350.000
G01 X479.542 Y349.047
G01 X481.603 Y344.127
G01 X481.000 Y345.000
G01 X478.250 Y345.000
G01 X475.500 Y345.000
G01 X472.750 Y345.000
G01 X470.000 Y345.000
G01 X467.250 Y345.000
G01 X464.500 Y345.000
G01 X461.750 Y345.000
G01 X459.000 Y345.000
G01 X456.250 Y345.000
G01 X453.500 Y345.000
G01 X450.750 Y345.000
G01 X448.000 Y345.000
G01 X445.250 Y345.000
G01 X442.500 Y345.000
G01 X439.750 Y345.000
G01 X437.000 Y345.000
G01 X434.250 Y345.000
G01 X431.500 Y345.000
G01 X428.750 Y345.000
G01 X426.000 Y345.000
G01 X423.250 Y345.000
G01 X420.500 Y345.000
G01 X417.750 Y345.000
G01 X415.000 Y345.000
G01 X412.250 Y345.000
G01 X409.500 Y345.000
G01 X406.750 Y345.000
G01 X404.000 Y345.000
G01 X401.250 Y345.000
G01 X398.500 Y345.000
G01 X395.750 Y345.000
G01 X393.000 Y345.000
G01 X390.250 Y345.000
G01 X387.500 Y345.000
G01 X384.750 Y345.000
G01 X382.000 Y345.000
G01 X379.250 Y345.000
G01 X376.500 Y345.000
G01 X373.750 Y345.000
G01 X371.000 Y345.000
G01 X368.250 Y345.000
G01 X365.500 Y345.000
G01 X362.750 Y345.000
G01 X360.000 Y345.000
G01 X357.250 Y345.000
G01 X354.500 Y345.000
G01 X351.750 Y345.000
G01 X349.000 Y345.000
G01 X346.250 Y345.000
G01 X343.500 Y345.000
G01 X340.750 Y345.000
G01 X338.000 Y345.000
G01 X335.250 Y345.000
G01 X332.500 Y345.000
G01 X329.750 Y345.000
G01 X327.000 Y345.000
G01 X324.250 Y345.000
G01 X321.500 Y345.000
G01 X318.750 Y345.000
G01 X316.000 Y345.000
G01 X313.250 Y345.000
G01 X310.500 Y345.000
G01 X307.503 Y350.903
G01 X304.069 Y356.734
G01 X302.386 Y359.318
G01 X298.711 Y365.927
G01 X297.750 Y367.500
G01 X295.000 Y367.500
G01 X292.250 Y367.500
G01 X289.500 Y367.500
G01 X286.750 Y367.500
G01 X284.000 Y367.500
G01 X281.250 Y367.500
G01 X278.500 Y367.500
G01 X275.750 Y367.500
G01 X273.000 Y367.500
G01 X270.250 Y367.500
G01 X267.500 Y367.500
G01 X264.750 Y367.500
G01 X262.000 Y367.500
G01 X259.250 Y367.500
G01 X256.500 Y367.500
G01 X253.750 Y367.500
G01 X251.000 Y367.500
G01 X248.250 Y367.500
G01 X245.500 Y367.500
G01 X242.750 Y367.500
G01 X240.000 Y367.500
G01 X237.250 Y367.500
G01 X234.500 Y367.500
G01 X231.750 Y367.500
G01 X229.000 Y367.500
G01 X226.250 Y367.500
G01 X223.500 Y367.500
G01 X220.750 Y367.500
G01 X218.000 Y367.500
G01 X213.879 Y360.861
G01 X210.328 Y354.112
G01 X209.886 Y353.182
G01 X206.512 Y347.414
G01 X205.250 Y345.000
G01 X202.500 Y345.000
G01 X199.750 Y345.000
G01 X197.000 Y345.000
G01 X194.250 Y345.000
G01 X191.500 Y345.000
G01 X188.750 Y345.000
G01 X186.000 Y345.000
G01 X183.250 Y345.000
G01 X180.500 Y345.000
G01 X177.750 Y345.000
G01 X175.000 Y345.000
G01 X172.250 Y345.000
G01 X169.500 Y345.000
G01 X166.750 Y345.000
G01 X164.000 Y345.000
G01 X161.250 Y345.000
G01 X158.500 Y345.000
G01 X155.750 Y345.000
G01 X153.000 Y345.000
G01 X150.250 Y345.000
G01 X147.500 Y345.000
G01 X144.750 Y345.000
G01 X142.000 Y345.000
G01 X139.250 Y345.000
G01 X136.500 Y345.000
G01 X133.750 Y345.000
G01 X131.000 Y345.000
G01 X128.250 Y345.000
G01 X125.500 Y345.000
G01 X122.750 Y345.000
G01 X120.000 Y345.000
G01 X117.250 Y345.000
G01 X114.500 Y345.000
G01 X111.750 Y345.000
G01 X109.000 Y345.000
G01 X106.250 Y345.000
G01 X103.500 Y345.000
G01 X100.750 Y345.000
G01 X98.000 Y345.000
G01 X95.250 Y345.000
G01 X92.500 Y345.000
G01 X89.750 Y345.000
G01 X87.000 Y345.000
G01 X84.250 Y345.000
G01 X81.500 Y345.000
G01 X78.750 Y345.000
G01 X76.000 Y345.000
G01 X73.250 Y345.000
G01 X70.500 Y345.000
G01 X67.750 Y345.000
G01 X65.000 Y345.000
G01 X62.250 Y345.000
G01 X59.500 Y345.000
G01 X56.750 Y345.000
G01 X54.000 Y345.000
G01 X51.250 Y345.000
G01 X48.500 Y345.000
G01 X45.750 Y345.000
G01 X43.000 Y345.000
G01 X40.250 Y345.000
G01 X37.500 Y345.000
G01 X34.750 Y345.000
G01 X32.000 Y345.000
G01 X29.250 Y345.000
G01 X26.500 Y345.000
G01 X23.750 Y345.000
G01 X21.000 Y345.000
G01 X18.681 Y344.823
G01 X16.696 Y339.828
G01 X19.000 Y340.000
G01 X21.750 Y340.000
G01 X24.500 Y340.000
G01 X27.250 Y340.000
G01 X30.000 Y340.000
G01 X32.750 Y340.000
G01 X35.500 Y340.000
G01 X38.250 Y340.000
G01 X41.000 Y340.000
G01 X43.750 Y340.000
G01 X46.500 Y340.000
G01 X49.250 Y340.000
G01 X52.000 Y340.000
G01 X54.750 Y340.000
G01 X57.500 Y340.000
G01 X60.250 Y340.000
G01 X63.000 Y340.000
G01 X65.750 Y340.000
G01 X68.500 Y340.000
G01 X71.250 Y340.000
G01 X74.000 Y340.000
G01 X76.750 Y340.000
G01 X79.500 Y340.000
G01 X82.250 Y340.000
G01 X85.000 Y340.000
G01 X87.750 Y340.000
G01 X90.500 Y340.000
G01 X93.250 Y340.000
G01 X96.000 Y340.000
G01 X98.750 Y340.000
G01 X101.500 Y340.000
G01 X104.250 Y340.000
G01 X107.000 Y340.000
G01 X109.750 Y340.000
G01 X112.500 Y340.000
G01 X115.250 Y340.000
G01 X118.000 Y340.000
G01 X120.750 Y340.000
G01 X123.500 Y340.000
G01 X126.250 Y340.000
G01 X129.000 Y340.000
G01 X131.750 Y340.000
G01 X134.500 Y340.000
G01 X137.250 Y340.000
G01 X140.000 Y340.000
G01 X142.750 Y340.000
G01 X145.500 Y340.000
G01 X148.250 Y340.000
G01 X151.000 Y340.000
G01 X153.750 Y340.000
G01 X156.500 Y340.000
G01 X159.250 Y340.000
G01 X162.000 Y340.000
G01 X164.750 Y340.000
G01 X167.500 Y340.000
G01 X170.250 Y340.000
G01 X173.000 Y340.000
G01 X175.750 Y340.000
G01 X178.500 Y340.000
G01 X181.250 Y340.000
G01 X184.000 Y340.000
G01 X186.750 Y340.000
G01 X189.500 Y340.000
G01 X192.250 Y340.000
G01 X195.000 Y340.000
G01 X197.750 Y340.000
G01 X200.500 Y340.000
G01 X203.250 Y340.000
G01 X206.145 Y345.625
G01 X209.483 Y351.174
G01 X210.205 Y352.273
G01 X213.713 Y358.773
G01 X216.000 Y362.500
G01 X218.750 Y362.500
G01 X221.500 Y362.500
G01 X224.250 Y362.500
G01 X227.000 Y362.500
G01 X229.750 Y362.500
G01 X232.500 Y362.500
G01 X235.250 Y362.500
G01 X238.000 Y362.500
G01 X240.750 Y362.500
G01 X243.500 Y362.500
G01 X246.250 Y362.500
G01 X249.000 Y362.500
G01 X251.750 Y362.500
G01 X254.500 Y362.500
G01 X257.250 Y362.500
G01 X260.000 Y362.500
G01 X262.750 Y362.500
G01 X265.500 Y362.500
G01 X268.250 Y362.500
G01 X271.000 Y362.500
G01 X273.750 Y362.500
G01 X276.500 Y362.500
G01 X279.250 Y362.500
G01 X282.000 Y362.500
G01 X284.750 Y362.500
G01 X287.500 Y362.500
G01 X290.250 Y362.500
G01 X293.000 Y362.500
G01 X295.750 Y362.500
G01 X298.500 Y362.500
G01 X302.252 Y356.500
G01 X305.536 Y350.411
G01 X306.614 Y348.182
G01 X309.768 Y342.810
G01 X311.250 Y340.000
G01 X314.000 Y340.000
G01 X316.750 Y340.000
G01 X319.500 Y340.000
G01 X322.250 Y340.000
G01 X325.000 Y340.000
G01 X327.750 Y340.000
G01 X330.500 Y340.000
G01 X333.250 Y340.000
G01 X336.000 Y340.000
G01 X338.750 Y340.000
G01 X341.500 Y340.000
G01 X344.250 Y340.000
G01 X347.000 Y340.000
G01 X349.750 Y340.000
G01 X352.500 Y340.000
G01 X355.250 Y340.000
G01 X358.000 Y340.000
G01 X360.750 Y340.000
G01 X363.500 Y340.000
G01 X366.250 Y340.000
G01 X369.000 Y340.000
G01 X371.750 Y340.000
G01 X374.500 Y340.000
G01 X377.250 Y340.000
G01 X380.000 Y340.000
G01 X382.750 Y340.000
G01 X385.500 Y340.000
G01 X388.250 Y340.000
G01 X391.000 Y340.000
G01 X393.750 Y340.000
G01 X396.500 Y340.000
G01 X399.250 Y340.000
G01 X402.000 Y340.000
G01 X404.750 Y340.000
G01 X407.500 Y340.000
G01 X410.250 Y340.000
G01 X413.000 Y340.000
G01 X415.750 Y340.000
G01 X418.500 Y340.000
G01 X421.250 Y340.000
G01 X424.000 Y340.000
G01 X426.750 Y340.000
G01 X429.500 Y340.000
G01 X432.250 Y340.000
G01 X435.000 Y340.000
G01 X437.750 Y340.000
G01 X440.500 Y340.000
G01 X443.250 Y340.000
G01 X446.000 Y340.000
G01 X448.750 Y340.000
G01 X451.500 Y340.000
G01 X454.250 Y340.000
G01 X457.000 Y340.000
G01 X459.750 Y340.000
G01 X462.500 Y340.000
G01 X465.250 Y340.000
G01 X468.000 Y340.000
G01 X470.750 Y340.000
G01 X473.500 Y340.000
G01 X476.250 Y340.000
G01 X479.000 Y340.000
G01 X481.750 Y340.000
G01 X483.400 Y339.578
G01 X485.266 Y334.557
G01 X483.750 Y335.000
G01 X481.000 Y335.000
G01 X478.250 Y335.000
G01 X475.500 Y335.000
G01 X472.750 Y335.000
G01 X470.000 Y335.000
G01 X467.250 Y335.000
G01 X464.500 Y335.000
G01 X461.750 Y335.000
G01 X459.000 Y335.000
G01 X456.250 Y335.000
G01 X453.500 Y335.000
G01 X450.750 Y335.000
G01 X448.000 Y335.000
G01 X445.250 Y335.000
G01 X442.500 Y335.000
G01 X439.750 Y335.000
G01 X437.000 Y335.000
G01 X434.250 Y335.000
G01 X431.500 Y335.000
G01 X428.750 Y335.000
G01 X426.000 Y335.000
G01 X423.250 Y335.000
G01 X420.500 Y335.000
G01 X417.750 Y335.000
G01 X415.000 Y335.000
G01 X412.250 Y335.000
G01 X409.500 Y335.000
G01 X406.750 Y335.000
G01 X404.000 Y335.000
G01 X401.250 Y335.000
G01 X398.500 Y335.000
G01 X395.750 Y335.000
G01 X393.000 Y335.000
G01 X390.250 Y335.000
G01 X387.500 Y335.000
G01 X384.750 Y335.000
G01 X382.000 Y335.000
G01 X379.250 Y335.000
G01 X376.500 Y335.000
G01 X373.750 Y335.000
G01 X371.000 Y335.000
G01 X368.250 Y335.000
G01 X365.500 Y335.000
G01 X362.750 Y335.000
G01 X360.000 Y335.000
G01 X357.250 Y335.000
G01 X354.500 Y335.000
G01 X351.750 Y335.000
G01 X349.000 Y335.000
G01 X346.250 Y335.000
G01 X343.500 Y335.000
G01 X340.750 Y335.000
G01 X338.000 Y335.000
G01 X335.250 Y335.000
G01 X332.500 Y335.000
G01 X329.750 Y335.000
G01 X327.000 Y335.000
G01 X324.250 Y335.000
G01 X321.500 Y335.000
G01 X318.750 Y335.000
G01 X316.000 Y335.000
G01 X313.250 Y335.000
G01 X310.532 Y340.282
G01 X307.445 Y345.496
G01 X306.295 Y347.273
G01 X303.133 Y353.177
G01 X300.500 Y357.500
G01 X297.750 Y357.500
G01 X295.000 Y357.500
G01 X292.250 Y357.500
G01 X289.500 Y357.500
G01 X286.750 Y357.500
G01 X284.000 Y357.500
G01 X281.250 Y357.500
G01 X278.500 Y357.500
G01 X275.750 Y357.500
G01 X273.000 Y357.500
G01 X270.250 Y357.500
G01 X267.500 Y357.500
G01 X264.750 Y357.500
G01 X262.000 Y357.500
G01 X259.250 Y357.500
G01 X256.500 Y357.500
G01 X253.750 Y357.500
G01 X251.000 Y357.500
G01 X248.250 Y357.500
G01 X245.500 Y357.500
G01 X242.750 Y357.500
G01 X240.000 Y357.500
G01 X237.250 Y357.500
G01 X234.500 Y357.500
G01 X231.750 Y357.500
G01 X229.000 Y357.500
G01 X226.250 Y357.500
G01 X223.500 Y357.500
G01 X220.750 Y357.500
G01 X218.000 Y357.500
G01 X215.250 Y357.500
G01 X212.500 Y357.500
G01 X208.866 Y351.589
G01 X205.719 Y345.589
G01 X205.545 Y345.227
G01 X202.425 Y340.094
G01 X199.750 Y335.000
G01 X197.000 Y335.000
G01 X194.250 Y335.000
G01 X191.500 Y335.000
G01 X188.750 Y335.000
G01 X186.000 Y335.000
G01 X183.250 Y335.000
G01 X180.500 Y335.000
G01 X177.750 Y335.000
G01 X175.000 Y335.000
G01 X172.250 Y335.000
G01 X169.500 Y335.000
G01 X166.750 Y335.000
G01 X164.000 Y335.000
G01 X161.250 Y335.000
G01 X158.500 Y335.000
G01 X155.750 Y335.000
G01 X153.000 Y335.000
G01 X150.250 Y335.000
G01 X147.500 Y335.000
G01 X144.750 Y335.000
G01 X142.000 Y335.000
G01 X139.250 Y335.000
G01 X136.500 Y335.000
G01 X133.750 Y335.000
G01 X131.000 Y335.000
G01 X128.250 Y335.000
G01 X125.500 Y335.000
G01 X122.750 Y335.000
G01 X120.000 Y335.000
G01 X117.250 Y335.000
G01 X114.500 Y335.000
G01 X111.750 Y335.000
G01 X109.000 Y335.000
G01 X106.250 Y335.000
G01 X103.500 Y335.000
G01 X100.750 Y335.000
G01 X98.000 Y335.000
G01 X95.250 Y335.000
G01 X92.500 Y335.000
G01 X89.750 Y335.000
G01 X87.000 Y335.000
G01 X84.250 Y335.000
G01 X81.500 Y335.000
G01 X78.750 Y335.000
G01 X76.000 Y335.000
G01 X73.250 Y335.000
G01 X70.500 Y335.000
G01 X67.750 Y335.000
G01 X65.000 Y335.000
G01 X62.250 Y335.000
G01 X59.500 Y335.000
G01 X56.750 Y335.000
G01 X54.000 Y335.000
G01 X51.250 Y335.000
G01 X48.500 Y335.000
G01 X45.750 Y335.000
G01 X43.000 Y335.000
G01 X40.250 Y335.000
G01 X37.500 Y335.000
G01 X34.750 Y335.000
G01 X32.000 Y335.000
G01 X29.250 Y335.000
G01 X26.500 Y335.000
G01 X23.750 Y335.000
G01 X21.000 Y335.000
G01 X18.250 Y335.000
G01 X15.500 Y335.000
G01 X14.649 Y334.320
G01 X12.904 Y329.280
G01 X13.500 Y330.000
G01 X16.250 Y330.000
G01 X19.000 Y330.000
G01 X21.750 Y330.000
G01 X24.500 Y330.000
G01 X27.250 Y330.000
G01 X30.000 Y330.000
G01 X32.750 Y330.000
G01 X35.500 Y330.000
G01 X38.250 Y330.000
G01 X41.000 Y330.000
G01 X43.750 Y330.000
G01 X46.500 Y330.000
G01 X49.250 Y330.000
G01 X52.000 Y330.000
G01 X54.750 Y330.000
G01 X57.500 Y330.000
G01 X60.250 Y330.000
G01 X63.000 Y330.000
G01 X65.750 Y330.000
G01 X68.500 Y330.000
G01 X71.250 Y330.000
G01 X74.000 Y330.000
G01 X76.750 Y330.000
G01 X79.500 Y330.000
G01 X82.250 Y330.000
G01 X85.000 Y330.000
G01 X87.750 Y330.000
G01 X90.500 Y330.000
G01 X93.250 Y330.000
G01 X96.000 Y330.000
G01 X98.750 Y330.000
G01 X101.500 Y330.000
G01 X104.250 Y330.000
G01 X107.000 Y330.000
G01 X109.750 Y330.000
G01 X112.500 Y330.000
G01 X115.250 Y330.000
G01 X118.000 Y330.000
G01 X120.750 Y330.000
G01 X123.500 Y330.000
G01 X126.250 Y330.000
G01 X129.000 Y330.000
G01 X131.750 Y330.000
G01 X134.500 Y330.000
G01 X137.250 Y330.000
G01 X140.000 Y330.000
G01 X142.750 Y330.000
G01 X145.500 Y330.000
G01 X148.250 Y330.000
G01 X151.000 Y330.000
G01 X153.750 Y330.000
G01 X156.500 Y330.000
G01 X159.250 Y330.000
G01 X162.000 Y330.000
G01 X164.750 Y330.000
G01 X167.500 Y330.000
G01 X170.250 Y330.000
G01 X173.000 Y330.000
G01 X175.750 Y330.000
G01 X178.500 Y330.000
G01 X181.250 Y330.000
G01 X184.000 Y330.000
G01 X186.750 Y330.000
G01 X189.500 Y330.000
G01 X192.250 Y330.000
G01 X195.000 Y330.000
G01 X197.750 Y330.000
G01 X200.270 Y334.976
G01 X203.156 Y339.892
G01 X204.705 Y342.273
G01 X207.736 Y347.978
G01 X210.500 Y352.500
G01 X213.250 Y352.500
G01 X216.000 Y352.500
G01 X218.750 Y352.500
G01 X221.500 Y352.500
G01 X224.250 Y352.500
G01 X227.000 Y352.500
G01 X229.750 Y352.500
G01 X232.500 Y352.500
G01 X235.250 Y352.500
G01 X238.000 Y352.500
G01 X240.750 Y352.500
G01 X243.500 Y352.500
G01 X246.250 Y352.500
G01 X249.000 Y352.500
G01 X251.750 Y352.500
G01 X254.500 Y352.500
G01 X257.250 Y352.500
G01 X260.000 Y352.500
G01 X262.750 Y352.500
G01 X265.500 Y352.500
G01 X268.250 Y352.500
G01 X271.000 Y352.500
G01 X273.750 Y352.500
G01 X276.500 Y352.500
G01 X279.250 Y352.500
G01 X282.000 Y352.500
G01 X284.750 Y352.500
G01 X287.500 Y352.500
G01 X290.250 Y352.500
G01 X293.000 Y352.500
G01 X295.750 Y352.500
G01 X298.500 Y352.500
G01 X301.250 Y352.500
G01 X304.625 Y347.033
G01 X307.591 Y341.488
G01 X308.205 Y340.227
G01 X311.179 Y335.334
G01 X313.817 Y330.371
G01 X314.000 Y330.000
G01 X316.750 Y330.000
G01 X319.500 Y330.000
G01 X322.250 Y330.000
G01 X325.000 Y330.000
G01 X327.750 Y330.000
G01 X330.500 Y330.000
G01 X333.250 Y330.000
G01 X336.000 Y330.000
G01 X338.750 Y330.000
G01 X341.500 Y330.000
G01 X344.250 Y330.000
G01 X347.000 Y330.000
G01 X349.750 Y330.000
G01 X352.500 Y330.000
G01 X355.250 Y330.000
G01 X358.000 Y330.000
G01 X360.750 Y330.000
G01 X363.500 Y330.000
G01 X366.250 Y330.000
G01 X369.000 Y330.000
G01 X371.750 Y330.000
G01 X374.500 Y330.000
G01 X377.250 Y330.000
G01 X380.000 Y330.000
G01 X382.750 Y330.000
G01 X385.500 Y330.000
G01 X388.250 Y330.000
G01 X391.000 Y330.000
G01 X393.750 Y330.000
G01 X396.500 Y330.000
G01 X399.250 Y330.000
G01 X402.000 Y330.000
G01 X404.750 Y330.000
G01 X407.500 Y330.000
G01 X410.250 Y330.000
G01 X413.000 Y330.000
G01 X415.750 Y330.000
G01 X418.500 Y330.000
G01 X421.250 Y330.000
G01 X424.000 Y330.000
G01 X426.750 Y330.000
G01 X429.500 Y330.000
G01 X432.250 Y330.000
G01 X435.000 Y330.000
G01 X437.750 Y330.000
G01 X440.500 Y330.000
G01 X443.250 Y330.000
G01 X446.000 Y330.000
G01 X448.750 Y330.000
G01 X451.500 Y330.000
G01 X454.250 Y330.000
G01 X457.000 Y330.000
G01 X459.750 Y330.000
G01 X462.500 Y330.000
G01 X465.250 Y330.000
G01 X468.000 Y330.000
G01 X470.750 Y330.000
G01 X473.500 Y330.000
G01 X476.250 Y330.000
G01 X479.000 Y330.000
G01 X481.750 Y330.000
G01 X484.500 Y330.000
G01 X486.895 Y329.880
G01 X488.553 Y324.782
G01 X486.500 Y325.000
G01 X483.750 Y325.000
G01 X481.000 Y325.000
G01 X478.250 Y325.000
G01 X475.500 Y325.000
G01 X472.750 Y325.000
G01 X470.000 Y325.000
G01 X467.250 Y325.000
G01 X464.500 Y325.000
G01 X461.750 Y325.000
G01 X459.000 Y325.000
G01 X456.250 Y325.000
G01 X453.500 Y325.000
G01 X450.750 Y325.000
G01 X448.000 Y325.000
G01 X445.250 Y325.000
G01 X442.500 Y325.000
G01 X439.750 Y325.000
G01 X437.000 Y325.000
G01 X434.250 Y325.000
G01 X431.500 Y325.000
G01 X428.750 Y325.000
G01 X426.000 Y325.000
G01 X423.250 Y325.000
G01 X420.500 Y325.000
G01 X417.750 Y325.000
G01 X415.000 Y325.000
G01 X412.250 Y325.000
G01 X409.500 Y325.000
G01 X406.750 Y325.000
G01 X404.000 Y325.000
G01 X401.250 Y325.000
G01 X398.500 Y325.000
G01 X395.750 Y325.000
G01 X393.000 Y325.000
G01 X390.250 Y325.000
G01 X387.500 Y325.000
G01 X384.750 Y325.000
G01 X382.000 Y325.000
G01 X379.250 Y325.000
G01 X376.500 Y325.000
G01 X373.750 Y325.000
G01 X371.000 Y325.000
G01 X368.250 Y325.000
G01 X365.500 Y325.000
G01 X362.750 Y325.000
G01 X360.000 Y325.000
G01 X357.250 Y325.000
G01 X354.500 Y325.000
G01 X351.750 Y325.000
G01 X349.000 Y325.000
G01 X346.250 Y325.000
G01 X343.500 Y325.000
G01 X340.750 Y325.000
G01 X338.000 Y325.000
G01 X335.250 Y325.000
G01 X332.500 Y325.000
G01 X329.750 Y325.000
G01 X327.000 Y325.000
G01 X324.250 Y325.000
G01 X321.500 Y325.000
G01 X318.750 Y325.000
G01 X316.000 Y325.000
G01 X313.558 Y329.803
G01 X310.801 Y334.542
G01 X309.045 Y337.273
G01 X306.228 Y342.594
G01 X303.250 Y347.500
G01 X300.500 Y347.500
G01 X297.750 Y347.500
G01 X295.000 Y347.500
G01 X292.250 Y347.500
G01 X289.500 Y347.500
G01 X286.750 Y347.500
G01 X284.000 Y347.500
G01 X281.250 Y347.500
G01 X278.500 Y347.500
G01 X275.750 Y347.500
G01 X273.000 Y347.500
G01 X270.250 Y347.500
G01 X267.500 Y347.500
G01 X264.750 Y347.500
G01 X262.000 Y347.500
G01 X259.250 Y347.500
G01 X256.500 Y347.500
G01 X253.750 Y347.500
G01 X251.000 Y347.500
G01 X248.250 Y347.500
G01 X245.500 Y347.500
G01 X242.750 Y347.500
G01 X240.000 Y347.500
G01 X237.250 Y347.500
G01 X234.500 Y347.500
G01 X231.750 Y347.500
G01 X229.000 Y347.500
G01 X226.250 Y347.500
G01 X223.500 Y347.500
G01 X220.750 Y347.500
G01 X218.000 Y347.500
G01 X215.250 Y347.500
G01 X212.500 Y347.500
G01 X209.750 Y347.500
G01 X206.490 Y342.279
G01 X203.641 Y336.980
G01 X202.795 Y335.227
G01 X199.992 Y330.676
G01 X197.518 Y326.060
G01 X197.000 Y325.000
G01 X194.250 Y325.000
G01 X191.500 Y325.000
G01 X188.750 Y325.000
G01 X186.000 Y325.000
G01 X183.250 Y325.000
G01 X180.500 Y325.000
G01 X177.750 Y325.000
G01 X175.000 Y325.000
