;  Created by Sandify
;  https://sandify.org
;  Version: 0.2.6
;
;  Machine type: Rectangular
;    Min X (mm): 0
;    Max X (mm): 500
;    Min Y (mm): 0
;    Max Y (mm): 500
;  Content type: shape
;  Layer:
;    Shape: FileImport
;    Name: Sponge.thr
;    From file:: Sponge.thr
;    Aspect Ratio: true
;    Comments: 
;    Visible: true
;    Initial width: 10
;    Initial height: 10
;    X offset: 0
;    Y offset: 0
;    Rotate (degrees): 0
;    Reverse path: false
;    Fine tuning:
;      Connect to next layer: line
;      Draw portion of path (%): 100
;      Backtrack at end (%): 0
;      Rotate starting point (%): 0
;  Reverse export path: false
;
; File name: 'sponge (C C)'
; File type: gcode
;

G01 X250.000 Y250.000
G01 X249.584 Y249.946
G01 X249.175 Y249.850
G01 X248.775 Y249.715
G01 X248.388 Y249.541
G01 X248.015 Y249.328
G01 X247.660 Y249.077
G01 X247.327 Y248.791
G01 X247.016 Y248.470
G01 X246.732 Y248.116
G01 X246.476 Y247.731
G01 X246.250 Y247.317
G01 X246.058 Y246.876
G01 X245.901 Y246.410
G01 X245.781 Y245.922
G01 X245.699 Y245.414
G01 X245.658 Y244.889
G01 X245.659 Y244.349
G01 X245.702 Y243.799
G01 X245.790 Y243.239
G01 X245.923 Y242.675
G01 X246.102 Y242.108
G01 X246.327 Y241.541
G01 X246.598 Y240.979
G01 X246.917 Y240.424
G01 X247.281 Y239.880
G01 X247.693 Y239.349
G01 X248.149 Y238.835
G01 X248.651 Y238.341
G01 X249.197 Y237.871
G01 X249.750 Y237.452
G01 X249.134 Y237.475
G01 X248.520 Y237.527
G01 X247.909 Y237.610
G01 X247.303 Y237.722
G01 X246.702 Y237.864
G01 X246.109 Y238.036
G01 X245.525 Y238.237
G01 X244.951 Y238.466
G01 X244.389 Y238.723
G01 X243.840 Y239.007
G01 X243.305 Y239.318
G01 X242.786 Y239.655
G01 X242.284 Y240.018
G01 X241.800 Y240.404
G01 X241.515 Y240.651
G01 X201.932 Y200.220
G01 X133.580 Y129.434
G01 X124.554 Y106.630
G01 X117.629 Y83.126
G01 X119.004 Y67.097
G01 X120.197 Y58.797
G01 X115.707 Y66.242
G01 X114.799 Y74.896
G01 X117.629 Y83.126
G01 X123.266 Y73.049
G01 X129.581 Y63.131
G01 X130.251 Y62.146
G01 X129.344 Y70.810
G01 X124.857 Y78.258
G01 X117.629 Y83.126
G01 X116.727 Y91.807
G01 X115.814 Y100.451
G01 X107.846 Y77.308
G01 X106.926 Y85.950
G01 X109.769 Y94.186
G01 X115.814 Y100.451
G01 X116.939 Y86.201
G01 X118.372 Y76.098
G01 X121.204 Y84.324
G01 X120.305 Y92.989
G01 X115.814 Y100.451
G01 X118.649 Y108.695
G01 X121.493 Y116.917
G01 X104.475 Y99.293
G01 X107.314 Y107.545
G01 X113.362 Y113.801
G01 X121.493 Y116.917
G01 X113.636 Y94.152
G01 X113.522 Y93.766
G01 X119.559 Y100.012
G01 X122.384 Y108.260
G01 X121.493 Y116.917
G01 X127.536 Y123.176
G01 X133.580 Y129.434
G01 X133.564 Y116.928
G01 X134.510 Y104.146
G01 X136.444 Y91.154
G01 X138.695 Y80.743
G01 X130.731 Y57.593
G01 X129.813 Y66.238
G01 X132.646 Y74.466
G01 X138.695 Y80.743
G01 X140.190 Y63.706
G01 X141.257 Y56.371
G01 X144.100 Y64.615
G01 X143.175 Y73.278
G01 X138.695 Y80.743
G01 X141.530 Y88.977
G01 X144.367 Y97.210
G01 X145.607 Y81.934
G01 X146.921 Y72.858
G01 X142.451 Y80.312
G01 X141.530 Y88.977
G01 X144.367 Y97.210
G01 X149.395 Y88.032
G01 X155.076 Y78.990
G01 X156.983 Y76.201
G01 X156.066 Y84.873
G01 X151.593 Y92.341
G01 X144.367 Y97.210
G01 X143.456 Y105.851
G01 X142.547 Y114.512
G01 X147.038 Y106.209
G01 X152.090 Y98.029
G01 X155.157 Y93.524
G01 X147.945 Y98.401
G01 X143.456 Y105.851
G01 X142.547 Y114.512
G01 X149.355 Y109.445
G01 X156.401 Y104.720
G01 X162.849 Y100.816
G01 X158.368 Y108.295
G01 X151.484 Y112.904
G01 X151.138 Y113.149
G01 X142.547 Y114.512
G01 X138.063 Y121.988
G01 X133.607 Y129.387
G01 X133.580 Y129.434
G01 X126.281 Y108.605
G01 X125.598 Y106.290
G01 X124.694 Y114.955
G01 X127.536 Y123.176
G01 X133.580 Y129.434
G01 X134.338 Y117.813
G01 X135.970 Y105.990
G01 X136.130 Y105.086
G01 X138.968 Y113.314
G01 X138.063 Y121.988
G01 X133.607 Y129.387
G01 X133.580 Y129.434
G01 X136.408 Y137.675
G01 X139.239 Y145.904
G01 X133.039 Y128.732
G01 X131.275 Y122.764
G01 X130.364 Y131.414
G01 X133.197 Y139.630
G01 X139.239 Y145.904
G01 X139.811 Y135.753
G01 X141.123 Y125.419
G01 X141.803 Y121.546
G01 X144.645 Y129.782
G01 X143.731 Y138.439
G01 X139.719 Y145.057
G01 X139.239 Y145.904
G01 X142.078 Y154.137
G01 X144.919 Y162.370
G01 X110.893 Y127.132
G01 X104.035 Y107.731
G01 X102.924 Y103.982
G01 X102.023 Y112.645
G01 X104.842 Y120.880
G01 X110.893 Y127.132
G01 X111.728 Y115.229
G01 X113.409 Y103.125
G01 X113.466 Y102.795
G01 X116.290 Y111.029
G01 X115.376 Y119.671
G01 X110.893 Y127.132
G01 X113.731 Y135.364
G01 X116.569 Y143.616
G01 X99.551 Y125.983
G01 X102.385 Y134.227
G01 X108.445 Y140.481
G01 X116.569 Y143.616
G01 X110.607 Y127.205
G01 X108.599 Y120.449
G01 X114.637 Y126.702
G01 X117.480 Y134.941
G01 X116.569 Y143.616
G01 X122.619 Y149.869
G01 X128.673 Y156.131
G01 X105.799 Y147.360
G01 X111.852 Y153.612
G01 X119.963 Y156.735
G01 X128.673 Y156.131
G01 X111.654 Y138.516
G01 X119.793 Y141.637
G01 X125.837 Y147.901
G01 X128.673 Y156.131
G01 X136.782 Y159.249
G01 X144.919 Y162.370
G01 X138.145 Y147.007
G01 X132.654 Y130.793
G01 X128.968 Y116.058
G01 X111.952 Y98.449
G01 X114.794 Y106.689
G01 X120.846 Y112.940
G01 X128.968 Y116.058
G01 X120.999 Y92.903
G01 X127.047 Y99.164
G01 X129.885 Y107.396
G01 X128.968 Y116.058
G01 X135.018 Y122.317
G01 X141.058 Y128.586
G01 X133.391 Y106.453
G01 X133.091 Y105.431
G01 X132.195 Y114.103
G01 X135.018 Y122.317
G01 X141.058 Y128.586
G01 X141.832 Y116.844
G01 X143.509 Y104.902
G01 X143.629 Y104.235
G01 X146.461 Y112.467
G01 X145.556 Y121.136
G01 X141.153 Y128.419
G01 X141.058 Y128.586
G01 X143.909 Y136.826
G01 X146.742 Y145.057
G01 X147.303 Y134.832
G01 X148.630 Y124.422
G01 X149.289 Y120.692
G01 X144.937 Y127.963
G01 X144.818 Y128.174
G01 X143.909 Y136.826
G01 X146.742 Y145.057
G01 X150.322 Y138.218
G01 X154.329 Y131.483
G01 X158.761 Y124.875
G01 X159.345 Y124.060
G01 X158.427 Y132.715
G01 X154.452 Y139.284
G01 X153.949 Y140.178
G01 X147.906 Y144.226
G01 X146.742 Y145.057
G01 X145.833 Y153.716
G01 X144.942 Y162.048
G01 X144.919 Y162.370
G01 X127.898 Y144.755
G01 X130.747 Y152.994
G01 X136.782 Y159.249
G01 X144.919 Y162.370
G01 X139.687 Y148.426
G01 X136.957 Y139.220
G01 X143.003 Y145.480
G01 X145.833 Y153.716
G01 X144.942 Y162.048
G01 X144.919 Y162.370
G01 X150.965 Y168.631
G01 X157.015 Y174.900
G01 X139.994 Y157.270
G01 X142.824 Y165.509
G01 X148.881 Y171.766
G01 X157.015 Y174.900
G01 X152.348 Y162.877
G01 X149.040 Y151.751
G01 X155.091 Y158.008
G01 X157.927 Y166.235
G01 X157.117 Y173.481
G01 X157.015 Y174.900
G01 X163.060 Y181.151
G01 X169.109 Y187.416
G01 X145.807 Y177.270
G01 X123.381 Y169.858
G01 X106.382 Y152.253
G01 X109.217 Y160.498
G01 X115.271 Y166.749
G01 X123.381 Y169.858
G01 X118.665 Y157.546
G01 X115.417 Y146.711
G01 X121.459 Y152.973
G01 X124.298 Y161.207
G01 X123.402 Y169.585
G01 X123.381 Y169.858
G01 X129.430 Y176.130
G01 X135.490 Y182.400
G01 X112.627 Y173.629
G01 X118.670 Y179.884
G01 X126.791 Y182.996
G01 X135.490 Y182.400
G01 X118.468 Y164.782
G01 X126.594 Y167.892
G01 X132.644 Y174.166
G01 X135.490 Y182.400
G01 X143.615 Y185.521
G01 X151.740 Y188.630
G01 X140.505 Y188.867
G01 X129.075 Y190.071
G01 X127.311 Y190.342
G01 X135.444 Y193.459
G01 X144.111 Y192.854
G01 X150.008 Y189.520
G01 X151.740 Y188.630
G01 X128.868 Y179.856
G01 X137.554 Y179.253
G01 X145.680 Y182.368
G01 X151.740 Y188.630
G01 X160.421 Y188.031
G01 X168.429 Y187.437
G01 X169.109 Y187.416
G01 X135.091 Y152.190
G01 X112.222 Y143.403
G01 X118.278 Y149.679
G01 X126.392 Y152.796
G01 X135.091 Y152.190
G01 X118.069 Y134.570
G01 X126.204 Y137.690
G01 X132.254 Y143.970
G01 X135.091 Y152.190
G01 X143.207 Y155.312
G01 X151.349 Y158.430
G01 X134.342 Y140.821
G01 X137.169 Y149.048
G01 X143.207 Y155.312
G01 X151.349 Y158.430
G01 X145.725 Y143.218
G01 X143.375 Y135.272
G01 X149.417 Y141.534
G01 X152.249 Y149.776
G01 X151.356 Y158.324
G01 X151.349 Y158.430
G01 X157.400 Y164.700
G01 X163.432 Y170.958
G01 X158.390 Y157.713
G01 X155.455 Y147.800
G01 X154.563 Y156.473
G01 X157.400 Y164.700
G01 X163.432 Y170.958
G01 X163.689 Y163.052
G01 X164.522 Y154.989
G01 X165.947 Y146.809
G01 X165.990 Y146.601
G01 X168.832 Y154.839
G01 X167.966 Y162.872
G01 X167.923 Y163.490
G01 X164.780 Y168.579
G01 X163.432 Y170.958
G01 X166.276 Y179.195
G01 X169.109 Y187.416
G01 X149.137 Y179.594
G01 X146.247 Y178.639
G01 X152.297 Y184.909
G01 X160.421 Y188.031
G01 X168.429 Y187.437
G01 X169.109 Y187.416
G01 X152.101 Y169.809
G01 X160.220 Y172.927
G01 X166.276 Y179.195
G01 X169.109 Y187.416
G01 X177.229 Y190.538
G01 X185.357 Y193.659
G01 X171.010 Y187.702
G01 X162.498 Y184.879
G01 X168.539 Y191.142
G01 X176.680 Y194.263
G01 X183.070 Y193.731
G01 X185.357 Y193.659
G01 X168.360 Y176.054
G01 X176.473 Y179.160
G01 X182.525 Y185.419
G01 X185.357 Y193.659
G01 X193.489 Y196.782
G01 X201.619 Y199.896
G01 X192.234 Y183.980
G01 X184.323 Y167.056
G01 X177.961 Y149.230
G01 X173.215 Y130.615
G01 X170.147 Y111.329
G01 X169.729 Y107.303
G01 X141.491 Y77.498
G01 X135.720 Y72.063
G01 X127.727 Y48.905
G01 X126.822 Y57.574
G01 X129.659 Y65.802
G01 X135.720 Y72.063
G01 X137.346 Y54.073
G01 X138.272 Y47.703
G01 X141.095 Y55.946
G01 X140.196 Y64.601
G01 X135.720 Y72.063
G01 X138.549 Y80.300
G01 X141.392 Y88.527
G01 X124.379 Y70.916
G01 X127.202 Y79.153
G01 X133.256 Y85.397
G01 X141.392 Y88.527
G01 X133.404 Y65.386
G01 X139.455 Y71.627
G01 X142.281 Y79.857
G01 X141.392 Y88.527
G01 X147.417 Y94.786
G01 X153.468 Y101.044
G01 X138.278 Y94.854
G01 X130.609 Y92.265
G01 X136.661 Y98.536
G01 X144.783 Y101.650
G01 X153.468 Y101.044
G01 X136.464 Y83.441
G01 X144.596 Y86.567
G01 X150.643 Y92.820
G01 X153.468 Y101.044
G01 X161.610 Y104.171
G01 X169.729 Y107.303
G01 X153.790 Y60.976
G01 X136.765 Y43.367
G01 X139.614 Y51.590
G01 X145.652 Y57.856
G01 X153.790 Y60.976
G01 X145.802 Y37.830
G01 X151.852 Y44.096
G01 X154.703 Y52.321
G01 X153.790 Y60.976
G01 X159.844 Y67.254
G01 X165.879 Y73.523
G01 X157.910 Y50.367
G01 X157.009 Y59.011
G01 X159.844 Y67.254
G01 X165.879 Y73.523
G01 X167.829 Y53.303
G01 X168.446 Y49.151
G01 X171.276 Y57.392
G01 X170.373 Y66.044
G01 X165.879 Y73.523
G01 X168.715 Y81.730
G01 X171.548 Y89.971
G01 X173.197 Y71.695
G01 X174.097 Y65.612
G01 X169.627 Y73.075
G01 X168.715 Y81.730
G01 X171.548 Y89.971
G01 X176.881 Y80.247
G01 X182.986 Y70.675
G01 X184.165 Y68.975
G01 X183.249 Y77.650
G01 X178.761 Y85.106
G01 X171.548 Y89.971
G01 X170.642 Y98.643
G01 X169.729 Y107.303
G01 X152.718 Y89.682
G01 X155.556 Y97.913
G01 X161.610 Y104.171
G01 X169.729 Y107.303
G01 X161.762 Y84.135
G01 X167.799 Y90.400
G01 X170.642 Y98.643
G01 X169.729 Y107.303
G01 X175.778 Y113.556
G01 X181.828 Y119.820
G01 X164.817 Y102.189
G01 X167.644 Y110.437
G01 X173.692 Y116.696
G01 X181.828 Y119.820
G01 X173.857 Y96.665
G01 X179.896 Y102.929
G01 X182.742 Y111.158
G01 X181.828 Y119.820
G01 X187.874 Y126.076
G01 X193.912 Y132.334
G01 X177.978 Y86.047
G01 X179.842 Y66.300
G01 X180.530 Y61.680
G01 X176.053 Y69.132
G01 X175.133 Y77.796
G01 X177.978 Y86.047
G01 X183.527 Y75.950
G01 X189.901 Y66.018
G01 X190.585 Y65.033
G01 X189.674 Y73.711
G01 X185.191 Y81.161
G01 X177.978 Y86.047
G01 X177.074 Y94.695
G01 X176.148 Y103.346
G01 X168.188 Y80.207
G01 X167.276 Y88.870
G01 X170.101 Y97.091
G01 X176.148 Y103.346
G01 X177.575 Y86.691
G01 X178.721 Y78.985
G01 X181.546 Y87.234
G01 X180.640 Y95.889
G01 X176.148 Y103.346
G01 X178.987 Y111.578
G01 X181.828 Y119.820
G01 X164.817 Y102.189
G01 X167.644 Y110.437
G01 X173.692 Y116.696
G01 X181.828 Y119.820
G01 X173.857 Y96.665
G01 X179.896 Y102.929
G01 X182.742 Y111.158
G01 X181.828 Y119.820
G01 X187.874 Y126.076
G01 X193.912 Y132.334
G01 X194.158 Y116.329
G01 X195.852 Y100.096
G01 X199.017 Y83.741
G01 X199.044 Y83.628
G01 X191.061 Y60.478
G01 X190.164 Y69.141
G01 X192.983 Y77.372
G01 X199.044 Y83.628
G01 X201.602 Y59.270
G01 X204.429 Y67.504
G01 X203.535 Y76.178
G01 X199.044 Y83.628
G01 X201.876 Y91.860
G01 X204.709 Y100.092
G01 X206.996 Y77.500
G01 X207.262 Y75.739
G01 X202.776 Y83.206
G01 X201.876 Y91.860
G01 X204.709 Y100.092
G01 X210.142 Y90.120
G01 X216.449 Y80.339
G01 X217.325 Y79.095
G01 X216.403 Y87.767
G01 X211.929 Y95.239
G01 X205.128 Y99.794
G01 X204.709 Y100.092
G01 X203.805 Y108.763
G01 X202.892 Y117.421
G01 X207.492 Y108.749
G01 X212.834 Y100.225
G01 X215.496 Y96.428
G01 X208.738 Y100.965
G01 X208.282 Y101.291
G01 X203.805 Y108.763
G01 X202.892 Y117.421
G01 X208.745 Y112.913
G01 X214.928 Y108.665
G01 X221.431 Y104.701
G01 X223.183 Y103.713
G01 X218.709 Y111.183
G01 X212.594 Y115.259
G01 X211.482 Y116.053
G01 X204.614 Y117.102
G01 X202.892 Y117.421
G01 X198.454 Y124.778
G01 X198.403 Y124.871
G01 X194.273 Y131.688
G01 X193.912 Y132.334
G01 X185.945 Y109.184
G01 X185.037 Y117.855
G01 X187.874 Y126.076
G01 X193.912 Y132.334
G01 X194.950 Y118.226
G01 X196.476 Y107.976
G01 X199.325 Y116.226
G01 X198.403 Y124.871
G01 X194.273 Y131.688
G01 X193.912 Y132.334
G01 X196.757 Y140.565
G01 X199.588 Y148.812
G01 X191.622 Y125.646
G01 X190.707 Y134.309
G01 X193.541 Y142.527
G01 X199.588 Y148.812
G01 X200.335 Y136.699
G01 X202.156 Y124.458
G01 X204.984 Y132.691
G01 X204.068 Y141.334
G01 X200.476 Y147.214
G01 X199.588 Y148.812
G01 X202.428 Y157.041
G01 X205.257 Y165.262
G01 X204.902 Y153.385
G01 X205.616 Y141.293
G01 X207.418 Y129.062
G01 X210.321 Y116.770
G01 X210.381 Y116.557
G01 X215.205 Y107.518
G01 X220.824 Y98.648
G01 X222.996 Y95.568
G01 X216.150 Y100.170
G01 X215.769 Y100.442
G01 X211.284 Y107.905
G01 X210.381 Y116.557
G01 X216.299 Y111.997
G01 X222.570 Y107.703
G01 X229.182 Y103.699
G01 X230.673 Y102.864
G01 X226.198 Y110.339
G01 X219.993 Y114.472
G01 X218.976 Y115.199
G01 X212.212 Y116.221
G01 X210.381 Y116.557
G01 X205.890 Y124.024
G01 X201.660 Y131.014
G01 X201.404 Y131.476
G01 X202.625 Y116.080
G01 X203.967 Y107.133
G01 X199.479 Y114.593
G01 X198.581 Y123.258
G01 X201.404 Y131.476
G01 X205.365 Y123.826
G01 X209.964 Y116.292
G01 X214.019 Y110.490
G01 X213.108 Y119.151
G01 X208.634 Y126.625
G01 X203.182 Y130.215
G01 X201.404 Y131.476
G01 X200.501 Y140.136
G01 X199.588 Y148.812
G01 X191.622 Y125.646
G01 X190.707 Y134.309
G01 X193.541 Y142.527
G01 X199.588 Y148.812
G01 X200.335 Y136.699
G01 X202.156 Y124.458
G01 X204.984 Y132.691
G01 X204.068 Y141.334
G01 X200.476 Y147.214
G01 X199.588 Y148.812
G01 X202.428 Y157.041
G01 X205.257 Y165.262
G01 X207.450 Y158.844
G01 X210.170 Y152.448
G01 X213.420 Y146.110
G01 X217.200 Y139.866
G01 X221.507 Y133.754
G01 X226.338 Y127.811
G01 X230.486 Y123.294
G01 X233.038 Y98.924
G01 X228.559 Y106.392
G01 X227.655 Y115.063
G01 X230.486 Y123.294
G01 X235.784 Y113.435
G01 X242.005 Y103.813
G01 X243.096 Y102.286
G01 X242.176 Y110.945
G01 X237.700 Y118.424
G01 X231.721 Y122.406
G01 X230.486 Y123.294
G01 X229.578 Y131.954
G01 X228.666 Y140.611
G01 X232.987 Y132.271
G01 X238.076 Y124.110
G01 X241.276 Y119.617
G01 X235.285 Y123.602
G01 X234.061 Y124.483
G01 X229.578 Y131.954
G01 X228.666 Y140.611
G01 X233.616 Y136.623
G01 X238.906 Y132.865
G01 X244.526 Y129.360
G01 X248.965 Y126.904
G01 X244.480 Y134.382
G01 X239.115 Y137.900
G01 X237.260 Y139.230
G01 X231.846 Y140.020
G01 X228.666 Y140.611
G01 X224.658 Y147.200
G01 X224.178 Y148.070
G01 X220.575 Y153.923
G01 X219.692 Y155.517
G01 X223.818 Y152.101
G01 X228.208 Y148.867
G01 X232.853 Y145.833
G01 X237.744 Y143.016
G01 X239.998 Y141.836
G01 X234.722 Y142.594
G01 X231.393 Y143.209
G01 X226.639 Y146.309
G01 X224.178 Y148.070
G01 X220.575 Y153.923
G01 X219.692 Y155.517
G01 X224.402 Y154.282
G01 X229.159 Y153.282
G01 X233.954 Y152.517
G01 X238.772 Y151.990
G01 X243.604 Y151.700
G01 X243.877 Y151.691
G01 X239.343 Y154.637
G01 X236.662 Y156.572
G01 X232.066 Y157.195
G01 X228.062 Y157.927
G01 X222.751 Y156.296
G01 X219.692 Y155.517
G01 X215.508 Y158.224
G01 X212.472 Y160.391
G01 X208.434 Y162.998
G01 X205.257 Y165.262
G01 X205.714 Y155.124
G01 X207.067 Y144.846
G01 X207.817 Y140.922
G01 X204.177 Y146.862
G01 X203.332 Y148.379
G01 X202.428 Y157.041
G01 X205.257 Y165.262
G01 X207.872 Y159.748
G01 X210.924 Y154.294
G01 X214.413 Y148.931
G01 X217.872 Y144.274
G01 X216.961 Y152.944
G01 X213.657 Y158.263
G01 X212.472 Y160.391
G01 X208.434 Y162.998
G01 X205.257 Y165.262
G01 X204.401 Y173.041
G01 X204.345 Y173.923
G01 X203.571 Y180.597
G01 X203.444 Y182.589
G01 X203.542 Y175.122
G01 X204.269 Y167.515
G01 X205.637 Y159.812
G01 X205.997 Y158.229
G01 X202.960 Y163.110
G01 X201.518 Y165.697
G01 X200.679 Y173.221
G01 X200.606 Y174.347
G01 X203.444 Y182.589
G01 X205.418 Y178.145
G01 X207.718 Y173.738
G01 X210.347 Y169.389
G01 X213.304 Y165.119
G01 X216.055 Y161.593
G01 X215.143 Y170.261
G01 X212.468 Y174.474
G01 X210.658 Y177.712
G01 X207.249 Y179.878
G01 X203.957 Y182.204
G01 X203.444 Y182.589
G01 X202.726 Y188.263
G01 X202.524 Y191.231
G01 X201.879 Y196.076
G01 X201.619 Y199.896
G01 X167.599 Y164.665
G01 X161.931 Y149.347
G01 X159.620 Y141.515
G01 X158.715 Y150.168
G01 X161.556 Y158.407
G01 X167.599 Y164.665
G01 X167.912 Y156.184
G01 X168.869 Y147.538
G01 X170.155 Y140.308
G01 X172.985 Y148.545
G01 X172.077 Y157.184
G01 X172.075 Y157.204
G01 X168.842 Y162.462
G01 X167.599 Y164.665
G01 X170.424 Y172.901
G01 X173.268 Y181.139
G01 X156.247 Y163.516
G01 X159.088 Y171.750
G01 X165.143 Y178.018
G01 X173.268 Y181.139
G01 X168.705 Y169.501
G01 X165.294 Y157.975
G01 X171.340 Y164.234
G01 X174.169 Y172.468
G01 X173.415 Y179.025
G01 X173.268 Y181.139
G01 X179.310 Y187.398
G01 X185.357 Y193.659
G01 X171.010 Y187.702
G01 X162.498 Y184.879
G01 X168.539 Y191.142
G01 X176.680 Y194.263
G01 X183.070 Y193.731
G01 X185.357 Y193.659
G01 X168.360 Y176.054
G01 X176.473 Y179.160
G01 X182.525 Y185.419
G01 X185.357 Y193.659
G01 X193.489 Y196.782
G01 X201.619 Y199.896
G01 X195.807 Y188.064
G01 X191.060 Y175.564
G01 X187.428 Y162.472
G01 X185.671 Y153.591
G01 X168.671 Y135.984
G01 X171.503 Y144.219
G01 X177.545 Y150.482
G01 X185.671 Y153.591
G01 X177.695 Y130.438
G01 X183.750 Y136.697
G01 X186.586 Y144.928
G01 X185.671 Y153.591
G01 X191.718 Y159.849
G01 X197.765 Y166.108
G01 X189.794 Y142.972
G01 X188.891 Y151.637
G01 X191.718 Y159.849
G01 X197.765 Y166.108
G01 X198.129 Y156.791
G01 X199.291 Y147.323
G01 X200.339 Y141.775
G01 X203.165 Y149.999
G01 X202.255 Y158.650
G01 X199.233 Y163.492
G01 X197.765 Y166.108
G01 X200.606 Y174.347
G01 X203.444 Y182.589
G01 X203.542 Y175.122
G01 X204.269 Y167.515
G01 X205.637 Y159.812
G01 X205.997 Y158.229
G01 X202.960 Y163.110
G01 X201.518 Y165.697
G01 X200.679 Y173.221
G01 X200.606 Y174.347
G01 X203.444 Y182.589
G01 X205.418 Y178.145
G01 X207.718 Y173.738
G01 X210.347 Y169.389
G01 X213.304 Y165.119
G01 X216.055 Y161.593
G01 X215.143 Y170.261
G01 X212.468 Y174.474
G01 X210.658 Y177.712
G01 X207.249 Y179.878
G01 X203.957 Y182.204
G01 X203.444 Y182.589
G01 X202.726 Y188.263
G01 X202.524 Y191.231
G01 X201.879 Y196.076
G01 X201.619 Y199.896
G01 X184.618 Y182.290
G01 X187.440 Y190.517
G01 X193.489 Y196.782
G01 X201.619 Y199.896
G01 X197.574 Y190.084
G01 X194.392 Y179.772
G01 X193.647 Y176.742
G01 X199.694 Y183.010
G01 X202.524 Y191.231
G01 X201.879 Y196.076
G01 X201.619 Y199.896
G01 X207.662 Y206.155
G01 X213.723 Y212.431
G01 X196.704 Y194.807
G01 X199.288 Y202.396
G01 X199.544 Y203.044
G01 X205.576 Y209.299
G01 X212.153 Y211.744
G01 X213.723 Y212.431
G01 X210.244 Y204.564
G01 X207.463 Y196.279
G01 X205.737 Y189.268
G01 X211.792 Y195.542
G01 X214.619 Y203.758
G01 X214.050 Y207.508
G01 X213.759 Y211.198
G01 X213.723 Y212.431
G01 X219.766 Y218.690
G01 X225.809 Y224.948
G01 X191.790 Y189.717
G01 X187.277 Y178.315
G01 X183.814 Y166.563
G01 X183.025 Y173.590
G01 X182.915 Y175.235
G01 X185.747 Y183.459
G01 X191.790 Y189.717
G01 X191.780 Y183.461
G01 X192.251 Y177.068
G01 X193.216 Y170.569
G01 X194.341 Y165.361
G01 X197.183 Y173.605
G01 X196.423 Y180.105
G01 X196.281 Y182.266
G01 X193.903 Y185.988
G01 X191.790 Y189.717
G01 X194.620 Y197.952
G01 X196.907 Y204.797
G01 X197.450 Y206.177
G01 X180.446 Y188.566
G01 X183.202 Y196.599
G01 X183.284 Y196.808
G01 X189.337 Y203.066
G01 X197.450 Y206.177
G01 X194.070 Y198.501
G01 X191.330 Y190.400
G01 X189.492 Y183.038
G01 X195.537 Y189.302
G01 X198.362 Y197.520
G01 X197.757 Y201.874
G01 X197.451 Y206.157
G01 X197.450 Y206.177
G01 X203.498 Y212.442
G01 X209.564 Y218.715
G01 X197.908 Y213.639
G01 X186.691 Y209.929
G01 X192.734 Y216.194
G01 X200.870 Y219.315
G01 X205.170 Y218.843
G01 X209.392 Y218.714
G01 X209.564 Y218.715
G01 X192.546 Y201.095
G01 X200.674 Y204.215
G01 X206.725 Y210.487
G01 X208.308 Y215.527
G01 X209.564 Y218.715
G01 X216.418 Y221.276
G01 X217.679 Y221.829
G01 X222.411 Y223.463
G01 X225.809 Y224.948
G01 X221.115 Y216.988
G01 X217.159 Y208.524
G01 X213.976 Y199.609
G01 X211.603 Y190.299
G01 X210.067 Y180.654
G01 X209.859 Y178.640
G01 X195.739 Y163.738
G01 X192.853 Y161.021
G01 X195.696 Y169.264
G01 X201.734 Y175.522
G01 X208.153 Y177.906
G01 X209.859 Y178.640
G01 X201.895 Y155.488
G01 X207.940 Y161.762
G01 X210.779 Y169.997
G01 X209.932 Y177.502
G01 X209.859 Y178.640
G01 X215.914 Y184.910
G01 X221.956 Y191.167
G01 X213.984 Y168.012
G01 X213.110 Y176.098
G01 X213.074 Y176.673
G01 X215.914 Y184.910
G01 X221.956 Y191.167
G01 X222.079 Y183.164
G01 X222.926 Y175.048
G01 X224.508 Y166.871
G01 X224.522 Y166.814
G01 X227.354 Y175.046
G01 X226.446 Y183.710
G01 X224.157 Y187.218
G01 X222.153 Y190.785
G01 X221.956 Y191.167
G01 X224.794 Y199.406
G01 X227.634 Y207.642
G01 X227.455 Y201.701
G01 X227.810 Y195.652
G01 X228.710 Y189.534
G01 X230.161 Y183.385
G01 X230.191 Y183.279
G01 X227.839 Y186.889
G01 X225.791 Y190.563
G01 X225.702 Y190.738
G01 X224.967 Y196.577
G01 X224.794 Y199.406
G01 X227.634 Y207.642
G01 X228.730 Y204.432
G01 X230.089 Y201.232
G01 X231.712 Y198.061
G01 X233.601 Y194.938
G01 X235.754 Y191.880
G01 X238.169 Y188.907
G01 X240.243 Y186.647
G01 X239.333 Y195.305
G01 X237.273 Y198.373
G01 X235.487 Y201.505
G01 X234.850 Y202.770
G01 X232.718 Y204.016
G01 X230.672 Y205.356
G01 X228.714 Y206.785
G01 X227.634 Y207.642
G01 X227.044 Y211.256
G01 X226.751 Y214.821
G01 X226.715 Y216.284
G01 X226.211 Y218.933
G01 X225.909 Y221.547
G01 X225.802 Y224.112
G01 X225.809 Y224.948
G01 X208.808 Y207.342
G01 X210.644 Y213.056
G01 X211.634 Y215.570
G01 X217.679 Y221.829
G01 X222.411 Y223.463
G01 X225.809 Y224.948
G01 X222.904 Y219.032
G01 X220.530 Y212.782
G01 X218.714 Y206.236
G01 X217.836 Y201.796
G01 X223.889 Y208.065
G01 X226.715 Y216.284
G01 X226.211 Y218.933
G01 X225.909 Y221.547
G01 X225.802 Y224.112
G01 X225.809 Y224.948
G01 X231.853 Y231.207
G01 X237.913 Y237.483
G01 X220.895 Y219.859
G01 X222.007 Y223.723
G01 X223.423 Y227.399
G01 X223.735 Y228.096
G01 X229.772 Y234.350
G01 X232.676 Y235.183
G01 X235.445 Y236.258
G01 X237.913 Y237.483
G01 X235.566 Y233.504
G01 X233.587 Y229.272
G01 X231.995 Y224.815
G01 X230.808 Y220.160
G01 X230.040 Y215.338
G01 X229.935 Y214.331
G01 X234.420 Y218.814
G01 X235.983 Y220.595
G01 X238.817 Y228.821
G01 X238.372 Y230.376
G01 X238.052 Y231.921
G01 X237.854 Y233.448
G01 X237.775 Y234.948
G01 X237.812 Y236.415
G01 X237.913 Y237.483
G01 X242.342 Y242.069
G01 X241.886 Y242.383
G01 X241.443 Y242.723
G01 X241.013 Y243.088
G01 X240.599 Y243.478
G01 X240.202 Y243.892
G01 X239.824 Y244.330
G01 X239.464 Y244.790
G01 X239.126 Y245.271
G01 X238.810 Y245.774
G01 X238.517 Y246.296
G01 X238.248 Y246.837
G01 X238.005 Y247.395
G01 X237.789 Y247.970
G01 X237.601 Y248.559
G01 X237.441 Y249.163
G01 X237.390 Y249.389
G01 X180.811 Y248.790
G01 X82.426 Y247.069
G01 X59.918 Y237.326
G01 X38.402 Y225.604
G01 X28.040 Y213.297
G01 X23.015 Y206.584
G01 X25.104 Y215.023
G01 X30.582 Y221.785
G01 X38.402 Y225.604
G01 X35.262 Y214.491
G01 X32.714 Y203.014
G01 X32.492 Y201.843
G01 X37.977 Y208.610
G01 X40.070 Y217.050
G01 X38.402 Y225.604
G01 X43.902 Y232.379
G01 X49.369 Y239.137
G01 X27.370 Y228.407
G01 X32.831 Y235.168
G01 X40.665 Y238.981
G01 X49.369 Y239.137
G01 X40.088 Y228.265
G01 X33.958 Y220.108
G01 X41.777 Y223.923
G01 X47.268 Y230.685
G01 X49.369 Y239.137
G01 X57.203 Y242.962
G01 X65.028 Y246.765
G01 X40.532 Y246.336
G01 X48.375 Y250.164
G01 X57.075 Y250.311
G01 X65.028 Y246.765
G01 X43.374 Y236.223
G01 X43.021 Y236.031
G01 X51.706 Y236.179
G01 X59.537 Y240.013
G01 X65.028 Y246.765
G01 X73.727 Y246.917
G01 X82.426 Y247.069
G01 X73.571 Y238.237
G01 X65.202 Y228.530
G01 X57.383 Y217.976
G01 X51.613 Y209.022
G01 X29.612 Y198.284
G01 X35.076 Y205.046
G01 X42.896 Y208.861
G01 X51.613 Y209.022
G01 X40.623 Y195.918
G01 X36.191 Y189.976
G01 X44.031 Y193.796
G01 X49.502 Y200.576
G01 X51.613 Y209.022
G01 X59.439 Y212.840
G01 X67.267 Y216.656
G01 X57.358 Y204.980
G01 X51.859 Y197.611
G01 X53.964 Y206.062
G01 X59.439 Y212.840
G01 X67.267 Y216.656
G01 X64.333 Y206.610
G01 X61.956 Y196.199
G01 X61.333 Y192.879
G01 X66.816 Y199.659
G01 X68.934 Y208.103
G01 X67.267 Y216.656
G01 X72.733 Y223.410
G01 X78.215 Y230.177
G01 X75.520 Y221.130
G01 X73.307 Y211.773
G01 X72.291 Y206.419
G01 X70.639 Y214.968
G01 X72.733 Y223.410
G01 X78.215 Y230.177
G01 X79.446 Y221.780
G01 X81.087 Y213.456
G01 X82.886 Y206.136
G01 X85.006 Y214.593
G01 X83.397 Y222.720
G01 X83.326 Y223.138
G01 X78.215 Y230.177
G01 X80.330 Y238.634
G01 X82.411 Y247.016
G01 X82.426 Y247.069
G01 X62.536 Y237.501
G01 X60.416 Y236.347
G01 X65.904 Y243.114
G01 X73.727 Y246.917
G01 X82.426 Y247.069
G01 X74.744 Y238.315
G01 X67.538 Y228.801
G01 X67.012 Y228.049
G01 X74.837 Y231.861
G01 X80.330 Y238.634
G01 X82.411 Y247.016
G01 X82.426 Y247.069
G01 X90.253 Y250.896
G01 X98.073 Y254.713
G01 X81.547 Y246.955
G01 X76.079 Y243.982
G01 X81.552 Y250.743
G01 X89.364 Y254.549
G01 X98.073 Y254.713
G01 X91.300 Y247.131
G01 X84.920 Y238.896
G01 X82.662 Y235.676
G01 X90.496 Y239.491
G01 X95.970 Y246.258
G01 X97.814 Y253.775
G01 X98.073 Y254.713
G01 X105.902 Y258.528
G01 X113.733 Y262.340
G01 X64.756 Y261.483
G01 X46.188 Y252.614
G01 X42.751 Y250.748
G01 X48.240 Y257.511
G01 X56.056 Y261.341
G01 X64.756 Y261.483
G01 X56.929 Y252.476
G01 X49.559 Y242.728
G01 X49.367 Y242.455
G01 X57.186 Y246.280
G01 X62.650 Y253.037
G01 X64.756 Y261.483
G01 X72.583 Y265.298
G01 X80.425 Y269.126
G01 X55.923 Y268.691
G01 X63.756 Y272.516
G01 X72.464 Y272.653
G01 X80.425 Y269.126
G01 X64.605 Y261.737
G01 X58.408 Y258.380
G01 X67.099 Y258.531
G01 X74.935 Y262.347
G01 X80.425 Y269.126
G01 X89.125 Y269.269
G01 X97.834 Y269.416
G01 X75.457 Y279.389
G01 X84.158 Y279.529
G01 X92.102 Y276.002
G01 X97.834 Y269.416
G01 X73.343 Y268.995
G01 X81.306 Y265.447
G01 X90.009 Y265.602
G01 X97.834 Y269.416
G01 X105.772 Y265.887
G01 X113.733 Y262.340
G01 X98.080 Y256.266
G01 X82.731 Y248.685
G01 X69.706 Y240.871
G01 X45.222 Y240.453
G01 X53.058 Y244.270
G01 X61.758 Y244.410
G01 X69.706 Y240.871
G01 X47.698 Y230.133
G01 X56.401 Y230.284
G01 X64.229 Y234.099
G01 X69.706 Y240.871
G01 X78.410 Y241.020
G01 X87.114 Y241.181
G01 X66.042 Y230.952
G01 X65.107 Y230.442
G01 X70.606 Y237.207
G01 X78.410 Y241.020
G01 X87.114 Y241.181
G01 X79.359 Y232.331
G01 X72.100 Y222.701
G01 X71.713 Y222.144
G01 X79.536 Y225.962
G01 X85.026 Y232.732
G01 X87.063 Y240.996
G01 X87.114 Y241.181
G01 X94.956 Y244.992
G01 X102.780 Y248.809
G01 X95.946 Y241.182
G01 X89.524 Y232.883
G01 X87.352 Y229.779
G01 X89.415 Y237.998
G01 X89.481 Y238.231
G01 X94.956 Y244.992
G01 X102.780 Y248.809
G01 X100.476 Y241.441
G01 X98.546 Y233.845
G01 X97.008 Y226.039
G01 X96.844 Y225.050
G01 X102.315 Y231.819
G01 X104.150 Y239.275
G01 X104.425 Y240.263
G01 X103.015 Y247.398
G01 X102.780 Y248.809
G01 X108.260 Y255.575
G01 X113.522 Y262.096
G01 X113.733 Y262.340
G01 X89.241 Y261.920
G01 X97.082 Y265.731
G01 X105.772 Y265.887
G01 X113.733 Y262.340
G01 X100.174 Y256.180
G01 X91.733 Y251.600
G01 X100.435 Y251.752
G01 X108.260 Y255.575
G01 X113.522 Y262.096
G01 X113.733 Y262.340
G01 X122.435 Y262.491
G01 X131.146 Y262.647
G01 X106.645 Y262.216
G01 X114.471 Y266.041
G01 X123.178 Y266.182
G01 X131.146 Y262.647
G01 X119.345 Y257.445
G01 X109.138 Y251.917
G01 X117.841 Y252.063
G01 X125.664 Y255.874
G01 X130.215 Y261.571
G01 X131.146 Y262.647
G01 X139.840 Y262.793
G01 X148.548 Y262.945
G01 X124.897 Y272.248
G01 X103.798 Y282.864
G01 X79.330 Y282.436
G01 X87.164 Y286.261
G01 X95.865 Y286.401
G01 X103.798 Y282.864
G01 X91.757 Y277.493
G01 X81.799 Y272.129
G01 X90.499 Y272.284
G01 X98.329 Y276.100
G01 X103.620 Y282.656
G01 X103.798 Y282.864
G01 X112.510 Y283.022
G01 X121.229 Y283.170
G01 X98.860 Y293.136
G01 X107.557 Y293.285
G01 X115.499 Y289.743
G01 X121.229 Y283.170
G01 X96.735 Y282.749
G01 X104.680 Y279.202
G01 X113.395 Y279.361
G01 X121.229 Y283.170
G01 X129.181 Y279.632
G01 X137.125 Y276.085
G01 X129.348 Y284.198
G01 X122.117 Y293.131
G01 X121.061 Y294.570
G01 X129.016 Y291.023
G01 X134.717 Y284.466
G01 X136.529 Y277.940
G01 X137.125 Y276.085
G01 X114.748 Y286.054
G01 X120.463 Y279.486
G01 X128.412 Y275.942
G01 X137.125 Y276.085
G01 X142.839 Y269.523
G01 X148.082 Y263.441
G01 X148.548 Y262.945
G01 X99.585 Y262.091
G01 X77.201 Y272.049
G01 X85.921 Y272.205
G01 X93.862 Y268.670
G01 X99.585 Y262.091
G01 X75.089 Y261.668
G01 X83.047 Y258.122
G01 X91.767 Y258.285
G01 X99.585 Y262.091
G01 X107.532 Y258.560
G01 X115.493 Y255.007
G01 X91.016 Y254.582
G01 X98.833 Y258.400
G01 X107.532 Y258.560
G01 X115.493 Y255.007
G01 X100.761 Y248.227
G01 X93.480 Y244.271
G01 X102.180 Y244.426
G01 X110.011 Y248.252
G01 X115.424 Y254.927
G01 X115.493 Y255.007
G01 X124.206 Y255.162
G01 X132.896 Y255.321
G01 X119.965 Y249.522
G01 X110.880 Y244.587
G01 X116.382 Y251.351
G01 X124.206 Y255.162
G01 X132.896 Y255.321
G01 X127.487 Y249.550
G01 X122.375 Y243.260
G01 X117.598 Y236.468
G01 X117.482 Y236.290
G01 X125.317 Y240.106
G01 X130.384 Y246.398
G01 X130.791 Y246.865
G01 X132.167 Y252.687
G01 X132.896 Y255.321
G01 X140.731 Y259.135
G01 X148.548 Y262.945
G01 X128.895 Y271.537
G01 X126.176 Y272.905
G01 X134.887 Y273.060
G01 X142.839 Y269.523
G01 X148.082 Y263.441
G01 X148.548 Y262.945
G01 X124.071 Y262.522
G01 X132.017 Y258.985
G01 X140.731 Y259.135
G01 X148.548 Y262.945
G01 X156.497 Y259.411
G01 X164.451 Y255.870
G01 X150.094 Y261.803
G01 X142.079 Y265.826
G01 X150.779 Y265.983
G01 X158.743 Y262.433
G01 X162.885 Y257.539
G01 X164.451 Y255.870
G01 X139.984 Y255.440
G01 X147.918 Y251.900
G01 X156.622 Y252.046
G01 X164.451 Y255.870
G01 X172.410 Y252.329
G01 X180.361 Y248.782
G01 X162.470 Y244.164
G01 X144.909 Y237.790
G01 X127.805 Y229.684
G01 X111.287 Y219.877
G01 X95.480 Y208.410
G01 X92.338 Y205.858
G01 X51.295 Y204.751
G01 X43.371 Y204.988
G01 X21.345 Y194.265
G01 X26.834 Y201.035
G01 X34.658 Y204.846
G01 X43.371 Y204.988
G01 X31.800 Y191.118
G01 X27.951 Y185.959
G01 X35.781 Y189.769
G01 X41.260 Y196.547
G01 X43.371 Y204.988
G01 X51.197 Y208.812
G01 X59.024 Y212.620
G01 X34.541 Y212.196
G01 X42.361 Y216.025
G01 X51.058 Y216.160
G01 X59.024 Y212.620
G01 X37.013 Y201.905
G01 X45.704 Y202.039
G01 X53.522 Y205.860
G01 X59.024 Y212.620
G01 X67.710 Y212.784
G01 X76.414 Y212.931
G01 X61.296 Y219.295
G01 X54.042 Y222.887
G01 X62.756 Y223.042
G01 X70.700 Y219.501
G01 X76.414 Y212.931
G01 X51.943 Y212.507
G01 X59.903 Y208.967
G01 X68.601 Y209.114
G01 X76.414 Y212.931
G01 X84.382 Y209.385
G01 X92.338 Y205.858
G01 X48.309 Y184.371
G01 X23.819 Y183.958
G01 X31.648 Y187.758
G01 X40.348 Y187.919
G01 X48.309 Y184.371
G01 X26.294 Y173.653
G01 X35.003 Y173.805
G01 X42.835 Y177.605
G01 X48.309 Y184.371
G01 X57.029 Y184.530
G01 X65.730 Y184.695
G01 X43.720 Y173.956
G01 X49.195 Y180.705
G01 X57.029 Y184.530
G01 X65.730 Y184.695
G01 X52.810 Y169.019
G01 X50.311 Y165.646
G01 X58.139 Y169.472
G01 X63.619 Y176.228
G01 X65.730 Y184.695
G01 X73.537 Y188.493
G01 X81.368 Y192.317
G01 X69.611 Y178.227
G01 X65.946 Y173.290
G01 X68.063 Y181.728
G01 X73.537 Y188.493
G01 X81.368 Y192.317
G01 X78.263 Y181.670
G01 X75.812 Y170.585
G01 X75.443 Y168.548
G01 X80.930 Y175.330
G01 X83.028 Y183.776
G01 X81.368 Y192.317
G01 X86.859 Y199.089
G01 X92.338 Y205.858
G01 X67.849 Y205.427
G01 X75.677 Y209.241
G01 X84.382 Y209.385
G01 X92.338 Y205.858
G01 X70.322 Y195.110
G01 X79.021 Y195.270
G01 X86.859 Y199.089
G01 X92.338 Y205.858
G01 X101.037 Y206.003
G01 X109.744 Y206.154
G01 X85.248 Y205.715
G01 X93.084 Y209.533
G01 X101.781 Y209.698
G01 X109.744 Y206.154
G01 X87.734 Y195.417
G01 X96.434 Y195.576
G01 X104.265 Y199.383
G01 X109.744 Y206.154
G01 X118.442 Y206.303
G01 X127.138 Y206.458
G01 X83.140 Y184.995
G01 X70.496 Y169.714
G01 X67.715 Y165.961
G01 X69.819 Y174.396
G01 X75.294 Y181.173
G01 X83.140 Y184.995
G01 X79.924 Y173.931
G01 X77.408 Y162.402
G01 X77.196 Y161.222
G01 X82.688 Y168.002
G01 X84.786 Y176.440
G01 X83.140 Y184.995
G01 X88.616 Y191.750
G01 X94.078 Y198.521
G01 X72.089 Y187.788
G01 X77.569 Y194.558
G01 X85.385 Y198.358
G01 X94.078 Y198.521
G01 X83.311 Y185.735
G01 X78.672 Y179.477
G01 X86.503 Y183.311
G01 X91.982 Y190.072
G01 X94.078 Y198.521
G01 X101.907 Y202.335
G01 X109.744 Y206.154
G01 X85.248 Y205.715
G01 X93.084 Y209.533
G01 X101.781 Y209.698
G01 X109.744 Y206.154
G01 X87.734 Y195.417
G01 X96.434 Y195.576
G01 X104.265 Y199.383
G01 X109.744 Y206.154
G01 X118.442 Y206.303
G01 X127.138 Y206.458
G01 X115.994 Y194.967
G01 X105.714 Y182.291
G01 X96.387 Y168.488
G01 X96.326 Y168.389
G01 X74.311 Y157.664
G01 X79.803 Y164.424
G01 X87.625 Y168.235
G01 X96.326 Y168.389
G01 X80.910 Y149.356
G01 X88.732 Y153.180
G01 X94.234 Y159.946
G01 X96.326 Y168.389
G01 X104.150 Y172.207
G01 X111.974 Y176.025
G01 X97.615 Y158.433
G01 X96.558 Y157.000
G01 X98.667 Y165.452
G01 X104.150 Y172.207
G01 X111.974 Y176.025
G01 X108.764 Y165.132
G01 X106.307 Y153.756
G01 X106.048 Y152.257
G01 X111.527 Y159.041
G01 X113.647 Y167.488
G01 X112.059 Y175.517
G01 X111.974 Y176.025
G01 X117.465 Y182.795
G01 X122.942 Y189.563
G01 X120.062 Y180.179
G01 X117.813 Y170.374
G01 X117.010 Y165.807
G01 X115.439 Y173.793
G01 X115.347 Y174.347
G01 X117.465 Y182.795
G01 X122.942 Y189.563
G01 X123.893 Y182.237
G01 X125.262 Y174.861
G01 X127.056 Y167.459
G01 X127.596 Y165.522
G01 X129.715 Y173.968
G01 X128.273 Y181.174
G01 X128.049 Y182.522
G01 X123.934 Y188.120
G01 X122.942 Y189.563
G01 X125.006 Y197.903
G01 X125.035 Y198.005
G01 X126.936 Y205.746
G01 X127.138 Y206.458
G01 X105.135 Y195.722
G01 X110.623 Y202.495
G01 X118.442 Y206.303
G01 X127.138 Y206.458
G01 X117.895 Y195.748
G01 X111.726 Y187.422
G01 X119.575 Y191.241
G01 X125.035 Y198.005
G01 X126.936 Y205.746
G01 X127.138 Y206.458
G01 X134.969 Y210.266
G01 X142.806 Y214.085
G01 X120.789 Y203.348
G01 X126.268 Y210.121
G01 X134.083 Y213.928
G01 X142.806 Y214.085
G01 X134.760 Y204.987
G01 X127.397 Y195.059
G01 X135.219 Y198.881
G01 X140.683 Y205.640
G01 X142.307 Y212.340
G01 X142.806 Y214.085
G01 X150.629 Y217.907
G01 X158.443 Y221.719
G01 X149.794 Y213.572
G01 X141.748 Y204.517
G01 X134.373 Y194.594
G01 X127.735 Y183.850
G01 X127.627 Y183.657
G01 X124.646 Y173.854
G01 X122.347 Y163.609
G01 X121.706 Y159.895
G01 X120.118 Y167.990
G01 X120.042 Y168.452
G01 X122.147 Y176.900
G01 X127.627 Y183.657
G01 X128.587 Y176.248
G01 X129.985 Y168.777
G01 X131.829 Y161.270
G01 X132.293 Y159.626
G01 X134.414 Y168.076
G01 X132.949 Y175.386
G01 X132.744 Y176.619
G01 X128.684 Y182.125
G01 X127.627 Y183.657
G01 X129.731 Y192.113
G01 X131.683 Y200.046
G01 X131.828 Y200.554
G01 X121.805 Y188.804
G01 X116.427 Y181.529
G01 X118.529 Y189.977
G01 X124.021 Y196.739
G01 X131.828 Y200.554
G01 X129.219 Y192.344
G01 X127.145 Y183.764
G01 X125.909 Y176.794
G01 X131.389 Y183.562
G01 X133.511 Y192.011
G01 X132.193 Y198.405
G01 X131.828 Y200.554
G01 X137.313 Y207.315
G01 X142.806 Y214.085
G01 X120.789 Y203.348
G01 X126.268 Y210.121
G01 X134.083 Y213.928
G01 X142.806 Y214.085
G01 X134.760 Y204.987
G01 X127.397 Y195.059
G01 X135.219 Y198.881
G01 X140.683 Y205.640
G01 X142.307 Y212.340
G01 X142.806 Y214.085
G01 X150.629 Y217.907
G01 X158.443 Y221.719
G01 X155.456 Y215.630
G01 X152.856 Y209.184
G01 X150.672 Y202.404
G01 X148.930 Y195.317
G01 X147.654 Y187.949
G01 X146.867 Y180.331
G01 X146.607 Y174.204
G01 X131.179 Y155.168
G01 X133.292 Y163.615
G01 X138.784 Y170.385
G01 X146.607 Y174.204
G01 X143.382 Y163.486
G01 X140.977 Y152.283
G01 X140.668 Y150.433
G01 X146.141 Y157.206
G01 X148.264 Y165.659
G01 X146.852 Y172.703
G01 X146.607 Y174.204
G01 X152.088 Y180.970
G01 X157.565 Y187.736
G01 X154.723 Y178.784
G01 X152.551 Y169.414
G01 X151.636 Y163.974
G01 X150.218 Y171.028
G01 X149.976 Y172.516
G01 X152.088 Y180.970
G01 X157.565 Y187.736
G01 X158.245 Y181.416
G01 X159.328 Y175.018
G01 X160.824 Y168.566
G01 X162.226 Y163.690
G01 X164.342 Y172.149
G01 X163.037 Y178.430
G01 X162.665 Y180.682
G01 X159.395 Y185.070
G01 X157.565 Y187.736
G01 X159.390 Y195.229
G01 X159.666 Y196.183
G01 X161.257 Y202.870
G01 X161.759 Y204.622
G01 X162.261 Y199.288
G01 X163.079 Y193.897
G01 X164.218 Y188.467
G01 X165.685 Y183.017
G01 X166.444 Y180.589
G01 X163.249 Y184.855
G01 X161.330 Y187.645
G01 X160.161 Y193.198
G01 X159.666 Y196.183
G01 X161.257 Y202.870
G01 X161.759 Y204.622
G01 X164.216 Y200.418
G01 X166.873 Y196.347
G01 X169.722 Y192.416
G01 X172.757 Y188.635
G01 X175.969 Y185.014
G01 X176.155 Y184.815
G01 X175.032 Y190.105
G01 X174.505 Y193.368
G01 X171.696 Y197.059
G01 X169.382 Y200.408
G01 X164.473 Y203.009
G01 X161.759 Y204.622
G01 X160.715 Y209.494
G01 X160.100 Y213.174
G01 X159.089 Y217.872
G01 X158.443 Y221.719
G01 X151.597 Y214.228
G01 X145.286 Y206.003
G01 X143.043 Y202.698
G01 X144.668 Y209.472
G01 X145.143 Y211.142
G01 X150.629 Y217.907
G01 X158.443 Y221.719
G01 X156.393 Y215.971
G01 X154.695 Y209.957
G01 X153.370 Y203.697
G01 X152.522 Y197.958
G01 X158.009 Y204.733
G01 X159.434 Y210.831
G01 X160.100 Y213.174
G01 X159.089 Y217.872
G01 X158.443 Y221.719
G01 X163.338 Y227.825
G01 X163.922 Y228.489
G01 X168.094 Y233.755
G01 X169.413 Y235.253
G01 X164.203 Y229.904
G01 X159.337 Y224.012
G01 X154.858 Y217.597
G01 X153.993 Y216.224
G01 X155.298 Y221.822
G01 X156.106 Y224.671
G01 X160.834 Y230.584
G01 X161.579 Y231.432
G01 X169.413 Y235.253
G01 X167.666 Y230.715
G01 X166.177 Y225.972
G01 X164.960 Y221.038
G01 X164.032 Y215.928
G01 X163.484 Y211.490
G01 X168.968 Y218.264
G01 X170.056 Y223.134
G01 X171.066 Y226.704
G01 X170.187 Y230.646
G01 X169.504 Y234.618
G01 X169.413 Y235.253
G01 X172.917 Y239.773
G01 X174.873 Y242.015
G01 X177.843 Y245.897
G01 X180.361 Y248.782
G01 X131.393 Y247.925
G01 X116.553 Y241.102
G01 X109.382 Y237.198
G01 X114.860 Y243.957
G01 X122.694 Y247.773
G01 X131.393 Y247.925
G01 X125.617 Y241.707
G01 X120.180 Y234.917
G01 X115.977 Y228.895
G01 X123.803 Y232.719
G01 X129.269 Y239.470
G01 X129.282 Y239.484
G01 X130.714 Y245.489
G01 X131.393 Y247.925
G01 X139.214 Y251.752
G01 X147.050 Y255.566
G01 X122.554 Y255.140
G01 X130.385 Y258.953
G01 X139.098 Y259.104
G01 X147.050 Y255.566
G01 X135.594 Y250.563
G01 X125.032 Y244.825
G01 X133.734 Y244.975
G01 X141.557 Y248.797
G01 X145.659 Y253.967
G01 X147.050 Y255.566
G01 X155.748 Y255.710
G01 X164.451 Y255.870
G01 X150.094 Y261.803
G01 X142.079 Y265.826
G01 X150.779 Y265.983
G01 X158.743 Y262.433
G01 X162.885 Y257.539
G01 X164.451 Y255.870
G01 X139.984 Y255.440
G01 X147.918 Y251.900
G01 X156.622 Y252.046
G01 X164.451 Y255.870
G01 X172.410 Y252.329
G01 X180.361 Y248.782
G01 X167.884 Y244.525
G01 X155.689 Y239.043
G01 X143.863 Y232.354
G01 X136.341 Y227.316
G01 X111.870 Y226.887
G01 X119.695 Y230.708
G01 X128.397 Y230.863
G01 X136.341 Y227.316
G01 X114.329 Y216.585
G01 X123.037 Y216.729
G01 X130.863 Y220.543
G01 X136.341 Y227.316
G01 X145.042 Y227.466
G01 X153.743 Y227.616
G01 X131.747 Y216.892
G01 X137.236 Y223.658
G01 X145.042 Y227.466
G01 X153.743 Y227.616
G01 X147.413 Y220.770
G01 X141.540 Y213.254
G01 X138.358 Y208.590
G01 X146.171 Y212.406
G01 X151.645 Y219.166
G01 X152.932 Y224.728
G01 X153.743 Y227.616
G01 X161.579 Y231.432
G01 X169.413 Y235.253
G01 X164.203 Y229.904
G01 X159.337 Y224.012
G01 X154.858 Y217.597
G01 X153.993 Y216.224
G01 X155.298 Y221.822
G01 X156.106 Y224.671
G01 X160.834 Y230.584
G01 X161.579 Y231.432
G01 X169.413 Y235.253
G01 X167.666 Y230.715
G01 X166.177 Y225.972
G01 X164.960 Y221.038
G01 X164.032 Y215.928
G01 X163.484 Y211.490
G01 X168.968 Y218.264
G01 X170.056 Y223.134
G01 X171.066 Y226.704
G01 X170.187 Y230.646
G01 X169.504 Y234.618
G01 X169.413 Y235.253
G01 X172.917 Y239.773
G01 X174.873 Y242.015
G01 X177.843 Y245.897
G01 X180.361 Y248.782
G01 X155.889 Y248.354
G01 X163.702 Y252.176
G01 X172.410 Y252.329
G01 X180.361 Y248.782
G01 X170.562 Y244.704
G01 X161.020 Y239.662
G01 X158.351 Y238.047
G01 X167.060 Y238.203
G01 X174.873 Y242.015
G01 X177.843 Y245.897
G01 X180.361 Y248.782
G01 X189.059 Y248.934
G01 X197.783 Y249.087
G01 X173.287 Y248.658
G01 X180.480 Y252.197
G01 X181.119 Y252.475
G01 X189.808 Y252.633
G01 X196.187 Y249.711
G01 X197.783 Y249.087
G01 X189.760 Y245.984
G01 X181.936 Y242.092
G01 X175.758 Y238.355
G01 X184.475 Y238.510
G01 X192.284 Y242.320
G01 X194.533 Y245.374
G01 X196.937 Y248.189
G01 X197.783 Y249.087
G01 X206.482 Y249.239
G01 X215.180 Y249.391
G01 X166.213 Y248.534
G01 X154.959 Y243.663
G01 X144.201 Y237.802
G01 X148.612 Y243.329
G01 X149.697 Y244.569
G01 X157.514 Y248.382
G01 X166.213 Y248.534
G01 X161.782 Y244.118
G01 X157.595 Y239.264
G01 X153.682 Y233.986
G01 X150.794 Y229.509
G01 X158.634 Y233.328
G01 X162.692 Y238.461
G01 X164.120 Y240.090
G01 X165.070 Y244.403
G01 X166.213 Y248.534
G01 X174.037 Y252.356
G01 X180.494 Y255.579
G01 X181.854 Y256.171
G01 X157.378 Y255.742
G01 X165.007 Y259.473
G01 X165.213 Y259.563
G01 X173.917 Y259.708
G01 X181.854 Y256.171
G01 X174.036 Y253.133
G01 X166.371 Y249.342
G01 X159.865 Y245.436
G01 X168.569 Y245.591
G01 X176.377 Y249.404
G01 X179.029 Y252.911
G01 X181.841 Y256.157
G01 X181.854 Y256.171
G01 X190.561 Y256.325
G01 X199.286 Y256.471
G01 X187.454 Y261.123
G01 X176.899 Y266.432
G01 X185.602 Y266.588
G01 X193.562 Y263.043
G01 X196.269 Y259.668
G01 X199.163 Y256.591
G01 X199.286 Y256.471
G01 X174.793 Y256.045
G01 X182.747 Y252.504
G01 X191.460 Y252.660
G01 X196.144 Y255.105
G01 X199.286 Y256.471
G01 X205.943 Y253.436
G01 X207.226 Y252.935
G01 X211.727 Y250.743
G01 X215.180 Y249.391
G01 X206.233 Y247.082
G01 X197.450 Y243.895
G01 X188.896 Y239.841
G01 X180.634 Y234.937
G01 X172.728 Y229.202
G01 X171.157 Y227.926
G01 X150.635 Y227.373
G01 X146.673 Y227.491
G01 X154.512 Y231.310
G01 X163.207 Y231.465
G01 X169.431 Y228.612
G01 X171.157 Y227.926
G01 X149.155 Y217.185
G01 X157.865 Y217.347
G01 X165.696 Y221.162
G01 X170.403 Y227.068
G01 X171.157 Y227.926
G01 X179.872 Y228.077
G01 X188.569 Y228.229
G01 X166.558 Y217.493
G01 X171.658 Y223.829
G01 X172.039 Y224.261
G01 X179.872 Y228.077
G01 X188.569 Y228.229
G01 X182.997 Y222.483
G01 X177.857 Y216.145
G01 X173.193 Y209.244
G01 X173.163 Y209.195
G01 X180.987 Y213.013
G01 X186.471 Y219.782
G01 X187.332 Y223.880
G01 X188.437 Y227.819
G01 X188.569 Y228.229
G01 X196.403 Y232.043
G01 X204.234 Y235.863
G01 X199.906 Y231.789
G01 X195.880 Y227.261
G01 X192.189 Y222.299
G01 X188.868 Y216.925
G01 X188.813 Y216.828
G01 X189.703 Y221.044
G01 X190.853 Y225.090
G01 X190.914 Y225.277
G01 X194.530 Y229.928
G01 X196.403 Y232.043
G01 X204.234 Y235.863
G01 X202.738 Y232.819
G01 X201.436 Y229.596
G01 X200.343 Y226.205
G01 X199.470 Y222.661
G01 X198.830 Y218.976
G01 X198.435 Y215.166
G01 X198.303 Y212.102
G01 X203.782 Y218.868
G01 X204.495 Y222.493
G01 X205.446 Y225.971
G01 X205.891 Y227.316
G01 X205.264 Y229.705
G01 X204.765 Y232.099
G01 X204.391 Y234.494
G01 X204.234 Y235.863
G01 X206.372 Y238.837
G01 X208.685 Y241.564
G01 X209.694 Y242.624
G01 X211.211 Y244.854
G01 X212.846 Y246.916
G01 X214.584 Y248.805
G01 X215.180 Y249.391
G01 X190.709 Y248.963
G01 X196.048 Y251.705
G01 X198.525 Y252.783
G01 X207.226 Y252.935
G01 X211.727 Y250.743
G01 X215.180 Y249.391
G01 X208.942 Y247.262
G01 X202.844 Y244.521
G01 X196.932 Y241.177
G01 X193.171 Y238.658
G01 X201.884 Y238.811
G01 X209.694 Y242.624
G01 X211.211 Y244.854
G01 X212.846 Y246.916
G01 X214.584 Y248.805
G01 X215.180 Y249.391
G01 X223.879 Y249.543
G01 X232.603 Y249.696
G01 X208.106 Y249.267
G01 X211.625 Y251.213
G01 X215.226 Y252.812
G01 X215.939 Y253.084
G01 X224.631 Y253.237
G01 X227.273 Y251.772
G01 X229.991 Y250.575
G01 X232.603 Y249.696
G01 X228.129 Y248.542
G01 X223.737 Y246.949
G01 X219.460 Y244.923
G01 X215.329 Y242.471
G01 X211.376 Y239.604
G01 X210.590 Y238.966
G01 X216.931 Y238.965
G01 X219.296 Y239.119
G01 X227.117 Y242.932
G01 X227.902 Y244.346
G01 X228.768 Y245.665
G01 X229.707 Y246.885
G01 X230.712 Y248.002
G01 X231.775 Y249.012
G01 X232.603 Y249.696
G01 X238.977 Y249.807
G01 X238.876 Y250.352
G01 X238.803 Y250.905
G01 X238.758 Y251.467
G01 X238.741 Y252.036
G01 X238.753 Y252.609
G01 X238.795 Y253.186
G01 X238.866 Y253.766
G01 X238.967 Y254.345
G01 X239.099 Y254.924
G01 X239.261 Y255.501
G01 X239.454 Y256.073
G01 X239.677 Y256.640
G01 X239.930 Y257.199
G01 X240.214 Y257.749
G01 X240.528 Y258.288
G01 X240.651 Y258.485
G01 X200.220 Y298.069
G01 X129.435 Y366.421
G01 X106.630 Y375.447
G01 X83.127 Y382.372
G01 X67.098 Y380.997
G01 X58.798 Y379.803
G01 X66.242 Y384.294
G01 X74.897 Y385.201
G01 X83.127 Y382.372
G01 X73.049 Y376.734
G01 X63.131 Y370.420
G01 X62.147 Y369.749
G01 X70.810 Y370.656
G01 X78.258 Y375.144
G01 X83.127 Y382.372
G01 X91.807 Y383.274
G01 X100.452 Y384.187
G01 X77.308 Y392.155
G01 X85.951 Y393.075
G01 X94.186 Y390.231
G01 X100.452 Y384.187
G01 X86.201 Y383.061
G01 X76.099 Y381.628
G01 X84.325 Y378.797
G01 X92.989 Y379.695
G01 X100.452 Y384.187
G01 X108.696 Y381.351
G01 X116.918 Y378.507
G01 X99.293 Y395.526
G01 X107.546 Y392.686
G01 X113.802 Y386.638
G01 X116.918 Y378.507
G01 X94.152 Y386.365
G01 X93.766 Y386.479
G01 X100.012 Y380.442
G01 X108.260 Y377.616
G01 X116.918 Y378.507
G01 X123.176 Y372.464
G01 X129.435 Y366.421
G01 X116.928 Y366.436
G01 X104.147 Y365.490
G01 X91.155 Y363.557
G01 X80.744 Y361.306
G01 X57.593 Y369.270
G01 X66.239 Y370.187
G01 X74.466 Y367.355
G01 X80.744 Y361.306
G01 X63.706 Y359.810
G01 X56.371 Y358.743
G01 X64.616 Y355.901
G01 X73.278 Y356.826
G01 X80.744 Y361.306
G01 X88.977 Y358.471
G01 X97.211 Y355.634
G01 X81.948 Y354.385
G01 X72.848 Y353.062
G01 X80.313 Y357.550
G01 X88.977 Y358.471
G01 X97.211 Y355.634
G01 X88.033 Y350.605
G01 X78.990 Y344.925
G01 X76.201 Y343.017
G01 X84.873 Y343.935
G01 X92.342 Y348.408
G01 X97.211 Y355.634
G01 X105.852 Y356.545
G01 X114.513 Y357.453
G01 X106.210 Y352.962
G01 X98.029 Y347.910
G01 X93.525 Y344.844
G01 X98.401 Y352.056
G01 X105.852 Y356.545
G01 X114.513 Y357.453
G01 X109.445 Y350.646
G01 X104.720 Y343.599
G01 X100.816 Y337.151
G01 X108.296 Y341.632
G01 X112.905 Y348.516
G01 X113.150 Y348.863
G01 X114.513 Y357.453
G01 X121.989 Y361.938
G01 X129.387 Y366.394
G01 X129.435 Y366.421
G01 X108.605 Y373.719
G01 X106.290 Y374.403
G01 X114.955 Y375.307
G01 X123.176 Y372.464
G01 X129.435 Y366.421
G01 X117.813 Y365.662
G01 X105.990 Y364.031
G01 X105.086 Y363.871
G01 X113.315 Y361.033
G01 X121.989 Y361.938
G01 X129.387 Y366.394
G01 X129.435 Y366.421
G01 X137.675 Y363.593
G01 X145.904 Y360.761
G01 X128.732 Y366.961
G01 X122.764 Y368.725
G01 X131.415 Y369.637
G01 X139.630 Y366.803
G01 X145.904 Y360.761
G01 X135.753 Y360.190
G01 X125.420 Y358.877
G01 X121.546 Y358.198
G01 X129.783 Y355.356
G01 X138.439 Y356.270
G01 X145.057 Y360.281
G01 X145.904 Y360.761
G01 X154.138 Y357.923
G01 X162.370 Y355.081
G01 X127.133 Y389.108
G01 X107.732 Y395.965
G01 X103.983 Y397.076
G01 X112.645 Y397.977
G01 X120.881 Y395.159
G01 X127.133 Y389.108
G01 X115.230 Y388.273
G01 X103.125 Y386.591
G01 X102.796 Y386.534
G01 X111.030 Y383.710
G01 X119.671 Y384.625
G01 X127.133 Y389.108
G01 X135.365 Y386.270
G01 X143.617 Y383.432
G01 X125.984 Y400.450
G01 X134.227 Y397.616
G01 X140.482 Y391.555
G01 X143.617 Y383.432
G01 X127.205 Y389.394
G01 X120.450 Y391.402
G01 X126.702 Y385.363
G01 X134.941 Y382.521
G01 X143.617 Y383.432
G01 X149.870 Y377.382
G01 X156.132 Y371.327
G01 X147.361 Y394.202
G01 X153.613 Y388.148
G01 X156.735 Y380.037
G01 X156.132 Y371.327
G01 X138.516 Y388.347
G01 X141.638 Y380.207
G01 X147.902 Y374.163
G01 X156.132 Y371.327
G01 X159.250 Y363.218
G01 X162.370 Y355.081
G01 X147.007 Y361.855
G01 X130.793 Y367.347
G01 X116.058 Y371.032
G01 X98.450 Y388.049
G01 X106.689 Y385.207
G01 X112.940 Y379.154
G01 X116.058 Y371.032
G01 X92.903 Y379.001
G01 X99.164 Y372.954
G01 X107.396 Y370.116
G01 X116.058 Y371.032
G01 X122.318 Y364.983
G01 X128.586 Y358.942
G01 X106.453 Y366.609
G01 X105.431 Y366.910
G01 X114.103 Y367.806
G01 X122.318 Y364.983
G01 X128.586 Y358.942
G01 X116.845 Y358.168
G01 X104.903 Y356.491
G01 X104.235 Y356.371
G01 X112.467 Y353.539
G01 X121.136 Y354.444
G01 X128.420 Y358.848
G01 X128.586 Y358.942
G01 X136.826 Y356.092
G01 X145.058 Y353.258
G01 X134.833 Y352.697
G01 X124.423 Y351.370
G01 X120.692 Y350.711
G01 X127.963 Y355.064
G01 X128.174 Y355.182
G01 X136.826 Y356.092
G01 X145.058 Y353.258
G01 X138.219 Y349.678
G01 X131.483 Y345.671
G01 X124.876 Y341.239
G01 X124.060 Y340.655
G01 X132.715 Y341.574
G01 X139.285 Y345.548
G01 X140.178 Y346.052
G01 X144.226 Y352.094
G01 X145.058 Y353.258
G01 X153.717 Y354.168
G01 X162.049 Y355.058
G01 X162.370 Y355.081
G01 X144.755 Y372.102
G01 X152.994 Y369.253
G01 X159.250 Y363.218
G01 X162.370 Y355.081
G01 X148.427 Y360.313
G01 X139.220 Y363.043
G01 X145.481 Y356.997
G01 X153.717 Y354.168
G01 X162.049 Y355.058
G01 X162.370 Y355.081
G01 X168.631 Y349.035
G01 X174.901 Y342.986
G01 X157.271 Y360.006
G01 X165.509 Y357.176
G01 X171.766 Y351.119
G01 X174.901 Y342.986
G01 X162.886 Y347.643
G01 X151.741 Y350.951
G01 X158.009 Y344.910
G01 X166.235 Y342.073
G01 X173.481 Y342.883
G01 X174.901 Y342.986
G01 X181.151 Y336.941
G01 X187.416 Y330.891
G01 X177.271 Y354.193
G01 X169.858 Y376.619
G01 X152.254 Y393.618
G01 X160.498 Y390.784
G01 X166.749 Y384.729
G01 X169.858 Y376.619
G01 X157.546 Y381.335
G01 X146.712 Y384.583
G01 X152.973 Y378.541
G01 X161.208 Y375.703
G01 X169.585 Y376.598
G01 X169.858 Y376.619
G01 X176.130 Y370.570
G01 X182.400 Y364.510
G01 X173.630 Y387.374
G01 X179.885 Y381.330
G01 X182.996 Y373.209
G01 X182.400 Y364.510
G01 X164.783 Y381.532
G01 X167.893 Y373.406
G01 X174.167 Y367.356
G01 X182.400 Y364.510
G01 X185.521 Y356.385
G01 X188.630 Y348.260
G01 X188.868 Y359.496
G01 X190.071 Y370.925
G01 X190.342 Y372.690
G01 X193.459 Y364.556
G01 X192.854 Y355.889
G01 X189.520 Y349.993
G01 X188.630 Y348.260
G01 X179.857 Y371.132
G01 X179.254 Y362.446
G01 X182.368 Y354.320
G01 X188.630 Y348.260
G01 X188.031 Y339.580
G01 X187.437 Y331.571
G01 X187.416 Y330.891
G01 X152.190 Y364.909
G01 X143.404 Y387.778
G01 X149.680 Y381.723
G01 X152.796 Y373.608
G01 X152.190 Y364.909
G01 X134.570 Y381.932
G01 X137.690 Y373.797
G01 X143.959 Y367.736
G01 X152.190 Y364.909
G01 X155.313 Y356.793
G01 X158.430 Y348.652
G01 X140.821 Y365.659
G01 X149.049 Y362.831
G01 X155.313 Y356.793
G01 X158.430 Y348.652
G01 X143.219 Y354.275
G01 X135.272 Y356.625
G01 X141.534 Y350.583
G01 X149.777 Y347.751
G01 X158.325 Y348.644
G01 X158.430 Y348.652
G01 X164.700 Y342.600
G01 X170.958 Y336.568
G01 X157.714 Y341.610
G01 X147.800 Y344.545
G01 X156.473 Y345.438
G01 X164.700 Y342.600
G01 X170.958 Y336.568
G01 X163.052 Y336.311
G01 X154.990 Y335.479
G01 X146.809 Y334.054
G01 X146.602 Y334.010
G01 X154.840 Y331.168
G01 X162.872 Y332.034
G01 X163.490 Y332.077
G01 X168.580 Y335.221
G01 X170.958 Y336.568
G01 X179.195 Y333.725
G01 X187.416 Y330.891
G01 X179.595 Y350.864
G01 X178.639 Y353.753
G01 X184.909 Y347.703
G01 X188.031 Y339.580
G01 X187.437 Y331.571
G01 X187.416 Y330.891
G01 X169.809 Y347.900
G01 X172.927 Y339.781
G01 X179.195 Y333.725
G01 X187.416 Y330.891
G01 X190.538 Y322.771
G01 X193.659 Y314.643
G01 X187.702 Y328.990
G01 X184.880 Y337.503
G01 X191.142 Y331.461
G01 X194.263 Y323.320
G01 X193.731 Y316.931
G01 X193.659 Y314.643
G01 X176.054 Y331.640
G01 X179.161 Y323.527
G01 X185.419 Y317.475
G01 X193.659 Y314.643
G01 X196.777 Y306.506
G01 X199.896 Y298.381
G01 X183.981 Y307.766
G01 X167.056 Y315.677
G01 X149.230 Y322.039
G01 X130.615 Y326.785
G01 X111.329 Y329.854
G01 X107.303 Y330.271
G01 X77.499 Y358.510
G01 X72.063 Y364.281
G01 X48.906 Y372.273
G01 X57.574 Y373.179
G01 X65.802 Y370.342
G01 X72.063 Y364.281
G01 X54.074 Y362.655
G01 X47.704 Y361.729
G01 X55.935 Y358.886
G01 X64.602 Y359.804
G01 X72.063 Y364.281
G01 X80.301 Y361.451
G01 X88.528 Y358.609
G01 X70.917 Y375.621
G01 X79.153 Y372.799
G01 X85.398 Y366.745
G01 X88.528 Y358.609
G01 X65.375 Y366.578
G01 X71.627 Y360.545
G01 X79.857 Y357.719
G01 X88.528 Y358.609
G01 X94.786 Y352.583
G01 X101.044 Y346.532
G01 X94.855 Y361.723
G01 X92.265 Y369.392
G01 X98.536 Y363.340
G01 X101.650 Y355.218
G01 X101.044 Y346.532
G01 X83.441 Y363.537
G01 X86.567 Y355.405
G01 X92.821 Y349.358
G01 X101.044 Y346.532
G01 X104.172 Y338.390
G01 X107.303 Y330.271
G01 X60.976 Y346.211
G01 X43.368 Y363.236
G01 X51.590 Y360.387
G01 X57.856 Y354.348
G01 X60.976 Y346.211
G01 X37.831 Y354.199
G01 X44.096 Y348.149
G01 X52.322 Y345.297
G01 X60.976 Y346.211
G01 X67.254 Y340.157
G01 X73.524 Y334.121
G01 X50.367 Y342.091
G01 X59.011 Y342.992
G01 X67.254 Y340.157
G01 X73.524 Y334.121
G01 X53.304 Y332.172
G01 X49.151 Y331.555
G01 X57.393 Y328.725
G01 X66.044 Y329.627
G01 X73.524 Y334.121
G01 X81.730 Y331.286
G01 X89.971 Y328.453
G01 X71.695 Y326.803
G01 X65.612 Y325.904
G01 X73.076 Y330.374
G01 X81.730 Y331.286
G01 X89.971 Y328.453
G01 X80.247 Y323.120
G01 X70.676 Y317.015
G01 X68.975 Y315.836
G01 X77.650 Y316.751
G01 X85.106 Y321.239
G01 X89.971 Y328.453
G01 X98.643 Y329.359
G01 X107.303 Y330.271
G01 X89.682 Y347.282
G01 X97.914 Y344.444
G01 X104.172 Y338.390
G01 X107.303 Y330.271
G01 X84.136 Y338.238
G01 X90.400 Y332.201
G01 X98.643 Y329.359
G01 X107.303 Y330.271
G01 X113.556 Y324.223
G01 X119.820 Y318.173
G01 X102.189 Y335.184
G01 X110.429 Y332.342
G01 X116.696 Y326.309
G01 X119.820 Y318.173
G01 X96.665 Y326.144
G01 X102.929 Y320.105
G01 X111.158 Y317.259
G01 X119.820 Y318.173
G01 X126.076 Y312.127
G01 X132.334 Y306.088
G01 X86.047 Y322.023
G01 X66.301 Y320.158
G01 X61.680 Y319.471
G01 X69.133 Y323.947
G01 X77.796 Y324.868
G01 X86.047 Y322.023
G01 X75.950 Y316.473
G01 X66.019 Y310.100
G01 X65.034 Y309.415
G01 X73.711 Y310.326
G01 X81.161 Y314.809
G01 X86.047 Y322.023
G01 X94.695 Y322.927
G01 X103.346 Y323.853
G01 X80.207 Y331.812
G01 X88.870 Y332.724
G01 X97.084 Y329.884
G01 X103.346 Y323.853
G01 X86.691 Y322.425
G01 X78.985 Y321.280
G01 X87.234 Y318.454
G01 X95.889 Y319.360
G01 X103.346 Y323.853
G01 X111.578 Y321.014
G01 X119.820 Y318.173
G01 X102.189 Y335.184
G01 X110.429 Y332.342
G01 X116.696 Y326.309
G01 X119.820 Y318.173
G01 X96.665 Y326.144
G01 X102.929 Y320.105
G01 X111.158 Y317.259
G01 X119.820 Y318.173
G01 X126.076 Y312.127
G01 X132.334 Y306.088
G01 X116.329 Y305.843
G01 X100.097 Y304.148
G01 X83.741 Y300.984
G01 X83.629 Y300.957
G01 X60.478 Y308.940
G01 X69.141 Y309.837
G01 X77.367 Y307.000
G01 X83.629 Y300.957
G01 X59.270 Y298.399
G01 X67.504 Y295.572
G01 X76.178 Y296.466
G01 X83.629 Y300.957
G01 X91.860 Y298.124
G01 X100.093 Y295.292
G01 X77.500 Y293.005
G01 X75.740 Y292.739
G01 X83.207 Y297.225
G01 X91.860 Y298.124
G01 X100.093 Y295.292
G01 X90.120 Y289.859
G01 X80.339 Y283.551
G01 X79.096 Y282.675
G01 X87.764 Y283.582
G01 X95.239 Y288.071
G01 X99.794 Y294.872
G01 X100.093 Y295.292
G01 X108.763 Y296.196
G01 X117.421 Y297.109
G01 X108.749 Y292.509
G01 X100.225 Y287.167
G01 X96.429 Y284.505
G01 X100.965 Y291.262
G01 X101.291 Y291.719
G01 X108.763 Y296.196
G01 X117.421 Y297.109
G01 X112.913 Y291.256
G01 X108.666 Y285.072
G01 X104.701 Y278.570
G01 X103.713 Y276.818
G01 X111.183 Y281.292
G01 X115.259 Y287.407
G01 X116.053 Y288.519
G01 X117.102 Y295.387
G01 X117.421 Y297.109
G01 X124.778 Y301.546
G01 X124.871 Y301.598
G01 X131.688 Y305.728
G01 X132.334 Y306.088
G01 X109.184 Y314.055
G01 X117.855 Y314.963
G01 X126.076 Y312.127
G01 X132.334 Y306.088
G01 X118.226 Y305.050
G01 X107.976 Y303.525
G01 X116.227 Y300.675
G01 X124.871 Y301.598
G01 X131.688 Y305.728
G01 X132.334 Y306.088
G01 X140.565 Y303.243
G01 X148.807 Y300.402
G01 X125.646 Y308.378
G01 X134.309 Y309.293
G01 X142.528 Y306.459
G01 X148.807 Y300.402
G01 X136.684 Y299.658
G01 X124.458 Y297.845
G01 X132.691 Y295.016
G01 X141.334 Y295.932
G01 X147.220 Y299.522
G01 X148.807 Y300.402
G01 X157.041 Y297.573
G01 X165.262 Y294.743
G01 X153.385 Y295.098
G01 X141.293 Y294.384
G01 X129.062 Y292.583
G01 X116.770 Y289.679
G01 X116.557 Y289.619
G01 X107.518 Y284.796
G01 X98.648 Y279.176
G01 X95.568 Y277.004
G01 X100.170 Y283.851
G01 X100.443 Y284.232
G01 X107.905 Y288.716
G01 X116.557 Y289.619
G01 X111.997 Y283.702
G01 X107.703 Y277.431
G01 X103.699 Y270.818
G01 X102.864 Y269.328
G01 X110.339 Y273.803
G01 X114.472 Y280.008
G01 X115.199 Y281.024
G01 X116.221 Y287.789
G01 X116.557 Y289.619
G01 X124.025 Y294.111
G01 X131.015 Y298.340
G01 X131.476 Y298.597
G01 X116.080 Y297.376
G01 X107.133 Y296.034
G01 X114.593 Y300.521
G01 X123.258 Y301.419
G01 X131.476 Y298.597
G01 X123.826 Y294.636
G01 X116.293 Y290.036
G01 X110.490 Y285.981
G01 X119.151 Y286.892
G01 X126.625 Y291.366
G01 X130.215 Y296.819
G01 X131.476 Y298.597
G01 X140.136 Y299.499
G01 X148.807 Y300.402
G01 X125.646 Y308.378
G01 X134.309 Y309.293
G01 X142.528 Y306.459
G01 X148.807 Y300.402
G01 X136.684 Y299.658
G01 X124.458 Y297.845
G01 X132.691 Y295.016
G01 X141.334 Y295.932
G01 X147.220 Y299.522
G01 X148.807 Y300.402
G01 X157.041 Y297.573
G01 X165.262 Y294.743
G01 X158.844 Y292.550
G01 X152.448 Y289.830
G01 X146.110 Y286.580
G01 X139.866 Y282.801
G01 X133.754 Y278.493
G01 X127.811 Y273.662
G01 X123.294 Y269.514
G01 X98.924 Y266.963
G01 X106.392 Y271.442
G01 X115.063 Y272.346
G01 X123.294 Y269.514
G01 X113.435 Y264.216
G01 X103.813 Y257.995
G01 X102.286 Y256.905
G01 X110.944 Y257.811
G01 X118.424 Y262.300
G01 X122.406 Y268.280
G01 X123.294 Y269.514
G01 X131.954 Y270.423
G01 X140.611 Y271.334
G01 X132.271 Y267.014
G01 X124.110 Y261.924
G01 X119.617 Y258.724
G01 X123.602 Y264.715
G01 X124.483 Y265.939
G01 X131.954 Y270.423
G01 X140.611 Y271.334
G01 X136.623 Y266.385
G01 X132.865 Y261.095
G01 X129.360 Y255.475
G01 X126.904 Y251.035
G01 X134.382 Y255.520
G01 X137.900 Y260.885
G01 X139.230 Y262.740
G01 X140.020 Y268.155
G01 X140.611 Y271.334
G01 X147.200 Y275.342
G01 X148.070 Y275.822
G01 X153.923 Y279.425
G01 X155.517 Y280.308
G01 X152.101 Y276.182
G01 X148.867 Y271.792
G01 X145.833 Y267.147
G01 X143.016 Y262.256
G01 X141.836 Y260.002
G01 X142.594 Y265.278
G01 X143.209 Y268.608
G01 X146.309 Y273.361
G01 X148.070 Y275.822
G01 X153.923 Y279.425
G01 X155.517 Y280.308
G01 X154.282 Y275.599
G01 X153.282 Y270.841
G01 X152.517 Y266.047
G01 X151.990 Y261.228
G01 X151.700 Y256.396
G01 X151.691 Y256.124
G01 X154.637 Y260.658
G01 X156.572 Y263.339
G01 X157.195 Y267.935
G01 X157.928 Y271.938
G01 X156.296 Y277.249
G01 X155.517 Y280.308
G01 X158.224 Y284.492
G01 X160.391 Y287.529
G01 X162.999 Y291.566
G01 X165.262 Y294.743
G01 X155.124 Y294.287
G01 X144.846 Y292.934
G01 X140.923 Y292.183
G01 X146.862 Y295.824
G01 X148.379 Y296.669
G01 X157.041 Y297.573
G01 X165.262 Y294.743
G01 X159.748 Y292.128
G01 X154.294 Y289.076
G01 X148.931 Y285.587
G01 X144.274 Y282.128
G01 X152.944 Y283.039
G01 X158.263 Y286.343
G01 X160.391 Y287.529
G01 X162.999 Y291.566
G01 X165.262 Y294.743
G01 X173.041 Y295.599
G01 X173.923 Y295.656
G01 X180.597 Y296.429
G01 X182.589 Y296.556
G01 X175.122 Y296.458
G01 X167.515 Y295.732
G01 X159.812 Y294.364
G01 X158.229 Y294.004
G01 X163.111 Y297.040
G01 X165.697 Y298.483
G01 X173.221 Y299.321
G01 X174.347 Y299.394
G01 X182.589 Y296.556
G01 X178.145 Y294.583
G01 X173.738 Y292.282
G01 X169.389 Y289.653
G01 X165.120 Y286.696
G01 X161.593 Y283.946
G01 X170.261 Y284.857
G01 X174.474 Y287.532
G01 X177.712 Y289.342
G01 X179.878 Y292.751
G01 X182.204 Y296.043
G01 X182.589 Y296.556
G01 X188.263 Y297.274
G01 X191.231 Y297.477
G01 X196.076 Y298.122
G01 X199.896 Y298.381
G01 X164.666 Y332.401
G01 X149.348 Y338.070
G01 X141.516 Y340.380
G01 X150.169 Y341.285
G01 X158.407 Y338.444
G01 X164.666 Y332.401
G01 X156.184 Y332.088
G01 X147.538 Y331.132
G01 X140.308 Y329.846
G01 X148.546 Y327.016
G01 X157.184 Y327.924
G01 X157.204 Y327.925
G01 X162.462 Y331.158
G01 X164.666 Y332.401
G01 X172.893 Y329.569
G01 X181.139 Y326.732
G01 X163.517 Y343.753
G01 X171.750 Y340.912
G01 X178.018 Y334.857
G01 X181.139 Y326.732
G01 X169.501 Y331.295
G01 X157.975 Y334.706
G01 X164.234 Y328.660
G01 X172.469 Y325.831
G01 X179.025 Y326.585
G01 X181.139 Y326.732
G01 X187.392 Y320.684
G01 X193.659 Y314.643
G01 X187.702 Y328.990
G01 X184.880 Y337.503
G01 X191.142 Y331.461
G01 X194.263 Y323.320
G01 X193.731 Y316.931
G01 X193.659 Y314.643
G01 X176.054 Y331.640
G01 X179.161 Y323.527
G01 X185.419 Y317.475
G01 X193.659 Y314.643
G01 X196.777 Y306.506
G01 X199.896 Y298.381
G01 X188.064 Y304.193
G01 X175.564 Y308.940
G01 X162.472 Y312.572
G01 X153.592 Y314.329
G01 X135.985 Y331.330
G01 X144.219 Y328.498
G01 X150.482 Y322.455
G01 X153.592 Y314.329
G01 X130.439 Y322.306
G01 X136.698 Y316.251
G01 X144.928 Y313.414
G01 X153.592 Y314.329
G01 X159.849 Y308.283
G01 X166.108 Y302.236
G01 X142.972 Y310.206
G01 X151.637 Y311.110
G01 X159.849 Y308.283
G01 X166.108 Y302.236
G01 X156.791 Y301.871
G01 X147.324 Y300.709
G01 X141.775 Y299.662
G01 X149.999 Y296.836
G01 X158.650 Y297.745
G01 X163.492 Y300.768
G01 X166.108 Y302.236
G01 X174.347 Y299.394
G01 X182.589 Y296.556
G01 X175.122 Y296.458
G01 X167.515 Y295.732
G01 X159.812 Y294.364
G01 X158.229 Y294.004
G01 X163.111 Y297.040
G01 X165.697 Y298.483
G01 X173.221 Y299.321
G01 X174.347 Y299.394
G01 X182.589 Y296.556
G01 X178.145 Y294.583
G01 X173.738 Y292.282
G01 X169.389 Y289.653
G01 X165.120 Y286.696
G01 X161.593 Y283.946
G01 X170.261 Y284.857
G01 X174.474 Y287.532
G01 X177.712 Y289.342
G01 X179.878 Y292.751
G01 X182.204 Y296.043
G01 X182.589 Y296.556
G01 X188.263 Y297.274
G01 X191.231 Y297.477
G01 X196.076 Y298.122
G01 X199.896 Y298.381
G01 X182.290 Y315.382
G01 X190.517 Y312.560
G01 X196.777 Y306.506
G01 X199.896 Y298.381
G01 X190.084 Y302.426
G01 X179.772 Y305.608
G01 X176.743 Y306.354
G01 X183.011 Y300.306
G01 X191.231 Y297.477
G01 X196.076 Y298.122
G01 X199.896 Y298.381
G01 X206.155 Y292.338
G01 X212.431 Y286.277
G01 X194.807 Y303.296
G01 X202.396 Y300.712
G01 X203.044 Y300.456
G01 X209.299 Y294.424
G01 X211.744 Y287.847
G01 X212.431 Y286.277
G01 X204.564 Y289.756
G01 X196.280 Y292.537
G01 X189.268 Y294.263
G01 X195.542 Y288.209
G01 X203.758 Y285.381
G01 X207.508 Y285.950
G01 X211.198 Y286.241
G01 X212.431 Y286.277
G01 X218.690 Y280.234
G01 X224.948 Y274.191
G01 X189.717 Y308.210
G01 X178.315 Y312.723
G01 X166.563 Y316.186
G01 X173.591 Y316.975
G01 X175.235 Y317.085
G01 X183.459 Y314.254
G01 X189.717 Y308.210
G01 X183.462 Y308.220
G01 X177.068 Y307.749
G01 X170.569 Y306.784
G01 X165.361 Y305.660
G01 X173.605 Y302.817
G01 X180.105 Y303.577
G01 X182.266 Y303.719
G01 X185.988 Y306.097
G01 X189.717 Y308.210
G01 X197.952 Y305.381
G01 X204.797 Y303.093
G01 X206.177 Y302.550
G01 X188.566 Y319.554
G01 X196.599 Y316.798
G01 X196.808 Y316.716
G01 X203.066 Y310.664
G01 X206.177 Y302.550
G01 X198.501 Y305.930
G01 X190.400 Y308.670
G01 X183.038 Y310.508
G01 X189.302 Y304.463
G01 X197.520 Y301.638
G01 X201.874 Y302.243
G01 X206.158 Y302.550
G01 X206.177 Y302.550
G01 X212.442 Y296.503
G01 X218.716 Y290.436
G01 X213.639 Y302.092
G01 X209.929 Y313.309
G01 X216.194 Y307.266
G01 X219.315 Y299.130
G01 X218.843 Y294.830
G01 X218.714 Y290.608
G01 X218.716 Y290.436
G01 X201.095 Y307.455
G01 X204.215 Y299.326
G01 X210.487 Y293.275
G01 X215.527 Y291.692
G01 X218.716 Y290.436
G01 X221.277 Y283.582
G01 X221.829 Y282.322
G01 X223.463 Y277.589
G01 X224.948 Y274.191
G01 X216.989 Y278.885
G01 X208.524 Y282.842
G01 X199.609 Y286.024
G01 X190.300 Y288.398
G01 X180.654 Y289.933
G01 X178.641 Y290.142
G01 X163.739 Y304.262
G01 X161.021 Y307.147
G01 X169.264 Y304.304
G01 X175.522 Y298.266
G01 X177.906 Y291.847
G01 X178.641 Y290.142
G01 X155.488 Y298.105
G01 X161.762 Y292.061
G01 X169.997 Y289.221
G01 X177.502 Y290.068
G01 X178.641 Y290.142
G01 X184.910 Y284.086
G01 X191.167 Y278.044
G01 X168.012 Y286.016
G01 X176.099 Y286.891
G01 X176.673 Y286.926
G01 X184.910 Y284.086
G01 X191.167 Y278.044
G01 X183.164 Y277.921
G01 X175.048 Y277.074
G01 X166.871 Y275.492
G01 X166.814 Y275.478
G01 X175.046 Y272.646
G01 X183.710 Y273.554
G01 X187.218 Y275.844
G01 X190.785 Y277.847
G01 X191.167 Y278.044
G01 X199.404 Y275.201
G01 X207.642 Y272.366
G01 X201.701 Y272.545
G01 X195.652 Y272.190
G01 X189.534 Y271.290
G01 X183.385 Y269.840
G01 X183.279 Y269.810
G01 X186.889 Y272.161
G01 X190.563 Y274.209
G01 X190.738 Y274.298
G01 X196.584 Y275.030
G01 X199.404 Y275.201
G01 X207.642 Y272.366
G01 X204.432 Y271.270
G01 X201.232 Y269.912
G01 X198.061 Y268.288
G01 X194.938 Y266.399
G01 X191.880 Y264.246
G01 X188.907 Y261.831
G01 X186.647 Y259.757
G01 X195.305 Y260.667
G01 X198.373 Y262.727
G01 X201.505 Y264.513
G01 X202.770 Y265.150
G01 X204.016 Y267.282
G01 X205.356 Y269.329
G01 X206.785 Y271.286
G01 X207.642 Y272.366
G01 X211.256 Y272.956
G01 X214.821 Y273.249
G01 X216.284 Y273.285
G01 X218.933 Y273.789
G01 X221.547 Y274.091
G01 X224.112 Y274.198
G01 X224.948 Y274.191
G01 X207.342 Y291.192
G01 X213.056 Y289.356
G01 X215.570 Y288.366
G01 X221.829 Y282.322
G01 X223.463 Y277.589
G01 X224.948 Y274.191
G01 X219.032 Y277.097
G01 X212.782 Y279.470
G01 X206.236 Y281.286
G01 X201.796 Y282.165
G01 X208.065 Y276.111
G01 X216.284 Y273.285
G01 X218.933 Y273.789
G01 X221.547 Y274.091
G01 X224.112 Y274.198
G01 X224.948 Y274.191
G01 X231.207 Y268.147
G01 X237.483 Y262.087
G01 X219.859 Y279.105
G01 X223.723 Y277.993
G01 X227.399 Y276.577
G01 X228.097 Y276.266
G01 X234.350 Y270.228
G01 X235.183 Y267.324
G01 X236.258 Y264.555
G01 X237.483 Y262.087
G01 X233.504 Y264.434
G01 X229.272 Y266.413
G01 X224.815 Y268.005
G01 X220.160 Y269.192
G01 X215.338 Y269.960
G01 X214.331 Y270.065
G01 X218.814 Y265.581
G01 X220.595 Y264.017
G01 X228.821 Y261.183
G01 X230.376 Y261.628
G01 X231.921 Y261.948
G01 X233.448 Y262.147
G01 X234.948 Y262.225
G01 X236.415 Y262.188
G01 X237.483 Y262.087
G01 X242.069 Y257.658
G01 X242.383 Y258.114
G01 X242.723 Y258.557
G01 X243.088 Y258.987
G01 X243.478 Y259.401
G01 X243.892 Y259.798
G01 X244.330 Y260.176
G01 X244.790 Y260.536
G01 X245.271 Y260.874
G01 X245.774 Y261.190
G01 X246.296 Y261.483
G01 X246.837 Y261.752
G01 X247.395 Y261.995
G01 X247.970 Y262.211
G01 X248.559 Y262.399
G01 X249.163 Y262.559
G01 X249.389 Y262.610
G01 X248.790 Y319.189
G01 X247.070 Y417.574
G01 X237.327 Y440.082
G01 X225.604 Y461.598
G01 X213.298 Y471.960
G01 X206.585 Y476.985
G01 X215.024 Y474.896
G01 X221.786 Y469.418
G01 X225.604 Y461.598
G01 X214.492 Y464.738
G01 X203.014 Y467.286
G01 X201.844 Y467.508
G01 X208.611 Y462.023
G01 X217.050 Y459.930
G01 X225.604 Y461.598
G01 X232.380 Y456.098
G01 X239.138 Y450.631
G01 X228.408 Y472.630
G01 X235.169 Y467.169
G01 X238.982 Y459.335
G01 X239.138 Y450.631
G01 X228.266 Y459.912
G01 X220.109 Y466.042
G01 X223.923 Y458.224
G01 X230.685 Y452.732
G01 X239.138 Y450.631
G01 X242.963 Y442.797
G01 X246.765 Y434.972
G01 X246.337 Y459.468
G01 X250.164 Y451.625
G01 X250.312 Y442.925
G01 X246.765 Y434.972
G01 X236.224 Y456.626
G01 X236.031 Y456.979
G01 X236.179 Y448.294
G01 X240.013 Y440.463
G01 X246.765 Y434.972
G01 X246.917 Y426.273
G01 X247.070 Y417.574
G01 X238.237 Y426.429
G01 X228.530 Y434.798
G01 X217.977 Y442.617
G01 X209.023 Y448.387
G01 X198.285 Y470.389
G01 X205.047 Y464.924
G01 X208.861 Y457.104
G01 X209.023 Y448.387
G01 X195.918 Y459.378
G01 X189.977 Y463.810
G01 X193.797 Y455.970
G01 X200.576 Y450.498
G01 X209.023 Y448.387
G01 X212.840 Y440.561
G01 X216.657 Y432.733
G01 X204.981 Y442.643
G01 X197.611 Y448.141
G01 X206.063 Y446.036
G01 X212.840 Y440.561
G01 X216.657 Y432.733
G01 X206.611 Y435.667
G01 X196.200 Y438.044
G01 X192.879 Y438.668
G01 X199.660 Y433.184
G01 X208.104 Y431.066
G01 X216.657 Y432.733
G01 X223.411 Y427.267
G01 X230.177 Y421.785
G01 X221.131 Y424.481
G01 X211.774 Y426.693
G01 X206.420 Y427.709
G01 X214.968 Y429.361
G01 X223.411 Y427.267
G01 X230.177 Y421.785
G01 X221.780 Y420.554
G01 X213.457 Y418.913
G01 X206.137 Y417.114
G01 X214.594 Y414.994
G01 X222.721 Y416.603
G01 X223.139 Y416.674
G01 X230.177 Y421.785
G01 X238.635 Y419.670
G01 X247.017 Y417.589
G01 X247.070 Y417.574
G01 X237.502 Y437.464
G01 X236.348 Y439.584
G01 X243.114 Y434.096
G01 X246.917 Y426.273
G01 X247.070 Y417.574
G01 X238.315 Y425.256
G01 X228.802 Y432.462
G01 X228.050 Y432.988
G01 X231.861 Y425.163
G01 X238.635 Y419.670
G01 X247.017 Y417.589
G01 X247.070 Y417.574
G01 X250.897 Y409.747
G01 X254.713 Y401.927
G01 X246.955 Y418.453
G01 X243.982 Y423.921
G01 X250.744 Y418.448
G01 X254.550 Y410.636
G01 X254.713 Y401.927
G01 X247.132 Y408.700
G01 X238.897 Y415.080
G01 X235.677 Y417.338
G01 X239.492 Y409.504
G01 X246.259 Y404.030
G01 X253.775 Y402.186
G01 X254.713 Y401.927
G01 X258.528 Y394.098
G01 X262.341 Y386.267
G01 X261.484 Y435.244
G01 X252.615 Y453.812
G01 X250.749 Y457.249
G01 X257.512 Y451.760
G01 X261.342 Y443.944
G01 X261.484 Y435.244
G01 X252.477 Y443.071
G01 X242.729 Y450.441
G01 X242.456 Y450.633
G01 X246.281 Y442.814
G01 X253.038 Y437.350
G01 X261.484 Y435.244
G01 X265.298 Y427.417
G01 X269.126 Y419.575
G01 X268.692 Y444.077
G01 X272.517 Y436.244
G01 X272.654 Y427.536
G01 X269.126 Y419.575
G01 X261.738 Y435.395
G01 X258.381 Y441.592
G01 X258.532 Y432.901
G01 X262.348 Y425.065
G01 X269.126 Y419.575
G01 X269.270 Y410.875
G01 X269.416 Y402.166
G01 X279.389 Y424.543
G01 X279.530 Y415.841
G01 X276.003 Y407.898
G01 X269.416 Y402.166
G01 X268.995 Y426.657
G01 X265.447 Y418.694
G01 X265.603 Y409.991
G01 X269.416 Y402.166
G01 X265.888 Y394.228
G01 X262.341 Y386.267
G01 X256.267 Y401.920
G01 X248.685 Y417.269
G01 X240.872 Y430.294
G01 X240.453 Y454.778
G01 X244.270 Y446.942
G01 X244.410 Y438.242
G01 X240.872 Y430.294
G01 X230.134 Y452.302
G01 X230.285 Y443.599
G01 X234.099 Y435.771
G01 X240.872 Y430.294
G01 X241.020 Y421.590
G01 X241.182 Y412.886
G01 X230.953 Y433.958
G01 X230.442 Y434.894
G01 X237.208 Y429.395
G01 X241.020 Y421.590
G01 X241.182 Y412.886
G01 X232.332 Y420.641
G01 X222.702 Y427.900
G01 X222.145 Y428.287
G01 X225.963 Y420.464
G01 X232.733 Y414.974
G01 X240.997 Y412.937
G01 X241.182 Y412.886
G01 X244.993 Y405.044
G01 X248.810 Y397.220
G01 X241.183 Y404.054
G01 X232.883 Y410.476
G01 X229.780 Y412.648
G01 X237.998 Y410.585
G01 X238.231 Y410.519
G01 X244.993 Y405.044
G01 X248.810 Y397.220
G01 X241.442 Y399.524
G01 X233.846 Y401.454
G01 X226.040 Y402.992
G01 X225.050 Y403.156
G01 X231.820 Y397.685
G01 X239.276 Y395.851
G01 X240.263 Y395.575
G01 X247.398 Y396.985
G01 X248.810 Y397.220
G01 X255.575 Y391.740
G01 X262.097 Y386.478
G01 X262.341 Y386.267
G01 X261.920 Y410.759
G01 X265.731 Y402.918
G01 X265.888 Y394.228
G01 X262.341 Y386.267
G01 X256.180 Y399.826
G01 X251.601 Y408.267
G01 X251.752 Y399.565
G01 X255.575 Y391.740
G01 X262.097 Y386.478
G01 X262.341 Y386.267
G01 X262.492 Y377.565
G01 X262.648 Y368.854
G01 X262.217 Y393.355
G01 X266.042 Y385.529
G01 X266.183 Y376.822
G01 X262.648 Y368.854
G01 X257.445 Y380.643
G01 X251.904 Y390.862
G01 X252.064 Y382.159
G01 X255.875 Y374.336
G01 X261.571 Y369.785
G01 X262.648 Y368.854
G01 X262.793 Y360.160
G01 X262.945 Y351.452
G01 X272.249 Y375.103
G01 X282.865 Y396.202
G01 X282.437 Y420.670
G01 X286.262 Y412.836
G01 X286.401 Y404.135
G01 X282.865 Y396.202
G01 X277.494 Y408.243
G01 X272.129 Y418.201
G01 X272.284 Y409.501
G01 X276.100 Y401.671
G01 X282.657 Y396.380
G01 X282.865 Y396.202
G01 X283.022 Y387.490
G01 X283.171 Y378.771
G01 X293.136 Y401.140
G01 X293.286 Y392.443
G01 X289.744 Y384.501
G01 X283.171 Y378.771
G01 X282.750 Y403.265
G01 X279.203 Y395.320
G01 X279.361 Y386.605
G01 X283.171 Y378.771
G01 X279.632 Y370.819
G01 X276.086 Y362.875
G01 X284.198 Y370.652
G01 X293.131 Y377.883
G01 X294.571 Y378.939
G01 X291.023 Y370.984
G01 X284.467 Y365.283
G01 X277.940 Y363.471
G01 X276.086 Y362.875
G01 X286.054 Y385.252
G01 X279.486 Y379.536
G01 X275.943 Y371.588
G01 X276.086 Y362.875
G01 X269.524 Y357.161
G01 X263.441 Y351.918
G01 X262.945 Y351.452
G01 X262.091 Y400.415
G01 X272.049 Y422.799
G01 X272.205 Y414.079
G01 X268.671 Y406.138
G01 X262.091 Y400.415
G01 X261.669 Y424.911
G01 X258.123 Y416.953
G01 X258.270 Y408.234
G01 X262.091 Y400.415
G01 X258.546 Y392.469
G01 X255.008 Y384.507
G01 X254.582 Y408.984
G01 X258.401 Y401.167
G01 X258.546 Y392.469
G01 X255.008 Y384.507
G01 X248.228 Y399.239
G01 X244.271 Y406.520
G01 X244.427 Y397.820
G01 X248.252 Y389.989
G01 X254.928 Y384.576
G01 X255.008 Y384.507
G01 X255.162 Y375.794
G01 X255.310 Y367.105
G01 X249.509 Y380.050
G01 X244.588 Y389.120
G01 X251.352 Y383.618
G01 X255.162 Y375.794
G01 X255.310 Y367.105
G01 X249.538 Y372.517
G01 X243.247 Y377.631
G01 X236.454 Y382.411
G01 X236.291 Y382.518
G01 X240.106 Y374.683
G01 X246.399 Y369.616
G01 X246.866 Y369.209
G01 X252.687 Y367.831
G01 X255.310 Y367.105
G01 X259.136 Y359.269
G01 X262.945 Y351.452
G01 X271.538 Y371.105
G01 X272.905 Y373.824
G01 X273.061 Y365.113
G01 X269.524 Y357.161
G01 X263.441 Y351.918
G01 X262.945 Y351.452
G01 X262.522 Y375.929
G01 X258.986 Y367.983
G01 X259.136 Y359.269
G01 X262.945 Y351.452
G01 X259.411 Y343.503
G01 X255.871 Y335.549
G01 X261.804 Y349.906
G01 X265.827 Y357.921
G01 X265.983 Y349.221
G01 X262.434 Y341.257
G01 X257.539 Y337.115
G01 X255.871 Y335.549
G01 X255.441 Y360.016
G01 X251.900 Y352.082
G01 X252.047 Y343.378
G01 X255.871 Y335.549
G01 X252.322 Y327.590
G01 X248.782 Y319.639
G01 X244.165 Y337.523
G01 X237.792 Y355.077
G01 X229.688 Y372.174
G01 X219.884 Y388.685
G01 X208.419 Y404.486
G01 X205.843 Y407.658
G01 X204.747 Y448.634
G01 X204.989 Y456.629
G01 X194.266 Y478.655
G01 X201.036 Y473.167
G01 X204.847 Y465.342
G01 X204.989 Y456.629
G01 X191.119 Y468.200
G01 X185.960 Y472.050
G01 X189.770 Y464.219
G01 X196.548 Y458.740
G01 X204.989 Y456.629
G01 X208.813 Y448.803
G01 X212.620 Y440.976
G01 X212.197 Y465.459
G01 X216.026 Y457.639
G01 X216.160 Y448.942
G01 X212.620 Y440.976
G01 X201.884 Y462.983
G01 X202.039 Y454.296
G01 X205.860 Y446.478
G01 X212.620 Y440.976
G01 X212.785 Y432.290
G01 X212.931 Y423.586
G01 X219.296 Y438.704
G01 X222.888 Y445.958
G01 X223.043 Y437.244
G01 X219.502 Y429.300
G01 X212.931 Y423.586
G01 X212.508 Y448.058
G01 X208.968 Y440.097
G01 X209.114 Y431.399
G01 X212.931 Y423.586
G01 X209.385 Y415.618
G01 X205.843 Y407.658
G01 X184.372 Y451.691
G01 X183.959 Y476.181
G01 X187.759 Y468.352
G01 X187.920 Y459.652
G01 X184.372 Y451.691
G01 X173.654 Y473.706
G01 X173.806 Y464.998
G01 X177.606 Y457.165
G01 X184.372 Y451.691
G01 X184.530 Y442.971
G01 X184.695 Y434.270
G01 X173.956 Y456.280
G01 X180.706 Y450.805
G01 X184.530 Y442.971
G01 X184.695 Y434.270
G01 X169.020 Y447.190
G01 X165.647 Y449.690
G01 X169.473 Y441.861
G01 X176.229 Y436.382
G01 X184.695 Y434.270
G01 X188.493 Y426.463
G01 X192.317 Y418.632
G01 X178.228 Y430.389
G01 X173.290 Y434.054
G01 X181.729 Y431.938
G01 X188.493 Y426.463
G01 X192.317 Y418.632
G01 X181.670 Y421.737
G01 X170.585 Y424.188
G01 X168.549 Y424.557
G01 X175.331 Y419.070
G01 X183.776 Y416.972
G01 X192.317 Y418.632
G01 X199.090 Y413.141
G01 X205.843 Y407.658
G01 X205.427 Y432.151
G01 X209.241 Y424.323
G01 X209.385 Y415.618
G01 X205.843 Y407.658
G01 X195.110 Y429.678
G01 X195.271 Y420.979
G01 X199.090 Y413.141
G01 X205.843 Y407.658
G01 X206.004 Y398.964
G01 X206.154 Y390.256
G01 X205.716 Y414.752
G01 X209.534 Y406.916
G01 X209.699 Y398.219
G01 X206.154 Y390.256
G01 X195.418 Y412.266
G01 X195.577 Y403.566
G01 X199.383 Y395.735
G01 X206.154 Y390.256
G01 X206.303 Y381.558
G01 X206.458 Y372.863
G01 X184.996 Y416.860
G01 X169.715 Y429.505
G01 X165.962 Y432.286
G01 X174.397 Y430.181
G01 X181.173 Y424.706
G01 X184.996 Y416.860
G01 X173.932 Y420.076
G01 X162.403 Y422.592
G01 X161.222 Y422.804
G01 X168.003 Y417.312
G01 X176.441 Y415.214
G01 X184.996 Y416.860
G01 X191.750 Y411.384
G01 X198.522 Y405.922
G01 X187.789 Y427.912
G01 X194.559 Y422.431
G01 X198.359 Y414.615
G01 X198.522 Y405.922
G01 X185.736 Y416.690
G01 X179.477 Y421.328
G01 X183.312 Y413.497
G01 X190.073 Y408.018
G01 X198.522 Y405.922
G01 X202.335 Y398.093
G01 X206.154 Y390.256
G01 X205.716 Y414.752
G01 X209.534 Y406.916
G01 X209.699 Y398.219
G01 X206.154 Y390.256
G01 X195.418 Y412.266
G01 X195.577 Y403.566
G01 X199.383 Y395.735
G01 X206.154 Y390.256
G01 X206.303 Y381.558
G01 X206.458 Y372.863
G01 X194.967 Y384.007
G01 X182.291 Y394.286
G01 X168.489 Y403.614
G01 X168.390 Y403.674
G01 X157.665 Y425.689
G01 X164.425 Y420.197
G01 X168.235 Y412.375
G01 X168.390 Y403.674
G01 X149.357 Y419.090
G01 X153.180 Y411.269
G01 X159.946 Y405.767
G01 X168.390 Y403.674
G01 X172.208 Y395.851
G01 X176.026 Y388.027
G01 X158.433 Y402.385
G01 X157.000 Y403.442
G01 X165.437 Y401.325
G01 X172.208 Y395.851
G01 X176.026 Y388.027
G01 X165.133 Y391.237
G01 X153.756 Y393.693
G01 X152.258 Y393.953
G01 X159.028 Y388.464
G01 X167.488 Y386.353
G01 X175.518 Y387.941
G01 X176.026 Y388.027
G01 X182.796 Y382.535
G01 X189.563 Y377.059
G01 X180.179 Y379.938
G01 X170.374 Y382.188
G01 X165.807 Y382.990
G01 X173.793 Y384.561
G01 X174.347 Y384.653
G01 X182.796 Y382.535
G01 X189.563 Y377.059
G01 X182.237 Y376.108
G01 X174.861 Y374.738
G01 X167.460 Y372.944
G01 X165.523 Y372.404
G01 X173.968 Y370.285
G01 X181.174 Y371.727
G01 X182.522 Y371.951
G01 X188.121 Y376.066
G01 X189.563 Y377.059
G01 X197.904 Y374.994
G01 X198.006 Y374.965
G01 X205.746 Y373.065
G01 X206.458 Y372.863
G01 X195.723 Y394.866
G01 X202.496 Y389.377
G01 X206.303 Y381.558
G01 X206.458 Y372.863
G01 X195.748 Y382.105
G01 X187.422 Y388.274
G01 X191.241 Y380.425
G01 X198.006 Y374.965
G01 X205.746 Y373.065
G01 X206.458 Y372.863
G01 X210.266 Y365.031
G01 X214.086 Y357.194
G01 X203.348 Y379.211
G01 X210.121 Y373.732
G01 X213.928 Y365.917
G01 X214.086 Y357.194
G01 X204.988 Y365.240
G01 X195.060 Y372.603
G01 X198.881 Y364.782
G01 X205.640 Y359.318
G01 X212.341 Y357.694
G01 X214.086 Y357.194
G01 X217.907 Y349.371
G01 X221.720 Y341.557
G01 X213.573 Y350.206
G01 X204.517 Y358.252
G01 X194.595 Y365.627
G01 X183.850 Y372.265
G01 X183.657 Y372.373
G01 X173.855 Y375.355
G01 X163.609 Y377.653
G01 X159.895 Y378.295
G01 X167.991 Y379.882
G01 X168.453 Y379.959
G01 X176.901 Y377.853
G01 X183.657 Y372.373
G01 X176.248 Y371.414
G01 X168.778 Y370.016
G01 X161.271 Y368.171
G01 X159.626 Y367.708
G01 X168.076 Y365.587
G01 X175.386 Y367.051
G01 X176.619 Y367.256
G01 X182.125 Y371.316
G01 X183.657 Y372.373
G01 X192.113 Y370.269
G01 X200.046 Y368.317
G01 X200.554 Y368.172
G01 X188.805 Y378.195
G01 X181.529 Y383.573
G01 X189.977 Y381.471
G01 X196.739 Y375.979
G01 X200.554 Y368.172
G01 X192.344 Y370.781
G01 X183.765 Y372.856
G01 X176.795 Y374.091
G01 X183.563 Y368.611
G01 X192.012 Y366.490
G01 X198.405 Y367.807
G01 X200.554 Y368.172
G01 X207.316 Y362.687
G01 X214.086 Y357.194
G01 X203.348 Y379.211
G01 X210.121 Y373.732
G01 X213.928 Y365.917
G01 X214.086 Y357.194
G01 X204.988 Y365.240
G01 X195.060 Y372.603
G01 X198.881 Y364.782
G01 X205.640 Y359.318
G01 X212.341 Y357.694
G01 X214.086 Y357.194
G01 X217.907 Y349.371
G01 X221.720 Y341.557
G01 X215.631 Y344.544
G01 X209.185 Y347.144
G01 X202.405 Y349.328
G01 X195.317 Y351.070
G01 X187.950 Y352.346
G01 X180.331 Y353.133
G01 X174.204 Y353.394
G01 X155.168 Y368.821
G01 X163.615 Y366.708
G01 X170.386 Y361.216
G01 X174.204 Y353.394
G01 X163.487 Y356.618
G01 X152.284 Y359.023
G01 X150.433 Y359.332
G01 X157.196 Y353.851
G01 X165.659 Y351.736
G01 X172.704 Y353.149
G01 X174.204 Y353.394
G01 X180.970 Y347.913
G01 X187.736 Y342.435
G01 X178.784 Y345.277
G01 X169.414 Y347.449
G01 X163.974 Y348.364
G01 X171.029 Y349.782
G01 X172.517 Y350.025
G01 X180.970 Y347.913
G01 X187.736 Y342.435
G01 X181.417 Y341.755
G01 X175.018 Y340.672
G01 X168.566 Y339.176
G01 X163.691 Y337.774
G01 X172.149 Y335.658
G01 X178.431 Y336.963
G01 X180.683 Y337.335
G01 X185.070 Y340.605
G01 X187.736 Y342.435
G01 X195.229 Y340.610
G01 X196.184 Y340.334
G01 X202.871 Y338.743
G01 X204.622 Y338.241
G01 X199.289 Y337.739
G01 X193.898 Y336.921
G01 X188.468 Y335.782
G01 X183.017 Y334.315
G01 X180.590 Y333.556
G01 X184.856 Y336.751
G01 X187.645 Y338.670
G01 X193.199 Y339.839
G01 X196.184 Y340.334
G01 X202.871 Y338.743
G01 X204.622 Y338.241
G01 X200.419 Y335.784
G01 X196.347 Y333.127
G01 X192.416 Y330.278
G01 X188.636 Y327.243
G01 X185.014 Y324.031
G01 X184.815 Y323.846
G01 X190.105 Y324.968
G01 X193.369 Y325.495
G01 X197.059 Y328.304
G01 X200.408 Y330.618
G01 X203.010 Y335.527
G01 X204.622 Y338.241
G01 X209.494 Y339.285
G01 X213.174 Y339.900
G01 X217.872 Y340.911
G01 X221.720 Y341.557
G01 X214.228 Y348.403
G01 X206.004 Y354.714
G01 X202.699 Y356.957
G01 X209.473 Y355.332
G01 X211.143 Y354.857
G01 X217.907 Y349.371
G01 X221.720 Y341.557
G01 X215.971 Y343.607
G01 X209.957 Y345.305
G01 X203.697 Y346.631
G01 X197.958 Y347.478
G01 X204.734 Y341.991
G01 X210.831 Y340.566
G01 X213.174 Y339.900
G01 X217.872 Y340.911
G01 X221.720 Y341.557
G01 X227.826 Y336.662
G01 X228.489 Y336.078
G01 X233.755 Y331.906
G01 X235.254 Y330.587
G01 X229.905 Y335.797
G01 X224.012 Y340.663
G01 X217.598 Y345.142
G01 X216.224 Y346.007
G01 X221.822 Y344.702
G01 X224.672 Y343.894
G01 X230.585 Y339.166
G01 X231.432 Y338.421
G01 X235.254 Y330.587
G01 X230.716 Y332.334
G01 X225.972 Y333.823
G01 X221.038 Y335.040
G01 X215.929 Y335.968
G01 X211.490 Y336.516
G01 X218.264 Y331.032
G01 X223.134 Y329.944
G01 X226.704 Y328.934
G01 X230.646 Y329.813
G01 X234.618 Y330.496
G01 X235.254 Y330.587
G01 X239.774 Y327.083
G01 X242.015 Y325.127
G01 X245.897 Y322.157
G01 X248.782 Y319.639
G01 X247.926 Y368.607
G01 X241.103 Y383.447
G01 X237.199 Y390.619
G01 X243.957 Y385.140
G01 X247.774 Y377.306
G01 X247.926 Y368.607
G01 X241.707 Y374.383
G01 X234.918 Y379.820
G01 X228.896 Y384.024
G01 X232.720 Y376.197
G01 X239.470 Y370.731
G01 X239.485 Y370.718
G01 X245.489 Y369.286
G01 X247.926 Y368.607
G01 X251.741 Y360.786
G01 X255.566 Y352.950
G01 X255.141 Y377.446
G01 X258.954 Y369.615
G01 X259.105 Y360.902
G01 X255.566 Y352.950
G01 X250.564 Y364.406
G01 X244.825 Y374.968
G01 X244.976 Y366.266
G01 X248.798 Y358.443
G01 X253.967 Y354.341
G01 X255.566 Y352.950
G01 X255.711 Y344.252
G01 X255.871 Y335.549
G01 X261.804 Y349.906
G01 X265.827 Y357.921
G01 X265.983 Y349.221
G01 X262.434 Y341.257
G01 X257.539 Y337.115
G01 X255.871 Y335.549
G01 X255.441 Y360.016
G01 X251.900 Y352.082
G01 X252.047 Y343.378
G01 X255.871 Y335.549
G01 X252.322 Y327.590
G01 X248.782 Y319.639
G01 X244.525 Y332.116
G01 X239.043 Y344.311
G01 X232.354 Y356.137
G01 X227.317 Y363.659
G01 X226.888 Y388.130
G01 X230.708 Y380.305
G01 X230.864 Y371.604
G01 X227.317 Y363.659
G01 X216.585 Y385.671
G01 X216.730 Y376.963
G01 X220.544 Y369.138
G01 X227.317 Y363.659
G01 X227.466 Y354.958
G01 X227.616 Y346.257
G01 X216.880 Y368.249
G01 X223.658 Y362.764
G01 X227.466 Y354.958
G01 X227.616 Y346.257
G01 X220.770 Y352.587
G01 X213.254 Y358.460
G01 X208.590 Y361.643
G01 X212.407 Y353.829
G01 X219.167 Y348.355
G01 X224.728 Y347.069
G01 X227.616 Y346.257
G01 X231.432 Y338.421
G01 X235.254 Y330.587
G01 X229.905 Y335.797
G01 X224.012 Y340.663
G01 X217.598 Y345.142
G01 X216.224 Y346.007
G01 X221.822 Y344.702
G01 X224.672 Y343.894
G01 X230.585 Y339.166
G01 X231.432 Y338.421
G01 X235.254 Y330.587
G01 X230.716 Y332.334
G01 X225.972 Y333.823
G01 X221.038 Y335.040
G01 X215.929 Y335.968
G01 X211.490 Y336.516
G01 X218.264 Y331.032
G01 X223.134 Y329.944
G01 X226.704 Y328.934
G01 X230.646 Y329.813
G01 X234.618 Y330.496
G01 X235.254 Y330.587
G01 X239.774 Y327.083
G01 X242.015 Y325.127
G01 X245.897 Y322.157
G01 X248.782 Y319.639
G01 X248.354 Y344.111
G01 X252.176 Y336.298
G01 X252.322 Y327.590
G01 X248.782 Y319.639
G01 X244.704 Y329.438
G01 X239.662 Y338.980
G01 X238.047 Y341.649
G01 X238.203 Y332.940
G01 X242.015 Y325.127
G01 X245.897 Y322.157
G01 X248.782 Y319.639
G01 X248.934 Y310.941
G01 X249.087 Y302.217
G01 X248.659 Y326.713
G01 X252.198 Y319.520
G01 X252.475 Y318.881
G01 X252.627 Y310.193
G01 X249.706 Y303.802
G01 X249.087 Y302.217
G01 X245.984 Y310.240
G01 X242.092 Y318.064
G01 X238.355 Y324.242
G01 X238.510 Y315.525
G01 X242.320 Y307.716
G01 X245.375 Y305.467
G01 X248.189 Y303.063
G01 X249.087 Y302.217
G01 X249.239 Y293.518
G01 X249.391 Y284.820
G01 X248.535 Y333.787
G01 X243.663 Y345.041
G01 X237.802 Y355.799
G01 X243.329 Y351.388
G01 X244.570 Y350.303
G01 X248.383 Y342.486
G01 X248.535 Y333.787
G01 X244.118 Y338.218
G01 X239.264 Y342.405
G01 X233.987 Y346.318
G01 X229.509 Y349.206
G01 X233.328 Y341.366
G01 X238.461 Y337.308
G01 X240.090 Y335.880
G01 X244.404 Y334.930
G01 X248.535 Y333.787
G01 X252.357 Y325.963
G01 X255.580 Y319.506
G01 X256.171 Y318.146
G01 X255.742 Y342.622
G01 X259.473 Y334.993
G01 X259.563 Y334.787
G01 X259.708 Y326.083
G01 X256.171 Y318.146
G01 X253.134 Y325.964
G01 X249.343 Y333.629
G01 X245.437 Y340.135
G01 X245.591 Y331.431
G01 X249.405 Y323.623
G01 X252.912 Y320.971
G01 X256.157 Y318.159
G01 X256.171 Y318.146
G01 X256.325 Y309.439
G01 X256.471 Y300.714
G01 X261.123 Y312.546
G01 X266.432 Y323.101
G01 X266.589 Y314.398
G01 X263.043 Y306.437
G01 X259.668 Y303.731
G01 X256.591 Y300.837
G01 X256.471 Y300.714
G01 X256.046 Y325.207
G01 X252.504 Y317.253
G01 X252.655 Y308.540
G01 X255.100 Y303.862
G01 X256.471 Y300.714
G01 X253.436 Y294.057
G01 X252.935 Y292.774
G01 X250.744 Y288.273
G01 X249.391 Y284.820
G01 X247.082 Y293.764
G01 X243.896 Y302.543
G01 X239.843 Y311.094
G01 X234.940 Y319.352
G01 X229.207 Y327.255
G01 X227.918 Y328.841
G01 X227.371 Y349.329
G01 X227.492 Y353.327
G01 X231.310 Y345.488
G01 X231.466 Y336.793
G01 X228.610 Y330.577
G01 X227.918 Y328.841
G01 X217.186 Y350.846
G01 X217.348 Y342.135
G01 X221.163 Y334.304
G01 X227.072 Y329.586
G01 X227.918 Y328.841
G01 X228.077 Y320.128
G01 X228.229 Y311.431
G01 X217.493 Y333.442
G01 X223.830 Y328.342
G01 X224.261 Y327.961
G01 X228.077 Y320.128
G01 X228.229 Y311.431
G01 X222.484 Y317.003
G01 X216.146 Y322.143
G01 X209.244 Y326.807
G01 X209.195 Y326.837
G01 X213.013 Y319.013
G01 X219.782 Y313.529
G01 X223.881 Y312.668
G01 X227.820 Y311.563
G01 X228.229 Y311.431
G01 X232.043 Y303.597
G01 X235.864 Y295.766
G01 X231.789 Y300.094
G01 X227.261 Y304.120
G01 X222.299 Y307.811
G01 X216.925 Y311.133
G01 X216.829 Y311.187
G01 X221.044 Y310.297
G01 X225.090 Y309.147
G01 X225.277 Y309.086
G01 X229.928 Y305.470
G01 X232.043 Y303.597
G01 X235.864 Y295.766
G01 X232.819 Y297.262
G01 X229.596 Y298.564
G01 X226.205 Y299.658
G01 X222.661 Y300.531
G01 X218.977 Y301.170
G01 X215.166 Y301.565
G01 X212.102 Y301.697
G01 X218.868 Y296.218
G01 X222.494 Y295.505
G01 X225.971 Y294.554
G01 X227.317 Y294.109
G01 X229.705 Y294.736
G01 X232.099 Y295.235
G01 X234.494 Y295.609
G01 X235.864 Y295.766
G01 X238.837 Y293.628
G01 X241.564 Y291.315
G01 X242.625 Y290.306
G01 X244.854 Y288.789
G01 X246.916 Y287.154
G01 X248.805 Y285.416
G01 X249.391 Y284.820
G01 X248.963 Y309.291
G01 X251.706 Y303.952
G01 X252.783 Y301.475
G01 X252.935 Y292.774
G01 X250.744 Y288.273
G01 X249.391 Y284.820
G01 X247.263 Y291.058
G01 X244.522 Y297.156
G01 X241.177 Y303.068
G01 X238.658 Y306.829
G01 X238.811 Y298.116
G01 X242.625 Y290.306
G01 X244.854 Y288.789
G01 X246.916 Y287.154
G01 X248.805 Y285.416
G01 X249.391 Y284.820
G01 X249.543 Y276.121
G01 X249.696 Y267.397
G01 X249.267 Y291.894
G01 X251.213 Y288.375
G01 X252.812 Y284.774
G01 X253.085 Y284.061
G01 X253.237 Y275.369
G01 X251.772 Y272.727
G01 X250.575 Y270.009
G01 X249.696 Y267.397
G01 X248.542 Y271.869
G01 X246.949 Y276.259
G01 X244.923 Y280.535
G01 X242.473 Y284.664
G01 X239.607 Y288.615
G01 X238.962 Y289.408
G01 X238.965 Y283.060
G01 X239.119 Y280.704
G01 X242.932 Y272.883
G01 X244.346 Y272.098
G01 X245.665 Y271.232
G01 X246.885 Y270.293
G01 X248.002 Y269.288
G01 X249.012 Y268.225
G01 X249.696 Y267.397
G01 X249.807 Y261.023
G01 X250.352 Y261.124
G01 X250.905 Y261.197
G01 X251.467 Y261.242
G01 X252.036 Y261.259
G01 X252.609 Y261.247
G01 X253.186 Y261.205
G01 X253.766 Y261.134
G01 X254.346 Y261.033
G01 X254.925 Y260.901
G01 X255.501 Y260.739
G01 X256.073 Y260.546
G01 X256.640 Y260.323
G01 X257.199 Y260.070
G01 X257.749 Y259.786
G01 X258.288 Y259.472
G01 X258.485 Y259.349
G01 X298.069 Y299.780
G01 X366.421 Y370.565
G01 X375.447 Y393.369
G01 X382.373 Y416.873
G01 X380.997 Y432.902
G01 X379.804 Y441.202
G01 X384.294 Y433.757
G01 X385.202 Y425.103
G01 X382.373 Y416.873
G01 X376.735 Y426.951
G01 X370.421 Y436.868
G01 X369.750 Y437.853
G01 X370.657 Y429.189
G01 X375.144 Y421.742
G01 X382.373 Y416.873
G01 X383.275 Y408.192
G01 X384.188 Y399.548
G01 X392.156 Y422.691
G01 X393.075 Y414.048
G01 X390.232 Y405.813
G01 X384.188 Y399.548
G01 X383.062 Y413.798
G01 X381.629 Y423.901
G01 X378.798 Y415.675
G01 X379.696 Y407.010
G01 X384.188 Y399.548
G01 X381.352 Y391.304
G01 X378.508 Y383.082
G01 X395.526 Y400.706
G01 X392.687 Y392.454
G01 X386.639 Y386.198
G01 X378.508 Y383.082
G01 X386.366 Y405.847
G01 X386.479 Y406.233
G01 X380.443 Y399.987
G01 X377.617 Y391.739
G01 X378.508 Y383.082
G01 X372.464 Y376.823
G01 X366.421 Y370.565
G01 X366.437 Y383.071
G01 X365.491 Y395.853
G01 X363.557 Y408.845
G01 X361.306 Y419.256
G01 X369.270 Y442.406
G01 X370.188 Y433.761
G01 X367.355 Y425.534
G01 X361.306 Y419.256
G01 X359.811 Y436.294
G01 X358.744 Y443.629
G01 X355.901 Y435.384
G01 X356.826 Y426.721
G01 X361.306 Y419.256
G01 X358.471 Y411.022
G01 X355.635 Y402.789
G01 X354.386 Y418.052
G01 X353.063 Y427.151
G01 X357.551 Y419.687
G01 X358.471 Y411.022
G01 X355.635 Y402.789
G01 X350.606 Y411.967
G01 X344.925 Y421.010
G01 X343.018 Y423.798
G01 X343.935 Y415.126
G01 X348.408 Y407.658
G01 X355.635 Y402.789
G01 X356.546 Y394.148
G01 X357.454 Y385.487
G01 X352.963 Y393.790
G01 X347.911 Y401.971
G01 X344.844 Y406.475
G01 X352.057 Y401.598
G01 X356.546 Y394.148
G01 X357.454 Y385.487
G01 X350.646 Y390.554
G01 X343.600 Y395.280
G01 X337.152 Y399.184
G01 X341.633 Y391.704
G01 X348.517 Y387.095
G01 X348.863 Y386.850
G01 X357.454 Y385.487
G01 X361.938 Y378.011
G01 X366.394 Y370.612
G01 X366.421 Y370.565
G01 X373.720 Y391.395
G01 X374.403 Y393.709
G01 X375.307 Y385.044
G01 X372.464 Y376.823
G01 X366.421 Y370.565
G01 X365.663 Y382.186
G01 X364.031 Y394.009
G01 X363.871 Y394.913
G01 X361.033 Y386.685
G01 X361.938 Y378.011
G01 X366.394 Y370.612
G01 X366.421 Y370.565
G01 X363.593 Y362.324
G01 X360.762 Y354.095
G01 X366.944 Y371.249
G01 X368.713 Y377.247
G01 X369.637 Y368.585
G01 X366.804 Y360.369
G01 X360.762 Y354.095
G01 X360.190 Y364.246
G01 X358.878 Y374.580
G01 X358.198 Y378.454
G01 X355.356 Y370.217
G01 X356.270 Y361.561
G01 X360.282 Y354.942
G01 X360.762 Y354.095
G01 X357.923 Y345.862
G01 X355.082 Y337.629
G01 X389.108 Y372.867
G01 X395.966 Y392.268
G01 X397.077 Y396.017
G01 X397.978 Y387.354
G01 X395.159 Y379.119
G01 X389.108 Y372.867
G01 X388.273 Y384.770
G01 X386.592 Y396.874
G01 X386.535 Y397.204
G01 X383.711 Y388.970
G01 X384.625 Y380.328
G01 X389.108 Y372.867
G01 X386.270 Y364.635
G01 X383.421 Y356.396
G01 X400.450 Y374.016
G01 X397.616 Y365.772
G01 X391.555 Y359.518
G01 X383.421 Y356.396
G01 X389.398 Y372.823
G01 X391.402 Y379.550
G01 X385.364 Y373.297
G01 X382.521 Y365.058
G01 X383.421 Y356.396
G01 X377.382 Y350.130
G01 X371.327 Y343.868
G01 X394.202 Y352.639
G01 X388.149 Y346.386
G01 X380.038 Y343.264
G01 X371.327 Y343.868
G01 X388.347 Y361.483
G01 X380.208 Y358.362
G01 X374.164 Y352.098
G01 X371.327 Y343.868
G01 X363.219 Y340.750
G01 X355.082 Y337.629
G01 X361.855 Y352.992
G01 X367.347 Y369.206
G01 X371.033 Y383.941
G01 X388.049 Y401.550
G01 X385.208 Y393.310
G01 X379.155 Y387.059
G01 X371.033 Y383.941
G01 X379.002 Y407.096
G01 X372.955 Y400.835
G01 X370.116 Y392.603
G01 X371.033 Y383.941
G01 X364.983 Y377.682
G01 X358.943 Y371.413
G01 X366.610 Y393.546
G01 X366.910 Y394.568
G01 X367.806 Y385.896
G01 X364.983 Y377.682
G01 X358.943 Y371.413
G01 X358.169 Y383.155
G01 X356.492 Y395.097
G01 X356.372 Y395.764
G01 X353.540 Y387.532
G01 X354.445 Y378.864
G01 X358.848 Y371.580
G01 X358.943 Y371.413
G01 X356.092 Y363.173
G01 X353.259 Y354.942
G01 X352.698 Y365.167
G01 X351.371 Y375.577
G01 X350.712 Y379.307
G01 X355.064 Y372.037
G01 X355.183 Y371.826
G01 X356.092 Y363.173
G01 X353.259 Y354.942
G01 X349.678 Y361.781
G01 X345.671 Y368.517
G01 X341.240 Y375.124
G01 X340.656 Y375.940
G01 X341.574 Y367.284
G01 X345.549 Y360.715
G01 X346.052 Y359.822
G01 X352.095 Y355.774
G01 X353.259 Y354.942
G01 X354.168 Y346.283
G01 X355.058 Y337.951
G01 X355.082 Y337.629
G01 X372.103 Y355.244
G01 X369.253 Y347.005
G01 X363.219 Y340.750
G01 X355.082 Y337.629
G01 X360.314 Y351.573
G01 X363.044 Y360.779
G01 X356.997 Y354.519
G01 X354.168 Y346.283
G01 X355.058 Y337.951
G01 X355.082 Y337.629
G01 X349.035 Y331.369
G01 X342.986 Y325.099
G01 X360.006 Y342.729
G01 X357.177 Y334.490
G01 X351.119 Y328.234
G01 X342.986 Y325.099
G01 X347.643 Y337.114
G01 X350.951 Y348.258
G01 X344.910 Y341.991
G01 X342.073 Y333.765
G01 X342.883 Y326.518
G01 X342.986 Y325.099
G01 X336.941 Y318.848
G01 X330.892 Y312.584
G01 X354.194 Y322.729
G01 X376.619 Y330.141
G01 X393.618 Y347.745
G01 X390.784 Y339.501
G01 X384.730 Y333.250
G01 X376.619 Y330.141
G01 X381.336 Y342.453
G01 X384.584 Y353.288
G01 X378.542 Y347.026
G01 X375.703 Y338.792
G01 X376.599 Y330.414
G01 X376.619 Y330.141
G01 X370.570 Y323.870
G01 X364.511 Y317.599
G01 X387.374 Y326.370
G01 X381.331 Y320.115
G01 X373.210 Y317.003
G01 X364.511 Y317.599
G01 X381.533 Y335.217
G01 X373.406 Y332.107
G01 X367.356 Y325.833
G01 X364.511 Y317.599
G01 X356.385 Y314.479
G01 X348.260 Y311.369
G01 X359.496 Y311.132
G01 X370.925 Y309.928
G01 X372.690 Y309.657
G01 X364.557 Y306.540
G01 X355.889 Y307.146
G01 X349.993 Y310.479
G01 X348.260 Y311.369
G01 X371.132 Y320.143
G01 X362.446 Y320.746
G01 X354.320 Y317.631
G01 X348.260 Y311.369
G01 X339.580 Y311.969
G01 X331.572 Y312.562
G01 X330.892 Y312.584
G01 X364.909 Y347.809
G01 X387.779 Y356.596
G01 X381.723 Y350.320
G01 X373.608 Y347.203
G01 X364.909 Y347.809
G01 X381.932 Y365.429
G01 X373.797 Y362.309
G01 X367.736 Y356.041
G01 X364.909 Y347.809
G01 X356.784 Y344.697
G01 X348.652 Y341.569
G01 X365.659 Y359.178
G01 X362.831 Y350.951
G01 X356.784 Y344.697
G01 X348.652 Y341.569
G01 X354.275 Y356.781
G01 X356.626 Y364.727
G01 X350.584 Y358.465
G01 X347.751 Y350.223
G01 X348.645 Y341.675
G01 X348.652 Y341.569
G01 X342.600 Y335.299
G01 X336.561 Y329.050
G01 X341.612 Y342.306
G01 X344.546 Y352.200
G01 X345.438 Y343.526
G01 X342.600 Y335.299
G01 X336.561 Y329.050
G01 X336.306 Y336.959
G01 X335.474 Y345.024
G01 X334.051 Y353.207
G01 X334.011 Y353.398
G01 X331.168 Y345.160
G01 X332.035 Y337.127
G01 X332.077 Y336.509
G01 X335.219 Y331.419
G01 X336.561 Y329.050
G01 X333.725 Y320.805
G01 X330.892 Y312.584
G01 X350.864 Y320.405
G01 X353.754 Y321.360
G01 X347.704 Y315.090
G01 X339.580 Y311.969
G01 X331.572 Y312.562
G01 X330.892 Y312.584
G01 X347.900 Y330.190
G01 X339.781 Y327.073
G01 X333.725 Y320.805
G01 X330.892 Y312.584
G01 X322.771 Y309.461
G01 X314.643 Y306.341
G01 X328.990 Y312.297
G01 X337.503 Y315.120
G01 X331.462 Y308.858
G01 X323.320 Y305.736
G01 X316.931 Y306.269
G01 X314.643 Y306.341
G01 X331.640 Y323.945
G01 X323.527 Y320.839
G01 X317.475 Y314.581
G01 X314.643 Y306.341
G01 X306.506 Y303.223
G01 X298.381 Y300.103
G01 X307.762 Y316.014
G01 X315.669 Y332.933
G01 X322.027 Y350.752
G01 X326.770 Y369.361
G01 X329.837 Y388.640
G01 X330.257 Y392.705
G01 X358.457 Y422.454
G01 X364.281 Y427.937
G01 X372.274 Y451.094
G01 X373.180 Y442.425
G01 X370.342 Y434.198
G01 X364.281 Y427.937
G01 X362.656 Y445.926
G01 X361.730 Y452.296
G01 X358.887 Y444.064
G01 X359.805 Y435.398
G01 X364.281 Y427.937
G01 X361.452 Y419.699
G01 X358.610 Y411.472
G01 X375.622 Y429.083
G01 X372.800 Y420.846
G01 X366.746 Y414.602
G01 X358.610 Y411.472
G01 X366.579 Y434.624
G01 X360.546 Y428.372
G01 X357.720 Y420.142
G01 X358.610 Y411.472
G01 X352.584 Y405.213
G01 X346.533 Y398.955
G01 X361.723 Y405.145
G01 X369.392 Y407.735
G01 X363.341 Y401.463
G01 X355.219 Y398.349
G01 X346.533 Y398.955
G01 X363.537 Y416.559
G01 X355.405 Y413.433
G01 X349.359 Y407.179
G01 X346.533 Y398.955
G01 X338.391 Y395.828
G01 X330.257 Y392.705
G01 X346.211 Y439.023
G01 X363.236 Y456.632
G01 X360.388 Y448.409
G01 X354.349 Y442.143
G01 X346.211 Y439.023
G01 X354.178 Y462.179
G01 X348.149 Y455.904
G01 X345.298 Y447.678
G01 X346.211 Y439.023
G01 X340.158 Y432.745
G01 X334.122 Y426.476
G01 X342.091 Y449.633
G01 X342.993 Y440.989
G01 X340.158 Y432.745
G01 X334.122 Y426.476
G01 X332.173 Y446.696
G01 X331.555 Y450.848
G01 X328.725 Y442.607
G01 X329.628 Y433.955
G01 X334.122 Y426.476
G01 X331.287 Y418.270
G01 X328.454 Y410.029
G01 X326.794 Y428.282
G01 X325.886 Y434.395
G01 X330.375 Y426.924
G01 X331.287 Y418.270
G01 X328.454 Y410.029
G01 X323.120 Y419.753
G01 X317.015 Y429.324
G01 X315.836 Y431.025
G01 X316.752 Y422.350
G01 X321.240 Y414.894
G01 X328.454 Y410.029
G01 X329.360 Y401.357
G01 X330.257 Y392.705
G01 X347.283 Y410.317
G01 X344.445 Y402.086
G01 X338.391 Y395.828
G01 X330.257 Y392.705
G01 X338.239 Y415.864
G01 X332.202 Y409.600
G01 X329.360 Y401.357
G01 X330.257 Y392.705
G01 X324.223 Y386.443
G01 X318.173 Y380.180
G01 X335.184 Y397.811
G01 X332.343 Y389.570
G01 X326.309 Y383.304
G01 X318.173 Y380.180
G01 X326.144 Y403.335
G01 X320.105 Y397.071
G01 X317.259 Y388.842
G01 X318.173 Y380.180
G01 X312.127 Y373.924
G01 X306.088 Y367.666
G01 X322.023 Y413.953
G01 X320.159 Y433.699
G01 X319.472 Y438.319
G01 X323.948 Y430.867
G01 X324.869 Y422.204
G01 X322.023 Y413.953
G01 X316.474 Y424.050
G01 X310.101 Y433.981
G01 X309.416 Y434.966
G01 X310.327 Y426.289
G01 X314.810 Y418.838
G01 X322.023 Y413.953
G01 X322.928 Y405.305
G01 X323.853 Y396.654
G01 X331.813 Y419.792
G01 X332.725 Y411.130
G01 X329.885 Y402.916
G01 X323.853 Y396.654
G01 X322.426 Y413.309
G01 X321.281 Y421.014
G01 X318.455 Y412.766
G01 X319.361 Y404.111
G01 X323.853 Y396.654
G01 X321.014 Y388.422
G01 X318.173 Y380.180
G01 X335.184 Y397.811
G01 X332.343 Y389.570
G01 X326.309 Y383.304
G01 X318.173 Y380.180
G01 X326.144 Y403.335
G01 X320.105 Y397.071
G01 X317.259 Y388.842
G01 X318.173 Y380.180
G01 X312.127 Y373.924
G01 X306.088 Y367.666
G01 X305.843 Y383.671
G01 X304.149 Y399.903
G01 X300.984 Y416.258
G01 X300.957 Y416.371
G01 X308.941 Y439.521
G01 X309.837 Y430.858
G01 X307.001 Y422.633
G01 X300.957 Y416.371
G01 X298.400 Y440.730
G01 X295.573 Y432.496
G01 X296.466 Y423.821
G01 X300.957 Y416.371
G01 X298.125 Y408.139
G01 X295.292 Y399.907
G01 X293.006 Y422.500
G01 X292.739 Y424.260
G01 X297.209 Y416.798
G01 X298.125 Y408.139
G01 X295.292 Y399.907
G01 X289.859 Y409.880
G01 X283.552 Y419.661
G01 X282.676 Y420.904
G01 X283.582 Y412.236
G01 X288.072 Y404.761
G01 X294.873 Y400.206
G01 X295.292 Y399.907
G01 X296.196 Y391.237
G01 X297.109 Y382.579
G01 X292.509 Y391.251
G01 X287.167 Y399.775
G01 X284.505 Y403.571
G01 X291.263 Y399.035
G01 X291.720 Y398.709
G01 X296.196 Y391.237
G01 X297.109 Y382.579
G01 X291.256 Y387.087
G01 X285.073 Y391.334
G01 X278.570 Y395.299
G01 X276.819 Y396.287
G01 X281.292 Y388.817
G01 X287.407 Y384.741
G01 X288.519 Y383.947
G01 X295.387 Y382.898
G01 X297.109 Y382.579
G01 X301.546 Y375.222
G01 X301.598 Y375.129
G01 X305.728 Y368.312
G01 X306.088 Y367.666
G01 X314.056 Y390.815
G01 X314.964 Y382.145
G01 X312.127 Y373.924
G01 X306.088 Y367.666
G01 X305.051 Y381.774
G01 X303.525 Y392.024
G01 X300.676 Y383.773
G01 X301.598 Y375.129
G01 X305.728 Y368.312
G01 X306.088 Y367.666
G01 X303.244 Y359.435
G01 X300.402 Y351.192
G01 X308.379 Y374.354
G01 X309.294 Y365.690
G01 X306.460 Y357.472
G01 X300.402 Y351.192
G01 X299.659 Y363.315
G01 X297.845 Y375.542
G01 X295.017 Y367.309
G01 X295.932 Y358.666
G01 X299.522 Y352.780
G01 X300.402 Y351.192
G01 X297.573 Y342.959
G01 X294.743 Y334.738
G01 X295.099 Y346.615
G01 X294.385 Y358.707
G01 X292.583 Y370.938
G01 X289.680 Y383.230
G01 X289.620 Y383.443
G01 X284.796 Y392.482
G01 X279.177 Y401.352
G01 X277.005 Y404.432
G01 X283.852 Y399.830
G01 X284.232 Y399.557
G01 X288.717 Y392.095
G01 X289.620 Y383.443
G01 X283.702 Y388.003
G01 X277.431 Y392.297
G01 X270.819 Y396.301
G01 X269.328 Y397.136
G01 X273.803 Y389.661
G01 X280.008 Y385.528
G01 X281.025 Y384.801
G01 X287.789 Y383.779
G01 X289.620 Y383.443
G01 X294.111 Y375.975
G01 X298.340 Y368.985
G01 X298.597 Y368.524
G01 X297.376 Y383.919
G01 X296.034 Y392.867
G01 X300.522 Y385.407
G01 X301.420 Y376.742
G01 X298.597 Y368.524
G01 X294.636 Y376.174
G01 X290.037 Y383.707
G01 X285.982 Y389.510
G01 X286.893 Y380.849
G01 X291.367 Y373.375
G01 X296.819 Y369.785
G01 X298.597 Y368.524
G01 X299.500 Y359.864
G01 X300.402 Y351.192
G01 X308.379 Y374.354
G01 X309.294 Y365.690
G01 X306.460 Y357.472
G01 X300.402 Y351.192
G01 X299.659 Y363.315
G01 X297.845 Y375.542
G01 X295.017 Y367.309
G01 X295.932 Y358.666
G01 X299.522 Y352.780
G01 X300.402 Y351.192
G01 X297.573 Y342.959
G01 X294.743 Y334.738
G01 X292.550 Y341.155
G01 X289.830 Y347.552
G01 X286.581 Y353.890
G01 X282.801 Y360.134
G01 X278.494 Y366.246
G01 X273.663 Y372.189
G01 X269.515 Y376.706
G01 X266.963 Y401.076
G01 X271.442 Y393.608
G01 X272.346 Y384.937
G01 X269.515 Y376.706
G01 X264.217 Y386.565
G01 X257.996 Y396.187
G01 X256.905 Y397.714
G01 X257.811 Y389.056
G01 X262.300 Y381.576
G01 X268.280 Y377.594
G01 X269.515 Y376.706
G01 X270.423 Y368.046
G01 X271.334 Y359.389
G01 X267.014 Y367.729
G01 X261.924 Y375.890
G01 X258.725 Y380.383
G01 X264.716 Y376.398
