;  Created by Sandify
;  https://sandify.org
;  Version: 0.2.6
;
;  Machine type: Rectangular
;    Min X (mm): 0
;    Max X (mm): 500
;    Min Y (mm): 0
;    Max Y (mm): 500
;  Content type: shape
;  Layer:
;    Shape: FileImport
;    Name: sunshine.thr
;    From file:: sunshine.thr
;    Aspect Ratio: true
;    Comments: 
;    Visible: true
;    Initial width: 12
;    Initial height: 12
;    X offset: 0
;    Y offset: 0
;    Rotate (degrees): 0
;    Reverse path: false
;    Fine tuning:
;      Connect to next layer: line
;      Draw portion of path (%): 100
;      Backtrack at end (%): 0
;      Rotate starting point (%): 0
;  Reverse export path: false
;
; File name: 'sunshine'
; File type: gcode
;

G01 X250.000 Y265.000
G01 X250.000 Y280.000
G01 X250.000 Y295.000
G01 X250.000 Y310.000
G01 X250.000 Y325.000
G01 X250.000 Y340.000
G01 X250.000 Y355.000
G01 X250.000 Y370.000
G01 X250.000 Y385.000
G01 X250.000 Y400.000
G01 X250.000 Y415.000
G01 X250.000 Y430.000
G01 X250.000 Y445.000
G01 X250.000 Y460.000
G01 X250.000 Y475.000
G01 X250.000 Y490.000
G01 X250.000 Y475.000
G01 X250.000 Y460.000
G01 X250.000 Y445.000
G01 X250.000 Y430.000
G01 X250.000 Y415.000
G01 X250.000 Y400.000
G01 X250.000 Y385.000
G01 X250.000 Y370.000
G01 X250.000 Y355.000
G01 X250.000 Y340.000
G01 X250.000 Y325.000
G01 X250.000 Y310.000
G01 X250.000 Y295.000
G01 X250.000 Y280.000
G01 X250.000 Y265.000
G01 X250.000 Y250.000
G01 X250.262 Y264.998
G01 X250.524 Y279.995
G01 X250.785 Y294.993
G01 X251.047 Y309.991
G01 X251.309 Y324.989
G01 X251.571 Y339.986
G01 X251.833 Y354.984
G01 X252.094 Y369.982
G01 X252.356 Y384.979
G01 X252.618 Y399.977
G01 X252.880 Y414.975
G01 X253.141 Y429.973
G01 X253.403 Y444.970
G01 X253.665 Y459.968
G01 X253.927 Y474.966
G01 X254.189 Y489.963
G01 X253.927 Y474.966
G01 X253.665 Y459.968
G01 X253.403 Y444.970
G01 X253.141 Y429.973
G01 X252.880 Y414.975
G01 X252.618 Y399.977
G01 X252.356 Y384.979
G01 X252.094 Y369.982
G01 X251.833 Y354.984
G01 X251.571 Y339.986
G01 X251.309 Y324.989
G01 X251.047 Y309.991
G01 X250.785 Y294.993
G01 X250.524 Y279.995
G01 X250.262 Y264.998
G01 X250.000 Y250.000
G01 X250.523 Y264.991
G01 X251.047 Y279.982
G01 X251.570 Y294.973
G01 X252.094 Y309.963
G01 X252.617 Y324.954
G01 X253.141 Y339.945
G01 X253.664 Y354.936
G01 X254.188 Y369.927
G01 X254.711 Y384.918
G01 X255.235 Y399.909
G01 X255.758 Y414.899
G01 X256.282 Y429.890
G01 X256.805 Y444.881
G01 X257.329 Y459.872
G01 X257.852 Y474.863
G01 X258.376 Y489.854
G01 X257.852 Y474.863
G01 X257.329 Y459.872
G01 X256.805 Y444.881
G01 X256.282 Y429.890
G01 X255.758 Y414.899
G01 X255.235 Y399.909
G01 X254.711 Y384.918
G01 X254.188 Y369.927
G01 X253.664 Y354.936
G01 X253.141 Y339.945
G01 X252.617 Y324.954
G01 X252.094 Y309.963
G01 X251.570 Y294.973
G01 X251.047 Y279.982
G01 X250.523 Y264.991
G01 X250.000 Y250.000
G01 X250.690 Y264.046
G01 X250.785 Y264.979
G01 X251.570 Y279.959
G01 X252.355 Y294.938
G01 X253.140 Y309.918
G01 X253.925 Y324.897
G01 X254.710 Y339.877
G01 X255.495 Y354.856
G01 X256.280 Y369.836
G01 X257.065 Y384.815
G01 X257.850 Y399.794
G01 X258.635 Y414.774
G01 X259.420 Y429.753
G01 X260.206 Y444.733
G01 X260.991 Y459.712
G01 X261.776 Y474.692
G01 X262.561 Y489.671
G01 X261.776 Y474.692
G01 X260.991 Y459.712
G01 X260.206 Y444.733
G01 X259.420 Y429.753
G01 X258.635 Y414.774
G01 X257.850 Y399.794
G01 X257.065 Y384.815
G01 X256.280 Y369.836
G01 X255.495 Y354.856
G01 X254.710 Y339.877
G01 X253.925 Y324.897
G01 X253.140 Y309.918
G01 X252.355 Y294.938
G01 X251.570 Y279.959
G01 X250.785 Y264.979
G01 X250.003 Y250.937
G01 X250.000 Y250.000
G01 X250.518 Y260.534
G01 X251.046 Y264.963
G01 X252.093 Y279.927
G01 X253.139 Y294.890
G01 X254.185 Y309.854
G01 X255.232 Y324.817
G01 X256.278 Y339.781
G01 X257.324 Y354.744
G01 X258.371 Y369.708
G01 X259.417 Y384.671
G01 X260.463 Y399.635
G01 X261.510 Y414.598
G01 X262.556 Y429.562
G01 X263.603 Y444.525
G01 X264.649 Y459.488
G01 X265.695 Y474.452
G01 X266.742 Y489.415
G01 X265.695 Y474.452
G01 X264.649 Y459.488
G01 X263.603 Y444.525
G01 X262.556 Y429.562
G01 X261.510 Y414.598
G01 X260.463 Y399.635
G01 X259.417 Y384.671
G01 X258.371 Y369.708
G01 X257.324 Y354.744
G01 X256.278 Y339.781
G01 X255.232 Y324.817
G01 X254.185 Y309.854
G01 X253.139 Y294.890
G01 X252.093 Y279.927
G01 X251.046 Y264.963
G01 X250.092 Y254.452
G01 X250.000 Y250.000
G01 X250.414 Y258.427
G01 X251.307 Y264.943
G01 X252.615 Y279.886
G01 X253.922 Y294.829
G01 X255.229 Y309.772
G01 X256.537 Y324.715
G01 X257.844 Y339.658
G01 X259.151 Y354.600
G01 X260.459 Y369.543
G01 X261.766 Y384.486
G01 X263.073 Y399.429
G01 X264.381 Y414.372
G01 X265.688 Y429.315
G01 X266.995 Y444.258
G01 X268.303 Y459.201
G01 X269.610 Y474.144
G01 X270.917 Y489.087
G01 X269.610 Y474.144
G01 X268.303 Y459.201
G01 X266.995 Y444.258
G01 X265.688 Y429.315
G01 X264.381 Y414.372
G01 X263.073 Y399.429
G01 X261.766 Y384.486
G01 X260.459 Y369.543
G01 X259.151 Y354.600
G01 X257.844 Y339.658
G01 X256.537 Y324.715
G01 X255.229 Y309.772
G01 X253.922 Y294.829
G01 X252.615 Y279.886
G01 X251.307 Y264.943
G01 X250.250 Y256.558
G01 X250.000 Y250.000
G01 X250.345 Y257.023
G01 X251.378 Y263.995
G01 X251.568 Y264.918
G01 X253.136 Y279.836
G01 X254.704 Y294.753
G01 X256.272 Y309.671
G01 X257.840 Y324.589
G01 X259.408 Y339.507
G01 X260.975 Y354.425
G01 X262.543 Y369.343
G01 X264.111 Y384.260
G01 X265.679 Y399.178
G01 X267.247 Y414.096
G01 X268.815 Y429.014
G01 X270.383 Y443.932
G01 X271.951 Y458.850
G01 X273.519 Y473.767
G01 X275.087 Y488.685
G01 X273.519 Y473.767
G01 X271.951 Y458.850
G01 X270.383 Y443.932
G01 X268.815 Y429.014
G01 X267.247 Y414.096
G01 X265.679 Y399.178
G01 X264.111 Y384.260
G01 X262.543 Y369.343
G01 X260.975 Y354.425
G01 X259.408 Y339.507
G01 X257.840 Y324.589
G01 X256.272 Y309.671
G01 X254.704 Y294.753
G01 X253.136 Y279.836
G01 X251.568 Y264.918
G01 X250.443 Y257.956
G01 X250.006 Y250.937
G01 X250.000 Y250.000
G01 X250.296 Y256.020
G01 X251.181 Y261.996
G01 X251.828 Y264.888
G01 X253.656 Y279.776
G01 X255.484 Y294.665
G01 X257.312 Y309.553
G01 X259.140 Y324.441
G01 X260.968 Y339.329
G01 X262.796 Y354.217
G01 X264.624 Y369.106
G01 X266.452 Y383.994
G01 X268.280 Y398.882
G01 X270.108 Y413.770
G01 X271.936 Y428.658
G01 X273.765 Y443.546
G01 X275.593 Y458.435
G01 X277.421 Y473.323
G01 X279.249 Y488.211
G01 X277.421 Y473.323
G01 X275.593 Y458.435
G01 X273.765 Y443.546
G01 X271.936 Y428.658
G01 X270.108 Y413.770
G01 X268.280 Y398.882
G01 X266.452 Y383.994
G01 X264.624 Y369.106
G01 X262.796 Y354.217
G01 X260.968 Y339.329
G01 X259.140 Y324.441
G01 X257.312 Y309.553
G01 X255.484 Y294.665
G01 X253.656 Y279.776
G01 X251.828 Y264.888
G01 X250.655 Y258.949
G01 X250.071 Y252.946
G01 X250.000 Y250.000
G01 X250.259 Y255.267
G01 X251.034 Y260.496
G01 X252.088 Y264.854
G01 X254.175 Y279.708
G01 X256.263 Y294.562
G01 X258.350 Y309.416
G01 X260.438 Y324.270
G01 X262.526 Y339.124
G01 X264.613 Y353.978
G01 X266.701 Y368.832
G01 X268.788 Y383.686
G01 X270.876 Y398.540
G01 X272.964 Y413.394
G01 X275.051 Y428.248
G01 X277.139 Y443.102
G01 X279.226 Y457.956
G01 X281.314 Y472.810
G01 X283.402 Y487.664
G01 X281.314 Y472.810
G01 X279.226 Y457.956
G01 X277.139 Y443.102
G01 X275.051 Y428.248
G01 X272.964 Y413.394
G01 X270.876 Y398.540
G01 X268.788 Y383.686
G01 X266.701 Y368.832
G01 X264.613 Y353.978
G01 X262.526 Y339.124
G01 X260.438 Y324.270
G01 X258.350 Y309.416
G01 X256.263 Y294.562
G01 X254.175 Y279.708
G01 X252.088 Y264.854
G01 X250.879 Y259.687
G01 X250.185 Y254.449
G01 X250.000 Y250.000
G01 X250.230 Y254.682
G01 X250.919 Y259.330
G01 X252.063 Y263.910
G01 X252.347 Y264.815
G01 X254.693 Y279.631
G01 X257.040 Y294.446
G01 X259.386 Y309.261
G01 X261.733 Y324.077
G01 X264.079 Y338.892
G01 X266.426 Y353.707
G01 X268.772 Y368.523
G01 X271.119 Y383.338
G01 X273.465 Y398.153
G01 X275.812 Y412.969
G01 X278.158 Y427.784
G01 X280.505 Y442.599
G01 X282.851 Y457.415
G01 X285.198 Y472.230
G01 X287.544 Y487.045
G01 X285.198 Y472.230
G01 X282.851 Y457.415
G01 X280.505 Y442.599
G01 X278.158 Y427.784
G01 X275.812 Y412.969
G01 X273.465 Y398.153
G01 X271.119 Y383.338
G01 X268.772 Y368.523
G01 X266.426 Y353.707
G01 X264.079 Y338.892
G01 X261.733 Y324.077
G01 X259.386 Y309.261
G01 X257.040 Y294.446
G01 X254.693 Y279.631
G01 X252.347 Y264.815
G01 X251.112 Y260.252
G01 X250.331 Y255.615
G01 X250.009 Y250.937
G01 X250.000 Y250.000
G01 X250.104 Y252.107
G01 X250.414 Y254.198
G01 X250.929 Y256.260
G01 X251.646 Y258.275
G01 X252.563 Y260.231
G01 X253.674 Y262.111
G01 X254.974 Y263.902
G01 X255.130 Y264.095
G01 X260.261 Y278.191
G01 X265.391 Y292.286
G01 X270.521 Y306.382
G01 X275.652 Y320.477
G01 X280.782 Y334.572
G01 X285.912 Y348.668
G01 X291.042 Y362.763
G01 X296.173 Y376.859
G01 X301.303 Y390.954
G01 X306.433 Y405.049
G01 X311.564 Y419.145
G01 X316.694 Y433.240
G01 X321.824 Y447.335
G01 X326.955 Y461.431
G01 X332.085 Y475.526
G01 X326.955 Y461.431
G01 X321.824 Y447.335
G01 X316.694 Y433.240
G01 X311.564 Y419.145
G01 X306.433 Y405.049
G01 X301.303 Y390.954
G01 X296.173 Y376.859
G01 X291.042 Y362.763
G01 X285.912 Y348.668
G01 X280.782 Y334.572
G01 X275.652 Y320.477
G01 X270.521 Y306.382
G01 X265.391 Y292.286
G01 X260.261 Y278.191
G01 X255.130 Y264.095
G01 X253.809 Y262.315
G01 X252.677 Y260.444
G01 X251.738 Y258.496
G01 X250.998 Y256.486
G01 X250.461 Y254.429
G01 X250.128 Y252.340
G01 X250.001 Y250.234
G01 X250.000 Y250.000
G01 X250.099 Y252.007
G01 X250.394 Y253.999
G01 X250.884 Y255.962
G01 X251.568 Y257.881
G01 X252.441 Y259.744
G01 X253.499 Y261.535
G01 X254.738 Y263.240
G01 X255.376 Y264.004
G01 X260.751 Y278.007
G01 X266.127 Y292.011
G01 X271.502 Y306.015
G01 X276.878 Y320.019
G01 X282.253 Y334.022
G01 X287.629 Y348.026
G01 X293.004 Y362.030
G01 X298.380 Y376.033
G01 X303.755 Y390.037
G01 X309.131 Y404.041
G01 X314.506 Y418.044
G01 X319.882 Y432.048
G01 X325.257 Y446.052
G01 X330.633 Y460.056
G01 X336.008 Y474.059
G01 X330.633 Y460.056
G01 X325.257 Y446.052
G01 X319.882 Y432.048
G01 X314.506 Y418.044
G01 X309.131 Y404.041
G01 X303.755 Y390.037
G01 X298.380 Y376.033
G01 X293.004 Y362.030
G01 X287.629 Y348.026
G01 X282.253 Y334.022
G01 X276.878 Y320.019
G01 X271.502 Y306.015
G01 X266.127 Y292.011
G01 X260.751 Y278.007
G01 X255.376 Y264.004
G01 X254.055 Y262.342
G01 X252.912 Y260.589
G01 X251.952 Y258.758
G01 X251.179 Y256.864
G01 X250.599 Y254.919
G01 X250.212 Y252.939
G01 X250.021 Y250.937
G01 X250.000 Y250.000
G01 X250.094 Y251.915
G01 X250.376 Y253.817
G01 X250.844 Y255.691
G01 X251.496 Y257.523
G01 X252.330 Y259.301
G01 X253.340 Y261.010
G01 X254.522 Y262.639
G01 X255.619 Y263.908
G01 X261.238 Y277.816
G01 X266.857 Y291.723
G01 X272.476 Y305.631
G01 X278.095 Y319.539
G01 X283.715 Y333.447
G01 X289.334 Y347.354
G01 X294.953 Y361.262
G01 X300.572 Y375.170
G01 X306.191 Y389.078
G01 X311.810 Y402.985
G01 X317.429 Y416.893
G01 X323.048 Y430.801
G01 X328.667 Y444.709
G01 X334.286 Y458.616
G01 X339.906 Y472.524
G01 X334.286 Y458.616
G01 X328.667 Y444.709
G01 X323.048 Y430.801
G01 X317.429 Y416.893
G01 X311.810 Y402.985
G01 X306.191 Y389.078
G01 X300.572 Y375.170
G01 X294.953 Y361.262
G01 X289.334 Y347.354
G01 X283.715 Y333.447
G01 X278.095 Y319.539
G01 X272.476 Y305.631
G01 X266.857 Y291.723
G01 X261.238 Y277.816
G01 X255.619 Y263.908
G01 X254.300 Y262.356
G01 X253.148 Y260.712
G01 X252.169 Y258.989
G01 X251.367 Y257.201
G01 X250.747 Y255.360
G01 X250.312 Y253.480
G01 X250.064 Y251.575
G01 X250.000 Y250.000
G01 X250.090 Y251.832
G01 X250.360 Y253.651
G01 X250.807 Y255.443
G01 X251.431 Y257.196
G01 X252.228 Y258.896
G01 X253.195 Y260.532
G01 X254.326 Y262.089
G01 X255.615 Y263.557
G01 X255.861 Y263.808
G01 X261.722 Y277.615
G01 X267.583 Y291.423
G01 X273.444 Y305.230
G01 X279.305 Y319.038
G01 X285.166 Y332.845
G01 X291.027 Y346.653
G01 X296.888 Y360.461
G01 X302.749 Y374.268
G01 X308.610 Y388.076
G01 X314.471 Y401.883
G01 X320.332 Y415.691
G01 X326.193 Y429.498
G01 X332.054 Y443.306
G01 X337.915 Y457.114
G01 X343.775 Y470.921
G01 X337.915 Y457.114
G01 X332.054 Y443.306
G01 X326.193 Y429.498
G01 X320.332 Y415.691
G01 X314.471 Y401.883
G01 X308.610 Y388.076
G01 X302.749 Y374.268
G01 X296.888 Y360.461
G01 X291.027 Y346.653
G01 X285.166 Y332.845
G01 X279.305 Y319.038
G01 X273.444 Y305.230
G01 X267.583 Y291.423
G01 X261.722 Y277.615
G01 X255.861 Y263.808
G01 X254.543 Y262.357
G01 X253.384 Y260.814
G01 X252.388 Y259.192
G01 X251.561 Y257.502
G01 X250.906 Y255.758
G01 X250.426 Y253.972
G01 X250.125 Y252.157
G01 X250.003 Y250.326
G01 X250.000 Y250.000
G01 X250.086 Y251.756
G01 X250.345 Y253.499
G01 X250.774 Y255.216
G01 X251.372 Y256.896
G01 X252.136 Y258.526
G01 X253.062 Y260.093
G01 X254.145 Y261.585
G01 X255.381 Y262.992
G01 X256.101 Y263.703
G01 X262.202 Y277.406
G01 X268.303 Y291.110
G01 X274.404 Y304.813
G01 X280.505 Y318.516
G01 X286.606 Y332.219
G01 X292.707 Y345.922
G01 X298.808 Y359.625
G01 X304.909 Y373.329
G01 X311.010 Y387.032
G01 X317.112 Y400.735
G01 X323.213 Y414.438
G01 X329.314 Y428.141
G01 X335.415 Y441.845
G01 X341.516 Y455.548
G01 X347.617 Y469.251
G01 X341.516 Y455.548
G01 X335.415 Y441.845
G01 X329.314 Y428.141
G01 X323.213 Y414.438
G01 X317.112 Y400.735
G01 X311.010 Y387.032
G01 X304.909 Y373.329
G01 X298.808 Y359.625
G01 X292.707 Y345.922
G01 X286.606 Y332.219
G01 X280.505 Y318.516
G01 X274.404 Y304.813
G01 X268.303 Y291.110
G01 X262.202 Y277.406
G01 X256.101 Y263.703
G01 X254.786 Y262.347
G01 X253.620 Y260.899
G01 X252.610 Y259.370
G01 X251.759 Y257.772
G01 X251.072 Y256.118
G01 X250.552 Y254.419
G01 X250.203 Y252.688
G01 X250.025 Y250.937
G01 X250.000 Y250.000
G01 X250.083 Y251.685
G01 X250.331 Y253.359
G01 X250.743 Y255.008
G01 X251.317 Y256.620
G01 X252.050 Y258.185
G01 X252.939 Y259.689
G01 X253.980 Y261.122
G01 X255.166 Y262.472
G01 X256.339 Y263.595
G01 X262.679 Y277.189
G01 X269.018 Y290.784
G01 X275.357 Y304.378
G01 X281.696 Y317.973
G01 X288.036 Y331.568
G01 X294.375 Y345.162
G01 X300.714 Y358.757
G01 X307.053 Y372.352
G01 X313.393 Y385.946
G01 X319.732 Y399.541
G01 X326.071 Y413.135
G01 X332.411 Y426.730
G01 X338.750 Y440.325
G01 X345.089 Y453.919
G01 X351.428 Y467.514
G01 X345.089 Y453.919
G01 X338.750 Y440.325
G01 X332.411 Y426.730
G01 X326.071 Y413.135
G01 X319.732 Y399.541
G01 X313.393 Y385.946
G01 X307.053 Y372.352
G01 X300.714 Y358.757
G01 X294.375 Y345.162
G01 X288.036 Y331.568
G01 X281.696 Y317.973
G01 X275.357 Y304.378
G01 X269.018 Y290.784
G01 X262.679 Y277.189
G01 X256.339 Y263.595
G01 X255.027 Y262.327
G01 X253.857 Y260.967
G01 X252.833 Y259.525
G01 X251.961 Y258.014
G01 X251.245 Y256.443
G01 X250.689 Y254.826
G01 X250.295 Y253.174
G01 X250.065 Y251.499
G01 X250.000 Y250.000
G01 X250.080 Y251.621
G01 X250.318 Y253.230
G01 X250.714 Y254.815
G01 X251.266 Y256.366
G01 X251.971 Y257.870
G01 X252.826 Y259.316
G01 X253.826 Y260.694
G01 X254.968 Y261.993
G01 X256.244 Y263.201
G01 X256.576 Y263.482
G01 X263.151 Y276.964
G01 X269.727 Y290.446
G01 X276.302 Y303.928
G01 X282.878 Y317.410
G01 X289.453 Y330.891
G01 X296.029 Y344.373
G01 X302.605 Y357.855
G01 X309.180 Y371.337
G01 X315.756 Y384.819
G01 X322.331 Y398.301
G01 X328.907 Y411.783
G01 X335.482 Y425.265
G01 X342.058 Y438.747
G01 X348.634 Y452.229
G01 X355.209 Y465.711
G01 X348.634 Y452.229
G01 X342.058 Y438.747
G01 X335.482 Y425.265
G01 X328.907 Y411.783
G01 X322.331 Y398.301
G01 X315.756 Y384.819
G01 X309.180 Y371.337
G01 X302.605 Y357.855
G01 X296.029 Y344.373
G01 X289.453 Y330.891
G01 X282.878 Y317.410
G01 X276.302 Y303.928
G01 X269.727 Y290.446
G01 X263.151 Y276.964
G01 X256.576 Y263.482
G01 X255.267 Y262.297
G01 X254.093 Y261.019
G01 X253.057 Y259.660
G01 X252.167 Y258.229
G01 X251.425 Y256.738
G01 X250.835 Y255.198
G01 X250.400 Y253.620
G01 X250.123 Y252.015
G01 X250.005 Y250.397
G01 X250.000 Y250.000
G01 X250.077 Y251.561
G01 X250.306 Y253.110
G01 X250.688 Y254.637
G01 X251.219 Y256.130
G01 X251.898 Y257.578
G01 X252.721 Y258.971
G01 X253.685 Y260.298
G01 X254.784 Y261.548
G01 X256.012 Y262.712
G01 X256.810 Y263.365
G01 X263.620 Y276.730
G01 X270.430 Y290.095
G01 X277.239 Y303.460
G01 X284.049 Y316.825
G01 X290.859 Y330.191
G01 X297.669 Y343.556
G01 X304.479 Y356.921
G01 X311.289 Y370.286
G01 X318.099 Y383.651
G01 X324.908 Y397.016
G01 X331.718 Y410.381
G01 X338.528 Y423.746
G01 X345.338 Y437.111
G01 X352.148 Y450.476
G01 X358.958 Y463.842
G01 X352.148 Y450.476
G01 X345.338 Y437.111
G01 X338.528 Y423.746
G01 X331.718 Y410.381
G01 X324.908 Y397.016
G01 X318.099 Y383.651
G01 X311.289 Y370.286
G01 X304.479 Y356.921
G01 X297.669 Y343.556
G01 X290.859 Y330.191
G01 X284.049 Y316.825
G01 X277.239 Y303.460
G01 X270.430 Y290.095
G01 X263.620 Y276.730
G01 X256.810 Y263.365
G01 X255.506 Y262.258
G01 X254.328 Y261.058
G01 X253.283 Y259.776
G01 X252.375 Y258.421
G01 X251.609 Y257.005
G01 X250.989 Y255.537
G01 X250.517 Y254.029
G01 X250.196 Y252.492
G01 X250.028 Y250.937
G01 X250.000 Y250.000
G01 X250.074 Y251.505
G01 X250.295 Y252.999
G01 X250.663 Y254.471
G01 X251.176 Y255.911
G01 X251.830 Y257.308
G01 X252.624 Y258.651
G01 X253.553 Y259.930
G01 X254.613 Y261.136
G01 X255.798 Y262.258
G01 X257.042 Y263.244
G01 X264.084 Y276.488
G01 X271.126 Y289.733
G01 X278.168 Y302.977
G01 X285.210 Y316.221
G01 X292.252 Y329.465
G01 X299.295 Y342.709
G01 X306.337 Y355.954
G01 X313.379 Y369.198
G01 X320.421 Y382.442
G01 X327.463 Y395.686
G01 X334.505 Y408.931
G01 X341.547 Y422.175
G01 X348.589 Y435.419
G01 X355.631 Y448.663
G01 X362.673 Y461.907
G01 X355.631 Y448.663
G01 X348.589 Y435.419
G01 X341.547 Y422.175
G01 X334.505 Y408.931
G01 X327.463 Y395.686
G01 X320.421 Y382.442
G01 X313.379 Y369.198
G01 X306.337 Y355.954
G01 X299.295 Y342.709
G01 X292.252 Y329.465
G01 X285.210 Y316.221
G01 X278.168 Y302.977
G01 X271.126 Y289.733
G01 X264.084 Y276.488
G01 X257.042 Y263.244
G01 X255.743 Y262.210
G01 X254.563 Y261.084
G01 X253.509 Y259.875
G01 X252.586 Y258.592
G01 X251.798 Y257.247
G01 X251.150 Y255.848
G01 X250.644 Y254.406
G01 X250.282 Y252.933
G01 X250.068 Y251.438
G01 X250.000 Y250.000
G01 X250.071 Y251.453
G01 X250.285 Y252.895
G01 X250.640 Y254.317
G01 X251.135 Y255.707
G01 X251.767 Y257.056
G01 X252.534 Y258.353
G01 X253.431 Y259.588
G01 X254.454 Y260.752
G01 X255.598 Y261.836
G01 X256.858 Y262.830
G01 X257.272 Y263.119
G01 X264.544 Y276.239
G01 X271.816 Y289.358
G01 X279.089 Y302.477
G01 X286.361 Y315.596
G01 X293.633 Y328.716
G01 X300.905 Y341.835
G01 X308.177 Y354.954
G01 X315.449 Y368.074
G01 X322.721 Y381.193
G01 X329.994 Y394.312
G01 X337.266 Y407.432
G01 X344.538 Y420.551
G01 X351.810 Y433.670
G01 X359.082 Y446.789
G01 X366.354 Y459.909
G01 X359.082 Y446.789
G01 X351.810 Y433.670
G01 X344.538 Y420.551
G01 X337.266 Y407.432
G01 X329.994 Y394.312
G01 X322.721 Y381.193
G01 X315.449 Y368.074
G01 X308.177 Y354.954
G01 X300.905 Y341.835
G01 X293.633 Y328.716
G01 X286.361 Y315.596
G01 X279.089 Y302.477
G01 X271.816 Y289.358
G01 X264.544 Y276.239
G01 X257.272 Y263.119
G01 X255.978 Y262.155
G01 X254.797 Y261.098
G01 X253.736 Y259.958
G01 X252.799 Y258.744
G01 X251.992 Y257.465
G01 X251.317 Y256.132
G01 X250.779 Y254.753
G01 X250.381 Y253.340
G01 X250.123 Y251.903
G01 X250.007 Y250.453
G01 X250.000 Y250.000
G01 X250.052 Y251.053
G01 X250.207 Y252.099
G01 X250.464 Y253.130
G01 X250.823 Y254.138
G01 X251.281 Y255.115
G01 X251.837 Y256.056
G01 X252.487 Y256.951
G01 X253.229 Y257.795
G01 X254.058 Y258.581
G01 X254.972 Y259.302
G01 X255.964 Y259.951
G01 X257.031 Y260.523
G01 X258.168 Y261.013
G01 X259.367 Y261.414
G01 X259.642 Y261.491
G01 X269.284 Y272.981
G01 X278.925 Y284.472
G01 X288.567 Y295.963
G01 X298.209 Y307.453
G01 X307.851 Y318.944
G01 X317.493 Y330.435
G01 X327.135 Y341.925
G01 X336.776 Y353.416
G01 X346.418 Y364.907
G01 X356.060 Y376.397
G01 X365.702 Y387.888
G01 X375.344 Y399.379
G01 X384.985 Y410.869
G01 X394.627 Y422.360
G01 X404.269 Y433.851
G01 X394.627 Y422.360
G01 X384.985 Y410.869
G01 X375.344 Y399.379
G01 X365.702 Y387.888
G01 X356.060 Y376.397
G01 X346.418 Y364.907
G01 X336.776 Y353.416
G01 X327.135 Y341.925
G01 X317.493 Y330.435
G01 X307.851 Y318.944
G01 X298.209 Y307.453
G01 X288.567 Y295.963
G01 X278.925 Y284.472
G01 X269.284 Y272.981
G01 X259.642 Y261.491
G01 X258.429 Y261.110
G01 X257.278 Y260.639
G01 X256.195 Y260.085
G01 X255.186 Y259.452
G01 X254.254 Y258.747
G01 X253.406 Y257.975
G01 X252.644 Y257.143
G01 X251.973 Y256.259
G01 X251.396 Y255.328
G01 X250.916 Y254.358
G01 X250.535 Y253.356
G01 X250.255 Y252.330
G01 X250.077 Y251.287
G01 X250.003 Y250.234
G01 X250.000 Y250.000
G01 X250.050 Y251.028
G01 X250.202 Y252.048
G01 X250.453 Y253.053
G01 X250.803 Y254.037
G01 X251.250 Y254.991
G01 X251.792 Y255.908
G01 X252.427 Y256.782
G01 X253.150 Y257.605
G01 X253.959 Y258.372
G01 X254.850 Y259.075
G01 X255.819 Y259.708
G01 X256.860 Y260.267
G01 X257.968 Y260.744
G01 X259.139 Y261.136
G01 X259.841 Y261.321
G01 X269.682 Y272.641
G01 X279.523 Y283.962
G01 X289.364 Y295.283
G01 X299.204 Y306.603
G01 X309.045 Y317.924
G01 X318.886 Y329.245
G01 X328.727 Y340.565
G01 X338.568 Y351.886
G01 X348.409 Y363.206
G01 X358.250 Y374.527
G01 X368.091 Y385.848
G01 X377.932 Y397.168
G01 X387.772 Y408.489
G01 X397.613 Y419.810
G01 X407.454 Y431.130
G01 X397.613 Y419.810
G01 X387.772 Y408.489
G01 X377.932 Y397.168
G01 X368.091 Y385.848
G01 X358.250 Y374.527
G01 X348.409 Y363.206
G01 X338.568 Y351.886
G01 X328.727 Y340.565
G01 X318.886 Y329.245
G01 X309.045 Y317.924
G01 X299.204 Y306.603
G01 X289.364 Y295.283
G01 X279.523 Y283.962
G01 X269.682 Y272.641
G01 X259.841 Y261.321
G01 X258.637 Y260.981
G01 X257.492 Y260.553
G01 X256.412 Y260.040
G01 X255.401 Y259.450
G01 X254.465 Y258.786
G01 X253.608 Y258.055
G01 X252.834 Y257.264
G01 X252.148 Y256.419
G01 X251.552 Y255.526
G01 X251.050 Y254.592
G01 X250.643 Y253.625
G01 X250.335 Y252.631
G01 X250.126 Y251.619
G01 X250.017 Y250.594
G01 X250.000 Y250.000
G01 X250.049 Y251.003
G01 X250.197 Y251.999
G01 X250.442 Y252.981
G01 X250.784 Y253.941
G01 X251.220 Y254.872
G01 X251.749 Y255.767
G01 X252.369 Y256.620
G01 X253.075 Y257.424
G01 X253.865 Y258.172
G01 X254.735 Y258.859
G01 X255.680 Y259.477
G01 X256.697 Y260.022
G01 X257.779 Y260.488
G01 X258.921 Y260.870
G01 X260.037 Y261.147
G01 X270.074 Y272.294
G01 X280.111 Y283.442
G01 X290.148 Y294.589
G01 X300.185 Y305.736
G01 X310.222 Y316.883
G01 X320.259 Y328.030
G01 X330.296 Y339.177
G01 X340.333 Y350.325
G01 X350.370 Y361.472
G01 X360.407 Y372.619
G01 X370.444 Y383.766
G01 X380.480 Y394.913
G01 X390.517 Y406.060
G01 X400.554 Y417.208
G01 X410.591 Y428.355
G01 X400.554 Y417.208
G01 X390.517 Y406.060
G01 X380.480 Y394.913
G01 X370.444 Y383.766
G01 X360.407 Y372.619
G01 X350.370 Y361.472
G01 X340.333 Y350.325
G01 X330.296 Y339.177
G01 X320.259 Y328.030
G01 X310.222 Y316.883
G01 X300.185 Y305.736
G01 X290.148 Y294.589
G01 X280.111 Y283.442
G01 X270.074 Y272.294
G01 X260.037 Y261.147
G01 X258.843 Y260.848
G01 X257.705 Y260.460
G01 X256.627 Y259.988
G01 X255.615 Y259.438
G01 X254.675 Y258.815
G01 X253.810 Y258.124
G01 X253.025 Y257.372
G01 X252.325 Y256.565
G01 X251.711 Y255.709
G01 X251.188 Y254.811
G01 X250.758 Y253.877
G01 X250.423 Y252.916
G01 X250.184 Y251.933
G01 X250.043 Y250.937
G01 X250.000 Y250.000
G01 X250.048 Y250.980
G01 X250.192 Y251.953
G01 X250.432 Y252.911
G01 X250.766 Y253.849
G01 X251.192 Y254.759
G01 X251.709 Y255.633
G01 X252.314 Y256.466
G01 X253.004 Y257.251
G01 X253.775 Y257.982
G01 X254.625 Y258.653
G01 X255.548 Y259.257
G01 X256.541 Y259.789
G01 X257.598 Y260.244
G01 X258.714 Y260.618
G01 X259.883 Y260.904
G01 X260.230 Y260.970
G01 X270.460 Y271.941
G01 X280.690 Y282.911
G01 X290.920 Y293.881
G01 X301.150 Y304.852
G01 X311.380 Y315.822
G01 X321.610 Y326.792
G01 X331.840 Y337.762
G01 X342.070 Y348.733
G01 X352.300 Y359.703
G01 X362.530 Y370.673
G01 X372.760 Y381.644
G01 X382.990 Y392.614
G01 X393.220 Y403.584
G01 X403.450 Y414.555
G01 X413.680 Y425.525
G01 X403.450 Y414.555
G01 X393.220 Y403.584
G01 X382.990 Y392.614
G01 X372.760 Y381.644
G01 X362.530 Y370.673
G01 X352.300 Y359.703
G01 X342.070 Y348.733
G01 X331.840 Y337.762
G01 X321.610 Y326.792
G01 X311.380 Y315.822
G01 X301.150 Y304.852
G01 X290.920 Y293.881
G01 X280.690 Y282.911
G01 X270.460 Y271.941
G01 X260.230 Y260.970
G01 X259.046 Y260.710
G01 X257.914 Y260.361
G01 X256.840 Y259.929
G01 X255.828 Y259.418
G01 X254.884 Y258.834
G01 X254.013 Y258.182
G01 X253.218 Y257.468
G01 X252.504 Y256.698
G01 X251.875 Y255.878
G01 X251.332 Y255.015
G01 X250.879 Y254.115
G01 X250.519 Y253.185
G01 X250.252 Y252.231
G01 X250.080 Y251.262
G01 X250.004 Y250.283
G01 X250.000 Y250.000
G01 X250.047 Y250.958
G01 X250.188 Y251.908
G01 X250.422 Y252.845
G01 X250.748 Y253.762
G01 X251.165 Y254.650
G01 X251.670 Y255.505
G01 X252.261 Y256.319
G01 X252.935 Y257.087
G01 X253.689 Y257.801
G01 X254.520 Y258.456
G01 X255.422 Y259.046
G01 X256.392 Y259.567
G01 X257.425 Y260.012
G01 X258.516 Y260.376
G01 X259.658 Y260.656
G01 X260.420 Y260.790
G01 X270.840 Y271.580
G01 X281.260 Y282.370
G01 X291.680 Y293.160
G01 X302.099 Y303.950
G01 X312.519 Y314.741
G01 X322.939 Y325.531
G01 X333.359 Y336.321
G01 X343.779 Y347.111
G01 X354.199 Y357.901
G01 X364.619 Y368.691
G01 X375.039 Y379.481
G01 X385.458 Y390.271
G01 X395.878 Y401.061
G01 X406.298 Y411.851
G01 X416.718 Y422.642
G01 X406.298 Y411.851
G01 X395.878 Y401.061
G01 X385.458 Y390.271
G01 X375.039 Y379.481
G01 X364.619 Y368.691
G01 X354.199 Y357.901
G01 X343.779 Y347.111
G01 X333.359 Y336.321
G01 X322.939 Y325.531
G01 X312.519 Y314.741
G01 X302.099 Y303.950
G01 X291.680 Y293.160
G01 X281.260 Y282.370
G01 X270.840 Y271.580
G01 X260.420 Y260.790
G01 X259.246 Y260.567
G01 X258.122 Y260.256
G01 X257.051 Y259.862
G01 X256.040 Y259.390
G01 X255.093 Y258.844
G01 X254.216 Y258.230
G01 X253.412 Y257.553
G01 X252.686 Y256.820
G01 X252.041 Y256.035
G01 X251.480 Y255.206
G01 X251.006 Y254.338
G01 X250.622 Y253.439
G01 X250.328 Y252.514
G01 X250.127 Y251.572
G01 X250.020 Y250.618
G01 X250.000 Y250.000
G01 X250.046 Y250.936
G01 X250.184 Y251.866
G01 X250.413 Y252.782
G01 X250.732 Y253.678
G01 X251.139 Y254.547
G01 X251.633 Y255.383
G01 X252.211 Y256.179
G01 X252.870 Y256.929
G01 X253.607 Y257.627
G01 X254.419 Y258.268
G01 X255.302 Y258.845
G01 X256.250 Y259.354
G01 X257.260 Y259.789
G01 X258.326 Y260.146
G01 X259.444 Y260.420
G01 X260.607 Y260.607
G01 X271.213 Y271.213
G01 X281.820 Y281.820
G01 X292.426 Y292.426
G01 X303.033 Y303.033
G01 X313.640 Y313.640
G01 X324.246 Y324.246
G01 X334.853 Y334.853
G01 X345.459 Y345.459
G01 X356.066 Y356.066
G01 X366.673 Y366.673
G01 X377.279 Y377.279
G01 X387.886 Y387.886
G01 X398.492 Y398.492
G01 X409.099 Y409.099
G01 X419.706 Y419.706
G01 X409.099 Y409.099
G01 X398.492 Y398.492
G01 X387.886 Y387.886
G01 X377.279 Y377.279
G01 X366.673 Y366.673
G01 X356.066 Y356.066
G01 X345.459 Y345.459
G01 X334.853 Y334.853
G01 X324.246 Y324.246
G01 X313.640 Y313.640
G01 X303.033 Y303.033
G01 X292.426 Y292.426
G01 X281.820 Y281.820
G01 X271.213 Y271.213
G01 X260.607 Y260.607
G01 X259.444 Y260.420
G01 X258.326 Y260.146
G01 X257.260 Y259.789
G01 X256.250 Y259.354
G01 X255.302 Y258.845
G01 X254.419 Y258.268
G01 X253.607 Y257.627
G01 X252.870 Y256.929
G01 X252.211 Y256.179
G01 X251.633 Y255.383
G01 X251.139 Y254.547
G01 X250.732 Y253.678
G01 X250.413 Y252.782
G01 X250.184 Y251.866
G01 X250.046 Y250.936
G01 X250.000 Y250.000
G01 X250.045 Y250.916
G01 X250.180 Y251.825
G01 X250.404 Y252.722
G01 X250.716 Y253.598
G01 X251.114 Y254.448
G01 X251.597 Y255.266
G01 X252.163 Y256.045
G01 X252.808 Y256.778
G01 X253.529 Y257.462
G01 X254.323 Y258.088
G01 X255.186 Y258.653
G01 X256.114 Y259.151
G01 X257.102 Y259.576
G01 X258.145 Y259.925
G01 X259.238 Y260.193
G01 X260.376 Y260.376
G01 X260.790 Y260.420
G01 X271.580 Y270.840
G01 X282.370 Y281.260
G01 X293.160 Y291.680
G01 X303.950 Y302.099
G01 X314.741 Y312.519
G01 X325.531 Y322.939
G01 X336.321 Y333.359
G01 X347.111 Y343.779
G01 X357.901 Y354.199
G01 X368.691 Y364.619
G01 X379.481 Y375.039
G01 X390.271 Y385.458
G01 X401.061 Y395.878
G01 X411.851 Y406.298
G01 X422.642 Y416.718
G01 X411.851 Y406.298
G01 X401.061 Y395.878
G01 X390.271 Y385.458
G01 X379.481 Y375.039
G01 X368.691 Y364.619
G01 X357.901 Y354.199
G01 X347.111 Y343.779
G01 X336.321 Y333.359
G01 X325.531 Y322.939
G01 X314.741 Y312.519
G01 X303.950 Y302.099
G01 X293.160 Y291.680
G01 X282.370 Y281.260
G01 X271.580 Y270.840
G01 X260.790 Y260.420
G01 X259.638 Y260.268
G01 X258.529 Y260.030
G01 X257.467 Y259.709
G01 X256.459 Y259.311
G01 X255.509 Y258.838
G01 X254.622 Y258.296
G01 X253.803 Y257.691
G01 X253.056 Y257.027
G01 X252.383 Y256.311
G01 X251.789 Y255.547
G01 X251.276 Y254.743
G01 X250.848 Y253.904
G01 X250.505 Y253.036
G01 X250.249 Y252.146
G01 X250.083 Y251.240
G01 X250.006 Y250.326
G01 X250.000 Y250.000
G01 X250.044 Y250.897
G01 X250.176 Y251.787
G01 X250.395 Y252.664
G01 X250.700 Y253.521
G01 X251.091 Y254.354
G01 X251.563 Y255.154
G01 X252.117 Y255.916
G01 X252.748 Y256.634
G01 X253.454 Y257.303
G01 X254.231 Y257.916
G01 X255.076 Y258.469
G01 X255.984 Y258.956
G01 X256.951 Y259.373
G01 X257.972 Y259.714
G01 X259.042 Y259.976
G01 X260.155 Y260.155
G01 X260.970 Y260.230
G01 X271.941 Y270.460
G01 X282.911 Y280.690
G01 X293.881 Y290.920
G01 X304.852 Y301.150
G01 X315.822 Y311.380
G01 X326.792 Y321.610
G01 X337.762 Y331.840
G01 X348.733 Y342.070
G01 X359.703 Y352.300
G01 X370.673 Y362.530
G01 X381.644 Y372.760
G01 X392.614 Y382.990
G01 X403.584 Y393.220
G01 X414.555 Y403.450
G01 X425.525 Y413.680
G01 X414.555 Y403.450
G01 X403.584 Y393.220
G01 X392.614 Y382.990
G01 X381.644 Y372.760
G01 X370.673 Y362.530
G01 X359.703 Y352.300
G01 X348.733 Y342.070
G01 X337.762 Y331.840
G01 X326.792 Y321.610
G01 X315.822 Y311.380
G01 X304.852 Y301.150
G01 X293.881 Y290.920
G01 X282.911 Y280.690
G01 X271.941 Y270.460
G01 X260.970 Y260.230
G01 X259.829 Y260.112
G01 X258.728 Y259.909
G01 X257.672 Y259.623
G01 X256.666 Y259.260
G01 X255.716 Y258.822
G01 X254.825 Y258.316
G01 X254.000 Y257.745
G01 X253.243 Y257.115
G01 X252.558 Y256.432
G01 X251.949 Y255.700
G01 X251.418 Y254.926
G01 X250.969 Y254.116
G01 X250.603 Y253.276
G01 X250.323 Y252.412
G01 X250.129 Y251.530
G01 X250.022 Y250.638
G01 X250.000 Y250.000
G01 X250.043 Y250.878
G01 X250.172 Y251.749
G01 X250.387 Y252.608
G01 X250.686 Y253.448
G01 X251.068 Y254.263
G01 X251.531 Y255.046
G01 X252.073 Y255.793
G01 X252.691 Y256.496
G01 X253.382 Y257.151
G01 X254.143 Y257.751
G01 X254.970 Y258.292
G01 X255.860 Y258.769
G01 X256.806 Y259.177
G01 X257.806 Y259.512
G01 X258.854 Y259.768
G01 X259.944 Y259.944
G01 X261.071 Y260.034
G01 X261.147 Y260.037
G01 X272.294 Y270.074
G01 X283.442 Y280.111
G01 X294.589 Y290.148
G01 X305.736 Y300.185
G01 X316.883 Y310.222
G01 X328.030 Y320.259
G01 X339.177 Y330.296
G01 X350.325 Y340.333
G01 X361.472 Y350.370
G01 X372.619 Y360.407
G01 X383.766 Y370.444
G01 X394.913 Y380.480
G01 X406.060 Y390.517
G01 X417.208 Y400.554
G01 X428.355 Y410.591
G01 X417.208 Y400.554
G01 X406.060 Y390.517
G01 X394.913 Y380.480
G01 X383.766 Y370.444
G01 X372.619 Y360.407
G01 X361.472 Y350.370
G01 X350.325 Y340.333
G01 X339.177 Y330.296
G01 X328.030 Y320.259
G01 X316.883 Y310.222
G01 X305.736 Y300.185
G01 X294.589 Y290.148
G01 X283.442 Y280.111
G01 X272.294 Y270.074
G01 X261.147 Y260.037
G01 X260.018 Y259.952
G01 X258.925 Y259.783
G01 X257.874 Y259.531
G01 X256.871 Y259.202
G01 X255.921 Y258.799
G01 X255.028 Y258.326
G01 X254.196 Y257.789
G01 X253.431 Y257.192
G01 X252.735 Y256.541
G01 X252.112 Y255.841
G01 X251.564 Y255.097
G01 X251.096 Y254.316
G01 X250.709 Y253.503
G01 X250.404 Y252.665
G01 X250.184 Y251.807
G01 X250.049 Y250.936
G01 X250.000 Y250.059
G01 X250.000 Y250.000
G01 X250.042 Y250.860
G01 X250.169 Y251.714
G01 X250.379 Y252.555
G01 X250.672 Y253.378
G01 X251.046 Y254.176
G01 X251.500 Y254.943
G01 X252.030 Y255.674
G01 X252.636 Y256.363
G01 X253.313 Y257.005
G01 X254.059 Y257.593
G01 X254.869 Y258.123
G01 X255.740 Y258.590
G01 X256.667 Y258.990
G01 X257.647 Y259.318
G01 X258.673 Y259.569
G01 X259.741 Y259.741
G01 X260.845 Y259.829
G01 X261.321 Y259.841
G01 X272.641 Y269.682
G01 X283.962 Y279.523
G01 X295.283 Y289.364
G01 X306.603 Y299.204
G01 X317.924 Y309.045
G01 X329.245 Y318.886
G01 X340.565 Y328.727
G01 X351.886 Y338.568
G01 X363.206 Y348.409
G01 X374.527 Y358.250
G01 X385.848 Y368.091
G01 X397.168 Y377.932
G01 X408.489 Y387.772
G01 X419.810 Y397.613
G01 X431.130 Y407.454
G01 X419.810 Y397.613
G01 X408.489 Y387.772
G01 X397.168 Y377.932
G01 X385.848 Y368.091
G01 X374.527 Y358.250
G01 X363.206 Y348.409
G01 X351.886 Y338.568
G01 X340.565 Y328.727
G01 X329.245 Y318.886
G01 X317.924 Y309.045
G01 X306.603 Y299.204
G01 X295.283 Y289.364
G01 X283.962 Y279.523
G01 X272.641 Y269.682
G01 X261.321 Y259.841
G01 X260.203 Y259.788
G01 X259.119 Y259.651
G01 X258.075 Y259.433
G01 X257.075 Y259.137
G01 X256.125 Y258.768
G01 X255.230 Y258.328
G01 X254.393 Y257.824
G01 X253.620 Y257.260
G01 X252.913 Y256.640
G01 X252.277 Y255.971
G01 X251.714 Y255.257
G01 X251.228 Y254.504
G01 X250.820 Y253.718
G01 X250.493 Y252.905
G01 X250.247 Y252.071
G01 X250.085 Y251.222
G01 X250.008 Y250.363
G01 X250.000 Y250.000
G01 X250.035 Y250.702
G01 X250.138 Y251.399
G01 X250.310 Y252.087
G01 X250.549 Y252.758
G01 X250.854 Y253.410
G01 X251.225 Y254.037
G01 X251.658 Y254.634
G01 X252.153 Y255.197
G01 X252.706 Y255.721
G01 X253.315 Y256.201
G01 X253.976 Y256.634
G01 X254.688 Y257.016
G01 X255.445 Y257.342
G01 X256.245 Y257.609
G01 X257.083 Y257.815
G01 X257.955 Y257.955
G01 X258.857 Y258.027
G01 X259.783 Y258.029
G01 X260.730 Y257.958
G01 X261.693 Y257.813
G01 X262.665 Y257.591
G01 X262.990 Y257.500
G01 X275.981 Y265.000
G01 X288.971 Y272.500
G01 X301.962 Y280.000
G01 X314.952 Y287.500
G01 X327.942 Y295.000
G01 X340.933 Y302.500
G01 X353.923 Y310.000
G01 X366.913 Y317.500
G01 X379.904 Y325.000
G01 X392.894 Y332.500
G01 X405.885 Y340.000
G01 X418.875 Y347.500
G01 X431.865 Y355.000
G01 X444.856 Y362.500
G01 X457.846 Y370.000
G01 X444.856 Y362.500
G01 X431.865 Y355.000
G01 X418.875 Y347.500
G01 X405.885 Y340.000
G01 X392.894 Y332.500
G01 X379.904 Y325.000
G01 X366.913 Y317.500
G01 X353.923 Y310.000
G01 X340.933 Y302.500
G01 X327.942 Y295.000
G01 X314.952 Y287.500
G01 X301.962 Y280.000
G01 X288.971 Y272.500
G01 X275.981 Y265.000
G01 X262.990 Y257.500
G01 X262.016 Y257.747
G01 X261.050 Y257.918
G01 X260.097 Y258.014
G01 X259.163 Y258.036
G01 X258.252 Y257.987
G01 X257.370 Y257.869
G01 X256.520 Y257.685
G01 X255.707 Y257.438
G01 X254.935 Y257.131
G01 X254.208 Y256.767
G01 X253.529 Y256.351
G01 X252.903 Y255.886
G01 X252.331 Y255.376
G01 X251.816 Y254.826
G01 X251.362 Y254.240
G01 X250.971 Y253.622
G01 X250.643 Y252.978
G01 X250.382 Y252.312
G01 X250.188 Y251.630
G01 X250.061 Y250.935
G01 X250.004 Y250.234
G01 X250.000 Y250.000
G01 X250.034 Y250.691
G01 X250.136 Y251.377
G01 X250.304 Y252.052
G01 X250.540 Y252.713
G01 X250.840 Y253.354
G01 X251.205 Y253.971
G01 X251.631 Y254.558
G01 X252.117 Y255.112
G01 X252.661 Y255.627
G01 X253.260 Y256.099
G01 X253.911 Y256.525
G01 X254.611 Y256.901
G01 X255.356 Y257.221
G01 X256.142 Y257.485
G01 X256.967 Y257.687
G01 X257.825 Y257.825
G01 X258.711 Y257.896
G01 X259.623 Y257.897
G01 X260.554 Y257.828
G01 X261.501 Y257.685
G01 X262.457 Y257.467
G01 X263.119 Y257.272
G01 X276.239 Y264.544
G01 X289.358 Y271.816
G01 X302.477 Y279.089
G01 X315.596 Y286.361
G01 X328.716 Y293.633
G01 X341.835 Y300.905
G01 X354.954 Y308.177
G01 X368.074 Y315.449
G01 X381.193 Y322.721
G01 X394.312 Y329.994
G01 X407.432 Y337.266
G01 X420.551 Y344.538
G01 X433.670 Y351.810
G01 X446.789 Y359.082
G01 X459.909 Y366.354
G01 X446.789 Y359.082
G01 X433.670 Y351.810
G01 X420.551 Y344.538
G01 X407.432 Y337.266
G01 X394.312 Y329.994
G01 X381.193 Y322.721
G01 X368.074 Y315.449
G01 X354.954 Y308.177
G01 X341.835 Y300.905
G01 X328.716 Y293.633
G01 X315.596 Y286.361
G01 X302.477 Y279.089
G01 X289.358 Y271.816
G01 X276.239 Y264.544
G01 X263.119 Y257.272
G01 X262.159 Y257.543
G01 X261.205 Y257.737
G01 X260.263 Y257.857
G01 X259.337 Y257.904
G01 X258.433 Y257.881
G01 X257.554 Y257.789
G01 X256.706 Y257.630
G01 X255.893 Y257.409
G01 X255.119 Y257.128
G01 X254.388 Y256.789
G01 X253.703 Y256.398
G01 X253.068 Y255.957
G01 X252.486 Y255.471
G01 X251.960 Y254.943
G01 X251.492 Y254.379
G01 X251.084 Y253.782
G01 X250.740 Y253.157
G01 X250.459 Y252.510
G01 X250.245 Y251.843
G01 X250.097 Y251.164
G01 X250.016 Y250.476
G01 X250.000 Y250.000
G01 X250.033 Y250.680
G01 X250.133 Y251.354
G01 X250.300 Y252.019
G01 X250.531 Y252.669
G01 X250.827 Y253.300
G01 X251.185 Y253.907
G01 X251.605 Y254.485
G01 X252.083 Y255.029
G01 X252.618 Y255.536
G01 X253.208 Y256.001
G01 X253.848 Y256.420
G01 X254.536 Y256.789
G01 X255.269 Y257.105
G01 X256.043 Y257.364
G01 X256.854 Y257.563
G01 X257.698 Y257.698
G01 X258.571 Y257.768
G01 X259.468 Y257.770
G01 X260.384 Y257.701
G01 X261.315 Y257.561
G01 X262.256 Y257.346
G01 X263.202 Y257.057
G01 X263.244 Y257.042
G01 X276.488 Y264.084
G01 X289.733 Y271.126
G01 X302.977 Y278.168
G01 X316.221 Y285.210
G01 X329.465 Y292.252
G01 X342.709 Y299.295
G01 X355.954 Y306.337
G01 X369.198 Y313.379
G01 X382.442 Y320.421
G01 X395.686 Y327.463
G01 X408.931 Y334.505
G01 X422.175 Y341.547
G01 X435.419 Y348.589
G01 X448.663 Y355.631
G01 X461.907 Y362.673
G01 X448.663 Y355.631
G01 X435.419 Y348.589
G01 X422.175 Y341.547
G01 X408.931 Y334.505
G01 X395.686 Y327.463
G01 X382.442 Y320.421
G01 X369.198 Y313.379
G01 X355.954 Y306.337
G01 X342.709 Y299.295
G01 X329.465 Y292.252
G01 X316.221 Y285.210
G01 X302.977 Y278.168
G01 X289.733 Y271.126
G01 X276.488 Y264.084
G01 X263.244 Y257.042
G01 X262.298 Y257.335
G01 X261.357 Y257.553
G01 X260.425 Y257.697
G01 X259.508 Y257.768
G01 X258.610 Y257.770
G01 X257.737 Y257.703
G01 X256.891 Y257.570
G01 X256.079 Y257.374
G01 X255.303 Y257.118
G01 X254.568 Y256.804
G01 X253.878 Y256.437
G01 X253.235 Y256.021
G01 X252.643 Y255.558
G01 X252.106 Y255.053
G01 X251.625 Y254.510
G01 X251.202 Y253.933
G01 X250.841 Y253.328
G01 X250.543 Y252.698
G01 X250.308 Y252.048
G01 X250.139 Y251.384
G01 X250.036 Y250.710
G01 X250.000 Y250.030
G01 X250.000 Y250.000
G01 X250.033 Y250.669
G01 X250.131 Y251.333
G01 X250.295 Y251.987
G01 X250.523 Y252.627
G01 X250.814 Y253.248
G01 X251.166 Y253.845
G01 X251.579 Y254.413
G01 X252.050 Y254.949
G01 X252.577 Y255.448
G01 X253.157 Y255.906
G01 X253.787 Y256.318
G01 X254.464 Y256.681
G01 X255.186 Y256.992
G01 X255.947 Y257.247
G01 X256.746 Y257.443
G01 X257.576 Y257.576
G01 X258.435 Y257.645
G01 X259.318 Y257.647
G01 X260.219 Y257.579
G01 X261.136 Y257.441
G01 X262.062 Y257.230
G01 X262.993 Y256.945
G01 X263.365 Y256.810
G01 X276.730 Y263.620
G01 X290.095 Y270.430
G01 X303.460 Y277.239
G01 X316.825 Y284.049
G01 X330.191 Y290.859
G01 X343.556 Y297.669
G01 X356.921 Y304.479
G01 X370.286 Y311.289
G01 X383.651 Y318.099
G01 X397.016 Y324.908
G01 X410.381 Y331.718
G01 X423.746 Y338.528
G01 X437.111 Y345.338
G01 X450.476 Y352.148
G01 X463.842 Y358.958
G01 X450.476 Y352.148
G01 X437.111 Y345.338
G01 X423.746 Y338.528
G01 X410.381 Y331.718
G01 X397.016 Y324.908
G01 X383.651 Y318.099
G01 X370.286 Y311.289
G01 X356.921 Y304.479
G01 X343.556 Y297.669
G01 X330.191 Y290.859
G01 X316.825 Y284.049
G01 X303.460 Y277.239
G01 X290.095 Y270.430
G01 X276.730 Y263.620
G01 X263.365 Y256.810
G01 X262.434 Y257.125
G01 X261.505 Y257.365
G01 X260.584 Y257.532
G01 X259.676 Y257.628
G01 X258.785 Y257.654
G01 X257.917 Y257.612
G01 X257.074 Y257.504
G01 X256.263 Y257.332
G01 X255.486 Y257.101
G01 X254.748 Y256.812
G01 X254.052 Y256.470
G01 X253.403 Y256.076
G01 X252.803 Y255.636
G01 X252.254 Y255.154
G01 X251.761 Y254.632
G01 X251.324 Y254.076
G01 X250.947 Y253.490
G01 X250.631 Y252.878
G01 X250.378 Y252.245
G01 X250.189 Y251.596
G01 X250.064 Y250.935
G01 X250.005 Y250.268
G01 X250.000 Y250.000
G01 X250.032 Y250.658
G01 X250.129 Y251.312
G01 X250.290 Y251.956
G01 X250.514 Y252.586
G01 X250.801 Y253.197
G01 X251.148 Y253.785
G01 X251.554 Y254.345
G01 X252.018 Y254.872
G01 X252.537 Y255.363
G01 X253.107 Y255.813
G01 X253.728 Y256.219
G01 X254.395 Y256.577
G01 X255.105 Y256.883
G01 X255.855 Y257.134
G01 X256.640 Y257.326
G01 X257.458 Y257.458
G01 X258.303 Y257.526
G01 X259.172 Y257.527
G01 X260.060 Y257.461
G01 X260.962 Y257.324
G01 X261.873 Y257.117
G01 X262.790 Y256.836
G01 X263.482 Y256.576
G01 X276.964 Y263.151
G01 X290.446 Y269.727
G01 X303.928 Y276.302
G01 X317.410 Y282.878
G01 X330.891 Y289.453
G01 X344.373 Y296.029
G01 X357.855 Y302.605
G01 X371.337 Y309.180
G01 X384.819 Y315.756
G01 X398.301 Y322.331
G01 X411.783 Y328.907
G01 X425.265 Y335.482
G01 X438.747 Y342.058
G01 X452.229 Y348.634
G01 X465.711 Y355.209
G01 X452.229 Y348.634
G01 X438.747 Y342.058
G01 X425.265 Y335.482
G01 X411.783 Y328.907
G01 X398.301 Y322.331
G01 X384.819 Y315.756
G01 X371.337 Y309.180
G01 X357.855 Y302.605
G01 X344.373 Y296.029
G01 X330.891 Y289.453
G01 X317.410 Y282.878
G01 X303.928 Y276.302
G01 X290.446 Y269.727
G01 X276.964 Y263.151
G01 X263.482 Y256.576
G01 X262.565 Y256.911
G01 X261.650 Y257.174
G01 X260.740 Y257.364
G01 X259.841 Y257.483
G01 X258.958 Y257.533
G01 X258.094 Y257.515
G01 X257.255 Y257.431
G01 X256.445 Y257.285
G01 X255.668 Y257.078
G01 X254.927 Y256.813
G01 X254.228 Y256.494
G01 X253.572 Y256.124
G01 X252.963 Y255.707
G01 X252.405 Y255.247
G01 X251.900 Y254.746
G01 X251.450 Y254.211
G01 X251.058 Y253.644
G01 X250.725 Y253.050
G01 X250.454 Y252.434
G01 X250.245 Y251.800
G01 X250.100 Y251.153
G01 X250.018 Y250.498
G01 X250.000 Y250.000
G01 X250.032 Y250.648
G01 X250.127 Y251.292
G01 X250.286 Y251.926
G01 X250.506 Y252.546
G01 X250.789 Y253.148
G01 X251.130 Y253.727
G01 X251.531 Y254.278
G01 X251.987 Y254.797
G01 X252.497 Y255.281
G01 X253.060 Y255.724
G01 X253.670 Y256.124
G01 X254.327 Y256.476
G01 X255.026 Y256.777
G01 X255.764 Y257.024
G01 X256.538 Y257.214
G01 X257.343 Y257.343
G01 X258.175 Y257.410
G01 X259.031 Y257.411
G01 X259.905 Y257.346
G01 X260.793 Y257.212
G01 X261.691 Y257.007
G01 X262.593 Y256.731
G01 X263.495 Y256.382
G01 X263.595 Y256.339
G01 X277.189 Y262.679
G01 X290.784 Y269.018
G01 X304.378 Y275.357
G01 X317.973 Y281.696
G01 X331.568 Y288.036
G01 X345.162 Y294.375
G01 X358.757 Y300.714
G01 X372.352 Y307.053
G01 X385.946 Y313.393
G01 X399.541 Y319.732
G01 X413.135 Y326.071
G01 X426.730 Y332.411
G01 X440.325 Y338.750
G01 X453.919 Y345.089
G01 X467.514 Y351.428
G01 X453.919 Y345.089
G01 X440.325 Y338.750
G01 X426.730 Y332.411
G01 X413.135 Y326.071
G01 X399.541 Y319.732
G01 X385.946 Y313.393
G01 X372.352 Y307.053
G01 X358.757 Y300.714
G01 X345.162 Y294.375
G01 X331.568 Y288.036
G01 X317.973 Y281.696
G01 X304.378 Y275.357
G01 X290.784 Y269.018
G01 X277.189 Y262.679
G01 X263.595 Y256.339
G01 X262.693 Y256.696
G01 X261.791 Y256.980
G01 X260.892 Y257.192
G01 X260.003 Y257.335
G01 X259.127 Y257.408
G01 X258.269 Y257.413
G01 X257.434 Y257.354
G01 X256.626 Y257.231
G01 X255.849 Y257.048
G01 X255.106 Y256.807
G01 X254.403 Y256.512
G01 X253.741 Y256.165
G01 X253.125 Y255.771
G01 X252.557 Y255.332
G01 X252.041 Y254.853
G01 X251.579 Y254.337
G01 X251.172 Y253.789
G01 X250.824 Y253.213
G01 X250.535 Y252.614
G01 X250.307 Y251.996
G01 X250.142 Y251.363
G01 X250.039 Y250.720
G01 X250.000 Y250.072
G01 X250.000 Y250.000
G01 X250.031 Y250.638
G01 X250.125 Y251.272
G01 X250.281 Y251.897
G01 X250.499 Y252.508
G01 X250.777 Y253.100
G01 X251.113 Y253.670
G01 X251.507 Y254.213
G01 X251.957 Y254.724
G01 X252.460 Y255.201
G01 X253.013 Y255.637
G01 X253.615 Y256.031
G01 X254.261 Y256.378
G01 X254.950 Y256.674
G01 X255.677 Y256.918
G01 X256.439 Y257.104
G01 X257.232 Y257.232
G01 X258.052 Y257.297
G01 X258.894 Y257.299
G01 X259.755 Y257.235
G01 X260.630 Y257.102
G01 X261.514 Y256.901
G01 X262.402 Y256.629
G01 X263.290 Y256.286
G01 X263.703 Y256.101
G01 X277.406 Y262.202
G01 X291.110 Y268.303
G01 X304.813 Y274.404
G01 X318.516 Y280.505
G01 X332.219 Y286.606
G01 X345.922 Y292.707
G01 X359.625 Y298.808
G01 X373.329 Y304.909
G01 X387.032 Y311.010
G01 X400.735 Y317.112
G01 X414.438 Y323.213
G01 X428.141 Y329.314
G01 X441.845 Y335.415
G01 X455.548 Y341.516
G01 X469.251 Y347.617
G01 X455.548 Y341.516
G01 X441.845 Y335.415
G01 X428.141 Y329.314
G01 X414.438 Y323.213
G01 X400.735 Y317.112
G01 X387.032 Y311.010
G01 X373.329 Y304.909
G01 X359.625 Y298.808
G01 X345.922 Y292.707
G01 X332.219 Y286.606
G01 X318.516 Y280.505
G01 X304.813 Y274.404
G01 X291.110 Y268.303
G01 X277.406 Y262.202
G01 X263.703 Y256.101
G01 X262.817 Y256.478
G01 X261.928 Y256.783
G01 X261.041 Y257.017
G01 X260.162 Y257.182
G01 X259.294 Y257.277
G01 X258.442 Y257.306
G01 X257.611 Y257.270
G01 X256.805 Y257.171
G01 X256.029 Y257.012
G01 X255.285 Y256.795
G01 X254.578 Y256.523
G01 X253.911 Y256.199
G01 X253.288 Y255.827
G01 X252.712 Y255.409
G01 X252.185 Y254.951
G01 X251.710 Y254.456
G01 X251.290 Y253.927
G01 X250.926 Y253.369
G01 X250.621 Y252.787
G01 X250.375 Y252.184
G01 X250.190 Y251.565
G01 X250.067 Y250.935
G01 X250.007 Y250.298
G01 X250.000 Y250.000
G01 X250.031 Y250.629
G01 X250.123 Y251.253
G01 X250.277 Y251.869
G01 X250.491 Y252.470
G01 X250.765 Y253.054
G01 X251.097 Y253.615
G01 X251.485 Y254.150
G01 X251.928 Y254.654
G01 X252.423 Y255.123
G01 X252.968 Y255.553
G01 X253.561 Y255.941
G01 X254.198 Y256.283
G01 X254.876 Y256.575
G01 X255.592 Y256.814
G01 X256.343 Y256.998
G01 X257.124 Y257.124
G01 X257.931 Y257.189
G01 X258.761 Y257.190
G01 X259.609 Y257.127
G01 X260.471 Y256.996
G01 X261.342 Y256.798
G01 X262.217 Y256.530
G01 X263.092 Y256.192
G01 X263.808 Y255.861
G01 X277.615 Y261.722
G01 X291.423 Y267.583
G01 X305.230 Y273.444
G01 X319.038 Y279.305
G01 X332.845 Y285.166
G01 X346.653 Y291.027
G01 X360.461 Y296.888
G01 X374.268 Y302.749
G01 X388.076 Y308.610
G01 X401.883 Y314.471
G01 X415.691 Y320.332
G01 X429.498 Y326.193
G01 X443.306 Y332.054
G01 X457.114 Y337.915
G01 X470.921 Y343.775
G01 X457.114 Y337.915
G01 X443.306 Y332.054
G01 X429.498 Y326.193
G01 X415.691 Y320.332
G01 X401.883 Y314.471
G01 X388.076 Y308.610
G01 X374.268 Y302.749
G01 X360.461 Y296.888
G01 X346.653 Y291.027
G01 X332.845 Y285.166
G01 X319.038 Y279.305
G01 X305.230 Y273.444
G01 X291.423 Y267.583
G01 X277.615 Y261.722
G01 X263.808 Y255.861
G01 X262.937 Y256.257
G01 X262.061 Y256.583
G01 X261.186 Y256.838
G01 X260.317 Y257.025
G01 X259.457 Y257.143
G01 X258.612 Y257.195
G01 X257.786 Y257.182
G01 X256.983 Y257.106
G01 X256.207 Y256.970
G01 X255.462 Y256.776
G01 X254.753 Y256.527
G01 X254.082 Y256.225
G01 X253.452 Y255.875
G01 X252.868 Y255.480
G01 X252.331 Y255.042
G01 X251.845 Y254.567
G01 X251.412 Y254.057
G01 X251.034 Y253.517
G01 X250.712 Y252.952
G01 X250.449 Y252.364
G01 X250.245 Y251.760
G01 X250.102 Y251.143
G01 X250.021 Y250.517
G01 X250.000 Y250.000
G01 X250.030 Y250.620
G01 X250.122 Y251.235
G01 X250.273 Y251.841
G01 X250.484 Y252.434
G01 X250.754 Y253.009
G01 X251.081 Y253.562
G01 X251.463 Y254.089
G01 X251.899 Y254.585
G01 X252.387 Y255.048
G01 X252.925 Y255.471
G01 X253.508 Y255.854
G01 X254.136 Y256.190
G01 X254.804 Y256.478
G01 X255.510 Y256.714
G01 X256.250 Y256.895
G01 X257.019 Y257.019
G01 X257.815 Y257.083
G01 X258.632 Y257.084
G01 X259.468 Y257.022
G01 X260.317 Y256.894
G01 X261.175 Y256.698
G01 X262.037 Y256.434
G01 X262.899 Y256.101
G01 X263.756 Y255.698
G01 X263.908 Y255.619
G01 X277.816 Y261.238
G01 X291.723 Y266.857
G01 X305.631 Y272.476
G01 X319.539 Y278.095
G01 X333.447 Y283.715
G01 X347.354 Y289.334
G01 X361.262 Y294.953
G01 X375.170 Y300.572
G01 X389.078 Y306.191
G01 X402.985 Y311.810
G01 X416.893 Y317.429
G01 X430.801 Y323.048
G01 X444.709 Y328.667
G01 X458.616 Y334.286
G01 X472.524 Y339.906
G01 X458.616 Y334.286
G01 X444.709 Y328.667
G01 X430.801 Y323.048
G01 X416.893 Y317.429
G01 X402.985 Y311.810
G01 X389.078 Y306.191
G01 X375.170 Y300.572
G01 X361.262 Y294.953
G01 X347.354 Y289.334
G01 X333.447 Y283.715
G01 X319.539 Y278.095
G01 X305.631 Y272.476
G01 X291.723 Y266.857
G01 X277.816 Y261.238
G01 X263.908 Y255.619
G01 X263.052 Y256.034
G01 X262.191 Y256.380
G01 X261.328 Y256.656
G01 X260.469 Y256.864
G01 X259.618 Y257.004
G01 X258.780 Y257.078
G01 X257.959 Y257.088
G01 X257.159 Y257.035
G01 X256.384 Y256.922
G01 X255.639 Y256.750
G01 X254.927 Y256.524
G01 X254.252 Y256.245
G01 X253.617 Y255.917
G01 X253.025 Y255.543
G01 X252.479 Y255.126
G01 X251.982 Y254.670
G01 X251.537 Y254.180
G01 X251.145 Y253.658
G01 X250.808 Y253.109
G01 X250.528 Y252.538
G01 X250.306 Y251.948
G01 X250.144 Y251.343
G01 X250.042 Y250.729
G01 X250.001 Y250.110
G01 X250.000 Y250.000
G01 X250.030 Y250.611
G01 X250.120 Y251.217
G01 X250.269 Y251.814
G01 X250.477 Y252.399
G01 X250.743 Y252.965
G01 X251.065 Y253.511
G01 X251.442 Y254.030
G01 X251.872 Y254.519
G01 X252.353 Y254.974
G01 X252.882 Y255.392
G01 X253.458 Y255.769
G01 X254.076 Y256.100
G01 X254.735 Y256.384
G01 X255.430 Y256.617
G01 X256.159 Y256.795
G01 X256.917 Y256.917
G01 X257.701 Y256.980
G01 X258.507 Y256.982
G01 X259.331 Y256.920
G01 X260.167 Y256.794
G01 X261.013 Y256.601
G01 X261.863 Y256.341
G01 X262.712 Y256.012
G01 X263.557 Y255.615
G01 X264.004 Y255.376
G01 X278.007 Y260.751
G01 X292.011 Y266.127
G01 X306.015 Y271.502
G01 X320.019 Y276.878
G01 X334.022 Y282.253
G01 X348.026 Y287.629
G01 X362.030 Y293.004
G01 X376.033 Y298.380
G01 X390.037 Y303.755
G01 X404.041 Y309.131
G01 X418.044 Y314.506
G01 X432.048 Y319.882
G01 X446.052 Y325.257
G01 X460.056 Y330.633
G01 X474.059 Y336.008
G01 X460.056 Y330.633
G01 X446.052 Y325.257
G01 X432.048 Y319.882
G01 X418.044 Y314.506
G01 X404.041 Y309.131
G01 X390.037 Y303.755
G01 X376.033 Y298.380
G01 X362.030 Y293.004
G01 X348.026 Y287.629
G01 X334.022 Y282.253
G01 X320.019 Y276.878
G01 X306.015 Y271.502
G01 X292.011 Y266.127
G01 X278.007 Y260.751
G01 X264.004 Y255.376
G01 X263.164 Y255.809
G01 X262.316 Y256.174
G01 X261.466 Y256.471
G01 X260.618 Y256.699
G01 X259.776 Y256.861
G01 X258.945 Y256.957
G01 X258.129 Y256.989
G01 X257.333 Y256.958
G01 X256.560 Y256.868
G01 X255.815 Y256.719
G01 X255.101 Y256.515
G01 X254.423 Y256.258
G01 X253.782 Y255.951
G01 X253.184 Y255.598
G01 X252.629 Y255.202
G01 X252.122 Y254.766
G01 X251.665 Y254.295
G01 X251.259 Y253.791
G01 X250.908 Y253.259
G01 X250.612 Y252.703
G01 X250.373 Y252.128
G01 X250.192 Y251.537
G01 X250.070 Y250.935
G01 X250.009 Y250.326
G01 X250.000 Y250.000
G01 X250.026 Y250.527
G01 X250.103 Y251.050
G01 X250.232 Y251.565
G01 X250.412 Y252.069
G01 X250.641 Y252.558
G01 X250.918 Y253.028
G01 X251.244 Y253.476
G01 X251.614 Y253.898
G01 X252.029 Y254.290
G01 X252.486 Y254.651
G01 X252.982 Y254.975
G01 X253.516 Y255.262
G01 X254.084 Y255.506
G01 X254.684 Y255.707
G01 X255.312 Y255.861
G01 X255.966 Y255.966
G01 X256.643 Y256.020
G01 X257.338 Y256.022
G01 X258.048 Y255.969
G01 X258.769 Y255.860
G01 X259.499 Y255.693
G01 X260.232 Y255.469
G01 X260.964 Y255.186
G01 X261.693 Y254.843
G01 X262.413 Y254.441
G01 X263.121 Y253.980
G01 X263.812 Y253.460
G01 X264.482 Y252.881
G01 X264.772 Y252.605
G01 X279.544 Y255.209
G01 X294.316 Y257.814
G01 X309.088 Y260.419
G01 X323.861 Y263.024
G01 X338.633 Y265.628
G01 X353.405 Y268.233
G01 X368.177 Y270.838
G01 X382.949 Y273.443
G01 X397.721 Y276.047
G01 X412.493 Y278.652
G01 X427.265 Y281.257
G01 X442.038 Y283.861
G01 X456.810 Y286.466
G01 X471.582 Y289.071
G01 X486.354 Y291.676
G01 X471.582 Y289.071
G01 X456.810 Y286.466
G01 X442.038 Y283.861
G01 X427.265 Y281.257
G01 X412.493 Y278.652
G01 X397.721 Y276.047
G01 X382.949 Y273.443
G01 X368.177 Y270.838
G01 X353.405 Y268.233
G01 X338.633 Y265.628
G01 X323.861 Y263.024
G01 X309.088 Y260.419
G01 X294.316 Y257.814
G01 X279.544 Y255.209
G01 X264.772 Y252.605
G01 X264.112 Y253.209
G01 X263.430 Y253.756
G01 X262.729 Y254.244
G01 X262.014 Y254.672
G01 X261.289 Y255.041
G01 X260.558 Y255.350
G01 X259.824 Y255.601
G01 X259.093 Y255.793
G01 X258.367 Y255.927
G01 X257.652 Y256.005
G01 X256.949 Y256.028
G01 X256.264 Y255.997
G01 X255.600 Y255.914
G01 X254.960 Y255.781
G01 X254.347 Y255.601
G01 X253.764 Y255.376
G01 X253.215 Y255.108
G01 X252.702 Y254.800
G01 X252.227 Y254.455
G01 X251.793 Y254.076
G01 X251.403 Y253.667
G01 X251.057 Y253.230
G01 X250.758 Y252.769
G01 X250.507 Y252.288
G01 X250.306 Y251.791
G01 X250.154 Y251.280
G01 X250.054 Y250.760
G01 X250.005 Y250.234
G01 X250.000 Y250.000
G01 X250.026 Y250.520
G01 X250.102 Y251.037
G01 X250.229 Y251.546
G01 X250.406 Y252.043
G01 X250.633 Y252.526
G01 X250.907 Y252.990
G01 X251.228 Y253.433
G01 X251.595 Y253.849
G01 X252.004 Y254.237
G01 X252.455 Y254.593
G01 X252.945 Y254.914
G01 X253.472 Y255.197
G01 X254.033 Y255.438
G01 X254.626 Y255.637
G01 X255.247 Y255.789
G01 X255.893 Y255.893
G01 X256.561 Y255.946
G01 X257.247 Y255.947
G01 X257.948 Y255.895
G01 X258.661 Y255.787
G01 X259.381 Y255.623
G01 X260.105 Y255.401
G01 X260.829 Y255.122
G01 X261.548 Y254.784
G01 X262.260 Y254.387
G01 X262.959 Y253.931
G01 X263.641 Y253.417
G01 X264.303 Y252.845
G01 X264.815 Y252.347
G01 X279.631 Y254.693
G01 X294.446 Y257.040
G01 X309.261 Y259.386
G01 X324.077 Y261.733
G01 X338.892 Y264.079
G01 X353.707 Y266.426
G01 X368.523 Y268.772
G01 X383.338 Y271.119
G01 X398.153 Y273.465
G01 X412.969 Y275.812
G01 X427.784 Y278.158
G01 X442.599 Y280.505
G01 X457.415 Y282.851
G01 X472.230 Y285.198
G01 X487.045 Y287.544
G01 X472.230 Y285.198
G01 X457.415 Y282.851
G01 X442.599 Y280.505
G01 X427.784 Y278.158
G01 X412.969 Y275.812
G01 X398.153 Y273.465
G01 X383.338 Y271.119
G01 X368.523 Y268.772
G01 X353.707 Y266.426
G01 X338.892 Y264.079
G01 X324.077 Y261.733
G01 X309.261 Y259.386
G01 X294.446 Y257.040
G01 X279.631 Y254.693
G01 X264.815 Y252.347
G01 X264.173 Y252.964
G01 X263.506 Y253.524
G01 X262.820 Y254.027
G01 X262.118 Y254.471
G01 X261.405 Y254.856
G01 X260.685 Y255.182
G01 X259.960 Y255.450
G01 X259.237 Y255.660
G01 X258.518 Y255.813
G01 X257.807 Y255.910
G01 X257.108 Y255.951
G01 X256.425 Y255.940
G01 X255.761 Y255.876
G01 X255.120 Y255.762
G01 X254.505 Y255.601
G01 X253.919 Y255.393
G01 X253.364 Y255.143
G01 X252.844 Y254.853
G01 X252.362 Y254.525
G01 X251.919 Y254.162
G01 X251.518 Y253.768
G01 X251.160 Y253.346
G01 X250.848 Y252.899
G01 X250.584 Y252.431
G01 X250.367 Y251.945
G01 X250.200 Y251.445
G01 X250.083 Y250.934
G01 X250.016 Y250.416
G01 X250.000 Y250.000
G01 X250.025 Y250.514
G01 X250.101 Y251.024
G01 X250.226 Y251.527
G01 X250.401 Y252.018
G01 X250.625 Y252.495
G01 X250.896 Y252.954
G01 X251.213 Y253.391
G01 X251.575 Y253.803
G01 X251.980 Y254.186
G01 X252.425 Y254.537
G01 X252.909 Y254.854
G01 X253.430 Y255.133
G01 X253.984 Y255.372
G01 X254.569 Y255.568
G01 X255.183 Y255.718
G01 X255.821 Y255.821
G01 X256.480 Y255.874
G01 X257.159 Y255.875
G01 X257.851 Y255.823
G01 X258.556 Y255.717
G01 X259.267 Y255.554
G01 X259.982 Y255.336
G01 X260.697 Y255.059
G01 X261.408 Y254.725
G01 X262.110 Y254.333
G01 X262.801 Y253.883
G01 X263.475 Y253.375
G01 X264.129 Y252.810
G01 X264.758 Y252.189
G01 X264.854 Y252.088
G01 X279.708 Y254.175
G01 X294.562 Y256.263
G01 X309.416 Y258.350
G01 X324.270 Y260.438
G01 X339.124 Y262.526
G01 X353.978 Y264.613
G01 X368.832 Y266.701
G01 X383.686 Y268.788
G01 X398.540 Y270.876
G01 X413.394 Y272.964
G01 X428.248 Y275.051
G01 X443.102 Y277.139
G01 X457.956 Y279.226
G01 X472.810 Y281.314
G01 X487.664 Y283.402
G01 X472.810 Y281.314
G01 X457.956 Y279.226
G01 X443.102 Y277.139
G01 X428.248 Y275.051
G01 X413.394 Y272.964
G01 X398.540 Y270.876
G01 X383.686 Y268.788
G01 X368.832 Y266.701
G01 X353.978 Y264.613
G01 X339.124 Y262.526
G01 X324.270 Y260.438
G01 X309.416 Y258.350
G01 X294.562 Y256.263
G01 X279.708 Y254.175
G01 X264.854 Y252.088
G01 X264.228 Y252.717
G01 X263.578 Y253.291
G01 X262.907 Y253.808
G01 X262.218 Y254.267
G01 X261.518 Y254.668
G01 X260.808 Y255.011
G01 X260.093 Y255.296
G01 X259.378 Y255.524
G01 X258.666 Y255.695
G01 X257.960 Y255.810
G01 X257.265 Y255.870
G01 X256.585 Y255.877
G01 X255.922 Y255.832
G01 X255.280 Y255.737
G01 X254.663 Y255.594
G01 X254.073 Y255.405
G01 X253.514 Y255.173
G01 X252.988 Y254.900
G01 X252.498 Y254.589
G01 X252.046 Y254.243
G01 X251.635 Y253.864
G01 X251.267 Y253.457
G01 X250.942 Y253.023
G01 X250.664 Y252.568
G01 X250.433 Y252.094
G01 X250.250 Y251.604
G01 X250.117 Y251.103
G01 X250.034 Y250.594
G01 X250.001 Y250.080
G01 X250.000 Y250.000
G01 X250.025 Y250.508
G01 X250.100 Y251.012
G01 X250.224 Y251.508
G01 X250.397 Y251.994
G01 X250.618 Y252.465
G01 X250.885 Y252.918
G01 X251.199 Y253.350
G01 X251.556 Y253.757
G01 X251.956 Y254.135
G01 X252.396 Y254.483
G01 X252.874 Y254.796
G01 X253.389 Y255.071
G01 X253.936 Y255.307
G01 X254.514 Y255.501
G01 X255.120 Y255.649
G01 X255.751 Y255.751
G01 X256.402 Y255.803
G01 X257.072 Y255.804
G01 X257.757 Y255.753
G01 X258.452 Y255.648
G01 X259.155 Y255.488
G01 X259.862 Y255.271
G01 X260.568 Y254.998
G01 X261.270 Y254.668
G01 X261.964 Y254.281
G01 X262.646 Y253.836
G01 X263.312 Y253.335
G01 X263.958 Y252.777
G01 X264.581 Y252.163
G01 X264.888 Y251.828
G01 X279.776 Y253.656
G01 X294.665 Y255.484
G01 X309.553 Y257.312
G01 X324.441 Y259.140
G01 X339.329 Y260.968
G01 X354.217 Y262.796
G01 X369.106 Y264.624
G01 X383.994 Y266.452
G01 X398.882 Y268.280
G01 X413.770 Y270.108
G01 X428.658 Y271.936
G01 X443.546 Y273.765
G01 X458.435 Y275.593
G01 X473.323 Y277.421
G01 X488.211 Y279.249
G01 X473.323 Y277.421
G01 X458.435 Y275.593
G01 X443.546 Y273.765
G01 X428.658 Y271.936
G01 X413.770 Y270.108
G01 X398.882 Y268.280
G01 X383.994 Y266.452
G01 X369.106 Y264.624
G01 X354.217 Y262.796
G01 X339.329 Y260.968
G01 X324.441 Y259.140
G01 X309.553 Y257.312
G01 X294.665 Y255.484
G01 X279.776 Y253.656
G01 X264.888 Y251.828
G01 X264.280 Y252.470
G01 X263.645 Y253.056
G01 X262.989 Y253.587
G01 X262.315 Y254.061
G01 X261.626 Y254.477
G01 X260.928 Y254.837
G01 X260.223 Y255.139
G01 X259.516 Y255.384
G01 X258.811 Y255.573
G01 X258.111 Y255.706
G01 X257.421 Y255.785
G01 X256.743 Y255.810
G01 X256.081 Y255.784
G01 X255.439 Y255.707
G01 X254.821 Y255.582
G01 X254.228 Y255.412
G01 X253.665 Y255.197
G01 X253.133 Y254.941
G01 X252.636 Y254.647
G01 X252.176 Y254.317
G01 X251.755 Y253.954
G01 X251.376 Y253.561
G01 X251.040 Y253.142
G01 X250.749 Y252.699
G01 X250.504 Y252.237
G01 X250.306 Y251.758
G01 X250.157 Y251.267
G01 X250.057 Y250.766
G01 X250.007 Y250.260
G01 X250.000 Y250.000
G01 X250.025 Y250.502
G01 X250.098 Y251.000
G01 X250.221 Y251.490
G01 X250.392 Y251.970
G01 X250.610 Y252.436
G01 X250.875 Y252.884
G01 X251.184 Y253.310
G01 X251.538 Y253.712
G01 X251.933 Y254.086
G01 X252.368 Y254.429
G01 X252.840 Y254.739
G01 X253.348 Y255.011
G01 X253.889 Y255.244
G01 X254.461 Y255.435
G01 X255.059 Y255.582
G01 X255.682 Y255.682
G01 X256.326 Y255.734
G01 X256.988 Y255.735
G01 X257.665 Y255.684
G01 X258.352 Y255.581
G01 X259.046 Y255.422
G01 X259.744 Y255.209
G01 X260.442 Y254.939
G01 X261.136 Y254.613
G01 X261.822 Y254.230
G01 X262.496 Y253.791
G01 X263.154 Y253.295
G01 X263.792 Y252.743
G01 X264.407 Y252.137
G01 X264.918 Y251.568
G01 X279.836 Y253.136
G01 X294.753 Y254.704
G01 X309.671 Y256.272
G01 X324.589 Y257.840
G01 X339.507 Y259.408
G01 X354.425 Y260.975
G01 X369.343 Y262.543
G01 X384.260 Y264.111
G01 X399.178 Y265.679
G01 X414.096 Y267.247
G01 X429.014 Y268.815
G01 X443.932 Y270.383
G01 X458.850 Y271.951
G01 X473.767 Y273.519
G01 X488.685 Y275.087
G01 X473.767 Y273.519
G01 X458.850 Y271.951
G01 X443.932 Y270.383
G01 X429.014 Y268.815
G01 X414.096 Y267.247
G01 X399.178 Y265.679
G01 X384.260 Y264.111
G01 X369.343 Y262.543
G01 X354.425 Y260.975
G01 X339.507 Y259.408
G01 X324.589 Y257.840
G01 X309.671 Y256.272
G01 X294.753 Y254.704
G01 X279.836 Y253.136
G01 X264.918 Y251.568
G01 X264.327 Y252.221
G01 X263.708 Y252.820
G01 X263.067 Y253.364
G01 X262.407 Y253.852
G01 X261.731 Y254.284
G01 X261.044 Y254.659
G01 X260.349 Y254.978
G01 X259.651 Y255.240
G01 X258.953 Y255.446
G01 X258.260 Y255.597
G01 X257.574 Y255.694
G01 X256.899 Y255.738
G01 X256.239 Y255.730
G01 X255.598 Y255.672
G01 X254.978 Y255.565
G01 X254.383 Y255.412
G01 X253.815 Y255.215
G01 X253.279 Y254.977
G01 X252.775 Y254.699
G01 X252.307 Y254.385
G01 X251.878 Y254.038
G01 X251.488 Y253.660
G01 X251.141 Y253.255
G01 X250.837 Y252.825
G01 X250.578 Y252.375
G01 X250.366 Y251.907
G01 X250.202 Y251.426
G01 X250.086 Y250.934
G01 X250.019 Y250.435
G01 X250.000 Y250.000
G01 X250.024 Y250.496
G01 X250.097 Y250.988
G01 X250.218 Y251.473
G01 X250.387 Y251.947
G01 X250.603 Y252.407
G01 X250.864 Y252.850
G01 X251.170 Y253.271
G01 X251.519 Y253.668
G01 X251.910 Y254.038
G01 X252.340 Y254.377
G01 X252.807 Y254.683
G01 X253.309 Y254.952
G01 X253.844 Y255.182
G01 X254.408 Y255.371
G01 X255.000 Y255.516
G01 X255.615 Y255.615
G01 X256.252 Y255.666
G01 X256.906 Y255.668
G01 X257.574 Y255.618
G01 X258.254 Y255.515
G01 X258.940 Y255.358
G01 X259.630 Y255.147
G01 X260.319 Y254.881
G01 X261.005 Y254.558
G01 X261.683 Y254.180
G01 X262.349 Y253.746
G01 X262.999 Y253.256
G01 X263.630 Y252.711
G01 X264.238 Y252.112
G01 X264.818 Y251.459
G01 X264.943 Y251.307
G01 X279.886 Y252.615
G01 X294.829 Y253.922
G01 X309.772 Y255.229
G01 X324.715 Y256.537
G01 X339.658 Y257.844
G01 X354.600 Y259.151
G01 X369.543 Y260.459
G01 X384.486 Y261.766
G01 X399.429 Y263.073
G01 X414.372 Y264.381
G01 X429.315 Y265.688
G01 X444.258 Y266.995
G01 X459.201 Y268.303
G01 X474.144 Y269.610
G01 X489.087 Y270.917
G01 X474.144 Y269.610
G01 X459.201 Y268.303
G01 X444.258 Y266.995
G01 X429.315 Y265.688
G01 X414.372 Y264.381
G01 X399.429 Y263.073
G01 X384.486 Y261.766
G01 X369.543 Y260.459
G01 X354.600 Y259.151
G01 X339.658 Y257.844
G01 X324.715 Y256.537
G01 X309.772 Y255.229
G01 X294.829 Y253.922
G01 X279.886 Y252.615
G01 X264.943 Y251.307
G01 X264.369 Y251.972
G01 X263.767 Y252.583
G01 X263.141 Y253.140
G01 X262.495 Y253.642
G01 X261.832 Y254.088
G01 X261.156 Y254.479
G01 X260.472 Y254.814
G01 X259.783 Y255.093
G01 X259.093 Y255.316
G01 X258.406 Y255.485
G01 X257.724 Y255.599
G01 X257.053 Y255.661
G01 X256.396 Y255.671
G01 X255.755 Y255.631
G01 X255.134 Y255.542
G01 X254.537 Y255.407
G01 X253.967 Y255.228
G01 X253.425 Y255.007
G01 X252.915 Y254.746
G01 X252.440 Y254.448
G01 X252.002 Y254.116
G01 X251.603 Y253.753
G01 X251.244 Y253.362
G01 X250.929 Y252.945
G01 X250.657 Y252.507
G01 X250.431 Y252.051
G01 X250.252 Y251.579
G01 X250.120 Y251.096
G01 X250.036 Y250.606
G01 X250.001 Y250.110
G01 X250.000 Y250.000
G01 X250.024 Y250.490
G01 X250.096 Y250.976
G01 X250.216 Y251.456
G01 X250.383 Y251.925
G01 X250.596 Y252.379
G01 X250.854 Y252.817
G01 X251.157 Y253.233
G01 X251.502 Y253.626
G01 X251.888 Y253.991
G01 X252.312 Y254.326
G01 X252.774 Y254.628
G01 X253.270 Y254.895
G01 X253.799 Y255.122
G01 X254.357 Y255.309
G01 X254.942 Y255.452
G01 X255.550 Y255.550
G01 X256.179 Y255.600
G01 X256.826 Y255.602
G01 X257.486 Y255.552
G01 X258.158 Y255.451
G01 X258.836 Y255.296
G01 X259.518 Y255.087
G01 X260.199 Y254.824
G01 X260.877 Y254.505
G01 X261.547 Y254.132
G01 X262.205 Y253.702
G01 X262.848 Y253.218
G01 X263.472 Y252.680
G01 X264.072 Y252.087
G01 X264.646 Y251.442
G01 X264.963 Y251.046
G01 X279.927 Y252.093
G01 X294.890 Y253.139
G01 X309.854 Y254.185
G01 X324.817 Y255.232
G01 X339.781 Y256.278
G01 X354.744 Y257.324
G01 X369.708 Y258.371
G01 X384.671 Y259.417
G01 X399.635 Y260.463
G01 X414.598 Y261.510
G01 X429.562 Y262.556
G01 X444.525 Y263.603
G01 X459.488 Y264.649
G01 X474.452 Y265.695
G01 X489.415 Y266.742
G01 X474.452 Y265.695
G01 X459.488 Y264.649
G01 X444.525 Y263.603
G01 X429.562 Y262.556
G01 X414.598 Y261.510
G01 X399.635 Y260.463
G01 X384.671 Y259.417
G01 X369.708 Y258.371
G01 X354.744 Y257.324
G01 X339.781 Y256.278
G01 X324.817 Y255.232
G01 X309.854 Y254.185
G01 X294.890 Y253.139
G01 X279.927 Y252.093
G01 X264.963 Y251.046
G01 X264.407 Y251.721
G01 X263.822 Y252.344
G01 X263.211 Y252.914
G01 X262.579 Y253.429
G01 X261.929 Y253.890
G01 X261.265 Y254.296
G01 X260.592 Y254.647
G01 X259.912 Y254.942
G01 X259.230 Y255.182
G01 X258.549 Y255.368
G01 X257.873 Y255.500
G01 X257.206 Y255.579
G01 X256.551 Y255.607
G01 X255.911 Y255.585
G01 X255.290 Y255.514
G01 X254.692 Y255.397
G01 X254.118 Y255.235
G01 X253.572 Y255.031
G01 X253.057 Y254.787
G01 X252.575 Y254.505
G01 X252.128 Y254.189
G01 X251.720 Y253.840
G01 X251.351 Y253.463
G01 X251.024 Y253.060
G01 X250.740 Y252.634
G01 X250.500 Y252.189
G01 X250.307 Y251.728
G01 X250.160 Y251.254
G01 X250.060 Y250.772
G01 X250.008 Y250.283
G01 X250.000 Y250.000
G01 X250.024 Y250.484
G01 X250.095 Y250.965
G01 X250.213 Y251.439
G01 X250.378 Y251.902
G01 X250.589 Y252.352
G01 X250.845 Y252.784
G01 X251.144 Y253.196
G01 X251.485 Y253.584
G01 X251.866 Y253.945
G01 X252.286 Y254.277
G01 X252.742 Y254.575
G01 X253.233 Y254.838
G01 X253.755 Y255.063
G01 X254.307 Y255.248
G01 X254.885 Y255.389
G01 X255.486 Y255.486
G01 X256.108 Y255.536
G01 X256.747 Y255.537
G01 X257.400 Y255.488
G01 X258.064 Y255.388
G01 X258.734 Y255.235
G01 X259.408 Y255.029
G01 X260.082 Y254.769
G01 X260.752 Y254.454
G01 X261.414 Y254.084
G01 X262.065 Y253.660
G01 X262.700 Y253.181
G01 X263.317 Y252.649
G01 X263.910 Y252.063
G01 X264.477 Y251.426
G01 X264.979 Y250.785
G01 X279.959 Y251.570
G01 X294.938 Y252.355
G01 X309.918 Y253.140
G01 X324.897 Y253.925
G01 X339.877 Y254.710
G01 X354.856 Y255.495
G01 X369.836 Y256.280
G01 X384.815 Y257.065
G01 X399.794 Y257.850
G01 X414.774 Y258.635
G01 X429.753 Y259.420
G01 X444.733 Y260.206
G01 X459.712 Y260.991
G01 X474.692 Y261.776
G01 X489.671 Y262.561
G01 X474.692 Y261.776
G01 X459.712 Y260.991
G01 X444.733 Y260.206
G01 X429.753 Y259.420
G01 X414.774 Y258.635
G01 X399.794 Y257.850
G01 X384.815 Y257.065
G01 X369.836 Y256.280
G01 X354.856 Y255.495
G01 X339.877 Y254.710
G01 X324.897 Y253.925
G01 X309.918 Y253.140
G01 X294.938 Y252.355
G01 X279.959 Y251.570
G01 X264.979 Y250.785
G01 X264.440 Y251.470
G01 X263.872 Y252.104
G01 X263.276 Y252.686
G01 X262.658 Y253.215
G01 X262.022 Y253.690
G01 X261.370 Y254.110
G01 X260.708 Y254.476
G01 X260.037 Y254.788
G01 X259.363 Y255.044
G01 X258.690 Y255.247
G01 X258.019 Y255.396
G01 X257.356 Y255.493
G01 X256.704 Y255.539
G01 X256.066 Y255.534
G01 X255.445 Y255.481
G01 X254.845 Y255.381
G01 X254.269 Y255.237
G01 X253.719 Y255.050
G01 X253.199 Y254.822
G01 X252.711 Y254.556
G01 X252.257 Y254.255
G01 X251.839 Y253.922
G01 X251.461 Y253.559
G01 X251.122 Y253.169
G01 X250.826 Y252.756
G01 X250.574 Y252.322
G01 X250.366 Y251.872
G01 X250.204 Y251.408
G01 X250.089 Y250.933
G01 X250.021 Y250.452
G01 X250.000 Y250.000
G01 X250.024 Y250.479
G01 X250.094 Y250.954
G01 X250.211 Y251.423
G01 X250.374 Y251.881
G01 X250.582 Y252.325
G01 X250.835 Y252.753
G01 X251.131 Y253.160
G01 X251.468 Y253.543
G01 X251.845 Y253.900
G01 X252.260 Y254.228
G01 X252.711 Y254.523
G01 X253.196 Y254.783
G01 X253.713 Y255.006
G01 X254.258 Y255.188
G01 X254.829 Y255.328
G01 X255.424 Y255.424
G01 X256.039 Y255.473
G01 X256.671 Y255.474
G01 X257.316 Y255.426
G01 X257.972 Y255.327
G01 X258.635 Y255.176
G01 X259.302 Y254.972
G01 X259.968 Y254.714
G01 X260.630 Y254.403
G01 X261.284 Y254.038
G01 X261.928 Y253.618
G01 X262.556 Y253.145
G01 X263.165 Y252.619
G01 X263.752 Y252.040
G01 X264.313 Y251.410
G01 X264.844 Y250.729
G01 X264.991 Y250.523
G01 X279.982 Y251.047
G01 X294.973 Y251.570
G01 X309.963 Y252.094
G01 X324.954 Y252.617
G01 X339.945 Y253.141
G01 X354.936 Y253.664
G01 X369.927 Y254.188
G01 X384.918 Y254.711
G01 X399.909 Y255.235
G01 X414.899 Y255.758
G01 X429.890 Y256.282
G01 X444.881 Y256.805
G01 X459.872 Y257.329
G01 X474.863 Y257.852
G01 X489.854 Y258.376
G01 X474.863 Y257.852
G01 X459.872 Y257.329
G01 X444.881 Y256.805
G01 X429.890 Y256.282
G01 X414.899 Y255.758
G01 X399.909 Y255.235
G01 X384.918 Y254.711
G01 X369.927 Y254.188
G01 X354.936 Y253.664
G01 X339.945 Y253.141
G01 X324.954 Y252.617
G01 X309.963 Y252.094
G01 X294.973 Y251.570
G01 X279.982 Y251.047
G01 X264.991 Y250.523
G01 X264.469 Y251.218
G01 X263.917 Y251.863
G01 X263.337 Y252.457
G01 X262.734 Y252.998
G01 X262.111 Y253.487
G01 X261.472 Y253.922
G01 X260.820 Y254.303
G01 X260.160 Y254.630
G01 X259.494 Y254.903
G01 X258.827 Y255.122
G01 X258.163 Y255.289
G01 X257.505 Y255.403
G01 X256.856 Y255.466
G01 X256.220 Y255.478
G01 X255.600 Y255.443
G01 X254.999 Y255.360
G01 X254.420 Y255.233
G01 X253.867 Y255.063
G01 X253.342 Y254.852
G01 X252.848 Y254.602
G01 X252.387 Y254.317
G01 X251.961 Y253.998
G01 X251.573 Y253.649
G01 X251.224 Y253.273
G01 X250.916 Y252.872
G01 X250.651 Y252.451
G01 X250.430 Y252.011
G01 X250.253 Y251.556
G01 X250.123 Y251.090
G01 X250.039 Y250.617
G01 X250.002 Y250.138
G01 X250.000 Y250.000
G01 X250.023 Y250.473
G01 X250.093 Y250.943
G01 X250.209 Y251.407
G01 X250.370 Y251.860
G01 X250.576 Y252.299
G01 X250.826 Y252.722
G01 X251.118 Y253.124
G01 X251.451 Y253.503
G01 X251.824 Y253.857
G01 X252.234 Y254.180
G01 X252.681 Y254.472
G01 X253.160 Y254.730
G01 X253.671 Y254.950
G01 X254.210 Y255.130
G01 X254.775 Y255.268
G01 X255.363 Y255.363
G01 X255.971 Y255.412
G01 X256.596 Y255.413
G01 X257.234 Y255.365
G01 X257.883 Y255.267
G01 X258.538 Y255.118
G01 X259.197 Y254.916
G01 X259.856 Y254.661
G01 X260.510 Y254.354
G01 X261.158 Y253.992
G01 X261.794 Y253.578
G01 X262.415 Y253.110
G01 X263.017 Y252.589
G01 X263.598 Y252.017
G01 X264.152 Y251.394
G01 X264.677 Y250.721
G01 X264.998 Y250.262
G01 X279.995 Y250.524
G01 X294.993 Y250.785
G01 X309.991 Y251.047
G01 X324.989 Y251.309
G01 X339.986 Y251.571
G01 X354.984 Y251.833
G01 X369.982 Y252.094
G01 X384.979 Y252.356
G01 X399.977 Y252.618
G01 X414.975 Y252.880
G01 X429.973 Y253.141
G01 X444.970 Y253.403
G01 X459.968 Y253.665
G01 X474.966 Y253.927
G01 X489.963 Y254.189
G01 X474.966 Y253.927
G01 X459.968 Y253.665
G01 X444.970 Y253.403
G01 X429.973 Y253.141
G01 X414.975 Y252.880
G01 X399.977 Y252.618
G01 X384.979 Y252.356
G01 X369.982 Y252.094
G01 X354.984 Y251.833
G01 X339.986 Y251.571
G01 X324.989 Y251.309
G01 X309.991 Y251.047
G01 X294.993 Y250.785
G01 X279.995 Y250.524
G01 X264.998 Y250.262
G01 X264.494 Y250.966
G01 X263.958 Y251.621
G01 X263.394 Y252.226
G01 X262.806 Y252.780
G01 X262.196 Y253.282
G01 X261.569 Y253.731
G01 X260.929 Y254.127
G01 X260.278 Y254.469
G01 X259.622 Y254.758
G01 X258.963 Y254.994
G01 X258.304 Y255.177
G01 X257.651 Y255.308
G01 X257.006 Y255.388
G01 X256.372 Y255.418
G01 X255.753 Y255.400
G01 X255.151 Y255.334
G01 X254.571 Y255.224
G01 X254.015 Y255.070
G01 X253.486 Y254.876
G01 X252.986 Y254.642
G01 X252.518 Y254.372
G01 X252.084 Y254.069
G01 X251.687 Y253.734
G01 X251.328 Y253.371
G01 X251.009 Y252.984
G01 X250.732 Y252.574
G01 X250.498 Y252.145
G01 X250.307 Y251.700
G01 X250.162 Y251.243
G01 X250.063 Y250.777
G01 X250.010 Y250.305
G01 X250.000 Y250.000
G01 X250.021 Y250.421
G01 X250.083 Y250.840
G01 X250.186 Y251.252
G01 X250.329 Y251.655
G01 X250.513 Y252.046
G01 X250.735 Y252.422
G01 X250.995 Y252.780
G01 X251.292 Y253.118
G01 X251.623 Y253.432
G01 X251.989 Y253.721
G01 X252.386 Y253.980
G01 X252.813 Y254.209
G01 X253.267 Y254.405
G01 X253.747 Y254.566
G01 X254.250 Y254.689
G01 X254.773 Y254.773
G01 X255.314 Y254.816
G01 X255.870 Y254.817
G01 X256.438 Y254.775
G01 X257.016 Y254.688
G01 X257.599 Y254.555
G01 X258.185 Y254.375
G01 X258.772 Y254.149
G01 X259.354 Y253.875
G01 X259.930 Y253.553
G01 X260.496 Y253.184
G01 X261.049 Y252.768
G01 X261.586 Y252.305
G01 X262.102 Y251.795
G01 X262.595 Y251.241
G01 X263.062 Y250.642
G01 X263.500 Y250.000
G01 X263.905 Y249.317
G01 X264.275 Y248.594
G01 X264.606 Y247.833
G01 X264.772 Y247.395
G01 X279.544 Y244.791
G01 X294.316 Y242.186
G01 X309.088 Y239.581
G01 X323.861 Y236.976
G01 X338.633 Y234.372
G01 X353.405 Y231.767
G01 X368.177 Y229.162
G01 X382.949 Y226.557
G01 X397.721 Y223.953
G01 X412.493 Y221.348
G01 X427.265 Y218.743
G01 X442.038 Y216.139
G01 X456.810 Y213.534
G01 X471.582 Y210.929
G01 X486.354 Y208.324
G01 X471.582 Y210.929
G01 X456.810 Y213.534
G01 X442.038 Y216.139
G01 X427.265 Y218.743
G01 X412.493 Y221.348
G01 X397.721 Y223.953
G01 X382.949 Y226.557
G01 X368.177 Y229.162
G01 X353.405 Y231.767
G01 X338.633 Y234.372
G01 X323.861 Y236.976
G01 X309.088 Y239.581
G01 X294.316 Y242.186
G01 X279.544 Y244.791
G01 X264.772 Y247.395
G01 X264.464 Y248.176
G01 X264.115 Y248.920
G01 X263.729 Y249.625
G01 X263.309 Y250.290
G01 X262.858 Y250.913
G01 X262.379 Y251.493
G01 X261.875 Y252.027
G01 X261.349 Y252.516
G01 X260.805 Y252.959
G01 X260.246 Y253.354
G01 X259.675 Y253.702
G01 X259.096 Y254.002
G01 X258.511 Y254.255
G01 X257.925 Y254.461
G01 X257.339 Y254.619
G01 X256.758 Y254.732
G01 X256.184 Y254.799
G01 X255.621 Y254.822
G01 X255.072 Y254.802
G01 X254.538 Y254.741
G01 X254.024 Y254.639
G01 X253.531 Y254.499
G01 X253.062 Y254.322
G01 X252.619 Y254.112
G01 X252.205 Y253.869
G01 X251.822 Y253.596
G01 X251.472 Y253.296
G01 X251.155 Y252.971
G01 X250.875 Y252.624
G01 X250.631 Y252.257
G01 X250.426 Y251.874
G01 X250.260 Y251.477
G01 X250.135 Y251.070
G01 X250.050 Y250.654
G01 X250.006 Y250.234
G01 X250.000 Y250.000
G01 X250.020 Y250.417
G01 X250.082 Y250.831
G01 X250.184 Y251.240
G01 X250.326 Y251.639
G01 X250.507 Y252.026
G01 X250.728 Y252.398
G01 X250.985 Y252.753
G01 X251.279 Y253.087
G01 X251.607 Y253.398
G01 X251.969 Y253.684
G01 X252.362 Y253.941
G01 X252.785 Y254.168
G01 X253.235 Y254.361
G01 X253.710 Y254.520
G01 X254.208 Y254.642
G01 X254.726 Y254.726
G01 X255.261 Y254.769
G01 X255.812 Y254.770
G01 X256.374 Y254.728
G01 X256.946 Y254.641
G01 X257.524 Y254.510
G01 X258.104 Y254.332
G01 X258.685 Y254.108
G01 X259.262 Y253.836
G01 X259.832 Y253.518
G01 X260.393 Y253.153
G01 X260.940 Y252.740
G01 X261.471 Y252.282
G01 X261.982 Y251.777
G01 X262.471 Y251.228
G01 X262.933 Y250.635
G01 X263.366 Y250.000
G01 X263.767 Y249.324
G01 X264.133 Y248.608
G01 X264.461 Y247.855
G01 X264.724 Y247.138
G01 X279.449 Y244.276
G01 X294.173 Y241.414
G01 X308.898 Y238.551
G01 X323.622 Y235.689
G01 X338.346 Y232.827
G01 X353.071 Y229.965
G01 X367.795 Y227.103
G01 X382.520 Y224.241
G01 X397.244 Y221.379
G01 X411.968 Y218.517
G01 X426.693 Y215.654
G01 X441.417 Y212.792
G01 X456.142 Y209.930
G01 X470.866 Y207.068
G01 X485.591 Y204.206
G01 X470.866 Y207.068
G01 X456.142 Y209.930
G01 X441.417 Y212.792
G01 X426.693 Y215.654
G01 X411.968 Y218.517
G01 X397.244 Y221.379
G01 X382.520 Y224.241
G01 X367.795 Y227.103
G01 X353.071 Y229.965
G01 X338.346 Y232.827
G01 X323.622 Y235.689
G01 X308.898 Y238.551
G01 X294.173 Y241.414
G01 X279.449 Y244.276
G01 X264.724 Y247.138
G01 X264.434 Y247.923
G01 X264.102 Y248.673
G01 X263.733 Y249.385
G01 X263.329 Y250.058
G01 X262.893 Y250.690
G01 X262.428 Y251.279
G01 X261.938 Y251.824
G01 X261.424 Y252.324
G01 X260.892 Y252.779
G01 X260.343 Y253.187
G01 X259.782 Y253.548
G01 X259.211 Y253.862
G01 X258.633 Y254.129
G01 X258.053 Y254.350
G01 X257.472 Y254.523
G01 X256.895 Y254.651
G01 X256.324 Y254.733
G01 X255.762 Y254.771
G01 X255.213 Y254.767
G01 X254.679 Y254.720
G01 X254.163 Y254.633
G01 X253.667 Y254.508
G01 X253.194 Y254.346
G01 X252.746 Y254.149
G01 X252.326 Y253.919
G01 X251.936 Y253.660
G01 X251.577 Y253.372
G01 X251.251 Y253.058
G01 X250.961 Y252.722
G01 X250.706 Y252.366
G01 X250.490 Y251.992
G01 X250.312 Y251.604
G01 X250.173 Y251.204
G01 X250.075 Y250.795
G01 X250.017 Y250.380
G01 X250.000 Y250.000
G01 X250.020 Y250.413
G01 X250.081 Y250.823
G01 X250.182 Y251.227
G01 X250.323 Y251.623
G01 X250.502 Y252.006
G01 X250.720 Y252.375
G01 X250.975 Y252.726
G01 X251.266 Y253.057
G01 X251.592 Y253.365
G01 X251.950 Y253.648
G01 X252.339 Y253.902
G01 X252.757 Y254.127
G01 X253.203 Y254.319
G01 X253.673 Y254.476
G01 X254.166 Y254.597
G01 X254.679 Y254.679
G01 X255.210 Y254.722
G01 X255.755 Y254.723
G01 X256.312 Y254.681
G01 X256.878 Y254.596
G01 X257.450 Y254.465
G01 X258.025 Y254.289
G01 X258.600 Y254.067
G01 X259.171 Y253.799
G01 X259.736 Y253.483
G01 X260.291 Y253.122
G01 X260.833 Y252.713
G01 X261.358 Y252.259
G01 X261.865 Y251.760
G01 X262.348 Y251.216
G01 X262.806 Y250.629
G01 X263.235 Y250.000
G01 X263.632 Y249.330
G01 X263.995 Y248.622
G01 X264.319 Y247.876
G01 X264.604 Y247.095
G01 X264.672 Y246.881
G01 X279.344 Y243.763
G01 X294.017 Y240.644
G01 X308.689 Y237.525
G01 X323.361 Y234.407
G01 X338.033 Y231.288
G01 X352.705 Y228.169
G01 X367.378 Y225.051
G01 X382.050 Y221.932
G01 X396.722 Y218.813
G01 X411.394 Y215.695
G01 X426.067 Y212.576
G01 X440.739 Y209.457
G01 X455.411 Y206.339
G01 X470.083 Y203.220
G01 X484.755 Y200.101
G01 X470.083 Y203.220
G01 X455.411 Y206.339
G01 X440.739 Y209.457
G01 X426.067 Y212.576
G01 X411.394 Y215.695
G01 X396.722 Y218.813
G01 X382.050 Y221.932
G01 X367.378 Y225.051
G01 X352.705 Y228.169
G01 X338.033 Y231.288
G01 X323.361 Y234.407
G01 X308.689 Y237.525
G01 X294.017 Y240.644
G01 X279.344 Y243.763
G01 X264.672 Y246.881
G01 X264.399 Y247.671
G01 X264.085 Y248.426
G01 X263.733 Y249.145
G01 X263.344 Y249.825
G01 X262.924 Y250.465
G01 X262.473 Y251.064
G01 X261.996 Y251.619
G01 X261.495 Y252.131
G01 X260.975 Y252.597
G01 X260.437 Y253.017
G01 X259.885 Y253.392
G01 X259.322 Y253.719
G01 X258.752 Y254.000
G01 X258.178 Y254.235
G01 X257.603 Y254.423
G01 X257.030 Y254.565
G01 X256.462 Y254.663
G01 X255.902 Y254.716
G01 X255.354 Y254.726
G01 X254.819 Y254.695
G01 X254.301 Y254.623
G01 X253.803 Y254.512
G01 X253.326 Y254.364
G01 X252.874 Y254.181
G01 X252.448 Y253.965
G01 X252.051 Y253.718
G01 X251.684 Y253.443
G01 X251.350 Y253.141
G01 X251.049 Y252.816
G01 X250.785 Y252.470
G01 X250.557 Y252.106
G01 X250.367 Y251.726
G01 X250.216 Y251.334
G01 X250.104 Y250.932
G01 X250.033 Y250.523
G01 X250.001 Y250.110
G01 X250.000 Y250.000
G01 X250.020 Y250.409
G01 X250.080 Y250.815
G01 X250.180 Y251.215
G01 X250.320 Y251.607
G01 X250.498 Y251.987
G01 X250.713 Y252.352
G01 X250.966 Y252.700
G01 X251.254 Y253.027
G01 X251.576 Y253.332
G01 X251.931 Y253.612
G01 X252.316 Y253.864
G01 X252.731 Y254.087
G01 X253.172 Y254.277
G01 X253.638 Y254.433
G01 X254.126 Y254.552
G01 X254.634 Y254.634
G01 X255.159 Y254.676
G01 X255.699 Y254.677
G01 X256.251 Y254.636
G01 X256.811 Y254.551
G01 X257.378 Y254.422
G01 X257.947 Y254.248
G01 X258.516 Y254.028
G01 X259.082 Y253.762
G01 X259.641 Y253.450
G01 X260.191 Y253.091
G01 X260.727 Y252.687
G01 X261.248 Y252.237
G01 X261.749 Y251.743
G01 X262.228 Y251.204
G01 X262.682 Y250.623
G01 X263.107 Y250.000
G01 X263.500 Y249.337
G01 X263.859 Y248.635
G01 X264.180 Y247.897
G01 X264.462 Y247.123
G01 X264.616 Y246.626
G01 X279.231 Y243.251
G01 X293.847 Y239.877
G01 X308.462 Y236.503
G01 X323.078 Y233.129
G01 X337.693 Y229.754
G01 X352.309 Y226.380
G01 X366.924 Y223.006
G01 X381.540 Y219.632
G01 X396.156 Y216.257
G01 X410.771 Y212.883
G01 X425.387 Y209.509
G01 X440.002 Y206.135
G01 X454.618 Y202.760
G01 X469.233 Y199.386
G01 X483.849 Y196.012
G01 X469.233 Y199.386
G01 X454.618 Y202.760
G01 X440.002 Y206.135
G01 X425.387 Y209.509
G01 X410.771 Y212.883
G01 X396.156 Y216.257
G01 X381.540 Y219.632
G01 X366.924 Y223.006
G01 X352.309 Y226.380
G01 X337.693 Y229.754
G01 X323.078 Y233.129
G01 X308.462 Y236.503
G01 X293.847 Y239.877
G01 X279.231 Y243.251
G01 X264.616 Y246.626
G01 X264.360 Y247.419
G01 X264.064 Y248.180
G01 X263.728 Y248.905
G01 X263.355 Y249.592
G01 X262.950 Y250.240
G01 X262.514 Y250.848
G01 X262.050 Y251.413
G01 X261.563 Y251.935
G01 X261.053 Y252.413
G01 X260.526 Y252.845
G01 X259.984 Y253.232
G01 X259.431 Y253.573
G01 X258.869 Y253.868
G01 X258.301 Y254.116
G01 X257.732 Y254.319
G01 X257.163 Y254.476
G01 X256.599 Y254.588
G01 X256.041 Y254.656
G01 X255.494 Y254.682
G01 X254.959 Y254.665
G01 X254.440 Y254.608
G01 X253.939 Y254.511
G01 X253.459 Y254.378
G01 X253.002 Y254.209
G01 X252.571 Y254.006
G01 X252.167 Y253.773
G01 X251.793 Y253.510
G01 X251.450 Y253.220
G01 X251.141 Y252.906
G01 X250.866 Y252.570
G01 X250.627 Y252.216
G01 X250.426 Y251.845
G01 X250.262 Y251.460
G01 X250.138 Y251.065
G01 X250.053 Y250.662
G01 X250.008 Y250.255
G01 X250.000 Y250.000
G01 X250.020 Y250.405
G01 X250.080 Y250.807
G01 X250.179 Y251.204
G01 X250.317 Y251.591
G01 X250.493 Y251.967
G01 X250.707 Y252.329
G01 X250.957 Y252.674
G01 X251.242 Y252.998
G01 X251.561 Y253.300
G01 X251.912 Y253.578
G01 X252.294 Y253.827
G01 X252.704 Y254.047
G01 X253.141 Y254.236
G01 X253.603 Y254.390
G01 X254.086 Y254.508
G01 X254.589 Y254.589
G01 X255.110 Y254.631
G01 X255.644 Y254.632
G01 X256.191 Y254.591
G01 X256.746 Y254.507
G01 X257.307 Y254.379
G01 X257.871 Y254.207
G01 X258.434 Y253.989
G01 X258.995 Y253.726
G01 X259.548 Y253.416
G01 X260.093 Y253.062
G01 X260.624 Y252.661
G01 X261.140 Y252.216
G01 X261.636 Y251.726
G01 X262.111 Y251.193
G01 X262.560 Y250.617
G01 X262.981 Y250.000
G01 X263.370 Y249.343
G01 X263.726 Y248.648
G01 X264.044 Y247.917
G01 X264.323 Y247.151
G01 X264.554 Y246.371
G01 X279.109 Y242.742
G01 X293.663 Y239.114
G01 X308.218 Y235.485
G01 X322.772 Y231.856
G01 X337.327 Y228.227
G01 X351.881 Y224.598
G01 X366.435 Y220.969
G01 X380.990 Y217.341
G01 X395.544 Y213.712
G01 X410.099 Y210.083
G01 X424.653 Y206.454
G01 X439.208 Y202.825
G01 X453.762 Y199.196
G01 X468.317 Y195.568
G01 X482.871 Y191.939
G01 X468.317 Y195.568
G01 X453.762 Y199.196
G01 X439.208 Y202.825
G01 X424.653 Y206.454
G01 X410.099 Y210.083
G01 X395.544 Y213.712
G01 X380.990 Y217.341
G01 X366.435 Y220.969
G01 X351.881 Y224.598
G01 X337.327 Y228.227
G01 X322.772 Y231.856
G01 X308.218 Y235.485
G01 X293.663 Y239.114
G01 X279.109 Y242.742
G01 X264.554 Y246.371
G01 X264.317 Y247.168
G01 X264.037 Y247.933
G01 X263.718 Y248.664
G01 X263.362 Y249.358
G01 X262.972 Y250.014
G01 X262.550 Y250.630
G01 X262.101 Y251.205
G01 X261.626 Y251.737
G01 X261.129 Y252.226
G01 X260.613 Y252.671
G01 X260.081 Y253.070
G01 X259.536 Y253.424
G01 X258.982 Y253.732
G01 X258.422 Y253.994
G01 X257.858 Y254.211
G01 X257.294 Y254.383
G01 X256.733 Y254.510
G01 X256.178 Y254.593
G01 X255.632 Y254.633
G01 X255.098 Y254.631
G01 X254.578 Y254.588
G01 X254.075 Y254.506
G01 X253.592 Y254.387
G01 X253.131 Y254.232
G01 X252.695 Y254.043
G01 X252.285 Y253.822
G01 X251.904 Y253.572
G01 X251.553 Y253.294
G01 X251.235 Y252.991
G01 X250.951 Y252.666
G01 X250.701 Y252.321
G01 X250.488 Y251.959
G01 X250.313 Y251.583
G01 X250.176 Y251.195
G01 X250.078 Y250.799
G01 X250.019 Y250.396
G01 X250.000 Y250.000
G01 X250.020 Y250.401
G01 X250.079 Y250.800
G01 X250.177 Y251.192
G01 X250.314 Y251.576
G01 X250.488 Y251.949
G01 X250.700 Y252.307
G01 X250.948 Y252.648
G01 X251.230 Y252.970
G01 X251.546 Y253.269
G01 X251.894 Y253.543
G01 X252.272 Y253.791
G01 X252.679 Y254.009
G01 X253.111 Y254.195
G01 X253.568 Y254.348
G01 X254.047 Y254.466
G01 X254.546 Y254.546
G01 X255.061 Y254.587
G01 X255.591 Y254.588
G01 X256.132 Y254.548
G01 X256.681 Y254.464
G01 X257.237 Y254.338
G01 X257.796 Y254.167
G01 X258.354 Y253.951
G01 X258.909 Y253.690
G01 X259.457 Y253.384
G01 X259.997 Y253.032
G01 X260.523 Y252.636
G01 X261.034 Y252.195
G01 X261.526 Y251.710
G01 X261.996 Y251.181
G01 X262.440 Y250.611
G01 X262.857 Y250.000
G01 X263.243 Y249.349
G01 X263.595 Y248.661
G01 X263.910 Y247.937
G01 X264.186 Y247.178
G01 X264.421 Y246.388
G01 X264.489 Y246.118
G01 X278.978 Y242.235
G01 X293.467 Y238.353
G01 X307.956 Y234.471
G01 X322.444 Y230.589
G01 X336.933 Y226.706
G01 X351.422 Y222.824
G01 X365.911 Y218.942
G01 X380.400 Y215.059
G01 X394.889 Y211.177
G01 X409.378 Y207.295
G01 X423.867 Y203.413
G01 X438.356 Y199.530
G01 X452.844 Y195.648
G01 X467.333 Y191.766
G01 X481.822 Y187.883
G01 X467.333 Y191.766
G01 X452.844 Y195.648
G01 X438.356 Y199.530
G01 X423.867 Y203.413
G01 X409.378 Y207.295
G01 X394.889 Y211.177
G01 X380.400 Y215.059
G01 X365.911 Y218.942
G01 X351.422 Y222.824
G01 X336.933 Y226.706
G01 X322.444 Y230.589
G01 X307.956 Y234.471
G01 X293.467 Y238.353
G01 X278.978 Y242.235
G01 X264.489 Y246.118
G01 X264.269 Y246.918
G01 X264.007 Y247.687
G01 X263.704 Y248.423
G01 X263.364 Y249.124
G01 X262.989 Y249.787
G01 X262.583 Y250.412
G01 X262.147 Y250.996
G01 X261.685 Y251.538
G01 X261.200 Y252.038
G01 X260.695 Y252.494
G01 X260.174 Y252.905
G01 X259.638 Y253.272
G01 X259.093 Y253.593
G01 X258.539 Y253.869
G01 X257.982 Y254.100
G01 X257.423 Y254.286
G01 X256.866 Y254.427
G01 X256.314 Y254.525
G01 X255.770 Y254.579
G01 X255.236 Y254.592
G01 X254.716 Y254.564
G01 X254.211 Y254.496
G01 X253.726 Y254.391
G01 X253.261 Y254.250
G01 X252.820 Y254.075
G01 X252.405 Y253.867
G01 X252.017 Y253.629
G01 X251.659 Y253.363
G01 X251.332 Y253.072
G01 X251.038 Y252.758
G01 X250.778 Y252.423
G01 X250.555 Y252.070
G01 X250.368 Y251.702
G01 X250.218 Y251.321
G01 X250.107 Y250.931
G01 X250.035 Y250.535
G01 X250.002 Y250.134
G01 X250.000 Y250.000
G01 X250.020 Y250.398
G01 X250.078 Y250.792
G01 X250.175 Y251.181
G01 X250.311 Y251.561
G01 X250.484 Y251.930
G01 X250.693 Y252.285
G01 X250.939 Y252.623
G01 X251.218 Y252.942
G01 X251.531 Y253.238
G01 X251.876 Y253.510
G01 X252.251 Y253.755
G01 X252.653 Y253.971
G01 X253.082 Y254.156
G01 X253.535 Y254.307
G01 X254.009 Y254.423
G01 X254.503 Y254.503
G01 X255.013 Y254.544
G01 X255.538 Y254.545
G01 X256.074 Y254.505
G01 X256.618 Y254.422
G01 X257.169 Y254.297
G01 X257.722 Y254.128
G01 X258.275 Y253.914
G01 X258.825 Y253.655
G01 X259.368 Y253.352
G01 X259.902 Y253.004
G01 X260.424 Y252.611
G01 X260.930 Y252.174
G01 X261.417 Y251.694
G01 X261.882 Y251.170
G01 X262.323 Y250.605
G01 X262.736 Y250.000
G01 X263.118 Y249.356
G01 X263.467 Y248.674
G01 X263.779 Y247.956
G01 X264.053 Y247.205
G01 X264.285 Y246.422
G01 X264.419 Y245.865
G01 X278.838 Y241.731
G01 X293.257 Y237.596
G01 X307.676 Y233.462
G01 X322.095 Y229.327
G01 X336.514 Y225.193
G01 X350.932 Y221.058
G01 X365.351 Y216.924
G01 X379.770 Y212.789
G01 X394.189 Y208.654
G01 X408.608 Y204.520
G01 X423.027 Y200.385
G01 X437.446 Y196.251
G01 X451.865 Y192.116
G01 X466.284 Y187.982
G01 X480.703 Y183.847
G01 X466.284 Y187.982
G01 X451.865 Y192.116
G01 X437.446 Y196.251
G01 X423.027 Y200.385
G01 X408.608 Y204.520
G01 X394.189 Y208.654
G01 X379.770 Y212.789
G01 X365.351 Y216.924
G01 X350.932 Y221.058
G01 X336.514 Y225.193
G01 X322.095 Y229.327
G01 X307.676 Y233.462
G01 X293.257 Y237.596
G01 X278.838 Y241.731
G01 X264.419 Y245.865
G01 X264.217 Y246.669
G01 X263.972 Y247.442
G01 X263.686 Y248.183
G01 X263.362 Y248.890
G01 X263.003 Y249.560
G01 X262.611 Y250.193
G01 X262.189 Y250.786
G01 X261.740 Y251.338
G01 X261.268 Y251.848
G01 X260.774 Y252.315
G01 X260.263 Y252.738
G01 X259.737 Y253.117
G01 X259.200 Y253.451
G01 X258.654 Y253.741
G01 X258.103 Y253.985
G01 X257.550 Y254.185
G01 X256.997 Y254.341
G01 X256.448 Y254.452
G01 X255.906 Y254.522
G01 X255.373 Y254.549
G01 X254.853 Y254.535
G01 X254.347 Y254.482
G01 X253.859 Y254.391
G01 X253.392 Y254.264
G01 X252.946 Y254.102
G01 X252.525 Y253.907
G01 X252.131 Y253.682
G01 X251.766 Y253.428
G01 X251.431 Y253.148
G01 X251.128 Y252.845
G01 X250.858 Y252.520
G01 X250.624 Y252.176
G01 X250.426 Y251.817
G01 X250.264 Y251.444
G01 X250.141 Y251.061
G01 X250.056 Y250.670
G01 X250.009 Y250.274
G01 X250.000 Y250.000
G01 X250.019 Y250.394
G01 X250.077 Y250.785
G01 X250.174 Y251.170
G01 X250.308 Y251.547
G01 X250.479 Y251.912
G01 X250.687 Y252.264
G01 X250.930 Y252.599
G01 X251.207 Y252.914
G01 X251.517 Y253.208
G01 X251.859 Y253.477
G01 X252.230 Y253.720
G01 X252.629 Y253.934
G01 X253.053 Y254.117
G01 X253.502 Y254.267
G01 X253.972 Y254.382
G01 X254.461 Y254.461
G01 X254.966 Y254.501
G01 X255.486 Y254.502
G01 X256.017 Y254.463
G01 X256.557 Y254.381
G01 X257.102 Y254.257
G01 X257.650 Y254.089
G01 X258.198 Y253.877
G01 X258.742 Y253.621
G01 X259.281 Y253.321
G01 X259.810 Y252.976
G01 X260.326 Y252.587
G01 X260.828 Y252.154
G01 X261.310 Y251.678
G01 X261.771 Y251.159
G01 X262.208 Y250.600
G01 X262.617 Y250.000
G01 X262.995 Y249.362
G01 X263.341 Y248.686
G01 X263.650 Y247.975
G01 X263.921 Y247.231
G01 X264.151 Y246.455
G01 X264.337 Y245.651
G01 X264.345 Y245.614
G01 X278.689 Y241.229
G01 X293.034 Y236.843
G01 X307.378 Y232.458
G01 X321.723 Y228.072
G01 X336.067 Y223.687
G01 X350.412 Y219.301
G01 X364.757 Y214.915
G01 X379.101 Y210.530
G01 X393.446 Y206.144
G01 X407.790 Y201.759
G01 X422.135 Y197.373
G01 X436.479 Y192.988
G01 X450.824 Y188.602
G01 X465.169 Y184.216
G01 X479.513 Y179.831
G01 X465.169 Y184.216
G01 X450.824 Y188.602
G01 X436.479 Y192.988
G01 X422.135 Y197.373
G01 X407.790 Y201.759
G01 X393.446 Y206.144
G01 X379.101 Y210.530
G01 X364.757 Y214.915
G01 X350.412 Y219.301
G01 X336.067 Y223.687
G01 X321.723 Y228.072
G01 X307.378 Y232.458
G01 X293.034 Y236.843
G01 X278.689 Y241.229
G01 X264.345 Y245.614
G01 X264.160 Y246.420
G01 X263.932 Y247.197
G01 X263.663 Y247.943
G01 X263.355 Y248.655
G01 X263.012 Y249.332
G01 X262.634 Y249.972
G01 X262.227 Y250.574
G01 X261.791 Y251.135
G01 X261.331 Y251.656
G01 X260.849 Y252.133
G01 X260.349 Y252.568
G01 X259.833 Y252.959
G01 X259.304 Y253.306
G01 X258.766 Y253.609
G01 X258.222 Y253.867
G01 X257.674 Y254.080
G01 X257.126 Y254.250
G01 X256.581 Y254.376
G01 X256.041 Y254.460
G01 X255.509 Y254.501
G01 X254.989 Y254.502
G01 X254.483 Y254.463
G01 X253.993 Y254.386
G01 X253.522 Y254.273
G01 X253.073 Y254.124
G01 X252.647 Y253.943
G01 X252.247 Y253.730
G01 X251.874 Y253.489
G01 X251.532 Y253.220
G01 X251.220 Y252.928
G01 X250.941 Y252.613
G01 X250.697 Y252.279
G01 X250.487 Y251.928
G01 X250.315 Y251.563
G01 X250.179 Y251.187
G01 X250.081 Y250.802
G01 X250.021 Y250.411
G01 X250.000 Y250.018
G01 X250.000 Y250.000
G01 X250.019 Y250.390
G01 X250.077 Y250.777
G01 X250.172 Y251.159
G01 X250.305 Y251.532
G01 X250.475 Y251.895
G01 X250.680 Y252.243
G01 X250.921 Y252.575
G01 X251.196 Y252.887
G01 X251.503 Y253.178
G01 X251.841 Y253.445
G01 X252.209 Y253.686
G01 X252.604 Y253.898
G01 X253.025 Y254.079
G01 X253.469 Y254.227
G01 X253.935 Y254.342
G01 X254.419 Y254.419
G01 X254.920 Y254.460
G01 X255.435 Y254.461
G01 X255.961 Y254.421
G01 X256.496 Y254.340
G01 X257.036 Y254.217
G01 X257.579 Y254.051
G01 X258.122 Y253.841
G01 X258.661 Y253.588
G01 X259.195 Y253.290
G01 X259.719 Y252.948
G01 X260.231 Y252.563
G01 X260.727 Y252.134
G01 X261.206 Y251.662
G01 X261.662 Y251.149
G01 X262.095 Y250.594
G01 X262.500 Y250.000
G01 X262.875 Y249.367
G01 X263.217 Y248.698
G01 X263.524 Y247.994
G01 X263.792 Y247.257
G01 X264.020 Y246.488
G01 X264.205 Y245.691
G01 X264.266 Y245.365
G01 X278.532 Y240.729
G01 X292.798 Y236.094
G01 X307.063 Y231.459
G01 X321.329 Y226.824
G01 X335.595 Y222.188
G01 X349.861 Y217.553
G01 X364.127 Y212.918
G01 X378.393 Y208.283
G01 X392.658 Y203.647
G01 X406.924 Y199.012
G01 X421.190 Y194.377
G01 X435.456 Y189.742
G01 X449.722 Y185.106
G01 X463.988 Y180.471
G01 X478.254 Y175.836
G01 X463.988 Y180.471
G01 X449.722 Y185.106
G01 X435.456 Y189.742
G01 X421.190 Y194.377
G01 X406.924 Y199.012
G01 X392.658 Y203.647
G01 X378.393 Y208.283
G01 X364.127 Y212.918
G01 X349.861 Y217.553
G01 X335.595 Y222.188
G01 X321.329 Y226.824
G01 X307.063 Y231.459
G01 X292.798 Y236.094
G01 X278.532 Y240.729
G01 X264.266 Y245.365
G01 X264.099 Y246.173
G01 X263.888 Y246.953
G01 X263.636 Y247.703
G01 X263.344 Y248.421
G01 X263.016 Y249.104
G01 X262.654 Y249.752
G01 X262.260 Y250.361
G01 X261.838 Y250.932
G01 X261.391 Y251.462
G01 X260.921 Y251.950
G01 X260.431 Y252.396
G01 X259.925 Y252.799
G01 X259.406 Y253.159
G01 X258.876 Y253.474
G01 X258.338 Y253.745
G01 X257.796 Y253.972
G01 X257.253 Y254.156
G01 X256.711 Y254.296
G01 X256.174 Y254.394
G01 X255.644 Y254.450
G01 X255.125 Y254.465
G01 X254.618 Y254.440
G01 X254.127 Y254.377
G01 X253.653 Y254.277
G01 X253.200 Y254.142
G01 X252.770 Y253.974
G01 X252.364 Y253.774
G01 X251.985 Y253.545
G01 X251.635 Y253.288
G01 X251.315 Y253.006
G01 X251.027 Y252.702
G01 X250.773 Y252.378
G01 X250.553 Y252.036
G01 X250.368 Y251.679
G01 X250.221 Y251.310
G01 X250.110 Y250.931
G01 X250.038 Y250.546
G01 X250.003 Y250.156
G01 X250.000 Y250.000
G01 X250.019 Y250.387
G01 X250.076 Y250.770
G01 X250.170 Y251.149
G01 X250.302 Y251.518
G01 X250.470 Y251.877
G01 X250.674 Y252.222
G01 X250.913 Y252.551
G01 X251.185 Y252.861
G01 X251.489 Y253.149
G01 X251.824 Y253.413
G01 X252.189 Y253.652
G01 X252.580 Y253.862
G01 X252.997 Y254.041
G01 X253.438 Y254.189
G01 X253.899 Y254.302
G01 X254.379 Y254.379
G01 X254.875 Y254.419
G01 X255.385 Y254.420
G01 X255.907 Y254.381
G01 X256.436 Y254.301
G01 X256.972 Y254.179
G01 X257.509 Y254.014
G01 X258.047 Y253.806
G01 X258.582 Y253.555
G01 X259.110 Y253.260
G01 X259.630 Y252.921
G01 X260.137 Y252.539
G01 X260.629 Y252.114
G01 X261.103 Y251.647
G01 X261.555 Y251.138
G01 X261.984 Y250.589
G01 X262.385 Y250.000
G01 X262.757 Y249.373
G01 X263.096 Y248.710
G01 X263.400 Y248.012
G01 X263.666 Y247.282
G01 X263.891 Y246.520
G01 X264.074 Y245.731
G01 X264.183 Y245.116
G01 X278.366 Y240.233
G01 X292.548 Y235.349
G01 X306.731 Y230.466
G01 X320.914 Y225.582
G01 X335.097 Y220.699
G01 X349.279 Y215.815
G01 X363.462 Y210.932
G01 X377.645 Y206.048
G01 X391.828 Y201.165
G01 X406.011 Y196.281
G01 X420.193 Y191.398
G01 X434.376 Y186.514
G01 X448.559 Y181.631
G01 X462.742 Y176.747
G01 X476.924 Y171.864
G01 X462.742 Y176.747
G01 X448.559 Y181.631
G01 X434.376 Y186.514
G01 X420.193 Y191.398
G01 X406.011 Y196.281
G01 X391.828 Y201.165
G01 X377.645 Y206.048
G01 X363.462 Y210.932
G01 X349.279 Y215.815
G01 X335.097 Y220.699
G01 X320.914 Y225.582
G01 X306.731 Y230.466
G01 X292.548 Y235.349
G01 X278.366 Y240.233
G01 X264.183 Y245.116
G01 X264.034 Y245.926
G01 X263.840 Y246.709
G01 X263.604 Y247.463
G01 X263.329 Y248.186
G01 X263.016 Y248.876
G01 X262.669 Y249.530
G01 X262.290 Y250.147
G01 X261.881 Y250.727
G01 X261.447 Y251.266
G01 X260.989 Y251.765
G01 X260.510 Y252.222
G01 X260.014 Y252.637
G01 X259.504 Y253.008
G01 X258.982 Y253.336
G01 X258.452 Y253.620
G01 X257.916 Y253.861
G01 X257.378 Y254.058
G01 X256.840 Y254.212
G01 X256.306 Y254.324
G01 X255.778 Y254.394
G01 X255.260 Y254.423
G01 X254.753 Y254.412
G01 X254.260 Y254.363
G01 X253.784 Y254.277
G01 X253.328 Y254.156
G01 X252.893 Y254.000
G01 X252.482 Y253.813
G01 X252.097 Y253.596
G01 X251.740 Y253.351
G01 X251.412 Y253.081
G01 X251.115 Y252.787
G01 X250.851 Y252.472
G01 X250.621 Y252.139
G01 X250.426 Y251.791
G01 X250.266 Y251.429
G01 X250.144 Y251.057
G01 X250.058 Y250.677
G01 X250.011 Y250.292
G01 X250.000 Y250.000
G01 X250.017 Y250.351
G01 X250.069 Y250.700
G01 X250.155 Y251.043
G01 X250.274 Y251.379
G01 X250.427 Y251.705
G01 X250.612 Y252.019
G01 X250.829 Y252.317
G01 X251.076 Y252.598
G01 X251.353 Y252.860
G01 X251.657 Y253.101
G01 X251.988 Y253.317
G01 X252.344 Y253.508
G01 X252.723 Y253.671
G01 X253.122 Y253.805
G01 X253.541 Y253.907
G01 X253.977 Y253.977
G01 X254.428 Y254.014
G01 X254.892 Y254.015
G01 X255.365 Y253.979
G01 X255.846 Y253.906
G01 X256.332 Y253.796
G01 X256.821 Y253.646
G01 X257.310 Y253.457
G01 X257.795 Y253.229
G01 X258.275 Y252.961
G01 X258.747 Y252.653
G01 X259.208 Y252.306
G01 X259.655 Y251.920
G01 X260.085 Y251.496
G01 X260.496 Y251.034
G01 X260.885 Y250.535
G01 X261.250 Y250.000
G01 X261.588 Y249.431
G01 X261.896 Y248.828
G01 X262.172 Y248.195
G01 X262.413 Y247.531
G01 X262.618 Y246.839
G01 X262.784 Y246.122
G01 X262.909 Y245.381
G01 X262.992 Y244.619
G01 X263.030 Y243.837
G01 X263.022 Y243.040
G01 X262.990 Y242.500
G01 X275.981 Y235.000
G01 X288.971 Y227.500
G01 X301.962 Y220.000
G01 X314.952 Y212.500
G01 X327.942 Y205.000
G01 X340.933 Y197.500
G01 X353.923 Y190.000
G01 X366.913 Y182.500
G01 X379.904 Y175.000
G01 X392.894 Y167.500
G01 X405.885 Y160.000
G01 X418.875 Y152.500
G01 X431.865 Y145.000
G01 X444.856 Y137.500
G01 X457.846 Y130.000
G01 X444.856 Y137.500
G01 X431.865 Y145.000
G01 X418.875 Y152.500
G01 X405.885 Y160.000
G01 X392.894 Y167.500
G01 X379.904 Y175.000
G01 X366.913 Y182.500
G01 X353.923 Y190.000
G01 X340.933 Y197.500
G01 X327.942 Y205.000
G01 X314.952 Y212.500
G01 X301.962 Y220.000
G01 X288.971 Y227.500
G01 X275.981 Y235.000
G01 X262.990 Y242.500
G01 X263.030 Y243.307
G01 X263.023 Y244.100
G01 X262.969 Y244.875
G01 X262.872 Y245.630
G01 X262.733 Y246.364
G01 X262.554 Y247.073
G01 X262.337 Y247.755
G01 X262.083 Y248.409
G01 X261.796 Y249.033
G01 X261.478 Y249.624
G01 X261.131 Y250.182
G01 X260.758 Y250.705
G01 X260.361 Y251.192
G01 X259.944 Y251.642
G01 X259.507 Y252.053
G01 X259.056 Y252.426
G01 X258.591 Y252.760
G01 X258.116 Y253.055
G01 X257.634 Y253.309
G01 X257.147 Y253.524
G01 X256.658 Y253.700
G01 X256.170 Y253.837
G01 X255.685 Y253.935
G01 X255.206 Y253.995
G01 X254.736 Y254.018
G01 X254.277 Y254.005
G01 X253.830 Y253.958
G01 X253.400 Y253.877
G01 X252.987 Y253.763
G01 X252.594 Y253.620
G01 X252.223 Y253.447
G01 X251.875 Y253.248
G01 X251.553 Y253.023
G01 X251.257 Y252.775
G01 X250.991 Y252.507
G01 X250.753 Y252.219
G01 X250.547 Y251.916
G01 X250.373 Y251.598
G01 X250.231 Y251.268
G01 X250.122 Y250.929
G01 X250.048 Y250.584
G01 X250.008 Y250.234
G01 X250.000 Y250.000
G01 X250.017 Y250.348
G01 X250.068 Y250.694
G01 X250.153 Y251.035
G01 X250.272 Y251.368
G01 X250.424 Y251.691
G01 X250.607 Y252.002
G01 X250.822 Y252.298
G01 X251.067 Y252.577
G01 X251.342 Y252.837
G01 X251.644 Y253.075
G01 X251.972 Y253.290
G01 X252.324 Y253.479
G01 X252.700 Y253.641
G01 X253.097 Y253.773
G01 X253.512 Y253.875
G01 X253.945 Y253.945
G01 X254.392 Y253.980
G01 X254.851 Y253.981
G01 X255.321 Y253.946
G01 X255.798 Y253.874
G01 X256.280 Y253.764
G01 X256.765 Y253.616
G01 X257.249 Y253.429
G01 X257.731 Y253.202
G01 X258.207 Y252.936
G01 X258.675 Y252.631
G01 X259.132 Y252.287
G01 X259.575 Y251.905
G01 X260.002 Y251.484
G01 X260.409 Y251.025
G01 X260.795 Y250.530
G01 X261.157 Y250.000
G01 X261.492 Y249.435
G01 X261.797 Y248.838
G01 X262.071 Y248.209
G01 X262.310 Y247.551
G01 X262.514 Y246.865
G01 X262.678 Y246.154
G01 X262.803 Y245.419
G01 X262.885 Y244.663
G01 X262.922 Y243.888
G01 X262.914 Y243.097
G01 X262.859 Y242.292
G01 X262.858 Y242.274
G01 X275.715 Y234.549
G01 X288.573 Y226.823
G01 X301.430 Y219.098
G01 X314.288 Y211.372
G01 X327.145 Y203.647
G01 X340.003 Y195.921
G01 X352.860 Y188.195
G01 X365.718 Y180.470
G01 X378.575 Y172.744
G01 X391.433 Y165.019
G01 X404.290 Y157.293
G01 X417.148 Y149.568
G01 X430.005 Y141.842
G01 X442.863 Y134.116
G01 X455.720 Y126.391
G01 X442.863 Y134.116
G01 X430.005 Y141.842
G01 X417.148 Y149.568
G01 X404.290 Y157.293
G01 X391.433 Y165.019
G01 X378.575 Y172.744
G01 X365.718 Y180.470
G01 X352.860 Y188.195
G01 X340.003 Y195.921
G01 X327.145 Y203.647
G01 X314.288 Y211.372
G01 X301.430 Y219.098
G01 X288.573 Y226.823
G01 X275.715 Y234.549
G01 X262.858 Y242.274
G01 X262.914 Y243.079
G01 X262.923 Y243.871
G01 X262.886 Y244.646
G01 X262.805 Y245.403
G01 X262.682 Y246.138
G01 X262.518 Y246.850
G01 X262.315 Y247.536
G01 X262.077 Y248.195
G01 X261.804 Y248.824
G01 X261.499 Y249.423
G01 X261.165 Y249.988
G01 X260.804 Y250.519
G01 X260.418 Y251.015
G01 X260.011 Y251.474
G01 X259.584 Y251.896
G01 X259.142 Y252.279
G01 X258.685 Y252.624
G01 X258.217 Y252.930
G01 X257.741 Y253.197
G01 X257.260 Y253.424
G01 X256.776 Y253.612
G01 X256.291 Y253.761
G01 X255.809 Y253.872
G01 X255.331 Y253.945
G01 X254.862 Y253.981
G01 X254.402 Y253.981
G01 X253.954 Y253.946
G01 X253.522 Y253.877
G01 X253.106 Y253.776
G01 X252.709 Y253.644
G01 X252.333 Y253.483
G01 X251.979 Y253.294
G01 X251.651 Y253.080
G01 X251.348 Y252.842
G01 X251.073 Y252.583
G01 X250.827 Y252.304
G01 X250.612 Y252.009
G01 X250.427 Y251.698
G01 X250.275 Y251.375
G01 X250.156 Y251.042
G01 X250.070 Y250.702
G01 X250.018 Y250.356
G01 X250.000 Y250.008
G01 X250.000 Y250.000
G01 X250.017 Y250.345
G01 X250.068 Y250.688
G01 X250.152 Y251.026
G01 X250.270 Y251.357
G01 X250.420 Y251.677
G01 X250.602 Y251.985
G01 X250.815 Y252.279
G01 X251.059 Y252.556
G01 X251.331 Y252.813
G01 X251.630 Y253.050
G01 X251.956 Y253.263
G01 X252.305 Y253.450
G01 X252.678 Y253.611
G01 X253.071 Y253.742
G01 X253.483 Y253.843
G01 X253.912 Y253.912
G01 X254.356 Y253.948
G01 X254.812 Y253.949
G01 X255.277 Y253.914
G01 X255.750 Y253.842
G01 X256.229 Y253.733
G01 X256.709 Y253.586
G01 X257.190 Y253.401
G01 X257.667 Y253.176
G01 X258.140 Y252.912
G01 X258.604 Y252.610
G01 X259.057 Y252.269
G01 X259.496 Y251.889
G01 X259.920 Y251.471
G01 X260.324 Y251.017
G01 X260.707 Y250.526
G01 X261.066 Y250.000
G01 X261.398 Y249.440
G01 X261.701 Y248.848
G01 X261.972 Y248.224
G01 X262.210 Y247.571
G01 X262.411 Y246.891
G01 X262.575 Y246.186
G01 X262.698 Y245.457
G01 X262.779 Y244.707
G01 X262.817 Y243.938
G01 X262.809 Y243.154
G01 X262.754 Y242.356
G01 X262.721 Y242.051
G01 X275.441 Y234.102
G01 X288.162 Y226.154
G01 X300.883 Y218.205
G01 X313.604 Y210.256
G01 X326.324 Y202.307
G01 X339.045 Y194.358
G01 X351.766 Y186.410
G01 X364.486 Y178.461
G01 X377.207 Y170.512
G01 X389.928 Y162.563
G01 X402.649 Y154.615
G01 X415.369 Y146.666
G01 X428.090 Y138.717
G01 X440.811 Y130.768
G01 X453.532 Y122.819
G01 X440.811 Y130.768
G01 X428.090 Y138.717
G01 X415.369 Y146.666
G01 X402.649 Y154.615
G01 X389.928 Y162.563
G01 X377.207 Y170.512
G01 X364.486 Y178.461
G01 X351.766 Y186.410
G01 X339.045 Y194.358
G01 X326.324 Y202.307
G01 X313.604 Y210.256
G01 X300.883 Y218.205
G01 X288.162 Y226.154
G01 X275.441 Y234.102
G01 X262.721 Y242.051
G01 X262.794 Y242.854
G01 X262.819 Y243.644
G01 X262.798 Y244.418
G01 X262.734 Y245.176
G01 X262.626 Y245.913
G01 X262.477 Y246.627
G01 X262.290 Y247.318
G01 X262.066 Y247.981
G01 X261.807 Y248.616
G01 X261.516 Y249.220
G01 X261.194 Y249.792
G01 X260.845 Y250.331
G01 X260.471 Y250.836
G01 X260.075 Y251.304
G01 X259.658 Y251.736
G01 X259.225 Y252.130
G01 X258.776 Y252.485
G01 X258.316 Y252.803
G01 X257.847 Y253.081
