;  Created by Sandify
;  https://sandify.org
;  Version: 0.2.6
;
;  Machine type: Rectangular
;    Min X (mm): 0
;    Max X (mm): 500
;    Min Y (mm): 0
;    Max Y (mm): 500
;  Content type: shape
;  Layer:
;    Shape: FileImport
;    Name: SwoopyRadiance.thr
;    From file:: SwoopyRadiance.thr
;    Aspect Ratio: true
;    Comments: 
;    Visible: true
;    Initial width: 10
;    Initial height: 10
;    X offset: 0
;    Y offset: 0
;    Rotate (degrees): 0
;    Reverse path: false
;    Fine tuning:
;      Connect to next layer: line
;      Draw portion of path (%): 100
;      Backtrack at end (%): 0
;      Rotate starting point (%): 0
;  Reverse export path: false
;
; File name: 'SwoopyRadiance (E) (C C)'
; File type: gcode
;

G01 X250.000 Y250.000
G01 X250.000 Y500.000
G01 X237.734 Y499.679
G01 X225.500 Y498.757
G01 X213.326 Y497.236
G01 X201.243 Y495.120
G01 X189.279 Y492.413
G01 X177.463 Y489.123
G01 X165.824 Y485.257
G01 X154.389 Y480.826
G01 X143.186 Y475.838
G01 X132.243 Y470.308
G01 X121.585 Y464.248
G01 X111.238 Y457.673
G01 X101.226 Y450.598
G01 X91.575 Y443.041
G01 X82.307 Y435.021
G01 X73.444 Y426.556
G01 X65.008 Y417.667
G01 X57.019 Y408.375
G01 X49.496 Y398.704
G01 X42.457 Y388.676
G01 X35.920 Y378.315
G01 X29.899 Y367.647
G01 X24.409 Y356.697
G01 X19.463 Y345.491
G01 X15.074 Y334.058
G01 X11.251 Y322.424
G01 X8.004 Y310.617
G01 X5.340 Y298.666
G01 X3.266 Y286.600
G01 X1.787 Y274.447
G01 X0.906 Y262.237
G01 X0.625 Y250.000
G01 X0.945 Y237.765
G01 X1.865 Y225.561
G01 X3.382 Y213.418
G01 X5.493 Y201.365
G01 X8.193 Y189.431
G01 X11.475 Y177.644
G01 X15.331 Y166.034
G01 X19.752 Y154.628
G01 X24.727 Y143.454
G01 X30.243 Y132.538
G01 X36.288 Y121.906
G01 X42.847 Y111.585
G01 X49.904 Y101.599
G01 X57.442 Y91.972
G01 X65.442 Y82.727
G01 X73.886 Y73.886
G01 X82.753 Y65.471
G01 X92.021 Y57.502
G01 X101.669 Y49.998
G01 X111.672 Y42.977
G01 X122.006 Y36.456
G01 X132.648 Y30.450
G01 X143.571 Y24.974
G01 X154.748 Y20.041
G01 X166.153 Y15.662
G01 X177.758 Y11.849
G01 X189.535 Y8.610
G01 X201.456 Y5.953
G01 X213.492 Y3.884
G01 X225.614 Y2.409
G01 X237.793 Y1.530
G01 X250.000 Y1.250
G01 X262.205 Y1.569
G01 X274.378 Y2.487
G01 X286.491 Y4.000
G01 X298.513 Y6.106
G01 X310.418 Y8.799
G01 X322.174 Y12.073
G01 X333.755 Y15.920
G01 X345.133 Y20.329
G01 X356.279 Y25.292
G01 X367.168 Y30.794
G01 X377.773 Y36.824
G01 X388.068 Y43.367
G01 X398.029 Y50.406
G01 X407.632 Y57.925
G01 X416.854 Y65.905
G01 X425.672 Y74.328
G01 X434.066 Y83.173
G01 X442.015 Y92.418
G01 X449.500 Y102.041
G01 X456.503 Y112.019
G01 X463.008 Y122.328
G01 X468.999 Y132.943
G01 X474.461 Y143.838
G01 X479.382 Y154.987
G01 X483.749 Y166.363
G01 X487.553 Y177.939
G01 X490.784 Y189.687
G01 X493.434 Y201.578
G01 X495.497 Y213.584
G01 X496.969 Y225.676
G01 X497.846 Y237.824
G01 X498.125 Y250.000
G01 X497.807 Y262.174
G01 X496.891 Y274.317
G01 X495.381 Y286.399
G01 X493.281 Y298.392
G01 X490.594 Y310.266
G01 X487.329 Y321.993
G01 X483.492 Y333.545
G01 X479.093 Y344.894
G01 X474.143 Y356.012
G01 X468.654 Y366.873
G01 X462.640 Y377.451
G01 X456.114 Y387.721
G01 X449.092 Y397.657
G01 X441.592 Y407.235
G01 X433.631 Y416.434
G01 X425.230 Y425.230
G01 X416.408 Y433.602
G01 X407.186 Y441.531
G01 X397.587 Y448.998
G01 X387.634 Y455.984
G01 X377.351 Y462.472
G01 X366.763 Y468.448
G01 X355.895 Y473.896
G01 X344.774 Y478.805
G01 X333.426 Y483.161
G01 X321.879 Y486.955
G01 X310.161 Y490.177
G01 X298.300 Y492.821
G01 X286.324 Y494.879
G01 X274.263 Y496.347
G01 X262.145 Y497.221
G01 X250.000 Y497.500
G01 X237.857 Y497.182
G01 X225.745 Y496.269
G01 X213.693 Y494.763
G01 X201.730 Y492.668
G01 X189.886 Y489.988
G01 X178.189 Y486.731
G01 X166.666 Y482.903
G01 X155.346 Y478.516
G01 X144.255 Y473.578
G01 X133.421 Y468.103
G01 X122.870 Y462.104
G01 X112.627 Y455.594
G01 X102.716 Y448.590
G01 X93.161 Y441.109
G01 X83.986 Y433.168
G01 X75.212 Y424.788
G01 X66.861 Y415.988
G01 X58.952 Y406.789
G01 X51.504 Y397.215
G01 X44.536 Y387.287
G01 X38.064 Y377.030
G01 X32.103 Y366.468
G01 X26.669 Y355.628
G01 X21.773 Y344.535
G01 X17.428 Y333.216
G01 X13.643 Y321.698
G01 X10.429 Y310.009
G01 X7.792 Y298.178
G01 X5.739 Y286.233
G01 X4.275 Y274.202
G01 X3.403 Y262.115
G01 X3.125 Y250.000
G01 X3.442 Y237.887
G01 X4.353 Y225.806
G01 X5.855 Y213.785
G01 X7.945 Y201.852
G01 X10.618 Y190.038
G01 X13.867 Y178.370
G01 X17.685 Y166.876
G01 X22.062 Y155.585
G01 X26.987 Y144.522
G01 X32.448 Y133.716
G01 X38.433 Y123.191
G01 X44.926 Y112.974
G01 X51.912 Y103.088
G01 X59.374 Y93.558
G01 X67.295 Y84.406
G01 X75.654 Y75.654
G01 X84.432 Y67.324
G01 X93.607 Y59.435
G01 X103.158 Y52.006
G01 X113.061 Y45.056
G01 X123.292 Y38.600
G01 X133.826 Y32.655
G01 X144.639 Y27.234
G01 X155.704 Y22.350
G01 X166.995 Y18.016
G01 X178.483 Y14.241
G01 X190.142 Y11.035
G01 X201.944 Y8.405
G01 X213.859 Y6.357
G01 X225.859 Y4.897
G01 X237.916 Y4.027
G01 X250.000 Y3.750
G01 X262.082 Y4.066
G01 X274.133 Y4.975
G01 X286.124 Y6.473
G01 X298.026 Y8.558
G01 X309.810 Y11.225
G01 X321.449 Y14.466
G01 X332.913 Y18.274
G01 X344.176 Y22.639
G01 X355.210 Y27.552
G01 X365.989 Y32.999
G01 X376.487 Y38.969
G01 X386.679 Y45.445
G01 X396.540 Y52.414
G01 X406.046 Y59.858
G01 X415.175 Y67.758
G01 X423.904 Y76.096
G01 X432.213 Y84.852
G01 X440.082 Y94.004
G01 X447.492 Y103.530
G01 X454.425 Y113.408
G01 X460.864 Y123.613
G01 X466.794 Y134.121
G01 X472.201 Y144.907
G01 X477.072 Y155.944
G01 X481.395 Y167.205
G01 X485.161 Y178.665
G01 X488.359 Y190.294
G01 X490.982 Y202.066
G01 X493.024 Y213.951
G01 X494.481 Y225.921
G01 X495.349 Y237.947
G01 X495.625 Y250.000
G01 X495.310 Y262.051
G01 X494.403 Y274.072
G01 X492.909 Y286.032
G01 X490.829 Y297.904
G01 X488.169 Y309.658
G01 X484.936 Y321.267
G01 X481.138 Y332.703
G01 X476.784 Y343.937
G01 X471.883 Y354.943
G01 X466.450 Y365.695
G01 X460.495 Y376.166
G01 X454.035 Y386.332
G01 X447.084 Y396.167
G01 X439.659 Y405.649
G01 X431.779 Y414.755
G01 X423.462 Y423.462
G01 X414.729 Y431.750
G01 X405.600 Y439.599
G01 X396.098 Y446.990
G01 X386.245 Y453.905
G01 X376.066 Y460.328
G01 X365.584 Y466.243
G01 X354.826 Y471.636
G01 X343.817 Y476.495
G01 X332.584 Y480.807
G01 X321.154 Y484.563
G01 X309.554 Y487.752
G01 X297.812 Y490.369
G01 X285.958 Y492.406
G01 X274.018 Y493.859
G01 X262.023 Y494.724
G01 X250.000 Y495.000
G01 X237.979 Y494.685
G01 X225.990 Y493.781
G01 X214.060 Y492.290
G01 X202.218 Y490.216
G01 X190.494 Y487.563
G01 X178.914 Y484.338
G01 X167.508 Y480.550
G01 X156.302 Y476.206
G01 X145.324 Y471.318
G01 X134.600 Y465.898
G01 X124.155 Y459.959
G01 X114.016 Y453.515
G01 X104.205 Y446.582
G01 X94.747 Y439.176
G01 X85.665 Y431.316
G01 X76.980 Y423.020
G01 X68.713 Y414.309
G01 X60.884 Y405.203
G01 X53.512 Y395.725
G01 X46.615 Y385.898
G01 X40.208 Y375.744
G01 X34.308 Y365.290
G01 X28.929 Y354.559
G01 X24.083 Y343.578
G01 X19.781 Y332.374
G01 X16.036 Y320.972
G01 X12.854 Y309.402
G01 X10.244 Y297.690
G01 X8.212 Y285.866
G01 X6.763 Y273.957
G01 X5.900 Y261.992
G01 X5.625 Y250.000
G01 X5.939 Y238.010
G01 X6.841 Y226.051
G01 X8.328 Y214.151
G01 X10.397 Y202.340
G01 X13.043 Y190.645
G01 X16.260 Y179.096
G01 X20.039 Y167.719
G01 X24.371 Y156.542
G01 X29.247 Y145.591
G01 X34.653 Y134.894
G01 X40.577 Y124.477
G01 X47.004 Y114.363
G01 X53.920 Y104.577
G01 X61.307 Y95.144
G01 X69.147 Y86.085
G01 X77.422 Y77.422
G01 X86.111 Y69.176
G01 X95.193 Y61.367
G01 X104.647 Y54.014
G01 X114.450 Y47.134
G01 X124.577 Y40.744
G01 X135.005 Y34.859
G01 X145.708 Y29.494
G01 X156.661 Y24.660
G01 X167.837 Y20.370
G01 X179.209 Y16.634
G01 X190.750 Y13.460
G01 X202.431 Y10.857
G01 X214.226 Y8.830
G01 X226.104 Y7.385
G01 X238.039 Y6.524
G01 X250.000 Y6.250
G01 X261.959 Y6.563
G01 X273.888 Y7.463
G01 X285.757 Y8.946
G01 X297.538 Y11.010
G01 X309.203 Y13.650
G01 X320.723 Y16.858
G01 X332.071 Y20.627
G01 X343.219 Y24.949
G01 X354.141 Y29.812
G01 X364.811 Y35.204
G01 X375.202 Y41.113
G01 X385.290 Y47.524
G01 X395.050 Y54.422
G01 X404.460 Y61.790
G01 X413.496 Y69.610
G01 X422.136 Y77.864
G01 X430.361 Y86.530
G01 X438.150 Y95.590
G01 X445.484 Y105.019
G01 X452.346 Y114.797
G01 X458.720 Y124.898
G01 X464.589 Y135.300
G01 X469.941 Y145.976
G01 X474.763 Y156.900
G01 X479.042 Y168.048
G01 X482.768 Y179.391
G01 X485.934 Y190.902
G01 X488.530 Y202.553
G01 X490.551 Y214.318
G01 X491.993 Y226.166
G01 X492.852 Y238.069
G01 X493.125 Y250.000
G01 X492.813 Y261.929
G01 X491.915 Y273.827
G01 X490.436 Y285.665
G01 X488.377 Y297.416
G01 X485.744 Y309.051
G01 X482.544 Y320.541
G01 X478.784 Y331.860
G01 X474.474 Y342.980
G01 X469.623 Y353.874
G01 X464.245 Y364.516
G01 X458.351 Y374.881
G01 X451.956 Y384.943
G01 X445.076 Y394.678
G01 X437.727 Y404.063
G01 X429.927 Y413.076
G01 X421.694 Y421.694
G01 X413.050 Y429.898
G01 X404.014 Y437.666
G01 X394.608 Y444.982
G01 X384.856 Y451.826
G01 X374.780 Y458.183
G01 X364.406 Y464.038
G01 X353.757 Y469.376
G01 X342.861 Y474.185
G01 X331.742 Y478.453
G01 X320.428 Y482.170
G01 X308.946 Y485.327
G01 X297.325 Y487.917
G01 X285.591 Y489.933
G01 X273.773 Y491.371
G01 X261.900 Y492.227
G01 X250.000 Y492.500
G01 X238.102 Y492.188
G01 X226.235 Y491.293
G01 X214.426 Y489.817
G01 X202.706 Y487.764
G01 X191.101 Y485.138
G01 X179.640 Y481.946
G01 X168.350 Y478.196
G01 X157.259 Y473.896
G01 X146.393 Y469.058
G01 X135.778 Y463.694
G01 X125.441 Y457.815
G01 X115.404 Y451.437
G01 X105.694 Y444.574
G01 X96.333 Y437.244
G01 X87.344 Y429.464
G01 X78.748 Y421.252
G01 X70.565 Y412.630
G01 X62.817 Y403.617
G01 X55.520 Y394.236
G01 X48.693 Y384.509
G01 X42.353 Y374.459
G01 X36.513 Y364.111
G01 X31.189 Y353.490
G01 X26.392 Y342.621
G01 X22.135 Y331.531
G01 X18.428 Y320.247
G01 X15.279 Y308.795
G01 X12.696 Y297.203
G01 X10.685 Y285.499
G01 X9.251 Y273.712
G01 X8.397 Y261.869
G01 X8.125 Y250.000
G01 X8.436 Y238.133
G01 X9.329 Y226.296
G01 X10.801 Y214.518
G01 X12.849 Y202.828
G01 X15.468 Y191.253
G01 X18.652 Y179.821
G01 X22.393 Y168.561
G01 X26.681 Y157.498
G01 X31.506 Y146.660
G01 X36.858 Y136.073
G01 X42.721 Y125.762
G01 X49.083 Y115.752
G01 X55.928 Y106.066
G01 X63.239 Y96.730
G01 X71.000 Y87.763
G01 X79.190 Y79.190
G01 X87.790 Y71.028
G01 X96.779 Y63.300
G01 X106.136 Y56.022
G01 X115.838 Y49.213
G01 X125.862 Y42.889
G01 X136.183 Y37.064
G01 X146.777 Y31.754
G01 X157.618 Y26.970
G01 X168.679 Y22.724
G01 X179.935 Y19.026
G01 X191.357 Y15.885
G01 X202.919 Y13.309
G01 X214.593 Y11.303
G01 X226.350 Y9.873
G01 X238.161 Y9.021
G01 X250.000 Y8.750
G01 X261.837 Y9.060
G01 X273.643 Y9.951
G01 X285.390 Y11.419
G01 X297.050 Y13.462
G01 X308.595 Y16.075
G01 X319.997 Y19.250
G01 X331.229 Y22.981
G01 X342.263 Y27.258
G01 X353.073 Y32.071
G01 X363.632 Y37.409
G01 X373.917 Y43.257
G01 X383.901 Y49.603
G01 X393.561 Y56.430
G01 X402.874 Y63.723
G01 X411.817 Y71.463
G01 X420.369 Y79.631
G01 X428.508 Y88.209
G01 X436.217 Y97.176
G01 X443.476 Y106.509
G01 X450.267 Y116.186
G01 X456.575 Y126.184
G01 X462.385 Y136.478
G01 X467.681 Y147.044
G01 X472.453 Y157.857
G01 X476.688 Y168.890
G01 X480.376 Y180.116
G01 X483.508 Y191.509
G01 X486.078 Y203.041
G01 X488.079 Y214.684
G01 X489.505 Y226.411
G01 X490.355 Y238.192
G01 X490.625 Y250.000
G01 X490.316 Y261.806
G01 X489.427 Y273.582
G01 X487.963 Y285.298
G01 X485.925 Y296.928
G01 X483.319 Y308.443
G01 X480.152 Y319.816
G01 X476.430 Y331.018
G01 X472.164 Y342.023
G01 X467.364 Y352.805
G01 X462.040 Y363.338
G01 X456.207 Y373.596
G01 X449.877 Y383.554
G01 X443.068 Y393.189
G01 X435.794 Y402.477
G01 X428.074 Y411.397
G01 X419.927 Y419.927
G01 X411.371 Y428.045
G01 X402.428 Y435.734
G01 X393.119 Y442.974
G01 X383.467 Y449.748
G01 X373.495 Y456.039
G01 X363.227 Y461.833
G01 X352.688 Y467.116
G01 X341.904 Y471.875
G01 X330.900 Y476.099
G01 X319.702 Y479.778
G01 X308.339 Y482.902
G01 X296.837 Y485.465
G01 X285.224 Y487.460
G01 X273.528 Y488.883
G01 X261.777 Y489.730
G01 X250.000 Y490.000
G01 X238.225 Y489.691
G01 X226.480 Y488.805
G01 X214.793 Y487.344
G01 X203.194 Y485.312
G01 X191.708 Y482.713
G01 X180.366 Y479.554
G01 X169.192 Y475.842
G01 X158.216 Y471.587
G01 X147.462 Y466.799
G01 X136.957 Y461.489
G01 X126.726 Y455.671
G01 X116.793 Y449.358
G01 X107.183 Y442.566
G01 X97.919 Y435.311
G01 X89.023 Y427.611
G01 X80.515 Y419.485
G01 X72.418 Y410.951
G01 X64.749 Y402.031
G01 X57.528 Y392.747
G01 X50.772 Y383.120
G01 X44.497 Y373.174
G01 X38.718 Y362.933
G01 X33.449 Y352.421
G01 X28.702 Y341.665
G01 X24.489 Y330.689
G01 X20.820 Y319.521
G01 X17.704 Y308.187
G01 X15.148 Y296.715
G01 X13.158 Y285.132
G01 X11.739 Y273.467
G01 X10.894 Y261.747
G01 X10.625 Y250.000
G01 X10.933 Y238.255
G01 X11.817 Y226.541
G01 X13.274 Y214.885
G01 X15.301 Y203.315
G01 X17.893 Y191.860
G01 X21.045 Y180.547
G01 X24.747 Y169.403
G01 X28.991 Y158.455
G01 X33.766 Y147.729
G01 X39.062 Y137.251
G01 X44.865 Y127.047
G01 X51.162 Y117.141
G01 X57.936 Y107.556
G01 X65.172 Y98.316
G01 X72.852 Y89.442
G01 X80.957 Y80.957
G01 X89.469 Y72.881
G01 X98.365 Y65.232
G01 X107.626 Y58.030
G01 X117.227 Y51.292
G01 X127.148 Y45.033
G01 X137.362 Y39.269
G01 X147.846 Y34.014
G01 X158.575 Y29.279
G01 X169.521 Y25.078
G01 X180.661 Y21.418
G01 X191.965 Y18.310
G01 X203.407 Y15.761
G01 X214.960 Y13.776
G01 X226.595 Y12.361
G01 X238.284 Y11.518
G01 X250.000 Y11.250
G01 X261.714 Y11.557
G01 X273.398 Y12.439
G01 X285.023 Y13.892
G01 X296.563 Y15.914
G01 X307.988 Y18.500
G01 X319.271 Y21.643
G01 X330.386 Y25.335
G01 X341.306 Y29.568
G01 X352.004 Y34.331
G01 X362.454 Y39.614
G01 X372.632 Y45.402
G01 X382.512 Y51.682
G01 X392.072 Y58.438
G01 X401.288 Y65.655
G01 X410.138 Y73.315
G01 X418.601 Y81.399
G01 X426.656 Y89.888
G01 X434.284 Y98.762
G01 X441.468 Y107.998
G01 X448.189 Y117.575
G01 X454.431 Y127.469
G01 X460.180 Y137.657
G01 X465.421 Y148.113
G01 X470.143 Y158.814
G01 X474.334 Y169.732
G01 X477.984 Y180.842
G01 X481.083 Y192.117
G01 X483.626 Y203.529
G01 X485.606 Y215.051
G01 X487.017 Y226.656
G01 X487.858 Y238.315
G01 X488.125 Y250.000
G01 X487.819 Y261.683
G01 X486.939 Y273.337
G01 X485.490 Y284.932
G01 X483.473 Y296.441
G01 X480.894 Y307.836
G01 X477.759 Y319.090
G01 X474.076 Y330.176
G01 X469.854 Y341.067
G01 X465.104 Y351.736
G01 X459.835 Y362.159
G01 X454.062 Y372.310
G01 X447.799 Y382.165
G01 X441.060 Y391.700
G01 X433.862 Y400.891
G01 X426.222 Y409.718
G01 X418.159 Y418.159
G01 X409.692 Y426.193
G01 X400.842 Y433.801
G01 X391.630 Y440.966
G01 X382.078 Y447.669
G01 X372.210 Y453.895
G01 X362.049 Y459.629
G01 X351.619 Y464.856
G01 X340.947 Y469.566
G01 X330.057 Y473.745
G01 X318.977 Y477.385
G01 X307.732 Y480.477
G01 X296.349 Y483.013
G01 X284.857 Y484.987
G01 X273.283 Y486.395
G01 X261.655 Y487.233
G01 X250.000 Y487.500
G01 X238.347 Y487.194
G01 X226.725 Y486.317
G01 X215.160 Y484.871
G01 X203.681 Y482.860
G01 X192.316 Y480.288
G01 X181.091 Y477.161
G01 X170.035 Y473.488
G01 X159.172 Y469.277
G01 X148.531 Y464.539
G01 X138.135 Y459.284
G01 X128.011 Y453.526
G01 X118.182 Y447.279
G01 X108.673 Y440.558
G01 X99.505 Y433.379
G01 X90.701 Y425.759
G01 X82.283 Y417.717
G01 X74.270 Y409.272
G01 X66.682 Y400.445
G01 X59.536 Y391.258
G01 X52.851 Y381.731
G01 X46.641 Y371.889
G01 X40.923 Y361.754
G01 X35.709 Y351.352
G01 X31.012 Y340.708
G01 X26.843 Y329.847
G01 X23.213 Y318.795
G01 X20.129 Y307.580
G01 X17.600 Y296.227
G01 X15.631 Y284.765
G01 X14.227 Y273.222
G01 X13.391 Y261.624
G01 X13.125 Y250.000
G01 X13.430 Y238.378
G01 X14.304 Y226.786
G01 X15.747 Y215.252
G01 X17.753 Y203.803
G01 X20.319 Y192.468
G01 X23.437 Y181.273
G01 X27.100 Y170.245
G01 X31.300 Y159.412
G01 X36.026 Y148.798
G01 X41.267 Y138.430
G01 X47.010 Y128.332
G01 X53.241 Y118.530
G01 X59.944 Y109.045
G01 X67.105 Y99.902
G01 X74.704 Y91.121
G01 X82.725 Y82.725
G01 X91.147 Y74.733
G01 X99.951 Y67.165
G01 X109.115 Y60.038
G01 X118.616 Y53.370
G01 X128.433 Y47.177
G01 X138.540 Y41.474
G01 X148.915 Y36.274
G01 X159.531 Y31.589
G01 X170.364 Y27.431
G01 X181.386 Y23.811
G01 X192.572 Y20.735
G01 X203.895 Y18.213
G01 X215.326 Y16.249
G01 X226.840 Y14.849
G01 X238.407 Y14.015
G01 X250.000 Y13.750
G01 X261.591 Y14.054
G01 X273.153 Y14.926
G01 X284.656 Y16.365
G01 X296.075 Y18.366
G01 X307.380 Y20.925
G01 X318.546 Y24.035
G01 X329.544 Y27.689
G01 X340.349 Y31.878
G01 X350.935 Y36.591
G01 X361.275 Y41.818
G01 X371.346 Y47.546
G01 X381.123 Y53.760
G01 X390.583 Y60.446
G01 X399.702 Y67.588
G01 X408.459 Y75.167
G01 X416.833 Y83.167
G01 X424.804 Y91.567
G01 X432.352 Y100.348
G01 X439.460 Y109.487
G01 X446.110 Y118.964
G01 X452.287 Y128.754
G01 X457.975 Y138.835
G01 X463.161 Y149.182
G01 X467.833 Y159.770
G01 X471.980 Y170.574
G01 X475.591 Y181.568
G01 X478.658 Y192.724
G01 X481.174 Y204.017
G01 X483.133 Y215.418
G01 X484.529 Y226.901
G01 X485.361 Y238.437
G01 X485.625 Y250.000
G01 X485.322 Y261.561
G01 X484.452 Y273.091
G01 X483.017 Y284.565
G01 X481.021 Y295.953
G01 X478.469 Y307.228
G01 X475.367 Y318.364
G01 X471.723 Y329.334
G01 X467.545 Y340.110
G01 X462.844 Y350.668
G01 X457.630 Y360.981
G01 X451.918 Y371.025
G01 X445.720 Y380.776
G01 X439.052 Y390.210
G01 X431.929 Y399.305
G01 X424.370 Y408.039
G01 X416.391 Y416.391
G01 X408.013 Y424.341
G01 X399.256 Y431.869
G01 X390.141 Y438.958
G01 X380.689 Y445.590
G01 X370.925 Y451.751
G01 X360.870 Y457.424
G01 X350.551 Y462.596
G01 X339.990 Y467.256
G01 X329.215 Y471.392
G01 X318.251 Y474.993
G01 X307.124 Y478.052
G01 X295.861 Y480.561
G01 X284.490 Y482.514
G01 X273.038 Y483.907
G01 X261.532 Y484.736
G01 X250.000 Y485.000
G01 X238.470 Y484.697
G01 X226.970 Y483.830
G01 X215.527 Y482.399
G01 X204.169 Y480.408
G01 X192.923 Y477.863
G01 X181.817 Y474.769
G01 X170.877 Y471.134
G01 X160.129 Y466.967
G01 X149.600 Y462.279
G01 X139.314 Y457.079
G01 X129.296 Y451.382
G01 X119.571 Y445.200
G01 X110.162 Y438.550
G01 X101.091 Y431.446
G01 X92.380 Y423.906
G01 X84.051 Y415.949
G01 X76.123 Y407.593
G01 X68.614 Y398.859
G01 X61.544 Y389.768
G01 X54.929 Y380.342
G01 X48.786 Y370.603
G01 X43.127 Y360.576
G01 X37.969 Y350.283
G01 X33.321 Y339.751
G01 X29.197 Y329.005
G01 X25.605 Y318.069
G01 X22.554 Y306.972
G01 X20.052 Y295.740
G01 X18.104 Y284.399
G01 X16.715 Y272.977
G01 X15.888 Y261.501
G01 X15.625 Y250.000
G01 X15.927 Y238.501
G01 X16.792 Y227.031
G01 X18.220 Y215.619
G01 X20.205 Y204.291
G01 X22.744 Y193.075
G01 X25.829 Y181.999
G01 X29.454 Y171.087
G01 X33.610 Y160.368
G01 X38.286 Y149.867
G01 X43.472 Y139.608
G01 X49.154 Y129.618
G01 X55.319 Y119.918
G01 X61.952 Y110.534
G01 X69.037 Y101.488
G01 X76.557 Y92.800
G01 X84.493 Y84.493
G01 X92.826 Y76.586
G01 X101.537 Y69.097
G01 X110.604 Y62.046
G01 X120.005 Y55.449
G01 X129.718 Y49.322
G01 X139.719 Y43.679
G01 X149.984 Y38.534
G01 X160.488 Y33.899
G01 X171.206 Y29.785
G01 X182.112 Y26.203
G01 X193.180 Y23.160
G01 X204.382 Y20.665
G01 X215.693 Y18.722
G01 X227.085 Y17.337
G01 X238.529 Y16.512
G01 X250.000 Y16.250
G01 X261.469 Y16.551
G01 X272.908 Y17.414
G01 X284.290 Y18.838
G01 X295.587 Y20.818
G01 X306.773 Y23.350
G01 X317.820 Y26.427
G01 X328.702 Y30.043
G01 X339.392 Y34.188
G01 X349.866 Y38.851
G01 X360.097 Y44.023
G01 X370.061 Y49.690
G01 X379.734 Y55.839
G01 X389.093 Y62.454
G01 X398.116 Y69.520
G01 X406.780 Y77.020
G01 X415.065 Y84.935
G01 X422.951 Y93.246
G01 X430.419 Y101.934
G01 X437.452 Y110.976
G01 X444.031 Y120.352
G01 X450.142 Y130.039
G01 X455.770 Y140.014
G01 X460.901 Y150.251
G01 X465.524 Y160.727
G01 X469.626 Y171.416
G01 X473.199 Y182.293
G01 X476.233 Y193.332
G01 X478.722 Y204.504
G01 X480.660 Y215.785
G01 X482.041 Y227.146
G01 X482.864 Y238.560
G01 X483.125 Y250.000
G01 X482.825 Y261.438
G01 X481.964 Y272.846
G01 X480.544 Y284.198
G01 X478.569 Y295.465
G01 X476.044 Y306.621
G01 X472.975 Y317.639
G01 X469.369 Y328.491
G01 X465.235 Y339.153
G01 X460.584 Y349.599
G01 X455.426 Y359.802
G01 X449.774 Y369.740
G01 X443.641 Y379.387
G01 X437.044 Y388.721
G01 X429.997 Y397.719
G01 X422.517 Y406.360
G01 X414.623 Y414.623
G01 X406.334 Y422.488
G01 X397.670 Y429.936
G01 X388.651 Y436.950
G01 X379.300 Y443.512
G01 X369.639 Y449.606
G01 X359.692 Y455.219
G01 X349.482 Y460.336
G01 X339.034 Y464.946
G01 X328.373 Y469.038
G01 X317.525 Y472.601
G01 X306.517 Y475.627
G01 X295.374 Y478.109
G01 X284.123 Y480.041
G01 X272.793 Y481.419
G01 X261.409 Y482.239
G01 X250.000 Y482.500
G01 X238.593 Y482.200
G01 X227.215 Y481.342
G01 X215.894 Y479.926
G01 X204.657 Y477.956
G01 X193.531 Y475.438
G01 X182.543 Y472.376
G01 X171.719 Y468.780
G01 X161.086 Y464.658
G01 X150.669 Y460.019
G01 X140.492 Y454.874
G01 X130.582 Y449.238
G01 X120.960 Y443.122
G01 X111.651 Y436.542
G01 X102.677 Y429.514
G01 X94.059 Y422.054
G01 X85.819 Y414.181
G01 X77.975 Y405.914
G01 X70.547 Y397.273
G01 X63.552 Y388.279
G01 X57.008 Y378.953
G01 X50.930 Y369.318
G01 X45.332 Y359.397
G01 X40.229 Y349.214
G01 X35.631 Y338.795
G01 X31.551 Y328.162
G01 X27.997 Y317.344
G01 X24.979 Y306.365
G01 X22.504 Y295.252
G01 X20.577 Y284.032
G01 X19.203 Y272.732
G01 X18.385 Y261.379
G01 X18.125 Y250.000
G01 X18.424 Y238.623
G01 X19.280 Y227.276
G01 X20.693 Y215.985
G01 X22.657 Y204.779
G01 X25.169 Y193.683
G01 X28.222 Y182.724
G01 X31.808 Y171.930
G01 X35.920 Y161.325
G01 X40.546 Y150.936
G01 X45.677 Y140.787
G01 X51.298 Y130.903
G01 X57.398 Y121.307
G01 X63.960 Y112.023
G01 X70.970 Y103.074
G01 X78.409 Y94.479
G01 X86.261 Y86.261
G01 X94.505 Y78.438
G01 X103.123 Y71.030
G01 X112.093 Y64.054
G01 X121.394 Y57.528
G01 X131.003 Y51.466
G01 X140.897 Y45.883
G01 X151.053 Y40.794
G01 X161.445 Y36.209
G01 X172.048 Y32.139
G01 X182.838 Y28.595
G01 X193.787 Y25.586
G01 X204.870 Y23.117
G01 X216.060 Y21.195
G01 X227.330 Y19.825
G01 X238.652 Y19.009
G01 X250.000 Y18.750
G01 X261.346 Y19.048
G01 X272.663 Y19.902
G01 X283.923 Y21.311
G01 X295.099 Y23.270
G01 X306.165 Y25.775
G01 X317.094 Y28.820
G01 X327.860 Y32.397
G01 X338.436 Y36.497
G01 X348.797 Y41.111
G01 X358.918 Y46.228
G01 X368.776 Y51.835
G01 X378.345 Y57.918
G01 X387.604 Y64.462
G01 X396.530 Y71.453
G01 X405.101 Y78.872
G01 X413.297 Y86.703
G01 X421.099 Y94.925
G01 X428.487 Y103.520
G01 X435.444 Y112.466
G01 X441.953 Y121.741
G01 X447.998 Y131.325
G01 X453.565 Y141.192
G01 X458.641 Y151.320
G01 X463.214 Y161.684
G01 X467.272 Y172.259
G01 X470.807 Y183.019
G01 X473.808 Y193.939
G01 X476.270 Y204.992
G01 X478.187 Y216.152
G01 X479.553 Y227.391
G01 X480.367 Y238.683
G01 X480.625 Y250.000
G01 X480.328 Y261.315
G01 X479.476 Y272.601
G01 X478.071 Y283.831
G01 X476.117 Y294.977
G01 X473.619 Y306.014
G01 X470.582 Y316.913
G01 X467.015 Y327.649
G01 X462.925 Y338.197
G01 X458.324 Y348.530
G01 X453.221 Y358.624
G01 X447.629 Y368.454
G01 X441.563 Y377.998
G01 X435.036 Y387.232
G01 X428.064 Y396.133
G01 X420.665 Y404.682
G01 X412.856 Y412.856
G01 X404.655 Y420.636
G01 X396.084 Y428.004
G01 X387.162 Y434.942
G01 X377.911 Y441.433
G01 X368.354 Y447.462
G01 X358.513 Y453.014
G01 X348.413 Y458.076
G01 X338.077 Y462.637
G01 X327.531 Y466.684
G01 X316.799 Y470.208
G01 X305.909 Y473.202
G01 X294.886 Y475.657
G01 X283.757 Y477.569
G01 X272.548 Y478.931
G01 X261.287 Y479.742
G01 X250.000 Y480.000
G01 X238.715 Y479.703
G01 X227.460 Y478.854
G01 X216.261 Y477.453
G01 X205.144 Y475.504
G01 X194.138 Y473.012
G01 X183.269 Y469.984
G01 X172.561 Y466.426
G01 X162.043 Y462.348
G01 X151.737 Y457.759
G01 X141.671 Y452.670
G01 X131.867 Y447.093
G01 X122.349 Y441.043
G01 X113.140 Y434.534
G01 X104.263 Y427.581
G01 X95.738 Y420.202
G01 X87.586 Y412.414
G01 X79.827 Y404.236
G01 X72.479 Y395.687
G01 X65.560 Y386.790
G01 X59.087 Y377.564
G01 X53.074 Y368.033
G01 X47.537 Y358.219
G01 X42.489 Y348.146
G01 X37.941 Y337.838
G01 X33.905 Y327.320
G01 X30.390 Y316.618
G01 X27.404 Y305.757
G01 X24.956 Y294.764
G01 X23.050 Y283.665
G01 X21.691 Y272.487
G01 X20.882 Y261.256
G01 X20.625 Y250.000
G01 X20.921 Y238.746
G01 X21.768 Y227.521
G01 X23.166 Y216.352
G01 X25.109 Y205.266
G01 X27.594 Y194.290
G01 X30.614 Y183.450
G01 X34.162 Y172.772
G01 X38.229 Y162.282
G01 X42.806 Y152.005
G01 X47.882 Y141.965
G01 X53.443 Y132.188
G01 X59.477 Y122.696
G01 X65.968 Y113.513
G01 X72.902 Y104.660
G01 X80.261 Y96.158
G01 X88.028 Y88.028
G01 X96.184 Y80.290
G01 X104.709 Y72.962
G01 X113.583 Y66.062
G01 X122.783 Y59.606
G01 X132.289 Y53.610
G01 X142.076 Y48.088
G01 X152.122 Y43.054
G01 X162.401 Y38.518
G01 X172.890 Y34.493
G01 X183.563 Y30.988
G01 X194.395 Y28.011
G01 X205.358 Y25.569
G01 X216.427 Y23.668
G01 X227.575 Y22.313
G01 X238.775 Y21.506
G01 X250.000 Y21.250
G01 X261.223 Y21.545
G01 X272.418 Y22.390
G01 X283.556 Y23.784
G01 X294.612 Y25.722
G01 X305.558 Y28.200
G01 X316.369 Y31.212
G01 X327.017 Y34.751
G01 X337.479 Y38.807
G01 X347.728 Y43.371
G01 X357.740 Y48.433
G01 X367.491 Y53.979
G01 X376.956 Y59.996
G01 X386.115 Y66.470
G01 X394.944 Y73.385
G01 X403.422 Y80.725
G01 X411.530 Y88.470
G01 X419.247 Y96.604
G01 X426.554 Y105.106
G01 X433.436 Y113.955
G01 X439.874 Y123.130
G01 X445.854 Y132.610
G01 X451.361 Y142.371
G01 X456.381 Y152.389
G01 X460.904 Y162.641
G01 X464.918 Y173.101
G01 X468.414 Y183.745
G01 X471.383 Y194.546
G01 X473.818 Y205.480
G01 X475.714 Y216.519
G01 X477.065 Y227.636
G01 X477.870 Y238.805
G01 X478.125 Y250.000
G01 X477.831 Y261.193
G01 X476.988 Y272.356
G01 X475.598 Y283.464
G01 X473.665 Y294.490
G01 X471.194 Y305.406
G01 X468.190 Y316.187
G01 X464.661 Y326.807
G01 X460.616 Y337.240
G01 X456.064 Y347.461
G01 X451.016 Y357.445
G01 X445.485 Y367.169
G01 X439.484 Y376.609
G01 X433.028 Y385.743
G01 X426.132 Y394.548
G01 X418.812 Y403.003
G01 X411.088 Y411.088
G01 X402.976 Y418.783
G01 X394.498 Y426.071
G01 X385.673 Y432.934
G01 X376.522 Y439.354
G01 X367.069 Y445.318
G01 X357.335 Y450.809
G01 X347.344 Y455.816
G01 X337.120 Y460.327
G01 X326.689 Y464.330
G01 X316.074 Y467.816
G01 X305.302 Y470.777
G01 X294.398 Y473.205
G01 X283.390 Y475.096
G01 X272.303 Y476.443
G01 X261.164 Y477.245
G01 X250.000 Y477.500
G01 X238.838 Y477.206
G01 X227.705 Y476.366
G01 X216.627 Y474.980
G01 X205.632 Y473.052
G01 X194.746 Y470.587
G01 X183.994 Y467.592
G01 X173.404 Y464.073
G01 X162.999 Y460.038
G01 X152.806 Y455.499
G01 X142.849 Y450.465
G01 X133.152 Y444.949
G01 X123.738 Y438.964
G01 X114.630 Y432.526
G01 X105.849 Y425.649
G01 X97.417 Y418.349
G01 X89.354 Y410.646
G01 X81.680 Y402.557
G01 X74.412 Y394.101
G01 X67.568 Y385.301
G01 X61.165 Y376.175
G01 X55.219 Y366.748
G01 X49.742 Y357.040
G01 X44.749 Y347.077
G01 X40.250 Y336.881
G01 X36.258 Y326.478
G01 X32.782 Y315.892
G01 X29.829 Y305.150
G01 X27.408 Y294.276
G01 X25.523 Y283.298
G01 X24.179 Y272.241
G01 X23.379 Y261.133
G01 X23.125 Y250.000
G01 X23.418 Y238.869
G01 X24.256 Y227.766
G01 X25.639 Y216.719
G01 X27.561 Y205.754
G01 X30.019 Y194.898
G01 X33.006 Y184.176
G01 X36.516 Y173.614
G01 X40.539 Y163.238
G01 X45.066 Y153.074
G01 X50.086 Y143.144
G01 X55.587 Y133.473
G01 X61.555 Y124.085
G01 X67.976 Y115.002
G01 X74.835 Y106.245
G01 X82.114 Y97.837
G01 X89.796 Y89.796
G01 X97.863 Y82.143
G01 X106.295 Y74.895
G01 X115.072 Y68.070
G01 X124.172 Y61.685
G01 X133.574 Y55.755
G01 X143.254 Y50.293
G01 X153.191 Y45.314
G01 X163.358 Y40.828
G01 X173.733 Y36.847
G01 X184.289 Y33.380
G01 X195.002 Y30.436
G01 X205.846 Y28.021
G01 X216.794 Y26.141
G01 X227.820 Y24.801
G01 X238.897 Y24.003
G01 X250.000 Y23.750
G01 X261.101 Y24.042
G01 X272.173 Y24.878
G01 X283.189 Y26.257
G01 X294.124 Y28.174
G01 X304.951 Y30.625
G01 X315.643 Y33.604
G01 X326.175 Y37.104
G01 X336.522 Y41.117
G01 X346.659 Y45.631
G01 X356.561 Y50.638
G01 X366.205 Y56.123
G01 X375.568 Y62.075
G01 X384.626 Y68.478
G01 X393.358 Y75.318
G01 X401.743 Y82.577
G01 X409.762 Y90.238
G01 X417.394 Y98.283
G01 X424.622 Y106.692
G01 X431.428 Y115.444
G01 X437.795 Y124.519
G01 X443.709 Y133.895
G01 X449.156 Y143.549
G01 X454.121 Y153.458
G01 X458.595 Y163.597
G01 X462.565 Y173.943
G01 X466.022 Y184.471
G01 X468.958 Y195.154
G01 X471.366 Y205.968
G01 X473.241 Y216.885
G01 X474.577 Y227.881
G01 X475.373 Y238.928
G01 X475.625 Y250.000
G01 X475.334 Y261.070
G01 X474.500 Y272.111
G01 X473.125 Y283.097
G01 X471.213 Y294.002
G01 X468.769 Y304.799
G01 X465.798 Y315.461
G01 X462.307 Y325.965
G01 X458.306 Y336.283
G01 X453.804 Y346.392
G01 X448.811 Y356.267
G01 X443.341 Y365.884
G01 X437.405 Y375.220
G01 X431.020 Y384.253
G01 X424.199 Y392.962
G01 X416.960 Y401.324
G01 X409.320 Y409.320
G01 X401.298 Y416.931
G01 X392.912 Y424.139
G01 X384.184 Y430.926
G01 X375.134 Y437.276
G01 X365.784 Y443.173
G01 X356.156 Y448.605
G01 X346.275 Y453.556
G01 X336.164 Y458.017
G01 X325.846 Y461.976
G01 X315.348 Y465.424
G01 X304.694 Y468.352
G01 X293.911 Y470.753
G01 X283.023 Y472.623
G01 X272.058 Y473.955
G01 X261.041 Y474.748
G01 X250.000 Y475.000
G01 X238.961 Y474.709
G01 X227.950 Y473.878
G01 X216.994 Y472.507
G01 X206.120 Y470.600
G01 X195.353 Y468.162
G01 X184.720 Y465.199
G01 X174.246 Y461.719
G01 X163.956 Y457.729
G01 X153.875 Y453.239
G01 X144.028 Y448.260
G01 X134.437 Y442.805
G01 X125.127 Y436.886
G01 X116.119 Y430.518
G01 X107.435 Y423.716
G01 X99.096 Y416.497
G01 X91.122 Y408.878
G01 X83.532 Y400.878
G01 X76.344 Y392.515
G01 X69.576 Y383.811
G01 X63.244 Y374.786
G01 X57.363 Y365.462
G01 X51.947 Y355.862
G01 X47.008 Y346.008
G01 X42.560 Y335.924
G01 X38.612 Y325.636
G01 X35.174 Y315.167
G01 X32.255 Y304.542
G01 X29.860 Y293.789
G01 X27.996 Y282.931
G01 X26.667 Y271.996
G01 X25.876 Y261.011
G01 X25.625 Y250.000
G01 X25.915 Y238.991
G01 X26.744 Y228.011
G01 X28.111 Y217.086
G01 X30.013 Y206.242
G01 X32.444 Y195.505
G01 X35.399 Y184.901
G01 X38.870 Y174.456
G01 X42.849 Y164.195
G01 X47.326 Y154.142
G01 X52.291 Y144.322
G01 X57.731 Y134.759
G01 X63.634 Y125.474
G01 X69.984 Y116.491
G01 X76.767 Y107.831
G01 X83.966 Y99.516
G01 X91.564 Y91.564
G01 X99.542 Y83.995
G01 X107.881 Y76.828
G01 X116.561 Y70.078
G01 X125.561 Y63.764
G01 X134.859 Y57.899
G01 X144.433 Y52.498
G01 X154.259 Y47.573
G01 X164.315 Y43.138
G01 X174.575 Y39.201
G01 X185.015 Y35.772
G01 X195.609 Y32.861
G01 X206.333 Y30.473
G01 X217.160 Y28.614
G01 X228.065 Y27.289
G01 X239.020 Y26.500
G01 X250.000 Y26.250
G01 X260.978 Y26.539
G01 X271.928 Y27.366
G01 X282.822 Y28.730
G01 X293.636 Y30.626
G01 X304.343 Y33.050
G01 X314.917 Y35.997
G01 X325.333 Y39.458
G01 X335.566 Y43.426
G01 X345.590 Y47.891
G01 X355.383 Y52.842
G01 X364.920 Y58.268
G01 X374.179 Y64.154
G01 X383.136 Y70.486
G01 X391.772 Y77.250
G01 X400.065 Y84.429
G01 X407.994 Y92.006
G01 X415.542 Y99.962
G01 X422.689 Y108.278
G01 X429.420 Y116.933
G01 X435.717 Y125.908
G01 X441.565 Y135.180
G01 X446.951 Y144.728
G01 X451.862 Y154.527
G01 X456.285 Y164.554
G01 X460.211 Y174.785
G01 X463.629 Y185.196
G01 X466.533 Y195.761
G01 X468.914 Y206.455
G01 X470.768 Y217.252
G01 X472.089 Y228.126
G01 X472.876 Y239.051
G01 X473.125 Y250.000
G01 X472.837 Y260.947
G01 X472.012 Y271.866
G01 X470.652 Y282.731
G01 X468.761 Y293.514
G01 X466.343 Y304.191
G01 X463.405 Y314.736
G01 X459.953 Y325.122
G01 X455.996 Y335.326
G01 X451.544 Y345.323
G01 X446.606 Y355.088
G01 X441.196 Y364.599
G01 X435.327 Y373.831
G01 X429.012 Y382.764
G01 X422.267 Y391.376
G01 X415.108 Y399.645
G01 X407.552 Y407.552
G01 X399.619 Y415.079
G01 X391.326 Y422.206
G01 X382.694 Y428.918
G01 X373.745 Y435.197
G01 X364.498 Y441.029
G01 X354.978 Y446.400
G01 X345.206 Y451.297
G01 X335.207 Y455.708
G01 X325.004 Y459.622
G01 X314.622 Y463.031
G01 X304.087 Y465.927
G01 X293.423 Y468.301
G01 X282.656 Y470.150
G01 X271.813 Y471.467
G01 X260.919 Y472.251
G01 X250.000 Y472.500
G01 X239.083 Y472.212
G01 X228.195 Y471.390
G01 X217.361 Y470.034
G01 X206.608 Y468.148
G01 X195.961 Y465.737
G01 X185.446 Y462.807
G01 X175.088 Y459.365
G01 X164.913 Y455.419
G01 X154.944 Y450.979
G01 X145.206 Y446.055
G01 X135.723 Y440.660
G01 X126.516 Y434.807
G01 X117.608 Y428.510
G01 X109.021 Y421.783
G01 X100.775 Y414.645
G01 X92.890 Y407.110
G01 X85.384 Y399.199
G01 X78.277 Y390.929
G01 X71.584 Y382.322
G01 X65.323 Y373.397
G01 X59.507 Y364.177
G01 X54.151 Y354.683
G01 X49.268 Y344.939
G01 X44.870 Y334.968
G01 X40.966 Y324.793
G01 X37.567 Y314.441
G01 X34.680 Y303.935
G01 X32.312 Y293.301
G01 X30.469 Y282.564
G01 X29.155 Y271.751
G01 X28.373 Y260.888
G01 X28.125 Y250.000
G01 X28.412 Y239.114
G01 X29.232 Y228.256
G01 X30.584 Y217.453
G01 X32.465 Y206.730
G01 X34.869 Y196.113
G01 X37.791 Y185.627
G01 X41.224 Y175.299
G01 X45.159 Y165.152
G01 X49.586 Y155.211
G01 X54.496 Y145.501
G01 X59.876 Y136.044
G01 X65.713 Y126.863
G01 X71.992 Y117.980
G01 X78.700 Y109.417
G01 X85.819 Y101.195
G01 X93.332 Y93.332
G01 X101.221 Y85.847
G01 X109.467 Y78.760
G01 X118.050 Y72.086
G01 X126.950 Y65.842
G01 X136.144 Y60.043
G01 X145.611 Y54.703
G01 X155.328 Y49.833
G01 X165.271 Y45.447
G01 X175.417 Y41.555
G01 X185.740 Y38.165
G01 X196.217 Y35.286
G01 X206.821 Y32.925
G01 X217.527 Y31.087
G01 X228.310 Y29.777
G01 X239.143 Y28.997
G01 X250.000 Y28.750
G01 X260.855 Y29.036
G01 X271.682 Y29.854
G01 X282.456 Y31.203
G01 X293.148 Y33.078
G01 X303.736 Y35.475
G01 X314.191 Y38.389
G01 X324.491 Y41.812
G01 X334.609 Y45.736
G01 X344.521 Y50.151
G01 X354.204 Y55.047
G01 X363.635 Y60.412
G01 X372.790 Y66.232
G01 X381.647 Y72.494
G01 X390.186 Y79.183
G01 X398.386 Y86.282
G01 X406.226 Y93.774
G01 X413.689 Y101.641
G01 X420.757 Y109.864
G01 X427.412 Y118.423
G01 X433.638 Y127.297
G01 X439.421 Y136.466
G01 X444.746 Y145.906
G01 X449.602 Y155.596
G01 X453.975 Y165.511
G01 X457.857 Y175.628
G01 X461.237 Y185.922
G01 X464.108 Y196.369
G01 X466.462 Y206.943
G01 X468.295 Y217.619
G01 X469.602 Y228.371
G01 X470.379 Y239.173
G01 X470.625 Y250.000
G01 X470.340 Y260.825
G01 X469.524 Y271.621
G01 X468.179 Y282.364
G01 X466.309 Y293.027
G01 X463.918 Y303.584
G01 X461.013 Y314.010
G01 X457.599 Y324.280
G01 X453.687 Y334.370
G01 X449.284 Y344.254
G01 X444.402 Y353.910
G01 X439.052 Y363.313
G01 X433.248 Y372.442
G01 X427.004 Y381.275
G01 X420.334 Y389.790
G01 X413.255 Y397.966
G01 X405.784 Y405.784
G01 X397.940 Y413.226
G01 X389.740 Y420.274
G01 X381.205 Y426.910
G01 X372.356 Y433.118
G01 X363.213 Y438.885
G01 X353.799 Y444.195
G01 X344.137 Y449.037
G01 X334.250 Y453.398
G01 X324.162 Y457.268
G01 X313.897 Y460.639
G01 X303.479 Y463.502
G01 X292.935 Y465.849
G01 X282.289 Y467.677
G01 X271.568 Y468.980
G01 X260.796 Y469.755
G01 X250.000 Y470.000
G01 X239.206 Y469.715
G01 X228.440 Y468.902
G01 X217.728 Y467.561
G01 X207.095 Y465.696
G01 X196.568 Y463.312
G01 X186.171 Y460.415
G01 X175.930 Y457.011
G01 X165.869 Y453.109
G01 X156.013 Y448.719
G01 X146.385 Y443.850
G01 X137.008 Y438.516
G01 X127.905 Y432.728
G01 X119.097 Y426.502
G01 X110.607 Y419.851
G01 X102.454 Y412.792
G01 X94.657 Y405.343
G01 X87.237 Y397.520
G01 X80.209 Y389.343
G01 X73.592 Y380.833
G01 X67.401 Y372.008
G01 X61.652 Y362.892
G01 X56.356 Y353.505
G01 X51.528 Y343.870
G01 X47.180 Y334.011
G01 X43.320 Y323.951
G01 X39.959 Y313.715
G01 X37.105 Y303.328
G01 X34.764 Y292.813
G01 X32.941 Y282.198
G01 X31.642 Y271.506
G01 X30.870 Y260.765
G01 X30.625 Y250.000
G01 X30.909 Y239.237
G01 X31.720 Y228.501
G01 X33.057 Y217.820
G01 X34.917 Y207.217
G01 X37.294 Y196.720
G01 X40.183 Y186.353
G01 X43.577 Y176.141
G01 X47.468 Y166.109
G01 X51.846 Y156.280
G01 X56.701 Y146.679
G01 X62.020 Y137.329
G01 X67.791 Y128.252
G01 X74.000 Y119.470
G01 X80.632 Y111.003
G01 X87.671 Y102.874
G01 X95.099 Y95.099
G01 X102.900 Y87.700
G01 X111.053 Y80.693
G01 X119.540 Y74.094
G01 X128.339 Y67.921
G01 X137.430 Y62.188
G01 X146.790 Y56.907
G01 X156.397 Y52.093
G01 X166.228 Y47.757
G01 X176.259 Y43.909
G01 X186.466 Y40.557
G01 X196.824 Y37.711
G01 X207.309 Y35.377
G01 X217.894 Y33.560
G01 X228.555 Y32.264
G01 X239.265 Y31.494
G01 X250.000 Y31.250
G01 X260.733 Y31.533
G01 X271.437 Y32.342
G01 X282.089 Y33.676
G01 X292.661 Y35.530
G01 X303.128 Y37.900
G01 X313.466 Y40.781
G01 X323.649 Y44.166
G01 X333.652 Y48.046
G01 X343.453 Y52.411
G01 X353.026 Y57.252
G01 X362.350 Y62.556
G01 X371.401 Y68.311
G01 X380.158 Y74.502
G01 X388.600 Y81.115
G01 X396.707 Y88.134
G01 X404.459 Y95.541
G01 X411.837 Y103.319
G01 X418.824 Y111.449
G01 X425.404 Y119.912
G01 X431.559 Y128.686
G01 X437.276 Y137.751
G01 X442.541 Y147.085
G01 X447.342 Y156.664
G01 X451.666 Y166.467
G01 X455.503 Y176.470
G01 X458.845 Y186.648
G01 X461.683 Y196.976
G01 X464.010 Y207.431
G01 X465.822 Y217.986
G01 X467.114 Y228.616
G01 X467.882 Y239.296
G01 X468.125 Y250.000
G01 X467.843 Y260.702
G01 X467.036 Y271.376
G01 X465.706 Y281.997
G01 X463.857 Y292.539
G01 X461.493 Y302.976
G01 X458.620 Y313.284
G01 X455.246 Y323.438
G01 X451.377 Y333.413
G01 X447.024 Y343.185
G01 X442.197 Y352.731
G01 X436.908 Y362.028
G01 X431.169 Y371.054
G01 X424.996 Y379.786
G01 X418.402 Y388.204
G01 X411.403 Y396.287
G01 X404.017 Y404.017
G01 X396.261 Y411.374
G01 X388.154 Y418.341
G01 X379.716 Y424.902
G01 X370.967 Y431.040
G01 X361.928 Y436.740
G01 X352.621 Y441.990
G01 X343.068 Y446.777
G01 X333.293 Y451.088
G01 X323.320 Y454.915
G01 X313.171 Y458.247
G01 X302.872 Y461.077
G01 X292.447 Y463.397
G01 X281.922 Y465.204
G01 X271.323 Y466.492
G01 X260.673 Y467.258
G01 X250.000 Y467.500
G01 X239.329 Y467.219
G01 X228.685 Y466.414
G01 X218.095 Y465.088
G01 X207.583 Y463.244
G01 X197.176 Y460.887
G01 X186.897 Y458.022
G01 X176.773 Y454.657
G01 X166.826 Y450.799
G01 X157.082 Y446.459
G01 X147.563 Y441.646
G01 X138.293 Y436.372
G01 X129.294 Y430.650
G01 X120.587 Y424.494
G01 X112.193 Y417.918
G01 X104.133 Y410.940
G01 X96.425 Y403.575
G01 X89.089 Y395.841
G01 X82.142 Y387.758
G01 X75.600 Y379.344
G01 X69.480 Y370.620
G01 X63.796 Y361.606
G01 X58.561 Y352.326
G01 X53.788 Y342.801
G01 X49.489 Y333.054
G01 X45.674 Y323.109
G01 X42.351 Y312.990
G01 X39.530 Y302.720
G01 X37.216 Y292.325
G01 X35.414 Y281.831
G01 X34.130 Y271.261
G01 X33.367 Y260.643
G01 X33.125 Y250.000
G01 X33.406 Y239.359
G01 X34.208 Y228.746
G01 X35.530 Y218.186
G01 X37.369 Y207.705
G01 X39.719 Y197.327
G01 X42.576 Y187.079
G01 X45.931 Y176.983
G01 X49.778 Y167.065
G01 X54.106 Y157.349
G01 X58.906 Y147.858
G01 X64.164 Y138.614
G01 X69.870 Y129.641
G01 X76.008 Y120.959
G01 X82.565 Y112.589
G01 X89.523 Y104.552
G01 X96.867 Y96.867
G01 X104.579 Y89.552
G01 X112.639 Y82.625
G01 X121.029 Y76.102
G01 X129.728 Y70.000
G01 X138.715 Y64.332
G01 X147.968 Y59.112
G01 X157.466 Y54.353
G01 X167.185 Y50.067
G01 X177.102 Y46.262
G01 X187.192 Y42.950
G01 X197.432 Y40.136
G01 X207.796 Y37.829
G01 X218.261 Y36.033
G01 X228.800 Y34.752
G01 X239.388 Y33.991
G01 X250.000 Y33.750
G01 X260.610 Y34.030
G01 X271.192 Y34.830
G01 X281.722 Y36.149
G01 X292.173 Y37.982
G01 X302.521 Y40.325
G01 X312.740 Y43.174
G01 X322.806 Y46.520
G01 X332.695 Y50.355
G01 X342.384 Y54.671
G01 X351.847 Y59.457
G01 X361.064 Y64.700
G01 X370.012 Y70.390
G01 X378.669 Y76.510
G01 X387.014 Y83.048
G01 X395.028 Y89.986
G01 X402.691 Y97.309
G01 X409.985 Y104.998
G01 X416.892 Y113.035
G01 X423.396 Y121.401
G01 X429.481 Y130.075
G01 X435.132 Y139.036
G01 X440.337 Y148.263
G01 X445.082 Y157.733
G01 X449.356 Y167.424
G01 X453.149 Y177.312
G01 X456.452 Y187.373
G01 X459.258 Y197.584
G01 X461.558 Y207.918
G01 X463.349 Y218.353
G01 X464.626 Y228.861
G01 X465.385 Y239.419
G01 X465.625 Y250.000
G01 X465.346 Y260.579
G01 X464.548 Y271.131
G01 X463.233 Y281.630
G01 X461.405 Y292.051
G01 X459.068 Y302.369
G01 X456.228 Y312.559
G01 X452.892 Y322.596
G01 X449.067 Y332.456
G01 X444.764 Y342.116
G01 X439.992 Y351.553
G01 X434.763 Y360.743
G01 X429.091 Y369.665
G01 X422.988 Y378.296
G01 X416.469 Y386.618
G01 X409.551 Y394.608
G01 X402.249 Y402.249
G01 X394.582 Y409.522
G01 X386.568 Y416.409
G01 X378.227 Y422.894
G01 X369.578 Y428.961
G01 X360.643 Y434.596
G01 X351.442 Y439.785
G01 X342.000 Y444.517
G01 X332.337 Y448.778
G01 X322.477 Y452.561
G01 X312.445 Y455.854
G01 X302.264 Y458.651
G01 X291.960 Y460.945
G01 X281.556 Y462.731
G01 X271.078 Y464.004
G01 X260.551 Y464.761
G01 X250.000 Y465.000
G01 X239.451 Y464.722
G01 X228.930 Y463.926
G01 X218.462 Y462.615
G01 X208.071 Y460.792
G01 X197.783 Y458.462
G01 X187.623 Y455.630
G01 X177.615 Y452.303
G01 X167.783 Y448.490
G01 X158.151 Y444.199
G01 X148.742 Y439.441
G01 X139.578 Y434.227
G01 X130.683 Y428.571
G01 X122.076 Y422.486
G01 X113.779 Y415.986
G01 X105.812 Y409.087
G01 X98.193 Y401.807
G01 X90.942 Y394.162
G01 X84.075 Y386.172
G01 X77.608 Y377.854
G01 X71.559 Y369.231
G01 X65.940 Y360.321
G01 X60.766 Y351.148
G01 X56.048 Y341.732
G01 X51.799 Y332.098
G01 X48.028 Y322.267
G01 X44.744 Y312.264
G01 X41.955 Y302.113
G01 X39.668 Y291.838
G01 X37.887 Y281.464
G01 X36.618 Y271.016
G01 X35.864 Y260.520
G01 X35.625 Y250.000
G01 X35.903 Y239.482
G01 X36.696 Y228.991
G01 X38.003 Y218.553
G01 X39.821 Y208.193
G01 X42.144 Y197.935
G01 X44.968 Y187.804
G01 X48.285 Y177.825
G01 X52.088 Y168.022
G01 X56.366 Y158.418
G01 X61.110 Y149.036
G01 X66.309 Y139.900
G01 X71.949 Y131.030
G01 X78.016 Y122.448
G01 X84.497 Y114.175
G01 X91.376 Y106.231
G01 X98.635 Y98.635
G01 X106.258 Y91.405
G01 X114.225 Y84.558
G01 X122.518 Y78.110
G01 X131.117 Y72.078
G01 X140.000 Y66.476
G01 X149.147 Y61.317
G01 X158.535 Y56.613
G01 X168.142 Y52.376
G01 X177.944 Y48.616
G01 X187.918 Y45.342
G01 X198.039 Y42.561
G01 X208.284 Y40.281
G01 X218.628 Y38.506
G01 X229.045 Y37.240
G01 X239.511 Y36.488
G01 X250.000 Y36.250
G01 X260.487 Y36.527
G01 X270.947 Y37.318
G01 X281.355 Y38.621
G01 X291.685 Y40.434
G01 X301.913 Y42.751
G01 X312.014 Y45.566
G01 X321.964 Y48.874
G01 X331.739 Y52.665
G01 X341.315 Y56.931
G01 X350.669 Y61.662
G01 X359.779 Y66.845
G01 X368.623 Y72.468
G01 X377.179 Y78.518
G01 X385.428 Y84.980
G01 X393.349 Y91.839
G01 X400.923 Y99.077
G01 X408.132 Y106.677
G01 X414.959 Y114.621
G01 X421.388 Y122.890
G01 X427.402 Y131.464
G01 X432.988 Y140.321
G01 X438.132 Y149.442
G01 X442.822 Y158.802
G01 X447.046 Y168.381
G01 X450.795 Y178.154
G01 X454.060 Y188.099
G01 X456.833 Y198.191
G01 X459.106 Y208.406
G01 X460.876 Y218.719
G01 X462.138 Y229.106
G01 X462.888 Y239.541
G01 X463.125 Y250.000
G01 X462.849 Y260.457
G01 X462.060 Y270.886
G01 X460.760 Y281.263
G01 X458.953 Y291.563
G01 X456.643 Y301.761
G01 X453.836 Y311.833
G01 X450.538 Y321.754
G01 X446.757 Y331.500
G01 X442.504 Y341.048
G01 X437.787 Y350.374
G01 X432.619 Y359.458
G01 X427.012 Y368.276
G01 X420.980 Y376.807
G01 X414.536 Y385.032
G01 X407.698 Y392.929
G01 X400.481 Y400.481
G01 X392.903 Y407.669
G01 X384.982 Y414.476
G01 X376.737 Y420.886
G01 X368.189 Y426.882
G01 X359.357 Y432.452
G01 X350.264 Y437.581
G01 X340.931 Y442.257
G01 X331.380 Y446.469
G01 X321.635 Y450.207
G01 X311.720 Y453.462
G01 X301.657 Y456.226
G01 X291.472 Y458.493
G01 X281.189 Y460.258
G01 X270.832 Y461.516
G01 X260.428 Y462.264
G01 X250.000 Y462.500
G01 X239.574 Y462.225
G01 X229.175 Y461.438
G01 X218.828 Y460.142
G01 X208.559 Y458.340
G01 X198.390 Y456.037
G01 X188.349 Y453.238
G01 X178.457 Y449.949
G01 X168.740 Y446.180
G01 X159.220 Y441.939
G01 X149.920 Y437.236
G01 X140.864 Y432.083
G01 X132.072 Y426.492
G01 X123.565 Y420.478
G01 X115.365 Y414.053
G01 X107.490 Y407.235
G01 X99.961 Y400.039
G01 X92.794 Y392.483
G01 X86.007 Y384.586
G01 X79.616 Y376.365
G01 X73.638 Y367.842
G01 X68.084 Y359.036
G01 X62.971 Y349.969
G01 X58.308 Y340.663
G01 X54.109 Y331.141
G01 X50.382 Y321.425
G01 X47.136 Y311.538
G01 X44.380 Y301.505
G01 X42.119 Y291.350
G01 X40.360 Y281.097
G01 X39.106 Y270.771
G01 X38.361 Y260.397
G01 X38.125 Y250.000
G01 X38.400 Y239.605
G01 X39.184 Y229.236
G01 X40.476 Y218.920
G01 X42.273 Y208.680
G01 X44.569 Y198.542
G01 X47.360 Y188.530
G01 X50.639 Y178.668
G01 X54.397 Y168.979
G01 X58.626 Y159.487
G01 X63.315 Y150.215
G01 X68.453 Y141.185
G01 X74.027 Y132.419
G01 X80.024 Y123.937
G01 X86.430 Y115.761
G01 X93.228 Y107.910
G01 X100.403 Y100.403
G01 X107.936 Y93.257
G01 X115.811 Y86.490
G01 X124.007 Y80.118
G01 X132.506 Y74.157
G01 X141.285 Y68.621
G01 X150.325 Y63.522
G01 X159.604 Y58.873
G01 X169.098 Y54.686
G01 X178.786 Y50.970
G01 X188.643 Y47.734
G01 X198.647 Y44.986
G01 X208.772 Y42.732
G01 X218.995 Y40.979
G01 X229.290 Y39.728
G01 X239.633 Y38.985
G01 X250.000 Y38.750
G01 X260.365 Y39.024
G01 X270.702 Y39.806
G01 X280.988 Y41.094
G01 X291.198 Y42.886
G01 X301.306 Y45.176
G01 X311.289 Y47.958
G01 X321.122 Y51.228
G01 X330.782 Y54.975
G01 X340.246 Y59.191
G01 X349.490 Y63.866
G01 X358.494 Y68.989
G01 X367.234 Y74.547
G01 X375.690 Y80.526
G01 X383.842 Y86.913
G01 X391.670 Y93.691
G01 X399.155 Y100.845
G01 X406.280 Y108.356
G01 X413.027 Y116.207
G01 X419.380 Y124.380
G01 X425.323 Y132.853
G01 X430.843 Y141.607
G01 X435.927 Y150.620
G01 X440.562 Y159.871
G01 X444.736 Y169.338
G01 X448.441 Y178.997
G01 X451.668 Y188.825
G01 X454.408 Y198.799
G01 X456.655 Y208.894
G01 X458.403 Y219.086
G01 X459.650 Y229.351
G01 X460.391 Y239.664
G01 X460.625 Y250.000
G01 X460.352 Y260.334
G01 X459.572 Y270.641
G01 X458.287 Y280.897
G01 X456.501 Y291.076
G01 X454.218 Y301.154
G01 X451.443 Y311.107
G01 X448.184 Y320.911
G01 X444.448 Y330.543
G01 X440.244 Y339.979
G01 X435.582 Y349.196
G01 X430.475 Y358.172
G01 X424.933 Y366.887
G01 X418.972 Y375.318
G01 X412.604 Y383.446
G01 X405.846 Y391.250
G01 X398.713 Y398.713
G01 X391.224 Y405.817
G01 X383.396 Y412.544
G01 X375.248 Y418.878
G01 X366.800 Y424.803
G01 X358.072 Y430.307
G01 X349.085 Y435.376
G01 X339.862 Y439.997
G01 X330.423 Y444.159
G01 X320.793 Y447.853
G01 X310.994 Y451.070
G01 X301.050 Y453.801
G01 X290.984 Y456.042
G01 X280.822 Y457.785
G01 X270.587 Y459.028
G01 X260.305 Y459.767
G01 X250.000 Y460.000
G01 X239.697 Y459.728
G01 X229.420 Y458.950
G01 X219.195 Y457.669
G01 X209.046 Y455.888
G01 X198.998 Y453.612
G01 X189.074 Y450.845
G01 X179.299 Y447.596
G01 X169.696 Y443.870
G01 X160.289 Y439.679
G01 X151.099 Y435.031
G01 X142.149 Y429.939
G01 X133.460 Y424.414
G01 X125.054 Y418.470
G01 X116.951 Y412.121
G01 X109.169 Y405.383
G01 X101.729 Y398.271
G01 X94.646 Y390.804
G01 X87.940 Y383.000
G01 X81.624 Y374.876
G01 X75.716 Y366.453
G01 X70.229 Y357.751
G01 X65.175 Y348.791
G01 X60.568 Y339.595
G01 X56.418 Y330.184
G01 X52.735 Y320.582
G01 X49.528 Y310.812
G01 X46.805 Y300.898
G01 X44.571 Y290.862
G01 X42.833 Y280.730
G01 X41.594 Y270.526
G01 X40.858 Y260.275
G01 X40.625 Y250.000
G01 X40.897 Y239.727
G01 X41.672 Y229.481
G01 X42.949 Y219.287
G01 X44.725 Y209.168
G01 X46.994 Y199.150
G01 X49.753 Y189.256
G01 X52.993 Y179.510
G01 X56.707 Y169.935
G01 X60.886 Y160.556
G01 X65.520 Y151.393
G01 X70.597 Y142.470
G01 X76.106 Y133.808
G01 X82.032 Y125.427
G01 X88.362 Y117.347
G01 X95.080 Y109.589
G01 X102.170 Y102.170
G01 X109.615 Y95.109
G01 X117.397 Y88.423
G01 X125.497 Y82.126
G01 X133.895 Y76.236
G01 X142.571 Y70.765
G01 X151.504 Y65.727
G01 X160.673 Y61.133
G01 X170.055 Y56.996
G01 X179.628 Y53.324
G01 X189.369 Y50.127
G01 X199.254 Y47.411
G01 X209.260 Y45.184
G01 X219.361 Y43.451
G01 X229.535 Y42.216
G01 X239.756 Y41.482
G01 X250.000 Y41.250
G01 X260.242 Y41.521
G01 X270.457 Y42.294
G01 X280.621 Y43.567
G01 X290.710 Y45.338
G01 X300.698 Y47.601
G01 X310.563 Y50.351
G01 X320.280 Y53.581
G01 X329.825 Y57.285
G01 X339.177 Y61.451
G01 X348.312 Y66.071
G01 X357.208 Y71.133
G01 X365.845 Y76.626
G01 X374.201 Y82.534
G01 X382.256 Y88.845
G01 X389.991 Y95.544
G01 X397.388 Y102.612
G01 X404.428 Y110.035
G01 X411.094 Y117.793
G01 X417.372 Y125.869
G01 X423.244 Y134.242
G01 X428.699 Y142.892
G01 X433.722 Y151.798
G01 X438.302 Y160.940
G01 X442.427 Y170.294
G01 X446.088 Y179.839
G01 X449.275 Y189.550
G01 X451.982 Y199.406
G01 X454.203 Y209.382
G01 X455.930 Y219.453
G01 X457.162 Y229.596
G01 X457.894 Y239.787
G01 X458.125 Y250.000
G01 X457.855 Y260.211
G01 X457.084 Y270.396
G01 X455.814 Y280.530
G01 X454.049 Y290.588
G01 X451.793 Y300.547
G01 X449.051 Y310.381
G01 X445.830 Y320.069
G01 X442.138 Y329.586
G01 X437.984 Y338.910
G01 X433.378 Y348.017
G01 X428.330 Y356.887
G01 X422.855 Y365.498
G01 X416.964 Y373.829
G01 X410.671 Y381.860
G01 X403.993 Y389.571
G01 X396.946 Y396.946
G01 X389.545 Y403.964
G01 X381.810 Y410.611
G01 X373.759 Y416.870
G01 X365.411 Y422.725
G01 X356.787 Y428.163
G01 X347.907 Y433.171
G01 X338.793 Y437.737
G01 X329.467 Y441.849
G01 X319.951 Y445.499
G01 X310.268 Y448.677
G01 X300.442 Y451.376
G01 X290.496 Y453.590
G01 X280.455 Y455.312
G01 X270.342 Y456.540
G01 X260.183 Y457.270
G01 X250.000 Y457.500
G01 X239.819 Y457.231
G01 X229.665 Y456.462
G01 X219.562 Y455.196
G01 X209.534 Y453.436
G01 X199.605 Y451.187
G01 X189.800 Y448.453
G01 X180.141 Y445.242
G01 X170.653 Y441.561
G01 X161.357 Y437.419
G01 X152.277 Y432.826
G01 X143.434 Y427.794
G01 X134.849 Y422.335
G01 X126.544 Y416.462
G01 X118.537 Y410.188
G01 X110.848 Y403.530
G01 X103.496 Y396.504
G01 X96.499 Y389.126
G01 X89.872 Y381.414
G01 X83.633 Y373.387
G01 X77.795 Y365.064
G01 X72.373 Y356.465
G01 X67.380 Y347.612
G01 X62.828 Y338.526
G01 X58.728 Y329.227
G01 X55.089 Y319.740
G01 X51.921 Y310.087
G01 X49.230 Y300.290
G01 X47.023 Y290.375
G01 X45.306 Y280.363
G01 X44.082 Y270.281
G01 X43.355 Y260.152
G01 X43.125 Y250.000
G01 X43.394 Y239.850
G01 X44.160 Y229.727
G01 X45.422 Y219.654
G01 X47.177 Y209.656
G01 X49.420 Y199.757
G01 X52.145 Y189.981
G01 X55.347 Y180.352
G01 X59.017 Y170.892
G01 X63.146 Y161.625
G01 X67.725 Y152.572
G01 X72.742 Y143.755
G01 X78.185 Y135.197
G01 X84.040 Y126.916
G01 X90.295 Y118.933
G01 X96.933 Y111.268
G01 X103.938 Y103.938
G01 X111.294 Y96.962
G01 X118.983 Y90.355
G01 X126.986 Y84.135
G01 X135.283 Y78.315
G01 X143.856 Y72.909
G01 X152.682 Y67.931
G01 X161.742 Y63.393
G01 X171.012 Y59.305
G01 X180.470 Y55.678
G01 X190.095 Y52.519
G01 X199.862 Y49.836
G01 X209.747 Y47.636
G01 X219.728 Y45.924
G01 X229.780 Y44.704
G01 X239.879 Y43.979
G01 X250.000 Y43.750
G01 X260.119 Y44.018
G01 X270.212 Y44.782
G01 X280.255 Y46.040
G01 X290.222 Y47.790
G01 X300.091 Y50.026
G01 X309.837 Y52.743
G01 X319.437 Y55.935
G01 X328.869 Y59.594
G01 X338.108 Y63.711
G01 X347.134 Y68.276
G01 X355.923 Y73.278
G01 X364.456 Y78.704
G01 X372.712 Y84.542
G01 X380.670 Y90.778
G01 X388.312 Y97.396
G01 X395.620 Y104.380
G01 X402.575 Y111.714
G01 X409.162 Y119.379
G01 X415.363 Y127.358
G01 X421.166 Y135.631
G01 X426.555 Y144.177
G01 X431.517 Y152.977
G01 X436.042 Y162.009
G01 X440.117 Y171.251
G01 X443.734 Y180.681
G01 X446.883 Y190.276
G01 X449.557 Y200.013
G01 X451.751 Y209.869
G01 X453.457 Y219.820
G01 X454.674 Y229.841
G01 X455.397 Y239.910
G01 X455.625 Y250.000
G01 X455.358 Y260.089
G01 X454.596 Y270.151
G01 X453.341 Y280.163
G01 X451.597 Y290.100
G01 X449.368 Y299.939
G01 X446.659 Y309.656
G01 X443.476 Y319.227
G01 X439.828 Y328.629
G01 X435.724 Y337.841
G01 X431.173 Y346.839
G01 X426.186 Y355.602
G01 X420.776 Y364.109
G01 X414.956 Y372.339
G01 X408.739 Y380.274
G01 X402.141 Y387.893
G01 X395.178 Y395.178
G01 X387.866 Y402.112
G01 X380.224 Y408.679
G01 X372.270 Y414.861
G01 X364.022 Y420.646
G01 X355.502 Y426.019
G01 X346.728 Y430.966
G01 X337.724 Y435.477
G01 X328.510 Y439.540
G01 X319.108 Y443.145
G01 X309.542 Y446.285
G01 X299.835 Y448.951
G01 X290.009 Y451.138
G01 X280.088 Y452.839
G01 X270.097 Y454.052
G01 X260.060 Y454.773
G01 X250.000 Y455.000
G01 X239.942 Y454.734
G01 X229.910 Y453.974
G01 X219.929 Y452.723
G01 X210.022 Y450.984
G01 X200.213 Y448.762
G01 X190.526 Y446.061
G01 X180.984 Y442.888
G01 X171.610 Y439.251
G01 X162.426 Y435.159
G01 X153.456 Y430.622
G01 X144.719 Y425.650
G01 X136.238 Y420.256
G01 X128.033 Y414.454
G01 X120.123 Y408.256
G01 X112.527 Y401.678
G01 X105.264 Y394.736
G01 X98.351 Y387.447
G01 X91.805 Y379.828
G01 X85.641 Y371.897
G01 X79.874 Y363.675
G01 X74.517 Y355.180
G01 X69.585 Y346.434
G01 X65.088 Y337.457
G01 X61.038 Y328.271
G01 X57.443 Y318.898
G01 X54.313 Y309.361
G01 X51.655 Y299.683
G01 X49.475 Y289.887
G01 X47.779 Y279.997
G01 X46.570 Y270.036
G01 X45.852 Y260.029
G01 X45.625 Y250.000
G01 X45.891 Y239.973
G01 X46.648 Y229.972
G01 X47.895 Y220.021
G01 X49.629 Y210.144
G01 X51.845 Y200.365
G01 X54.537 Y190.707
G01 X57.701 Y181.194
G01 X61.326 Y171.849
G01 X65.406 Y162.694
G01 X69.930 Y153.750
G01 X74.886 Y145.041
G01 X80.263 Y136.586
G01 X86.048 Y128.405
G01 X92.227 Y120.519
G01 X98.785 Y112.947
G01 X105.706 Y105.706
G01 X112.973 Y98.814
G01 X120.569 Y92.288
G01 X128.475 Y86.143
G01 X136.672 Y80.393
G01 X145.141 Y75.054
G01 X153.861 Y70.136
G01 X162.810 Y65.653
G01 X171.968 Y61.615
G01 X181.313 Y58.032
G01 X190.820 Y54.911
G01 X200.469 Y52.261
G01 X210.235 Y50.088
G01 X220.095 Y48.397
G01 X230.025 Y47.192
G01 X240.002 Y46.476
G01 X250.000 Y46.250
G01 X259.997 Y46.515
G01 X269.967 Y47.270
G01 X279.888 Y48.513
G01 X289.734 Y50.242
G01 X299.483 Y52.451
G01 X309.111 Y55.136
G01 X318.595 Y58.289
G01 X327.912 Y61.904
G01 X337.039 Y65.971
G01 X345.955 Y70.481
G01 X354.638 Y75.422
G01 X363.067 Y80.783
G01 X371.222 Y86.550
G01 X379.084 Y92.710
G01 X386.633 Y99.248
G01 X393.852 Y106.148
G01 X400.723 Y113.393
G01 X407.229 Y120.965
G01 X413.355 Y128.847
G01 X419.087 Y137.020
G01 X424.410 Y145.462
G01 X429.313 Y154.155
G01 X433.782 Y163.078
G01 X437.807 Y172.208
G01 X441.380 Y181.523
G01 X444.491 Y191.002
G01 X447.132 Y200.621
G01 X449.299 Y210.357
G01 X450.984 Y220.187
G01 X452.186 Y230.086
G01 X452.900 Y240.032
G01 X453.125 Y250.000
G01 X452.861 Y259.966
G01 X452.108 Y269.906
G01 X450.869 Y279.796
G01 X449.145 Y289.612
G01 X446.943 Y299.332
G01 X444.266 Y308.930
G01 X441.122 Y318.385
G01 X437.519 Y327.673
G01 X433.464 Y336.772
G01 X428.968 Y345.660
G01 X424.042 Y354.317
G01 X418.697 Y362.720
G01 X412.948 Y370.850
G01 X406.806 Y378.688
G01 X400.289 Y386.214
G01 X393.410 Y393.410
G01 X386.187 Y400.260
G01 X378.638 Y406.746
G01 X370.780 Y412.853
G01 X362.633 Y418.567
G01 X354.216 Y423.874
G01 X345.550 Y428.761
G01 X336.655 Y433.217
G01 X327.553 Y437.230
G01 X318.266 Y440.791
G01 X308.817 Y443.893
G01 X299.227 Y446.526
G01 X289.521 Y448.686
G01 X279.722 Y450.366
G01 X269.852 Y451.564
G01 X259.937 Y452.276
G01 X250.000 Y452.500
G01 X240.065 Y452.237
G01 X230.155 Y451.486
G01 X220.296 Y450.250
G01 X210.509 Y448.532
G01 X200.820 Y446.337
G01 X191.251 Y443.668
G01 X181.826 Y440.534
G01 X172.566 Y436.941
G01 X163.495 Y432.899
G01 X154.634 Y428.417
G01 X146.005 Y423.506
G01 X137.627 Y418.178
G01 X129.522 Y412.446
G01 X121.709 Y406.323
G01 X114.206 Y399.826
G01 X107.032 Y392.968
G01 X100.203 Y385.768
G01 X93.737 Y378.242
G01 X87.649 Y370.408
G01 X81.952 Y362.286
G01 X76.662 Y353.895
G01 X71.790 Y345.255
G01 X67.348 Y336.388
G01 X63.347 Y327.314
G01 X59.797 Y318.056
G01 X56.706 Y308.635
G01 X54.080 Y299.075
G01 X51.927 Y289.399
G01 X50.252 Y279.630
G01 X49.058 Y269.791
G01 X48.349 Y259.906
G01 X48.125 Y250.000
G01 X48.388 Y240.095
G01 X49.136 Y230.217
G01 X50.368 Y220.387
G01 X52.081 Y210.631
G01 X54.270 Y200.972
G01 X56.930 Y191.433
G01 X60.055 Y182.036
G01 X63.636 Y172.806
G01 X67.666 Y163.762
G01 X72.134 Y154.929
G01 X77.030 Y146.326
G01 X82.342 Y137.974
G01 X88.056 Y129.894
G01 X94.160 Y122.105
G01 X100.638 Y114.626
G01 X107.474 Y107.474
G01 X114.652 Y100.667
G01 X122.155 Y94.220
G01 X129.964 Y88.151
G01 X138.061 Y82.472
G01 X146.426 Y77.198
G01 X155.039 Y72.341
G01 X163.879 Y67.913
G01 X172.925 Y63.925
G01 X182.155 Y60.386
G01 X191.546 Y57.304
G01 X201.077 Y54.686
G01 X210.723 Y52.540
G01 X220.462 Y50.870
G01 X230.270 Y49.680
G01 X240.124 Y48.973
G01 X250.000 Y48.750
G01 X259.874 Y49.012
G01 X269.722 Y49.758
G01 X279.521 Y50.986
G01 X289.247 Y52.694
G01 X298.876 Y54.876
G01 X308.386 Y57.528
G01 X317.753 Y60.643
G01 X326.955 Y64.214
G01 X335.970 Y68.231
G01 X344.777 Y72.686
G01 X353.353 Y77.566
G01 X361.678 Y82.862
G01 X369.733 Y88.558
G01 X377.498 Y94.643
G01 X384.954 Y101.101
G01 X392.084 Y107.916
G01 X398.870 Y115.072
G01 X405.297 Y122.551
G01 X411.347 Y130.337
G01 X417.008 Y138.409
G01 X422.266 Y146.748
G01 X427.108 Y155.334
G01 X431.522 Y164.147
G01 X435.498 Y173.164
G01 X439.026 Y182.365
G01 X442.098 Y191.728
G01 X444.707 Y201.228
G01 X446.847 Y210.845
G01 X448.511 Y220.554
G01 X449.698 Y230.331
G01 X450.403 Y240.155
G01 X450.625 Y250.000
G01 X450.364 Y259.843
G01 X449.620 Y269.661
G01 X448.396 Y279.429
G01 X446.693 Y289.125
G01 X444.518 Y298.724
G01 X441.874 Y308.204
G01 X438.769 Y317.542
G01 X435.209 Y326.716
G01 X431.204 Y335.703
G01 X426.763 Y344.482
G01 X421.898 Y353.031
G01 X416.619 Y361.331
G01 X410.940 Y369.361
G01 X404.874 Y377.102
G01 X398.436 Y384.535
G01 X391.642 Y391.642
G01 X384.509 Y398.407
G01 X377.052 Y404.813
G01 X369.291 Y410.845
G01 X361.244 Y416.489
G01 X352.931 Y421.730
G01 X344.371 Y426.557
G01 X335.586 Y430.957
G01 X326.596 Y434.920
G01 X317.424 Y438.438
G01 X308.091 Y441.500
G01 X298.620 Y444.101
G01 X289.033 Y446.234
G01 X279.355 Y447.893
G01 X269.607 Y449.076
G01 X259.814 Y449.779
G01 X250.000 Y450.000
G01 X240.187 Y449.740
G01 X230.400 Y448.998
G01 X220.663 Y447.777
G01 X210.997 Y446.080
G01 X201.428 Y443.912
G01 X191.977 Y441.276
G01 X182.668 Y438.180
G01 X173.523 Y434.632
G01 X164.564 Y430.639
G01 X155.813 Y426.212
G01 X147.290 Y421.361
G01 X139.016 Y416.099
G01 X131.011 Y410.438
G01 X123.295 Y404.391
G01 X115.885 Y397.973
G01 X108.800 Y391.200
G01 X102.056 Y384.089
G01 X95.670 Y376.656
G01 X89.657 Y368.919
G01 X84.031 Y360.897
G01 X78.806 Y352.610
G01 X73.995 Y344.077
G01 X69.608 Y335.319
G01 X65.657 Y326.357
G01 X62.151 Y317.213
G01 X59.098 Y307.910
G01 X56.505 Y298.468
G01 X54.379 Y288.911
G01 X52.725 Y279.263
G01 X51.546 Y269.546
G01 X50.846 Y259.784
G01 X50.625 Y250.000
G01 X50.885 Y240.218
G01 X51.624 Y230.462
G01 X52.841 Y220.754
G01 X54.533 Y211.119
G01 X56.695 Y201.580
G01 X59.322 Y192.159
G01 X62.408 Y182.879
G01 X65.946 Y173.762
G01 X69.926 Y164.831
G01 X74.339 Y156.107
G01 X79.175 Y147.611
G01 X84.421 Y139.363
G01 X90.064 Y131.384
G01 X96.092 Y123.691
G01 X102.490 Y116.305
G01 X109.242 Y109.242
G01 X116.331 Y102.519
G01 X123.741 Y96.153
G01 X131.454 Y90.159
G01 X139.450 Y84.551
G01 X147.712 Y79.342
G01 X156.218 Y74.546
G01 X164.948 Y70.173
G01 X173.882 Y66.235
G01 X182.997 Y62.739
G01 X192.272 Y59.696
G01 X201.684 Y57.112
G01 X211.211 Y54.992
G01 X220.829 Y53.343
G01 X230.515 Y52.168
G01 X240.247 Y51.470
G01 X250.000 Y51.250
G01 X259.751 Y51.509
G01 X269.477 Y52.246
G01 X279.154 Y53.459
G01 X288.759 Y55.146
G01 X298.269 Y57.301
G01 X307.660 Y59.920
G01 X316.911 Y62.997
G01 X325.999 Y66.523
G01 X334.901 Y70.491
G01 X343.598 Y74.890
G01 X352.067 Y79.711
G01 X360.289 Y84.940
G01 X368.244 Y90.566
G01 X375.912 Y96.576
G01 X383.276 Y102.953
G01 X390.317 Y109.683
G01 X397.018 Y116.751
G01 X403.364 Y124.137
G01 X409.339 Y131.826
G01 X414.930 Y139.797
G01 X420.122 Y148.033
G01 X424.903 Y156.512
G01 X429.262 Y165.215
G01 X433.188 Y174.121
G01 X436.672 Y183.208
G01 X439.706 Y192.453
G01 X442.282 Y201.836
G01 X444.395 Y211.332
G01 X446.039 Y220.920
G01 X447.210 Y230.577
G01 X447.906 Y240.278
G01 X448.125 Y250.000
G01 X447.867 Y259.721
G01 X447.132 Y269.416
G01 X445.923 Y279.062
G01 X444.241 Y288.637
G01 X442.093 Y298.117
G01 X439.482 Y307.479
G01 X436.415 Y316.700
G01 X432.899 Y325.759
G01 X428.944 Y334.634
G01 X424.558 Y343.303
G01 X419.753 Y351.746
G01 X414.540 Y359.942
G01 X408.932 Y367.872
G01 X402.941 Y375.516
G01 X396.584 Y382.856
G01 X389.875 Y389.875
G01 X382.830 Y396.555
G01 X375.466 Y402.881
G01 X367.802 Y408.837
G01 X359.855 Y414.410
G01 X351.646 Y419.586
G01 X343.193 Y424.352
G01 X334.517 Y428.697
G01 X325.640 Y432.611
G01 X316.582 Y436.084
G01 X307.365 Y439.108
G01 X298.012 Y441.676
G01 X288.546 Y443.782
G01 X278.988 Y445.420
G01 X269.362 Y446.588
G01 X259.692 Y447.282
G01 X250.000 Y447.500
G01 X240.310 Y447.243
G01 X230.645 Y446.510
G01 X221.029 Y445.304
G01 X211.485 Y443.628
G01 X202.035 Y441.486
G01 X192.703 Y438.884
G01 X183.510 Y435.826
G01 X174.480 Y432.322
G01 X165.633 Y428.379
G01 X156.991 Y424.007
G01 X148.575 Y419.217
G01 X140.405 Y414.020
G01 X132.501 Y408.430
G01 X124.881 Y402.458
G01 X117.564 Y396.121
G01 X110.567 Y389.433
G01 X103.908 Y382.410
G01 X97.602 Y375.070
G01 X91.665 Y367.430
G01 X86.110 Y359.508
G01 X80.950 Y351.324
G01 X76.200 Y342.898
G01 X71.868 Y334.250
G01 X67.967 Y325.401
G01 X64.505 Y316.371
G01 X61.490 Y307.184
G01 X58.930 Y297.860
G01 X56.831 Y288.424
G01 X55.198 Y278.896
G01 X54.034 Y269.301
G01 X53.343 Y259.661
G01 X53.125 Y250.000
G01 X53.382 Y240.341
G01 X54.112 Y230.707
G01 X55.314 Y221.121
G01 X56.985 Y211.607
G01 X59.120 Y202.187
G01 X61.715 Y192.884
G01 X64.762 Y183.721
G01 X68.256 Y174.719
G01 X72.186 Y165.900
G01 X76.544 Y157.286
G01 X81.319 Y148.896
G01 X86.499 Y140.752
G01 X92.072 Y132.873
G01 X98.025 Y125.277
G01 X104.342 Y117.984
G01 X111.009 Y111.009
G01 X118.010 Y104.371
G01 X125.327 Y98.085
G01 X132.943 Y92.167
G01 X140.839 Y86.629
G01 X148.997 Y81.486
G01 X157.396 Y76.751
G01 X166.017 Y72.433
G01 X174.839 Y68.544
G01 X183.839 Y65.093
G01 X192.998 Y62.088
G01 X202.291 Y59.537
G01 X211.698 Y57.444
G01 X221.196 Y55.816
G01 X230.760 Y54.656
G01 X240.370 Y53.967
G01 X250.000 Y53.750
G01 X259.629 Y54.006
G01 X269.232 Y54.734
G01 X278.787 Y55.932
G01 X288.271 Y57.598
G01 X297.661 Y59.726
G01 X306.934 Y62.313
G01 X316.069 Y65.351
G01 X325.042 Y68.833
G01 X333.833 Y72.751
G01 X342.420 Y77.095
G01 X350.782 Y81.855
G01 X358.900 Y87.019
G01 X366.755 Y92.574
G01 X374.326 Y98.508
G01 X381.597 Y104.805
G01 X388.549 Y111.451
G01 X395.166 Y118.430
G01 X401.432 Y125.723
G01 X407.331 Y133.315
G01 X412.851 Y141.186
G01 X417.977 Y149.318
G01 X422.698 Y157.691
G01 X427.002 Y166.284
G01 X430.878 Y175.078
G01 X434.318 Y184.050
G01 X437.314 Y193.179
G01 X439.857 Y202.443
G01 X441.943 Y211.820
G01 X443.566 Y221.287
G01 X444.722 Y230.822
G01 X445.409 Y240.400
G01 X445.625 Y250.000
G01 X445.370 Y259.598
G01 X444.644 Y269.171
G01 X443.450 Y278.696
G01 X441.789 Y288.149
G01 X439.668 Y297.509
G01 X437.089 Y306.753
G01 X434.061 Y315.858
G01 X430.590 Y324.803
G01 X426.684 Y333.565
G01 X422.354 Y342.125
G01 X417.609 Y350.461
G01 X412.461 Y358.553
G01 X406.924 Y366.382
G01 X401.009 Y373.930
G01 X394.731 Y381.177
G01 X388.107 Y388.107
G01 X381.151 Y394.703
G01 X373.880 Y400.948
G01 X366.313 Y406.829
G01 X358.466 Y412.331
G01 X350.360 Y417.441
G01 X342.014 Y422.147
G01 X333.448 Y426.437
G01 X324.683 Y430.301
G01 X315.740 Y433.730
G01 X306.640 Y436.716
G01 X297.405 Y439.251
G01 X288.058 Y441.330
G01 X278.621 Y442.947
G01 X269.117 Y444.100
G01 X259.569 Y444.785
G01 X250.000 Y445.000
G01 X240.433 Y444.746
G01 X230.890 Y444.022
G01 X221.396 Y442.831
G01 X211.973 Y441.177
G01 X202.643 Y439.061
G01 X193.429 Y436.491
G01 X184.353 Y433.472
G01 X175.437 Y430.012
G01 X166.702 Y426.119
G01 X158.170 Y421.802
G01 X149.860 Y417.073
G01 X141.794 Y411.942
G01 X133.990 Y406.422
G01 X126.467 Y400.526
G01 X119.243 Y394.268
G01 X112.335 Y387.665
G01 X105.761 Y380.731
G01 X99.535 Y373.484
G01 X93.673 Y365.940
G01 X88.188 Y358.119
G01 X83.095 Y350.039
G01 X78.404 Y341.720
G01 X74.128 Y333.181
G01 X70.277 Y324.444
G01 X66.859 Y315.529
G01 X63.883 Y306.458
G01 X61.355 Y297.253
G01 X59.283 Y287.936
G01 X57.671 Y278.529
G01 X56.522 Y269.056
G01 X55.840 Y259.538
G01 X55.625 Y250.000
G01 X55.879 Y240.463
G01 X56.600 Y230.952
G01 X57.787 Y221.488
G01 X59.436 Y212.095
G01 X61.545 Y202.794
G01 X64.107 Y193.610
G01 X67.116 Y184.563
G01 X70.565 Y175.676
G01 X74.446 Y166.969
G01 X78.749 Y158.464
G01 X83.463 Y150.182
G01 X88.578 Y142.141
G01 X94.080 Y134.362
G01 X99.957 Y126.863
G01 X106.195 Y119.662
G01 X112.777 Y112.777
G01 X119.689 Y106.224
G01 X126.913 Y100.018
G01 X134.432 Y94.175
G01 X142.228 Y88.708
G01 X150.282 Y83.631
G01 X158.575 Y78.956
G01 X167.086 Y74.693
G01 X175.795 Y70.854
G01 X184.682 Y67.447
G01 X193.723 Y64.481
G01 X202.899 Y61.962
G01 X212.186 Y59.896
G01 X221.562 Y58.289
G01 X231.005 Y57.144
G01 X240.492 Y56.464
G01 X250.000 Y56.250
G01 X259.506 Y56.503
G01 X268.987 Y57.222
G01 X278.420 Y58.405
G01 X287.784 Y60.049
G01 X297.054 Y62.151
G01 X306.209 Y64.705
G01 X315.226 Y67.705
G01 X324.085 Y71.143
G01 X332.764 Y75.011
G01 X341.241 Y79.300
G01 X349.497 Y83.999
G01 X357.512 Y89.098
G01 X365.265 Y94.582
G01 X372.740 Y100.441
G01 X379.918 Y106.658
G01 X386.781 Y113.219
G01 X393.313 Y120.108
G01 X399.499 Y127.309
G01 X405.323 Y134.804
G01 X410.772 Y142.575
G01 X415.833 Y150.603
G01 X420.493 Y158.869
G01 X424.742 Y167.353
G01 X428.569 Y176.034
G01 X431.964 Y184.892
G01 X434.921 Y193.905
G01 X437.432 Y203.051
G01 X439.491 Y212.308
G01 X441.093 Y221.654
G01 X442.234 Y231.067
G01 X442.912 Y240.523
G01 X443.125 Y250.000
G01 X442.873 Y259.475
G01 X442.156 Y268.926
G01 X440.977 Y278.329
G01 X439.338 Y287.662
G01 X437.243 Y296.902
G01 X434.697 Y306.027
G01 X431.707 Y315.016
G01 X428.280 Y323.846
G01 X424.424 Y332.496
G01 X420.149 Y340.946
G01 X415.465 Y349.176
G01 X410.383 Y357.164
G01 X404.916 Y364.893
G01 X399.076 Y372.344
G01 X392.879 Y379.498
G01 X386.339 Y386.339
G01 X379.472 Y392.850
G01 X372.294 Y399.016
G01 X364.823 Y404.821
G01 X357.077 Y410.253
G01 X349.075 Y415.297
G01 X340.836 Y419.942
G01 X332.380 Y424.177
G01 X323.726 Y427.991
G01 X314.897 Y431.376
G01 X305.914 Y434.323
G01 X296.797 Y436.826
G01 X287.570 Y438.878
G01 X278.254 Y440.474
G01 X268.872 Y441.612
G01 X259.446 Y442.288
G01 X250.000 Y442.500
G01 X240.555 Y442.249
G01 X231.136 Y441.534
G01 X221.763 Y440.359
G01 X212.460 Y438.725
G01 X203.250 Y436.636
G01 X194.154 Y434.099
G01 X185.195 Y431.119
G01 X176.393 Y427.702
G01 X167.771 Y423.859
G01 X159.348 Y419.598
G01 X151.146 Y414.928
G01 X143.183 Y409.863
G01 X135.479 Y404.414
G01 X128.053 Y398.593
G01 X120.922 Y392.416
G01 X114.103 Y385.897
G01 X107.613 Y379.052
G01 X101.467 Y371.898
G01 X95.681 Y364.451
G01 X90.267 Y356.730
G01 X85.239 Y348.754
G01 X80.609 Y340.541
G01 X76.388 Y332.112
G01 X72.586 Y323.487
G01 X69.213 Y314.687
G01 X66.275 Y305.732
G01 X63.781 Y296.646
G01 X61.735 Y287.448
G01 X60.144 Y278.163
G01 X59.010 Y268.811
G01 X58.337 Y259.416
G01 X58.125 Y250.000
G01 X58.376 Y240.586
G01 X59.088 Y231.197
G01 X60.260 Y221.855
G01 X61.888 Y212.582
G01 X63.970 Y203.402
G01 X66.499 Y194.336
G01 X69.470 Y185.405
G01 X72.875 Y176.632
G01 X76.706 Y168.038
G01 X80.954 Y159.643
G01 X85.608 Y151.467
G01 X90.657 Y143.530
G01 X96.088 Y135.851
G01 X101.890 Y128.449
G01 X108.047 Y121.341
G01 X114.545 Y114.545
G01 X121.368 Y108.076
G01 X128.499 Y101.950
G01 X135.921 Y96.183
G01 X143.617 Y90.787
G01 X151.567 Y85.775
G01 X159.753 Y81.160
G01 X168.155 Y76.953
G01 X176.752 Y73.164
G01 X185.524 Y69.801
G01 X194.449 Y66.873
G01 X203.506 Y64.387
G01 X212.674 Y62.348
G01 X221.929 Y60.762
G01 X231.250 Y59.632
G01 X240.615 Y58.961
G01 X250.000 Y58.750
G01 X259.383 Y59.000
G01 X268.742 Y59.710
G01 X278.054 Y60.878
G01 X287.296 Y62.501
G01 X296.446 Y64.576
G01 X305.483 Y67.097
G01 X314.384 Y70.058
G01 X323.128 Y73.452
G01 X331.695 Y77.271
G01 X340.063 Y81.505
G01 X348.212 Y86.144
G01 X356.123 Y91.176
G01 X363.776 Y96.590
G01 X371.154 Y102.373
G01 X378.239 Y108.510
G01 X385.013 Y114.987
G01 X391.461 Y121.787
G01 X397.566 Y128.895
G01 X403.315 Y136.294
G01 X408.694 Y143.964
G01 X413.689 Y151.889
G01 X418.288 Y160.048
G01 X422.482 Y168.422
G01 X426.259 Y176.991
G01 X429.611 Y185.734
G01 X432.529 Y194.630
G01 X435.007 Y203.658
G01 X437.039 Y212.796
G01 X438.620 Y222.021
G01 X439.746 Y231.312
G01 X440.415 Y240.646
G01 X440.625 Y250.000
G01 X440.376 Y259.353
G01 X439.668 Y268.681
G01 X438.504 Y277.962
G01 X436.886 Y287.174
G01 X434.817 Y296.294
G01 X432.305 Y305.301
G01 X429.353 Y314.174
G01 X425.970 Y322.889
G01 X422.164 Y331.428
G01 X417.944 Y339.768
G01 X413.320 Y347.890
G01 X408.304 Y355.775
G01 X402.907 Y363.404
G01 X397.144 Y370.758
G01 X391.027 Y377.819
G01 X384.571 Y384.571
G01 X377.793 Y390.998
G01 X370.708 Y397.083
G01 X363.334 Y402.813
G01 X355.689 Y408.174
G01 X347.790 Y413.153
G01 X339.657 Y417.737
G01 X331.311 Y421.917
G01 X322.770 Y425.681
G01 X314.055 Y429.022
G01 X305.188 Y431.931
G01 X296.190 Y434.401
G01 X287.082 Y436.426
G01 X277.887 Y438.001
G01 X268.627 Y439.124
G01 X259.324 Y439.791
G01 X250.000 Y440.000
G01 X240.678 Y439.752
G01 X231.381 Y439.046
G01 X222.130 Y437.886
G01 X212.948 Y436.273
G01 X203.857 Y434.211
G01 X194.880 Y431.707
G01 X186.037 Y428.765
G01 X177.350 Y425.393
G01 X168.840 Y421.599
G01 X160.527 Y417.393
G01 X152.431 Y412.784
G01 X144.572 Y407.784
G01 X136.968 Y402.405
G01 X129.639 Y396.661
G01 X122.601 Y390.564
G01 X115.871 Y384.129
G01 X109.465 Y377.373
G01 X103.400 Y370.312
G01 X97.689 Y362.962
G01 X92.346 Y355.341
G01 X87.383 Y347.469
G01 X82.814 Y339.363
G01 X78.648 Y331.043
G01 X74.896 Y322.530
G01 X71.566 Y313.845
G01 X68.667 Y305.007
G01 X66.206 Y296.038
G01 X64.187 Y286.960
G01 X62.617 Y277.796
G01 X61.498 Y268.566
G01 X60.834 Y259.293
G01 X60.625 Y250.000
G01 X60.873 Y240.709
G01 X61.576 Y231.442
G01 X62.733 Y222.222
G01 X64.340 Y213.070
G01 X66.395 Y204.009
G01 X68.892 Y195.061
G01 X71.824 Y186.248
G01 X75.185 Y177.589
G01 X78.966 Y169.107
G01 X83.158 Y160.821
G01 X87.752 Y152.752
G01 X92.735 Y144.919
G01 X98.097 Y137.341
G01 X103.823 Y130.035
G01 X109.899 Y123.020
G01 X116.313 Y116.313
G01 X123.047 Y109.928
G01 X130.085 Y103.883
G01 X137.411 Y98.191
G01 X145.006 Y92.865
G01 X152.853 Y87.919
G01 X160.932 Y83.365
G01 X169.224 Y79.213
G01 X177.709 Y75.473
G01 X186.366 Y72.155
G01 X195.175 Y69.265
G01 X204.114 Y66.812
G01 X213.161 Y64.800
G01 X222.296 Y63.235
G01 X231.495 Y62.120
G01 X240.738 Y61.458
G01 X250.000 Y61.250
G01 X259.261 Y61.497
G01 X268.497 Y62.198
G01 X277.687 Y63.351
G01 X286.808 Y64.953
G01 X295.839 Y67.001
G01 X304.757 Y69.490
G01 X313.542 Y72.412
G01 X322.172 Y75.762
G01 X330.626 Y79.531
G01 X338.884 Y83.710
G01 X346.926 Y88.288
G01 X354.734 Y93.255
G01 X362.287 Y98.599
G01 X369.568 Y104.306
G01 X376.560 Y110.363
G01 X383.245 Y116.755
G01 X389.609 Y123.466
G01 X395.634 Y130.481
G01 X401.307 Y137.783
G01 X406.615 Y145.353
G01 X411.544 Y153.174
G01 X416.084 Y161.226
G01 X420.222 Y169.491
G01 X423.949 Y177.948
G01 X427.257 Y186.577
G01 X430.137 Y195.356
G01 X432.582 Y204.266
G01 X434.587 Y213.283
G01 X436.147 Y222.388
G01 X437.258 Y231.557
G01 X437.918 Y240.768
G01 X438.125 Y250.000
G01 X437.879 Y259.230
G01 X437.180 Y268.436
G01 X436.031 Y277.595
G01 X434.434 Y286.686
G01 X432.392 Y295.687
G01 X429.912 Y304.576
G01 X426.999 Y313.331
G01 X423.660 Y321.933
G01 X419.904 Y330.359
G01 X415.739 Y338.589
G01 X411.176 Y346.605
G01 X406.225 Y354.386
G01 X400.899 Y361.915
G01 X395.211 Y369.172
G01 X389.174 Y376.140
G01 X382.803 Y382.803
G01 X376.114 Y389.145
G01 X369.122 Y395.151
G01 X361.845 Y400.805
G01 X354.300 Y406.095
G01 X346.505 Y411.008
G01 X338.479 Y415.532
G01 X330.242 Y419.657
G01 X321.813 Y423.372
G01 X313.213 Y426.668
G01 X304.462 Y429.538
G01 X295.583 Y431.976
G01 X286.595 Y433.974
G01 X277.521 Y435.529
G01 X268.382 Y436.636
G01 X259.201 Y437.294
G01 X250.000 Y437.500
G01 X240.801 Y437.255
G01 X231.626 Y436.558
G01 X222.497 Y435.413
G01 X213.436 Y433.821
G01 X204.465 Y431.786
G01 X195.606 Y429.314
G01 X186.879 Y426.411
G01 X178.307 Y423.083
G01 X169.909 Y419.339
G01 X161.705 Y415.188
G01 X153.716 Y410.640
G01 X145.961 Y405.706
G01 X138.458 Y400.397
G01 X131.225 Y394.728
G01 X124.279 Y388.711
G01 X117.638 Y382.362
G01 X111.318 Y375.694
G01 X105.332 Y368.726
G01 X99.697 Y361.473
G01 X94.424 Y353.952
G01 X89.528 Y346.183
G01 X85.019 Y338.184
G01 X80.908 Y329.975
G01 X77.206 Y321.574
G01 X73.920 Y313.002
G01 X71.060 Y304.281
G01 X68.631 Y295.431
G01 X66.639 Y286.473
G01 X65.090 Y277.429
G01 X63.986 Y268.321
G01 X63.331 Y259.170
G01 X63.125 Y250.000
G01 X63.370 Y240.831
G01 X64.064 Y231.687
G01 X65.206 Y222.588
G01 X66.792 Y213.558
G01 X68.820 Y204.617
G01 X71.284 Y195.787
G01 X74.178 Y187.090
G01 X77.494 Y178.546
G01 X81.226 Y170.176
G01 X85.363 Y162.000
G01 X89.896 Y154.038
G01 X94.814 Y146.308
G01 X100.105 Y138.830
G01 X105.755 Y131.621
G01 X111.752 Y124.699
G01 X118.080 Y118.080
G01 X124.725 Y111.781
G01 X131.671 Y105.815
G01 X138.900 Y100.199
G01 X146.395 Y94.944
G01 X154.138 Y90.064
G01 X162.110 Y85.570
G01 X170.293 Y81.473
G01 X178.665 Y77.783
G01 X187.208 Y74.509
G01 X195.900 Y71.658
G01 X204.721 Y69.237
G01 X213.649 Y67.252
G01 X222.663 Y65.708
G01 X231.740 Y64.608
G01 X240.860 Y63.955
G01 X250.000 Y63.750
G01 X259.138 Y63.994
G01 X268.252 Y64.686
G01 X277.320 Y65.824
G01 X286.320 Y67.405
G01 X295.231 Y69.426
G01 X304.032 Y71.882
G01 X312.700 Y74.766
G01 X321.215 Y78.072
G01 X329.557 Y81.791
G01 X337.706 Y85.914
G01 X345.641 Y90.432
G01 X353.345 Y95.334
G01 X360.798 Y100.607
G01 X367.982 Y106.238
G01 X374.881 Y112.215
G01 X381.478 Y118.522
G01 X387.756 Y125.145
G01 X393.701 Y132.067
G01 X399.299 Y139.272
G01 X404.536 Y146.742
G01 X409.400 Y154.459
G01 X413.879 Y162.405
G01 X417.962 Y170.560
G01 X421.639 Y178.905
G01 X424.903 Y187.419
G01 X427.744 Y196.082
G01 X430.157 Y204.873
G01 X432.135 Y213.771
G01 X433.674 Y222.755
G01 X434.770 Y231.802
G01 X435.421 Y240.891
G01 X435.625 Y250.000
G01 X435.382 Y259.107
G01 X434.692 Y268.191
G01 X433.558 Y277.228
G01 X431.982 Y286.198
G01 X429.967 Y295.079
G01 X427.520 Y303.850
G01 X424.645 Y312.489
G01 X421.351 Y320.976
G01 X417.644 Y329.290
G01 X413.534 Y337.411
G01 X409.032 Y345.320
G01 X404.147 Y352.998
G01 X398.891 Y360.425
G01 X393.279 Y367.586
G01 X387.322 Y374.461
G01 X381.036 Y381.036
G01 X374.435 Y387.293
G01 X367.536 Y393.218
G01 X360.356 Y398.797
G01 X352.911 Y404.017
G01 X345.219 Y408.864
G01 X337.300 Y413.328
G01 X329.173 Y417.397
G01 X320.856 Y421.062
G01 X312.371 Y424.314
G01 X303.737 Y427.146
G01 X294.975 Y429.551
G01 X286.107 Y431.522
G01 X277.154 Y433.056
G01 X268.137 Y434.148
G01 X259.078 Y434.797
G01 X250.000 Y435.000
G01 X240.923 Y434.758
G01 X231.871 Y434.070
G01 X222.863 Y432.940
G01 X213.924 Y431.369
G01 X205.072 Y429.361
G01 X196.331 Y426.922
G01 X187.721 Y424.057
G01 X179.263 Y420.773
G01 X170.977 Y417.079
G01 X162.884 Y412.983
G01 X155.001 Y408.496
G01 X147.350 Y403.627
G01 X139.947 Y398.389
G01 X132.811 Y392.796
G01 X125.958 Y386.859
G01 X119.406 Y380.594
G01 X113.170 Y374.015
G01 X107.265 Y367.140
G01 X101.705 Y359.983
G01 X96.503 Y352.563
G01 X91.672 Y344.898
G01 X87.224 Y337.006
G01 X83.168 Y328.906
G01 X79.515 Y320.617
G01 X76.274 Y312.160
G01 X73.452 Y303.555
G01 X71.056 Y294.823
G01 X69.091 Y285.985
G01 X67.563 Y277.062
G01 X66.474 Y268.076
G01 X65.828 Y259.048
G01 X65.625 Y250.000
G01 X65.867 Y240.954
G01 X66.552 Y231.932
G01 X67.679 Y222.955
G01 X69.244 Y214.045
G01 X71.245 Y205.224
G01 X73.676 Y196.513
G01 X76.532 Y187.932
G01 X79.804 Y179.503
G01 X83.486 Y171.245
G01 X87.568 Y163.178
G01 X92.041 Y155.323
G01 X96.893 Y147.697
G01 X102.113 Y140.319
G01 X107.688 Y133.207
G01 X113.604 Y126.378
G01 X119.848 Y119.848
G01 X126.404 Y113.633
G01 X133.257 Y107.748
G01 X140.389 Y102.207
G01 X147.784 Y97.023
G01 X155.423 Y92.208
G01 X163.289 Y87.775
G01 X171.362 Y83.733
G01 X179.622 Y80.093
G01 X188.050 Y76.863
G01 X196.626 Y74.050
G01 X205.329 Y71.662
G01 X214.137 Y69.704
G01 X223.030 Y68.181
G01 X231.986 Y67.096
G01 X240.983 Y66.452
G01 X250.000 Y66.250
G01 X259.015 Y66.491
G01 X268.007 Y67.174
G01 X276.953 Y68.297
G01 X285.833 Y69.857
G01 X294.624 Y71.851
G01 X303.306 Y74.274
G01 X311.857 Y77.120
G01 X320.258 Y80.381
G01 X328.488 Y84.051
G01 X336.527 Y88.119
G01 X344.356 Y92.577
G01 X351.956 Y97.412
G01 X359.308 Y102.615
G01 X366.396 Y108.171
G01 X373.202 Y114.067
G01 X379.710 Y120.290
G01 X385.904 Y126.824
G01 X391.769 Y133.653
G01 X397.291 Y140.761
G01 X402.458 Y148.131
G01 X407.256 Y155.744
G01 X411.674 Y163.583
G01 X415.702 Y171.629
G01 X419.330 Y179.861
G01 X422.549 Y188.261
G01 X425.352 Y196.808
G01 X427.732 Y205.481
G01 X429.683 Y214.259
G01 X431.201 Y223.121
G01 X432.282 Y232.047
G01 X432.924 Y241.014
G01 X433.125 Y250.000
G01 X432.885 Y258.985
G01 X432.204 Y267.946
G01 X431.085 Y276.861
G01 X429.530 Y285.711
G01 X427.542 Y294.472
G01 X425.128 Y303.124
G01 X422.292 Y311.647
G01 X419.041 Y320.019
G01 X415.384 Y328.221
G01 X411.330 Y336.232
G01 X406.887 Y344.035
G01 X402.068 Y351.609
G01 X396.883 Y358.936
G01 X391.346 Y366.000
G01 X385.470 Y372.782
G01 X379.268 Y379.268
G01 X372.756 Y385.441
G01 X365.950 Y391.286
G01 X358.866 Y396.789
G01 X351.522 Y401.938
G01 X343.934 Y406.720
G01 X336.122 Y411.123
G01 X328.104 Y415.137
G01 X319.900 Y418.752
G01 X311.528 Y421.961
G01 X303.011 Y424.754
G01 X294.368 Y427.125
G01 X285.619 Y429.070
G01 X276.787 Y430.583
G01 X267.892 Y431.660
G01 X258.956 Y432.300
G01 X250.000 Y432.500
G01 X241.046 Y432.261
G01 X232.116 Y431.582
G01 X223.230 Y430.467
G01 X214.411 Y428.917
G01 X205.680 Y426.936
G01 X197.057 Y424.529
G01 X188.564 Y421.703
G01 X180.220 Y418.464
G01 X172.046 Y414.819
G01 X164.062 Y410.778
G01 X156.287 Y406.351
G01 X148.739 Y401.548
G01 X141.436 Y396.381
G01 X134.397 Y390.863
G01 X127.637 Y385.007
G01 X121.174 Y378.826
G01 X115.022 Y372.337
G01 X109.197 Y365.554
G01 X103.713 Y358.494
G01 X98.582 Y351.175
G01 X93.816 Y343.613
G01 X89.428 Y335.827
G01 X85.428 Y327.837
G01 X81.825 Y319.660
G01 X78.628 Y311.318
G01 X75.844 Y302.830
G01 X73.481 Y294.216
G01 X71.543 Y285.497
G01 X70.036 Y276.695
G01 X68.962 Y267.831
G01 X68.325 Y258.925
G01 X68.125 Y250.000
G01 X68.364 Y241.077
G01 X69.040 Y232.177
G01 X70.151 Y223.322
G01 X71.696 Y214.533
G01 X73.670 Y205.832
G01 X76.069 Y197.238
G01 X78.885 Y188.774
G01 X82.114 Y180.459
G01 X85.746 Y172.314
G01 X89.773 Y164.357
G01 X94.185 Y156.608
G01 X98.971 Y149.086
G01 X104.121 Y141.808
G01 X109.620 Y134.793
G01 X115.457 Y128.057
G01 X121.616 Y121.616
G01 X128.083 Y115.486
G01 X134.843 Y109.680
G01 X141.878 Y104.215
G01 X149.173 Y99.101
G01 X156.708 Y94.352
G01 X164.467 Y89.980
G01 X172.430 Y85.993
G01 X180.579 Y82.402
G01 X188.893 Y79.216
G01 X197.352 Y76.442
G01 X205.936 Y74.087
G01 X214.625 Y72.156
G01 X223.397 Y70.654
G01 X232.231 Y69.584
G01 X241.106 Y68.949
G01 X250.000 Y68.750
G01 X258.893 Y68.988
G01 X267.762 Y69.662
G01 X276.586 Y70.770
G01 X285.345 Y72.309
G01 X294.016 Y74.277
G01 X302.580 Y76.667
G01 X311.015 Y79.474
G01 X319.302 Y82.691
G01 X327.419 Y86.311
G01 X335.349 Y90.324
G01 X343.071 Y94.721
G01 X350.567 Y99.491
G01 X357.819 Y104.623
G01 X364.810 Y110.103
G01 X371.523 Y115.920
G01 X377.942 Y122.058
G01 X384.051 Y128.503
G01 X389.836 Y135.239
G01 X395.283 Y142.251
G01 X400.379 Y149.520
G01 X405.112 Y157.030
G01 X409.469 Y164.762
G01 X413.442 Y172.698
G01 X417.020 Y180.818
G01 X420.195 Y189.103
G01 X422.959 Y197.533
G01 X425.307 Y206.088
G01 X427.231 Y214.747
G01 X428.728 Y223.488
G01 X429.794 Y232.292
G01 X430.427 Y241.136
G01 X430.625 Y250.000
G01 X430.388 Y258.862
G01 X429.716 Y267.701
G01 X428.612 Y276.495
G01 X427.078 Y285.223
G01 X425.117 Y293.865
G01 X422.735 Y302.399
G01 X419.938 Y310.805
G01 X416.731 Y319.062
G01 X413.124 Y327.152
G01 X409.125 Y335.054
G01 X404.743 Y342.749
G01 X399.989 Y350.220
G01 X394.875 Y357.447
G01 X389.414 Y364.414
G01 X383.617 Y371.104
G01 X377.500 Y377.500
G01 X371.077 Y383.588
G01 X364.364 Y389.353
G01 X357.377 Y394.781
G01 X350.133 Y399.859
G01 X342.649 Y404.575
G01 X334.943 Y408.918
G01 X327.035 Y412.877
G01 X318.943 Y416.443
G01 X310.686 Y419.607
G01 X302.285 Y422.361
G01 X293.760 Y424.700
G01 X285.131 Y426.618
G01 X276.420 Y428.110
G01 X267.647 Y429.172
G01 X258.833 Y429.803
G01 X250.000 Y430.000
G01 X241.169 Y429.764
G01 X232.361 Y429.094
G01 X223.597 Y427.994
G01 X214.899 Y426.465
G01 X206.287 Y424.511
G01 X197.783 Y422.137
G01 X189.406 Y419.349
G01 X181.177 Y416.154
G01 X173.115 Y412.559
G01 X165.241 Y408.574
G01 X157.572 Y404.207
G01 X150.128 Y399.470
G01 X142.925 Y394.373
G01 X135.983 Y388.931
G01 X129.316 Y383.154
G01 X122.942 Y377.058
G01 X116.875 Y370.658
G01 X111.130 Y363.968
G01 X105.721 Y357.005
G01 X100.660 Y349.786
G01 X95.961 Y342.328
G01 X91.633 Y334.649
G01 X87.688 Y326.768
G01 X84.135 Y318.704
G01 X80.982 Y310.476
G01 X78.237 Y302.104
G01 X75.906 Y293.608
G01 X73.995 Y285.010
G01 X72.509 Y276.328
G01 X71.450 Y267.586
G01 X70.822 Y258.802
G01 X70.625 Y250.000
G01 X70.861 Y241.199
G01 X71.528 Y232.422
G01 X72.624 Y223.689
G01 X74.148 Y215.021
G01 X76.095 Y206.439
G01 X78.461 Y197.964
G01 X81.239 Y189.616
G01 X84.423 Y181.416
G01 X88.006 Y173.382
G01 X91.978 Y165.535
G01 X96.329 Y157.893
G01 X101.050 Y150.475
G01 X106.129 Y143.298
G01 X111.553 Y136.379
G01 X117.309 Y129.736
G01 X123.384 Y123.384
G01 X129.762 Y117.338
G01 X136.429 Y111.613
G01 X143.367 Y106.223
G01 X150.562 Y101.180
G01 X157.994 Y96.497
G01 X165.646 Y92.184
G01 X173.499 Y88.253
G01 X181.536 Y84.712
G01 X189.735 Y81.570
G01 X198.078 Y78.835
G01 X206.544 Y76.512
G01 X215.112 Y74.608
G01 X223.763 Y73.127
G01 X232.476 Y72.072
G01 X241.228 Y71.446
G01 X250.000 Y71.250
G01 X258.770 Y71.485
G01 X267.517 Y72.150
G01 X276.219 Y73.243
G01 X284.857 Y74.761
G01 X293.409 Y76.702
G01 X301.854 Y79.059
G01 X310.173 Y81.828
G01 X318.345 Y85.001
G01 X326.350 Y88.571
G01 X334.170 Y92.529
G01 X341.785 Y96.865
G01 X349.178 Y101.570
G01 X356.330 Y106.631
G01 X363.224 Y112.036
G01 X369.844 Y117.772
G01 X376.174 Y123.826
G01 X382.199 Y130.182
G01 X387.904 Y136.825
G01 X393.275 Y143.740
G01 X398.300 Y150.909
G01 X402.967 Y158.315
G01 X407.264 Y165.940
G01 X411.182 Y173.767
G01 X414.710 Y181.775
G01 X417.841 Y189.945
G01 X420.567 Y198.259
G01 X422.882 Y206.695
G01 X424.779 Y215.234
G01 X426.255 Y223.855
G01 X427.306 Y232.537
G01 X427.930 Y241.259
G01 X428.125 Y250.000
G01 X427.891 Y258.739
G01 X427.228 Y267.455
G01 X426.139 Y276.128
G01 X424.626 Y284.735
G01 X422.692 Y293.257
G01 X420.343 Y301.673
G01 X417.584 Y309.962
G01 X414.422 Y318.106
G01 X410.864 Y326.083
G01 X406.920 Y333.875
G01 X402.599 Y341.464
G01 X397.911 Y348.831
G01 X392.867 Y355.958
G01 X387.481 Y362.828
G01 X381.765 Y369.425
G01 X375.732 Y375.732
G01 X369.398 Y381.736
G01 X362.778 Y387.421
G01 X355.888 Y392.773
G01 X348.744 Y397.781
G01 X341.364 Y402.431
G01 X333.765 Y406.713
G01 X325.966 Y410.617
G01 X317.986 Y414.133
G01 X309.844 Y417.253
G01 X301.560 Y419.969
G01 X293.153 Y422.275
G01 X284.644 Y424.166
G01 X276.053 Y425.637
G01 X267.402 Y426.684
G01 X258.710 Y427.306
G01 X250.000 Y427.500
G01 X241.291 Y427.267
G01 X232.606 Y426.606
G01 X223.964 Y425.521
G01 X215.387 Y424.013
G01 X206.895 Y422.086
G01 X198.508 Y419.745
G01 X190.248 Y416.995
G01 X182.133 Y413.844
G01 X174.184 Y410.299
G01 X166.419 Y406.369
G01 X158.857 Y402.063
G01 X151.516 Y397.391
G01 X144.415 Y392.365
G01 X137.569 Y386.998
G01 X130.995 Y381.302
G01 X124.710 Y375.290
G01 X118.727 Y368.979
G01 X113.062 Y362.382
G01 X107.729 Y355.516
G01 X102.739 Y348.397
G01 X98.105 Y341.042
G01 X93.838 Y333.470
G01 X89.948 Y325.699
G01 X86.444 Y317.747
G01 X83.336 Y309.633
G01 X80.629 Y301.378
G01 X78.331 Y293.001
G01 X76.447 Y284.522
G01 X74.981 Y275.962
G01 X73.938 Y267.341
G01 X73.319 Y258.680
G01 X73.125 Y250.000
G01 X73.358 Y241.322
G01 X74.016 Y232.667
G01 X75.097 Y224.056
G01 X76.600 Y215.509
G01 X78.520 Y207.047
G01 X80.853 Y198.690
G01 X83.593 Y190.459
G01 X86.733 Y182.373
G01 X90.266 Y174.451
G01 X94.182 Y166.714
G01 X98.474 Y159.179
G01 X103.129 Y151.864
G01 X108.137 Y144.787
G01 X113.485 Y137.965
G01 X119.161 Y131.415
G01 X125.151 Y125.151
G01 X131.441 Y119.190
G01 X138.015 Y113.546
G01 X144.857 Y108.231
G01 X151.951 Y103.259
G01 X159.279 Y98.641
G01 X166.824 Y94.389
G01 X174.568 Y90.513
G01 X182.492 Y87.022
G01 X190.577 Y83.924
G01 X198.803 Y81.227
G01 X207.151 Y78.937
G01 X215.600 Y77.060
G01 X224.130 Y75.600
G01 X232.721 Y74.560
G01 X241.351 Y73.943
G01 X250.000 Y73.750
G01 X258.647 Y73.982
G01 X267.272 Y74.638
G01 X275.853 Y75.716
G01 X284.369 Y77.213
G01 X292.802 Y79.127
G01 X301.129 Y81.451
G01 X309.331 Y84.182
G01 X317.388 Y87.311
G01 X325.281 Y90.831
G01 X332.992 Y94.734
G01 X340.500 Y99.010
G01 X347.789 Y103.648
G01 X354.841 Y108.639
G01 X361.638 Y113.968
G01 X368.166 Y119.624
G01 X374.407 Y125.593
G01 X380.347 Y131.861
G01 X385.971 Y138.411
G01 X391.267 Y145.229
G01 X396.222 Y152.298
G01 X400.823 Y159.600
G01 X405.060 Y167.119
G01 X408.922 Y174.835
G01 X412.401 Y182.731
G01 X415.487 Y190.788
G01 X418.175 Y198.985
G01 X420.456 Y207.303
G01 X422.327 Y215.722
G01 X423.782 Y224.222
G01 X424.818 Y232.782
G01 X425.433 Y241.382
G01 X425.625 Y250.000
G01 X425.394 Y258.617
G01 X424.740 Y267.210
G01 X423.666 Y275.761
G01 X422.174 Y284.247
G01 X420.267 Y292.650
G01 X417.951 Y300.947
G01 X415.230 Y309.120
G01 X412.112 Y317.149
G01 X408.604 Y325.014
G01 X404.715 Y332.697
G01 X400.454 Y340.179
G01 X395.832 Y347.442
G01 X390.859 Y354.468
G01 X385.549 Y361.242
G01 X379.912 Y367.746
G01 X373.965 Y373.965
G01 X367.720 Y379.884
G01 X361.192 Y385.488
G01 X354.399 Y390.765
G01 X347.355 Y395.702
G01 X340.078 Y400.287
G01 X332.586 Y404.508
G01 X324.897 Y408.357
G01 X317.029 Y411.823
G01 X309.002 Y414.899
G01 X300.834 Y417.577
G01 X292.545 Y419.850
G01 X284.156 Y421.714
G01 X275.686 Y423.164
G01 X267.157 Y424.196
G01 X258.588 Y424.809
G01 X250.000 Y425.000
G01 X241.414 Y424.770
G01 X232.851 Y424.118
G01 X224.331 Y423.048
G01 X215.874 Y421.561
G01 X207.502 Y419.661
G01 X199.234 Y417.352
G01 X191.090 Y414.641
G01 X183.090 Y411.535
G01 X175.253 Y408.039
G01 X167.598 Y404.164
G01 X160.142 Y399.918
G01 X152.905 Y395.312
G01 X145.904 Y390.357
G01 X139.155 Y385.065
G01 X132.674 Y379.449
G01 X126.477 Y373.523
G01 X120.580 Y367.300
G01 X114.995 Y360.796
G01 X109.737 Y354.026
G01 X104.818 Y347.008
G01 X100.249 Y339.757
G01 X96.043 Y332.292
G01 X92.208 Y324.630
G01 X88.754 Y316.790
G01 X85.690 Y308.791
G01 X83.021 Y300.652
G01 X80.756 Y292.393
G01 X78.899 Y284.034
G01 X77.454 Y275.595
G01 X76.426 Y267.096
G01 X75.816 Y258.557
G01 X75.625 Y250.000
G01 X75.855 Y241.445
G01 X76.504 Y232.912
G01 X77.570 Y224.422
G01 X79.052 Y215.996
G01 X80.946 Y207.654
G01 X83.246 Y199.416
G01 X85.947 Y191.301
G01 X89.043 Y183.329
G01 X92.526 Y175.520
G01 X96.387 Y167.892
G01 X100.618 Y160.464
G01 X105.207 Y153.253
G01 X110.145 Y146.276
G01 X115.418 Y139.551
G01 X121.014 Y133.094
G01 X126.919 Y126.919
G01 X133.120 Y121.043
G01 X139.601 Y115.478
G01 X146.346 Y110.239
G01 X153.339 Y105.337
G01 X160.564 Y100.785
G01 X168.003 Y96.594
G01 X175.637 Y92.773
G01 X183.449 Y89.332
G01 X191.419 Y86.278
G01 X199.529 Y83.619
G01 X207.758 Y81.362
G01 X216.088 Y79.512
G01 X224.497 Y78.073
G01 X232.966 Y77.048
G01 X241.474 Y76.440
G01 X250.000 Y76.250
G01 X258.525 Y76.479
G01 X267.027 Y77.126
G01 X275.486 Y78.189
G01 X283.882 Y79.665
G01 X292.194 Y81.552
G01 X300.403 Y83.844
G01 X308.489 Y86.535
G01 X316.431 Y89.620
G01 X324.213 Y93.091
G01 X331.813 Y96.938
G01 X339.215 Y101.154
G01 X346.400 Y105.727
G01 X353.352 Y110.647
G01 X360.052 Y115.901
G01 X366.487 Y121.477
G01 X372.639 Y127.361
G01 X378.494 Y133.540
G01 X384.039 Y139.997
G01 X389.259 Y146.718
G01 X394.143 Y153.687
G01 X398.679 Y160.886
G01 X402.855 Y168.297
G01 X406.662 Y175.904
G01 X410.091 Y183.688
G01 X413.134 Y191.630
G01 X415.782 Y199.710
G01 X418.031 Y207.910
G01 X419.875 Y216.210
G01 X421.309 Y224.589
G01 X422.330 Y233.027
G01 X422.936 Y241.504
G01 X423.125 Y250.000
G01 X422.897 Y258.494
G01 X422.252 Y266.965
G01 X421.193 Y275.394
G01 X419.722 Y283.760
G01 X417.842 Y292.042
G01 X415.558 Y300.222
G01 X412.876 Y308.278
G01 X409.802 Y316.192
G01 X406.344 Y323.945
G01 X402.510 Y331.518
G01 X398.310 Y338.894
G01 X393.753 Y346.053
G01 X388.851 Y352.979
G01 X383.616 Y359.656
G01 X378.060 Y366.067
G01 X372.197 Y372.197
G01 X366.041 Y378.031
G01 X359.606 Y383.556
G01 X352.909 Y388.757
G01 X345.966 Y393.623
G01 X338.793 Y398.142
G01 X331.408 Y402.304
G01 X323.828 Y406.097
G01 X316.073 Y409.514
G01 X308.160 Y412.545
G01 X300.108 Y415.184
G01 X291.938 Y417.425
G01 X283.668 Y419.262
G01 X275.320 Y420.691
G01 X266.912 Y421.708
G01 X258.465 Y422.312
G01 X250.000 Y422.500
G01 X241.537 Y422.273
G01 X233.096 Y421.630
G01 X224.698 Y420.575
G01 X216.362 Y419.109
G01 X208.110 Y417.236
G01 X199.960 Y414.960
G01 X191.933 Y412.288
G01 X184.047 Y409.225
G01 X176.322 Y405.779
G01 X168.776 Y401.959
G01 X161.428 Y397.774
G01 X154.294 Y393.234
G01 X147.393 Y388.349
G01 X140.741 Y383.133
G01 X134.353 Y377.597
G01 X128.245 Y371.755
G01 X122.432 Y365.621
G01 X116.927 Y359.210
G01 X111.745 Y352.537
G01 X106.896 Y345.619
G01 X102.394 Y338.472
G01 X98.248 Y331.113
G01 X94.468 Y323.561
G01 X91.064 Y315.834
G01 X88.043 Y307.949
G01 X85.414 Y299.927
G01 X83.181 Y291.786
G01 X81.351 Y283.546
G01 X79.927 Y275.228
G01 X78.914 Y266.851
G01 X78.313 Y258.434
G01 X78.125 Y250.000
G01 X78.352 Y241.567
G01 X78.991 Y233.157
G01 X80.043 Y224.789
G01 X81.504 Y216.484
G01 X83.371 Y208.262
G01 X85.638 Y200.141
G01 X88.301 Y192.143
G01 X91.353 Y184.286
G01 X94.786 Y176.589
G01 X98.592 Y169.071
G01 X102.762 Y161.749
G01 X107.286 Y154.642
G01 X112.153 Y147.765
G01 X117.350 Y141.137
G01 X122.866 Y134.773
G01 X128.687 Y128.687
G01 X134.799 Y122.895
G01 X141.187 Y117.411
G01 X147.835 Y112.247
G01 X154.728 Y107.416
G01 X161.849 Y102.930
G01 X169.181 Y98.799
G01 X176.706 Y95.033
G01 X184.406 Y91.641
G01 X192.262 Y88.632
G01 X200.255 Y86.012
G01 X208.366 Y83.787
G01 X216.576 Y81.964
G01 X224.864 Y80.546
G01 X233.211 Y79.536
G01 X241.596 Y78.937
G01 X250.000 Y78.750
G01 X258.402 Y78.976
G01 X266.782 Y79.613
G01 X275.119 Y80.661
G01 X283.394 Y82.117
G01 X291.587 Y83.977
G01 X299.677 Y86.236
G01 X307.646 Y88.889
G01 X315.475 Y91.930
G01 X323.144 Y95.351
G01 X330.635 Y99.143
G01 X337.930 Y103.298
G01 X345.011 Y107.806
G01 X351.862 Y112.655
G01 X358.466 Y117.833
G01 X364.808 Y123.329
G01 X370.871 Y129.129
G01 X376.642 Y135.219
G01 X382.106 Y141.583
G01 X387.251 Y148.208
G01 X392.064 Y155.076
G01 X396.534 Y162.171
G01 X400.650 Y169.476
G01 X404.402 Y176.973
G01 X407.781 Y184.645
G01 X410.780 Y192.472
G01 X413.390 Y200.436
G01 X415.606 Y208.518
G01 X417.423 Y216.697
G01 X418.836 Y224.956
G01 X419.842 Y233.272
G01 X420.439 Y241.627
G01 X420.625 Y250.000
G01 X420.400 Y258.371
G01 X419.765 Y266.720
G01 X418.720 Y275.027
G01 X417.270 Y283.272
G01 X415.417 Y291.435
G01 X413.166 Y299.496
G01 X410.522 Y307.436
G01 X407.493 Y315.236
G01 X404.084 Y322.876
G01 X400.306 Y330.340
G01 X396.166 Y337.608
G01 X391.675 Y344.664
G01 X386.843 Y351.490
G01 X381.684 Y358.070
G01 X376.208 Y364.388
G01 X370.429 Y370.429
G01 X364.362 Y376.179
G01 X358.020 Y381.623
G01 X351.420 Y386.749
G01 X344.577 Y391.545
G01 X337.508 Y395.998
G01 X330.230 Y400.099
G01 X322.760 Y403.837
G01 X315.116 Y407.204
G01 X307.317 Y410.191
G01 X299.382 Y412.792
G01 X291.330 Y415.000
G01 X283.181 Y416.810
G01 X274.953 Y418.218
G01 X266.667 Y419.220
G01 X258.342 Y419.815
G01 X250.000 Y420.000
G01 X241.659 Y419.776
G01 X233.341 Y419.143
G01 X225.064 Y418.102
G01 X216.850 Y416.657
G01 X208.717 Y414.811
G01 X200.686 Y412.568
G01 X192.775 Y409.934
G01 X185.004 Y406.915
G01 X177.391 Y403.519
G01 X169.955 Y399.754
G01 X162.713 Y395.630
G01 X155.683 Y391.155
G01 X148.882 Y386.341
G01 X142.327 Y381.200
G01 X136.032 Y375.745
G01 X130.013 Y369.987
G01 X124.284 Y363.942
G01 X118.860 Y357.624
G01 X113.753 Y351.048
G01 X108.975 Y344.230
G01 X104.538 Y337.187
G01 X100.452 Y329.935
G01 X96.728 Y322.492
G01 X93.374 Y314.877
G01 X90.397 Y307.107
G01 X87.806 Y299.201
G01 X85.606 Y291.178
G01 X83.803 Y283.059
G01 X82.400 Y274.861
G01 X81.402 Y266.605
G01 X80.810 Y258.312
G01 X80.625 Y250.000
G01 X80.849 Y241.690
G01 X81.479 Y233.402
G01 X82.516 Y225.156
G01 X83.956 Y216.972
G01 X85.796 Y208.869
G01 X88.030 Y200.867
G01 X90.655 Y192.985
G01 X93.662 Y185.243
G01 X97.046 Y177.658
G01 X100.797 Y170.249
G01 X104.906 Y163.034
G01 X109.365 Y156.031
G01 X114.161 Y149.255
G01 X119.283 Y142.723
G01 X124.718 Y136.451
G01 X130.455 Y130.455
G01 X136.478 Y124.747
G01 X142.773 Y119.343
G01 X149.324 Y114.255
G01 X156.117 Y109.495
G01 X163.135 Y105.074
G01 X170.360 Y101.004
G01 X177.775 Y97.293
G01 X185.362 Y93.951
G01 X193.104 Y90.986
G01 X200.980 Y88.404
G01 X208.973 Y86.212
G01 X217.063 Y84.416
G01 X225.231 Y83.019
G01 X233.456 Y82.024
G01 X241.719 Y81.434
G01 X250.000 Y81.250
G01 X258.279 Y81.473
G01 X266.537 Y82.101
G01 X274.752 Y83.134
G01 X282.906 Y84.569
G01 X290.979 Y86.402
G01 X298.952 Y88.628
G01 X306.804 Y91.243
G01 X314.518 Y94.240
G01 X322.075 Y97.611
G01 X329.456 Y101.348
G01 X336.644 Y105.443
G01 X343.622 Y109.884
G01 X350.373 Y114.663
G01 X356.880 Y119.766
G01 X363.129 Y125.182
G01 X369.103 Y130.897
G01 X374.789 Y136.897
G01 X380.174 Y143.169
G01 X385.243 Y149.697
G01 X389.986 Y156.465
G01 X394.390 Y163.456
G01 X398.445 Y170.654
G01 X402.142 Y178.042
G01 X405.472 Y185.602
G01 X408.426 Y193.314
G01 X410.998 Y201.162
G01 X413.181 Y209.125
G01 X414.971 Y217.185
G01 X416.363 Y225.322
G01 X417.354 Y233.517
G01 X417.942 Y241.750
G01 X418.125 Y250.000
G01 X417.903 Y258.249
G01 X417.277 Y266.475
G01 X416.247 Y274.660
G01 X414.818 Y282.784
G01 X412.992 Y290.827
G01 X410.773 Y298.770
G01 X408.168 Y306.594
G01 X405.183 Y314.279
G01 X401.824 Y321.808
G01 X398.101 Y329.162
G01 X394.021 Y336.323
G01 X389.596 Y343.275
G01 X384.835 Y350.001
G01 X379.751 Y356.484
G01 X374.355 Y362.709
G01 X368.661 Y368.661
G01 X362.683 Y374.326
G01 X356.434 Y379.691
G01 X349.931 Y384.741
G01 X343.188 Y389.466
G01 X336.223 Y393.854
G01 X329.051 Y397.894
G01 X321.691 Y401.577
G01 X314.159 Y404.894
G01 X306.475 Y407.837
G01 X298.657 Y410.400
G01 X290.723 Y412.575
G01 X282.693 Y414.358
G01 X274.586 Y415.745
G01 X266.422 Y416.732
G01 X258.220 Y417.318
G01 X250.000 Y417.500
G01 X241.782 Y417.279
G01 X233.586 Y416.655
G01 X225.431 Y415.629
G01 X217.338 Y414.205
G01 X209.325 Y412.386
G01 X201.411 Y410.175
G01 X193.617 Y407.580
G01 X185.960 Y404.605
G01 X178.460 Y401.259
G01 X171.133 Y397.550
G01 X163.998 Y393.485
G01 X157.072 Y389.076
G01 X150.372 Y384.333
G01 X143.913 Y379.268
G01 X137.711 Y373.892
G01 X131.781 Y368.219
G01 X126.137 Y362.263
G01 X120.793 Y356.038
G01 X115.761 Y349.559
G01 X111.054 Y342.841
G01 X106.682 Y335.901
G01 X102.657 Y328.756
G01 X98.988 Y321.423
G01 X95.683 Y313.920
G01 X92.751 Y306.265
G01 X90.198 Y298.475
G01 X88.031 Y290.571
G01 X86.255 Y282.571
G01 X84.873 Y274.494
G01 X83.890 Y266.360
G01 X83.307 Y258.189
G01 X83.125 Y250.000
G01 X83.346 Y241.813
G01 X83.967 Y233.647
G01 X84.989 Y225.523
G01 X86.408 Y217.460
G01 X88.221 Y209.476
G01 X90.423 Y201.593
G01 X93.009 Y193.828
G01 X95.972 Y186.199
G01 X99.306 Y178.727
G01 X103.002 Y171.428
G01 X107.051 Y164.320
G01 X111.443 Y157.419
G01 X116.169 Y150.744
G01 X121.215 Y144.309
G01 X126.571 Y138.130
G01 X132.223 Y132.223
G01 X138.157 Y126.600
G01 X144.359 Y121.276
G01 X150.814 Y116.263
G01 X157.506 Y111.573
G01 X164.420 Y107.218
G01 X171.538 Y103.208
G01 X178.844 Y99.553
G01 X186.319 Y96.261
G01 X193.946 Y93.340
G01 X201.706 Y90.797
G01 X209.581 Y88.638
G01 X217.551 Y86.868
G01 X225.597 Y85.491
G01 X233.701 Y84.512
G01 X241.842 Y83.931
G01 X250.000 Y83.750
G01 X258.157 Y83.970
G01 X266.292 Y84.589
G01 X274.385 Y85.607
G01 X282.419 Y87.021
G01 X290.372 Y88.827
G01 X298.226 Y91.021
G01 X305.962 Y93.597
G01 X313.561 Y96.549
G01 X321.006 Y99.871
G01 X328.278 Y103.553
G01 X335.359 Y107.587
G01 X342.233 Y111.963
G01 X348.884 Y116.671
G01 X355.294 Y121.698
G01 X361.450 Y127.034
G01 X367.336 Y132.664
G01 X372.937 Y138.576
G01 X378.241 Y144.755
G01 X383.235 Y151.186
G01 X387.907 Y157.853
G01 X392.246 Y164.741
G01 X396.240 Y171.833
G01 X399.882 Y179.111
G01 X403.162 Y186.558
G01 X406.072 Y194.157
G01 X408.605 Y201.888
G01 X410.756 Y209.733
G01 X412.519 Y217.673
G01 X413.890 Y225.689
G01 X414.866 Y233.762
G01 X415.445 Y241.872
G01 X415.625 Y250.000
G01 X415.406 Y258.126
G01 X414.789 Y266.230
G01 X413.774 Y274.294
G01 X412.366 Y282.297
G01 X410.567 Y290.220
G01 X408.381 Y298.044
G01 X405.815 Y305.751
G01 X402.873 Y313.322
G01 X399.564 Y320.739
G01 X395.896 Y327.983
G01 X391.877 Y335.038
G01 X387.517 Y341.886
G01 X382.827 Y348.511
G01 X377.818 Y354.898
G01 X372.503 Y361.030
G01 X366.894 Y366.894
G01 X361.004 Y372.474
G01 X354.848 Y377.758
G01 X348.442 Y382.733
G01 X341.799 Y387.387
G01 X334.937 Y391.709
G01 X327.873 Y395.689
G01 X320.622 Y399.317
G01 X313.203 Y402.584
G01 X305.633 Y405.483
G01 X297.931 Y408.007
G01 X290.115 Y410.150
G01 X282.205 Y411.906
G01 X274.219 Y413.272
G01 X266.177 Y414.244
G01 X258.097 Y414.821
G01 X250.000 Y415.000
G01 X241.905 Y414.782
G01 X233.831 Y414.167
G01 X225.798 Y413.156
G01 X217.825 Y411.753
G01 X209.932 Y409.960
G01 X202.137 Y407.783
G01 X194.459 Y405.226
G01 X186.917 Y402.296
G01 X179.529 Y398.999
G01 X172.312 Y395.345
G01 X165.283 Y391.341
G01 X158.461 Y386.998
G01 X151.861 Y382.325
G01 X145.499 Y377.335
G01 X139.390 Y372.040
G01 X133.548 Y366.452
G01 X127.989 Y360.584
G01 X122.725 Y354.452
G01 X117.769 Y348.069
G01 X113.132 Y341.452
G01 X108.827 Y334.616
G01 X104.862 Y327.578
G01 X101.248 Y320.355
G01 X97.993 Y312.963
G01 X95.105 Y305.422
G01 X92.591 Y297.750
G01 X90.456 Y289.964
G01 X88.707 Y282.083
G01 X87.346 Y274.127
G01 X86.378 Y266.115
G01 X85.803 Y258.066
G01 X85.625 Y250.000
G01 X85.843 Y241.935
G01 X86.455 Y233.892
G01 X87.462 Y225.890
G01 X88.860 Y217.947
G01 X90.646 Y210.084
G01 X92.815 Y202.318
G01 X95.362 Y194.670
G01 X98.282 Y187.156
G01 X101.566 Y179.796
G01 X105.206 Y172.606
G01 X109.195 Y165.605
G01 X113.522 Y158.808
G01 X118.177 Y152.233
G01 X123.148 Y145.895
G01 X128.423 Y139.809
G01 X133.990 Y133.990
G01 X139.835 Y128.452
G01 X145.945 Y123.208
G01 X152.303 Y118.271
G01 X158.895 Y113.652
G01 X165.705 Y109.363
G01 X172.717 Y105.413
G01 X179.913 Y101.813
G01 X187.276 Y98.570
G01 X194.788 Y95.693
G01 X202.432 Y93.189
G01 X210.188 Y91.063
G01 X218.039 Y89.320
G01 X225.964 Y87.964
G01 X233.946 Y87.000
G01 X241.964 Y86.428
G01 X250.000 Y86.250
G01 X258.034 Y86.467
G01 X266.046 Y87.077
G01 X274.019 Y88.080
G01 X281.931 Y89.473
G01 X289.764 Y91.252
G01 X297.500 Y93.413
G01 X305.120 Y95.951
G01 X312.605 Y98.859
G01 X319.937 Y102.131
G01 X327.099 Y105.758
G01 X334.074 Y109.731
G01 X340.844 Y114.042
G01 X347.395 Y118.679
G01 X353.708 Y123.631
G01 X359.771 Y128.886
G01 X365.568 Y134.432
G01 X371.085 Y140.255
G01 X376.309 Y146.341
G01 X381.227 Y152.675
G01 X385.828 Y159.242
G01 X390.101 Y166.027
G01 X394.036 Y173.011
G01 X397.622 Y180.180
G01 X400.852 Y187.515
G01 X403.718 Y194.999
G01 X406.213 Y202.613
G01 X408.331 Y210.340
G01 X410.067 Y218.161
G01 X411.417 Y226.056
G01 X412.378 Y234.007
G01 X412.948 Y241.995
G01 X413.125 Y250.000
G01 X412.909 Y258.003
G01 X412.301 Y265.985
G01 X411.301 Y273.927
G01 X409.914 Y281.809
G01 X408.142 Y289.612
G01 X405.989 Y297.319
G01 X403.461 Y304.909
G01 X400.563 Y312.365
G01 X397.304 Y319.670
G01 X393.691 Y326.805
G01 X389.733 Y333.753
G01 X385.439 Y340.497
G01 X380.819 Y347.022
G01 X375.886 Y353.312
G01 X370.651 Y359.351
G01 X365.126 Y365.126
G01 X359.325 Y370.622
G01 X353.262 Y375.826
G01 X346.952 Y380.725
G01 X340.410 Y385.309
G01 X333.652 Y389.565
G01 X326.694 Y393.484
G01 X319.553 Y397.057
G01 X312.246 Y400.275
G01 X304.791 Y403.130
G01 X297.205 Y405.615
G01 X289.508 Y407.725
G01 X281.717 Y409.454
G01 X273.852 Y410.799
G01 X265.932 Y411.756
G01 X257.974 Y412.324
G01 X250.000 Y412.500
G01 X242.027 Y412.285
G01 X234.076 Y411.679
G01 X226.165 Y410.683
G01 X218.313 Y409.301
G01 X210.539 Y407.535
G01 X202.863 Y405.391
G01 X195.301 Y402.872
G01 X187.874 Y399.986
G01 X180.597 Y396.739
G01 X173.490 Y393.140
G01 X166.569 Y389.197
G01 X159.850 Y384.919
G01 X153.350 Y380.317
G01 X147.085 Y375.403
G01 X141.068 Y370.187
G01 X135.316 Y364.684
G01 X129.841 Y358.905
G01 X124.658 Y352.866
G01 X119.777 Y346.580
G01 X115.211 Y340.063
G01 X110.971 Y333.331
G01 X107.067 Y326.399
G01 X103.508 Y319.286
G01 X100.303 Y312.007
G01 X97.459 Y304.580
G01 X94.983 Y297.024
G01 X92.881 Y289.356
G01 X91.159 Y281.595
G01 X89.819 Y273.761
G01 X88.866 Y265.870
G01 X88.300 Y257.944
G01 X88.125 Y250.000
G01 X88.339 Y242.058
G01 X88.943 Y234.137
G01 X89.935 Y226.257
G01 X91.312 Y218.435
G01 X93.071 Y210.691
G01 X95.207 Y203.044
G01 X97.716 Y195.512
G01 X100.591 Y188.113
G01 X103.826 Y180.865
G01 X107.411 Y173.785
G01 X111.339 Y166.890
G01 X115.601 Y160.197
G01 X120.185 Y153.722
G01 X125.080 Y147.481
G01 X130.276 Y141.488
G01 X135.758 Y135.758
G01 X141.514 Y130.305
G01 X147.531 Y125.141
G01 X153.792 Y120.279
G01 X160.284 Y115.731
G01 X166.990 Y111.507
G01 X173.895 Y107.618
G01 X180.982 Y104.073
G01 X188.233 Y100.880
G01 X195.630 Y98.047
G01 X203.158 Y95.581
G01 X210.796 Y93.488
G01 X218.526 Y91.772
G01 X226.331 Y90.437
G01 X234.191 Y89.488
G01 X242.087 Y88.925
G01 X250.000 Y88.750
G01 X257.911 Y88.964
G01 X265.801 Y89.565
G01 X273.652 Y90.553
G01 X281.443 Y91.925
G01 X289.157 Y93.677
G01 X296.774 Y95.806
G01 X304.277 Y98.305
G01 X311.648 Y101.169
G01 X318.868 Y104.391
G01 X325.921 Y107.962
G01 X332.789 Y111.876
G01 X339.455 Y116.120
G01 X345.905 Y120.687
G01 X352.122 Y125.563
G01 X358.092 Y130.739
G01 X363.800 Y136.200
G01 X369.232 Y141.934
G01 X374.376 Y147.927
G01 X379.219 Y154.165
G01 X383.750 Y160.631
G01 X387.957 Y167.312
G01 X391.831 Y174.190
G01 X395.362 Y181.249
G01 X398.543 Y188.472
G01 X401.364 Y195.841
G01 X403.821 Y203.339
G01 X405.906 Y210.948
G01 X407.615 Y218.648
G01 X408.944 Y226.423
G01 X409.890 Y234.252
G01 X410.451 Y242.118
G01 X410.625 Y250.000
G01 X410.412 Y257.881
G01 X409.813 Y265.740
G01 X408.829 Y273.560
G01 X407.462 Y281.321
G01 X405.717 Y289.005
G01 X403.596 Y296.593
G01 X401.107 Y304.067
G01 X398.254 Y311.409
G01 X395.044 Y318.601
G01 X391.486 Y325.626
G01 X387.588 Y332.467
G01 X383.360 Y339.108
G01 X378.811 Y345.533
G01 X373.953 Y351.726
G01 X368.798 Y357.672
G01 X363.358 Y363.358
G01 X357.646 Y368.769
G01 X351.676 Y373.893
G01 X345.463 Y378.717
G01 X339.021 Y383.230
G01 X332.367 Y387.421
G01 X325.516 Y391.280
G01 X318.484 Y394.797
G01 X311.289 Y397.965
G01 X303.948 Y400.776
G01 X296.480 Y403.223
G01 X288.901 Y405.300
G01 X281.230 Y407.002
G01 X273.485 Y408.326
G01 X265.687 Y409.268
G01 X257.852 Y409.827
G01 X250.000 Y410.000
