;  Created by Sandify
;  https://sandify.org
;  Version: 0.2.6
;
;  Machine type: Rectangular
;    Min X (mm): 0
;    Max X (mm): 500
;    Min Y (mm): 0
;    Max Y (mm): 500
;  Content type: shape
;  Layer:
;    Shape: FileImport
;    Name: SierpinskiTriangle2.thr
;    From file:: SierpinskiTriangle2.thr
;    Aspect Ratio: true
;    Comments: 
;    Visible: true
;    Initial width: 10
;    Initial height: 10
;    X offset: 0
;    Y offset: -27
;    Rotate (degrees): 0
;    Reverse path: false
;    Fine tuning:
;      Connect to next layer: line
;      Draw portion of path (%): 100
;      Backtrack at end (%): 0
;      Rotate starting point (%): 0
;  Reverse export path: false
;
; File name: 'traingles2'
; File type: gcode
;

G01 X250.000 Y223.000
G01 X249.994 Y223.116
G01 X249.977 Y223.232
G01 X249.949 Y223.346
G01 X249.909 Y223.457
G01 X249.859 Y223.565
G01 X249.797 Y223.669
G01 X249.725 Y223.768
G01 X249.643 Y223.861
G01 X249.552 Y223.948
G01 X249.451 Y224.027
G01 X249.341 Y224.099
G01 X249.224 Y224.162
G01 X249.098 Y224.216
G01 X248.966 Y224.260
G01 X248.827 Y224.294
G01 X248.682 Y224.318
G01 X248.533 Y224.330
G01 X248.379 Y224.330
G01 X248.223 Y224.318
G01 X248.063 Y224.294
G01 X247.902 Y224.257
G01 X247.875 Y224.250
G01 X143.750 Y285.500
G01 X154.617 Y285.603
G01 X157.031 Y285.500
G01 X150.391 Y297.002
G01 X147.192 Y291.816
G01 X144.261 Y286.495
G01 X143.750 Y285.500
G01 X154.617 Y285.603
G01 X157.031 Y285.500
G01 X165.986 Y285.677
G01 X170.313 Y285.500
G01 X163.672 Y297.002
G01 X160.703 Y292.244
G01 X157.992 Y287.374
G01 X157.031 Y285.500
G01 X146.218 Y285.603
G01 X143.750 Y285.500
G01 X146.631 Y290.844
G01 X149.781 Y296.056
G01 X150.391 Y297.002
G01 X159.790 Y297.157
G01 X163.672 Y297.002
G01 X157.031 Y308.504
G01 X153.748 Y303.173
G01 X150.762 Y297.727
G01 X150.391 Y297.002
G01 X147.192 Y291.816
G01 X144.261 Y286.495
G01 X143.750 Y285.500
G01 X154.368 Y285.766
G01 X160.653 Y285.500
G01 X169.334 Y285.540
G01 X170.313 Y285.500
G01 X177.630 Y285.733
G01 X183.594 Y285.500
G01 X176.953 Y297.002
G01 X174.182 Y292.619
G01 X171.663 Y288.145
G01 X170.313 Y285.500
G01 X177.630 Y285.733
G01 X183.594 Y285.500
G01 X189.547 Y285.769
G01 X195.360 Y285.612
G01 X196.875 Y285.500
G01 X190.234 Y297.002
G01 X187.617 Y292.924
G01 X185.254 Y288.771
G01 X183.594 Y285.500
G01 X176.423 Y285.734
G01 X170.313 Y285.500
G01 X172.683 Y290.021
G01 X175.307 Y294.459
G01 X176.953 Y297.002
G01 X183.585 Y297.241
G01 X190.058 Y297.015
G01 X190.234 Y297.002
G01 X183.594 Y308.504
G01 X180.633 Y303.798
G01 X177.971 Y299.010
G01 X176.953 Y297.002
G01 X174.182 Y292.619
G01 X171.663 Y288.145
G01 X170.313 Y285.500
G01 X161.395 Y285.725
G01 X155.824 Y285.500
G01 X144.898 Y285.548
G01 X143.750 Y285.500
G01 X146.556 Y290.893
G01 X149.636 Y296.161
G01 X152.202 Y300.139
G01 X155.249 Y305.590
G01 X157.031 Y308.504
G01 X165.558 Y308.681
G01 X170.312 Y308.504
G01 X163.672 Y320.006
G01 X160.236 Y314.410
G01 X157.139 Y308.715
G01 X157.031 Y308.504
G01 X165.558 Y308.681
G01 X170.312 Y308.504
G01 X177.641 Y308.714
G01 X183.594 Y308.504
G01 X176.953 Y320.006
G01 X173.646 Y314.666
G01 X170.684 Y309.239
G01 X170.312 Y308.504
G01 X161.904 Y308.682
G01 X157.031 Y308.504
G01 X160.116 Y314.203
G01 X163.540 Y319.802
G01 X163.672 Y320.006
G01 X171.707 Y320.188
G01 X176.953 Y320.006
G01 X170.313 Y331.508
G01 X166.659 Y325.530
G01 X163.672 Y320.006
G01 X160.236 Y314.410
G01 X157.139 Y308.715
G01 X157.031 Y308.504
G01 X153.677 Y303.232
G01 X150.614 Y297.838
G01 X148.580 Y293.865
G01 X145.467 Y288.651
G01 X143.750 Y285.500
G01 X154.368 Y285.766
G01 X160.653 Y285.500
G01 X169.068 Y285.746
G01 X175.142 Y285.500
G01 X181.880 Y285.796
G01 X188.459 Y285.590
G01 X189.631 Y285.500
G01 X195.246 Y285.559
G01 X196.875 Y285.500
G01 X201.733 Y285.784
G01 X206.487 Y285.748
G01 X210.156 Y285.500
G01 X203.516 Y297.002
G01 X200.990 Y293.130
G01 X198.731 Y289.191
G01 X196.875 Y285.500
G01 X201.733 Y285.784
G01 X206.487 Y285.748
G01 X210.156 Y285.500
G01 X214.221 Y285.715
G01 X218.208 Y285.685
G01 X221.224 Y285.500
G01 X223.438 Y285.500
G01 X216.797 Y297.002
G01 X214.273 Y293.186
G01 X212.042 Y289.306
G01 X210.156 Y285.500
G01 X205.499 Y285.782
G01 X200.721 Y285.752
G01 X196.875 Y285.500
G01 X198.889 Y289.484
G01 X201.168 Y293.418
G01 X203.516 Y297.002
G01 X208.288 Y297.261
G01 X212.972 Y297.235
G01 X216.797 Y297.002
G01 X210.156 Y308.504
G01 X207.282 Y304.031
G01 X204.748 Y299.487
G01 X203.516 Y297.002
G01 X200.990 Y293.130
G01 X198.731 Y289.191
G01 X196.875 Y285.500
G01 X201.765 Y285.743
G01 X206.546 Y285.663
G01 X208.949 Y285.500
G01 X213.062 Y285.746
G01 X217.098 Y285.742
G01 X221.023 Y285.500
G01 X223.438 Y285.500
G01 X226.912 Y285.708
G01 X230.342 Y285.728
G01 X233.717 Y285.565
G01 X234.505 Y285.500
G01 X236.719 Y285.500
G01 X230.685 Y296.056
G01 X230.078 Y297.002
G01 X227.451 Y292.897
G01 X225.177 Y288.720
G01 X224.544 Y287.417
G01 X223.438 Y285.500
G01 X226.912 Y285.708
G01 X230.342 Y285.728
G01 X233.717 Y285.565
G01 X234.505 Y285.500
G01 X236.719 Y285.500
G01 X239.863 Y285.699
G01 X242.994 Y285.740
G01 X246.104 Y285.626
G01 X247.786 Y285.500
G01 X250.000 Y285.500
G01 X246.616 Y291.889
G01 X243.359 Y297.002
G01 X240.346 Y292.219
G01 X237.826 Y287.417
G01 X236.719 Y285.500
G01 X233.422 Y285.704
G01 X230.074 Y285.733
G01 X226.683 Y285.582
G01 X225.651 Y285.500
G01 X223.438 Y285.500
G01 X225.505 Y289.530
G01 X227.906 Y293.501
G01 X228.971 Y295.085
G01 X230.078 Y297.002
G01 X233.874 Y297.244
G01 X237.645 Y297.293
G01 X241.381 Y297.153
G01 X243.359 Y297.002
G01 X238.453 Y305.791
G01 X236.719 Y308.504
G01 X233.439 Y303.381
G01 X230.628 Y298.152
G01 X230.078 Y297.002
G01 X227.451 Y292.897
G01 X225.177 Y288.720
G01 X224.544 Y287.417
G01 X223.438 Y285.500
G01 X219.618 Y285.742
G01 X215.713 Y285.755
G01 X211.735 Y285.533
G01 X211.364 Y285.500
G01 X206.820 Y285.743
G01 X202.162 Y285.686
G01 X199.290 Y285.500
G01 X196.875 Y285.500
G01 X198.911 Y289.455
G01 X201.210 Y293.358
G01 X202.912 Y295.956
G01 X205.247 Y300.430
G01 X207.911 Y304.845
G01 X208.949 Y306.413
G01 X210.156 Y308.504
G01 X215.059 Y308.739
G01 X219.886 Y308.703
G01 X223.438 Y308.504
G01 X216.797 Y320.006
G01 X213.478 Y314.742
G01 X210.592 Y309.394
G01 X210.156 Y308.504
G01 X215.059 Y308.739
G01 X219.886 Y308.703
G01 X223.438 Y308.504
G01 X227.915 Y308.733
G01 X232.351 Y308.731
G01 X236.719 Y308.504
G01 X230.078 Y320.006
G01 X226.519 Y314.335
G01 X223.465 Y308.561
G01 X223.438 Y308.504
G01 X218.675 Y308.737
G01 X213.827 Y308.706
G01 X210.156 Y308.504
G01 X212.971 Y313.863
G01 X216.218 Y319.143
G01 X216.797 Y320.006
G01 X221.971 Y320.220
G01 X227.085 Y320.164
G01 X230.078 Y320.006
G01 X223.438 Y331.508
G01 X219.578 Y325.258
G01 X216.797 Y320.006
G01 X213.478 Y314.742
G01 X210.592 Y309.394
G01 X210.156 Y308.504
G01 X207.303 Y303.990
G01 X204.794 Y299.409
G01 X204.119 Y298.048
G01 X201.588 Y294.096
G01 X199.332 Y290.081
G01 X198.082 Y287.591
G01 X196.875 Y285.500
G01 X191.144 Y285.726
G01 X185.269 Y285.533
G01 X184.801 Y285.500
G01 X177.718 Y285.782
G01 X170.460 Y285.511
G01 X170.313 Y285.500
G01 X161.395 Y285.725
G01 X155.824 Y285.500
G01 X144.898 Y285.548
G01 X143.750 Y285.500
G01 X146.556 Y290.893
G01 X149.636 Y296.161
G01 X152.202 Y300.139
G01 X155.108 Y305.713
G01 X158.328 Y311.186
G01 X160.653 Y314.778
G01 X163.777 Y320.737
G01 X167.274 Y326.607
G01 X169.105 Y329.416
G01 X170.313 Y331.508
G01 X178.115 Y331.686
G01 X183.594 Y331.508
G01 X176.953 Y343.009
G01 X173.018 Y336.530
G01 X170.313 Y331.508
G01 X178.115 Y331.686
G01 X183.594 Y331.508
G01 X190.602 Y331.699
G01 X196.875 Y331.508
G01 X190.234 Y343.009
G01 X186.306 Y336.566
G01 X183.594 Y331.508
G01 X175.918 Y331.686
G01 X170.313 Y331.508
G01 X173.899 Y338.059
G01 X176.953 Y343.009
G01 X184.707 Y343.178
G01 X190.234 Y343.009
G01 X183.594 Y354.511
G01 X179.314 Y347.411
G01 X176.953 Y343.009
G01 X173.018 Y336.530
G01 X170.313 Y331.508
G01 X178.036 Y331.804
G01 X185.592 Y331.613
G01 X187.216 Y331.508
G01 X194.091 Y331.592
G01 X196.875 Y331.508
G01 X203.243 Y331.705
G01 X209.500 Y331.545
G01 X210.156 Y331.508
G01 X203.516 Y343.010
G01 X199.518 Y336.461
G01 X196.875 Y331.508
G01 X203.243 Y331.705
G01 X209.500 Y331.545
G01 X210.156 Y331.508
G01 X216.036 Y331.706
G01 X221.839 Y331.593
G01 X223.438 Y331.508
G01 X216.797 Y343.009
G01 X212.624 Y336.161
G01 X210.156 Y331.508
G01 X203.912 Y331.705
G01 X197.555 Y331.546
G01 X196.875 Y331.508
G01 X200.480 Y338.129
G01 X203.516 Y343.010
G01 X210.109 Y343.191
G01 X216.606 Y343.020
G01 X216.797 Y343.009
G01 X210.156 Y354.511
G01 X205.662 Y347.052
G01 X203.516 Y343.010
G01 X199.518 Y336.461
G01 X196.875 Y331.508
G01 X189.938 Y331.808
G01 X182.848 Y331.681
G01 X179.972 Y331.508
G01 X172.131 Y331.566
G01 X170.313 Y331.508
G01 X173.835 Y338.157
G01 X177.822 Y344.715
G01 X178.764 Y346.146
G01 X182.892 Y353.379
G01 X183.594 Y354.511
G01 X191.435 Y354.669
G01 X196.875 Y354.511
G01 X190.234 Y366.013
G01 X185.548 Y358.170
G01 X183.594 Y354.511
G01 X191.435 Y354.669
G01 X196.875 Y354.511
G01 X204.187 Y354.675
G01 X210.156 Y354.511
G01 X203.516 Y366.013
G01 X198.694 Y357.933
G01 X196.875 Y354.511
G01 X189.135 Y354.669
G01 X183.594 Y354.511
G01 X187.993 Y362.407
G01 X190.234 Y366.013
G01 X198.269 Y366.159
G01 X203.516 Y366.013
G01 X196.875 Y377.515
G01 X191.721 Y368.808
G01 X190.234 Y366.013
G01 X185.548 Y358.170
G01 X183.594 Y354.511
G01 X179.248 Y347.526
G01 X175.424 Y340.439
G01 X175.142 Y339.873
G01 X171.358 Y333.447
G01 X170.313 Y331.508
G01 X166.591 Y325.613
G01 X163.252 Y319.620
G01 X161.861 Y316.869
G01 X158.403 Y311.425
G01 X155.266 Y305.870
G01 X153.409 Y302.230
G01 X150.108 Y297.047
G01 X147.081 Y291.731
G01 X144.957 Y287.591
G01 X143.750 Y285.500
G01 X154.341 Y285.784
G01 X161.047 Y285.500
G01 X169.393 Y285.762
G01 X175.872 Y285.500
G01 X182.625 Y285.714
G01 X188.227 Y285.500
G01 X193.798 Y285.743
G01 X199.238 Y285.596
G01 X200.581 Y285.500
G01 X205.203 Y285.755
G01 X209.727 Y285.712
G01 X212.936 Y285.500
G01 X216.836 Y285.752
G01 X220.669 Y285.775
G01 X224.422 Y285.578
G01 X225.291 Y285.500
G01 X228.692 Y285.741
G01 X232.056 Y285.800
G01 X235.374 Y285.683
G01 X237.645 Y285.500
G01 X240.771 Y285.730
G01 X243.890 Y285.804
G01 X246.993 Y285.725
G01 X250.000 Y285.500
G01 X253.080 Y285.697
G01 X256.179 Y285.741
G01 X259.291 Y285.632
G01 X261.068 Y285.500
G01 X263.281 Y285.500
G01 X260.857 Y290.151
G01 X258.007 Y294.706
G01 X257.747 Y295.085
G01 X256.641 Y297.002
G01 X252.740 Y290.772
G01 X250.000 Y285.500
G01 X253.080 Y285.697
G01 X256.179 Y285.741
G01 X259.291 Y285.632
G01 X261.068 Y285.500
G01 X263.281 Y285.500
G01 X266.578 Y285.704
G01 X269.926 Y285.733
G01 X273.317 Y285.582
G01 X274.349 Y285.500
G01 X276.562 Y285.500
G01 X274.495 Y289.530
G01 X272.094 Y293.501
G01 X271.029 Y295.085
G01 X269.922 Y297.002
G01 X263.790 Y286.485
G01 X263.281 Y285.500
G01 X260.137 Y285.699
G01 X257.006 Y285.740
G01 X253.896 Y285.626
G01 X252.214 Y285.500
G01 X250.000 Y285.500
G01 X253.384 Y291.889
G01 X256.641 Y297.002
G01 X260.355 Y297.242
G01 X264.109 Y297.294
G01 X267.892 Y297.155
G01 X269.922 Y297.002
G01 X267.213 Y302.249
G01 X264.036 Y307.398
G01 X263.281 Y308.504
G01 X258.096 Y299.811
G01 X256.641 Y297.002
G01 X252.740 Y290.772
G01 X250.000 Y285.500
G01 X253.081 Y285.722
G01 X256.184 Y285.791
G01 X259.301 Y285.706
G01 X262.074 Y285.500
G01 X265.346 Y285.730
G01 X268.668 Y285.786
G01 X272.033 Y285.666
G01 X274.148 Y285.500
G01 X276.562 Y285.500
G01 X280.368 Y285.712
G01 X284.255 Y285.697
G01 X287.630 Y285.500
G01 X289.844 Y285.500
G01 X287.895 Y289.424
G01 X285.655 Y293.302
G01 X283.203 Y297.002
G01 X276.562 Y285.500
G01 X280.368 Y285.712
G01 X284.255 Y285.697
G01 X287.630 Y285.500
G01 X289.844 Y285.500
G01 X294.501 Y285.782
G01 X299.279 Y285.752
G01 X303.125 Y285.500
G01 X301.111 Y289.484
G01 X298.832 Y293.418
G01 X296.484 Y297.002
G01 X289.844 Y285.500
G01 X285.779 Y285.715
G01 X281.792 Y285.685
G01 X278.776 Y285.500
G01 X276.562 Y285.500
G01 X283.203 Y297.002
G01 X287.800 Y297.259
G01 X292.499 Y297.238
G01 X296.484 Y297.002
G01 X294.134 Y301.574
G01 X291.444 Y306.088
G01 X289.844 Y308.504
G01 X283.203 Y297.002
G01 X276.562 Y285.500
G01 X273.098 Y285.735
G01 X269.676 Y285.783
G01 X266.305 Y285.649
G01 X264.489 Y285.500
G01 X261.330 Y285.724
G01 X258.185 Y285.790
G01 X255.060 Y285.700
G01 X252.415 Y285.500
G01 X250.000 Y285.500
G01 X253.379 Y291.782
G01 X256.037 Y295.956
G01 X260.810 Y304.635
G01 X263.281 Y308.504
G01 X267.663 Y308.731
G01 X272.099 Y308.733
G01 X276.562 Y308.504
G01 X273.514 Y314.279
G01 X269.959 Y319.951
G01 X269.922 Y320.006
G01 X263.281 Y308.504
G01 X267.663 Y308.731
G01 X272.099 Y308.733
G01 X276.562 Y308.504
G01 X281.325 Y308.737
G01 X286.173 Y308.706
G01 X289.844 Y308.504
G01 X287.029 Y313.863
G01 X283.782 Y319.143
G01 X283.203 Y320.006
G01 X276.562 Y308.504
G01 X272.085 Y308.733
G01 X267.649 Y308.731
G01 X263.281 Y308.504
G01 X269.922 Y320.006
G01 X274.994 Y320.219
G01 X280.134 Y320.166
G01 X283.203 Y320.006
G01 X279.795 Y326.345
G01 X276.562 Y331.508
G01 X269.922 Y320.006
G01 X263.281 Y308.504
G01 X258.112 Y299.961
G01 X256.037 Y295.956
G01 X252.237 Y289.803
G01 X250.000 Y285.500
G01 X253.081 Y285.722
G01 X256.184 Y285.791
G01 X259.301 Y285.706
G01 X262.074 Y285.500
G01 X265.346 Y285.730
G01 X268.668 Y285.786
G01 X272.033 Y285.666
G01 X274.148 Y285.500
G01 X277.851 Y285.740
G01 X281.635 Y285.764
G01 X285.487 Y285.564
G01 X286.222 Y285.500
G01 X290.601 Y285.744
G01 X295.089 Y285.704
G01 X298.295 Y285.500
G01 X303.125 Y285.500
G01 X308.896 Y285.768
G01 X314.815 Y285.614
G01 X316.406 Y285.500
G01 X314.241 Y289.702
G01 X311.821 Y293.840
G01 X309.766 Y297.002
G01 X303.125 Y285.500
G01 X308.896 Y285.768
G01 X314.815 Y285.614
G01 X316.406 Y285.500
G01 X323.577 Y285.734
G01 X329.687 Y285.500
G01 X327.317 Y290.021
G01 X324.693 Y294.459
G01 X323.047 Y297.002
G01 X316.406 Y285.500
G01 X310.453 Y285.769
G01 X304.640 Y285.612
G01 X303.125 Y285.500
G01 X309.766 Y297.002
G01 X316.233 Y297.241
G01 X322.862 Y297.015
G01 X323.047 Y297.002
G01 X320.509 Y301.818
G01 X317.672 Y306.560
G01 X316.406 Y308.504
G01 X309.766 Y297.002
G01 X303.125 Y285.500
G01 X308.856 Y285.726
G01 X314.731 Y285.533
G01 X315.199 Y285.500
G01 X322.282 Y285.782
G01 X329.540 Y285.511
G01 X329.687 Y285.500
G01 X338.540 Y285.678
G01 X342.969 Y285.500
G01 X340.356 Y290.409
G01 X337.485 Y295.211
G01 X336.328 Y297.002
G01 X329.687 Y285.500
G01 X338.540 Y285.678
G01 X342.969 Y285.500
G01 X353.782 Y285.603
G01 X356.250 Y285.500
G01 X353.369 Y290.844
G01 X350.219 Y296.056
G01 X349.609 Y297.002
G01 X342.969 Y285.500
G01 X334.014 Y285.677
G01 X329.687 Y285.500
G01 X336.328 Y297.002
G01 X345.634 Y297.158
G01 X349.609 Y297.002
G01 X346.663 Y302.462
G01 X343.418 Y307.809
G01 X342.969 Y308.504
G01 X336.328 Y297.002
G01 X329.687 Y285.500
G01 X322.426 Y285.782
G01 X315.340 Y285.511
G01 X315.199 Y285.500
G01 X309.314 Y285.726
G01 X303.570 Y285.533
G01 X303.125 Y285.500
G01 X316.406 Y308.504
G01 X323.588 Y308.714
G01 X329.688 Y308.504
G01 X326.772 Y313.941
G01 X323.511 Y319.294
G01 X323.047 Y320.006
G01 X316.406 Y308.504
G01 X323.588 Y308.714
G01 X329.688 Y308.504
G01 X338.096 Y308.682
G01 X342.969 Y308.504
G01 X339.884 Y314.203
G01 X336.460 Y319.802
G01 X336.328 Y320.006
G01 X329.688 Y308.504
G01 X322.359 Y308.714
G01 X316.406 Y308.504
G01 X323.047 Y320.006
G01 X330.954 Y320.189
G01 X336.328 Y320.006
G01 X333.030 Y326.069
G01 X329.687 Y331.508
G01 X323.047 Y320.006
G01 X316.406 Y308.504
G01 X303.125 Y285.500
G01 X298.235 Y285.743
G01 X293.454 Y285.663
G01 X291.051 Y285.500
G01 X286.938 Y285.746
G01 X282.902 Y285.742
G01 X278.977 Y285.500
G01 X275.426 Y285.737
G01 X271.922 Y285.779
G01 X268.477 Y285.631
G01 X266.903 Y285.500
G01 X263.701 Y285.726
G01 X260.517 Y285.790
G01 X257.361 Y285.693
G01 X254.830 Y285.500
G01 X251.754 Y285.543
G01 X250.000 Y285.500
G01 X253.379 Y291.782
G01 X256.037 Y295.956
G01 X260.810 Y304.635
G01 X263.281 Y308.504
G01 X270.173 Y320.914
G01 X272.940 Y325.234
G01 X276.562 Y331.508
G01 X282.340 Y331.706
G01 X288.200 Y331.595
G01 X289.844 Y331.508
G01 X286.065 Y338.433
G01 X283.203 Y343.009
G01 X276.562 Y331.508
G01 X282.340 Y331.706
G01 X288.200 Y331.595
G01 X289.844 Y331.508
G01 X296.088 Y331.705
G01 X302.445 Y331.546
G01 X303.125 Y331.508
G01 X299.520 Y338.129
G01 X296.484 Y343.010
G01 X289.844 Y331.508
G01 X283.964 Y331.706
G01 X278.161 Y331.593
G01 X276.562 Y331.508
G01 X283.203 Y343.009
G01 X289.698 Y343.191
G01 X296.288 Y343.020
G01 X296.484 Y343.010
G01 X292.328 Y350.534
G01 X289.844 Y354.511
G01 X283.203 Y343.009
G01 X276.562 Y331.508
G01 X282.350 Y331.738
G01 X288.223 Y331.658
G01 X291.051 Y331.508
G01 X297.331 Y331.671
G01 X303.125 Y331.508
G01 X310.002 Y331.699
G01 X316.406 Y331.508
G01 X312.853 Y338.023
G01 X309.766 Y343.009
G01 X303.125 Y331.508
G01 X310.002 Y331.699
G01 X316.406 Y331.508
G01 X324.082 Y331.686
G01 X329.687 Y331.508
G01 X326.101 Y338.059
G01 X323.047 Y343.009
G01 X316.406 Y331.508
G01 X309.398 Y331.699
G01 X303.125 Y331.508
G01 X309.766 Y343.009
G01 X317.403 Y343.179
G01 X323.047 Y343.009
G01 X319.093 Y350.172
G01 X316.406 Y354.511
G01 X309.766 Y343.009
G01 X303.125 Y331.508
G01 X296.772 Y331.740
G01 X290.526 Y331.615
G01 X288.636 Y331.508
G01 X282.783 Y331.674
G01 X277.008 Y331.531
G01 X276.562 Y331.508
G01 X288.388 Y352.033
G01 X288.636 Y352.420
G01 X289.844 Y354.511
G01 X297.063 Y354.676
G01 X303.125 Y354.511
G01 X298.586 Y362.646
G01 X296.484 Y366.013
G01 X289.844 Y354.511
G01 X297.063 Y354.676
G01 X303.125 Y354.511
G01 X310.865 Y354.669
G01 X316.406 Y354.511
G01 X312.007 Y362.407
G01 X309.766 Y366.013
G01 X303.125 Y354.511
G01 X295.813 Y354.675
G01 X289.844 Y354.511
G01 X296.484 Y366.013
G01 X304.434 Y366.159
G01 X309.766 Y366.013
G01 X304.841 Y374.764
G01 X303.125 Y377.515
G01 X296.484 Y366.013
G01 X289.844 Y354.511
G01 X277.770 Y333.599
G01 X276.562 Y331.508
G01 X268.249 Y317.383
G01 X266.903 Y314.778
G01 X260.978 Y305.020
G01 X258.452 Y300.139
G01 X254.233 Y293.418
G01 X251.207 Y287.591
G01 X250.000 Y285.500
G01 X246.918 Y285.729
G01 X243.814 Y285.805
G01 X240.695 Y285.726
G01 X237.645 Y285.500
G01 X234.365 Y285.737
G01 X231.031 Y285.801
G01 X227.655 Y285.686
G01 X225.291 Y285.500
G01 X221.557 Y285.749
G01 X217.742 Y285.778
G01 X213.857 Y285.580
G01 X212.936 Y285.500
G01 X208.494 Y285.753
G01 X203.942 Y285.715
G01 X200.581 Y285.500
G01 X195.178 Y285.742
G01 X189.637 Y285.598
G01 X188.227 Y285.500
G01 X181.515 Y285.804
G01 X174.634 Y285.592
G01 X173.401 Y285.500
G01 X164.885 Y285.752
G01 X158.576 Y285.500
G01 X147.906 Y285.673
G01 X143.750 Y285.500
G01 X146.548 Y290.899
G01 X149.620 Y296.173
G01 X152.398 Y300.479
G01 X155.301 Y306.067
G01 X158.519 Y311.554
G01 X161.047 Y315.458
G01 X164.176 Y321.449
G01 X167.682 Y327.351
G01 X169.695 Y330.438
G01 X173.179 Y337.045
G01 X177.124 Y343.563
G01 X178.343 Y345.417
G01 X182.316 Y352.853
G01 X186.851 Y360.185
G01 X186.991 Y360.396
G01 X191.588 Y368.870
G01 X195.640 Y375.375
G01 X196.875 Y377.515
G01 X205.184 Y377.648
G01 X210.156 Y377.515
G01 X203.516 Y389.017
G01 X197.833 Y379.322
G01 X196.875 Y377.515
G01 X205.184 Y377.648
G01 X210.156 Y377.515
G01 X218.122 Y377.652
G01 X223.438 Y377.515
G01 X216.797 Y389.017
G01 X210.812 Y378.758
G01 X210.156 Y377.515
G01 X201.915 Y377.648
G01 X196.875 Y377.515
G01 X202.404 Y387.240
G01 X203.516 Y389.017
G01 X212.164 Y389.137
G01 X216.797 Y389.017
G01 X210.156 Y400.519
G01 X203.883 Y389.713
G01 X203.516 Y389.017
G01 X197.833 Y379.322
G01 X196.875 Y377.515
G01 X205.137 Y377.809
G01 X213.299 Y377.669
G01 X216.193 Y377.515
G01 X223.438 Y377.515
G01 X231.170 Y377.654
G01 X236.719 Y377.515
G01 X230.078 Y389.017
G01 X223.645 Y377.911
G01 X223.438 Y377.515
G01 X231.170 Y377.654
G01 X236.719 Y377.515
G01 X244.328 Y377.655
G01 X250.000 Y377.515
G01 X243.359 Y389.017
G01 X236.719 Y377.515
G01 X229.021 Y377.654
G01 X223.438 Y377.515
G01 X229.834 Y388.630
G01 X230.078 Y389.017
G01 X238.294 Y389.142
G01 X243.359 Y389.017
G01 X236.719 Y400.519
G01 X230.078 Y389.017
G01 X223.645 Y377.911
G01 X223.438 Y377.515
G01 X215.491 Y377.807
G01 X207.452 Y377.687
G01 X204.119 Y377.515
G01 X196.875 Y377.515
G01 X202.323 Y387.519
G01 X206.534 Y394.245
G01 X210.156 Y400.519
G01 X219.198 Y400.627
G01 X223.437 Y400.519
G01 X216.797 Y412.021
G01 X210.156 Y400.519
G01 X219.198 Y400.627
G01 X223.437 Y400.519
G01 X232.278 Y400.630
G01 X236.719 Y400.519
G01 X230.078 Y412.021
G01 X223.437 Y400.519
G01 X214.434 Y400.627
G01 X210.156 Y400.519
G01 X216.797 Y412.021
G01 X226.276 Y412.116
G01 X230.078 Y412.021
G01 X223.438 Y423.523
G01 X216.797 Y412.021
G01 X210.156 Y400.519
G01 X203.796 Y390.028
G01 X200.497 Y383.789
G01 X196.875 Y377.515
G01 X205.137 Y377.809
G01 X213.299 Y377.669
G01 X216.193 Y377.515
G01 X224.014 Y377.806
G01 X231.782 Y377.703
G01 X235.511 Y377.515
G01 X243.126 Y377.684
G01 X250.000 Y377.515
G01 X257.598 Y377.655
G01 X263.281 Y377.515
G01 X256.641 Y389.017
G01 X250.000 Y377.515
G01 X257.598 Y377.655
G01 X263.281 Y377.515
G01 X270.979 Y377.654
G01 X276.562 Y377.515
G01 X270.166 Y388.630
G01 X269.922 Y389.017
G01 X263.281 Y377.515
G01 X255.672 Y377.655
G01 X250.000 Y377.515
G01 X256.641 Y389.017
G01 X264.837 Y389.143
G01 X269.922 Y389.017
G01 X263.281 Y400.519
G01 X256.641 Y389.017
G01 X250.000 Y377.515
G01 X257.605 Y377.803
G01 X265.238 Y377.716
G01 X269.318 Y377.515
G01 X276.562 Y377.515
G01 X284.475 Y377.652
G01 X289.844 Y377.515
G01 X283.969 Y387.798
G01 X283.203 Y389.017
G01 X276.562 Y377.515
G01 X284.475 Y377.652
G01 X289.844 Y377.515
G01 X298.085 Y377.648
G01 X303.125 Y377.515
G01 X297.596 Y387.240
G01 X296.484 Y389.017
G01 X289.844 Y377.515
G01 X281.878 Y377.652
G01 X276.562 Y377.515
G01 X283.203 Y389.017
G01 X291.800 Y389.138
G01 X296.484 Y389.017
G01 X290.272 Y399.836
G01 X289.844 Y400.519
G01 X283.203 Y389.017
G01 X276.562 Y377.515
G01 X268.848 Y377.804
G01 X261.169 Y377.711
G01 X257.244 Y377.515
G01 X250.000 Y377.515
G01 X258.319 Y392.334
G01 X260.866 Y396.336
G01 X263.281 Y400.519
G01 X272.097 Y400.630
G01 X276.563 Y400.519
G01 X269.922 Y412.021
G01 X263.281 Y400.519
G01 X272.097 Y400.630
G01 X276.563 Y400.519
G01 X285.566 Y400.627
G01 X289.844 Y400.519
G01 X283.203 Y412.021
G01 X276.563 Y400.519
G01 X267.722 Y400.630
G01 X263.281 Y400.519
G01 X269.922 Y412.021
G01 X279.375 Y412.117
G01 X283.203 Y412.021
G01 X276.562 Y423.523
G01 X269.922 Y412.021
G01 X263.281 Y400.519
G01 X254.147 Y385.030
G01 X252.415 Y381.698
G01 X250.000 Y377.515
G01 X242.395 Y377.803
G01 X234.762 Y377.716
G01 X230.682 Y377.515
G01 X222.874 Y377.806
G01 X214.991 Y377.699
G01 X211.364 Y377.515
G01 X203.148 Y377.681
G01 X196.875 Y377.515
G01 X202.323 Y387.519
G01 X206.534 Y394.245
G01 X213.017 Y405.924
G01 X216.193 Y410.975
G01 X223.438 Y423.523
G01 X233.390 Y423.605
G01 X236.719 Y423.523
G01 X230.078 Y435.025
G01 X223.438 Y423.523
G01 X233.390 Y423.605
G01 X236.719 Y423.523
G01 X246.579 Y423.607
G01 X250.000 Y423.523
G01 X243.359 Y435.025
G01 X236.719 Y423.523
G01 X226.783 Y423.606
G01 X223.438 Y423.523
G01 X230.078 Y435.025
G01 X240.535 Y435.094
G01 X243.359 Y435.025
G01 X236.719 Y446.527
G01 X230.078 Y435.025
G01 X223.438 Y423.523
G01 X233.372 Y423.815
G01 X243.272 Y423.617
G01 X245.170 Y423.523
G01 X250.000 Y423.523
G01 X259.855 Y423.607
G01 X263.281 Y423.523
G01 X256.641 Y435.025
G01 X250.000 Y423.523
G01 X259.855 Y423.607
G01 X263.281 Y423.523
G01 X273.217 Y423.606
G01 X276.562 Y423.523
G01 X269.922 Y435.025
G01 X263.281 Y423.523
G01 X253.421 Y423.607
G01 X250.000 Y423.523
G01 X256.641 Y435.025
G01 X267.089 Y435.094
G01 X269.922 Y435.025
G01 X263.281 Y446.527
G01 X256.641 Y435.025
G01 X250.000 Y423.523
G01 X240.135 Y423.815
G01 X230.241 Y423.620
G01 X228.267 Y423.523
G01 X223.438 Y423.523
G01 X232.124 Y438.897
G01 X234.304 Y442.344
G01 X236.719 Y446.527
G01 X247.706 Y446.583
G01 X250.000 Y446.527
G01 X243.359 Y458.028
G01 X236.719 Y446.527
G01 X247.706 Y446.583
G01 X250.000 Y446.527
G01 X260.984 Y446.583
G01 X263.281 Y446.527
G01 X256.641 Y458.028
G01 X250.000 Y446.527
G01 X239.016 Y446.583
G01 X236.719 Y446.527
G01 X243.359 Y458.028
G01 X254.900 Y458.071
G01 X256.641 Y458.028
G01 X250.000 Y469.530
G01 X243.359 Y458.028
G01 X236.719 Y446.527
G01 X227.395 Y430.652
G01 X225.852 Y427.705
G01 X223.438 Y423.523
G01 X215.700 Y410.653
G01 X212.571 Y404.702
G01 X205.984 Y393.788
G01 X202.912 Y387.971
G01 X197.299 Y378.315
G01 X196.875 Y377.515
G01 X191.654 Y368.975
G01 X188.227 Y362.536
G01 X183.599 Y355.071
G01 X179.578 Y347.557
G01 X175.441 Y340.962
G01 X171.776 Y334.269
G01 X170.930 Y332.578
G01 X167.178 Y326.652
G01 X163.813 Y320.627
G01 X162.282 Y317.598
G01 X158.806 Y312.144
G01 X155.652 Y306.578
G01 X153.634 Y302.619
G01 X150.322 Y297.437
G01 X147.285 Y292.123
G01 X144.985 Y287.640
G01 X143.750 Y285.500
G01 X154.327 Y285.793
G01 X161.250 Y285.500
G01 X169.562 Y285.770
G01 X176.250 Y285.500
G01 X182.957 Y285.721
G01 X188.750 Y285.500
G01 X194.272 Y285.749
G01 X199.664 Y285.613
G01 X201.250 Y285.500
G01 X205.823 Y285.760
G01 X210.301 Y285.726
G01 X213.750 Y285.500
G01 X217.608 Y285.756
G01 X221.401 Y285.787
G01 X225.118 Y285.600
G01 X226.250 Y285.500
G01 X229.620 Y285.743
G01 X232.957 Y285.809
G01 X236.250 Y285.700
G01 X238.750 Y285.500
G01 X241.862 Y285.733
G01 X244.969 Y285.812
G01 X248.065 Y285.737
G01 X251.141 Y285.511
G01 X251.250 Y285.500
G01 X254.341 Y285.733
G01 X257.457 Y285.812
G01 X260.592 Y285.735
G01 X263.737 Y285.501
G01 X263.750 Y285.500
G01 X267.070 Y285.742
G01 X270.447 Y285.807
G01 X273.870 Y285.690
G01 X276.250 Y285.500
G01 X280.060 Y285.754
G01 X283.956 Y285.781
G01 X287.925 Y285.573
G01 X288.750 Y285.500
G01 X293.312 Y285.757
G01 X297.988 Y285.711
G01 X301.250 Y285.500
G01 X306.822 Y285.744
G01 X312.535 Y285.586
G01 X313.750 Y285.500
G01 X320.689 Y285.805
G01 X327.802 Y285.572
G01 X328.750 Y285.500
G01 X337.566 Y285.749
G01 X343.750 Y285.500
G01 X354.636 Y285.568
G01 X356.250 Y285.500
G01 X350.748 Y275.789
G01 X349.609 Y273.998
G01 X362.891 Y273.998
G01 X360.006 Y279.350
G01 X356.868 Y284.541
G01 X356.250 Y285.500
G01 X350.748 Y275.789
G01 X349.609 Y273.998
G01 X345.171 Y265.969
G01 X342.969 Y262.496
G01 X356.250 Y262.496
G01 X353.627 Y267.423
G01 X350.778 Y272.189
G01 X349.609 Y273.998
G01 X355.246 Y283.578
G01 X356.250 Y285.500
G01 X359.434 Y280.340
G01 X362.367 Y275.017
G01 X362.891 Y273.998
G01 X358.232 Y265.630
G01 X356.250 Y262.496
G01 X369.531 Y262.496
G01 X366.573 Y267.976
G01 X363.367 Y273.261
G01 X362.891 Y273.998
G01 X360.006 Y279.350
G01 X356.868 Y284.541
G01 X356.250 Y285.500
G01 X351.022 Y275.932
G01 X347.798 Y270.861
G01 X343.381 Y263.147
G01 X342.969 Y262.496
G01 X339.435 Y255.914
G01 X336.328 Y250.994
G01 X349.609 Y250.994
G01 X347.220 Y255.548
G01 X344.626 Y259.936
G01 X342.969 Y262.496
G01 X339.435 Y255.914
G01 X336.328 Y250.994
G01 X333.540 Y245.626
G01 X330.443 Y240.601
G01 X329.687 Y239.492
G01 X342.969 Y239.492
G01 X340.776 Y243.744
G01 X338.393 Y247.820
G01 X336.328 Y250.994
G01 X340.191 Y257.223
G01 X342.969 Y262.496
G01 X345.681 Y258.213
G01 X348.195 Y253.758
G01 X349.609 Y250.994
G01 X346.463 Y245.066
G01 X342.986 Y239.517
G01 X342.969 Y239.492
G01 X356.250 Y239.492
G01 X353.688 Y244.351
G01 X350.910 Y249.000
G01 X349.609 Y250.994
G01 X347.220 Y255.548
G01 X344.626 Y259.936
G01 X342.969 Y262.496
G01 X347.880 Y270.380
G01 X351.420 Y277.135
G01 X356.250 Y285.500
G01 X359.513 Y280.381
G01 X362.529 Y275.092
G01 X364.702 Y270.861
G01 X367.882 Y265.526
G01 X369.531 Y262.496
G01 X365.368 Y254.934
G01 X362.891 Y250.994
G01 X376.172 Y250.994
G01 X373.072 Y256.720
G01 X369.717 Y262.210
G01 X369.531 Y262.496
G01 X365.368 Y254.934
G01 X362.891 Y250.994
G01 X359.377 Y244.488
G01 X356.250 Y239.492
G01 X369.531 Y239.492
G01 X366.596 Y244.964
G01 X363.416 Y250.189
G01 X362.891 Y250.994
G01 X367.301 Y258.280
G01 X369.531 Y262.496
G01 X372.899 Y257.019
G01 X376.013 Y251.306
G01 X376.172 Y250.994
G01 X372.285 Y243.897
G01 X369.531 Y239.492
G01 X382.813 Y239.492
G01 X379.500 Y245.581
G01 X376.172 Y250.994
G01 X373.072 Y256.720
G01 X369.717 Y262.210
G01 X369.531 Y262.496
G01 X366.659 Y268.009
G01 X363.535 Y273.335
G01 X361.080 Y277.135
G01 X358.125 Y282.430
G01 X356.250 Y285.500
G01 X351.022 Y275.932
G01 X347.798 Y270.861
G01 X343.702 Y263.285
G01 X340.554 Y258.314
G01 X337.379 Y252.223
G01 X333.835 Y246.533
G01 X333.310 Y245.766
G01 X330.512 Y240.807
G01 X329.687 Y239.492
G01 X327.488 Y235.107
G01 X325.058 Y230.979
G01 X323.047 Y227.991
G01 X336.328 Y227.991
G01 X334.280 Y232.038
G01 X332.046 Y235.897
G01 X329.687 Y239.492
G01 X327.488 Y235.107
G01 X325.058 Y230.979
G01 X323.047 Y227.991
G01 X321.204 Y224.362
G01 X319.186 Y220.926
G01 X317.513 Y218.406
G01 X316.406 Y216.489
G01 X329.687 Y216.489
G01 X327.622 Y220.481
G01 X325.363 Y224.254
G01 X324.154 Y226.074
G01 X323.047 Y227.991
G01 X325.642 Y231.914
G01 X328.020 Y236.103
G01 X329.687 Y239.492
G01 X332.090 Y235.826
G01 X334.320 Y231.964
G01 X336.328 Y227.991
G01 X334.171 Y223.729
G01 X331.810 Y219.691
G01 X329.687 Y216.489
G01 X342.969 Y216.489
G01 X340.591 Y221.112
G01 X337.991 Y225.486
G01 X336.328 Y227.991
G01 X334.280 Y232.038
G01 X332.046 Y235.897
G01 X329.687 Y239.492
G01 X327.435 Y235.099
G01 X324.951 Y230.968
G01 X323.651 Y229.036
G01 X321.810 Y225.348
G01 X319.789 Y221.855
G01 X317.614 Y218.580
G01 X316.406 Y216.489
G01 X314.871 Y213.406
G01 X313.196 Y210.458
G01 X311.391 Y207.651
G01 X310.872 Y206.904
G01 X309.766 Y204.987
G01 X322.555 Y204.963
G01 X323.047 Y204.987
G01 X320.893 Y209.168
G01 X318.512 Y213.093
G01 X317.513 Y214.572
G01 X316.406 Y216.489
G01 X314.871 Y213.406
G01 X313.196 Y210.458
G01 X311.391 Y207.651
G01 X310.872 Y206.904
G01 X309.766 Y204.987
G01 X308.402 Y202.221
G01 X306.911 Y199.546
G01 X305.300 Y196.966
G01 X304.232 Y195.402
G01 X303.125 Y193.485
G01 X310.403 Y193.222
G01 X316.406 Y193.485
G01 X313.900 Y198.278
G01 X311.093 Y202.750
G01 X310.872 Y203.070
G01 X309.766 Y204.987
G01 X311.569 Y207.695
G01 X313.247 Y210.537
G01 X314.793 Y213.507
G01 X315.299 Y214.572
G01 X316.406 Y216.489
G01 X318.782 Y212.828
G01 X320.952 Y208.919
G01 X321.940 Y206.904
G01 X323.047 Y204.987
G01 X321.391 Y201.629
G01 X319.584 Y198.389
G01 X317.633 Y195.275
G01 X316.406 Y193.485
G01 X326.645 Y193.347
G01 X329.688 Y193.485
G01 X327.002 Y198.705
G01 X324.005 Y203.587
G01 X323.047 Y204.987
G01 X320.893 Y209.168
G01 X318.512 Y213.093
G01 X317.513 Y214.572
G01 X316.406 Y216.489
G01 X318.523 Y219.663
G01 X320.484 Y223.031
G01 X322.275 Y226.582
G01 X322.443 Y226.945
G01 X324.944 Y230.784
G01 X327.236 Y234.877
G01 X328.480 Y237.401
G01 X329.687 Y239.492
G01 X332.054 Y235.821
G01 X334.248 Y231.956
G01 X335.724 Y229.036
G01 X338.375 Y224.875
G01 X340.818 Y220.468
G01 X341.761 Y218.580
G01 X342.969 Y216.489
G01 X340.739 Y212.150
G01 X338.312 Y208.013
G01 X336.328 Y204.987
G01 X349.609 Y204.987
G01 X346.787 Y210.364
G01 X343.686 Y215.420
G01 X342.969 Y216.489
G01 X340.739 Y212.150
G01 X338.312 Y208.013
G01 X336.328 Y204.987
G01 X334.317 Y201.039
G01 X332.129 Y197.245
G01 X329.774 Y193.611
G01 X329.688 Y193.485
G01 X342.969 Y193.485
G01 X339.940 Y199.235
G01 X336.581 Y204.615
G01 X336.328 Y204.987
G01 X338.897 Y208.962
G01 X341.279 Y213.146
G01 X342.969 Y216.489
G01 X346.128 Y211.505
G01 X349.013 Y206.197
G01 X349.609 Y204.987
G01 X347.235 Y200.439
G01 X344.657 Y196.080
G01 X342.969 Y193.485
G01 X356.250 Y193.485
G01 X352.863 Y199.796
G01 X349.609 Y204.987
G01 X346.787 Y210.364
G01 X343.686 Y215.420
G01 X342.969 Y216.489
G01 X340.547 Y221.113
G01 X337.902 Y225.484
G01 X336.932 Y226.945
G01 X334.820 Y231.034
G01 X332.521 Y234.926
G01 X330.895 Y237.401
G01 X329.687 Y239.492
G01 X332.794 Y244.421
G01 X335.599 Y249.691
G01 X335.724 Y249.949
G01 X339.584 Y256.074
G01 X342.969 Y262.496
G01 X347.880 Y270.380
G01 X351.420 Y277.135
G01 X356.250 Y285.500
G01 X359.513 Y280.381
G01 X362.529 Y275.092
G01 X364.702 Y270.861
G01 X368.057 Y265.589
G01 X371.169 Y260.101
G01 X373.153 Y256.222
G01 X376.720 Y250.593
G01 X380.025 Y244.693
G01 X381.605 Y241.584
G01 X382.813 Y239.492
G01 X379.056 Y232.627
G01 X376.172 Y227.991
G01 X389.453 Y227.991
G01 X385.859 Y234.556
G01 X382.813 Y239.492
G01 X379.056 Y232.627
G01 X376.172 Y227.991
G01 X372.836 Y221.826
G01 X369.531 Y216.489
G01 X382.813 Y216.489
G01 X379.256 Y223.013
G01 X376.172 Y227.991
G01 X380.176 Y234.566
G01 X382.813 Y239.492
G01 X386.646 Y233.193
G01 X389.453 Y227.991
G01 X385.725 Y221.193
G01 X382.813 Y216.489
G01 X396.094 Y216.489
G01 X392.144 Y223.646
G01 X389.453 Y227.991
G01 X385.859 Y234.556
G01 X382.813 Y239.492
G01 X379.200 Y232.638
G01 X375.245 Y226.178
G01 X374.361 Y224.854
G01 X371.000 Y218.862
G01 X369.531 Y216.489
G01 X366.533 Y210.895
G01 X363.279 Y205.579
G01 X362.891 Y204.987
G01 X376.172 Y204.987
G01 X372.573 Y211.602
G01 X369.531 Y216.489
G01 X366.533 Y210.895
G01 X363.279 Y205.579
G01 X362.891 Y204.987
G01 X360.147 Y199.832
G01 X357.173 Y194.902
G01 X356.250 Y193.485
G01 X369.531 Y193.485
G01 X365.778 Y200.374
G01 X362.891 Y204.987
G01 X366.172 Y210.270
G01 X369.201 Y215.833
G01 X369.531 Y216.489
G01 X373.394 Y210.182
G01 X376.172 Y204.987
G01 X373.055 Y199.220
G01 X369.681 Y193.714
G01 X369.531 Y193.485
G01 X382.813 Y193.485
G01 X378.687 Y200.964
G01 X376.172 Y204.987
G01 X372.573 Y211.602
G01 X369.531 Y216.489
G01 X373.261 Y222.343
G01 X376.696 Y228.547
G01 X377.983 Y231.127
G01 X381.966 Y237.910
G01 X382.813 Y239.492
G01 X386.762 Y233.202
G01 X390.405 Y226.563
G01 X391.264 Y224.854
G01 X395.407 Y217.768
G01 X396.094 Y216.489
G01 X392.321 Y209.636
G01 X389.453 Y204.987
G01 X402.734 Y204.987
G01 X398.356 Y212.850
G01 X396.094 Y216.489
G01 X392.321 Y209.636
G01 X389.453 Y204.987
G01 X385.960 Y198.604
G01 X382.813 Y193.485
G01 X396.094 Y193.485
G01 X391.592 Y201.563
G01 X389.453 Y204.987
G01 X393.450 Y211.590
G01 X396.094 Y216.489
G01 X400.666 Y208.852
G01 X402.734 Y204.987
G01 X398.862 Y197.985
G01 X396.094 Y193.485
G01 X409.375 Y193.485
G01 X404.494 Y202.168
G01 X402.734 Y204.987
G01 X398.356 Y212.850
G01 X396.094 Y216.489
G01 X392.275 Y223.647
G01 X388.114 Y230.415
G01 X387.642 Y231.127
G01 X384.017 Y237.539
G01 X382.813 Y239.492
G01 X379.605 Y245.599
G01 X376.124 Y251.432
G01 X374.361 Y254.131
G01 X371.398 Y259.806
G01 X368.181 Y265.266
G01 X365.909 Y268.770
G01 X363.081 Y274.202
G01 X360.001 Y279.467
G01 X357.457 Y283.409
G01 X356.250 Y285.500
G01 X351.052 Y275.948
G01 X347.602 Y270.521
G01 X343.555 Y262.998
G01 X340.189 Y257.681
G01 X336.933 Y251.618
G01 X334.012 Y246.982
G01 X331.401 Y241.972
G01 X328.510 Y237.277
G01 X327.834 Y236.283
G01 X325.733 Y232.127
G01 X323.418 Y228.210
G01 X321.657 Y225.583
G01 X319.935 Y222.087
G01 X318.046 Y218.766
G01 X316.005 Y215.628
G01 X315.480 Y214.884
G01 X314.013 Y211.853
G01 X312.408 Y208.946
G01 X310.675 Y206.169
G01 X309.302 Y204.184
G01 X307.976 Y201.421
G01 X306.522 Y198.742
G01 X304.945 Y196.153
G01 X303.251 Y193.660
G01 X303.125 Y193.485
G01 X301.802 Y190.796
G01 X300.343 Y188.166
G01 X298.750 Y185.602
G01 X297.591 Y183.900
G01 X296.484 Y181.983
G01 X301.648 Y181.752
G01 X306.939 Y181.935
G01 X307.552 Y181.983
G01 X309.766 Y181.983
G01 X306.519 Y188.162
G01 X303.125 Y193.485
G01 X301.802 Y190.796
G01 X300.343 Y188.166
G01 X298.750 Y185.602
G01 X297.591 Y183.900
G01 X296.484 Y181.983
G01 X295.067 Y179.117
G01 X293.480 Y176.293
G01 X291.722 Y173.520
G01 X290.951 Y172.398
G01 X289.844 Y170.481
G01 X294.259 Y170.252
G01 X298.787 Y170.334
G01 X300.911 Y170.481
G01 X303.125 Y170.481
G01 X297.438 Y180.498
G01 X296.484 Y181.983
G01 X298.181 Y184.521
G01 X299.741 Y187.126
G01 X301.163 Y189.791
G01 X302.018 Y191.568
G01 X303.125 Y193.485
G01 X306.788 Y187.696
G01 X309.766 Y181.983
G01 X308.167 Y178.730
G01 X306.392 Y175.536
G01 X304.442 Y172.411
G01 X303.125 Y170.481
G01 X308.934 Y170.198
G01 X314.890 Y170.366
G01 X316.406 Y170.481
G01 X311.715 Y178.935
G01 X309.766 Y181.983
G01 X306.519 Y188.162
G01 X303.125 Y193.485
G01 X301.823 Y190.783
G01 X300.383 Y188.138
G01 X298.809 Y185.557
G01 X297.101 Y183.047
G01 X297.088 Y183.029
G01 X295.705 Y180.171
G01 X294.154 Y177.354
G01 X292.435 Y174.588
G01 X291.051 Y172.572
G01 X289.844 Y170.481
G01 X288.185 Y167.177
G01 X286.295 Y163.913
G01 X284.310 Y160.896
G01 X283.203 Y158.979
G01 X287.421 Y158.769
G01 X291.737 Y158.823
G01 X294.271 Y158.979
G01 X296.484 Y158.979
G01 X289.844 Y170.481
G01 X288.185 Y167.177
G01 X286.295 Y163.913
G01 X284.310 Y160.896
G01 X283.203 Y158.979
G01 X281.142 Y154.981
G01 X278.765 Y151.036
G01 X277.669 Y149.394
G01 X276.562 Y147.477
G01 X280.907 Y147.226
G01 X285.339 Y147.224
G01 X289.844 Y147.477
G01 X283.203 Y158.979
G01 X285.368 Y162.293
G01 X287.290 Y165.661
G01 X288.737 Y168.564
G01 X289.844 Y170.481
G01 X296.484 Y158.979
G01 X294.469 Y154.968
G01 X292.168 Y151.004
G01 X289.844 Y147.477
G01 X294.863 Y147.223
G01 X300.001 Y147.284
G01 X303.125 Y147.477
G01 X296.484 Y158.979
G01 X289.844 Y170.481
G01 X291.727 Y173.269
G01 X293.434 Y176.113
G01 X294.965 Y179.003
G01 X295.881 Y180.937
G01 X297.606 Y183.474
G01 X299.194 Y186.078
G01 X300.642 Y188.743
G01 X301.918 Y191.394
G01 X303.125 Y193.485
G01 X306.701 Y187.751
G01 X309.162 Y183.029
G01 X314.079 Y174.964
G01 X316.406 Y170.481
G01 X314.465 Y166.660
G01 X312.308 Y162.905
G01 X309.935 Y159.227
G01 X309.766 Y158.979
G01 X316.194 Y158.727
G01 X322.783 Y158.960
G01 X323.047 Y158.979
G01 X316.604 Y170.172
G01 X316.406 Y170.481
G01 X314.465 Y166.660
G01 X312.308 Y162.905
G01 X309.935 Y159.227
G01 X309.766 Y158.979
G01 X307.644 Y154.832
G01 X305.257 Y150.743
G01 X303.125 Y147.477
G01 X309.061 Y147.231
G01 X315.145 Y147.393
G01 X316.406 Y147.477
G01 X309.766 Y158.979
G01 X312.153 Y162.651
G01 X314.325 Y166.402
G01 X316.281 Y170.219
G01 X316.406 Y170.481
G01 X322.876 Y159.310
G01 X323.047 Y158.979
G01 X320.750 Y154.570
G01 X318.195 Y150.234
G01 X316.406 Y147.477
G01 X323.498 Y147.255
G01 X329.688 Y147.477
G01 X323.047 Y158.979
G01 X316.604 Y170.172
G01 X316.406 Y170.481
G01 X311.835 Y178.850
G01 X309.162 Y183.029
G01 X305.929 Y189.086
G01 X303.125 Y193.485
G01 X301.823 Y190.783
G01 X300.383 Y188.138
G01 X298.809 Y185.557
G01 X297.101 Y183.047
G01 X297.088 Y183.029
G01 X295.705 Y180.171
G01 X294.154 Y177.354
G01 X292.435 Y174.588
G01 X291.051 Y172.572
G01 X289.466 Y169.342
G01 X287.661 Y166.149
G01 X285.636 Y163.006
G01 X285.014 Y162.116
G01 X283.096 Y158.298
G01 X280.885 Y154.527
G01 X278.977 Y151.660
G01 X276.562 Y147.477
G01 X273.965 Y142.432
G01 X270.933 Y137.469
G01 X269.922 Y135.975
G01 X274.537 Y135.747
G01 X279.221 Y135.765
G01 X283.203 Y135.975
G01 X276.562 Y147.477
G01 X273.965 Y142.432
G01 X270.933 Y137.469
G01 X269.922 Y135.975
G01 X266.585 Y129.720
G01 X263.281 Y124.473
G01 X268.281 Y124.264
G01 X273.333 Y124.309
G01 X276.563 Y124.473
G01 X269.922 Y135.975
G01 X273.085 Y140.907
G01 X275.816 Y145.930
G01 X276.562 Y147.477
G01 X283.203 Y135.975
G01 X280.233 Y130.345
G01 X276.787 Y124.806
G01 X276.563 Y124.473
G01 X281.893 Y124.260
G01 X287.307 Y124.337
G01 X289.844 Y124.473
G01 X283.203 Y135.975
G01 X276.562 Y147.477
G01 X273.948 Y142.488
G01 X270.906 Y137.582
G01 X270.526 Y137.021
G01 X267.275 Y130.818
G01 X263.463 Y124.739
G01 X263.281 Y124.473
G01 X259.041 Y116.767
G01 X256.641 Y112.972
G01 X262.103 Y112.778
G01 X267.600 Y112.856
G01 X269.922 Y112.972
G01 X263.281 Y124.473
G01 X259.041 Y116.767
G01 X256.641 Y112.972
G01 X251.337 Y103.576
G01 X250.000 Y101.470
G01 X255.979 Y101.290
G01 X261.976 Y101.405
G01 X263.281 Y101.470
G01 X256.641 Y112.972
G01 X261.246 Y120.586
G01 X263.281 Y124.473
G01 X269.922 Y112.972
G01 X265.444 Y104.898
G01 X263.281 Y101.470
G01 X269.384 Y101.290
G01 X275.537 Y101.418
G01 X276.562 Y101.470
G01 X269.922 Y112.972
G01 X263.281 Y124.473
G01 X267.118 Y130.545
G01 X270.393 Y136.744
G01 X270.526 Y137.021
G01 X273.618 Y141.915
G01 X276.282 Y146.896
G01 X276.562 Y147.477
G01 X289.844 Y124.473
G01 X286.493 Y118.240
G01 X283.203 Y112.972
G01 X289.259 Y112.775
G01 X295.413 Y112.913
G01 X296.484 Y112.972
G01 X289.844 Y124.473
G01 X286.493 Y118.240
G01 X283.203 Y112.972
G01 X279.206 Y105.684
G01 X276.562 Y101.470
G01 X282.935 Y101.289
G01 X289.388 Y101.446
G01 X289.844 Y101.470
G01 X283.203 Y112.972
G01 X287.000 Y119.119
G01 X289.844 Y124.473
G01 X296.484 Y112.972
G01 X292.748 Y106.125
G01 X289.844 Y101.470
G01 X296.632 Y101.291
G01 X303.125 Y101.470
G01 X296.484 Y112.972
G01 X289.844 Y124.473
G01 X276.562 Y147.477
G01 X279.167 Y151.493
G01 X281.444 Y155.576
G01 X282.599 Y157.933
G01 X284.815 Y161.273
G01 X286.784 Y164.670
G01 X288.506 Y168.107
G01 X288.636 Y168.390
G01 X290.565 Y171.250
G01 X292.307 Y174.167
G01 X293.863 Y177.127
G01 X294.673 Y178.846
G01 X296.421 Y181.418
G01 X298.025 Y184.054
G01 X299.483 Y186.747
G01 X300.710 Y189.302
G01 X302.243 Y191.867
G01 X303.125 Y193.485
G01 X306.701 Y187.751
G01 X309.162 Y183.029
G01 X314.079 Y174.964
G01 X316.406 Y170.481
G01 X323.218 Y159.011
G01 X324.858 Y155.842
G01 X329.688 Y147.477
G01 X327.026 Y142.466
G01 X324.062 Y137.537
G01 X323.047 Y135.975
G01 X330.828 Y135.781
G01 X336.328 Y135.975
G01 X329.688 Y147.477
G01 X327.026 Y142.466
G01 X324.062 Y137.537
G01 X323.047 Y135.975
G01 X320.154 Y130.565
G01 X316.904 Y125.233
G01 X316.406 Y124.473
G01 X323.830 Y124.281
G01 X329.688 Y124.473
G01 X323.047 Y135.975
G01 X326.108 Y140.874
G01 X328.866 Y145.861
G01 X329.688 Y147.477
G01 X336.328 Y135.975
G01 X333.295 Y130.353
G01 X329.915 Y124.822
G01 X329.688 Y124.473
G01 X338.175 Y124.306
G01 X342.969 Y124.473
G01 X336.328 Y135.975
G01 X329.688 Y147.477
G01 X327.049 Y142.442
G01 X324.106 Y137.486
G01 X322.443 Y134.930
G01 X319.503 Y129.505
G01 X316.406 Y124.473
G01 X313.194 Y118.519
G01 X309.766 Y112.972
G01 X317.070 Y112.787
G01 X323.047 Y112.972
G01 X316.406 Y124.473
G01 X313.194 Y118.519
G01 X309.766 Y112.972
G01 X306.143 Y106.331
G01 X303.125 Y101.470
G01 X310.478 Y101.297
G01 X316.406 Y101.470
G01 X309.766 Y112.972
G01 X313.383 Y118.846
G01 X316.406 Y124.473
G01 X323.047 Y112.972
G01 X319.435 Y106.370
G01 X316.406 Y101.470
G01 X324.471 Y101.309
G01 X329.688 Y101.470
G01 X323.047 Y112.972
G01 X316.406 Y124.473
G01 X319.731 Y129.762
G01 X322.700 Y135.135
G01 X323.651 Y137.021
G01 X326.670 Y141.913
G01 X329.390 Y146.891
G01 X329.688 Y147.477
G01 X341.207 Y127.639
G01 X341.761 Y126.565
G01 X342.969 Y124.473
G01 X339.559 Y118.233
G01 X336.328 Y112.972
G01 X345.533 Y112.831
G01 X349.609 Y112.972
G01 X342.969 Y124.473
G01 X339.559 Y118.233
G01 X336.328 Y112.972
G01 X332.654 Y106.286
G01 X329.688 Y101.470
G01 X338.612 Y101.328
G01 X342.969 Y101.470
G01 X336.328 Y112.972
G01 X340.074 Y119.126
G01 X342.969 Y124.473
G01 X349.609 Y112.972
G01 X345.819 Y106.108
G01 X342.969 Y101.470
G01 X352.899 Y101.355
G01 X356.250 Y101.470
G01 X349.609 Y112.972
G01 X342.969 Y124.473
G01 X331.058 Y145.133
G01 X330.895 Y145.386
G01 X329.688 Y147.477
G01 X321.938 Y161.232
G01 X320.028 Y164.207
G01 X314.804 Y173.806
G01 X311.577 Y178.846
G01 X308.074 Y185.530
G01 X304.332 Y191.394
G01 X303.125 Y193.485
G01 X304.827 Y195.970
G01 X306.412 Y198.552
G01 X307.875 Y201.225
G01 X309.211 Y203.983
G01 X309.302 Y204.184
G01 X311.126 Y206.860
G01 X312.827 Y209.670
G01 X314.397 Y212.609
G01 X315.480 Y214.884
G01 X317.557 Y217.976
G01 X319.484 Y221.252
G01 X321.249 Y224.706
G01 X321.657 Y225.583
G01 X324.112 Y229.324
G01 X326.367 Y233.311
G01 X327.834 Y236.283
G01 X330.784 Y240.905
G01 X333.459 Y245.846
G01 X334.012 Y246.982
G01 X337.698 Y252.760
G01 X341.008 Y258.953
G01 X341.424 Y259.821
G01 X346.001 Y267.257
G01 X348.837 Y272.661
G01 X354.461 Y282.076
G01 X356.250 Y285.500
G01 X359.522 Y280.386
G01 X362.546 Y275.100
G01 X364.898 Y270.521
G01 X368.267 Y265.246
G01 X371.392 Y259.753
G01 X373.547 Y255.542
G01 X377.136 Y249.893
G01 X380.464 Y243.970
G01 X382.195 Y240.562
G01 X386.127 Y234.323
G01 X389.759 Y227.740
G01 X390.843 Y225.583
G01 X395.236 Y218.533
G01 X399.266 Y211.058
G01 X399.491 Y210.604
G01 X404.458 Y202.521
G01 X408.140 Y195.625
G01 X409.375 Y193.485
G01 X405.360 Y186.262
G01 X402.734 Y181.983
G01 X416.016 Y181.983
G01 X410.555 Y191.601
G01 X409.375 Y193.485
G01 X405.360 Y186.262
G01 X402.734 Y181.983
G01 X398.901 Y175.065
G01 X396.094 Y170.481
G01 X409.375 Y170.481
G01 X403.593 Y180.618
G01 X402.734 Y181.983
G01 X406.948 Y189.010
G01 X409.375 Y193.485
G01 X414.947 Y183.995
G01 X416.016 Y181.983
G01 X411.825 Y174.479
G01 X409.375 Y170.481
G01 X422.656 Y170.481
G01 X416.540 Y181.149
G01 X416.016 Y181.983
G01 X410.555 Y191.601
G01 X409.375 Y193.485
G01 X405.524 Y186.223
G01 X401.350 Y179.267
G01 X399.716 Y176.755
G01 X396.094 Y170.481
G01 X392.384 Y163.774
G01 X389.453 Y158.979
G01 X402.734 Y158.979
G01 X396.463 Y169.897
G01 X396.094 Y170.481
G01 X392.384 Y163.774
G01 X389.453 Y158.979
G01 X385.811 Y152.387
G01 X382.813 Y147.477
G01 X396.094 Y147.477
G01 X389.453 Y158.979
G01 X393.388 Y165.513
G01 X396.094 Y170.481
G01 X402.405 Y159.606
G01 X402.734 Y158.979
G01 X398.774 Y151.865
G01 X396.094 Y147.477
G01 X409.375 Y147.477
G01 X402.734 Y158.979
G01 X396.463 Y169.897
G01 X396.094 Y170.481
G01 X400.292 Y177.165
G01 X404.182 Y184.135
G01 X405.753 Y187.211
G01 X409.375 Y193.485
G01 X415.225 Y183.929
G01 X419.034 Y176.755
G01 X422.656 Y170.481
G01 X418.262 Y162.650
G01 X416.016 Y158.979
G01 X429.297 Y158.979
G01 X422.656 Y170.481
G01 X418.262 Y162.650
G01 X416.016 Y158.979
G01 X411.729 Y151.329
G01 X409.375 Y147.477
G01 X422.656 Y147.477
G01 X416.016 Y158.979
G01 X420.581 Y166.666
G01 X422.656 Y170.481
G01 X429.297 Y158.979
G01 X424.676 Y150.781
G01 X422.656 Y147.477
G01 X435.938 Y147.477
G01 X429.297 Y158.979
G01 X422.656 Y170.481
G01 X416.853 Y181.070
G01 X412.997 Y187.211
G01 X409.375 Y193.485
G01 X405.524 Y186.223
G01 X401.350 Y179.267
G01 X399.716 Y176.755
G01 X396.091 Y169.891
G01 X392.157 Y163.271
G01 X390.057 Y160.025
G01 X386.437 Y153.412
G01 X382.813 Y147.477
G01 X379.180 Y140.903
G01 X376.172 Y135.975
G01 X389.453 Y135.975
G01 X382.813 Y147.477
G01 X379.180 Y140.903
G01 X376.172 Y135.975
G01 X372.493 Y129.321
G01 X369.531 Y124.473
G01 X382.282 Y124.452
G01 X382.812 Y124.473
G01 X376.172 Y135.975
G01 X380.055 Y142.417
G01 X382.813 Y147.477
G01 X389.453 Y135.975
G01 X385.511 Y128.893
G01 X382.812 Y124.473
G01 X396.094 Y124.473
G01 X389.453 Y135.975
G01 X382.813 Y147.477
G01 X379.306 Y140.823
G01 X375.465 Y134.332
G01 X373.153 Y130.747
G01 X369.531 Y124.473
G01 X365.747 Y117.640
G01 X362.891 Y112.972
G01 X374.640 Y112.914
G01 X376.172 Y112.972
G01 X369.531 Y124.473
G01 X365.747 Y117.640
G01 X362.891 Y112.972
G01 X358.942 Y105.860
G01 X356.250 Y101.470
G01 X367.332 Y101.391
G01 X369.531 Y101.470
G01 X362.891 Y112.972
G01 X366.943 Y119.712
G01 X369.531 Y124.473
G01 X376.172 Y112.972
G01 X372.032 Y105.555
G01 X369.531 Y101.470
G01 X381.910 Y101.436
G01 X382.813 Y101.470
G01 X376.172 Y112.972
G01 X369.531 Y124.473
G01 X373.593 Y130.926
G01 X377.311 Y137.538
G01 X379.190 Y141.203
G01 X382.813 Y147.477
G01 X391.316 Y133.191
G01 X393.679 Y128.656
G01 X396.094 Y124.473
G01 X391.831 Y116.864
G01 X389.453 Y112.972
G01 X402.734 Y112.972
G01 X396.094 Y124.473
G01 X391.831 Y116.864
G01 X389.453 Y112.972
G01 X385.097 Y105.206
G01 X382.813 Y101.470
G01 X396.094 Y101.470
G01 X389.453 Y112.972
G01 X393.923 Y120.488
G01 X396.094 Y124.473
G01 X402.734 Y112.972
G01 X398.141 Y104.820
G01 X396.094 Y101.470
G01 X409.375 Y101.470
G01 X402.734 Y112.972
G01 X396.094 Y124.473
G01 X387.448 Y139.813
G01 X385.227 Y143.295
G01 X382.813 Y147.477
G01 X386.826 Y153.849
G01 X390.533 Y160.432
G01 X392.472 Y164.207
G01 X396.596 Y170.766
G01 X400.417 Y177.589
G01 X402.131 Y180.937
G01 X406.359 Y187.926
G01 X409.375 Y193.485
G01 X415.225 Y183.929
G01 X419.034 Y176.755
G01 X425.804 Y165.493
G01 X428.693 Y160.025
G01 X435.938 Y147.477
G01 X431.071 Y138.880
G01 X429.297 Y135.975
G01 X442.578 Y135.975
G01 X435.938 Y147.477
G01 X431.071 Y138.880
G01 X429.297 Y135.975
G01 X424.482 Y127.463
G01 X422.656 Y124.473
G01 X435.937 Y124.473
G01 X429.297 Y135.975
G01 X434.301 Y144.473
G01 X435.938 Y147.477
G01 X442.578 Y135.975
G01 X437.451 Y126.951
G01 X435.937 Y124.473
G01 X449.219 Y124.473
G01 X442.578 Y135.975
G01 X435.938 Y147.477
G01 X431.262 Y138.791
G01 X426.184 Y130.381
G01 X425.071 Y128.656
G01 X422.656 Y124.473
G01 X417.847 Y115.971
G01 X416.016 Y112.972
G01 X429.297 Y112.972
G01 X422.656 Y124.473
G01 X417.847 Y115.971
G01 X416.016 Y112.972
G01 X411.168 Y104.405
G01 X409.375 Y101.470
G01 X422.656 Y101.470
G01 X416.016 Y112.972
G01 X420.976 Y121.391
G01 X422.656 Y124.473
G01 X429.297 Y112.972
G01 X424.180 Y103.966
G01 X422.656 Y101.470
G01 X435.937 Y101.470
G01 X429.297 Y112.972
G01 X422.656 Y124.473
G01 X427.803 Y132.800
G01 X432.547 Y141.395
G01 X433.523 Y143.295
G01 X435.938 Y147.477
G01 X444.780 Y132.511
G01 X446.804 Y128.656
G01 X449.219 Y124.473
G01 X443.816 Y115.000
G01 X442.578 Y112.972
G01 X455.859 Y112.972
G01 X449.219 Y124.473
G01 X443.816 Y115.000
G01 X442.578 Y112.972
G01 X437.181 Y103.506
G01 X435.937 Y101.470
G01 X449.219 Y101.470
G01 X442.578 Y112.972
G01 X448.080 Y122.383
G01 X449.219 Y124.473
G01 X455.859 Y112.972
G01 X450.170 Y103.028
G01 X449.219 Y101.470
G01 X462.500 Y101.470
G01 X455.859 Y112.972
G01 X449.219 Y124.473
G01 X440.280 Y140.253
G01 X438.352 Y143.295
G01 X435.938 Y147.477
G01 X428.784 Y160.415
G01 X425.071 Y166.298
G01 X419.019 Y177.289
G01 X415.412 Y183.029
G01 X409.949 Y192.568
G01 X409.375 Y193.485
G01 X404.670 Y202.144
G01 X400.727 Y208.464
G01 X396.641 Y216.095
G01 X392.181 Y223.289
G01 X392.078 Y223.443
G01 X388.488 Y230.237
G01 X384.580 Y236.679
G01 X383.430 Y238.422
G01 X380.212 Y244.570
G01 X376.718 Y250.440
G01 X374.782 Y253.402
G01 X371.819 Y259.097
G01 X368.602 Y264.575
G01 X366.134 Y268.381
G01 X363.313 Y273.821
G01 X360.239 Y279.094
G01 X357.485 Y283.360
G01 X356.250 Y285.500
G01 X351.067 Y275.956
G01 X347.500 Y270.345
G01 X343.479 Y262.849
G01 X340.000 Y257.354
G01 X336.774 Y251.329
G01 X333.750 Y246.529
G01 X331.171 Y241.560
G01 X328.314 Y236.904
G01 X327.500 Y235.704
G01 X325.429 Y231.589
G01 X323.147 Y227.710
G01 X321.250 Y224.878
G01 X319.553 Y221.419
G01 X317.693 Y218.130
G01 X315.681 Y215.020
G01 X315.000 Y214.053
G01 X313.552 Y211.049
G01 X311.968 Y208.166
G01 X310.256 Y205.409
G01 X308.750 Y203.228
G01 X307.434 Y200.477
G01 X305.990 Y197.807
G01 X304.423 Y195.224
G01 X302.739 Y192.734
G01 X302.500 Y192.402
G01 X301.204 Y189.688
G01 X299.767 Y187.029
G01 X298.192 Y184.430
G01 X296.481 Y181.899
G01 X296.250 Y181.577
G01 X294.855 Y178.672
G01 X293.285 Y175.806
G01 X291.540 Y172.989
G01 X290.000 Y170.752
G01 X288.375 Y167.423
G01 X286.517 Y164.131
G01 X284.426 Y160.891
G01 X283.750 Y159.926
G01 X281.752 Y155.944
G01 X279.442 Y152.011
G01 X277.500 Y149.101
G01 X274.982 Y144.242
G01 X272.051 Y139.461
G01 X271.250 Y138.276
G01 X268.093 Y132.187
G01 X264.387 Y126.217
G01 X263.750 Y125.285
G01 X259.589 Y117.575
G01 X256.250 Y112.295
G01 X250.878 Y102.853
G01 X250.000 Y101.470
G01 X244.488 Y110.808
G01 X243.359 Y112.972
G01 X236.719 Y101.470
G01 X242.717 Y101.290
G01 X248.702 Y101.406
G01 X250.000 Y101.470
G01 X244.488 Y110.808
G01 X243.359 Y112.972
G01 X238.754 Y120.586
G01 X236.719 Y124.473
G01 X230.078 Y112.972
G01 X235.586 Y112.777
G01 X241.065 Y112.857
G01 X243.359 Y112.972
G01 X248.663 Y103.576
G01 X250.000 Y101.470
G01 X244.021 Y101.290
G01 X238.024 Y101.405
G01 X236.719 Y101.470
G01 X231.918 Y109.467
G01 X230.078 Y112.972
G01 X223.438 Y101.470
G01 X229.596 Y101.289
G01 X235.709 Y101.419
G01 X236.719 Y101.470
G01 X242.717 Y101.290
G01 X248.702 Y101.406
G01 X250.000 Y101.470
G01 X244.473 Y110.505
G01 X241.548 Y116.108
G01 X237.202 Y123.552
G01 X236.719 Y124.473
G01 X232.896 Y130.620
G01 X230.078 Y135.975
G01 X223.437 Y124.473
G01 X228.516 Y124.263
G01 X233.550 Y124.311
G01 X236.719 Y124.473
G01 X232.896 Y130.620
G01 X230.078 Y135.975
G01 X226.915 Y140.907
G01 X224.184 Y145.930
G01 X223.438 Y147.477
G01 X216.797 Y135.975
G01 X221.529 Y135.745
G01 X226.203 Y135.767
G01 X230.078 Y135.975
G01 X233.415 Y129.720
G01 X236.719 Y124.473
G01 X231.719 Y124.264
G01 X226.667 Y124.309
G01 X223.437 Y124.473
G01 X219.963 Y130.006
G01 X216.964 Y135.632
G01 X216.797 Y135.975
G01 X210.156 Y124.473
G01 X215.604 Y124.260
G01 X220.975 Y124.339
G01 X223.437 Y124.473
G01 X228.516 Y124.263
G01 X233.550 Y124.311
G01 X236.719 Y124.473
G01 X240.952 Y116.686
G01 X243.963 Y111.926
G01 X249.372 Y102.459
G01 X250.000 Y101.470
G01 X244.016 Y101.201
G01 X238.006 Y101.228
G01 X233.097 Y101.470
G01 X226.952 Y101.381
G01 X223.438 Y101.470
G01 X219.065 Y108.680
G01 X216.797 Y112.972
G01 X210.156 Y101.470
G01 X216.614 Y101.289
G01 X222.993 Y101.446
G01 X223.438 Y101.470
G01 X219.065 Y108.680
G01 X216.797 Y112.972
G01 X213.000 Y119.119
G01 X210.156 Y124.473
G01 X203.516 Y112.972
G01 X209.684 Y112.775
G01 X215.759 Y112.914
G01 X216.797 Y112.972
G01 X220.794 Y105.684
G01 X223.438 Y101.470
G01 X217.065 Y101.289
G01 X210.612 Y101.446
G01 X210.156 Y101.470
G01 X206.031 Y108.242
G01 X203.516 Y112.972
G01 X196.875 Y101.470
G01 X203.769 Y101.291
G01 X210.156 Y101.470
G01 X216.614 Y101.289
G01 X222.993 Y101.446
G01 X223.438 Y101.470
G01 X229.581 Y101.198
G01 X235.687 Y101.235
G01 X240.341 Y101.470
G01 X246.323 Y101.379
G01 X250.000 Y101.470
G01 X244.473 Y110.505
G01 X241.548 Y116.108
G01 X237.158 Y123.213
G01 X234.304 Y128.656
G01 X230.720 Y134.262
G01 X227.645 Y139.981
G01 X227.060 Y141.203
G01 X224.249 Y145.946
G01 X223.438 Y147.477
G01 X220.849 Y151.533
G01 X218.593 Y155.655
G01 X217.904 Y157.062
G01 X216.797 Y158.979
G01 X210.156 Y147.477
G01 X214.661 Y147.224
G01 X219.093 Y147.226
G01 X223.438 Y147.477
G01 X220.849 Y151.533
G01 X218.593 Y155.655
G01 X217.904 Y157.062
G01 X216.797 Y158.979
G01 X214.632 Y162.293
G01 X212.710 Y165.661
G01 X211.263 Y168.564
G01 X210.156 Y170.481
G01 X203.516 Y158.979
G01 X208.016 Y158.768
G01 X212.421 Y158.840
G01 X214.583 Y158.979
G01 X216.797 Y158.979
G01 X218.858 Y154.981
G01 X221.235 Y151.036
G01 X222.331 Y149.394
G01 X223.438 Y147.477
G01 X219.093 Y147.226
G01 X214.661 Y147.224
G01 X210.156 Y147.477
G01 X207.599 Y151.382
G01 X205.326 Y155.351
G01 X203.516 Y158.979
G01 X196.875 Y147.477
G01 X202.074 Y147.221
G01 X207.166 Y147.287
G01 X210.156 Y147.477
G01 X214.661 Y147.224
G01 X219.093 Y147.226
G01 X223.438 Y147.477
G01 X220.833 Y151.493
G01 X218.556 Y155.576
G01 X217.401 Y157.933
G01 X215.185 Y161.273
G01 X213.216 Y164.670
G01 X211.494 Y168.107
G01 X211.364 Y168.390
G01 X210.156 Y170.481
G01 X208.291 Y173.291
G01 X206.605 Y176.155
G01 X205.097 Y179.063
G01 X204.622 Y180.066
G01 X203.516 Y181.983
G01 X197.696 Y172.071
G01 X196.875 Y170.481
G01 X201.639 Y170.254
G01 X206.293 Y170.362
G01 X207.943 Y170.481
G01 X210.156 Y170.481
G01 X208.291 Y173.291
G01 X206.605 Y176.155
G01 X205.097 Y179.063
G01 X204.622 Y180.066
G01 X203.516 Y181.983
G01 X201.819 Y184.521
G01 X200.259 Y187.126
G01 X198.837 Y189.791
G01 X197.982 Y191.568
G01 X196.875 Y193.485
G01 X193.212 Y187.696
G01 X190.234 Y181.983
G01 X195.815 Y181.760
G01 X201.264 Y181.980
G01 X201.302 Y181.983
G01 X203.516 Y181.983
G01 X204.933 Y179.117
G01 X206.520 Y176.293
G01 X208.278 Y173.520
G01 X209.049 Y172.398
G01 X210.156 Y170.481
G01 X205.741 Y170.252
G01 X201.213 Y170.334
G01 X199.089 Y170.481
G01 X196.875 Y170.481
G01 X194.817 Y173.558
G01 X192.931 Y176.710
G01 X191.221 Y179.927
G01 X190.234 Y181.983
G01 X185.291 Y173.751
G01 X183.594 Y170.481
G01 X189.582 Y170.198
G01 X195.431 Y170.368
G01 X196.875 Y170.481
G01 X201.639 Y170.254
G01 X206.293 Y170.362
G01 X207.943 Y170.481
G01 X210.156 Y170.481
G01 X211.797 Y167.150
G01 X213.671 Y163.857
G01 X215.778 Y160.617
G01 X216.193 Y160.025
G01 X218.194 Y156.064
G01 X220.505 Y152.154
G01 X222.230 Y149.568
G01 X223.438 Y147.477
G01 X219.107 Y147.260
G01 X214.692 Y147.290
G01 X211.364 Y147.477
G01 X206.436 Y147.259
G01 X201.398 Y147.348
G01 X199.290 Y147.477
G01 X196.875 Y147.477
G01 X194.273 Y151.509
G01 X191.936 Y155.610
G01 X190.234 Y158.979
G01 X183.594 Y147.477
G01 X189.704 Y147.230
G01 X195.672 Y147.394
G01 X196.875 Y147.477
G01 X194.273 Y151.509
G01 X191.936 Y155.610
G01 X190.234 Y158.979
G01 X187.847 Y162.651
G01 X185.675 Y166.402
G01 X183.719 Y170.219
G01 X183.594 Y170.481
G01 X177.124 Y159.310
G01 X176.953 Y158.979
G01 X183.548 Y158.727
G01 X189.983 Y158.960
G01 X190.234 Y158.979
G01 X192.356 Y154.832
G01 X194.743 Y150.743
G01 X196.875 Y147.477
G01 X190.939 Y147.231
G01 X184.855 Y147.393
G01 X183.594 Y147.477
G01 X180.872 Y151.758
G01 X178.408 Y156.122
G01 X176.953 Y158.979
G01 X170.313 Y147.477
G01 X177.554 Y147.255
G01 X183.594 Y147.477
G01 X189.704 Y147.230
G01 X195.672 Y147.394
G01 X196.875 Y147.477
G01 X202.098 Y147.259
G01 X207.211 Y147.367
G01 X208.949 Y147.477
G01 X213.525 Y147.258
G01 X218.021 Y147.302
G01 X221.023 Y147.477
G01 X223.438 Y147.477
G01 X226.052 Y142.488
G01 X229.094 Y137.582
G01 X229.474 Y137.021
G01 X232.725 Y130.818
G01 X236.537 Y124.739
G01 X236.719 Y124.473
G01 X240.952 Y116.686
G01 X243.963 Y111.926
G01 X249.372 Y102.459
G01 X250.000 Y101.470
G01 X244.016 Y101.201
G01 X238.006 Y101.228
G01 X233.097 Y101.470
G01 X226.917 Y101.197
G01 X220.671 Y101.242
G01 X216.193 Y101.470
G01 X209.580 Y101.193
G01 X202.859 Y101.277
G01 X199.290 Y101.470
G01 X196.875 Y101.470
G01 X192.872 Y108.039
G01 X190.234 Y112.972
G01 X183.594 Y101.470
G01 X191.061 Y101.298
G01 X196.875 Y101.470
G01 X192.872 Y108.039
G01 X190.234 Y112.972
G01 X186.617 Y118.846
G01 X183.594 Y124.473
G01 X176.953 Y112.972
G01 X184.386 Y112.788
G01 X190.234 Y112.972
G01 X193.857 Y106.331
G01 X196.875 Y101.470
G01 X189.522 Y101.297
G01 X183.594 Y101.470
G01 X179.624 Y108.001
G01 X176.953 Y112.972
G01 X170.312 Y101.470
G01 X178.489 Y101.310
G01 X183.594 Y101.470
G01 X191.061 Y101.298
G01 X196.875 Y101.470
G01 X192.809 Y107.911
G01 X189.242 Y114.451
G01 X188.423 Y116.108
G01 X184.966 Y121.922
G01 X183.594 Y124.473
G01 X180.291 Y129.792
G01 X177.347 Y135.193
G01 X176.953 Y135.975
G01 X170.312 Y124.473
G01 X177.873 Y124.281
G01 X183.594 Y124.473
G01 X180.291 Y129.792
G01 X177.347 Y135.193
G01 X176.953 Y135.975
G01 X173.892 Y140.874
G01 X171.134 Y145.861
G01 X170.313 Y147.477
G01 X163.672 Y135.975
G01 X171.586 Y135.782
G01 X176.953 Y135.975
G01 X179.846 Y130.565
G01 X183.096 Y125.233
G01 X183.594 Y124.473
G01 X176.170 Y124.281
G01 X170.312 Y124.473
G01 X166.910 Y129.998
G01 X163.855 Y135.615
G01 X163.672 Y135.975
G01 X157.031 Y124.473
G01 X165.634 Y124.307
G01 X170.312 Y124.473
G01 X177.873 Y124.281
G01 X183.594 Y124.473
G01 X186.742 Y118.414
G01 X190.329 Y112.432
G01 X192.045 Y109.835
G01 X195.855 Y103.112
G01 X196.875 Y101.470
G01 X189.470 Y101.192
G01 X181.913 Y101.356
G01 X179.972 Y101.470
G01 X171.758 Y101.425
G01 X170.312 Y101.470
G01 X166.308 Y108.084
G01 X163.672 Y112.972
G01 X157.031 Y101.470
G01 X166.056 Y101.329
G01 X170.312 Y101.470
G01 X166.308 Y108.084
G01 X163.672 Y112.972
G01 X159.926 Y119.126
G01 X157.031 Y124.473
G01 X150.391 Y112.972
G01 X159.693 Y112.832
G01 X163.672 Y112.972
G01 X167.346 Y106.286
G01 X170.312 Y101.470
G01 X161.388 Y101.328
G01 X157.031 Y101.470
G01 X152.940 Y108.259
G01 X150.391 Y112.972
G01 X143.750 Y101.470
G01 X153.760 Y101.356
G01 X157.031 Y101.470
G01 X166.056 Y101.329
G01 X170.312 Y101.470
G01 X178.422 Y101.196
G01 X186.362 Y101.416
G01 X187.216 Y101.470
G01 X194.562 Y101.402
G01 X196.875 Y101.470
G01 X203.731 Y101.191
G01 X210.484 Y101.287
G01 X213.778 Y101.470
G01 X220.118 Y101.195
G01 X226.397 Y101.247
G01 X230.682 Y101.470
G01 X236.726 Y101.200
G01 X242.751 Y101.230
G01 X247.585 Y101.470
G01 X250.000 Y101.470
G01 X244.472 Y110.472
G01 X241.352 Y116.449
G01 X236.982 Y123.486
G01 X233.939 Y129.288
G01 X230.418 Y134.948
G01 X227.762 Y139.988
G01 X224.814 Y144.598
G01 X222.262 Y149.290
G01 X221.584 Y150.687
G01 X219.105 Y154.464
G01 X216.925 Y158.304
G01 X215.407 Y161.386
G01 X213.292 Y164.539
G01 X211.402 Y167.747
G01 X209.735 Y170.997
G01 X209.230 Y172.086
G01 X207.373 Y174.817
G01 X205.684 Y177.606
G01 X204.165 Y180.443
G01 X203.052 Y182.785
G01 X201.337 Y185.293
G01 X199.754 Y187.872
G01 X198.306 Y190.516
G01 X196.997 Y193.216
G01 X196.875 Y193.485
G01 X195.202 Y195.985
G01 X193.647 Y198.578
G01 X192.215 Y201.259
G01 X191.341 Y203.070
G01 X190.234 Y204.987
G01 X187.533 Y200.775
G01 X185.111 Y196.258
G01 X184.701 Y195.402
G01 X183.594 Y193.485
G01 X190.988 Y193.222
G01 X196.875 Y193.485
G01 X195.202 Y195.985
G01 X193.647 Y198.578
G01 X192.215 Y201.259
G01 X191.341 Y203.070
G01 X190.234 Y204.987
G01 X188.431 Y207.695
G01 X186.753 Y210.537
G01 X185.207 Y213.507
G01 X184.701 Y214.572
G01 X183.594 Y216.489
G01 X181.218 Y212.828
G01 X179.048 Y208.919
G01 X178.060 Y206.904
G01 X176.953 Y204.987
G01 X189.749 Y204.964
G01 X190.234 Y204.987
G01 X191.598 Y202.221
G01 X193.089 Y199.546
G01 X194.700 Y196.966
G01 X195.768 Y195.402
G01 X196.875 Y193.485
G01 X189.597 Y193.222
G01 X183.594 Y193.485
G01 X181.560 Y196.521
G01 X179.666 Y199.687
G01 X177.919 Y202.975
G01 X176.953 Y204.987
G01 X173.868 Y200.210
G01 X171.086 Y195.090
G01 X170.312 Y193.485
G01 X180.603 Y193.347
G01 X183.594 Y193.485
G01 X190.988 Y193.222
G01 X196.875 Y193.485
G01 X195.179 Y195.974
G01 X193.601 Y198.558
G01 X192.144 Y201.233
G01 X190.838 Y203.941
G01 X189.026 Y206.612
G01 X187.337 Y209.416
G01 X185.777 Y212.346
G01 X184.801 Y214.397
G01 X183.594 Y216.489
G01 X181.511 Y219.665
G01 X179.584 Y223.031
G01 X178.060 Y226.074
G01 X176.953 Y227.991
G01 X174.665 Y224.441
G01 X172.555 Y220.679
G01 X171.419 Y218.406
G01 X170.313 Y216.489
G01 X183.594 Y216.489
G01 X181.511 Y219.665
G01 X179.584 Y223.031
G01 X178.060 Y226.074
G01 X176.953 Y227.991
G01 X174.358 Y231.914
G01 X171.980 Y236.103
G01 X170.313 Y239.492
G01 X167.910 Y235.826
G01 X165.680 Y231.964
G01 X163.672 Y227.991
G01 X176.953 Y227.991
G01 X178.796 Y224.362
G01 X180.814 Y220.926
G01 X182.487 Y218.406
G01 X183.594 Y216.489
G01 X170.313 Y216.489
G01 X167.793 Y220.332
G01 X165.463 Y224.407
G01 X163.672 Y227.991
G01 X160.946 Y223.771
G01 X158.432 Y219.296
G01 X157.031 Y216.489
G01 X170.313 Y216.489
G01 X183.594 Y216.489
G01 X185.100 Y213.402
G01 X186.746 Y210.446
G01 X188.523 Y207.629
G01 X189.631 Y206.032
G01 X190.980 Y203.239
G01 X192.458 Y200.538
G01 X194.057 Y197.933
G01 X195.668 Y195.576
G01 X196.875 Y193.485
G01 X189.696 Y193.270
G01 X184.801 Y193.485
G01 X174.731 Y193.285
G01 X170.312 Y193.485
G01 X167.952 Y197.112
G01 X165.758 Y200.901
G01 X163.740 Y204.844
G01 X163.672 Y204.987
G01 X160.291 Y199.635
G01 X157.237 Y193.910
G01 X157.031 Y193.485
G01 X170.312 Y193.485
G01 X167.952 Y197.112
G01 X165.758 Y200.901
G01 X163.740 Y204.844
G01 X163.672 Y204.987
G01 X161.103 Y208.962
G01 X158.721 Y213.146
G01 X157.031 Y216.489
G01 X153.872 Y211.505
G01 X150.987 Y206.197
G01 X150.391 Y204.987
G01 X163.672 Y204.987
G01 X165.683 Y201.039
G01 X167.871 Y197.245
G01 X170.226 Y193.611
G01 X170.312 Y193.485
G01 X157.031 Y193.485
G01 X154.335 Y197.723
G01 X151.833 Y202.155
G01 X150.391 Y204.987
G01 X146.694 Y199.030
G01 X143.750 Y193.485
G01 X157.031 Y193.485
G01 X170.312 Y193.485
G01 X180.458 Y193.286
G01 X184.801 Y193.485
G01 X192.075 Y193.271
G01 X196.875 Y193.485
G01 X195.179 Y195.974
G01 X193.601 Y198.558
G01 X192.144 Y201.233
G01 X190.838 Y203.941
G01 X189.026 Y206.612
G01 X187.337 Y209.416
G01 X185.777 Y212.346
G01 X184.801 Y214.397
G01 X182.747 Y217.466
G01 X180.841 Y220.716
G01 X179.097 Y224.140
G01 X178.764 Y224.854
G01 X176.349 Y228.542
G01 X174.131 Y232.471
G01 X172.727 Y235.310
G01 X170.313 Y239.492
G01 X167.148 Y244.436
G01 X164.286 Y249.727
G01 X163.672 Y250.994
G01 X161.143 Y247.066
G01 X158.796 Y242.955
G01 X157.031 Y239.492
G01 X170.313 Y239.492
G01 X167.148 Y244.436
G01 X164.286 Y249.727
G01 X163.672 Y250.994
G01 X159.809 Y257.223
G01 X157.031 Y262.496
G01 X154.319 Y258.213
G01 X151.805 Y253.758
G01 X150.391 Y250.994
G01 X163.672 Y250.994
G01 X166.460 Y245.626
G01 X169.557 Y240.601
G01 X170.313 Y239.492
G01 X157.031 Y239.492
G01 X153.552 Y245.040
G01 X150.404 Y250.966
G01 X150.391 Y250.994
G01 X147.520 Y246.443
G01 X144.860 Y241.676
G01 X143.750 Y239.492
G01 X157.031 Y239.492
G01 X170.313 Y239.492
G01 X167.206 Y244.421
G01 X164.401 Y249.691
G01 X164.276 Y249.949
G01 X160.416 Y256.074
G01 X157.031 Y262.496
G01 X152.345 Y270.271
G01 X150.391 Y273.998
G01 X147.456 Y269.298
G01 X144.744 Y264.433
G01 X143.750 Y262.496
G01 X157.031 Y262.496
G01 X152.345 Y270.271
G01 X150.391 Y273.998
G01 X144.754 Y283.578
G01 X143.750 Y285.500
G01 X140.566 Y280.340
G01 X137.633 Y275.017
G01 X137.109 Y273.998
G01 X150.391 Y273.998
G01 X154.829 Y265.969
G01 X157.031 Y262.496
G01 X143.750 Y262.496
G01 X138.876 Y270.637
G01 X137.109 Y273.998
G01 X133.869 Y268.742
G01 X130.875 Y263.289
G01 X130.469 Y262.496
G01 X143.750 Y262.496
G01 X157.031 Y262.496
G01 X160.493 Y255.941
G01 X164.276 Y249.949
G01 X167.066 Y244.663
G01 X170.159 Y239.718
G01 X170.313 Y239.492
G01 X146.165 Y239.492
G01 X143.750 Y239.492
G01 X139.944 Y245.663
G01 X137.109 Y250.994
G01 X133.893 Y245.810
G01 X130.918 Y240.377
G01 X130.469 Y239.492
G01 X143.750 Y239.492
G01 X139.944 Y245.663
G01 X137.109 Y250.994
G01 X132.699 Y258.280
G01 X130.469 Y262.496
G01 X127.101 Y257.019
G01 X123.987 Y251.306
G01 X123.828 Y250.994
G01 X137.109 Y250.994
G01 X140.623 Y244.488
G01 X143.750 Y239.492
G01 X130.469 Y239.492
G01 X126.329 Y246.297
G01 X123.828 Y250.994
G01 X120.262 Y245.170
G01 X117.187 Y239.492
G01 X130.469 Y239.492
G01 X143.750 Y239.492
G01 X167.898 Y239.492
G01 X170.313 Y239.492
G01 X172.565 Y235.099
G01 X175.049 Y230.968
G01 X176.349 Y229.036
G01 X178.190 Y225.348
G01 X180.211 Y221.855
G01 X182.386 Y218.580
G01 X183.937 Y215.411
G01 X185.632 Y212.384
G01 X187.462 Y209.504
G01 X188.423 Y208.124
G01 X189.796 Y205.287
G01 X191.297 Y202.549
G01 X192.920 Y199.916
G01 X194.460 Y197.667
G01 X195.919 Y195.050
G01 X196.875 Y193.485
G01 X189.696 Y193.270
G01 X184.801 Y193.485
G01 X174.482 Y193.186
G01 X167.898 Y193.485
G01 X152.608 Y193.297
G01 X148.580 Y193.485
G01 X143.750 Y193.485
G01 X140.711 Y198.346
G01 X137.898 Y203.436
G01 X137.109 Y204.987
G01 X133.086 Y198.408
G01 X130.469 Y193.485
G01 X143.750 Y193.485
G01 X140.711 Y198.346
G01 X137.898 Y203.436
G01 X137.109 Y204.987
G01 X133.828 Y210.270
G01 X130.799 Y215.833
G01 X130.469 Y216.489
G01 X126.606 Y210.182
G01 X123.828 Y204.987
G01 X137.109 Y204.987
G01 X139.853 Y199.832
G01 X142.827 Y194.902
G01 X143.750 Y193.485
G01 X130.469 Y193.485
G01 X127.084 Y198.979
G01 X123.956 Y204.735
G01 X123.828 Y204.987
G01 X119.471 Y197.775
G01 X117.187 Y193.485
G01 X130.469 Y193.485
G01 X143.750 Y193.485
G01 X140.678 Y198.339
G01 X137.831 Y203.424
G01 X136.506 Y206.032
G01 X133.236 Y211.365
G01 X130.469 Y216.489
G01 X126.865 Y222.343
G01 X123.828 Y227.991
G01 X120.019 Y221.758
G01 X117.187 Y216.489
G01 X130.469 Y216.489
G01 X126.865 Y222.343
G01 X123.828 Y227.991
G01 X119.824 Y234.566
G01 X117.187 Y239.492
G01 X113.354 Y233.193
G01 X110.547 Y227.991
G01 X123.828 Y227.991
G01 X127.164 Y221.826
G01 X130.469 Y216.489
G01 X117.187 Y216.489
G01 X113.223 Y223.014
G01 X110.547 Y227.991
G01 X106.377 Y221.087
G01 X103.906 Y216.489
G01 X117.187 Y216.489
G01 X130.469 Y216.489
G01 X133.429 Y210.891
G01 X136.645 Y205.567
G01 X137.713 Y203.941
G01 X140.471 Y198.827
G01 X143.456 Y193.936
G01 X143.750 Y193.485
G01 X119.602 Y193.485
G01 X117.187 Y193.485
G01 X113.454 Y199.618
G01 X110.547 Y204.987
G01 X105.850 Y197.134
G01 X103.906 Y193.485
G01 X117.187 Y193.485
G01 X113.454 Y199.618
G01 X110.547 Y204.987
G01 X106.550 Y211.590
G01 X103.906 Y216.489
G01 X99.334 Y208.852
G01 X97.266 Y204.987
G01 X110.547 Y204.987
G01 X114.040 Y198.604
G01 X117.187 Y193.485
G01 X103.906 Y193.485
G01 X99.822 Y200.263
G01 X97.266 Y204.987
G01 X92.226 Y196.488
G01 X90.625 Y193.485
G01 X103.906 Y193.485
G01 X117.187 Y193.485
G01 X141.335 Y193.485
G01 X143.750 Y193.485
G01 X160.596 Y193.368
G01 X163.068 Y193.485
G01 X174.706 Y193.241
G01 X179.972 Y193.485
G01 X187.973 Y193.193
G01 X194.460 Y193.485
G01 X196.875 Y193.485
G01 X198.171 Y190.779
G01 X199.605 Y188.130
G01 X201.175 Y185.544
G01 X202.877 Y183.029
G01 X203.052 Y182.785
G01 X204.433 Y179.916
G01 X205.983 Y177.087
G01 X207.703 Y174.308
G01 X209.230 Y172.086
G01 X210.822 Y168.826
G01 X212.638 Y165.602
G01 X214.678 Y162.430
G01 X215.407 Y161.386
G01 X217.349 Y157.510
G01 X219.590 Y153.682
G01 X221.584 Y150.687
G01 X224.019 Y145.977
G01 X226.850 Y141.339
G01 X227.762 Y139.988
G01 X230.804 Y134.099
G01 X234.374 Y128.322
G01 X235.174 Y127.148
G01 X239.179 Y119.701
G01 X242.587 Y114.309
G01 X247.757 Y105.004
G01 X250.000 Y101.470
G01 X244.016 Y101.191
G01 X238.005 Y101.208
G01 X232.703 Y101.470
G01 X226.515 Y101.187
G01 X220.257 Y101.222
G01 X215.407 Y101.470
G01 X208.764 Y101.182
G01 X202.011 Y101.258
G01 X198.110 Y101.470
G01 X190.760 Y101.180
G01 X183.259 Y101.327
G01 X180.814 Y101.470
G01 X172.502 Y101.188
G01 X164.002 Y101.439
G01 X163.517 Y101.470
G01 X153.993 Y101.209
G01 X146.221 Y101.470
G01 X143.750 Y101.470
G01 X139.532 Y108.505
G01 X137.109 Y112.972
G01 X130.469 Y101.470
G01 X141.604 Y101.392
G01 X143.750 Y101.470
G01 X139.532 Y108.505
G01 X137.109 Y112.972
G01 X133.057 Y119.712
G01 X130.469 Y124.473
G01 X123.828 Y112.972
G01 X135.615 Y112.915
G01 X137.109 Y112.972
G01 X141.058 Y105.860
G01 X143.750 Y101.470
G01 X132.668 Y101.391
G01 X130.469 Y101.470
G01 X126.090 Y108.808
G01 X123.828 Y112.972
G01 X117.187 Y101.470
G01 X129.588 Y101.437
G01 X130.469 Y101.470
G01 X141.604 Y101.392
G01 X143.750 Y101.470
G01 X139.416 Y108.385
G01 X135.500 Y115.429
G01 X134.091 Y118.200
G01 X130.469 Y124.473
G01 X126.528 Y131.016
G01 X123.828 Y135.975
G01 X117.188 Y124.473
G01 X129.951 Y124.453
G01 X130.469 Y124.473
G01 X126.528 Y131.016
G01 X123.828 Y135.975
G01 X119.945 Y142.417
G01 X117.187 Y147.477
G01 X110.547 Y135.975
G01 X123.828 Y135.975
G01 X127.507 Y129.321
G01 X130.469 Y124.473
G01 X117.718 Y124.452
G01 X117.188 Y124.473
G01 X113.015 Y131.445
G01 X110.547 Y135.975
G01 X103.906 Y124.473
G01 X117.188 Y124.473
G01 X129.951 Y124.453
G01 X130.469 Y124.473
G01 X134.136 Y117.534
G01 X138.200 Y110.719
G01 X140.128 Y107.743
G01 X143.750 Y101.470
G01 X132.466 Y101.182
G01 X124.432 Y101.470
G01 X117.187 Y101.470
G01 X112.621 Y109.158
G01 X110.547 Y112.972
G01 X103.906 Y101.470
G01 X117.187 Y101.470
G01 X112.621 Y109.158
G01 X110.547 Y112.972
G01 X106.077 Y120.488
G01 X103.906 Y124.473
G01 X97.266 Y112.972
G01 X110.547 Y112.972
G01 X114.903 Y105.206
G01 X117.187 Y101.470
G01 X103.906 Y101.470
G01 X99.131 Y109.545
G01 X97.266 Y112.972
G01 X90.625 Y101.470
G01 X103.906 Y101.470
G01 X117.187 Y101.470
G01 X129.356 Y101.203
G01 X136.506 Y101.470
G01 X143.750 Y101.470
G01 X139.416 Y108.385
G01 X135.500 Y115.429
G01 X134.091 Y118.200
G01 X129.977 Y124.741
G01 X126.223 Y131.431
G01 X124.432 Y134.930
G01 X120.521 Y141.361
G01 X117.187 Y147.477
G01 X113.307 Y153.916
G01 X110.547 Y158.979
G01 X103.906 Y147.477
G01 X117.187 Y147.477
G01 X113.307 Y153.916
G01 X110.547 Y158.979
G01 X106.612 Y165.513
G01 X103.906 Y170.481
G01 X97.595 Y159.606
G01 X97.266 Y158.979
G01 X110.547 Y158.979
G01 X114.189 Y152.387
G01 X117.187 Y147.477
G01 X103.906 Y147.477
G01 X99.736 Y154.445
G01 X97.266 Y158.979
G01 X90.625 Y147.477
G01 X103.906 Y147.477
G01 X117.187 Y147.477
G01 X113.174 Y153.849
G01 X109.467 Y160.432
G01 X107.528 Y164.207
G01 X103.906 Y170.481
G01 X99.860 Y177.211
G01 X97.266 Y181.983
G01 X91.397 Y171.942
G01 X90.625 Y170.481
G01 X103.906 Y170.481
G01 X99.860 Y177.211
G01 X97.266 Y181.983
G01 X93.052 Y189.010
G01 X90.625 Y193.485
G01 X85.053 Y183.995
G01 X83.984 Y181.983
G01 X97.266 Y181.983
G01 X101.099 Y175.065
G01 X103.906 Y170.481
G01 X90.625 Y170.481
G01 X86.249 Y177.815
G01 X83.984 Y181.983
G01 X77.816 Y171.373
G01 X77.344 Y170.481
G01 X90.625 Y170.481
G01 X103.906 Y170.481
G01 X107.476 Y163.715
G01 X111.355 Y157.173
G01 X113.565 Y153.751
G01 X117.187 Y147.477
G01 X100.163 Y147.273
G01 X95.455 Y147.477
G01 X90.625 Y147.477
G01 X86.156 Y154.992
G01 X83.984 Y158.979
G01 X77.344 Y147.477
G01 X90.625 Y147.477
G01 X86.156 Y154.992
G01 X83.984 Y158.979
G01 X79.419 Y166.666
G01 X77.344 Y170.481
G01 X70.703 Y158.979
G01 X83.984 Y158.979
G01 X88.271 Y151.329
G01 X90.625 Y147.477
G01 X77.344 Y147.477
G01 X72.568 Y155.554
G01 X70.703 Y158.979
G01 X64.063 Y147.477
G01 X77.344 Y147.477
G01 X90.625 Y147.477
G01 X108.650 Y147.313
G01 X112.358 Y147.477
G01 X117.187 Y147.477
G01 X120.694 Y140.823
G01 X124.535 Y134.332
G01 X126.847 Y130.747
G01 X130.447 Y123.925
G01 X134.424 Y117.237
G01 X136.506 Y114.017
G01 X140.415 Y106.911
G01 X143.750 Y101.470
G01 X132.466 Y101.182
G01 X124.432 Y101.470
G01 X111.167 Y101.241
G01 X105.114 Y101.470
G01 X90.625 Y101.470
G01 X85.622 Y109.965
G01 X83.984 Y112.972
G01 X77.344 Y101.470
G01 X90.625 Y101.470
G01 X85.622 Y109.965
G01 X83.984 Y112.972
G01 X79.024 Y121.391
G01 X77.344 Y124.473
G01 X70.703 Y112.972
G01 X83.984 Y112.972
G01 X88.832 Y104.405
G01 X90.625 Y101.470
G01 X77.344 Y101.470
G01 X72.099 Y110.411
G01 X70.703 Y112.972
G01 X64.063 Y101.470
G01 X77.344 Y101.470
G01 X90.625 Y101.470
G01 X85.449 Y109.846
G01 X80.710 Y118.436
G01 X79.759 Y120.291
G01 X77.344 Y124.473
G01 X72.383 Y132.894
G01 X70.703 Y135.975
G01 X64.063 Y124.473
G01 X77.344 Y124.473
G01 X72.383 Y132.894
G01 X70.703 Y135.975
G01 X65.699 Y144.473
G01 X64.063 Y147.477
G01 X57.422 Y135.975
G01 X70.703 Y135.975
G01 X75.518 Y127.463
G01 X77.344 Y124.473
G01 X64.063 Y124.473
G01 X58.816 Y133.417
G01 X57.422 Y135.975
G01 X50.781 Y124.473
G01 X64.063 Y124.473
G01 X77.344 Y124.473
G01 X81.978 Y115.860
G01 X87.042 Y107.464
G01 X88.210 Y105.652
G01 X90.625 Y101.470
G01 X73.025 Y101.302
G01 X68.892 Y101.470
G01 X64.063 Y101.470
G01 X58.562 Y110.879
G01 X57.422 Y112.972
G01 X50.781 Y101.470
G01 X64.063 Y101.470
G01 X58.562 Y110.879
G01 X57.422 Y112.972
G01 X51.920 Y122.383
G01 X50.781 Y124.473
G01 X44.141 Y112.972
G01 X57.422 Y112.972
G01 X62.819 Y103.506
G01 X64.063 Y101.470
G01 X50.781 Y101.470
G01 X45.015 Y111.368
G01 X44.141 Y112.972
G01 X37.500 Y101.470
G01 X50.781 Y101.470
G01 X64.063 Y101.470
G01 X82.422 Y101.330
G01 X85.795 Y101.470
G01 X90.625 Y101.470
G01 X105.561 Y101.200
G01 X112.358 Y101.470
G01 X125.010 Y101.218
G01 X131.676 Y101.470
G01 X142.743 Y101.433
G01 X143.750 Y101.470
G01 X153.648 Y101.214
G01 X161.047 Y101.470
G01 X169.713 Y101.190
G01 X178.187 Y101.459
G01 X178.343 Y101.470
G01 X186.010 Y101.180
G01 X193.530 Y101.343
G01 X195.640 Y101.470
G01 X202.538 Y101.180
G01 X209.331 Y101.269
G01 X212.936 Y101.470
G01 X219.294 Y101.185
G01 X225.589 Y101.228
G01 X230.233 Y101.470
G01 X236.281 Y101.190
G01 X242.309 Y101.210
G01 X247.529 Y101.470
G01 X250.000 Y101.470
G01 X250.000 Y223.000

