;  Created by Sandify
;  https://sandify.org
;  Version: 0.2.6
;
;  Machine type: Rectangular
;    Min X (mm): 0
;    Max X (mm): 500
;    Min Y (mm): 0
;    Max Y (mm): 500
;  Content type: shape
;  Layer:
;    Shape: FileImport
;    Name: dither_yinyang.thr
;    From file:: dither_yinyang.thr
;    Aspect Ratio: true
;    Comments: 
;    Visible: true
;    Initial width: 10
;    Initial height: 10
;    X offset: 0
;    Y offset: 0
;    Rotate (degrees): 0
;    Reverse path: false
;    Fine tuning:
;      Connect to next layer: line
;      Draw portion of path (%): 100
;      Backtrack at end (%): 0
;      Rotate starting point (%): 0
;  Reverse export path: false
;
; File name: 'yingyang (E) (C N)'
; File type: gcode
;

G01 X250.000 Y250.000
G01 X249.999 Y250.022
G01 X249.996 Y250.044
G01 X249.990 Y250.066
G01 X249.983 Y250.087
G01 X249.973 Y250.108
G01 X249.961 Y250.127
G01 X249.948 Y250.146
G01 X249.932 Y250.164
G01 X249.915 Y250.180
G01 X249.895 Y250.196
G01 X249.875 Y250.209
G01 X249.852 Y250.221
G01 X249.828 Y250.232
G01 X249.803 Y250.240
G01 X249.777 Y250.247
G01 X249.749 Y250.251
G01 X249.721 Y250.253
G01 X249.691 Y250.253
G01 X249.661 Y250.251
G01 X249.631 Y250.247
G01 X249.600 Y250.240
G01 X249.570 Y250.230
G01 X249.539 Y250.218
G01 X249.508 Y250.204
G01 X249.478 Y250.187
G01 X249.448 Y250.167
G01 X249.419 Y250.146
G01 X249.391 Y250.121
G01 X249.364 Y250.094
G01 X249.338 Y250.065
G01 X249.313 Y250.034
G01 X249.290 Y250.000
G01 X249.282 Y249.987
G01 X249.272 Y249.951
G01 X249.264 Y249.914
G01 X249.259 Y249.876
G01 X249.255 Y249.837
G01 X249.253 Y249.798
G01 X249.253 Y249.758
G01 X249.255 Y249.718
G01 X249.260 Y249.677
G01 X249.267 Y249.636
G01 X249.276 Y249.595
G01 X249.287 Y249.554
G01 X249.300 Y249.514
G01 X249.316 Y249.473
G01 X249.334 Y249.433
G01 X249.355 Y249.393
G01 X249.378 Y249.354
G01 X249.403 Y249.316
G01 X249.430 Y249.279
G01 X249.460 Y249.243
G01 X249.492 Y249.208
G01 X249.525 Y249.174
G01 X249.561 Y249.142
G01 X249.599 Y249.111
G01 X249.640 Y249.082
G01 X249.681 Y249.055
G01 X249.725 Y249.030
G01 X249.771 Y249.007
G01 X249.818 Y248.986
G01 X249.866 Y248.967
G01 X249.916 Y248.950
G01 X249.967 Y248.936
G01 X250.020 Y248.925
G01 X250.073 Y248.916
G01 X250.128 Y248.910
G01 X250.183 Y248.907
G01 X250.239 Y248.906
G01 X250.295 Y248.908
G01 X250.352 Y248.913
G01 X250.408 Y248.921
G01 X250.465 Y248.933
G01 X250.522 Y248.947
G01 X250.579 Y248.964
G01 X250.635 Y248.984
G01 X250.690 Y249.007
G01 X250.745 Y249.033
G01 X250.799 Y249.063
G01 X250.851 Y249.095
G01 X250.903 Y249.130
G01 X250.953 Y249.168
G01 X251.001 Y249.209
G01 X251.048 Y249.252
G01 X251.093 Y249.299
G01 X251.135 Y249.348
G01 X251.176 Y249.399
G01 X251.214 Y249.453
G01 X251.250 Y249.509
G01 X251.283 Y249.567
G01 X251.314 Y249.628
G01 X251.341 Y249.690
G01 X251.366 Y249.754
G01 X251.387 Y249.820
G01 X251.405 Y249.888
G01 X251.420 Y249.956
G01 X251.427 Y249.995
G01 X251.381 Y250.063
G01 X251.332 Y250.127
G01 X251.280 Y250.186
G01 X251.226 Y250.240
G01 X251.170 Y250.289
G01 X251.111 Y250.333
G01 X251.052 Y250.373
G01 X250.991 Y250.407
G01 X250.929 Y250.436
G01 X250.868 Y250.460
G01 X250.806 Y250.479
G01 X250.744 Y250.494
G01 X250.683 Y250.503
G01 X250.623 Y250.508
G01 X250.564 Y250.508
G01 X250.507 Y250.504
G01 X250.452 Y250.495
G01 X250.399 Y250.483
G01 X250.348 Y250.466
G01 X250.300 Y250.446
G01 X250.255 Y250.422
G01 X250.212 Y250.394
G01 X250.174 Y250.364
G01 X250.138 Y250.331
G01 X250.107 Y250.296
G01 X250.079 Y250.258
G01 X250.055 Y250.219
G01 X250.036 Y250.177
G01 X250.020 Y250.135
G01 X250.009 Y250.091
G01 X250.002 Y250.047
G01 X250.000 Y250.003
G01 X250.000 Y250.000
G01 X249.997 Y250.066
G01 X249.987 Y250.132
G01 X249.971 Y250.197
G01 X249.948 Y250.261
G01 X249.919 Y250.322
G01 X249.884 Y250.381
G01 X249.843 Y250.438
G01 X249.797 Y250.491
G01 X249.744 Y250.540
G01 X249.687 Y250.586
G01 X249.624 Y250.627
G01 X249.557 Y250.663
G01 X249.486 Y250.693
G01 X249.410 Y250.719
G01 X249.331 Y250.738
G01 X249.249 Y250.751
G01 X249.164 Y250.758
G01 X249.076 Y250.758
G01 X248.987 Y250.752
G01 X248.896 Y250.738
G01 X248.804 Y250.717
G01 X248.712 Y250.689
G01 X248.619 Y250.653
G01 X248.528 Y250.610
G01 X248.437 Y250.559
G01 X248.348 Y250.501
G01 X248.261 Y250.436
G01 X248.176 Y250.363
G01 X248.095 Y250.283
G01 X248.018 Y250.195
G01 X247.944 Y250.101
G01 X247.875 Y250.000
G01 X247.855 Y249.967
G01 X247.848 Y249.861
G01 X247.846 Y249.755
G01 X247.850 Y249.647
G01 X247.859 Y249.540
G01 X247.873 Y249.433
G01 X247.893 Y249.326
G01 X247.918 Y249.219
G01 X247.949 Y249.113
G01 X247.985 Y249.009
G01 X248.026 Y248.906
G01 X248.073 Y248.804
G01 X248.124 Y248.705
G01 X248.181 Y248.608
G01 X248.243 Y248.513
G01 X248.310 Y248.421
G01 X248.382 Y248.332
G01 X248.458 Y248.246
G01 X248.539 Y248.164
G01 X248.625 Y248.085
G01 X248.714 Y248.011
G01 X248.808 Y247.940
G01 X248.905 Y247.874
G01 X249.006 Y247.813
G01 X249.111 Y247.757
G01 X249.218 Y247.705
G01 X249.329 Y247.659
G01 X249.442 Y247.618
G01 X249.557 Y247.582
G01 X249.675 Y247.553
G01 X249.795 Y247.528
G01 X249.916 Y247.510
G01 X250.038 Y247.498
G01 X250.162 Y247.492
G01 X250.286 Y247.491
G01 X250.410 Y247.498
G01 X250.535 Y247.510
G01 X250.659 Y247.528
G01 X250.783 Y247.553
G01 X250.906 Y247.584
G01 X251.028 Y247.621
G01 X251.149 Y247.664
G01 X251.267 Y247.714
G01 X251.384 Y247.769
G01 X251.498 Y247.831
G01 X251.609 Y247.898
G01 X251.718 Y247.971
G01 X251.823 Y248.049
G01 X251.924 Y248.133
G01 X252.022 Y248.223
G01 X252.116 Y248.317
G01 X252.205 Y248.416
G01 X252.289 Y248.521
G01 X252.369 Y248.629
G01 X252.443 Y248.742
G01 X252.512 Y248.859
G01 X252.575 Y248.979
G01 X252.633 Y249.103
G01 X252.684 Y249.230
G01 X252.730 Y249.360
G01 X252.769 Y249.493
G01 X252.801 Y249.628
G01 X252.827 Y249.765
G01 X252.847 Y249.904
G01 X252.854 Y249.982
G01 X255.711 Y250.078
G01 X255.701 Y250.359
G01 X255.676 Y250.638
G01 X255.638 Y250.916
G01 X255.586 Y251.191
G01 X255.521 Y251.464
G01 X255.443 Y251.733
G01 X255.351 Y251.998
G01 X255.247 Y252.258
G01 X255.130 Y252.513
G01 X255.000 Y252.762
G01 X254.859 Y253.004
G01 X254.705 Y253.238
G01 X254.541 Y253.465
G01 X254.365 Y253.684
G01 X254.179 Y253.894
G01 X253.983 Y254.094
G01 X253.777 Y254.285
G01 X253.563 Y254.465
G01 X253.339 Y254.634
G01 X253.108 Y254.792
G01 X252.869 Y254.939
G01 X252.623 Y255.074
G01 X252.371 Y255.197
G01 X252.113 Y255.307
G01 X251.850 Y255.404
G01 X251.583 Y255.488
G01 X251.312 Y255.559
G01 X251.037 Y255.617
G01 X250.760 Y255.661
G01 X250.482 Y255.692
G01 X250.202 Y255.708
G01 X249.922 Y255.711
G01 X249.641 Y255.701
G01 X249.362 Y255.676
G01 X249.084 Y255.638
G01 X248.809 Y255.586
G01 X248.536 Y255.521
G01 X248.267 Y255.443
G01 X248.002 Y255.351
G01 X247.742 Y255.247
G01 X247.487 Y255.130
G01 X247.238 Y255.000
G01 X246.996 Y254.859
G01 X246.762 Y254.705
G01 X246.535 Y254.541
G01 X246.316 Y254.365
G01 X246.106 Y254.179
G01 X245.906 Y253.983
G01 X245.715 Y253.777
G01 X245.535 Y253.563
G01 X245.366 Y253.339
G01 X245.208 Y253.108
G01 X245.061 Y252.869
G01 X244.926 Y252.623
G01 X244.803 Y252.371
G01 X244.693 Y252.113
G01 X244.596 Y251.850
G01 X244.512 Y251.583
G01 X244.441 Y251.312
G01 X244.383 Y251.037
G01 X244.339 Y250.760
G01 X244.308 Y250.482
G01 X244.292 Y250.202
G01 X244.288 Y249.930
G01 X246.425 Y249.885
G01 X246.423 Y249.709
G01 X246.431 Y249.532
G01 X246.447 Y249.355
G01 X246.472 Y249.179
G01 X246.506 Y249.004
G01 X246.549 Y248.830
G01 X246.600 Y248.658
G01 X246.660 Y248.489
G01 X246.728 Y248.321
G01 X246.804 Y248.157
G01 X246.889 Y247.997
G01 X246.982 Y247.840
G01 X247.083 Y247.687
G01 X247.192 Y247.540
G01 X247.308 Y247.397
G01 X247.431 Y247.260
G01 X247.561 Y247.129
G01 X247.698 Y247.004
G01 X247.842 Y246.885
G01 X247.991 Y246.774
G01 X248.147 Y246.669
G01 X248.307 Y246.572
G01 X248.473 Y246.483
G01 X248.644 Y246.402
G01 X248.818 Y246.329
G01 X248.997 Y246.265
G01 X249.179 Y246.209
G01 X249.364 Y246.163
G01 X249.552 Y246.125
G01 X249.742 Y246.097
G01 X249.934 Y246.077
G01 X250.127 Y246.068
G01 X250.320 Y246.068
G01 X250.514 Y246.077
G01 X250.708 Y246.096
G01 X250.902 Y246.125
G01 X251.094 Y246.163
G01 X251.284 Y246.210
G01 X251.473 Y246.268
G01 X251.659 Y246.334
G01 X251.842 Y246.410
G01 X252.021 Y246.495
G01 X252.197 Y246.589
G01 X252.368 Y246.692
G01 X252.534 Y246.803
G01 X252.695 Y246.923
G01 X252.851 Y247.051
G01 X253.000 Y247.187
G01 X253.143 Y247.330
G01 X253.279 Y247.481
G01 X253.408 Y247.639
G01 X253.529 Y247.803
G01 X253.643 Y247.973
G01 X253.748 Y248.149
G01 X253.844 Y248.331
G01 X253.932 Y248.518
G01 X254.011 Y248.709
G01 X254.080 Y248.905
G01 X254.140 Y249.104
G01 X254.190 Y249.306
G01 X254.230 Y249.511
G01 X254.260 Y249.719
G01 X254.280 Y249.928
G01 X254.286 Y250.046
G01 X255.709 Y250.175
G01 X255.694 Y250.455
G01 X255.665 Y250.734
G01 X255.622 Y251.011
G01 X255.565 Y251.286
G01 X255.496 Y251.557
G01 X255.413 Y251.825
G01 X255.317 Y252.088
G01 X255.208 Y252.347
G01 X255.086 Y252.599
G01 X254.953 Y252.846
G01 X254.807 Y253.085
G01 X254.650 Y253.318
G01 X254.481 Y253.542
G01 X254.302 Y253.757
G01 X254.113 Y253.964
G01 X253.913 Y254.161
G01 X253.704 Y254.348
G01 X253.486 Y254.525
G01 X253.260 Y254.690
G01 X253.026 Y254.844
G01 X252.785 Y254.987
G01 X252.537 Y255.118
G01 X252.283 Y255.236
G01 X252.023 Y255.342
G01 X251.758 Y255.435
G01 X251.490 Y255.514
G01 X251.217 Y255.581
G01 X250.942 Y255.634
G01 X250.664 Y255.673
G01 X250.385 Y255.699
G01 X250.105 Y255.711
G01 X249.825 Y255.709
G01 X249.545 Y255.694
G01 X249.266 Y255.665
G01 X248.989 Y255.622
G01 X248.714 Y255.565
G01 X248.443 Y255.496
G01 X248.175 Y255.413
G01 X247.912 Y255.317
G01 X247.653 Y255.208
G01 X247.401 Y255.086
G01 X247.154 Y254.953
G01 X246.915 Y254.807
G01 X246.682 Y254.650
G01 X246.458 Y254.481
G01 X246.243 Y254.302
G01 X246.036 Y254.113
G01 X245.839 Y253.913
G01 X245.652 Y253.704
G01 X245.475 Y253.486
G01 X245.310 Y253.260
G01 X245.156 Y253.026
G01 X245.013 Y252.785
G01 X244.882 Y252.537
G01 X244.764 Y252.283
G01 X244.658 Y252.023
G01 X244.565 Y251.758
G01 X244.486 Y251.490
G01 X244.419 Y251.217
G01 X244.366 Y250.942
G01 X244.327 Y250.664
G01 X244.301 Y250.385
G01 X244.289 Y250.105
G01 X244.288 Y249.948
G01 X244.998 Y249.854
G01 X245.000 Y249.608
G01 X245.014 Y249.362
G01 X245.040 Y249.116
G01 X245.079 Y248.871
G01 X245.129 Y248.628
G01 X245.192 Y248.387
G01 X245.266 Y248.149
G01 X245.353 Y247.914
G01 X245.451 Y247.684
G01 X245.560 Y247.458
G01 X245.681 Y247.237
G01 X245.813 Y247.022
G01 X245.955 Y246.813
G01 X246.108 Y246.611
G01 X246.271 Y246.417
G01 X246.443 Y246.230
G01 X246.626 Y246.051
G01 X246.816 Y245.882
G01 X247.016 Y245.721
G01 X247.224 Y245.571
G01 X247.439 Y245.430
G01 X247.661 Y245.300
G01 X247.890 Y245.180
G01 X248.125 Y245.072
G01 X248.366 Y244.976
G01 X248.611 Y244.891
G01 X248.861 Y244.818
G01 X249.115 Y244.757
G01 X249.372 Y244.709
G01 X249.632 Y244.673
G01 X249.893 Y244.651
G01 X250.156 Y244.641
G01 X250.420 Y244.644
G01 X250.684 Y244.660
G01 X250.947 Y244.689
G01 X251.209 Y244.731
G01 X251.469 Y244.786
G01 X251.727 Y244.853
G01 X251.981 Y244.934
G01 X252.232 Y245.027
G01 X252.478 Y245.133
G01 X252.720 Y245.250
G01 X252.955 Y245.380
G01 X253.185 Y245.522
G01 X253.408 Y245.675
G01 X253.623 Y245.839
G01 X253.831 Y246.013
G01 X254.030 Y246.198
G01 X254.220 Y246.394
G01 X254.401 Y246.598
G01 X254.572 Y246.812
G01 X254.732 Y247.034
G01 X254.882 Y247.264
G01 X255.020 Y247.502
G01 X255.147 Y247.747
G01 X255.261 Y247.998
G01 X255.364 Y248.255
G01 X255.454 Y248.518
G01 X255.531 Y248.785
G01 X255.595 Y249.056
G01 X255.646 Y249.330
G01 X255.683 Y249.607
G01 X255.706 Y249.886
G01 X255.714 Y250.044
G01 X255.710 Y250.158
G01 X255.695 Y250.438
G01 X255.667 Y250.717
G01 X255.625 Y250.994
G01 X255.569 Y251.269
G01 X255.500 Y251.541
G01 X255.418 Y251.809
G01 X255.323 Y252.072
G01 X255.215 Y252.331
G01 X255.094 Y252.584
G01 X254.961 Y252.831
G01 X254.816 Y253.071
G01 X254.660 Y253.303
G01 X254.492 Y253.528
G01 X254.314 Y253.744
G01 X254.125 Y253.951
G01 X253.926 Y254.149
G01 X253.717 Y254.337
G01 X253.500 Y254.514
G01 X253.275 Y254.680
G01 X253.041 Y254.835
G01 X252.800 Y254.979
G01 X252.552 Y255.110
G01 X252.299 Y255.229
G01 X252.039 Y255.336
G01 X251.775 Y255.429
G01 X251.506 Y255.510
G01 X251.234 Y255.577
G01 X250.959 Y255.631
G01 X250.682 Y255.671
G01 X250.403 Y255.698
G01 X250.122 Y255.711
G01 X249.842 Y255.710
G01 X249.562 Y255.695
G01 X249.283 Y255.667
G01 X249.006 Y255.625
G01 X248.731 Y255.569
G01 X248.459 Y255.500
G01 X248.191 Y255.418
G01 X247.928 Y255.323
G01 X247.669 Y255.215
G01 X247.416 Y255.094
G01 X247.169 Y254.961
G01 X246.929 Y254.816
G01 X246.697 Y254.660
G01 X246.472 Y254.492
G01 X246.256 Y254.314
G01 X246.049 Y254.125
G01 X245.851 Y253.926
G01 X245.663 Y253.717
G01 X245.486 Y253.500
G01 X245.320 Y253.275
G01 X245.165 Y253.041
G01 X245.021 Y252.800
G01 X244.890 Y252.552
G01 X244.771 Y252.299
G01 X244.664 Y252.039
G01 X244.571 Y251.775
G01 X244.490 Y251.506
G01 X244.423 Y251.234
G01 X244.369 Y250.959
G01 X244.329 Y250.682
G01 X244.302 Y250.403
G01 X244.289 Y250.122
G01 X244.288 Y249.965
G01 X243.570 Y249.832
G01 X243.575 Y249.516
G01 X243.595 Y249.200
G01 X243.631 Y248.885
G01 X243.683 Y248.571
G01 X243.750 Y248.260
G01 X243.832 Y247.952
G01 X243.930 Y247.647
G01 X244.042 Y247.348
G01 X244.170 Y247.054
G01 X244.312 Y246.766
G01 X244.468 Y246.485
G01 X244.638 Y246.211
G01 X244.821 Y245.945
G01 X245.018 Y245.689
G01 X245.228 Y245.442
G01 X245.449 Y245.205
G01 X245.683 Y244.979
G01 X245.928 Y244.765
G01 X246.183 Y244.562
G01 X246.448 Y244.372
G01 X246.723 Y244.195
G01 X247.007 Y244.031
G01 X247.299 Y243.881
G01 X247.599 Y243.745
G01 X247.905 Y243.625
G01 X248.217 Y243.519
G01 X248.535 Y243.428
G01 X248.857 Y243.353
G01 X249.184 Y243.294
G01 X249.513 Y243.251
G01 X249.844 Y243.224
G01 X250.177 Y243.213
G01 X250.511 Y243.219
G01 X250.844 Y243.241
G01 X251.177 Y243.280
G01 X251.508 Y243.335
G01 X251.836 Y243.406
G01 X252.161 Y243.494
G01 X252.482 Y243.597
G01 X252.797 Y243.716
G01 X253.107 Y243.851
G01 X253.411 Y244.001
G01 X253.707 Y244.167
G01 X253.995 Y244.346
G01 X254.275 Y244.540
G01 X254.545 Y244.748
G01 X254.805 Y244.970
G01 X255.054 Y245.204
G01 X255.291 Y245.450
G01 X255.517 Y245.708
G01 X255.730 Y245.978
G01 X255.930 Y246.258
G01 X256.116 Y246.548
G01 X256.288 Y246.847
G01 X256.446 Y247.155
G01 X256.588 Y247.471
G01 X256.715 Y247.794
G01 X256.825 Y248.123
G01 X256.920 Y248.457
G01 X256.999 Y248.797
G01 X257.060 Y249.141
G01 X257.105 Y249.487
G01 X257.133 Y249.836
G01 X257.143 Y250.176
G01 X255.706 Y250.255
G01 X255.687 Y250.534
G01 X255.654 Y250.813
G01 X255.607 Y251.089
G01 X255.547 Y251.363
G01 X255.473 Y251.634
G01 X255.387 Y251.900
G01 X255.287 Y252.162
G01 X255.174 Y252.419
G01 X255.050 Y252.670
G01 X254.912 Y252.915
G01 X254.764 Y253.152
G01 X254.603 Y253.382
G01 X254.432 Y253.604
G01 X254.249 Y253.817
G01 X254.057 Y254.021
G01 X253.855 Y254.215
G01 X253.643 Y254.399
G01 X253.423 Y254.573
G01 X253.195 Y254.735
G01 X252.959 Y254.886
G01 X252.715 Y255.025
G01 X252.465 Y255.153
G01 X252.210 Y255.267
G01 X251.948 Y255.369
G01 X251.683 Y255.459
G01 X251.413 Y255.535
G01 X251.139 Y255.597
G01 X250.863 Y255.646
G01 X250.585 Y255.682
G01 X250.306 Y255.704
G01 X250.026 Y255.712
G01 X249.745 Y255.706
G01 X249.466 Y255.687
G01 X249.187 Y255.654
G01 X248.911 Y255.607
G01 X248.637 Y255.547
G01 X248.366 Y255.473
G01 X248.100 Y255.387
G01 X247.838 Y255.287
G01 X247.581 Y255.174
G01 X247.330 Y255.050
G01 X247.085 Y254.912
G01 X246.848 Y254.764
G01 X246.618 Y254.603
G01 X246.396 Y254.432
G01 X246.183 Y254.249
G01 X245.979 Y254.057
G01 X245.785 Y253.855
G01 X245.601 Y253.643
G01 X245.427 Y253.423
G01 X245.265 Y253.195
G01 X245.114 Y252.959
G01 X244.975 Y252.715
G01 X244.847 Y252.465
G01 X244.733 Y252.210
G01 X244.631 Y251.948
G01 X244.541 Y251.683
G01 X244.465 Y251.413
G01 X244.403 Y251.139
G01 X244.354 Y250.863
G01 X244.318 Y250.585
G01 X244.296 Y250.306
G01 X244.288 Y250.026
G01 X244.290 Y249.868
G01 X242.144 Y249.661
G01 X242.159 Y249.275
G01 X242.192 Y248.890
G01 X242.245 Y248.506
G01 X242.317 Y248.125
G01 X242.408 Y247.747
G01 X242.517 Y247.373
G01 X242.645 Y247.005
G01 X242.790 Y246.643
G01 X242.954 Y246.288
G01 X243.135 Y245.941
G01 X243.333 Y245.603
G01 X243.548 Y245.274
G01 X243.779 Y244.957
G01 X244.025 Y244.650
G01 X244.287 Y244.355
G01 X244.563 Y244.074
G01 X244.854 Y243.805
G01 X245.157 Y243.551
G01 X245.473 Y243.312
G01 X245.801 Y243.089
G01 X246.140 Y242.881
G01 X246.489 Y242.690
G01 X246.847 Y242.517
G01 X247.215 Y242.360
G01 X247.590 Y242.222
G01 X247.971 Y242.103
G01 X248.359 Y242.002
G01 X248.752 Y241.920
G01 X249.149 Y241.857
G01 X249.549 Y241.814
G01 X249.951 Y241.790
G01 X250.354 Y241.787
G01 X250.758 Y241.803
G01 X251.161 Y241.839
G01 X251.562 Y241.895
G01 X251.960 Y241.970
G01 X252.355 Y242.065
G01 X252.745 Y242.180
G01 X253.130 Y242.314
G01 X253.508 Y242.467
G01 X253.878 Y242.638
G01 X254.241 Y242.827
G01 X254.594 Y243.035
G01 X254.937 Y243.260
G01 X255.268 Y243.501
G01 X255.588 Y243.759
G01 X255.896 Y244.033
G01 X256.190 Y244.322
G01 X256.469 Y244.625
G01 X256.734 Y244.943
G01 X256.983 Y245.273
G01 X257.216 Y245.615
G01 X257.433 Y245.970
G01 X257.632 Y246.334
G01 X257.813 Y246.709
G01 X257.975 Y247.092
G01 X258.119 Y247.484
G01 X258.243 Y247.882
G01 X258.348 Y248.287
G01 X258.433 Y248.697
G01 X258.498 Y249.111
G01 X258.543 Y249.529
G01 X258.567 Y249.949
G01 X258.571 Y250.185
G01 X261.414 Y250.475
G01 X261.377 Y251.034
G01 X261.313 Y251.591
G01 X261.221 Y252.144
G01 X261.102 Y252.692
G01 X260.957 Y253.234
G01 X260.785 Y253.768
G01 X260.587 Y254.292
G01 X260.364 Y254.807
G01 X260.115 Y255.309
G01 X259.843 Y255.799
G01 X259.546 Y256.275
G01 X259.227 Y256.736
G01 X258.885 Y257.181
G01 X258.522 Y257.608
G01 X258.139 Y258.017
G01 X257.735 Y258.407
G01 X257.314 Y258.776
G01 X256.874 Y259.124
G01 X256.418 Y259.451
G01 X255.947 Y259.754
G01 X255.461 Y260.034
G01 X254.962 Y260.290
G01 X254.451 Y260.521
G01 X253.929 Y260.727
G01 X253.398 Y260.907
G01 X252.859 Y261.060
G01 X252.313 Y261.187
G01 X251.761 Y261.287
G01 X251.205 Y261.360
G01 X250.646 Y261.406
G01 X250.086 Y261.424
G01 X249.525 Y261.414
G01 X248.966 Y261.377
G01 X248.409 Y261.313
G01 X247.856 Y261.221
G01 X247.308 Y261.102
G01 X246.766 Y260.957
G01 X246.232 Y260.785
G01 X245.708 Y260.587
G01 X245.193 Y260.364
G01 X244.691 Y260.115
G01 X244.201 Y259.843
G01 X243.725 Y259.546
G01 X243.264 Y259.227
G01 X242.819 Y258.885
G01 X242.392 Y258.522
G01 X241.983 Y258.139
G01 X241.593 Y257.735
G01 X241.224 Y257.314
G01 X240.876 Y256.874
G01 X240.549 Y256.418
G01 X240.246 Y255.947
G01 X239.966 Y255.461
G01 X239.710 Y254.962
G01 X239.479 Y254.451
G01 X239.273 Y253.929
G01 X239.093 Y253.398
G01 X238.940 Y252.859
G01 X238.813 Y252.313
G01 X238.713 Y251.761
G01 X238.640 Y251.205
G01 X238.594 Y250.646
G01 X238.576 Y250.086
G01 X238.578 Y249.771
G01 X240.716 Y249.628
G01 X240.735 Y249.172
G01 X240.776 Y248.717
G01 X240.839 Y248.264
G01 X240.924 Y247.814
G01 X241.031 Y247.368
G01 X241.161 Y246.927
G01 X241.312 Y246.493
G01 X241.484 Y246.066
G01 X241.678 Y245.648
G01 X241.892 Y245.239
G01 X242.126 Y244.841
G01 X242.379 Y244.454
G01 X242.652 Y244.080
G01 X242.943 Y243.719
G01 X243.252 Y243.373
G01 X243.577 Y243.041
G01 X243.919 Y242.726
G01 X244.277 Y242.428
G01 X244.649 Y242.147
G01 X245.035 Y241.884
G01 X245.434 Y241.640
G01 X245.845 Y241.416
G01 X246.267 Y241.213
G01 X246.698 Y241.029
G01 X247.139 Y240.868
G01 X247.588 Y240.727
G01 X248.044 Y240.609
G01 X248.505 Y240.514
G01 X248.971 Y240.441
G01 X249.441 Y240.391
G01 X249.913 Y240.364
G01 X250.386 Y240.360
G01 X250.860 Y240.379
G01 X251.332 Y240.422
G01 X251.803 Y240.488
G01 X252.270 Y240.577
G01 X252.733 Y240.689
G01 X253.190 Y240.824
G01 X253.641 Y240.981
G01 X254.083 Y241.160
G01 X254.517 Y241.361
G01 X254.942 Y241.584
G01 X255.355 Y241.827
G01 X255.756 Y242.091
G01 X256.144 Y242.374
G01 X256.518 Y242.676
G01 X256.877 Y242.997
G01 X257.221 Y243.335
G01 X257.548 Y243.690
G01 X257.857 Y244.062
G01 X258.148 Y244.448
G01 X258.421 Y244.849
G01 X258.673 Y245.263
G01 X258.905 Y245.689
G01 X259.116 Y246.127
G01 X259.306 Y246.575
G01 X259.473 Y247.033
G01 X259.618 Y247.498
G01 X259.740 Y247.971
G01 X259.839 Y248.449
G01 X259.914 Y248.933
G01 X259.966 Y249.420
G01 X259.994 Y249.910
G01 X259.997 Y250.385
G01 X261.404 Y250.668
G01 X261.358 Y251.227
G01 X261.284 Y251.783
G01 X261.183 Y252.334
G01 X261.055 Y252.880
G01 X260.900 Y253.419
G01 X260.719 Y253.950
G01 X260.513 Y254.471
G01 X260.281 Y254.982
G01 X260.024 Y255.480
G01 X259.743 Y255.965
G01 X259.438 Y256.436
G01 X259.111 Y256.892
G01 X258.762 Y257.330
G01 X258.392 Y257.751
G01 X258.001 Y258.154
G01 X257.592 Y258.537
G01 X257.164 Y258.899
G01 X256.718 Y259.240
G01 X256.257 Y259.558
G01 X255.780 Y259.854
G01 X255.290 Y260.125
G01 X254.787 Y260.373
G01 X254.272 Y260.595
G01 X253.747 Y260.792
G01 X253.213 Y260.963
G01 X252.671 Y261.107
G01 X252.123 Y261.225
G01 X251.570 Y261.316
G01 X251.012 Y261.379
G01 X250.453 Y261.415
G01 X249.892 Y261.423
G01 X249.332 Y261.404
G01 X248.773 Y261.358
G01 X248.217 Y261.284
G01 X247.666 Y261.183
G01 X247.120 Y261.055
G01 X246.581 Y260.900
G01 X246.050 Y260.719
G01 X245.529 Y260.513
G01 X245.018 Y260.281
G01 X244.520 Y260.024
G01 X244.035 Y259.743
G01 X243.564 Y259.438
G01 X243.108 Y259.111
G01 X242.670 Y258.762
G01 X242.249 Y258.392
G01 X241.846 Y258.001
G01 X241.463 Y257.592
G01 X241.101 Y257.164
G01 X240.760 Y256.718
G01 X240.442 Y256.257
G01 X240.146 Y255.780
G01 X239.875 Y255.290
G01 X239.627 Y254.787
G01 X239.405 Y254.272
G01 X239.208 Y253.747
G01 X239.037 Y253.213
G01 X238.893 Y252.671
G01 X238.775 Y252.123
G01 X238.684 Y251.570
G01 X238.621 Y251.012
G01 X238.585 Y250.453
G01 X238.577 Y249.892
G01 X238.584 Y249.577
G01 X239.294 Y249.389
G01 X239.326 Y248.863
G01 X239.384 Y248.339
G01 X239.467 Y247.818
G01 X239.576 Y247.301
G01 X239.710 Y246.790
G01 X239.870 Y246.285
G01 X240.054 Y245.788
G01 X240.263 Y245.300
G01 X240.495 Y244.823
G01 X240.751 Y244.357
G01 X241.030 Y243.903
G01 X241.331 Y243.464
G01 X241.654 Y243.039
G01 X241.997 Y242.630
G01 X242.361 Y242.239
G01 X242.743 Y241.865
G01 X243.144 Y241.510
G01 X243.562 Y241.175
G01 X243.997 Y240.860
G01 X244.447 Y240.567
G01 X244.911 Y240.296
G01 X245.389 Y240.048
G01 X245.879 Y239.823
G01 X246.379 Y239.623
G01 X246.890 Y239.447
G01 X247.409 Y239.296
G01 X247.935 Y239.171
G01 X248.467 Y239.072
G01 X249.004 Y238.998
G01 X249.545 Y238.952
G01 X250.088 Y238.932
G01 X250.631 Y238.938
G01 X251.174 Y238.971
G01 X251.716 Y239.031
G01 X252.254 Y239.118
G01 X252.788 Y239.231
G01 X253.317 Y239.370
G01 X253.838 Y239.535
G01 X254.351 Y239.725
G01 X254.855 Y239.941
G01 X255.348 Y240.182
G01 X255.829 Y240.447
G01 X256.297 Y240.735
G01 X256.751 Y241.046
G01 X257.189 Y241.380
G01 X257.611 Y241.735
G01 X258.016 Y242.110
G01 X258.401 Y242.506
G01 X258.768 Y242.920
G01 X259.114 Y243.352
G01 X259.438 Y243.801
G01 X259.741 Y244.266
G01 X260.020 Y244.746
G01 X260.276 Y245.239
G01 X260.508 Y245.745
G01 X260.714 Y246.262
G01 X260.895 Y246.789
G01 X261.051 Y247.325
G01 X261.180 Y247.868
G01 X261.282 Y248.418
G01 X261.357 Y248.972
G01 X261.405 Y249.530
G01 X261.425 Y250.090
G01 X261.425 Y250.405
G01 X261.406 Y250.633
G01 X261.362 Y251.192
G01 X261.289 Y251.748
G01 X261.190 Y252.300
G01 X261.064 Y252.847
G01 X260.911 Y253.386
G01 X260.731 Y253.917
G01 X260.526 Y254.439
G01 X260.296 Y254.950
G01 X260.040 Y255.450
G01 X259.761 Y255.936
G01 X259.458 Y256.407
G01 X259.132 Y256.864
G01 X258.784 Y257.304
G01 X258.415 Y257.726
G01 X258.026 Y258.129
G01 X257.618 Y258.513
G01 X257.191 Y258.877
G01 X256.746 Y259.219
G01 X256.286 Y259.539
G01 X255.810 Y259.836
G01 X255.321 Y260.109
G01 X254.818 Y260.358
G01 X254.304 Y260.582
G01 X253.780 Y260.781
G01 X253.246 Y260.953
G01 X252.705 Y261.099
G01 X252.157 Y261.219
G01 X251.604 Y261.311
G01 X251.047 Y261.376
G01 X250.488 Y261.414
G01 X249.927 Y261.424
G01 X249.367 Y261.406
G01 X248.808 Y261.362
G01 X248.252 Y261.289
G01 X247.700 Y261.190
G01 X247.153 Y261.064
G01 X246.614 Y260.911
G01 X246.083 Y260.731
G01 X245.561 Y260.526
G01 X245.050 Y260.296
G01 X244.550 Y260.040
G01 X244.064 Y259.761
G01 X243.593 Y259.458
G01 X243.136 Y259.132
G01 X242.696 Y258.784
G01 X242.274 Y258.415
G01 X241.871 Y258.026
G01 X241.487 Y257.618
G01 X241.123 Y257.191
G01 X240.781 Y256.746
G01 X240.461 Y256.286
G01 X240.164 Y255.810
G01 X239.891 Y255.321
G01 X239.642 Y254.818
G01 X239.418 Y254.304
G01 X239.219 Y253.780
G01 X239.047 Y253.246
G01 X238.901 Y252.705
G01 X238.781 Y252.157
G01 X238.689 Y251.604
G01 X238.624 Y251.047
G01 X238.586 Y250.488
G01 X238.576 Y249.927
G01 X238.583 Y249.612
G01 X237.867 Y249.345
G01 X237.903 Y248.749
G01 X237.968 Y248.155
G01 X238.062 Y247.565
G01 X238.185 Y246.979
G01 X238.337 Y246.400
G01 X238.517 Y245.828
G01 X238.725 Y245.265
G01 X238.961 Y244.713
G01 X239.224 Y244.173
G01 X239.514 Y243.645
G01 X239.829 Y243.132
G01 X240.169 Y242.634
G01 X240.534 Y242.154
G01 X240.922 Y241.691
G01 X241.333 Y241.248
G01 X241.765 Y240.825
G01 X242.218 Y240.423
G01 X242.691 Y240.044
G01 X243.182 Y239.688
G01 X243.691 Y239.356
G01 X244.215 Y239.050
G01 X244.755 Y238.769
G01 X245.308 Y238.515
G01 X245.873 Y238.288
G01 X246.450 Y238.089
G01 X247.036 Y237.918
G01 X247.630 Y237.776
G01 X248.231 Y237.663
G01 X248.838 Y237.580
G01 X249.448 Y237.527
G01 X250.061 Y237.504
G01 X250.675 Y237.511
G01 X251.288 Y237.548
G01 X251.899 Y237.615
G01 X252.506 Y237.712
G01 X253.109 Y237.839
G01 X253.705 Y237.996
G01 X254.294 Y238.182
G01 X254.873 Y238.396
G01 X255.441 Y238.639
G01 X255.997 Y238.910
G01 X256.540 Y239.208
G01 X257.068 Y239.533
G01 X257.580 Y239.883
G01 X258.074 Y240.259
G01 X258.550 Y240.659
G01 X259.006 Y241.081
G01 X259.441 Y241.527
G01 X259.854 Y241.993
G01 X260.244 Y242.480
G01 X260.610 Y242.985
G01 X260.951 Y243.509
G01 X261.266 Y244.048
G01 X261.555 Y244.604
G01 X261.816 Y245.173
G01 X262.049 Y245.755
G01 X262.254 Y246.348
G01 X262.429 Y246.951
G01 X262.574 Y247.562
G01 X262.690 Y248.181
G01 X262.775 Y248.805
G01 X262.829 Y249.432
G01 X262.853 Y250.063
G01 X262.848 Y250.636
G01 X261.397 Y250.786
G01 X261.345 Y251.345
G01 X261.265 Y251.900
G01 X261.158 Y252.450
G01 X261.024 Y252.995
G01 X260.864 Y253.532
G01 X260.678 Y254.061
G01 X260.466 Y254.580
G01 X260.228 Y255.088
G01 X259.966 Y255.584
G01 X259.680 Y256.066
G01 X259.371 Y256.534
G01 X259.039 Y256.986
G01 X258.686 Y257.421
G01 X258.311 Y257.838
G01 X257.916 Y258.236
G01 X257.503 Y258.615
G01 X257.071 Y258.973
G01 X256.622 Y259.309
G01 X256.157 Y259.623
G01 X255.678 Y259.913
G01 X255.185 Y260.180
G01 X254.679 Y260.422
G01 X254.162 Y260.639
G01 X253.635 Y260.830
G01 X253.099 Y260.996
G01 X252.556 Y261.134
G01 X252.006 Y261.246
G01 X251.452 Y261.331
G01 X250.894 Y261.389
G01 X250.334 Y261.419
G01 X249.774 Y261.422
G01 X249.214 Y261.397
G01 X248.655 Y261.345
G01 X248.100 Y261.265
G01 X247.550 Y261.158
G01 X247.005 Y261.024
G01 X246.468 Y260.864
G01 X245.939 Y260.678
G01 X245.420 Y260.466
G01 X244.912 Y260.228
G01 X244.416 Y259.966
G01 X243.934 Y259.680
G01 X243.466 Y259.371
G01 X243.014 Y259.039
G01 X242.579 Y258.686
G01 X242.162 Y258.311
G01 X241.764 Y257.916
G01 X241.385 Y257.503
G01 X241.027 Y257.071
G01 X240.691 Y256.622
G01 X240.377 Y256.157
G01 X240.087 Y255.678
G01 X239.820 Y255.185
G01 X239.578 Y254.679
G01 X239.361 Y254.162
G01 X239.170 Y253.635
G01 X239.004 Y253.099
G01 X238.866 Y252.556
G01 X238.754 Y252.006
G01 X238.669 Y251.452
G01 X238.611 Y250.894
G01 X238.581 Y250.334
G01 X238.578 Y249.774
G01 X238.589 Y249.457
G01 X236.449 Y249.104
G01 X236.498 Y248.439
G01 X236.580 Y247.777
G01 X236.694 Y247.118
G01 X236.841 Y246.466
G01 X237.019 Y245.821
G01 X237.229 Y245.185
G01 X237.471 Y244.560
G01 X237.743 Y243.947
G01 X238.045 Y243.347
G01 X238.376 Y242.763
G01 X238.736 Y242.195
G01 X239.124 Y241.645
G01 X239.538 Y241.114
G01 X239.979 Y240.604
G01 X240.444 Y240.115
G01 X240.933 Y239.650
G01 X241.445 Y239.209
G01 X241.979 Y238.793
G01 X242.532 Y238.404
G01 X243.105 Y238.041
G01 X243.695 Y237.708
G01 X244.301 Y237.403
G01 X244.922 Y237.128
G01 X245.556 Y236.884
G01 X246.202 Y236.671
G01 X246.858 Y236.490
G01 X247.522 Y236.341
G01 X248.194 Y236.224
G01 X248.871 Y236.141
G01 X249.552 Y236.092
G01 X250.236 Y236.075
G01 X250.919 Y236.092
G01 X251.602 Y236.143
G01 X252.282 Y236.227
G01 X252.957 Y236.345
G01 X253.626 Y236.496
G01 X254.288 Y236.679
G01 X254.940 Y236.895
G01 X255.582 Y237.143
G01 X256.211 Y237.423
G01 X256.826 Y237.733
G01 X257.426 Y238.073
G01 X258.008 Y238.443
G01 X258.573 Y238.841
G01 X259.117 Y239.266
G01 X259.640 Y239.719
G01 X260.141 Y240.196
G01 X260.618 Y240.698
G01 X261.071 Y241.224
G01 X261.497 Y241.771
G01 X261.897 Y242.339
G01 X262.268 Y242.926
G01 X262.610 Y243.532
G01 X262.922 Y244.154
G01 X263.204 Y244.791
G01 X263.454 Y245.441
G01 X263.673 Y246.104
G01 X263.858 Y246.777
G01 X264.011 Y247.459
G01 X264.129 Y248.148
G01 X264.214 Y248.842
G01 X264.265 Y249.541
G01 X264.282 Y250.242
G01 X264.275 Y250.662
G01 X267.101 Y251.093
G01 X267.027 Y251.931
G01 X266.912 Y252.764
G01 X266.756 Y253.591
G01 X266.559 Y254.408
G01 X266.323 Y255.216
G01 X266.047 Y256.010
G01 X265.733 Y256.790
G01 X265.381 Y257.554
G01 X264.992 Y258.300
G01 X264.567 Y259.025
G01 X264.106 Y259.729
G01 X263.612 Y260.410
G01 X263.085 Y261.065
G01 X262.526 Y261.694
G01 X261.937 Y262.294
G01 X261.319 Y262.865
G01 X260.674 Y263.405
G01 X260.004 Y263.913
G01 X259.309 Y264.387
G01 X258.592 Y264.826
G01 X257.854 Y265.230
G01 X257.097 Y265.597
G01 X256.324 Y265.927
G01 X255.534 Y266.218
G01 X254.732 Y266.470
G01 X253.918 Y266.682
G01 X253.095 Y266.854
G01 X252.264 Y266.986
G01 X251.428 Y267.076
G01 X250.588 Y267.126
G01 X249.747 Y267.134
G01 X248.907 Y267.101
G01 X248.069 Y267.027
G01 X247.236 Y266.912
G01 X246.409 Y266.756
G01 X245.592 Y266.559
G01 X244.784 Y266.323
G01 X243.990 Y266.047
G01 X243.210 Y265.733
G01 X242.446 Y265.381
G01 X241.700 Y264.992
G01 X240.975 Y264.567
G01 X240.271 Y264.106
G01 X239.590 Y263.612
G01 X238.935 Y263.085
G01 X238.306 Y262.526
G01 X237.706 Y261.937
G01 X237.135 Y261.319
G01 X236.595 Y260.674
G01 X236.087 Y260.004
G01 X235.613 Y259.309
G01 X235.174 Y258.592
G01 X234.770 Y257.854
G01 X234.403 Y257.097
G01 X234.073 Y256.324
G01 X233.782 Y255.534
G01 X233.530 Y254.732
G01 X233.318 Y253.918
G01 X233.146 Y253.095
G01 X233.014 Y252.264
G01 X232.924 Y251.428
G01 X232.874 Y250.588
G01 X232.866 Y249.747
G01 X232.882 Y249.218
G01 X235.021 Y249.066
G01 X235.074 Y248.330
G01 X235.163 Y247.598
G01 X235.288 Y246.871
G01 X235.448 Y246.150
G01 X235.644 Y245.437
G01 X235.875 Y244.734
G01 X236.140 Y244.043
G01 X236.439 Y243.365
G01 X236.771 Y242.702
G01 X237.135 Y242.056
G01 X237.531 Y241.428
G01 X237.958 Y240.820
G01 X238.415 Y240.233
G01 X238.900 Y239.669
G01 X239.412 Y239.129
G01 X239.951 Y238.614
G01 X240.515 Y238.126
G01 X241.102 Y237.665
G01 X241.712 Y237.234
G01 X242.343 Y236.833
G01 X242.993 Y236.464
G01 X243.661 Y236.126
G01 X244.345 Y235.821
G01 X245.044 Y235.550
G01 X245.756 Y235.314
G01 X246.479 Y235.112
G01 X247.212 Y234.947
G01 X247.952 Y234.817
G01 X248.699 Y234.724
G01 X249.450 Y234.667
G01 X250.203 Y234.647
G01 X250.957 Y234.665
G01 X251.709 Y234.719
G01 X252.459 Y234.810
G01 X253.203 Y234.938
G01 X253.941 Y235.103
G01 X254.671 Y235.304
G01 X255.390 Y235.540
G01 X256.098 Y235.812
G01 X256.792 Y236.118
G01 X257.470 Y236.458
G01 X258.131 Y236.831
G01 X258.774 Y237.237
G01 X259.396 Y237.674
G01 X259.997 Y238.142
G01 X260.575 Y238.638
G01 X261.127 Y239.163
G01 X261.654 Y239.715
G01 X262.153 Y240.292
G01 X262.624 Y240.893
G01 X263.065 Y241.518
G01 X263.475 Y242.163
G01 X263.853 Y242.829
G01 X264.199 Y243.513
G01 X264.510 Y244.213
G01 X264.787 Y244.928
G01 X265.029 Y245.657
G01 X265.235 Y246.397
G01 X265.404 Y247.147
G01 X265.537 Y247.905
G01 X265.632 Y248.669
G01 X265.690 Y249.437
G01 X265.710 Y250.208
G01 X265.692 Y250.965
G01 X267.085 Y251.323
G01 X266.999 Y252.160
G01 X266.873 Y252.991
G01 X266.706 Y253.816
G01 X266.498 Y254.631
G01 X266.251 Y255.435
G01 X265.965 Y256.226
G01 X265.640 Y257.002
G01 X265.278 Y257.761
G01 X264.879 Y258.501
G01 X264.444 Y259.221
G01 X263.974 Y259.918
G01 X263.470 Y260.592
G01 X262.934 Y261.240
G01 X262.367 Y261.861
G01 X261.770 Y262.454
G01 X261.145 Y263.016
G01 X260.493 Y263.548
G01 X259.816 Y264.046
G01 X259.115 Y264.511
G01 X258.392 Y264.941
G01 X257.648 Y265.334
G01 X256.887 Y265.691
G01 X256.109 Y266.010
G01 X255.316 Y266.291
G01 X254.510 Y266.532
G01 X253.693 Y266.733
G01 X252.868 Y266.894
G01 X252.035 Y267.015
G01 X251.198 Y267.094
G01 X250.358 Y267.132
G01 X249.517 Y267.129
G01 X248.677 Y267.085
G01 X247.840 Y266.999
G01 X247.009 Y266.873
G01 X246.184 Y266.706
G01 X245.369 Y266.498
G01 X244.565 Y266.251
G01 X243.774 Y265.965
G01 X242.998 Y265.640
G01 X242.239 Y265.278
G01 X241.499 Y264.879
G01 X240.779 Y264.444
G01 X240.082 Y263.974
G01 X239.408 Y263.470
G01 X238.760 Y262.934
G01 X238.139 Y262.367
G01 X237.546 Y261.770
G01 X236.984 Y261.145
G01 X236.452 Y260.493
G01 X235.954 Y259.816
G01 X235.489 Y259.115
G01 X235.059 Y258.392
G01 X234.666 Y257.648
G01 X234.309 Y256.887
G01 X233.990 Y256.109
G01 X233.709 Y255.316
G01 X233.468 Y254.510
G01 X233.267 Y253.693
G01 X233.106 Y252.868
G01 X232.985 Y252.035
G01 X232.906 Y251.198
G01 X232.868 Y250.358
G01 X232.871 Y249.517
G01 X232.896 Y248.957
G01 X233.608 Y248.750
G01 X233.678 Y247.946
G01 X233.788 Y247.145
G01 X233.937 Y246.351
G01 X234.124 Y245.564
G01 X234.350 Y244.787
G01 X234.615 Y244.021
G01 X234.916 Y243.269
G01 X235.255 Y242.532
G01 X235.629 Y241.812
G01 X236.039 Y241.111
G01 X236.483 Y240.430
G01 X236.960 Y239.771
G01 X237.469 Y239.136
G01 X238.009 Y238.527
G01 X238.579 Y237.944
G01 X239.177 Y237.390
G01 X239.802 Y236.865
G01 X240.452 Y236.372
G01 X241.127 Y235.910
G01 X241.823 Y235.482
G01 X242.540 Y235.088
G01 X243.277 Y234.730
G01 X244.030 Y234.408
G01 X244.799 Y234.123
G01 X245.581 Y233.876
G01 X246.375 Y233.668
G01 X247.179 Y233.499
G01 X247.991 Y233.369
G01 X248.808 Y233.280
G01 X249.630 Y233.230
G01 X250.454 Y233.221
G01 X251.277 Y233.252
G01 X252.099 Y233.324
G01 X252.917 Y233.436
G01 X253.728 Y233.588
G01 X254.532 Y233.780
G01 X255.326 Y234.012
G01 X256.108 Y234.282
G01 X256.877 Y234.590
G01 X257.629 Y234.936
G01 X258.365 Y235.319
G01 X259.081 Y235.738
G01 X259.776 Y236.192
G01 X260.449 Y236.679
G01 X261.097 Y237.200
G01 X261.720 Y237.751
G01 X262.315 Y238.334
G01 X262.881 Y238.945
G01 X263.417 Y239.583
G01 X263.921 Y240.248
G01 X264.392 Y240.936
G01 X264.829 Y241.648
G01 X265.231 Y242.381
G01 X265.597 Y243.133
G01 X265.925 Y243.902
G01 X266.216 Y244.688
G01 X266.468 Y245.487
G01 X266.680 Y246.298
G01 X266.853 Y247.119
G01 X266.985 Y247.948
G01 X267.076 Y248.783
G01 X267.127 Y249.622
G01 X267.136 Y250.463
G01 X267.118 Y251.043
G01 X267.087 Y251.291
G01 X267.003 Y252.128
G01 X266.878 Y252.960
G01 X266.713 Y253.785
G01 X266.507 Y254.600
G01 X266.261 Y255.405
G01 X265.977 Y256.196
G01 X265.653 Y256.972
G01 X265.292 Y257.732
G01 X264.895 Y258.473
G01 X264.461 Y259.194
G01 X263.992 Y259.892
G01 X263.490 Y260.567
G01 X262.955 Y261.216
G01 X262.389 Y261.838
G01 X261.794 Y262.432
G01 X261.169 Y262.996
G01 X260.518 Y263.528
G01 X259.842 Y264.028
G01 X259.142 Y264.494
G01 X258.419 Y264.925
G01 X257.677 Y265.320
G01 X256.916 Y265.678
G01 X256.138 Y265.999
G01 X255.346 Y266.281
G01 X254.541 Y266.523
G01 X253.724 Y266.726
G01 X252.899 Y266.889
G01 X252.067 Y267.011
G01 X251.230 Y267.092
G01 X250.390 Y267.132
G01 X249.549 Y267.130
G01 X248.709 Y267.087
G01 X247.872 Y267.003
G01 X247.040 Y266.878
G01 X246.215 Y266.713
G01 X245.400 Y266.507
G01 X244.595 Y266.261
G01 X243.804 Y265.977
G01 X243.028 Y265.653
G01 X242.268 Y265.292
G01 X241.527 Y264.895
G01 X240.806 Y264.461
G01 X240.108 Y263.992
G01 X239.433 Y263.490
G01 X238.784 Y262.955
G01 X238.162 Y262.389
G01 X237.568 Y261.794
G01 X237.004 Y261.169
G01 X236.472 Y260.518
G01 X235.972 Y259.842
G01 X235.506 Y259.142
G01 X235.075 Y258.419
G01 X234.680 Y257.677
G01 X234.322 Y256.916
G01 X234.001 Y256.138
G01 X233.719 Y255.346
G01 X233.477 Y254.541
G01 X233.274 Y253.724
G01 X233.111 Y252.899
G01 X232.989 Y252.067
G01 X232.908 Y251.230
G01 X232.868 Y250.390
G01 X232.870 Y249.549
G01 X232.896 Y248.951
G01 X232.184 Y248.657
G01 X232.260 Y247.783
G01 X232.379 Y246.913
G01 X232.541 Y246.050
G01 X232.745 Y245.195
G01 X232.991 Y244.351
G01 X233.278 Y243.519
G01 X233.606 Y242.702
G01 X233.974 Y241.901
G01 X234.381 Y241.119
G01 X234.826 Y240.357
G01 X235.308 Y239.618
G01 X235.827 Y238.903
G01 X236.380 Y238.213
G01 X236.967 Y237.551
G01 X237.585 Y236.919
G01 X238.235 Y236.317
G01 X238.914 Y235.747
G01 X239.620 Y235.211
G01 X240.352 Y234.710
G01 X241.109 Y234.246
G01 X241.887 Y233.818
G01 X242.687 Y233.430
G01 X243.504 Y233.080
G01 X244.339 Y232.771
G01 X245.188 Y232.504
G01 X246.050 Y232.278
G01 X246.923 Y232.094
G01 X247.804 Y231.954
G01 X248.691 Y231.857
G01 X249.582 Y231.803
G01 X250.476 Y231.793
G01 X251.370 Y231.828
G01 X252.261 Y231.906
G01 X253.148 Y232.027
G01 X254.029 Y232.193
G01 X254.901 Y232.401
G01 X255.762 Y232.652
G01 X256.610 Y232.945
G01 X257.444 Y233.280
G01 X258.260 Y233.655
G01 X259.058 Y234.071
G01 X259.834 Y234.525
G01 X260.588 Y235.017
G01 X261.317 Y235.546
G01 X262.020 Y236.110
G01 X262.695 Y236.708
G01 X263.340 Y237.340
G01 X263.954 Y238.002
G01 X264.534 Y238.695
G01 X265.081 Y239.415
G01 X265.591 Y240.162
G01 X266.065 Y240.933
G01 X266.501 Y241.727
G01 X266.897 Y242.542
G01 X267.253 Y243.376
G01 X267.568 Y244.228
G01 X267.841 Y245.094
G01 X268.071 Y245.972
G01 X268.258 Y246.862
G01 X268.401 Y247.760
G01 X268.499 Y248.665
G01 X268.554 Y249.574
G01 X268.564 Y250.485
G01 X268.542 Y251.149
G01 X267.087 Y251.290
G01 X267.003 Y252.127
G01 X266.879 Y252.959
G01 X266.713 Y253.783
G01 X266.507 Y254.599
G01 X266.262 Y255.403
G01 X265.977 Y256.195
G01 X265.654 Y256.971
G01 X265.293 Y257.731
G01 X264.895 Y258.472
G01 X264.462 Y259.193
G01 X263.993 Y259.891
G01 X263.491 Y260.566
G01 X262.956 Y261.215
G01 X262.390 Y261.837
G01 X261.795 Y262.431
G01 X261.170 Y262.995
G01 X260.519 Y263.527
G01 X259.843 Y264.027
G01 X259.143 Y264.493
G01 X258.421 Y264.924
G01 X257.678 Y265.320
G01 X256.917 Y265.678
G01 X256.140 Y265.998
G01 X255.347 Y266.280
G01 X254.542 Y266.523
G01 X253.726 Y266.726
G01 X252.901 Y266.889
G01 X252.068 Y267.011
G01 X251.231 Y267.092
G01 X250.391 Y267.132
G01 X249.550 Y267.130
G01 X248.710 Y267.087
G01 X247.873 Y267.003
G01 X247.041 Y266.879
G01 X246.217 Y266.713
G01 X245.401 Y266.507
G01 X244.597 Y266.262
G01 X243.805 Y265.977
G01 X243.029 Y265.654
G01 X242.269 Y265.293
G01 X241.528 Y264.895
G01 X240.807 Y264.462
G01 X240.109 Y263.993
G01 X239.434 Y263.491
G01 X238.785 Y262.956
G01 X238.163 Y262.390
G01 X237.569 Y261.795
G01 X237.005 Y261.170
G01 X236.473 Y260.519
G01 X235.973 Y259.843
G01 X235.507 Y259.143
G01 X235.076 Y258.421
G01 X234.680 Y257.678
G01 X234.322 Y256.917
G01 X234.002 Y256.140
G01 X233.720 Y255.347
G01 X233.477 Y254.542
G01 X233.274 Y253.726
G01 X233.111 Y252.901
G01 X232.989 Y252.068
G01 X232.908 Y251.231
G01 X232.868 Y250.391
G01 X232.870 Y249.550
G01 X232.913 Y248.710
G01 X232.913 Y248.702
G01 X230.778 Y248.289
G01 X230.874 Y247.346
G01 X231.016 Y246.409
G01 X231.204 Y245.479
G01 X231.438 Y244.559
G01 X231.717 Y243.651
G01 X232.040 Y242.758
G01 X232.407 Y241.880
G01 X232.817 Y241.022
G01 X233.268 Y240.184
G01 X233.761 Y239.369
G01 X234.293 Y238.578
G01 X234.864 Y237.814
G01 X235.472 Y237.079
G01 X236.115 Y236.373
G01 X236.793 Y235.700
G01 X237.503 Y235.061
G01 X238.245 Y234.457
G01 X239.015 Y233.890
G01 X239.813 Y233.361
G01 X240.636 Y232.871
G01 X241.483 Y232.422
G01 X242.352 Y232.015
G01 X243.240 Y231.651
G01 X244.145 Y231.331
G01 X245.065 Y231.055
G01 X245.998 Y230.825
G01 X246.942 Y230.641
G01 X247.895 Y230.503
G01 X248.853 Y230.412
G01 X249.816 Y230.368
G01 X250.780 Y230.371
G01 X251.743 Y230.422
G01 X252.703 Y230.520
G01 X253.657 Y230.665
G01 X254.604 Y230.857
G01 X255.541 Y231.096
G01 X256.466 Y231.380
G01 X257.376 Y231.709
G01 X258.269 Y232.083
G01 X259.143 Y232.500
G01 X259.997 Y232.960
G01 X260.827 Y233.462
G01 X261.632 Y234.004
G01 X262.410 Y234.586
G01 X263.159 Y235.205
G01 X263.876 Y235.860
G01 X264.562 Y236.551
G01 X265.213 Y237.274
G01 X265.828 Y238.029
G01 X266.405 Y238.814
G01 X266.944 Y239.627
G01 X267.442 Y240.465
G01 X267.899 Y241.328
G01 X268.313 Y242.212
G01 X268.684 Y243.116
G01 X269.010 Y244.038
G01 X269.290 Y244.975
G01 X269.524 Y245.925
G01 X269.712 Y246.887
G01 X269.852 Y247.856
G01 X269.944 Y248.832
G01 X269.989 Y249.812
G01 X269.985 Y250.794
G01 X269.951 Y251.531
G01 X272.757 Y252.032
G01 X272.630 Y253.147
G01 X272.449 Y254.253
G01 X272.213 Y255.350
G01 X271.924 Y256.433
G01 X271.582 Y257.501
G01 X271.187 Y258.551
G01 X270.742 Y259.580
G01 X270.247 Y260.587
G01 X269.703 Y261.567
G01 X269.112 Y262.520
G01 X268.475 Y263.443
G01 X267.793 Y264.333
G01 X267.068 Y265.189
G01 X266.302 Y266.008
G01 X265.497 Y266.789
G01 X264.655 Y267.529
G01 X263.777 Y268.227
G01 X262.866 Y268.881
G01 X261.924 Y269.490
G01 X260.953 Y270.051
G01 X259.956 Y270.565
G01 X258.935 Y271.028
G01 X257.893 Y271.441
G01 X256.831 Y271.803
G01 X255.753 Y272.112
G01 X254.661 Y272.367
G01 X253.558 Y272.569
G01 X252.446 Y272.717
G01 X251.329 Y272.809
G01 X250.208 Y272.847
G01 X249.087 Y272.830
G01 X247.968 Y272.757
G01 X246.853 Y272.630
G01 X245.747 Y272.449
G01 X244.650 Y272.213
G01 X243.567 Y271.924
G01 X242.499 Y271.582
G01 X241.449 Y271.187
G01 X240.420 Y270.742
G01 X239.413 Y270.247
G01 X238.433 Y269.703
G01 X237.480 Y269.112
G01 X236.557 Y268.475
G01 X235.667 Y267.793
G01 X234.811 Y267.068
G01 X233.992 Y266.302
G01 X233.211 Y265.497
G01 X232.471 Y264.655
G01 X231.773 Y263.777
G01 X231.119 Y262.866
G01 X230.510 Y261.924
G01 X229.949 Y260.953
G01 X229.435 Y259.956
G01 X228.972 Y258.935
G01 X228.559 Y257.893
G01 X228.197 Y256.831
G01 X227.888 Y255.753
G01 X227.633 Y254.661
G01 X227.431 Y253.558
G01 X227.283 Y252.446
G01 X227.191 Y251.329
G01 X227.153 Y250.208
G01 X227.170 Y249.087
G01 X227.221 Y248.228
G01 X229.357 Y248.144
G01 X229.462 Y247.132
G01 X229.616 Y246.125
G01 X229.820 Y245.127
G01 X230.073 Y244.140
G01 X230.374 Y243.165
G01 X230.723 Y242.206
G01 X231.118 Y241.265
G01 X231.560 Y240.344
G01 X232.046 Y239.445
G01 X232.576 Y238.571
G01 X233.149 Y237.723
G01 X233.763 Y236.904
G01 X234.417 Y236.116
G01 X235.109 Y235.360
G01 X235.838 Y234.639
G01 X236.601 Y233.954
G01 X237.398 Y233.307
G01 X238.226 Y232.699
G01 X239.083 Y232.133
G01 X239.968 Y231.609
G01 X240.878 Y231.129
G01 X241.810 Y230.694
G01 X242.763 Y230.304
G01 X243.735 Y229.962
G01 X244.723 Y229.668
G01 X245.725 Y229.423
G01 X246.738 Y229.227
G01 X247.760 Y229.081
G01 X248.789 Y228.985
G01 X249.821 Y228.940
G01 X250.855 Y228.945
G01 X251.888 Y229.001
G01 X252.918 Y229.108
G01 X253.941 Y229.266
G01 X254.957 Y229.473
G01 X255.961 Y229.730
G01 X256.952 Y230.037
G01 X257.928 Y230.392
G01 X258.885 Y230.794
G01 X259.822 Y231.243
G01 X260.736 Y231.738
G01 X261.625 Y232.278
G01 X262.487 Y232.860
G01 X263.320 Y233.485
G01 X264.122 Y234.150
G01 X264.891 Y234.854
G01 X265.624 Y235.596
G01 X266.320 Y236.372
G01 X266.978 Y237.183
G01 X267.596 Y238.025
G01 X268.172 Y238.897
G01 X268.705 Y239.797
G01 X269.193 Y240.722
G01 X269.635 Y241.671
G01 X270.031 Y242.640
G01 X270.378 Y243.629
G01 X270.677 Y244.634
G01 X270.927 Y245.652
G01 X271.126 Y246.683
G01 X271.274 Y247.722
G01 X271.371 Y248.768
G01 X271.417 Y249.818
G01 X271.412 Y250.870
G01 X271.371 Y251.690
G01 X272.754 Y252.066
G01 X272.626 Y253.180
G01 X272.442 Y254.287
G01 X272.205 Y255.383
G01 X271.914 Y256.466
G01 X271.570 Y257.533
G01 X271.175 Y258.582
G01 X270.728 Y259.611
G01 X270.232 Y260.617
G01 X269.686 Y261.597
G01 X269.094 Y262.549
G01 X268.455 Y263.470
G01 X267.772 Y264.360
G01 X267.046 Y265.214
G01 X266.279 Y266.032
G01 X265.472 Y266.812
G01 X264.629 Y267.551
G01 X263.750 Y268.247
G01 X262.838 Y268.900
G01 X261.895 Y269.507
G01 X260.924 Y270.068
G01 X259.926 Y270.579
G01 X258.904 Y271.042
G01 X257.861 Y271.453
G01 X256.799 Y271.813
G01 X255.720 Y272.120
G01 X254.628 Y272.374
G01 X253.525 Y272.575
G01 X252.413 Y272.720
G01 X251.295 Y272.811
G01 X250.174 Y272.847
G01 X249.053 Y272.828
G01 X247.934 Y272.754
G01 X246.820 Y272.626
G01 X245.713 Y272.442
G01 X244.617 Y272.205
G01 X243.534 Y271.914
G01 X242.467 Y271.570
G01 X241.418 Y271.175
G01 X240.389 Y270.728
G01 X239.383 Y270.232
G01 X238.403 Y269.686
G01 X237.451 Y269.094
G01 X236.530 Y268.455
G01 X235.640 Y267.772
G01 X234.786 Y267.046
G01 X233.968 Y266.279
G01 X233.188 Y265.472
G01 X232.449 Y264.629
G01 X231.753 Y263.750
G01 X231.100 Y262.838
G01 X230.493 Y261.895
G01 X229.932 Y260.924
G01 X229.421 Y259.926
G01 X228.958 Y258.904
G01 X228.547 Y257.861
G01 X228.187 Y256.799
G01 X227.880 Y255.720
G01 X227.626 Y254.628
G01 X227.425 Y253.525
G01 X227.280 Y252.413
G01 X227.189 Y251.295
G01 X227.153 Y250.174
G01 X227.172 Y249.053
G01 X227.226 Y248.165
G01 X227.938 Y247.972
G01 X228.053 Y246.890
G01 X228.221 Y245.815
G01 X228.442 Y244.748
G01 X228.715 Y243.694
G01 X229.040 Y242.653
G01 X229.415 Y241.630
G01 X229.841 Y240.625
G01 X230.315 Y239.642
G01 X230.837 Y238.683
G01 X231.406 Y237.750
G01 X232.021 Y236.846
G01 X232.679 Y235.972
G01 X233.380 Y235.132
G01 X234.122 Y234.326
G01 X234.902 Y233.558
G01 X235.720 Y232.828
G01 X236.573 Y232.140
G01 X237.460 Y231.493
G01 X238.377 Y230.890
G01 X239.323 Y230.333
G01 X240.296 Y229.823
G01 X241.294 Y229.361
G01 X242.313 Y228.948
G01 X243.352 Y228.586
G01 X244.408 Y228.275
G01 X245.479 Y228.015
G01 X246.561 Y227.809
G01 X247.653 Y227.656
G01 X248.751 Y227.556
G01 X249.854 Y227.511
G01 X250.958 Y227.520
G01 X252.061 Y227.583
G01 X253.160 Y227.700
G01 X254.253 Y227.871
G01 X255.336 Y228.095
G01 X256.408 Y228.373
G01 X257.465 Y228.703
G01 X258.505 Y229.084
G01 X259.526 Y229.517
G01 X260.524 Y229.999
G01 X261.499 Y230.530
G01 X262.447 Y231.108
G01 X263.365 Y231.733
G01 X264.252 Y232.402
G01 X265.106 Y233.114
G01 X265.924 Y233.868
G01 X266.705 Y234.661
G01 X267.446 Y235.492
G01 X268.146 Y236.359
G01 X268.802 Y237.259
G01 X269.415 Y238.192
G01 X269.980 Y239.153
G01 X270.499 Y240.142
G01 X270.968 Y241.155
G01 X271.387 Y242.191
G01 X271.755 Y243.246
G01 X272.071 Y244.319
G01 X272.334 Y245.407
G01 X272.544 Y246.506
G01 X272.699 Y247.616
G01 X272.800 Y248.732
G01 X272.846 Y249.852
G01 X272.837 Y250.973
G01 X272.789 Y251.876
G01 X272.749 Y252.123
G01 X272.618 Y253.237
G01 X272.431 Y254.343
G01 X272.191 Y255.438
G01 X271.898 Y256.521
G01 X271.551 Y257.587
G01 X271.153 Y258.636
G01 X270.704 Y259.663
G01 X270.205 Y260.667
G01 X269.657 Y261.646
G01 X269.062 Y262.596
G01 X268.421 Y263.517
G01 X267.736 Y264.404
G01 X267.007 Y265.257
G01 X266.238 Y266.073
G01 X265.430 Y266.851
G01 X264.585 Y267.587
G01 X263.704 Y268.282
G01 X262.791 Y268.932
G01 X261.846 Y269.537
G01 X260.873 Y270.095
G01 X259.874 Y270.604
G01 X258.851 Y271.064
G01 X257.807 Y271.473
G01 X256.744 Y271.830
G01 X255.665 Y272.135
G01 X254.572 Y272.386
G01 X253.468 Y272.583
G01 X252.356 Y272.726
G01 X251.238 Y272.814
G01 X250.117 Y272.848
G01 X248.996 Y272.826
G01 X247.877 Y272.749
G01 X246.763 Y272.618
G01 X245.657 Y272.431
G01 X244.562 Y272.191
G01 X243.479 Y271.898
G01 X242.413 Y271.551
G01 X241.364 Y271.153
G01 X240.337 Y270.704
G01 X239.333 Y270.205
G01 X238.354 Y269.657
G01 X237.404 Y269.062
G01 X236.483 Y268.421
G01 X235.596 Y267.736
G01 X234.743 Y267.007
G01 X233.927 Y266.238
G01 X233.149 Y265.430
G01 X232.413 Y264.585
G01 X231.718 Y263.704
G01 X231.068 Y262.791
G01 X230.463 Y261.846
G01 X229.905 Y260.873
G01 X229.396 Y259.874
G01 X228.936 Y258.851
G01 X228.527 Y257.807
G01 X228.170 Y256.744
G01 X227.865 Y255.665
G01 X227.614 Y254.572
G01 X227.417 Y253.468
G01 X227.274 Y252.356
G01 X227.186 Y251.238
G01 X227.152 Y250.117
G01 X227.174 Y248.996
G01 X227.233 Y248.082
G01 X226.522 Y247.772
G01 X226.649 Y246.621
G01 X226.832 Y245.477
G01 X227.071 Y244.343
G01 X227.365 Y243.221
G01 X227.715 Y242.115
G01 X228.118 Y241.027
G01 X228.575 Y239.959
G01 X229.083 Y238.915
G01 X229.643 Y237.896
G01 X230.252 Y236.906
G01 X230.909 Y235.946
G01 X231.613 Y235.019
G01 X232.362 Y234.127
G01 X233.154 Y233.273
G01 X233.988 Y232.458
G01 X234.861 Y231.685
G01 X235.771 Y230.956
G01 X236.716 Y230.271
G01 X237.695 Y229.633
G01 X238.703 Y229.044
G01 X239.740 Y228.505
G01 X240.803 Y228.017
G01 X241.889 Y227.582
G01 X242.996 Y227.200
G01 X244.120 Y226.873
G01 X245.260 Y226.602
G01 X246.412 Y226.386
G01 X247.574 Y226.228
G01 X248.742 Y226.126
G01 X249.915 Y226.082
G01 X251.090 Y226.096
G01 X252.262 Y226.167
G01 X253.431 Y226.295
G01 X254.592 Y226.481
G01 X255.743 Y226.724
G01 X256.881 Y227.023
G01 X258.004 Y227.378
G01 X259.109 Y227.788
G01 X260.192 Y228.251
G01 X261.252 Y228.768
G01 X262.286 Y229.336
G01 X263.292 Y229.954
G01 X264.266 Y230.622
G01 X265.207 Y231.336
G01 X266.112 Y232.097
G01 X266.978 Y232.901
G01 X267.805 Y233.747
G01 X268.590 Y234.633
G01 X269.330 Y235.557
G01 X270.025 Y236.517
G01 X270.672 Y237.510
G01 X271.270 Y238.534
G01 X271.817 Y239.587
G01 X272.312 Y240.665
G01 X272.754 Y241.768
G01 X273.141 Y242.891
G01 X273.472 Y244.032
G01 X273.748 Y245.189
G01 X273.966 Y246.358
G01 X274.127 Y247.537
G01 X274.230 Y248.724
G01 X274.275 Y249.914
G01 X274.261 Y251.106
G01 X274.189 Y252.296
G01 X274.185 Y252.338
G01 X272.718 Y252.433
G01 X272.571 Y253.545
G01 X272.370 Y254.648
G01 X272.115 Y255.740
G01 X271.807 Y256.818
G01 X271.446 Y257.880
G01 X271.034 Y258.923
G01 X270.570 Y259.944
G01 X270.058 Y260.942
G01 X269.497 Y261.913
G01 X268.889 Y262.855
G01 X268.235 Y263.766
G01 X267.538 Y264.644
G01 X266.798 Y265.487
G01 X266.018 Y266.293
G01 X265.199 Y267.059
G01 X264.344 Y267.784
G01 X263.454 Y268.467
G01 X262.532 Y269.105
G01 X261.579 Y269.697
G01 X260.599 Y270.241
G01 X259.593 Y270.737
G01 X258.564 Y271.182
G01 X257.514 Y271.577
G01 X256.446 Y271.920
G01 X255.363 Y272.210
G01 X254.267 Y272.446
G01 X253.160 Y272.628
G01 X252.046 Y272.756
G01 X250.927 Y272.829
G01 X249.806 Y272.847
G01 X248.685 Y272.810
G01 X247.567 Y272.718
G01 X246.455 Y272.571
G01 X245.352 Y272.370
G01 X244.260 Y272.115
G01 X243.182 Y271.807
G01 X242.120 Y271.446
G01 X241.077 Y271.034
G01 X240.056 Y270.570
G01 X239.058 Y270.058
G01 X238.087 Y269.497
G01 X237.145 Y268.889
G01 X236.234 Y268.235
G01 X235.356 Y267.538
G01 X234.513 Y266.798
G01 X233.707 Y266.018
G01 X232.941 Y265.199
G01 X232.216 Y264.344
G01 X231.533 Y263.454
G01 X230.895 Y262.532
G01 X230.303 Y261.579
G01 X229.759 Y260.599
G01 X229.263 Y259.593
G01 X228.818 Y258.564
G01 X228.423 Y257.514
G01 X228.080 Y256.446
G01 X227.790 Y255.363
G01 X227.554 Y254.267
G01 X227.372 Y253.160
G01 X227.244 Y252.046
G01 X227.171 Y250.927
G01 X227.153 Y249.806
G01 X227.190 Y248.685
G01 X227.262 Y247.757
G01 X225.132 Y247.296
G01 X225.284 Y246.077
G01 X225.495 Y244.867
G01 X225.766 Y243.668
G01 X226.095 Y242.483
G01 X226.482 Y241.315
G01 X226.926 Y240.167
G01 X227.427 Y239.042
G01 X227.982 Y237.942
G01 X228.590 Y236.871
G01 X229.251 Y235.830
G01 X229.962 Y234.822
G01 X230.723 Y233.850
G01 X231.530 Y232.916
G01 X232.383 Y232.022
G01 X233.279 Y231.171
G01 X234.216 Y230.364
G01 X235.192 Y229.605
G01 X236.204 Y228.893
G01 X237.251 Y228.232
G01 X238.329 Y227.623
G01 X239.437 Y227.067
G01 X240.571 Y226.566
G01 X241.728 Y226.121
G01 X242.907 Y225.733
G01 X244.103 Y225.404
G01 X245.315 Y225.133
G01 X246.540 Y224.922
G01 X247.773 Y224.771
G01 X249.013 Y224.681
G01 X250.257 Y224.652
G01 X251.501 Y224.684
G01 X252.743 Y224.777
G01 X253.979 Y224.931
G01 X255.206 Y225.146
G01 X256.423 Y225.420
G01 X257.624 Y225.754
G01 X258.809 Y226.147
G01 X259.973 Y226.598
G01 X261.114 Y227.105
G01 X262.229 Y227.668
G01 X263.316 Y228.286
G01 X264.372 Y228.956
G01 X265.394 Y229.678
G01 X266.380 Y230.449
G01 X267.327 Y231.268
G01 X268.233 Y232.133
G01 X269.096 Y233.042
G01 X269.914 Y233.992
G01 X270.684 Y234.982
G01 X271.406 Y236.009
G01 X272.076 Y237.071
G01 X272.694 Y238.164
G01 X273.257 Y239.287
G01 X273.765 Y240.437
G01 X274.216 Y241.611
G01 X274.609 Y242.807
G01 X274.944 Y244.020
G01 X275.218 Y245.249
G01 X275.432 Y246.491
G01 X275.584 Y247.742
G01 X275.676 Y249.000
G01 X275.705 Y250.261
G01 X275.672 Y251.522
G01 X275.597 Y252.579
G01 X278.387 Y253.139
G01 X278.199 Y254.528
G01 X277.943 Y255.906
G01 X277.619 Y257.270
G01 X277.229 Y258.617
G01 X276.774 Y259.942
G01 X276.253 Y261.244
G01 X275.670 Y262.519
G01 X275.025 Y263.763
G01 X274.319 Y264.975
G01 X273.555 Y266.150
G01 X272.735 Y267.286
G01 X271.859 Y268.381
G01 X270.931 Y269.431
G01 X269.952 Y270.435
G01 X268.925 Y271.389
G01 X267.853 Y272.292
G01 X266.738 Y273.141
G01 X265.582 Y273.935
G01 X264.389 Y274.671
G01 X263.161 Y275.347
G01 X261.901 Y275.962
G01 X260.613 Y276.515
G01 X259.299 Y277.004
G01 X257.963 Y277.427
G01 X256.608 Y277.785
G01 X255.236 Y278.076
G01 X253.852 Y278.299
G01 X252.459 Y278.454
G01 X251.060 Y278.540
G01 X249.658 Y278.558
G01 X248.258 Y278.507
G01 X246.861 Y278.387
G01 X245.472 Y278.199
G01 X244.094 Y277.943
G01 X242.730 Y277.619
G01 X241.383 Y277.229
G01 X240.058 Y276.774
G01 X238.756 Y276.253
G01 X237.481 Y275.670
G01 X236.237 Y275.025
G01 X235.025 Y274.319
G01 X233.850 Y273.555
G01 X232.714 Y272.735
G01 X231.619 Y271.859
G01 X230.569 Y270.931
G01 X229.565 Y269.952
G01 X228.611 Y268.925
G01 X227.708 Y267.853
G01 X226.859 Y266.738
G01 X226.065 Y265.582
G01 X225.329 Y264.389
G01 X224.653 Y263.161
G01 X224.038 Y261.901
G01 X223.485 Y260.613
G01 X222.996 Y259.299
G01 X222.573 Y257.963
G01 X222.215 Y256.608
G01 X221.924 Y255.236
G01 X221.701 Y253.852
G01 X221.546 Y252.459
G01 X221.460 Y251.060
G01 X221.442 Y249.658
G01 X221.493 Y248.258
G01 X221.590 Y247.074
G01 X223.722 Y247.042
G01 X223.888 Y245.754
G01 X224.117 Y244.476
G01 X224.409 Y243.210
G01 X224.762 Y241.959
G01 X225.176 Y240.726
G01 X225.651 Y239.515
G01 X226.185 Y238.328
G01 X226.777 Y237.168
G01 X227.425 Y236.038
G01 X228.128 Y234.941
G01 X228.884 Y233.879
G01 X229.692 Y232.855
G01 X230.550 Y231.872
G01 X231.455 Y230.931
G01 X232.405 Y230.036
G01 X233.399 Y229.188
G01 X234.434 Y228.389
G01 X235.507 Y227.642
G01 X236.616 Y226.948
G01 X237.758 Y226.309
G01 X238.931 Y225.727
G01 X240.131 Y225.203
G01 X241.356 Y224.738
G01 X242.603 Y224.334
G01 X243.868 Y223.991
G01 X245.150 Y223.710
G01 X246.444 Y223.493
G01 X247.748 Y223.339
G01 X249.059 Y223.250
G01 X250.373 Y223.224
G01 X251.687 Y223.264
G01 X252.998 Y223.368
G01 X254.303 Y223.536
G01 X255.599 Y223.768
G01 X256.882 Y224.064
G01 X258.150 Y224.422
G01 X259.399 Y224.842
G01 X260.626 Y225.323
G01 X261.829 Y225.864
G01 X263.005 Y226.464
G01 X264.150 Y227.121
G01 X265.262 Y227.834
G01 X266.338 Y228.601
G01 X267.375 Y229.419
G01 X268.372 Y230.289
G01 X269.325 Y231.206
G01 X270.232 Y232.169
G01 X271.091 Y233.177
G01 X271.900 Y234.225
G01 X272.657 Y235.313
G01 X273.360 Y236.437
G01 X274.008 Y237.594
G01 X274.598 Y238.783
G01 X275.129 Y239.999
G01 X275.600 Y241.240
G01 X276.009 Y242.504
G01 X276.357 Y243.787
G01 X276.641 Y245.085
G01 X276.861 Y246.397
G01 X277.017 Y247.718
G01 X277.107 Y249.046
G01 X277.132 Y250.378
G01 X277.092 Y251.709
G01 X277.006 Y252.846
G01 X278.374 Y253.255
G01 X278.180 Y254.643
G01 X277.918 Y256.020
G01 X277.589 Y257.383
G01 X277.194 Y258.728
G01 X276.733 Y260.052
G01 X276.207 Y261.351
G01 X275.619 Y262.623
G01 X274.969 Y263.865
G01 X274.258 Y265.074
G01 X273.489 Y266.246
G01 X272.664 Y267.379
G01 X271.784 Y268.470
G01 X270.851 Y269.517
G01 X269.869 Y270.516
G01 X268.838 Y271.466
G01 X267.762 Y272.365
G01 X266.643 Y273.209
G01 X265.484 Y273.998
G01 X264.288 Y274.729
G01 X263.057 Y275.400
G01 X261.795 Y276.010
G01 X260.505 Y276.558
G01 X259.189 Y277.041
G01 X257.851 Y277.460
G01 X256.494 Y277.812
G01 X255.122 Y278.097
G01 X253.737 Y278.314
G01 X252.343 Y278.464
G01 X250.944 Y278.544
G01 X249.542 Y278.556
G01 X248.141 Y278.499
G01 X246.745 Y278.374
G01 X245.357 Y278.180
G01 X243.980 Y277.918
G01 X242.617 Y277.589
G01 X241.272 Y277.194
G01 X239.948 Y276.733
G01 X238.649 Y276.207
G01 X237.377 Y275.619
G01 X236.135 Y274.969
G01 X234.926 Y274.258
G01 X233.754 Y273.489
G01 X232.621 Y272.664
G01 X231.530 Y271.784
G01 X230.483 Y270.851
G01 X229.484 Y269.869
G01 X228.534 Y268.838
G01 X227.635 Y267.762
G01 X226.791 Y266.643
G01 X226.002 Y265.484
G01 X225.271 Y264.288
G01 X224.600 Y263.057
G01 X223.990 Y261.795
G01 X223.442 Y260.505
G01 X222.959 Y259.189
G01 X222.540 Y257.851
G01 X222.188 Y256.494
G01 X221.903 Y255.122
G01 X221.686 Y253.737
G01 X221.536 Y252.343
G01 X221.456 Y250.944
G01 X221.444 Y249.542
G01 X221.501 Y248.141
G01 X221.605 Y246.937
G01 X222.316 Y246.762
G01 X222.497 Y245.406
G01 X222.745 Y244.059
G01 X223.059 Y242.726
G01 X223.437 Y241.410
G01 X223.881 Y240.113
G01 X224.387 Y238.838
G01 X224.955 Y237.590
G01 X225.585 Y236.371
G01 X226.274 Y235.183
G01 X227.020 Y234.031
G01 X227.822 Y232.915
G01 X228.679 Y231.841
G01 X229.587 Y230.809
G01 X230.546 Y229.822
G01 X231.552 Y228.883
G01 X232.604 Y227.995
G01 X233.698 Y227.159
G01 X234.832 Y226.377
G01 X236.004 Y225.651
G01 X237.211 Y224.984
G01 X238.449 Y224.377
G01 X239.716 Y223.830
G01 X241.009 Y223.347
G01 X242.325 Y222.927
G01 X243.660 Y222.572
G01 X245.011 Y222.283
G01 X246.376 Y222.060
G01 X247.750 Y221.905
G01 X249.131 Y221.817
G01 X250.515 Y221.798
G01 X251.899 Y221.846
G01 X253.280 Y221.962
G01 X254.653 Y222.145
G01 X256.017 Y222.396
G01 X257.367 Y222.714
G01 X258.700 Y223.098
G01 X260.014 Y223.547
G01 X261.304 Y224.060
G01 X262.568 Y224.636
G01 X263.803 Y225.273
G01 X265.006 Y225.971
G01 X266.173 Y226.727
G01 X267.302 Y227.540
G01 X268.391 Y228.407
G01 X269.436 Y229.327
G01 X270.435 Y230.298
G01 X271.385 Y231.317
G01 X272.285 Y232.382
G01 X273.132 Y233.490
G01 X273.923 Y234.639
G01 X274.658 Y235.826
G01 X275.334 Y237.048
G01 X275.949 Y238.302
G01 X276.502 Y239.585
G01 X276.992 Y240.895
G01 X277.417 Y242.227
G01 X277.776 Y243.579
G01 X278.068 Y244.948
G01 X278.294 Y246.330
G01 X278.451 Y247.722
G01 X278.539 Y249.120
G01 X278.559 Y250.522
G01 X278.511 Y251.923
G01 X278.412 Y253.140
G01 X278.359 Y253.385
G01 X278.158 Y254.772
G01 X277.890 Y256.148
G01 X277.555 Y257.509
G01 X277.153 Y258.852
G01 X276.686 Y260.174
G01 X276.155 Y261.471
G01 X275.561 Y262.741
G01 X274.905 Y263.980
G01 X274.189 Y265.185
G01 X273.415 Y266.353
G01 X272.584 Y267.483
G01 X271.699 Y268.570
G01 X270.762 Y269.612
G01 X269.774 Y270.607
G01 X268.739 Y271.553
G01 X267.659 Y272.446
G01 X266.536 Y273.286
G01 X265.374 Y274.069
G01 X264.174 Y274.794
G01 X262.941 Y275.460
G01 X261.676 Y276.064
G01 X260.383 Y276.606
G01 X259.065 Y277.083
G01 X257.725 Y277.495
G01 X256.367 Y277.841
G01 X254.993 Y278.120
G01 X253.607 Y278.331
G01 X252.213 Y278.474
G01 X250.813 Y278.548
G01 X249.411 Y278.554
G01 X248.011 Y278.491
G01 X246.615 Y278.359
G01 X245.228 Y278.158
G01 X243.852 Y277.890
G01 X242.491 Y277.555
G01 X241.148 Y277.153
G01 X239.826 Y276.686
G01 X238.529 Y276.155
G01 X237.259 Y275.561
G01 X236.020 Y274.905
G01 X234.815 Y274.189
G01 X233.647 Y273.415
G01 X232.517 Y272.584
G01 X231.430 Y271.699
G01 X230.388 Y270.762
G01 X229.393 Y269.774
G01 X228.447 Y268.739
G01 X227.554 Y267.659
G01 X226.714 Y266.536
G01 X225.931 Y265.374
G01 X225.206 Y264.174
G01 X224.540 Y262.941
G01 X223.936 Y261.676
G01 X223.394 Y260.383
G01 X222.917 Y259.065
G01 X222.505 Y257.725
G01 X222.159 Y256.367
G01 X221.880 Y254.993
G01 X221.669 Y253.607
G01 X221.526 Y252.213
G01 X221.452 Y250.813
G01 X221.446 Y249.411
G01 X221.509 Y248.011
G01 X221.621 Y246.787
G01 X220.914 Y246.455
G01 X221.112 Y245.030
G01 X221.379 Y243.616
G01 X221.716 Y242.217
G01 X222.122 Y240.835
G01 X222.595 Y239.474
G01 X223.134 Y238.137
G01 X223.738 Y236.828
G01 X224.407 Y235.550
G01 X225.137 Y234.306
G01 X225.928 Y233.098
G01 X226.777 Y231.931
G01 X227.684 Y230.806
G01 X228.644 Y229.726
G01 X229.657 Y228.695
G01 X230.720 Y227.714
G01 X231.830 Y226.786
G01 X232.984 Y225.913
G01 X234.180 Y225.098
G01 X235.416 Y224.342
G01 X236.687 Y223.647
G01 X237.992 Y223.015
G01 X239.327 Y222.448
G01 X240.688 Y221.947
G01 X242.072 Y221.513
G01 X243.477 Y221.148
G01 X244.899 Y220.851
G01 X246.334 Y220.625
G01 X247.779 Y220.470
G01 X249.230 Y220.385
G01 X250.685 Y220.372
G01 X252.138 Y220.430
G01 X253.588 Y220.559
G01 X255.030 Y220.760
G01 X256.461 Y221.031
G01 X257.878 Y221.372
G01 X259.277 Y221.783
G01 X260.654 Y222.261
G01 X262.007 Y222.807
G01 X263.332 Y223.419
G01 X264.625 Y224.096
G01 X265.885 Y224.835
G01 X267.107 Y225.636
G01 X268.289 Y226.496
G01 X269.427 Y227.413
G01 X270.520 Y228.385
G01 X271.564 Y229.410
G01 X272.556 Y230.486
G01 X273.495 Y231.609
G01 X274.379 Y232.778
G01 X275.204 Y233.989
G01 X275.969 Y235.239
G01 X276.672 Y236.526
G01 X277.311 Y237.847
G01 X277.885 Y239.198
G01 X278.392 Y240.575
G01 X278.831 Y241.977
G01 X279.201 Y243.399
G01 X279.500 Y244.837
G01 X279.729 Y246.290
G01 X279.887 Y247.752
G01 X279.972 Y249.221
G01 X279.985 Y250.693
G01 X279.926 Y252.164
G01 X279.814 Y253.461
G01 X278.341 Y253.529
G01 X278.134 Y254.916
G01 X277.859 Y256.290
G01 X277.517 Y257.650
G01 X277.108 Y258.991
G01 X276.634 Y260.310
G01 X276.096 Y261.604
G01 X275.495 Y262.871
G01 X274.833 Y264.106
G01 X274.111 Y265.308
G01 X273.331 Y266.472
G01 X272.495 Y267.597
G01 X271.604 Y268.680
G01 X270.661 Y269.717
G01 X269.669 Y270.708
G01 X268.629 Y271.648
G01 X267.545 Y272.536
G01 X266.418 Y273.369
G01 X265.251 Y274.147
G01 X264.048 Y274.866
G01 X262.811 Y275.526
G01 X261.543 Y276.123
G01 X260.247 Y276.658
G01 X258.927 Y277.129
G01 X257.585 Y277.534
G01 X256.225 Y277.873
G01 X254.850 Y278.145
G01 X253.463 Y278.349
G01 X252.068 Y278.485
G01 X250.667 Y278.552
G01 X249.266 Y278.551
G01 X247.866 Y278.480
G01 X246.471 Y278.341
G01 X245.084 Y278.134
G01 X243.710 Y277.859
G01 X242.350 Y277.517
G01 X241.009 Y277.108
G01 X239.690 Y276.634
G01 X238.396 Y276.096
G01 X237.129 Y275.495
G01 X235.894 Y274.833
G01 X234.692 Y274.111
G01 X233.528 Y273.331
G01 X232.403 Y272.495
G01 X231.320 Y271.604
G01 X230.283 Y270.661
G01 X229.292 Y269.669
G01 X228.352 Y268.629
G01 X227.464 Y267.545
G01 X226.631 Y266.418
G01 X225.853 Y265.251
G01 X225.134 Y264.048
G01 X224.474 Y262.811
G01 X223.877 Y261.543
G01 X223.342 Y260.247
G01 X222.871 Y258.927
G01 X222.466 Y257.585
G01 X222.127 Y256.225
G01 X221.855 Y254.850
G01 X221.651 Y253.463
G01 X221.515 Y252.068
G01 X221.448 Y250.667
G01 X221.449 Y249.266
G01 X221.520 Y247.866
G01 X221.640 Y246.625
G01 X219.515 Y246.120
G01 X219.731 Y244.627
G01 X220.020 Y243.146
G01 X220.382 Y241.680
G01 X220.815 Y240.233
G01 X221.319 Y238.809
G01 X221.893 Y237.411
G01 X222.535 Y236.042
G01 X223.243 Y234.705
G01 X224.016 Y233.405
G01 X224.853 Y232.143
G01 X225.750 Y230.924
G01 X226.707 Y229.750
G01 X227.721 Y228.624
G01 X228.789 Y227.548
G01 X229.909 Y226.526
G01 X231.078 Y225.559
G01 X232.294 Y224.651
G01 X233.553 Y223.804
G01 X234.853 Y223.018
G01 X236.190 Y222.298
G01 X237.561 Y221.643
G01 X238.964 Y221.057
G01 X240.394 Y220.539
G01 X241.848 Y220.093
G01 X243.323 Y219.718
G01 X244.815 Y219.416
G01 X246.320 Y219.187
G01 X247.836 Y219.032
G01 X249.358 Y218.952
G01 X250.882 Y218.947
G01 X252.406 Y219.017
G01 X253.925 Y219.161
G01 X255.435 Y219.380
G01 X256.934 Y219.672
G01 X258.416 Y220.038
G01 X259.880 Y220.477
G01 X261.321 Y220.987
G01 X262.735 Y221.567
G01 X264.120 Y222.216
G01 X265.472 Y222.933
G01 X266.787 Y223.715
G01 X268.063 Y224.562
G01 X269.297 Y225.470
G01 X270.484 Y226.438
G01 X271.624 Y227.463
G01 X272.711 Y228.544
G01 X273.745 Y229.677
G01 X274.723 Y230.859
G01 X275.641 Y232.089
G01 X276.499 Y233.363
G01 X277.293 Y234.678
G01 X278.022 Y236.031
G01 X278.684 Y237.418
G01 X279.277 Y238.836
G01 X279.800 Y240.283
G01 X280.252 Y241.754
G01 X280.631 Y243.246
G01 X280.936 Y244.755
G01 X281.167 Y246.278
G01 X281.324 Y247.811
G01 X281.404 Y249.351
G01 X281.410 Y250.893
G01 X281.339 Y252.434
G01 X281.212 Y253.809
G01 X283.986 Y254.422
G01 X283.728 Y256.084
G01 X283.388 Y257.732
G01 X282.969 Y259.361
G01 X282.470 Y260.967
G01 X281.893 Y262.547
G01 X281.239 Y264.097
G01 X280.509 Y265.613
G01 X279.706 Y267.091
G01 X278.832 Y268.528
G01 X277.888 Y269.920
G01 X276.877 Y271.265
G01 X275.801 Y272.558
G01 X274.663 Y273.797
G01 X273.466 Y274.978
G01 X272.212 Y276.100
G01 X270.905 Y277.158
G01 X269.547 Y278.151
G01 X268.142 Y279.076
G01 X266.693 Y279.932
G01 X265.205 Y280.715
G01 X263.679 Y281.424
G01 X262.121 Y282.057
G01 X260.533 Y282.613
G01 X258.920 Y283.091
G01 X257.286 Y283.489
G01 X255.634 Y283.806
G01 X253.968 Y284.041
G01 X252.293 Y284.195
G01 X250.613 Y284.267
G01 X248.931 Y284.255
G01 X247.251 Y284.162
G01 X245.578 Y283.986
G01 X243.916 Y283.728
G01 X242.268 Y283.388
G01 X240.639 Y282.969
G01 X239.033 Y282.470
G01 X237.453 Y281.893
G01 X235.903 Y281.239
G01 X234.387 Y280.509
G01 X232.909 Y279.706
G01 X231.472 Y278.832
G01 X230.080 Y277.888
G01 X228.735 Y276.877
G01 X227.442 Y275.801
G01 X226.203 Y274.663
G01 X225.022 Y273.466
G01 X223.900 Y272.212
G01 X222.842 Y270.905
G01 X221.849 Y269.547
G01 X220.924 Y268.142
G01 X220.068 Y266.693
G01 X219.285 Y265.205
G01 X218.576 Y263.679
G01 X217.943 Y262.121
G01 X217.387 Y260.533
G01 X216.909 Y258.920
G01 X216.511 Y257.286
G01 X216.194 Y255.634
G01 X215.959 Y253.968
G01 X215.805 Y252.293
G01 X215.733 Y250.613
G01 X215.745 Y248.931
G01 X215.838 Y247.251
G01 X215.994 Y245.741
G01 X218.121 Y245.756
G01 X218.357 Y244.195
G01 X218.669 Y242.647
G01 X219.057 Y241.115
G01 X219.520 Y239.604
G01 X220.056 Y238.117
G01 X220.665 Y236.657
G01 X221.345 Y235.229
G01 X222.095 Y233.835
G01 X222.912 Y232.479
G01 X223.796 Y231.164
G01 X224.743 Y229.894
G01 X225.751 Y228.672
G01 X226.819 Y227.500
G01 X227.943 Y226.381
G01 X229.122 Y225.319
G01 X230.351 Y224.316
G01 X231.629 Y223.373
G01 X232.951 Y222.494
G01 X234.316 Y221.681
G01 X235.720 Y220.936
G01 X237.158 Y220.260
G01 X238.629 Y219.655
G01 X240.129 Y219.123
G01 X241.653 Y218.665
G01 X243.198 Y218.282
G01 X244.761 Y217.976
G01 X246.337 Y217.746
G01 X247.923 Y217.594
G01 X249.516 Y217.520
G01 X251.110 Y217.524
G01 X252.704 Y217.607
G01 X254.291 Y217.767
G01 X255.870 Y218.006
G01 X257.435 Y218.321
G01 X258.984 Y218.714
G01 X260.511 Y219.182
G01 X262.015 Y219.724
G01 X263.491 Y220.340
G01 X264.935 Y221.028
G01 X266.344 Y221.786
G01 X267.715 Y222.612
G01 X269.044 Y223.506
G01 X270.328 Y224.463
G01 X271.564 Y225.483
G01 X272.749 Y226.563
G01 X273.879 Y227.700
G01 X274.953 Y228.891
G01 X275.968 Y230.134
G01 X276.921 Y231.426
G01 X277.809 Y232.763
G01 X278.631 Y234.143
G01 X279.385 Y235.562
G01 X280.068 Y237.017
G01 X280.679 Y238.504
G01 X281.217 Y240.020
G01 X281.680 Y241.561
G01 X282.067 Y243.123
G01 X282.377 Y244.703
G01 X282.609 Y246.297
G01 X282.762 Y247.901
G01 X282.837 Y249.510
G01 X282.833 Y251.123
G01 X282.749 Y252.733
G01 X282.605 Y254.187
G01 X283.959 Y254.623
G01 X283.691 Y256.284
G01 X283.342 Y257.929
G01 X282.913 Y259.556
G01 X282.404 Y261.159
G01 X281.818 Y262.736
G01 X281.154 Y264.282
G01 X280.416 Y265.793
G01 X279.605 Y267.267
G01 X278.722 Y268.699
G01 X277.770 Y270.085
G01 X276.751 Y271.424
G01 X275.667 Y272.710
G01 X274.522 Y273.943
G01 X273.318 Y275.117
G01 X272.057 Y276.231
G01 X270.743 Y277.282
G01 X269.380 Y278.266
G01 X267.969 Y279.183
G01 X266.516 Y280.030
G01 X265.022 Y280.804
G01 X263.493 Y281.504
G01 X261.931 Y282.128
G01 X260.340 Y282.675
G01 X258.724 Y283.143
G01 X257.087 Y283.531
G01 X255.434 Y283.839
G01 X253.767 Y284.064
G01 X252.091 Y284.208
G01 X250.410 Y284.270
G01 X248.728 Y284.248
G01 X247.049 Y284.145
G01 X245.377 Y283.959
G01 X243.716 Y283.691
G01 X242.071 Y283.342
G01 X240.444 Y282.913
G01 X238.841 Y282.404
G01 X237.264 Y281.818
G01 X235.718 Y281.154
G01 X234.207 Y280.416
G01 X232.733 Y279.605
G01 X231.301 Y278.722
G01 X229.915 Y277.770
G01 X228.576 Y276.751
G01 X227.290 Y275.667
G01 X226.057 Y274.522
G01 X224.883 Y273.318
G01 X223.769 Y272.057
G01 X222.718 Y270.743
G01 X221.734 Y269.380
G01 X220.817 Y267.969
G01 X219.970 Y266.516
G01 X219.196 Y265.022
G01 X218.496 Y263.493
G01 X217.872 Y261.931
G01 X217.325 Y260.340
G01 X216.857 Y258.724
G01 X216.469 Y257.087
G01 X216.161 Y255.434
G01 X215.936 Y253.767
G01 X215.792 Y252.091
G01 X215.730 Y250.410
G01 X215.752 Y248.728
G01 X215.855 Y247.049
G01 X216.021 Y245.527
G01 X216.732 Y245.369
G01 X216.988 Y243.740
G01 X217.324 Y242.125
G01 X217.739 Y240.528
G01 X218.232 Y238.953
G01 X218.802 Y237.403
G01 X219.448 Y235.883
G01 X220.167 Y234.395
G01 X220.959 Y232.945
G01 X221.822 Y231.534
G01 X222.753 Y230.167
G01 X223.750 Y228.847
G01 X224.811 Y227.577
G01 X225.934 Y226.360
G01 X227.115 Y225.200
G01 X228.353 Y224.098
G01 X229.643 Y223.058
G01 X230.983 Y222.083
G01 X232.370 Y221.174
G01 X233.800 Y220.334
G01 X235.271 Y219.564
G01 X236.777 Y218.868
G01 X238.317 Y218.246
G01 X239.886 Y217.701
G01 X241.480 Y217.232
G01 X243.096 Y216.843
G01 X244.730 Y216.533
G01 X246.377 Y216.304
G01 X248.034 Y216.155
G01 X249.697 Y216.088
G01 X251.362 Y216.103
G01 X253.024 Y216.200
G01 X254.681 Y216.378
G01 X256.327 Y216.637
G01 X257.959 Y216.977
G01 X259.573 Y217.396
G01 X261.165 Y217.895
G01 X262.731 Y218.471
G01 X264.267 Y219.124
G01 X265.770 Y219.851
G01 X267.236 Y220.651
G01 X268.662 Y221.523
G01 X270.043 Y222.464
G01 X271.377 Y223.472
G01 X272.660 Y224.545
G01 X273.890 Y225.679
G01 X275.063 Y226.873
G01 X276.176 Y228.124
G01 X277.227 Y229.428
G01 X278.212 Y230.782
G01 X279.131 Y232.184
G01 X279.980 Y233.629
G01 X280.757 Y235.115
G01 X281.461 Y236.638
G01 X282.089 Y238.194
G01 X282.640 Y239.779
G01 X283.113 Y241.390
G01 X283.507 Y243.023
G01 X283.820 Y244.674
G01 X284.051 Y246.339
G01 X284.201 Y248.013
G01 X284.269 Y249.694
G01 X284.253 Y251.376
G01 X284.156 Y253.056
G01 X283.994 Y254.589
G01 X283.930 Y254.833
G01 X283.652 Y256.492
G01 X283.292 Y258.135
G01 X282.853 Y259.759
G01 X282.335 Y261.359
G01 X281.738 Y262.932
G01 X281.066 Y264.474
G01 X280.318 Y265.981
G01 X279.497 Y267.449
G01 X278.606 Y268.876
G01 X277.645 Y270.257
G01 X276.618 Y271.589
G01 X275.526 Y272.869
G01 X274.373 Y274.094
G01 X273.162 Y275.261
G01 X271.894 Y276.367
G01 X270.574 Y277.409
G01 X269.205 Y278.386
G01 X267.789 Y279.294
G01 X266.330 Y280.131
G01 X264.832 Y280.896
G01 X263.298 Y281.587
G01 X261.732 Y282.201
G01 X260.138 Y282.738
G01 X258.519 Y283.196
G01 X256.880 Y283.574
G01 X255.224 Y283.871
G01 X253.556 Y284.087
G01 X251.879 Y284.220
G01 X250.198 Y284.271
G01 X248.516 Y284.240
G01 X246.838 Y284.126
G01 X245.167 Y283.930
G01 X243.508 Y283.652
G01 X241.865 Y283.292
G01 X240.241 Y282.853
G01 X238.641 Y282.335
G01 X237.068 Y281.738
G01 X235.526 Y281.066
G01 X234.019 Y280.318
G01 X232.551 Y279.497
G01 X231.124 Y278.606
G01 X229.743 Y277.645
G01 X228.411 Y276.618
G01 X227.131 Y275.526
G01 X225.906 Y274.373
G01 X224.739 Y273.162
G01 X223.633 Y271.894
G01 X222.591 Y270.574
G01 X221.614 Y269.205
G01 X220.706 Y267.789
G01 X219.869 Y266.330
G01 X219.104 Y264.832
G01 X218.413 Y263.298
G01 X217.799 Y261.732
G01 X217.262 Y260.138
G01 X216.804 Y258.519
G01 X216.426 Y256.880
G01 X216.129 Y255.224
G01 X215.913 Y253.556
G01 X215.780 Y251.879
G01 X215.729 Y250.198
G01 X215.760 Y248.516
G01 X215.874 Y246.838
G01 X216.051 Y245.302
G01 X215.347 Y244.952
G01 X215.625 Y243.256
G01 X215.987 Y241.575
G01 X216.431 Y239.913
G01 X216.955 Y238.274
G01 X217.560 Y236.662
G01 X218.244 Y235.082
G01 X219.004 Y233.537
G01 X219.840 Y232.030
G01 X220.748 Y230.565
G01 X221.728 Y229.147
G01 X222.777 Y227.778
G01 X223.892 Y226.461
G01 X225.070 Y225.201
G01 X226.310 Y223.999
G01 X227.607 Y222.859
G01 X228.959 Y221.784
G01 X230.363 Y220.777
G01 X231.814 Y219.839
G01 X233.311 Y218.973
G01 X234.849 Y218.181
G01 X236.424 Y217.466
G01 X238.033 Y216.828
G01 X239.672 Y216.271
G01 X241.336 Y215.794
G01 X243.023 Y215.399
G01 X244.728 Y215.087
G01 X246.446 Y214.859
G01 X248.174 Y214.716
G01 X249.907 Y214.658
G01 X251.642 Y214.685
G01 X253.374 Y214.797
G01 X255.099 Y214.994
G01 X256.813 Y215.275
G01 X258.511 Y215.640
G01 X260.190 Y216.089
G01 X261.845 Y216.619
G01 X263.473 Y217.230
G01 X265.070 Y217.921
G01 X266.631 Y218.689
G01 X268.153 Y219.533
G01 X269.632 Y220.451
G01 X271.065 Y221.441
G01 X272.448 Y222.500
G01 X273.778 Y223.627
G01 X275.051 Y224.817
G01 X276.265 Y226.069
G01 X277.416 Y227.380
G01 X278.502 Y228.746
G01 X279.520 Y230.164
G01 X280.467 Y231.630
G01 X281.342 Y233.142
G01 X282.141 Y234.695
G01 X282.864 Y236.286
G01 X283.507 Y237.912
G01 X284.071 Y239.567
G01 X284.553 Y241.249
G01 X284.951 Y242.953
G01 X285.266 Y244.674
G01 X285.496 Y246.410
G01 X285.641 Y248.156
G01 X285.699 Y249.907
G01 X285.672 Y251.659
G01 X285.559 Y253.408
G01 X285.378 Y255.020
G01 X283.898 Y255.052
G01 X283.609 Y256.710
G01 X283.239 Y258.351
G01 X282.789 Y259.972
G01 X282.261 Y261.568
G01 X281.654 Y263.138
G01 X280.971 Y264.675
G01 X280.214 Y266.177
G01 X279.384 Y267.640
G01 X278.483 Y269.060
G01 X277.513 Y270.435
G01 X276.477 Y271.760
G01 X275.378 Y273.033
G01 X274.217 Y274.251
G01 X272.998 Y275.410
G01 X271.723 Y276.508
G01 X270.397 Y277.542
G01 X269.021 Y278.509
G01 X267.599 Y279.408
G01 X266.135 Y280.237
G01 X264.631 Y280.992
G01 X263.093 Y281.672
G01 X261.523 Y282.277
G01 X259.926 Y282.803
G01 X258.304 Y283.251
G01 X256.663 Y283.618
G01 X255.005 Y283.905
G01 X253.335 Y284.109
G01 X251.658 Y284.232
G01 X249.976 Y284.272
G01 X248.294 Y284.230
G01 X246.617 Y284.105
G01 X244.948 Y283.898
G01 X243.290 Y283.609
G01 X241.649 Y283.239
G01 X240.028 Y282.789
G01 X238.432 Y282.261
G01 X236.862 Y281.654
G01 X235.325 Y280.971
G01 X233.823 Y280.214
G01 X232.360 Y279.384
G01 X230.940 Y278.483
G01 X229.565 Y277.513
G01 X228.240 Y276.477
G01 X226.967 Y275.378
G01 X225.749 Y274.217
G01 X224.590 Y272.998
G01 X223.492 Y271.723
G01 X222.458 Y270.397
G01 X221.491 Y269.021
G01 X220.592 Y267.599
G01 X219.763 Y266.135
G01 X219.008 Y264.631
G01 X218.328 Y263.093
G01 X217.723 Y261.523
G01 X217.197 Y259.926
G01 X216.749 Y258.304
G01 X216.382 Y256.663
G01 X216.095 Y255.005
G01 X215.891 Y253.335
G01 X215.768 Y251.658
G01 X215.728 Y249.976
G01 X215.770 Y248.294
G01 X215.895 Y246.617
G01 X216.085 Y245.068
G01 X213.968 Y244.508
G01 X214.270 Y242.744
G01 X214.658 Y240.997
G01 X215.132 Y239.270
G01 X215.690 Y237.568
G01 X216.331 Y235.896
G01 X217.053 Y234.256
G01 X217.856 Y232.653
G01 X218.736 Y231.091
G01 X219.692 Y229.573
G01 X220.722 Y228.104
G01 X221.823 Y226.687
G01 X222.993 Y225.325
G01 X224.228 Y224.021
G01 X225.527 Y222.780
G01 X226.885 Y221.603
G01 X228.299 Y220.494
G01 X229.767 Y219.455
G01 X231.285 Y218.490
G01 X232.848 Y217.600
G01 X234.454 Y216.787
G01 X236.098 Y216.054
G01 X237.777 Y215.402
G01 X239.486 Y214.833
G01 X241.221 Y214.349
G01 X242.979 Y213.950
G01 X244.755 Y213.638
G01 X246.544 Y213.413
G01 X248.343 Y213.277
G01 X250.147 Y213.228
G01 X251.952 Y213.269
G01 X253.753 Y213.398
G01 X255.546 Y213.615
G01 X257.327 Y213.920
G01 X259.091 Y214.312
G01 X260.835 Y214.791
G01 X262.553 Y215.354
G01 X264.242 Y216.002
G01 X265.898 Y216.731
G01 X267.517 Y217.542
G01 X269.094 Y218.431
G01 X270.626 Y219.396
G01 X272.110 Y220.436
G01 X273.541 Y221.548
G01 X274.916 Y222.729
G01 X276.232 Y223.977
G01 X277.486 Y225.288
G01 X278.674 Y226.659
G01 X279.794 Y228.088
G01 X280.842 Y229.570
G01 X281.817 Y231.102
G01 X282.716 Y232.681
G01 X283.536 Y234.303
G01 X284.277 Y235.963
G01 X284.935 Y237.658
G01 X285.509 Y239.384
G01 X285.998 Y241.136
G01 X286.400 Y242.911
G01 X286.715 Y244.704
G01 X286.942 Y246.511
G01 X287.080 Y248.327
G01 X287.129 Y250.149
G01 X287.088 Y251.971
G01 X286.957 Y253.790
G01 X286.756 Y255.474
G01 X289.507 Y256.155
G01 X289.158 Y258.086
G01 X288.714 Y259.998
G01 X288.177 Y261.886
G01 X287.547 Y263.744
G01 X286.828 Y265.570
G01 X286.019 Y267.359
G01 X285.124 Y269.105
G01 X284.145 Y270.806
G01 X283.083 Y272.456
G01 X281.941 Y274.052
G01 X280.722 Y275.590
G01 X279.430 Y277.067
G01 X278.066 Y278.478
G01 X276.635 Y279.821
G01 X275.139 Y281.092
G01 X273.584 Y282.288
G01 X271.971 Y283.407
G01 X270.305 Y284.444
G01 X268.591 Y285.399
G01 X266.831 Y286.269
G01 X265.031 Y287.051
G01 X263.195 Y287.744
G01 X261.327 Y288.346
G01 X259.432 Y288.856
G01 X257.514 Y289.272
G01 X255.578 Y289.593
G01 X253.629 Y289.819
G01 X251.671 Y289.949
G01 X249.708 Y289.983
G01 X247.747 Y289.920
G01 X245.791 Y289.762
G01 X243.845 Y289.507
G01 X241.914 Y289.158
G01 X240.002 Y288.714
G01 X238.114 Y288.177
G01 X236.256 Y287.547
G01 X234.430 Y286.828
G01 X232.641 Y286.019
G01 X230.895 Y285.124
G01 X229.194 Y284.145
G01 X227.544 Y283.083
G01 X225.948 Y281.941
G01 X224.410 Y280.722
G01 X222.933 Y279.430
G01 X221.522 Y278.066
G01 X220.179 Y276.635
G01 X218.908 Y275.139
G01 X217.712 Y273.584
G01 X216.593 Y271.971
G01 X215.556 Y270.305
G01 X214.601 Y268.591
G01 X213.731 Y266.831
G01 X212.949 Y265.031
G01 X212.256 Y263.195
G01 X211.654 Y261.327
G01 X211.144 Y259.432
G01 X210.728 Y257.514
G01 X210.407 Y255.578
G01 X210.181 Y253.629
G01 X210.051 Y251.671
G01 X210.017 Y249.708
G01 X210.080 Y247.747
G01 X210.238 Y245.791
G01 X210.474 Y243.968
G01 X212.594 Y244.038
G01 X212.921 Y242.208
G01 X213.337 Y240.395
G01 X213.842 Y238.604
G01 X214.434 Y236.840
G01 X215.113 Y235.106
G01 X215.875 Y233.408
G01 X216.721 Y231.748
G01 X217.647 Y230.131
G01 X218.652 Y228.561
G01 X219.732 Y227.042
G01 X220.887 Y225.577
G01 X222.112 Y224.171
G01 X223.405 Y222.825
G01 X224.763 Y221.545
G01 X226.183 Y220.332
G01 X227.661 Y219.190
G01 X229.193 Y218.122
G01 X230.777 Y217.130
G01 X232.408 Y216.216
G01 X234.082 Y215.384
G01 X235.796 Y214.634
G01 X237.544 Y213.969
G01 X239.324 Y213.390
G01 X241.131 Y212.900
G01 X242.960 Y212.498
G01 X244.807 Y212.187
G01 X246.668 Y211.967
G01 X248.538 Y211.838
G01 X250.412 Y211.801
G01 X252.286 Y211.856
G01 X254.157 Y212.003
G01 X256.018 Y212.242
G01 X257.865 Y212.572
G01 X259.695 Y212.992
G01 X261.503 Y213.501
G01 X263.284 Y214.099
G01 X265.034 Y214.784
G01 X266.749 Y215.554
G01 X268.424 Y216.408
G01 X270.056 Y217.343
G01 X271.640 Y218.357
G01 X273.174 Y219.448
G01 X274.652 Y220.613
G01 X276.072 Y221.850
G01 X277.430 Y223.156
G01 X278.722 Y224.526
G01 X279.946 Y225.959
G01 X281.099 Y227.451
G01 X282.177 Y228.998
G01 X283.179 Y230.597
G01 X284.101 Y232.243
G01 X284.941 Y233.933
G01 X285.698 Y235.663
G01 X286.369 Y237.428
G01 X286.952 Y239.224
G01 X287.447 Y241.048
G01 X287.853 Y242.894
G01 X288.167 Y244.758
G01 X288.389 Y246.637
G01 X288.519 Y248.524
G01 X288.556 Y250.416
G01 X288.500 Y252.308
G01 X288.352 Y254.195
G01 X288.165 Y255.711
G01 X289.505 Y256.173
G01 X289.154 Y258.104
G01 X288.709 Y260.016
G01 X288.171 Y261.903
G01 X287.541 Y263.762
G01 X286.821 Y265.587
G01 X286.011 Y267.375
G01 X285.115 Y269.121
G01 X284.135 Y270.821
G01 X283.072 Y272.471
G01 X281.930 Y274.067
G01 X280.710 Y275.605
G01 X279.417 Y277.081
G01 X278.053 Y278.491
G01 X276.621 Y279.834
G01 X275.125 Y281.104
G01 X273.569 Y282.299
G01 X271.955 Y283.417
G01 X270.289 Y284.454
G01 X268.574 Y285.408
G01 X266.815 Y286.277
G01 X265.014 Y287.058
G01 X263.178 Y287.750
G01 X261.310 Y288.351
G01 X259.414 Y288.860
G01 X257.496 Y289.275
G01 X255.560 Y289.596
G01 X253.610 Y289.821
G01 X251.652 Y289.950
G01 X249.690 Y289.983
G01 X247.728 Y289.919
G01 X245.772 Y289.760
G01 X243.827 Y289.505
G01 X241.896 Y289.154
G01 X239.984 Y288.709
G01 X238.097 Y288.171
G01 X236.238 Y287.541
G01 X234.413 Y286.821
G01 X232.625 Y286.011
G01 X230.879 Y285.115
G01 X229.179 Y284.135
G01 X227.529 Y283.072
G01 X225.933 Y281.930
G01 X224.395 Y280.710
G01 X222.919 Y279.417
G01 X221.509 Y278.053
G01 X220.166 Y276.621
G01 X218.896 Y275.125
G01 X217.701 Y273.569
G01 X216.583 Y271.955
G01 X215.546 Y270.289
G01 X214.592 Y268.574
G01 X213.723 Y266.815
G01 X212.942 Y265.014
G01 X212.250 Y263.178
G01 X211.649 Y261.310
G01 X211.140 Y259.414
G01 X210.725 Y257.496
G01 X210.404 Y255.560
G01 X210.179 Y253.610
G01 X210.050 Y251.652
G01 X210.017 Y249.690
G01 X210.081 Y247.728
G01 X210.240 Y245.772
G01 X210.478 Y243.938
G01 X211.187 Y243.793
G01 X211.527 Y241.894
G01 X211.961 Y240.013
G01 X212.486 Y238.156
G01 X213.102 Y236.325
G01 X213.807 Y234.527
G01 X214.600 Y232.765
G01 X215.478 Y231.043
G01 X216.441 Y229.366
G01 X217.484 Y227.738
G01 X218.607 Y226.163
G01 X219.806 Y224.644
G01 X221.078 Y223.185
G01 X222.421 Y221.790
G01 X223.831 Y220.463
G01 X225.305 Y219.206
G01 X226.839 Y218.022
G01 X228.430 Y216.915
G01 X230.074 Y215.886
G01 X231.767 Y214.940
G01 X233.504 Y214.077
G01 X235.282 Y213.301
G01 X237.097 Y212.612
G01 X238.944 Y212.014
G01 X240.819 Y211.506
G01 X242.717 Y211.091
G01 X244.633 Y210.769
G01 X246.564 Y210.542
G01 X248.503 Y210.410
G01 X250.448 Y210.373
G01 X252.393 Y210.432
G01 X254.332 Y210.586
G01 X256.263 Y210.835
G01 X258.179 Y211.178
G01 X260.077 Y211.615
G01 X261.952 Y212.146
G01 X263.799 Y212.767
G01 X265.614 Y213.479
G01 X267.392 Y214.279
G01 X269.129 Y215.165
G01 X270.821 Y216.137
G01 X272.464 Y217.190
G01 X274.053 Y218.323
G01 X275.586 Y219.532
G01 X277.058 Y220.816
G01 X278.465 Y222.171
G01 X279.804 Y223.594
G01 X281.073 Y225.082
G01 X282.267 Y226.630
G01 X283.384 Y228.235
G01 X284.422 Y229.894
G01 X285.377 Y231.602
G01 X286.247 Y233.355
G01 X287.031 Y235.150
G01 X287.725 Y236.981
G01 X288.329 Y238.844
G01 X288.841 Y240.736
G01 X289.260 Y242.651
G01 X289.584 Y244.585
G01 X289.814 Y246.533
G01 X289.947 Y248.490
G01 X289.984 Y250.452
G01 X289.925 Y252.414
G01 X289.769 Y254.371
G01 X289.533 Y256.221
G01 X289.458 Y256.462
G01 X289.094 Y258.390
G01 X288.635 Y260.299
G01 X288.083 Y262.182
G01 X287.439 Y264.036
G01 X286.706 Y265.856
G01 X285.883 Y267.638
G01 X284.975 Y269.377
G01 X283.982 Y271.070
G01 X282.907 Y272.712
G01 X281.753 Y274.300
G01 X280.522 Y275.828
G01 X279.218 Y277.295
G01 X277.844 Y278.696
G01 X276.402 Y280.027
G01 X274.897 Y281.287
G01 X273.332 Y282.471
G01 X271.711 Y283.576
G01 X270.037 Y284.601
G01 X268.315 Y285.543
G01 X266.549 Y286.399
G01 X264.743 Y287.167
G01 X262.901 Y287.845
G01 X261.029 Y288.433
G01 X259.130 Y288.928
G01 X257.209 Y289.329
G01 X255.270 Y289.635
G01 X253.319 Y289.846
G01 X251.360 Y289.961
G01 X249.398 Y289.979
G01 X247.437 Y289.902
G01 X245.482 Y289.728
G01 X243.538 Y289.458
G01 X241.610 Y289.094
G01 X239.701 Y288.635
G01 X237.818 Y288.083
G01 X235.964 Y287.439
G01 X234.144 Y286.706
G01 X232.362 Y285.883
G01 X230.623 Y284.975
G01 X228.930 Y283.982
G01 X227.288 Y282.907
G01 X225.700 Y281.753
G01 X224.172 Y280.522
G01 X222.705 Y279.218
G01 X221.304 Y277.844
G01 X219.973 Y276.402
G01 X218.713 Y274.897
G01 X217.529 Y273.332
G01 X216.424 Y271.711
G01 X215.399 Y270.037
G01 X214.457 Y268.315
G01 X213.601 Y266.549
G01 X212.833 Y264.743
G01 X212.155 Y262.901
G01 X211.567 Y261.029
G01 X211.072 Y259.130
G01 X210.671 Y257.209
G01 X210.365 Y255.270
G01 X210.154 Y253.319
G01 X210.039 Y251.360
G01 X210.021 Y249.398
G01 X210.098 Y247.437
G01 X210.272 Y245.482
G01 X210.526 Y243.636
G01 X209.824 Y243.269
G01 X210.192 Y241.304
G01 X210.656 Y239.358
G01 X211.215 Y237.437
G01 X211.867 Y235.545
G01 X212.612 Y233.687
G01 X213.448 Y231.867
G01 X214.372 Y230.090
G01 X215.382 Y228.360
G01 X216.477 Y226.681
G01 X217.652 Y225.057
G01 X218.907 Y223.493
G01 X220.237 Y221.992
G01 X221.639 Y220.557
G01 X223.111 Y219.192
G01 X224.648 Y217.901
G01 X226.247 Y216.687
G01 X227.904 Y215.552
G01 X229.615 Y214.500
G01 X231.377 Y213.532
G01 X233.184 Y212.652
G01 X235.033 Y211.862
G01 X236.919 Y211.163
G01 X238.837 Y210.557
G01 X240.783 Y210.046
G01 X242.753 Y209.631
G01 X244.741 Y209.313
G01 X246.743 Y209.092
G01 X248.754 Y208.971
G01 X250.769 Y208.948
G01 X252.783 Y209.024
G01 X254.791 Y209.199
G01 X256.790 Y209.472
G01 X258.772 Y209.843
G01 X260.735 Y210.311
G01 X262.673 Y210.875
G01 X264.581 Y211.534
G01 X266.456 Y212.285
G01 X268.292 Y213.128
G01 X270.084 Y214.060
G01 X271.829 Y215.080
G01 X273.523 Y216.184
G01 X275.161 Y217.370
G01 X276.739 Y218.635
G01 X278.253 Y219.977
G01 X279.700 Y221.392
G01 X281.077 Y222.876
G01 X282.379 Y224.427
G01 X283.604 Y226.040
G01 X284.748 Y227.711
G01 X285.810 Y229.438
G01 X286.786 Y231.214
G01 X287.673 Y233.038
G01 X288.471 Y234.902
G01 X289.176 Y236.805
G01 X289.787 Y238.740
G01 X290.302 Y240.703
G01 X290.721 Y242.690
G01 X291.041 Y244.695
G01 X291.263 Y246.715
G01 X291.386 Y248.743
G01 X291.409 Y250.775
G01 X291.332 Y252.807
G01 X291.156 Y254.833
G01 X290.895 Y256.757
G01 X289.409 Y256.756
G01 X289.030 Y258.681
G01 X288.557 Y260.586
G01 X287.991 Y262.465
G01 X287.334 Y264.314
G01 X286.587 Y266.129
G01 X285.751 Y267.905
G01 X284.829 Y269.637
G01 X283.824 Y271.323
G01 X282.737 Y272.957
G01 X281.571 Y274.535
G01 X280.329 Y276.055
G01 X279.014 Y277.512
G01 X277.629 Y278.902
G01 X276.178 Y280.223
G01 X274.663 Y281.471
G01 X273.089 Y282.644
G01 X271.460 Y283.737
G01 X269.779 Y284.750
G01 X268.050 Y285.678
G01 X266.277 Y286.521
G01 X264.466 Y287.276
G01 X262.619 Y287.940
G01 X260.742 Y288.514
G01 X258.840 Y288.995
G01 X256.916 Y289.381
G01 X254.975 Y289.673
G01 X253.022 Y289.870
G01 X251.062 Y289.970
G01 X249.100 Y289.974
G01 X247.139 Y289.882
G01 X245.186 Y289.693
G01 X243.244 Y289.409
G01 X241.319 Y289.030
G01 X239.414 Y288.557
G01 X237.535 Y287.991
G01 X235.686 Y287.334
G01 X233.871 Y286.587
G01 X232.095 Y285.751
G01 X230.363 Y284.829
G01 X228.677 Y283.824
G01 X227.043 Y282.737
G01 X225.465 Y281.571
G01 X223.945 Y280.329
G01 X222.488 Y279.014
G01 X221.098 Y277.629
G01 X219.777 Y276.178
G01 X218.529 Y274.663
G01 X217.356 Y273.089
G01 X216.263 Y271.460
G01 X215.250 Y269.779
G01 X214.322 Y268.050
G01 X213.479 Y266.277
G01 X212.724 Y264.466
G01 X212.060 Y262.619
G01 X211.486 Y260.742
G01 X211.005 Y258.840
G01 X210.619 Y256.916
G01 X210.327 Y254.975
G01 X210.130 Y253.022
G01 X210.030 Y251.062
G01 X210.026 Y249.100
G01 X210.118 Y247.139
G01 X210.307 Y245.186
G01 X210.577 Y243.326
G01 X208.469 Y242.716
G01 X208.865 Y240.684
G01 X209.361 Y238.674
G01 X209.955 Y236.690
G01 X210.646 Y234.737
G01 X211.432 Y232.820
G01 X212.312 Y230.943
G01 X213.283 Y229.111
G01 X214.342 Y227.329
G01 X215.489 Y225.600
G01 X216.719 Y223.929
G01 X218.030 Y222.320
G01 X219.418 Y220.777
G01 X220.881 Y219.304
G01 X222.415 Y217.903
G01 X224.017 Y216.580
G01 X225.681 Y215.336
G01 X227.406 Y214.175
G01 X229.185 Y213.100
G01 X231.016 Y212.113
G01 X232.893 Y211.217
G01 X234.813 Y210.414
G01 X236.770 Y209.706
G01 X238.760 Y209.094
G01 X240.778 Y208.581
G01 X242.820 Y208.168
G01 X244.880 Y207.855
G01 X246.953 Y207.643
G01 X249.035 Y207.533
G01 X251.120 Y207.526
G01 X253.204 Y207.621
G01 X255.281 Y207.818
G01 X257.346 Y208.117
G01 X259.395 Y208.517
G01 X261.422 Y209.017
G01 X263.423 Y209.617
G01 X265.392 Y210.313
G01 X267.325 Y211.106
G01 X269.218 Y211.993
G01 X271.065 Y212.972
G01 X272.863 Y214.041
G01 X274.606 Y215.197
G01 X276.291 Y216.438
G01 X277.913 Y217.760
G01 X279.469 Y219.160
G01 X280.955 Y220.636
G01 X282.367 Y222.183
G01 X283.702 Y223.798
G01 X284.956 Y225.476
G01 X286.127 Y227.215
G01 X287.211 Y229.010
G01 X288.206 Y230.856
G01 X289.110 Y232.749
G01 X289.920 Y234.685
G01 X290.634 Y236.659
G01 X291.250 Y238.666
G01 X291.767 Y240.701
G01 X292.184 Y242.760
G01 X292.500 Y244.837
G01 X292.713 Y246.928
G01 X292.824 Y249.027
G01 X292.831 Y251.130
G01 X292.735 Y253.231
G01 X292.536 Y255.325
G01 X292.249 Y257.319
G01 X294.979 Y258.062
G01 X294.529 Y260.260
G01 X293.972 Y262.432
G01 X293.309 Y264.575
G01 X292.542 Y266.682
G01 X291.672 Y268.750
G01 X290.702 Y270.772
G01 X289.634 Y272.744
G01 X288.470 Y274.661
G01 X287.214 Y276.519
G01 X285.867 Y278.313
G01 X284.435 Y280.039
G01 X282.920 Y281.693
G01 X281.325 Y283.270
G01 X279.655 Y284.767
G01 X277.913 Y286.180
G01 X276.104 Y287.506
G01 X274.232 Y288.742
G01 X272.302 Y289.884
G01 X270.318 Y290.930
G01 X268.285 Y291.878
G01 X266.209 Y292.725
G01 X264.093 Y293.469
G01 X261.943 Y294.108
G01 X259.764 Y294.641
G01 X257.562 Y295.066
G01 X255.342 Y295.383
G01 X253.108 Y295.590
G01 X250.868 Y295.688
G01 X248.625 Y295.675
G01 X246.385 Y295.553
G01 X244.154 Y295.321
G01 X241.938 Y294.979
G01 X239.740 Y294.529
G01 X237.568 Y293.972
G01 X235.425 Y293.309
G01 X233.318 Y292.542
G01 X231.250 Y291.672
G01 X229.228 Y290.702
G01 X227.256 Y289.634
G01 X225.339 Y288.470
G01 X223.481 Y287.214
G01 X221.687 Y285.867
G01 X219.961 Y284.435
G01 X218.307 Y282.920
G01 X216.730 Y281.325
G01 X215.233 Y279.655
G01 X213.820 Y277.913
G01 X212.494 Y276.104
G01 X211.258 Y274.232
G01 X210.116 Y272.302
G01 X209.070 Y270.318
G01 X208.122 Y268.285
G01 X207.275 Y266.209
G01 X206.531 Y264.093
G01 X205.892 Y261.943
G01 X205.359 Y259.764
G01 X204.934 Y257.562
G01 X204.617 Y255.342
G01 X204.410 Y253.108
G01 X204.312 Y250.868
G01 X204.325 Y248.625
G01 X204.447 Y246.385
G01 X204.679 Y244.154
G01 X204.961 Y242.280
G01 X207.076 Y242.389
G01 X207.490 Y240.289
G01 X208.007 Y238.212
G01 X208.626 Y236.162
G01 X209.344 Y234.145
G01 X210.161 Y232.164
G01 X211.074 Y230.226
G01 X212.081 Y228.334
G01 X213.181 Y226.494
G01 X214.369 Y224.709
G01 X215.645 Y222.984
G01 X217.003 Y221.324
G01 X218.442 Y219.731
G01 X219.957 Y218.211
G01 X221.546 Y216.767
G01 X223.204 Y215.402
G01 X224.928 Y214.120
G01 X226.713 Y212.923
G01 X228.554 Y211.815
G01 X230.449 Y210.799
G01 X232.392 Y209.877
G01 X234.378 Y209.051
G01 X236.402 Y208.323
G01 X238.461 Y207.695
G01 X240.548 Y207.169
G01 X242.659 Y206.746
G01 X244.789 Y206.427
G01 X246.932 Y206.212
G01 X249.084 Y206.103
G01 X251.240 Y206.100
G01 X253.393 Y206.203
G01 X255.540 Y206.411
G01 X257.674 Y206.724
G01 X259.790 Y207.142
G01 X261.885 Y207.663
G01 X263.951 Y208.287
G01 X265.985 Y209.011
G01 X267.982 Y209.835
G01 X269.936 Y210.756
G01 X271.843 Y211.771
G01 X273.698 Y212.880
G01 X275.498 Y214.078
G01 X277.237 Y215.364
G01 X278.911 Y216.734
G01 X280.516 Y218.184
G01 X282.048 Y219.712
G01 X283.504 Y221.314
G01 X284.880 Y222.986
G01 X286.173 Y224.723
G01 X287.379 Y226.523
G01 X288.496 Y228.380
G01 X289.520 Y230.290
G01 X290.450 Y232.248
G01 X291.283 Y234.250
G01 X292.017 Y236.291
G01 X292.649 Y238.367
G01 X293.180 Y240.471
G01 X293.606 Y242.599
G01 X293.928 Y244.747
G01 X294.144 Y246.908
G01 X294.254 Y249.077
G01 X294.257 Y251.250
G01 X294.153 Y253.421
G01 X293.943 Y255.585
G01 X293.640 Y257.664
G01 X294.962 Y258.158
G01 X294.507 Y260.354
G01 X293.946 Y262.526
G01 X293.278 Y264.667
G01 X292.506 Y266.773
G01 X291.632 Y268.838
G01 X290.658 Y270.858
G01 X289.585 Y272.828
G01 X288.417 Y274.743
G01 X287.157 Y276.598
G01 X285.807 Y278.390
G01 X284.371 Y280.112
G01 X282.852 Y281.763
G01 X281.254 Y283.336
G01 X279.581 Y284.830
G01 X277.836 Y286.239
G01 X276.024 Y287.561
G01 X274.150 Y288.793
G01 X272.217 Y289.931
G01 X270.231 Y290.973
G01 X268.196 Y291.917
G01 X266.118 Y292.759
G01 X264.000 Y293.498
G01 X261.849 Y294.133
G01 X259.669 Y294.661
G01 X257.466 Y295.082
G01 X255.245 Y295.394
G01 X253.011 Y295.597
G01 X250.770 Y295.690
G01 X248.528 Y295.672
G01 X246.288 Y295.545
G01 X244.058 Y295.308
G01 X241.842 Y294.962
G01 X239.646 Y294.507
G01 X237.474 Y293.946
G01 X235.333 Y293.278
G01 X233.227 Y292.506
G01 X231.162 Y291.632
G01 X229.142 Y290.658
G01 X227.172 Y289.585
G01 X225.257 Y288.417
G01 X223.402 Y287.157
G01 X221.610 Y285.807
G01 X219.888 Y284.371
G01 X218.237 Y282.852
G01 X216.664 Y281.254
G01 X215.170 Y279.581
G01 X213.761 Y277.836
G01 X212.439 Y276.024
G01 X211.207 Y274.150
G01 X210.069 Y272.217
G01 X209.027 Y270.231
G01 X208.083 Y268.196
G01 X207.241 Y266.118
G01 X206.502 Y264.000
G01 X205.867 Y261.849
G01 X205.339 Y259.669
G01 X204.918 Y257.466
G01 X204.606 Y255.245
G01 X204.403 Y253.011
G01 X204.310 Y250.770
G01 X204.328 Y248.528
G01 X204.455 Y246.288
G01 X204.692 Y244.058
G01 X205.025 Y241.912
G01 X205.732 Y241.785
G01 X206.178 Y239.621
G01 X206.729 Y237.480
G01 X207.385 Y235.368
G01 X208.144 Y233.290
G01 X209.004 Y231.252
G01 X209.964 Y229.258
G01 X211.020 Y227.313
G01 X212.171 Y225.422
G01 X213.413 Y223.588
G01 X214.744 Y221.818
G01 X216.161 Y220.115
G01 X217.661 Y218.483
G01 X219.238 Y216.925
G01 X220.891 Y215.447
G01 X222.615 Y214.052
G01 X224.405 Y212.742
G01 X226.259 Y211.522
G01 X228.170 Y210.393
G01 X230.135 Y209.360
G01 X232.148 Y208.424
G01 X234.206 Y207.588
G01 X236.303 Y206.853
G01 X238.433 Y206.222
G01 X240.593 Y205.696
G01 X242.777 Y205.277
G01 X244.978 Y204.966
G01 X247.194 Y204.762
G01 X249.417 Y204.668
G01 X251.642 Y204.683
G01 X253.865 Y204.807
G01 X256.079 Y205.040
G01 X258.280 Y205.381
G01 X260.462 Y205.830
G01 X262.619 Y206.386
G01 X264.748 Y207.047
G01 X266.842 Y207.812
G01 X268.896 Y208.679
G01 X270.906 Y209.646
G01 X272.867 Y210.711
G01 X274.773 Y211.871
G01 X276.621 Y213.124
G01 X278.405 Y214.466
G01 X280.122 Y215.894
G01 X281.767 Y217.405
G01 X283.336 Y218.995
G01 X284.826 Y220.661
G01 X286.232 Y222.399
G01 X287.552 Y224.203
G01 X288.782 Y226.071
G01 X289.919 Y227.998
G01 X290.961 Y229.978
G01 X291.904 Y232.007
G01 X292.747 Y234.081
G01 X293.487 Y236.195
G01 X294.123 Y238.342
G01 X294.653 Y240.519
G01 X295.075 Y242.720
G01 X295.389 Y244.939
G01 X295.594 Y247.171
G01 X295.689 Y249.412
G01 X295.674 Y251.655
G01 X295.549 Y253.895
G01 X295.314 Y256.127
G01 X294.981 Y258.282
G01 X294.895 Y258.520
G01 X294.423 Y260.713
G01 X293.843 Y262.879
G01 X293.159 Y265.015
G01 X292.370 Y267.115
G01 X291.479 Y269.173
G01 X290.488 Y271.185
G01 X289.400 Y273.146
G01 X288.217 Y275.052
G01 X286.942 Y276.897
G01 X285.577 Y278.677
G01 X284.127 Y280.388
G01 X282.595 Y282.026
G01 X280.984 Y283.587
G01 X279.299 Y285.067
G01 X277.543 Y286.462
G01 X275.721 Y287.770
G01 X273.837 Y288.986
G01 X271.895 Y290.109
G01 X269.900 Y291.135
G01 X267.858 Y292.062
G01 X265.773 Y292.888
G01 X263.649 Y293.610
G01 X261.493 Y294.227
G01 X259.309 Y294.738
G01 X257.103 Y295.141
G01 X254.879 Y295.435
G01 X252.644 Y295.619
G01 X250.402 Y295.694
G01 X248.160 Y295.659
G01 X245.922 Y295.514
G01 X243.693 Y295.259
G01 X241.480 Y294.895
G01 X239.287 Y294.423
G01 X237.121 Y293.843
G01 X234.985 Y293.159
G01 X232.885 Y292.370
G01 X230.827 Y291.479
G01 X228.815 Y290.488
G01 X226.854 Y289.400
G01 X224.948 Y288.217
G01 X223.103 Y286.942
G01 X221.323 Y285.577
G01 X219.612 Y284.127
G01 X217.974 Y282.595
G01 X216.413 Y280.984
G01 X214.933 Y279.299
G01 X213.538 Y277.543
G01 X212.230 Y275.721
G01 X211.014 Y273.837
G01 X209.891 Y271.895
G01 X208.865 Y269.900
G01 X207.938 Y267.858
G01 X207.112 Y265.773
G01 X206.390 Y263.649
G01 X205.773 Y261.493
G01 X205.262 Y259.309
G01 X204.859 Y257.103
G01 X204.565 Y254.879
G01 X204.381 Y252.644
G01 X204.306 Y250.402
G01 X204.341 Y248.160
G01 X204.486 Y245.922
G01 X204.741 Y243.693
G01 X205.094 Y241.538
G01 X204.397 Y241.152
G01 X204.875 Y238.922
G01 X205.462 Y236.718
G01 X206.157 Y234.545
G01 X206.958 Y232.408
G01 X207.863 Y230.313
G01 X208.870 Y228.264
G01 X209.976 Y226.266
G01 X211.180 Y224.325
G01 X212.477 Y222.444
G01 X213.866 Y220.629
G01 X215.343 Y218.884
G01 X216.903 Y217.213
G01 X218.544 Y215.620
G01 X220.262 Y214.110
G01 X222.052 Y212.685
G01 X223.911 Y211.349
G01 X225.833 Y210.106
G01 X227.814 Y208.959
G01 X229.850 Y207.909
G01 X231.935 Y206.961
G01 X234.065 Y206.116
G01 X236.234 Y205.376
G01 X238.437 Y204.744
G01 X240.670 Y204.220
G01 X242.926 Y203.806
G01 X245.200 Y203.504
G01 X247.486 Y203.313
G01 X249.780 Y203.235
G01 X252.075 Y203.269
G01 X254.367 Y203.416
G01 X256.649 Y203.675
G01 X258.916 Y204.047
G01 X261.163 Y204.529
G01 X263.384 Y205.120
G01 X265.574 Y205.821
G01 X267.727 Y206.628
G01 X269.838 Y207.540
G01 X271.903 Y208.554
G01 X273.916 Y209.669
G01 X275.872 Y210.882
G01 X277.767 Y212.190
G01 X279.596 Y213.589
G01 X281.354 Y215.077
G01 X283.038 Y216.650
G01 X284.643 Y218.303
G01 X286.165 Y220.034
G01 X287.601 Y221.838
G01 X288.947 Y223.711
G01 X290.199 Y225.648
G01 X291.356 Y227.644
G01 X292.413 Y229.696
G01 X293.368 Y231.797
G01 X294.220 Y233.943
G01 X294.965 Y236.129
G01 X295.602 Y238.349
G01 X296.130 Y240.598
G01 X296.547 Y242.871
G01 X296.851 Y245.163
G01 X297.044 Y247.467
G01 X297.122 Y249.778
G01 X297.088 Y252.091
G01 X296.939 Y254.400
G01 X296.678 Y256.700
G01 X296.360 Y258.684
G01 X294.870 Y258.651
G01 X294.391 Y260.842
G01 X293.806 Y263.007
G01 X293.115 Y265.141
G01 X292.320 Y267.238
G01 X291.423 Y269.294
G01 X290.426 Y271.303
G01 X289.332 Y273.261
G01 X288.144 Y275.163
G01 X286.863 Y277.005
G01 X285.493 Y278.781
G01 X284.039 Y280.488
G01 X282.502 Y282.121
G01 X280.886 Y283.677
G01 X279.197 Y285.152
G01 X277.437 Y286.543
G01 X275.611 Y287.845
G01 X273.723 Y289.056
G01 X271.778 Y290.173
G01 X269.780 Y291.193
G01 X267.735 Y292.114
G01 X265.647 Y292.933
G01 X263.522 Y293.650
G01 X261.364 Y294.260
G01 X259.178 Y294.765
G01 X256.971 Y295.161
G01 X254.747 Y295.449
G01 X252.511 Y295.627
G01 X250.269 Y295.695
G01 X248.026 Y295.653
G01 X245.789 Y295.502
G01 X243.561 Y295.240
G01 X241.349 Y294.870
G01 X239.158 Y294.391
G01 X236.993 Y293.806
G01 X234.859 Y293.115
G01 X232.762 Y292.320
G01 X230.706 Y291.423
G01 X228.697 Y290.426
G01 X226.739 Y289.332
G01 X224.837 Y288.144
G01 X222.995 Y286.863
G01 X221.219 Y285.493
G01 X219.512 Y284.039
G01 X217.879 Y282.502
G01 X216.323 Y280.886
G01 X214.848 Y279.197
G01 X213.457 Y277.437
G01 X212.155 Y275.611
G01 X210.944 Y273.723
G01 X209.827 Y271.778
G01 X208.807 Y269.780
G01 X207.886 Y267.735
G01 X207.067 Y265.647
G01 X206.350 Y263.522
G01 X205.740 Y261.364
G01 X205.235 Y259.178
G01 X204.839 Y256.971
G01 X204.551 Y254.747
G01 X204.373 Y252.511
G01 X204.305 Y250.269
G01 X204.347 Y248.026
G01 X204.498 Y245.789
G01 X204.760 Y243.561
G01 X205.121 Y241.399
G01 X203.021 Y240.743
G01 X203.521 Y238.446
G01 X204.134 Y236.176
G01 X204.857 Y233.938
G01 X205.689 Y231.738
G01 X206.628 Y229.581
G01 X207.672 Y227.473
G01 X208.819 Y225.417
G01 X210.066 Y223.420
G01 X211.409 Y221.486
G01 X212.846 Y219.620
G01 X214.373 Y217.826
G01 X215.987 Y216.108
G01 X217.683 Y214.472
G01 X219.459 Y212.920
G01 X221.308 Y211.458
G01 X223.228 Y210.087
G01 X225.213 Y208.812
G01 X227.258 Y207.635
G01 X229.359 Y206.560
G01 X231.512 Y205.590
G01 X233.709 Y204.725
G01 X235.947 Y203.970
G01 X238.220 Y203.325
G01 X240.522 Y202.792
G01 X242.848 Y202.373
G01 X245.193 Y202.068
G01 X247.550 Y201.879
G01 X249.914 Y201.806
G01 X252.279 Y201.848
G01 X254.640 Y202.007
G01 X256.991 Y202.281
G01 X259.326 Y202.671
G01 X261.640 Y203.175
G01 X263.927 Y203.792
G01 X266.181 Y204.520
G01 X268.398 Y205.359
G01 X270.571 Y206.305
G01 X272.695 Y207.357
G01 X274.766 Y208.513
G01 X276.778 Y209.768
G01 X278.726 Y211.122
G01 X280.607 Y212.570
G01 X282.414 Y214.108
G01 X284.144 Y215.734
G01 X285.792 Y217.443
G01 X287.355 Y219.232
G01 X288.829 Y221.095
G01 X290.210 Y223.029
G01 X291.494 Y225.028
G01 X292.679 Y227.089
G01 X293.762 Y229.206
G01 X294.740 Y231.374
G01 X295.611 Y233.588
G01 X296.372 Y235.843
G01 X297.021 Y238.132
G01 X297.558 Y240.452
G01 X297.980 Y242.795
G01 X298.287 Y245.157
G01 X298.478 Y247.532
G01 X298.552 Y249.913
G01 X298.508 Y252.296
G01 X298.348 Y254.675
G01 X298.072 Y257.043
G01 X297.688 Y259.349
G01 X300.396 Y260.150
G01 X299.837 Y262.610
G01 X299.159 Y265.040
G01 X298.361 Y267.434
G01 X297.448 Y269.786
G01 X296.420 Y272.091
G01 X295.280 Y274.342
G01 X294.031 Y276.534
G01 X292.676 Y278.663
G01 X291.218 Y280.722
G01 X289.661 Y282.708
G01 X288.008 Y284.614
G01 X286.264 Y286.438
G01 X284.432 Y288.173
G01 X282.518 Y289.817
G01 X280.525 Y291.364
G01 X278.459 Y292.812
G01 X276.324 Y294.157
G01 X274.125 Y295.396
G01 X271.869 Y296.525
G01 X269.560 Y297.542
G01 X267.203 Y298.444
G01 X264.805 Y299.230
G01 X262.372 Y299.897
G01 X259.909 Y300.444
G01 X257.422 Y300.869
G01 X254.917 Y301.172
G01 X252.400 Y301.352
G01 X249.877 Y301.408
G01 X247.355 Y301.340
G01 X244.839 Y301.148
G01 X242.336 Y300.833
G01 X239.850 Y300.396
G01 X237.390 Y299.837
G01 X234.960 Y299.159
G01 X232.566 Y298.361
G01 X230.214 Y297.448
G01 X227.909 Y296.420
G01 X225.658 Y295.280
G01 X223.466 Y294.031
G01 X221.337 Y292.676
G01 X219.278 Y291.218
G01 X217.292 Y289.661
G01 X215.386 Y288.008
G01 X213.562 Y286.264
G01 X211.827 Y284.432
G01 X210.183 Y282.518
G01 X208.636 Y280.525
G01 X207.188 Y278.459
G01 X205.843 Y276.324
G01 X204.604 Y274.125
G01 X203.475 Y271.869
G01 X202.458 Y269.560
G01 X201.556 Y267.203
G01 X200.770 Y264.805
G01 X200.103 Y262.372
G01 X199.556 Y259.909
G01 X199.131 Y257.422
G01 X198.828 Y254.917
G01 X198.648 Y252.400
G01 X198.592 Y249.877
G01 X198.660 Y247.355
G01 X198.852 Y244.839
G01 X199.167 Y242.336
G01 X199.596 Y239.890
G01 X201.701 Y240.057
G01 X202.236 Y237.697
G01 X202.887 Y235.364
G01 X203.651 Y233.067
G01 X204.527 Y230.808
G01 X205.514 Y228.595
G01 X206.608 Y226.433
G01 X207.807 Y224.326
G01 X209.108 Y222.281
G01 X210.509 Y220.301
G01 X212.005 Y218.392
G01 X213.593 Y216.558
G01 X215.270 Y214.804
G01 X217.032 Y213.134
G01 X218.873 Y211.552
G01 X220.791 Y210.062
G01 X222.780 Y208.668
G01 X224.835 Y207.372
G01 X226.952 Y206.179
G01 X229.125 Y205.091
G01 X231.349 Y204.110
G01 X233.620 Y203.240
G01 X235.931 Y202.482
G01 X238.277 Y201.838
G01 X240.652 Y201.309
G01 X243.051 Y200.898
G01 X245.467 Y200.605
G01 X247.896 Y200.431
G01 X250.331 Y200.377
G01 X252.766 Y200.442
G01 X255.196 Y200.626
G01 X257.614 Y200.929
G01 X260.015 Y201.351
G01 X262.392 Y201.890
G01 X264.741 Y202.546
G01 X267.056 Y203.316
G01 X269.330 Y204.198
G01 X271.559 Y205.192
G01 X273.737 Y206.294
G01 X275.859 Y207.502
G01 X277.919 Y208.813
G01 X279.914 Y210.223
G01 X281.836 Y211.731
G01 X283.683 Y213.331
G01 X285.450 Y215.020
G01 X287.132 Y216.794
G01 X288.725 Y218.649
G01 X290.226 Y220.580
G01 X291.630 Y222.583
G01 X292.935 Y224.653
G01 X294.137 Y226.785
G01 X295.233 Y228.974
G01 X296.221 Y231.215
G01 X297.097 Y233.502
G01 X297.861 Y235.829
G01 X298.509 Y238.192
G01 X299.041 Y240.585
