;  Created by Sandify
;  https://sandify.org
;  Version: 0.2.6
;
;  Machine type: Rectangular
;    Min X (mm): 0
;    Max X (mm): 500
;    Min Y (mm): 0
;    Max Y (mm): 500
;  Content type: shape
;  Layer:
;    Shape: FileImport
;    Name: griddy5.thr
;    From file:: griddy5.thr
;    Aspect Ratio: true
;    Comments: 
;    Visible: true
;    Initial width: 10
;    Initial height: 10
;    X offset: 0
;    Y offset: 0
;    Rotate (degrees): 0
;    Reverse path: false
;    Fine tuning:
;      Connect to next layer: line
;      Draw portion of path (%): 100
;      Backtrack at end (%): 0
;      Rotate starting point (%): 0
;  Reverse export path: false
;
; File name: 'squares'
; File type: gcode
;

G01 X250.000 Y262.500
G01 X250.000 Y275.000
G01 X250.000 Y287.500
G01 X250.000 Y300.000
G01 X250.000 Y312.500
G01 X250.000 Y325.000
G01 X250.000 Y337.500
G01 X250.000 Y350.000
G01 X250.000 Y362.500
G01 X250.000 Y375.000
G01 X250.000 Y387.500
G01 X250.000 Y400.000
G01 X250.000 Y412.500
G01 X250.000 Y425.000
G01 X250.000 Y437.500
G01 X250.000 Y450.000
G01 X250.000 Y462.500
G01 X250.000 Y475.000
G01 X250.000 Y487.500
G01 X250.000 Y500.000
G01 X237.733 Y499.699
G01 X225.496 Y498.796
G01 X213.317 Y497.294
G01 X201.227 Y495.196
G01 X189.255 Y492.508
G01 X177.429 Y489.235
G01 X165.778 Y485.386
G01 X154.329 Y480.970
G01 X143.111 Y475.997
G01 X132.151 Y470.480
G01 X121.474 Y464.432
G01 X111.107 Y457.867
G01 X101.075 Y450.802
G01 X100.000 Y450.000
G01 X100.000 Y445.000
G01 X100.000 Y440.000
G01 X87.500 Y437.500
G01 X87.500 Y435.000
G01 X100.000 Y435.000
G01 X87.500 Y432.500
G01 X87.500 Y430.000
G01 X100.000 Y430.000
G01 X87.500 Y427.500
G01 X75.000 Y427.500
G01 X75.000 Y425.000
G01 X87.500 Y425.000
G01 X100.000 Y425.000
G01 X87.500 Y422.500
G01 X75.000 Y422.500
G01 X75.000 Y420.000
G01 X87.500 Y420.000
G01 X100.000 Y420.000
G01 X87.500 Y417.500
G01 X75.000 Y417.500
G01 X62.500 Y415.000
G01 X75.000 Y415.000
G01 X87.500 Y415.000
G01 X100.000 Y415.000
G01 X87.500 Y412.500
G01 X75.000 Y412.500
G01 X62.500 Y412.500
G01 X62.500 Y410.000
G01 X75.000 Y410.000
G01 X87.500 Y410.000
G01 X100.000 Y410.000
G01 X87.500 Y407.500
G01 X75.000 Y407.500
G01 X62.500 Y407.500
G01 X62.500 Y405.000
G01 X75.000 Y405.000
G01 X87.500 Y405.000
G01 X100.000 Y405.000
G01 X87.500 Y402.500
G01 X75.000 Y402.500
G01 X62.500 Y402.500
G01 X50.000 Y400.000
G01 X62.500 Y400.000
G01 X75.000 Y400.000
G01 X87.500 Y400.000
G01 X100.000 Y400.000
G01 X100.000 Y412.500
G01 X100.000 Y425.000
G01 X100.000 Y437.500
G01 X100.000 Y450.000
G01 X102.500 Y450.000
G01 X102.500 Y437.500
G01 X102.500 Y425.000
G01 X102.500 Y412.500
G01 X102.500 Y400.000
G01 X105.000 Y412.500
G01 X105.000 Y425.000
G01 X105.000 Y437.500
G01 X105.000 Y450.000
G01 X107.500 Y450.000
G01 X107.500 Y437.500
G01 X107.500 Y425.000
G01 X107.500 Y412.500
G01 X107.500 Y400.000
G01 X110.000 Y412.500
G01 X110.000 Y425.000
G01 X110.000 Y437.500
G01 X110.000 Y450.000
G01 X112.500 Y450.000
G01 X112.500 Y437.500
G01 X112.500 Y425.000
G01 X112.500 Y412.500
G01 X112.500 Y400.000
G01 X115.000 Y412.500
G01 X115.000 Y425.000
G01 X115.000 Y437.500
G01 X115.000 Y450.000
G01 X117.500 Y450.000
G01 X117.500 Y437.500
G01 X117.500 Y425.000
G01 X117.500 Y412.500
G01 X117.500 Y400.000
G01 X120.000 Y412.500
G01 X120.000 Y425.000
G01 X120.000 Y437.500
G01 X120.000 Y450.000
G01 X120.000 Y462.500
G01 X122.500 Y462.500
G01 X122.500 Y450.000
G01 X122.500 Y437.500
G01 X122.500 Y425.000
G01 X122.500 Y412.500
G01 X122.500 Y400.000
G01 X125.000 Y412.500
G01 X125.000 Y425.000
G01 X125.000 Y437.500
G01 X125.000 Y450.000
G01 X125.000 Y462.500
G01 X127.500 Y462.500
G01 X127.500 Y450.000
G01 X127.500 Y437.500
G01 X127.500 Y425.000
G01 X127.500 Y412.500
G01 X127.500 Y400.000
G01 X130.000 Y412.500
G01 X130.000 Y425.000
G01 X130.000 Y437.500
G01 X130.000 Y450.000
G01 X130.000 Y462.500
G01 X132.500 Y462.500
G01 X132.500 Y450.000
G01 X132.500 Y437.500
G01 X132.500 Y425.000
G01 X132.500 Y412.500
G01 X132.500 Y400.000
G01 X135.000 Y412.500
G01 X135.000 Y425.000
G01 X135.000 Y437.500
G01 X135.000 Y450.000
G01 X135.000 Y462.500
G01 X137.500 Y462.500
G01 X137.500 Y450.000
G01 X137.500 Y437.500
G01 X137.500 Y425.000
G01 X137.500 Y412.500
G01 X137.500 Y400.000
G01 X140.000 Y412.500
G01 X140.000 Y425.000
G01 X140.000 Y437.500
G01 X140.000 Y450.000
G01 X140.000 Y462.500
G01 X142.500 Y475.000
G01 X142.500 Y462.500
G01 X142.500 Y450.000
G01 X142.500 Y437.500
G01 X142.500 Y425.000
G01 X142.500 Y412.500
G01 X142.500 Y400.000
G01 X145.000 Y412.500
G01 X145.000 Y425.000
G01 X145.000 Y437.500
G01 X145.000 Y450.000
G01 X145.000 Y462.500
G01 X145.000 Y475.000
G01 X147.500 Y475.000
G01 X147.500 Y462.500
G01 X147.500 Y450.000
G01 X147.500 Y437.500
G01 X147.500 Y425.000
G01 X147.500 Y412.500
G01 X147.500 Y400.000
G01 X150.000 Y412.500
G01 X150.000 Y425.000
G01 X150.000 Y437.500
G01 X150.000 Y450.000
G01 X150.000 Y462.500
G01 X150.000 Y475.000
G01 X152.500 Y475.000
G01 X152.500 Y462.500
G01 X152.500 Y450.000
G01 X152.500 Y437.500
G01 X152.500 Y425.000
G01 X152.500 Y412.500
G01 X152.500 Y400.000
G01 X155.000 Y412.500
G01 X155.000 Y425.000
G01 X155.000 Y437.500
G01 X155.000 Y450.000
G01 X155.000 Y462.500
G01 X155.000 Y475.000
G01 X157.500 Y475.000
G01 X157.500 Y462.500
G01 X157.500 Y450.000
G01 X157.500 Y437.500
G01 X157.500 Y425.000
G01 X157.500 Y412.500
G01 X157.500 Y400.000
G01 X160.000 Y412.500
G01 X160.000 Y425.000
G01 X160.000 Y437.500
G01 X160.000 Y450.000
G01 X160.000 Y462.500
G01 X160.000 Y475.000
G01 X162.500 Y475.000
G01 X162.500 Y462.500
G01 X162.500 Y450.000
G01 X162.500 Y437.500
G01 X162.500 Y425.000
G01 X162.500 Y412.500
G01 X162.500 Y400.000
G01 X165.000 Y412.500
G01 X165.000 Y425.000
G01 X165.000 Y437.500
G01 X165.000 Y450.000
G01 X165.000 Y462.500
G01 X165.000 Y475.000
G01 X167.500 Y475.000
G01 X167.500 Y462.500
G01 X167.500 Y450.000
G01 X167.500 Y437.500
G01 X167.500 Y425.000
G01 X167.500 Y412.500
G01 X167.500 Y400.000
G01 X170.000 Y412.500
G01 X170.000 Y425.000
G01 X170.000 Y437.500
G01 X170.000 Y450.000
G01 X170.000 Y462.500
G01 X170.000 Y475.000
G01 X172.500 Y487.500
G01 X172.500 Y475.000
G01 X172.500 Y462.500
G01 X172.500 Y450.000
G01 X172.500 Y437.500
G01 X172.500 Y425.000
G01 X172.500 Y412.500
G01 X172.500 Y400.000
G01 X175.000 Y412.500
G01 X175.000 Y425.000
G01 X175.000 Y437.500
G01 X175.000 Y450.000
G01 X175.000 Y462.500
G01 X175.000 Y475.000
G01 X175.000 Y487.500
G01 X177.500 Y487.500
G01 X177.500 Y475.000
G01 X177.500 Y462.500
G01 X177.500 Y450.000
G01 X177.500 Y437.500
G01 X177.500 Y425.000
G01 X177.500 Y412.500
G01 X177.500 Y400.000
G01 X180.000 Y412.500
G01 X180.000 Y425.000
G01 X180.000 Y437.500
G01 X180.000 Y450.000
G01 X180.000 Y462.500
G01 X180.000 Y475.000
G01 X180.000 Y487.500
G01 X182.500 Y487.500
G01 X182.500 Y475.000
G01 X182.500 Y462.500
G01 X182.500 Y450.000
G01 X182.500 Y437.500
G01 X182.500 Y425.000
G01 X182.500 Y412.500
G01 X182.500 Y400.000
G01 X185.000 Y412.500
G01 X185.000 Y425.000
G01 X185.000 Y437.500
G01 X185.000 Y450.000
G01 X185.000 Y462.500
G01 X185.000 Y475.000
G01 X185.000 Y487.500
G01 X187.500 Y487.500
G01 X187.500 Y475.000
G01 X187.500 Y462.500
G01 X187.500 Y450.000
G01 X187.500 Y437.500
G01 X187.500 Y425.000
G01 X187.500 Y412.500
G01 X187.500 Y400.000
G01 X190.000 Y412.500
G01 X190.000 Y425.000
G01 X190.000 Y437.500
G01 X190.000 Y450.000
G01 X190.000 Y462.500
G01 X190.000 Y475.000
G01 X190.000 Y487.500
G01 X192.500 Y487.500
G01 X192.500 Y475.000
G01 X192.500 Y462.500
G01 X192.500 Y450.000
G01 X192.500 Y437.500
G01 X192.500 Y425.000
G01 X192.500 Y412.500
G01 X192.500 Y400.000
G01 X195.000 Y412.500
G01 X195.000 Y425.000
G01 X195.000 Y437.500
G01 X195.000 Y450.000
G01 X195.000 Y462.500
G01 X195.000 Y475.000
G01 X195.000 Y487.500
G01 X197.500 Y487.500
G01 X197.500 Y475.000
G01 X197.500 Y462.500
G01 X197.500 Y450.000
G01 X197.500 Y437.500
G01 X197.500 Y425.000
G01 X197.500 Y412.500
G01 X197.500 Y400.000
G01 X200.000 Y412.500
G01 X200.000 Y425.000
G01 X200.000 Y437.500
G01 X200.000 Y450.000
G01 X200.000 Y462.500
G01 X200.000 Y475.000
G01 X200.000 Y487.500
G01 X211.442 Y491.371
G01 X223.143 Y494.688
G01 X235.078 Y497.433
G01 X247.218 Y499.593
G01 X250.000 Y500.000
G01 X262.237 Y499.095
G01 X274.386 Y497.592
G01 X275.000 Y497.500
G01 X262.778 Y497.507
G01 X262.500 Y497.500
G01 X250.340 Y497.508
G01 X250.000 Y497.500
G01 X237.841 Y497.508
G01 X237.500 Y497.500
G01 X225.279 Y497.507
G01 X225.000 Y497.500
G01 X213.015 Y495.116
G01 X212.500 Y495.000
G01 X224.725 Y495.007
G01 X225.000 Y495.000
G01 X237.100 Y495.010
G01 X237.500 Y495.000
G01 X249.537 Y495.011
G01 X250.000 Y495.000
G01 X262.037 Y495.011
G01 X262.500 Y495.000
G01 X274.599 Y495.010
G01 X275.000 Y495.000
G01 X287.224 Y495.007
G01 X287.500 Y495.000
G01 X287.500 Y492.500
G01 X275.395 Y492.510
G01 X275.000 Y492.500
G01 X263.021 Y492.513
G01 X262.500 Y492.500
G01 X250.585 Y492.514
G01 X250.000 Y492.500
G01 X238.086 Y492.514
G01 X237.500 Y492.500
G01 X225.523 Y492.513
G01 X225.000 Y492.500
G01 X212.897 Y492.510
G01 X212.500 Y492.500
G01 X200.207 Y492.505
G01 X200.000 Y492.500
G01 X212.500 Y490.000
G01 X224.485 Y490.013
G01 X225.000 Y490.000
G01 X236.857 Y490.016
G01 X237.500 Y490.000
G01 X249.292 Y490.017
G01 X250.000 Y490.000
G01 X261.791 Y490.017
G01 X262.500 Y490.000
G01 X274.354 Y490.016
G01 X275.000 Y490.000
G01 X286.982 Y490.013
G01 X287.500 Y490.000
G01 X299.673 Y490.008
G01 X300.000 Y490.000
G01 X287.500 Y487.500
G01 X275.635 Y487.516
G01 X275.000 Y487.500
G01 X263.265 Y487.519
G01 X262.500 Y487.500
G01 X250.830 Y487.520
G01 X250.000 Y487.500
G01 X238.331 Y487.520
G01 X237.500 Y487.500
G01 X225.768 Y487.519
G01 X225.000 Y487.500
G01 X213.139 Y487.516
G01 X212.500 Y487.500
G01 X200.446 Y487.511
G01 X200.000 Y487.500
G01 X212.458 Y485.010
G01 X212.500 Y485.000
G01 X224.245 Y485.019
G01 X225.000 Y485.000
G01 X236.614 Y485.022
G01 X237.500 Y485.000
G01 X249.047 Y485.023
G01 X250.000 Y485.000
G01 X261.546 Y485.023
G01 X262.500 Y485.000
G01 X274.110 Y485.022
G01 X275.000 Y485.000
G01 X286.740 Y485.019
G01 X287.500 Y485.000
G01 X299.435 Y485.014
G01 X300.000 Y485.000
G01 X287.658 Y482.536
G01 X287.500 Y482.500
G01 X275.875 Y482.522
G01 X275.000 Y482.500
G01 X263.508 Y482.525
G01 X262.500 Y482.500
G01 X251.075 Y482.526
G01 X250.000 Y482.500
G01 X238.577 Y482.526
G01 X237.500 Y482.500
G01 X226.012 Y482.525
G01 X225.000 Y482.500
G01 X213.381 Y482.522
G01 X212.500 Y482.500
G01 X200.684 Y482.517
G01 X200.000 Y482.500
G01 X212.225 Y480.063
G01 X212.500 Y480.000
G01 X224.005 Y480.025
G01 X225.000 Y480.000
G01 X236.370 Y480.028
G01 X237.500 Y480.000
G01 X248.802 Y480.029
G01 X250.000 Y480.000
G01 X261.301 Y480.029
G01 X262.500 Y480.000
G01 X273.866 Y480.028
G01 X275.000 Y480.000
G01 X286.498 Y480.025
G01 X287.500 Y480.000
G01 X299.198 Y480.020
G01 X300.000 Y480.000
G01 X287.891 Y477.590
G01 X287.500 Y477.500
G01 X276.115 Y477.528
G01 X275.000 Y477.500
G01 X263.751 Y477.531
G01 X262.500 Y477.500
G01 X251.320 Y477.532
G01 X250.000 Y477.500
G01 X238.822 Y477.532
G01 X237.500 Y477.500
G01 X226.256 Y477.531
G01 X225.000 Y477.500
G01 X213.623 Y477.528
G01 X212.500 Y477.500
G01 X200.921 Y477.523
G01 X200.000 Y477.500
G01 X211.994 Y475.116
G01 X212.500 Y475.000
G01 X223.765 Y475.031
G01 X225.000 Y475.000
G01 X236.127 Y475.034
G01 X237.500 Y475.000
G01 X248.557 Y475.035
G01 X250.000 Y475.000
G01 X261.055 Y475.035
G01 X262.500 Y475.000
G01 X273.622 Y475.034
G01 X275.000 Y475.000
G01 X286.256 Y475.031
G01 X287.500 Y475.000
G01 X298.960 Y475.026
G01 X300.000 Y475.000
G01 X288.122 Y472.643
G01 X287.500 Y472.500
G01 X276.355 Y472.534
G01 X275.000 Y472.500
G01 X263.994 Y472.537
G01 X262.500 Y472.500
G01 X251.565 Y472.538
G01 X250.000 Y472.500
G01 X239.067 Y472.538
G01 X237.500 Y472.500
G01 X226.501 Y472.537
G01 X225.000 Y472.500
G01 X213.864 Y472.534
G01 X212.500 Y472.500
G01 X201.158 Y472.529
G01 X200.000 Y472.500
G01 X211.762 Y470.169
G01 X212.500 Y470.000
G01 X223.525 Y470.037
G01 X225.000 Y470.000
G01 X235.884 Y470.040
G01 X237.500 Y470.000
G01 X248.312 Y470.041
G01 X250.000 Y470.000
G01 X260.810 Y470.042
G01 X262.500 Y470.000
G01 X273.377 Y470.040
G01 X275.000 Y470.000
G01 X286.015 Y470.037
G01 X287.500 Y470.000
G01 X298.723 Y470.032
G01 X300.000 Y470.000
G01 X288.353 Y467.696
G01 X287.500 Y467.500
G01 X276.595 Y467.540
G01 X275.000 Y467.500
G01 X264.237 Y467.543
G01 X262.500 Y467.500
G01 X251.810 Y467.544
G01 X250.000 Y467.500
G01 X239.313 Y467.545
G01 X237.500 Y467.500
G01 X226.745 Y467.543
G01 X225.000 Y467.500
G01 X214.106 Y467.540
G01 X212.500 Y467.500
G01 X201.395 Y467.536
G01 X200.000 Y467.500
G01 X211.531 Y465.222
G01 X212.500 Y465.000
G01 X223.286 Y465.043
G01 X225.000 Y465.000
G01 X235.641 Y465.046
G01 X237.500 Y465.000
G01 X248.067 Y465.047
G01 X250.000 Y465.000
G01 X260.565 Y465.048
G01 X262.500 Y465.000
G01 X273.133 Y465.046
G01 X275.000 Y465.000
G01 X285.774 Y465.043
G01 X287.500 Y465.000
G01 X298.486 Y465.039
G01 X300.000 Y465.000
G01 X288.584 Y462.749
G01 X287.500 Y462.500
G01 X276.834 Y462.546
G01 X275.000 Y462.500
G01 X264.480 Y462.549
G01 X262.500 Y462.500
G01 X252.055 Y462.551
G01 X250.000 Y462.500
G01 X239.558 Y462.551
G01 X237.500 Y462.500
G01 X226.989 Y462.549
G01 X225.000 Y462.500
G01 X214.347 Y462.546
G01 X212.500 Y462.500
G01 X201.632 Y462.542
G01 X200.000 Y462.500
G01 X211.301 Y460.275
G01 X212.500 Y460.000
G01 X223.047 Y460.049
G01 X225.000 Y460.000
G01 X235.398 Y460.052
G01 X237.500 Y460.000
G01 X247.822 Y460.054
G01 X250.000 Y460.000
G01 X260.319 Y460.054
G01 X262.500 Y460.000
G01 X272.889 Y460.052
G01 X275.000 Y460.000
G01 X285.533 Y460.049
G01 X287.500 Y460.000
G01 X298.250 Y460.045
G01 X300.000 Y460.000
G01 X288.814 Y457.802
G01 X287.500 Y457.500
G01 X277.073 Y457.552
G01 X275.000 Y457.500
G01 X264.723 Y457.555
G01 X262.500 Y457.500
G01 X252.300 Y457.557
G01 X250.000 Y457.500
G01 X239.803 Y457.557
G01 X237.500 Y457.500
G01 X227.233 Y457.555
G01 X225.000 Y457.500
G01 X214.588 Y457.552
G01 X212.500 Y457.500
G01 X201.868 Y457.548
G01 X200.000 Y457.500
G01 X211.071 Y455.328
G01 X212.500 Y455.000
G01 X222.808 Y455.055
G01 X225.000 Y455.000
G01 X235.156 Y455.058
G01 X237.500 Y455.000
G01 X247.578 Y455.060
G01 X250.000 Y455.000
G01 X260.074 Y455.060
G01 X262.500 Y455.000
G01 X272.645 Y455.058
G01 X275.000 Y455.000
G01 X285.292 Y455.055
G01 X287.500 Y455.000
G01 X298.014 Y455.051
G01 X300.000 Y455.000
G01 X289.043 Y452.855
G01 X287.500 Y452.500
G01 X277.311 Y452.558
G01 X275.000 Y452.500
G01 X264.966 Y452.561
G01 X262.500 Y452.500
G01 X252.545 Y452.563
G01 X250.000 Y452.500
G01 X240.049 Y452.563
G01 X237.500 Y452.500
G01 X227.477 Y452.561
G01 X225.000 Y452.500
G01 X214.828 Y452.558
G01 X212.500 Y452.500
G01 X202.103 Y452.554
G01 X200.000 Y452.500
G01 X210.842 Y450.381
G01 X212.500 Y450.000
G01 X222.570 Y450.061
G01 X225.000 Y450.000
G01 X234.913 Y450.064
G01 X237.500 Y450.000
G01 X247.333 Y450.066
G01 X250.000 Y450.000
G01 X259.829 Y450.066
G01 X262.500 Y450.000
G01 X272.401 Y450.064
G01 X275.000 Y450.000
G01 X285.051 Y450.061
G01 X287.500 Y450.000
G01 X297.779 Y450.057
G01 X300.000 Y450.000
G01 X289.272 Y447.908
G01 X287.500 Y447.500
G01 X277.550 Y447.564
G01 X275.000 Y447.500
G01 X265.208 Y447.567
G01 X262.500 Y447.500
G01 X252.790 Y447.569
G01 X250.000 Y447.500
G01 X240.294 Y447.569
G01 X237.500 Y447.500
G01 X227.721 Y447.567
G01 X225.000 Y447.500
G01 X215.069 Y447.564
G01 X212.500 Y447.500
G01 X202.339 Y447.560
G01 X200.000 Y447.500
G01 X210.614 Y445.434
G01 X212.500 Y445.000
G01 X222.331 Y445.067
G01 X225.000 Y445.000
G01 X234.671 Y445.070
G01 X237.500 Y445.000
G01 X247.088 Y445.072
G01 X250.000 Y445.000
G01 X259.583 Y445.072
G01 X262.500 Y445.000
G01 X272.157 Y445.070
G01 X275.000 Y445.000
G01 X284.811 Y445.068
G01 X287.500 Y445.000
G01 X297.544 Y445.063
G01 X300.000 Y445.000
G01 X289.500 Y442.960
G01 X287.500 Y442.500
G01 X277.787 Y442.570
G01 X275.000 Y442.500
G01 X265.450 Y442.573
G01 X262.500 Y442.500
G01 X253.035 Y442.575
G01 X250.000 Y442.500
G01 X240.539 Y442.575
G01 X237.500 Y442.500
G01 X227.964 Y442.573
G01 X225.000 Y442.500
G01 X215.309 Y442.571
G01 X212.500 Y442.500
G01 X202.573 Y442.566
G01 X200.000 Y442.500
G01 X210.386 Y440.486
G01 X212.500 Y440.000
G01 X222.094 Y440.073
G01 X225.000 Y440.000
G01 X234.428 Y440.076
G01 X237.500 Y440.000
G01 X246.843 Y440.078
G01 X250.000 Y440.000
G01 X259.338 Y440.078
G01 X262.500 Y440.000
G01 X271.914 Y440.076
G01 X275.000 Y440.000
G01 X284.571 Y440.074
G01 X287.500 Y440.000
G01 X297.310 Y440.069
G01 X300.000 Y440.000
G01 X289.727 Y438.013
G01 X287.500 Y437.500
G01 X278.025 Y437.576
G01 X275.000 Y437.500
G01 X265.693 Y437.579
G01 X262.500 Y437.500
G01 X253.279 Y437.581
G01 X250.000 Y437.500
G01 X240.785 Y437.581
G01 X237.500 Y437.500
G01 X228.208 Y437.579
G01 X225.000 Y437.500
G01 X215.549 Y437.577
G01 X212.500 Y437.500
G01 X202.807 Y437.572
G01 X200.000 Y437.500
G01 X210.160 Y435.539
G01 X212.500 Y435.000
G01 X221.857 Y435.079
G01 X225.000 Y435.000
G01 X234.186 Y435.082
G01 X237.500 Y435.000
G01 X246.598 Y435.084
G01 X250.000 Y435.000
G01 X259.093 Y435.084
G01 X262.500 Y435.000
G01 X271.670 Y435.082
G01 X275.000 Y435.000
G01 X284.331 Y435.080
G01 X287.500 Y435.000
G01 X297.076 Y435.075
G01 X300.000 Y435.000
G01 X289.953 Y433.065
G01 X287.500 Y432.500
G01 X278.262 Y432.583
G01 X275.000 Y432.500
G01 X265.935 Y432.585
G01 X262.500 Y432.500
G01 X253.524 Y432.587
G01 X250.000 Y432.500
G01 X241.030 Y432.587
G01 X237.500 Y432.500
G01 X228.452 Y432.585
G01 X225.000 Y432.500
G01 X215.789 Y432.583
G01 X212.500 Y432.500
G01 X203.040 Y432.578
G01 X200.000 Y432.500
G01 X209.934 Y430.591
G01 X212.500 Y430.000
G01 X221.620 Y430.086
G01 X225.000 Y430.000
G01 X233.944 Y430.088
G01 X237.500 Y430.000
G01 X246.353 Y430.090
G01 X250.000 Y430.000
G01 X258.847 Y430.090
G01 X262.500 Y430.000
G01 X271.426 Y430.089
G01 X275.000 Y430.000
G01 X284.092 Y430.086
G01 X287.500 Y430.000
G01 X296.843 Y430.082
G01 X300.000 Y430.000
G01 X290.178 Y428.117
G01 X287.500 Y427.500
G01 X278.499 Y427.589
G01 X275.000 Y427.500
G01 X266.176 Y427.591
G01 X262.500 Y427.500
G01 X253.769 Y427.593
G01 X250.000 Y427.500
G01 X241.275 Y427.593
G01 X237.500 Y427.500
G01 X228.695 Y427.592
G01 X225.000 Y427.500
G01 X216.028 Y427.589
G01 X212.500 Y427.500
G01 X203.273 Y427.585
G01 X200.000 Y427.500
G01 X209.709 Y425.643
G01 X212.500 Y425.000
G01 X221.383 Y425.092
G01 X225.000 Y425.000
G01 X233.703 Y425.094
G01 X237.500 Y425.000
G01 X246.109 Y425.096
G01 X250.000 Y425.000
G01 X258.602 Y425.096
G01 X262.500 Y425.000
G01 X271.183 Y425.095
G01 X275.000 Y425.000
G01 X283.852 Y425.092
G01 X287.500 Y425.000
G01 X296.611 Y425.088
G01 X300.000 Y425.000
G01 X290.403 Y423.169
G01 X287.500 Y422.500
G01 X278.735 Y422.595
G01 X275.000 Y422.500
G01 X266.418 Y422.597
G01 X262.500 Y422.500
G01 X254.014 Y422.599
G01 X250.000 Y422.500
G01 X241.521 Y422.599
G01 X237.500 Y422.500
G01 X228.939 Y422.598
G01 X225.000 Y422.500
G01 X216.267 Y422.595
G01 X212.500 Y422.500
G01 X203.505 Y422.591
G01 X200.000 Y422.500
G01 X209.486 Y420.695
G01 X212.500 Y420.000
G01 X221.147 Y420.098
G01 X225.000 Y420.000
G01 X233.461 Y420.101
G01 X237.500 Y420.000
G01 X245.864 Y420.102
G01 X250.000 Y420.000
G01 X258.357 Y420.102
G01 X262.500 Y420.000
G01 X270.940 Y420.101
G01 X275.000 Y420.000
G01 X283.614 Y420.098
G01 X287.500 Y420.000
G01 X296.380 Y420.094
G01 X300.000 Y420.000
G01 X290.626 Y418.221
G01 X287.500 Y417.500
G01 X278.970 Y417.601
G01 X275.000 Y417.500
G01 X266.659 Y417.604
G01 X262.500 Y417.500
G01 X254.258 Y417.605
G01 X250.000 Y417.500
G01 X241.766 Y417.605
G01 X237.500 Y417.500
G01 X229.182 Y417.604
G01 X225.000 Y417.500
G01 X216.506 Y417.601
G01 X212.500 Y417.500
G01 X203.736 Y417.597
G01 X200.000 Y417.500
G01 X209.263 Y415.747
G01 X212.500 Y415.000
G01 X220.912 Y415.104
G01 X225.000 Y415.000
G01 X233.220 Y415.107
G01 X237.500 Y415.000
G01 X245.619 Y415.108
G01 X250.000 Y415.000
G01 X258.111 Y415.108
G01 X262.500 Y415.000
G01 X270.696 Y415.107
G01 X275.000 Y415.000
G01 X283.375 Y415.104
G01 X287.500 Y415.000
G01 X296.149 Y415.100
G01 X300.000 Y415.000
G01 X290.847 Y413.273
G01 X287.500 Y412.500
G01 X279.205 Y412.607
G01 X275.000 Y412.500
G01 X266.901 Y412.610
G01 X262.500 Y412.500
G01 X254.503 Y412.611
G01 X250.000 Y412.500
G01 X242.011 Y412.611
G01 X237.500 Y412.500
G01 X229.425 Y412.610
G01 X225.000 Y412.500
G01 X216.744 Y412.608
G01 X212.500 Y412.500
G01 X203.966 Y412.604
G01 X200.000 Y412.500
G01 X209.042 Y410.799
G01 X212.500 Y410.000
G01 X220.677 Y410.110
G01 X225.000 Y410.000
G01 X232.979 Y410.113
G01 X237.500 Y410.000
G01 X245.375 Y410.114
G01 X250.000 Y410.000
G01 X257.866 Y410.114
G01 X262.500 Y410.000
G01 X270.453 Y410.113
G01 X275.000 Y410.000
G01 X283.137 Y410.111
G01 X287.500 Y410.000
G01 X295.919 Y410.107
G01 X300.000 Y410.000
G01 X291.068 Y408.324
G01 X287.500 Y407.500
G01 X279.440 Y407.613
G01 X275.000 Y407.500
G01 X267.142 Y407.616
G01 X262.500 Y407.500
G01 X254.748 Y407.617
G01 X250.000 Y407.500
G01 X242.257 Y407.617
G01 X237.500 Y407.500
G01 X229.668 Y407.616
G01 X225.000 Y407.500
G01 X216.981 Y407.614
G01 X212.500 Y407.500
G01 X204.195 Y407.610
G01 X200.000 Y407.500
G01 X208.822 Y405.850
G01 X212.500 Y405.000
G01 X220.443 Y405.117
G01 X225.000 Y405.000
G01 X232.738 Y405.119
G01 X237.500 Y405.000
G01 X245.130 Y405.120
G01 X250.000 Y405.000
G01 X257.621 Y405.120
G01 X262.500 Y405.000
G01 X270.210 Y405.119
G01 X275.000 Y405.000
G01 X282.900 Y405.117
G01 X287.500 Y405.000
G01 X295.691 Y405.113
G01 X300.000 Y405.000
G01 X291.287 Y403.376
G01 X287.500 Y402.500
G01 X279.673 Y402.620
G01 X275.000 Y402.500
G01 X267.382 Y402.622
G01 X262.500 Y402.500
G01 X254.992 Y402.623
G01 X250.000 Y402.500
G01 X242.502 Y402.623
G01 X237.500 Y402.500
G01 X229.911 Y402.622
G01 X225.000 Y402.500
G01 X217.219 Y402.620
G01 X212.500 Y402.500
G01 X204.423 Y402.616
G01 X200.000 Y402.500
G01 X208.604 Y400.901
G01 X212.500 Y400.000
G01 X220.210 Y400.123
G01 X225.000 Y400.000
G01 X232.498 Y400.125
G01 X237.500 Y400.000
G01 X244.886 Y400.126
G01 X250.000 Y400.000
G01 X257.375 Y400.126
G01 X262.500 Y400.000
G01 X269.967 Y400.125
G01 X275.000 Y400.000
G01 X282.663 Y400.123
G01 X287.500 Y400.000
G01 X295.463 Y400.120
G01 X300.000 Y400.000
G01 X300.000 Y412.500
G01 X300.000 Y425.000
G01 X300.000 Y437.500
G01 X300.000 Y450.000
G01 X300.000 Y462.500
G01 X300.000 Y475.000
G01 X300.000 Y487.500
G01 X302.500 Y487.500
G01 X302.500 Y475.000
G01 X302.500 Y462.500
G01 X302.500 Y450.000
G01 X302.500 Y437.500
G01 X302.500 Y425.000
G01 X302.500 Y412.500
G01 X302.500 Y400.000
G01 X305.000 Y412.500
G01 X305.000 Y425.000
G01 X305.000 Y437.500
G01 X305.000 Y450.000
G01 X305.000 Y462.500
G01 X305.000 Y475.000
G01 X305.000 Y487.500
G01 X307.500 Y487.500
G01 X307.500 Y475.000
G01 X307.500 Y462.500
G01 X307.500 Y450.000
G01 X307.500 Y437.500
G01 X307.500 Y425.000
G01 X307.500 Y412.500
G01 X307.500 Y400.000
G01 X310.000 Y412.500
G01 X310.000 Y425.000
G01 X310.000 Y437.500
G01 X310.000 Y450.000
G01 X310.000 Y462.500
G01 X310.000 Y475.000
G01 X310.000 Y487.500
G01 X312.500 Y487.500
G01 X312.500 Y475.000
G01 X312.500 Y462.500
G01 X312.500 Y450.000
G01 X312.500 Y437.500
G01 X312.500 Y425.000
G01 X312.500 Y412.500
G01 X312.500 Y400.000
G01 X315.000 Y412.500
G01 X315.000 Y425.000
G01 X315.000 Y437.500
G01 X315.000 Y450.000
G01 X315.000 Y462.500
G01 X315.000 Y475.000
G01 X315.000 Y487.500
G01 X317.500 Y487.500
G01 X317.500 Y475.000
G01 X317.500 Y462.500
G01 X317.500 Y450.000
G01 X317.500 Y437.500
G01 X317.500 Y425.000
G01 X317.500 Y412.500
G01 X317.500 Y400.000
G01 X320.000 Y412.500
G01 X320.000 Y425.000
G01 X320.000 Y437.500
G01 X320.000 Y450.000
G01 X320.000 Y462.500
G01 X320.000 Y475.000
G01 X320.000 Y487.500
G01 X322.500 Y487.500
G01 X322.500 Y475.000
G01 X322.500 Y462.500
G01 X322.500 Y450.000
G01 X322.500 Y437.500
G01 X322.500 Y425.000
G01 X322.500 Y412.500
G01 X322.500 Y400.000
G01 X325.000 Y412.500
G01 X325.000 Y425.000
G01 X325.000 Y437.500
G01 X325.000 Y450.000
G01 X325.000 Y462.500
G01 X325.000 Y475.000
G01 X325.000 Y487.500
G01 X327.500 Y487.500
G01 X327.500 Y475.000
G01 X327.500 Y462.500
G01 X327.500 Y450.000
G01 X327.500 Y437.500
G01 X327.500 Y425.000
G01 X327.500 Y412.500
G01 X327.500 Y400.000
G01 X330.000 Y412.500
G01 X330.000 Y425.000
G01 X330.000 Y437.500
G01 X330.000 Y450.000
G01 X330.000 Y462.500
G01 X330.000 Y475.000
G01 X332.500 Y475.000
G01 X332.500 Y462.500
G01 X332.500 Y450.000
G01 X332.500 Y437.500
G01 X332.500 Y425.000
G01 X332.500 Y412.500
G01 X332.500 Y400.000
G01 X335.000 Y412.500
G01 X335.000 Y425.000
G01 X335.000 Y437.500
G01 X335.000 Y450.000
G01 X335.000 Y462.500
G01 X335.000 Y475.000
G01 X337.500 Y475.000
G01 X337.500 Y462.500
G01 X337.500 Y450.000
G01 X337.500 Y437.500
G01 X337.500 Y425.000
G01 X337.500 Y412.500
G01 X337.500 Y400.000
G01 X340.000 Y412.500
G01 X340.000 Y425.000
G01 X340.000 Y437.500
G01 X340.000 Y450.000
G01 X340.000 Y462.500
G01 X340.000 Y475.000
G01 X342.500 Y475.000
G01 X342.500 Y462.500
G01 X342.500 Y450.000
G01 X342.500 Y437.500
G01 X342.500 Y425.000
G01 X342.500 Y412.500
G01 X342.500 Y400.000
G01 X345.000 Y412.500
G01 X345.000 Y425.000
G01 X345.000 Y437.500
G01 X345.000 Y450.000
G01 X345.000 Y462.500
G01 X345.000 Y475.000
G01 X347.500 Y475.000
G01 X347.500 Y462.500
G01 X347.500 Y450.000
G01 X347.500 Y437.500
G01 X347.500 Y425.000
G01 X347.500 Y412.500
G01 X347.500 Y400.000
G01 X350.000 Y412.500
G01 X350.000 Y425.000
G01 X350.000 Y437.500
G01 X350.000 Y450.000
G01 X350.000 Y462.500
G01 X350.000 Y475.000
G01 X352.500 Y475.000
G01 X352.500 Y462.500
G01 X352.500 Y450.000
G01 X352.500 Y437.500
G01 X352.500 Y425.000
G01 X352.500 Y412.500
G01 X352.500 Y400.000
G01 X355.000 Y412.500
G01 X355.000 Y425.000
G01 X355.000 Y437.500
G01 X355.000 Y450.000
G01 X355.000 Y462.500
G01 X355.000 Y475.000
G01 X357.500 Y475.000
G01 X357.500 Y462.500
G01 X357.500 Y450.000
G01 X357.500 Y437.500
G01 X357.500 Y425.000
G01 X357.500 Y412.500
G01 X357.500 Y400.000
G01 X360.000 Y412.500
G01 X360.000 Y425.000
G01 X360.000 Y437.500
G01 X360.000 Y450.000
G01 X360.000 Y462.500
G01 X362.500 Y462.500
G01 X362.500 Y450.000
G01 X362.500 Y437.500
G01 X362.500 Y425.000
G01 X362.500 Y412.500
G01 X362.500 Y400.000
G01 X365.000 Y412.500
G01 X365.000 Y425.000
G01 X365.000 Y437.500
G01 X365.000 Y450.000
G01 X365.000 Y462.500
G01 X367.500 Y462.500
G01 X367.500 Y450.000
G01 X367.500 Y437.500
G01 X367.500 Y425.000
G01 X367.500 Y412.500
G01 X367.500 Y400.000
G01 X370.000 Y412.500
G01 X370.000 Y425.000
G01 X370.000 Y437.500
G01 X370.000 Y450.000
G01 X370.000 Y462.500
G01 X372.500 Y462.500
G01 X372.500 Y450.000
G01 X372.500 Y437.500
G01 X372.500 Y425.000
G01 X372.500 Y412.500
G01 X372.500 Y400.000
G01 X375.000 Y412.500
G01 X375.000 Y425.000
G01 X375.000 Y437.500
G01 X375.000 Y450.000
G01 X375.000 Y462.500
G01 X377.500 Y462.500
G01 X377.500 Y450.000
G01 X377.500 Y437.500
G01 X377.500 Y425.000
G01 X377.500 Y412.500
G01 X377.500 Y400.000
G01 X380.000 Y412.500
G01 X380.000 Y425.000
G01 X380.000 Y437.500
G01 X380.000 Y450.000
G01 X380.000 Y462.500
G01 X382.500 Y450.000
G01 X382.500 Y437.500
G01 X382.500 Y425.000
G01 X382.500 Y412.500
G01 X382.500 Y400.000
G01 X385.000 Y412.500
G01 X385.000 Y425.000
G01 X385.000 Y437.500
G01 X385.000 Y450.000
G01 X387.500 Y450.000
G01 X387.500 Y437.500
G01 X387.500 Y425.000
G01 X387.500 Y412.500
G01 X387.500 Y400.000
G01 X390.000 Y412.500
G01 X390.000 Y425.000
G01 X390.000 Y437.500
G01 X390.000 Y450.000
G01 X392.500 Y450.000
G01 X392.500 Y437.500
G01 X392.500 Y425.000
G01 X392.500 Y412.500
G01 X392.500 Y400.000
G01 X395.000 Y412.500
G01 X395.000 Y425.000
G01 X395.000 Y437.500
G01 X395.000 Y450.000
G01 X397.500 Y450.000
G01 X397.500 Y437.500
G01 X397.500 Y425.000
G01 X397.500 Y412.500
G01 X397.500 Y400.000
G01 X400.000 Y412.500
G01 X400.000 Y425.000
G01 X400.000 Y437.500
G01 X400.000 Y450.000
G01 X400.000 Y447.500
G01 X400.000 Y442.500
G01 X411.769 Y437.815
G01 X412.500 Y437.500
G01 X400.000 Y437.500
G01 X412.500 Y435.000
G01 X412.500 Y432.500
G01 X400.000 Y432.500
G01 X412.500 Y430.000
G01 X425.000 Y427.500
G01 X412.500 Y427.500
G01 X400.000 Y427.500
G01 X412.500 Y425.000
G01 X425.000 Y425.000
G01 X425.000 Y422.500
G01 X412.500 Y422.500
G01 X400.000 Y422.500
G01 X412.500 Y420.000
G01 X425.000 Y420.000
G01 X425.000 Y417.500
G01 X412.500 Y417.500
G01 X400.000 Y417.500
G01 X412.500 Y415.000
G01 X425.000 Y415.000
G01 X437.500 Y415.000
G01 X437.500 Y412.500
G01 X425.000 Y412.500
G01 X412.500 Y412.500
G01 X400.000 Y412.500
G01 X412.500 Y410.000
G01 X425.000 Y410.000
G01 X437.500 Y410.000
G01 X437.500 Y407.500
G01 X425.000 Y407.500
G01 X412.500 Y407.500
G01 X400.000 Y407.500
G01 X412.500 Y405.000
G01 X425.000 Y405.000
G01 X437.500 Y405.000
G01 X437.500 Y402.500
G01 X425.000 Y402.500
G01 X412.500 Y402.500
G01 X400.000 Y402.500
G01 X412.500 Y400.000
G01 X425.000 Y400.000
G01 X437.500 Y400.000
G01 X450.000 Y400.000
G01 X456.898 Y389.856
G01 X463.282 Y379.397
G01 X469.139 Y368.648
G01 X474.456 Y357.637
G01 X479.220 Y346.390
G01 X483.422 Y334.935
G01 X487.053 Y323.300
G01 X490.105 Y311.514
G01 X492.500 Y300.000
G01 X490.128 Y311.935
G01 X490.000 Y312.500
G01 X487.612 Y324.504
G01 X487.500 Y325.000
G01 X487.500 Y312.500
G01 X487.505 Y300.185
G01 X487.500 Y300.000
G01 X485.180 Y311.703
G01 X485.000 Y312.500
G01 X485.000 Y325.000
G01 X482.607 Y337.028
G01 X482.500 Y337.500
G01 X482.500 Y325.000
G01 X482.502 Y312.587
G01 X482.500 Y312.500
G01 X482.511 Y300.415
G01 X482.500 Y300.000
G01 X480.232 Y311.472
G01 X480.000 Y312.500
G01 X480.005 Y324.799
G01 X480.000 Y325.000
G01 X480.000 Y337.500
G01 X477.585 Y349.624
G01 X477.500 Y350.000
G01 X477.500 Y337.500
G01 X477.500 Y325.000
G01 X477.508 Y312.809
G01 X477.500 Y312.500
G01 X477.517 Y300.644
G01 X477.500 Y300.000
G01 X475.284 Y311.242
G01 X475.000 Y312.500
G01 X475.011 Y324.575
G01 X475.000 Y325.000
G01 X475.000 Y337.486
G01 X475.000 Y337.500
G01 X475.000 Y350.000
G01 X472.547 Y362.295
G01 X472.500 Y362.500
G01 X472.500 Y350.000
G01 X472.500 Y337.500
G01 X472.503 Y325.119
G01 X472.500 Y325.000
G01 X472.514 Y313.030
G01 X472.500 Y312.500
G01 X472.523 Y300.873
G01 X472.500 Y300.000
G01 X470.336 Y311.012
G01 X470.000 Y312.500
G01 X470.017 Y324.351
G01 X470.000 Y325.000
G01 X470.006 Y337.272
G01 X470.000 Y337.500
G01 X470.000 Y350.000
G01 X470.000 Y362.500
G01 X467.500 Y362.500
G01 X467.500 Y350.000
G01 X467.500 Y337.500
G01 X467.509 Y325.329
G01 X467.500 Y325.000
G01 X467.520 Y313.249
G01 X467.500 Y312.500
G01 X467.529 Y301.100
G01 X467.500 Y300.000
G01 X465.388 Y310.782
G01 X465.000 Y312.500
G01 X465.023 Y324.129
G01 X465.000 Y325.000
G01 X465.012 Y337.059
G01 X465.000 Y337.500
G01 X465.000 Y350.000
G01 X465.000 Y362.500
G01 X465.000 Y375.000
G01 X462.500 Y375.000
G01 X462.500 Y362.500
G01 X462.500 Y350.000
G01 X462.501 Y337.537
G01 X462.500 Y337.500
G01 X462.515 Y325.538
G01 X462.500 Y325.000
G01 X462.526 Y313.468
G01 X462.500 Y312.500
G01 X462.535 Y301.327
G01 X462.500 Y300.000
G01 X460.439 Y310.553
G01 X460.000 Y312.500
G01 X460.029 Y323.907
G01 X460.000 Y325.000
G01 X460.018 Y336.848
G01 X460.000 Y337.500
G01 X460.004 Y349.863
G01 X460.000 Y350.000
G01 X460.000 Y362.500
G01 X460.000 Y375.000
G01 X457.500 Y387.500
G01 X457.500 Y375.000
G01 X457.500 Y362.500
G01 X457.500 Y350.000
G01 X457.507 Y337.732
G01 X457.500 Y337.500
G01 X457.521 Y325.745
G01 X457.500 Y325.000
G01 X457.532 Y313.685
G01 X457.500 Y312.500
G01 X457.541 Y301.554
G01 X457.500 Y300.000
G01 X455.491 Y310.325
G01 X455.000 Y312.500
G01 X455.035 Y323.687
G01 X455.000 Y325.000
G01 X455.024 Y336.638
G01 X455.000 Y337.500
G01 X455.010 Y349.665
G01 X455.000 Y350.000
G01 X455.000 Y362.500
G01 X455.000 Y375.000
G01 X455.000 Y387.500
G01 X452.500 Y387.500
G01 X452.500 Y375.000
G01 X452.500 Y362.500
G01 X452.500 Y350.000
G01 X452.512 Y337.924
G01 X452.500 Y337.500
G01 X452.527 Y325.950
G01 X452.500 Y325.000
G01 X452.538 Y313.901
G01 X452.500 Y312.500
G01 X452.547 Y301.779
G01 X452.500 Y300.000
G01 X450.542 Y310.098
G01 X450.000 Y312.500
G01 X450.041 Y323.468
G01 X450.000 Y325.000
G01 X450.030 Y336.430
G01 X450.000 Y337.500
G01 X450.015 Y349.471
G01 X450.000 Y350.000
G01 X450.000 Y362.500
G01 X450.000 Y375.000
G01 X450.000 Y387.500
G01 X450.000 Y400.000
G01 X447.500 Y387.500
G01 X447.500 Y375.000
G01 X447.500 Y362.500
G01 X447.500 Y350.000
G01 X447.518 Y338.114
G01 X447.500 Y337.500
G01 X447.533 Y326.153
G01 X447.500 Y325.000
G01 X447.544 Y314.116
G01 X447.500 Y312.500
G01 X447.553 Y302.003
G01 X447.500 Y300.000
G01 X445.594 Y309.871
G01 X445.000 Y312.500
G01 X445.048 Y323.251
G01 X445.000 Y325.000
G01 X445.036 Y336.224
G01 X445.000 Y337.500
G01 X445.021 Y349.279
G01 X445.000 Y350.000
G01 X445.003 Y362.413
G01 X445.000 Y362.500
G01 X445.000 Y375.000
G01 X445.000 Y387.500
G01 X445.000 Y400.000
G01 X442.500 Y387.500
G01 X442.500 Y375.000
G01 X442.500 Y362.500
G01 X442.505 Y350.170
G01 X442.500 Y350.000
G01 X442.524 Y338.301
G01 X442.500 Y337.500
G01 X442.538 Y326.354
G01 X442.500 Y325.000
G01 X442.550 Y314.329
G01 X442.500 Y312.500
G01 X442.559 Y302.226
G01 X442.500 Y300.000
G01 X440.645 Y309.645
G01 X440.000 Y312.500
G01 X440.054 Y323.035
G01 X440.000 Y325.000
G01 X440.042 Y336.021
G01 X440.000 Y337.500
G01 X440.027 Y349.089
G01 X440.000 Y350.000
G01 X440.008 Y362.241
G01 X440.000 Y362.500
G01 X440.000 Y375.000
G01 X440.000 Y387.500
G01 X440.000 Y400.000
G01 X437.500 Y387.500
G01 X437.500 Y375.000
G01 X437.500 Y362.500
G01 X437.510 Y350.337
G01 X437.500 Y350.000
G01 X437.529 Y338.484
G01 X437.500 Y337.500
G01 X437.544 Y326.552
G01 X437.500 Y325.000
G01 X437.556 Y314.540
G01 X437.500 Y312.500
G01 X437.565 Y302.448
G01 X437.500 Y300.000
G01 X435.696 Y309.420
G01 X435.000 Y312.500
G01 X435.060 Y322.820
G01 X435.000 Y325.000
G01 X435.048 Y335.819
G01 X435.000 Y337.500
G01 X435.032 Y348.903
G01 X435.000 Y350.000
G01 X435.013 Y362.072
G01 X435.000 Y362.500
G01 X435.000 Y375.000
G01 X435.000 Y387.500
G01 X435.000 Y400.000
G01 X432.500 Y387.500
G01 X432.500 Y375.000
G01 X432.500 Y362.500
G01 X432.515 Y350.500
G01 X432.500 Y350.000
G01 X432.535 Y338.665
G01 X432.500 Y337.500
G01 X432.550 Y326.748
G01 X432.500 Y325.000
G01 X432.562 Y314.750
G01 X432.500 Y312.500
G01 X432.571 Y302.669
G01 X432.500 Y300.000
G01 X430.746 Y309.196
G01 X430.000 Y312.500
G01 X430.066 Y322.607
G01 X430.000 Y325.000
G01 X430.054 Y335.620
G01 X430.000 Y337.500
G01 X430.038 Y348.721
G01 X430.000 Y350.000
G01 X430.018 Y361.908
G01 X430.000 Y362.500
G01 X430.000 Y375.000
G01 X430.000 Y387.500
G01 X430.000 Y400.000
G01 X427.500 Y387.500
G01 X427.500 Y375.000
G01 X427.500 Y362.500
G01 X427.521 Y350.658
G01 X427.500 Y350.000
G01 X427.540 Y338.842
G01 X427.500 Y337.500
G01 X427.556 Y326.942
G01 X427.500 Y325.000
G01 X427.568 Y314.957
G01 X427.500 Y312.500
G01 X427.578 Y302.889
G01 X427.500 Y300.000
G01 X425.797 Y308.973
G01 X425.000 Y312.500
G01 X425.072 Y322.397
G01 X425.000 Y325.000
G01 X425.060 Y335.424
G01 X425.000 Y337.500
G01 X425.044 Y348.542
G01 X425.000 Y350.000
G01 X425.023 Y361.749
G01 X425.000 Y362.500
G01 X425.000 Y375.000
G01 X425.000 Y387.500
G01 X425.000 Y400.000
G01 X422.500 Y387.500
G01 X422.500 Y375.000
G01 X422.501 Y362.520
G01 X422.500 Y362.500
G01 X422.526 Y350.811
G01 X422.500 Y350.000
G01 X422.546 Y339.015
G01 X422.500 Y337.500
G01 X422.562 Y327.132
G01 X422.500 Y325.000
G01 X422.575 Y315.163
G01 X422.500 Y312.500
G01 X422.584 Y303.107
G01 X422.500 Y300.000
G01 X420.847 Y308.751
G01 X420.000 Y312.500
G01 X420.078 Y322.188
G01 X420.000 Y325.000
G01 X420.066 Y335.231
G01 X420.000 Y337.500
G01 X420.049 Y348.367
G01 X420.000 Y350.000
G01 X420.028 Y361.594
G01 X420.000 Y362.500
G01 X420.003 Y374.915
G01 X420.000 Y375.000
G01 X420.000 Y387.500
G01 X420.000 Y400.000
G01 X417.500 Y387.500
G01 X417.500 Y375.000
G01 X417.505 Y362.645
G01 X417.500 Y362.500
G01 X417.530 Y350.959
G01 X417.500 Y350.000
G01 X417.551 Y339.184
G01 X417.500 Y337.500
G01 X417.568 Y327.319
G01 X417.500 Y325.000
G01 X417.581 Y315.366
G01 X417.500 Y312.500
G01 X417.590 Y303.323
G01 X417.500 Y300.000
G01 X415.897 Y308.530
G01 X415.000 Y312.500
G01 X415.085 Y321.982
G01 X415.000 Y325.000
G01 X415.072 Y335.041
G01 X415.000 Y337.500
G01 X415.055 Y348.196
G01 X415.000 Y350.000
G01 X415.033 Y361.446
G01 X415.000 Y362.500
G01 X415.007 Y374.791
G01 X415.000 Y375.000
G01 X415.000 Y387.500
G01 X415.000 Y400.000
G01 X412.500 Y387.500
G01 X412.500 Y375.000
G01 X412.509 Y362.762
G01 X412.500 Y362.500
G01 X412.535 Y351.101
G01 X412.500 Y350.000
G01 X412.557 Y339.348
G01 X412.500 Y337.500
G01 X412.574 Y327.503
G01 X412.500 Y325.000
G01 X412.587 Y315.566
G01 X412.500 Y312.500
G01 X412.597 Y303.538
G01 X412.500 Y300.000
G01 X410.947 Y308.310
G01 X410.000 Y312.500
G01 X410.091 Y321.778
G01 X410.000 Y325.000
G01 X410.078 Y334.855
G01 X410.000 Y337.500
G01 X410.060 Y348.030
G01 X410.000 Y350.000
G01 X410.038 Y361.303
G01 X410.000 Y362.500
G01 X410.011 Y374.675
G01 X410.000 Y375.000
G01 X410.000 Y387.500
G01 X410.000 Y400.000
G01 X407.500 Y387.500
G01 X407.500 Y375.000
G01 X407.512 Y362.871
G01 X407.500 Y362.500
G01 X407.540 Y351.237
G01 X407.500 Y350.000
G01 X407.563 Y339.507
G01 X407.500 Y337.500
G01 X407.580 Y327.683
G01 X407.500 Y325.000
G01 X407.593 Y315.764
G01 X407.500 Y312.500
G01 X407.603 Y303.750
G01 X407.500 Y300.000
G01 X405.997 Y308.092
G01 X405.000 Y312.500
G01 X405.097 Y321.577
G01 X405.000 Y325.000
G01 X405.084 Y334.672
G01 X405.000 Y337.500
G01 X405.066 Y347.869
G01 X405.000 Y350.000
G01 X405.043 Y361.168
G01 X405.000 Y362.500
G01 X405.014 Y374.568
G01 X405.000 Y375.000
G01 X405.000 Y387.500
G01 X405.000 Y400.000
G01 X402.500 Y387.500
G01 X402.500 Y375.000
G01 X402.516 Y362.971
G01 X402.500 Y362.500
G01 X402.545 Y351.365
G01 X402.500 Y350.000
G01 X402.568 Y339.661
G01 X402.500 Y337.500
G01 X402.586 Y327.859
G01 X402.500 Y325.000
G01 X402.600 Y315.959
G01 X402.500 Y312.500
G01 X402.609 Y303.961
G01 X402.500 Y300.000
G01 X401.046 Y307.876
G01 X400.000 Y312.500
G01 X400.104 Y321.378
G01 X400.000 Y325.000
G01 X400.090 Y334.494
G01 X400.000 Y337.500
G01 X400.071 Y347.714
G01 X400.000 Y350.000
G01 X400.048 Y361.040
G01 X400.000 Y362.500
G01 X400.018 Y374.469
G01 X400.000 Y375.000
G01 X400.000 Y387.500
G01 X400.000 Y400.000
G01 X387.500 Y400.000
G01 X375.000 Y400.000
G01 X363.018 Y400.018
G01 X362.500 Y400.000
G01 X351.427 Y400.047
G01 X350.000 Y400.000
G01 X339.736 Y400.071
G01 X337.500 Y400.000
G01 X327.945 Y400.089
G01 X325.000 Y400.000
G01 X316.055 Y400.103
G01 X312.500 Y400.000
G01 X304.066 Y400.113
G01 X300.000 Y400.000
G01 X307.768 Y398.571
G01 X312.500 Y397.500
G01 X321.281 Y397.607
G01 X325.000 Y397.500
G01 X334.407 Y397.593
G01 X337.500 Y397.500
G01 X347.639 Y397.574
G01 X350.000 Y397.500
G01 X360.979 Y397.550
G01 X362.500 Y397.500
G01 X374.424 Y397.520
G01 X375.000 Y397.500
G01 X387.500 Y397.500
G01 X400.000 Y397.500
G01 X387.500 Y395.000
G01 X375.000 Y395.000
G01 X363.104 Y395.021
G01 X362.500 Y395.000
G01 X351.544 Y395.051
G01 X350.000 Y395.000
G01 X339.880 Y395.076
G01 X337.500 Y395.000
G01 X328.114 Y395.095
G01 X325.000 Y395.000
G01 X316.245 Y395.109
G01 X312.500 Y395.000
G01 X304.273 Y395.119
G01 X300.000 Y395.000
G01 X307.555 Y393.619
G01 X312.500 Y392.500
G01 X321.088 Y392.613
G01 X325.000 Y392.500
G01 X334.236 Y392.599
G01 X337.500 Y392.500
G01 X347.494 Y392.580
G01 X350.000 Y392.500
G01 X360.863 Y392.554
G01 X362.500 Y392.500
G01 X374.342 Y392.523
G01 X375.000 Y392.500
G01 X387.500 Y392.500
G01 X400.000 Y392.500
G01 X387.500 Y390.000
G01 X375.000 Y390.000
G01 X363.178 Y390.024
G01 X362.500 Y390.000
G01 X351.651 Y390.056
G01 X350.000 Y390.000
G01 X340.018 Y390.081
G01 X337.500 Y390.000
G01 X328.277 Y390.101
G01 X325.000 Y390.000
G01 X316.430 Y390.116
G01 X312.500 Y390.000
G01 X304.478 Y390.126
G01 X300.000 Y390.000
G01 X307.343 Y388.668
G01 X312.500 Y387.500
G01 X320.899 Y387.620
G01 X325.000 Y387.500
G01 X334.070 Y387.605
G01 X337.500 Y387.500
G01 X347.357 Y387.585
G01 X350.000 Y387.500
G01 X360.757 Y387.558
G01 X362.500 Y387.500
G01 X374.272 Y387.525
G01 X375.000 Y387.500
G01 X387.500 Y387.500
G01 X400.000 Y387.500
G01 X387.500 Y385.000
G01 X375.000 Y385.000
G01 X363.240 Y385.026
G01 X362.500 Y385.000
G01 X351.749 Y385.060
G01 X350.000 Y385.000
G01 X340.147 Y385.087
G01 X337.500 Y385.000
G01 X328.435 Y385.107
G01 X325.000 Y385.000
G01 X316.612 Y385.123
G01 X312.500 Y385.000
G01 X304.679 Y385.133
G01 X300.000 Y385.000
G01 X307.133 Y383.716
G01 X312.500 Y382.500
G01 X320.714 Y382.627
G01 X325.000 Y382.500
G01 X333.911 Y382.611
G01 X337.500 Y382.500
G01 X347.227 Y382.590
G01 X350.000 Y382.500
G01 X360.662 Y382.562
G01 X362.500 Y382.500
G01 X374.215 Y382.528
G01 X375.000 Y382.500
G01 X387.500 Y382.500
G01 X400.000 Y382.500
G01 X387.500 Y380.000
G01 X375.000 Y380.000
G01 X363.288 Y380.028
G01 X362.500 Y380.000
G01 X351.836 Y380.064
G01 X350.000 Y380.000
G01 X340.268 Y380.092
G01 X337.500 Y380.000
G01 X328.586 Y380.114
G01 X325.000 Y380.000
G01 X316.789 Y380.129
G01 X312.500 Y380.000
G01 X304.878 Y380.140
G01 X300.000 Y380.000
G01 X306.926 Y378.764
G01 X312.500 Y377.500
G01 X320.534 Y377.633
G01 X325.000 Y377.500
G01 X333.759 Y377.617
G01 X337.500 Y377.500
G01 X347.108 Y377.595
G01 X350.000 Y377.500
G01 X360.579 Y377.566
G01 X362.500 Y377.500
G01 X374.174 Y377.529
G01 X375.000 Y377.500
G01 X387.500 Y377.500
G01 X400.000 Y377.500
G01 X387.500 Y375.000
G01 X375.000 Y375.000
G01 X363.321 Y375.030
G01 X362.500 Y375.000
G01 X351.910 Y375.067
G01 X350.000 Y375.000
G01 X340.380 Y375.097
G01 X337.500 Y375.000
G01 X328.730 Y375.120
G01 X325.000 Y375.000
G01 X316.960 Y375.136
G01 X312.500 Y375.000
G01 X305.072 Y375.147
G01 X300.000 Y375.000
G01 X306.721 Y373.811
G01 X312.500 Y372.500
G01 X320.360 Y372.640
G01 X325.000 Y372.500
G01 X333.615 Y372.623
G01 X337.500 Y372.500
G01 X346.998 Y372.600
G01 X350.000 Y372.500
G01 X360.510 Y372.569
G01 X362.500 Y372.500
G01 X374.149 Y372.531
G01 X375.000 Y372.500
G01 X387.500 Y372.500
G01 X400.000 Y372.500
G01 X387.500 Y370.000
G01 X375.000 Y370.000
G01 X363.336 Y370.031
G01 X362.500 Y370.000
G01 X351.971 Y370.070
G01 X350.000 Y370.000
G01 X340.480 Y370.102
G01 X337.500 Y370.000
G01 X328.865 Y370.126
G01 X325.000 Y370.000
G01 X317.126 Y370.143
G01 X312.500 Y370.000
G01 X305.263 Y370.154
G01 X300.000 Y370.000
G01 X306.520 Y368.858
G01 X312.500 Y367.500
G01 X320.192 Y367.647
G01 X325.000 Y367.500
G01 X333.479 Y367.629
G01 X337.500 Y367.500
G01 X346.901 Y367.605
G01 X350.000 Y367.500
G01 X360.456 Y367.572
G01 X362.500 Y367.500
G01 X374.143 Y367.531
G01 X375.000 Y367.500
G01 X387.500 Y367.500
G01 X400.000 Y367.500
G01 X387.500 Y365.000
G01 X375.000 Y365.000
G01 X363.331 Y365.031
G01 X362.500 Y365.000
G01 X352.015 Y365.073
G01 X350.000 Y365.000
G01 X340.569 Y365.106
G01 X337.500 Y365.000
G01 X328.992 Y365.132
G01 X325.000 Y365.000
G01 X317.285 Y365.150
G01 X312.500 Y365.000
G01 X305.449 Y365.161
G01 X300.000 Y365.000
G01 X306.322 Y363.904
G01 X312.500 Y362.500
G01 X320.031 Y362.654
G01 X325.000 Y362.500
G01 X333.354 Y362.635
G01 X337.500 Y362.500
G01 X346.816 Y362.609
G01 X350.000 Y362.500
G01 X360.419 Y362.575
G01 X362.500 Y362.500
G01 X374.159 Y362.531
G01 X375.000 Y362.500
G01 X387.500 Y362.500
G01 X400.000 Y362.500
G01 X387.500 Y360.000
G01 X375.000 Y360.000
G01 X363.304 Y360.031
G01 X362.500 Y360.000
G01 X352.042 Y360.075
G01 X350.000 Y360.000
G01 X340.643 Y360.111
G01 X337.500 Y360.000
G01 X329.107 Y360.138
G01 X325.000 Y360.000
G01 X317.436 Y360.157
G01 X312.500 Y360.000
G01 X305.631 Y360.168
G01 X300.000 Y360.000
G01 X306.128 Y358.949
G01 X312.272 Y357.558
G01 X312.500 Y357.500
G01 X319.878 Y357.661
G01 X325.000 Y357.500
G01 X333.240 Y357.641
G01 X337.500 Y357.500
G01 X346.748 Y357.613
G01 X350.000 Y357.500
G01 X360.401 Y357.576
G01 X362.500 Y357.500
G01 X374.200 Y357.530
G01 X375.000 Y357.500
G01 X387.500 Y357.500
G01 X400.000 Y357.500
G01 X387.500 Y355.000
G01 X375.000 Y355.000
G01 X363.251 Y355.029
G01 X362.500 Y355.000
G01 X352.048 Y355.076
G01 X350.000 Y355.000
G01 X340.701 Y355.114
G01 X337.500 Y355.000
G01 X329.211 Y355.143
G01 X325.000 Y355.000
G01 X317.579 Y355.164
G01 X312.500 Y355.000
G01 X305.806 Y355.176
G01 X300.000 Y355.000
G01 X305.938 Y353.994
G01 X311.897 Y352.654
G01 X312.500 Y352.500
G01 X319.735 Y352.668
G01 X325.000 Y352.500
G01 X333.139 Y352.647
G01 X337.500 Y352.500
G01 X346.696 Y352.617
G01 X350.000 Y352.500
G01 X360.406 Y352.577
G01 X362.500 Y352.500
G01 X374.268 Y352.528
G01 X375.000 Y352.500
G01 X387.500 Y352.500
G01 X400.000 Y352.500
G01 X387.500 Y350.000
G01 X375.000 Y350.000
G01 X363.169 Y350.026
G01 X362.500 Y350.000
G01 X352.031 Y350.077
G01 X350.000 Y350.000
G01 X340.741 Y350.118
G01 X337.500 Y350.000
G01 X329.301 Y350.149
G01 X325.000 Y350.000
G01 X317.712 Y350.171
G01 X312.500 Y350.000
G01 X305.974 Y350.184
G01 X300.000 Y350.000
G01 X305.754 Y349.038
G01 X311.532 Y347.748
G01 X312.500 Y347.500
G01 X319.602 Y347.675
G01 X325.000 Y347.500
G01 X333.053 Y347.652
G01 X337.500 Y347.500
G01 X346.665 Y347.620
G01 X350.000 Y347.500
G01 X360.438 Y347.577
G01 X362.500 Y347.500
G01 X374.369 Y347.525
G01 X375.000 Y347.500
G01 X387.500 Y347.500
G01 X400.000 Y347.500
G01 X387.500 Y345.000
G01 X375.000 Y345.000
G01 X363.053 Y345.022
G01 X362.500 Y345.000
G01 X351.987 Y345.076
G01 X350.000 Y345.000
G01 X340.760 Y345.121
G01 X337.500 Y345.000
G01 X329.376 Y345.154
G01 X325.000 Y345.000
G01 X317.834 Y345.178
G01 X312.500 Y345.000
G01 X306.135 Y345.192
G01 X300.000 Y345.000
G01 X305.575 Y344.081
G01 X311.178 Y342.840
G01 X312.500 Y342.500
G01 X319.482 Y342.682
G01 X325.000 Y342.500
G01 X332.985 Y342.657
G01 X337.500 Y342.500
G01 X346.658 Y342.622
G01 X350.000 Y342.500
G01 X360.499 Y342.576
G01 X362.500 Y342.500
G01 X374.508 Y342.519
G01 X375.000 Y342.500
G01 X387.500 Y342.500
G01 X400.000 Y342.500
G01 X387.500 Y340.000
G01 X375.000 Y340.000
G01 X362.897 Y340.016
G01 X362.500 Y340.000
G01 X351.910 Y340.075
G01 X350.000 Y340.000
G01 X340.755 Y340.123
G01 X337.500 Y340.000
G01 X329.432 Y340.159
G01 X325.000 Y340.000
G01 X317.942 Y340.185
G01 X312.500 Y340.000
G01 X306.287 Y340.200
G01 X300.210 Y340.013
G01 X300.000 Y340.000
G01 X305.403 Y339.123
G01 X310.838 Y337.928
G01 X312.500 Y337.500
G01 X319.377 Y337.689
G01 X325.000 Y337.500
G01 X332.938 Y337.662
G01 X337.500 Y337.500
G01 X346.678 Y337.624
G01 X350.000 Y337.500
G01 X360.596 Y337.574
G01 X362.500 Y337.500
G01 X374.691 Y337.512
G01 X375.000 Y337.500
G01 X387.500 Y337.500
G01 X400.000 Y337.500
G01 X387.500 Y335.000
G01 X375.000 Y335.000
G01 X362.694 Y335.008
G01 X362.500 Y335.000
G01 X351.796 Y335.072
G01 X350.000 Y335.000
G01 X340.720 Y335.123
G01 X337.500 Y335.000
G01 X329.466 Y335.163
G01 X325.000 Y335.000
G01 X318.035 Y335.192
G01 X312.500 Y335.000
G01 X306.429 Y335.208
G01 X300.492 Y335.032
G01 X300.000 Y335.000
G01 X305.239 Y334.164
G01 X310.514 Y333.014
G01 X312.500 Y332.500
G01 X319.289 Y332.695
G01 X325.000 Y332.500
G01 X332.915 Y332.666
G01 X337.500 Y332.500
G01 X346.731 Y332.624
G01 X350.000 Y332.500
G01 X360.735 Y332.570
G01 X362.500 Y332.500
G01 X374.926 Y332.503
G01 X375.000 Y332.500
G01 X387.500 Y332.500
G01 X400.000 Y332.500
G01 X387.500 Y330.000
G01 X375.000 Y330.000
G01 X362.500 Y330.000
G01 X351.638 Y330.066
G01 X350.000 Y330.000
G01 X340.651 Y330.123
G01 X337.500 Y330.000
G01 X329.474 Y330.167
G01 X325.000 Y330.000
G01 X318.109 Y330.198
G01 X312.500 Y330.000
G01 X306.558 Y330.217
G01 X300.750 Y330.050
G01 X300.000 Y330.000
G01 X305.084 Y329.203
G01 X310.208 Y328.095
G01 X312.500 Y327.500
G01 X319.222 Y327.702
G01 X325.000 Y327.500
G01 X332.922 Y327.669
G01 X337.500 Y327.500
G01 X346.823 Y327.623
G01 X350.000 Y327.500
G01 X360.924 Y327.563
G01 X362.500 Y327.500
G01 X375.000 Y327.500
G01 X387.500 Y327.500
G01 X400.000 Y327.500
G01 X387.500 Y325.000
G01 X375.000 Y325.000
G01 X362.500 Y325.000
G01 X351.427 Y325.059
G01 X350.000 Y325.000
G01 X340.540 Y325.121
G01 X337.500 Y325.000
G01 X329.452 Y325.170
G01 X325.000 Y325.000
G01 X318.161 Y325.205
G01 X312.500 Y325.000
G01 X306.672 Y325.225
G01 X300.978 Y325.066
G01 X300.000 Y325.000
G01 X304.940 Y324.240
G01 X309.923 Y323.172
G01 X312.500 Y322.500
G01 X319.181 Y322.708
G01 X325.000 Y322.500
G01 X332.964 Y322.672
G01 X337.500 Y322.500
G01 X346.962 Y322.620
G01 X350.000 Y322.500
G01 X361.173 Y322.554
G01 X362.500 Y322.500
G01 X375.000 Y322.500
G01 X387.500 Y322.500
G01 X400.000 Y322.500
G01 X387.500 Y320.000
G01 X375.000 Y320.000
G01 X362.500 Y320.000
G01 X351.150 Y320.048
G01 X350.000 Y320.000
G01 X340.380 Y320.117
G01 X337.500 Y320.000
G01 X329.391 Y320.171
G01 X325.000 Y320.000
G01 X318.187 Y320.210
G01 X312.500 Y320.000
G01 X306.769 Y320.234
G01 X301.170 Y320.081
G01 X300.000 Y320.000
G01 X304.809 Y319.276
G01 X309.664 Y318.244
G01 X312.500 Y317.500
G01 X319.170 Y317.713
G01 X325.000 Y317.500
G01 X333.049 Y317.672
G01 X337.500 Y317.500
G01 X347.158 Y317.615
G01 X350.000 Y317.500
G01 X361.495 Y317.542
G01 X362.500 Y317.500
G01 X375.000 Y317.500
G01 X387.500 Y317.500
G01 X400.000 Y317.500
G01 X387.500 Y315.000
G01 X375.000 Y315.000
G01 X362.500 Y315.000
G01 X350.794 Y315.034
G01 X350.000 Y315.000
G01 X340.157 Y315.110
G01 X337.500 Y315.000
G01 X329.285 Y315.171
G01 X325.000 Y315.000
G01 X318.180 Y315.215
G01 X312.500 Y315.000
G01 X306.843 Y315.243
G01 X301.319 Y315.094
G01 X300.000 Y315.000
G01 X304.694 Y314.308
G01 X309.437 Y313.308
G01 X312.500 Y312.500
G01 X319.198 Y312.718
G01 X325.000 Y312.500
G01 X333.188 Y312.671
G01 X337.500 Y312.500
G01 X347.425 Y312.606
G01 X350.000 Y312.500
G01 X361.908 Y312.525
G01 X362.500 Y312.500
G01 X375.000 Y312.500
G01 X387.500 Y312.500
G01 X400.000 Y312.500
G01 X387.500 Y310.000
G01 X375.000 Y310.000
G01 X362.500 Y310.000
G01 X350.337 Y310.015
G01 X350.000 Y310.000
G01 X339.856 Y310.100
G01 X337.500 Y310.000
G01 X329.121 Y310.168
G01 X325.000 Y310.000
G01 X318.131 Y310.219
G01 X312.500 Y310.000
G01 X306.891 Y310.251
G01 X301.413 Y310.103
G01 X300.000 Y310.000
G01 X304.598 Y309.337
G01 X309.248 Y308.364
G01 X312.500 Y307.500
G01 X319.275 Y307.721
G01 X325.000 Y307.500
G01 X333.394 Y307.666
G01 X337.500 Y307.500
G01 X347.781 Y307.593
G01 X350.000 Y307.500
G01 X362.436 Y307.503
G01 X362.500 Y307.500
G01 X375.000 Y307.500
G01 X387.500 Y307.500
G01 X400.000 Y307.500
G01 X387.500 Y305.000
G01 X375.000 Y305.000
G01 X362.500 Y305.000
G01 X350.000 Y305.000
G01 X339.457 Y305.084
G01 X337.500 Y305.000
G01 X328.883 Y305.162
G01 X325.000 Y305.000
G01 X318.031 Y305.221
G01 X312.500 Y305.000
G01 X306.903 Y305.259
G01 X301.438 Y305.108
G01 X300.000 Y305.000
G01 X304.526 Y304.362
G01 X309.106 Y303.408
G01 X312.500 Y302.500
G01 X319.413 Y302.721
G01 X325.000 Y302.500
G01 X333.686 Y302.658
G01 X337.500 Y302.500
G01 X348.253 Y302.575
G01 X350.000 Y302.500
G01 X362.500 Y302.500
G01 X375.000 Y302.500
G01 X387.500 Y302.500
G01 X400.000 Y302.500
G01 X387.500 Y300.000
G01 X375.000 Y300.000
G01 X362.500 Y300.000
G01 X350.000 Y300.000
G01 X338.929 Y300.063
G01 X337.500 Y300.000
G01 X328.548 Y300.151
G01 X325.000 Y300.000
G01 X317.862 Y300.220
G01 X312.500 Y300.000
G01 X306.871 Y300.266
G01 X301.374 Y300.107
G01 X300.000 Y300.000
G01 X300.265 Y305.459
G01 X300.109 Y311.058
G01 X300.000 Y312.500
G01 X300.220 Y319.511
G01 X300.000 Y325.000
G01 X300.152 Y333.873
G01 X300.000 Y337.500
G01 X300.063 Y348.542
G01 X300.000 Y350.000
G01 X300.000 Y362.500
G01 X300.000 Y375.000
G01 X300.000 Y387.500
G01 X300.000 Y400.000
G01 X297.500 Y387.500
G01 X297.500 Y375.000
G01 X297.500 Y362.500
G01 X297.500 Y350.000
G01 X297.549 Y338.603
G01 X297.500 Y337.500
G01 X297.644 Y328.336
G01 X297.500 Y325.000
G01 X297.718 Y317.745
G01 X297.500 Y312.500
G01 X297.769 Y306.833
G01 X297.603 Y301.298
G01 X297.500 Y300.000
G01 X296.888 Y304.477
G01 X295.947 Y309.008
G01 X295.000 Y312.500
G01 X295.215 Y319.782
G01 X295.000 Y325.000
G01 X295.135 Y334.349
G01 X295.000 Y337.500
G01 X295.033 Y349.258
G01 X295.000 Y350.000
G01 X295.000 Y362.500
G01 X295.000 Y375.000
G01 X295.000 Y387.500
G01 X295.000 Y400.000
G01 X292.500 Y387.500
G01 X292.500 Y375.000
G01 X292.500 Y362.500
G01 X292.500 Y350.000
G01 X292.513 Y337.794
G01 X292.500 Y337.500
G01 X292.623 Y327.792
G01 X292.500 Y325.000
G01 X292.710 Y317.427
G01 X292.500 Y312.500
G01 X292.772 Y306.703
G01 X292.585 Y301.038
G01 X292.500 Y300.000
G01 X291.895 Y304.496
G01 X290.946 Y309.047
G01 X290.000 Y312.500
G01 X290.205 Y320.182
G01 X290.000 Y325.000
G01 X290.110 Y335.006
G01 X290.000 Y337.500
G01 X290.000 Y350.000
G01 X290.000 Y362.500
G01 X290.000 Y375.000
G01 X290.000 Y387.500
G01 X290.000 Y400.000
G01 X287.500 Y387.500
G01 X287.500 Y375.000
G01 X287.500 Y362.500
G01 X287.500 Y350.000
G01 X287.500 Y337.500
G01 X287.592 Y327.037
G01 X287.500 Y325.000
G01 X287.695 Y316.960
G01 X287.500 Y312.500
G01 X287.772 Y306.473
G01 X287.549 Y300.580
G01 X287.500 Y300.000
G01 X286.889 Y304.572
G01 X285.915 Y309.198
G01 X285.000 Y312.500
G01 X285.185 Y320.767
G01 X285.000 Y325.000
G01 X285.071 Y335.920
G01 X285.000 Y337.500
G01 X285.000 Y350.000
G01 X285.000 Y362.500
G01 X285.000 Y375.000
G01 X285.000 Y387.500
G01 X285.000 Y400.000
G01 X282.500 Y387.500
G01 X282.500 Y375.000
G01 X282.500 Y362.500
G01 X282.500 Y350.000
G01 X282.500 Y337.500
G01 X282.545 Y325.973
G01 X282.500 Y325.000
G01 X282.669 Y316.273
G01 X282.500 Y312.500
G01 X282.764 Y306.099
G01 X282.500 Y300.000
G01 X281.865 Y304.725
G01 X280.841 Y309.501
G01 X280.000 Y312.500
G01 X280.151 Y321.627
G01 X280.000 Y325.000
G01 X280.013 Y337.219
G01 X280.000 Y337.500
G01 X280.000 Y350.000
G01 X280.000 Y362.500
G01 X280.000 Y375.000
G01 X280.000 Y387.500
G01 X280.000 Y400.000
G01 X277.500 Y387.500
G01 X277.500 Y375.000
G01 X277.500 Y362.500
G01 X277.500 Y350.000
G01 X277.500 Y337.500
G01 X277.500 Y325.000
G01 X277.626 Y315.245
G01 X277.500 Y312.500
G01 X277.746 Y305.499
G01 X277.500 Y300.000
G01 X276.816 Y304.986
G01 X275.706 Y310.017
G01 X275.000 Y312.500
G01 X275.095 Y322.928
G01 X275.000 Y325.000
G01 X275.000 Y337.500
G01 X275.000 Y350.000
G01 X275.000 Y362.500
G01 X275.000 Y375.000
G01 X275.000 Y387.500
G01 X275.000 Y400.000
G01 X272.500 Y387.500
G01 X272.500 Y375.000
G01 X272.500 Y362.500
G01 X272.500 Y350.000
G01 X272.500 Y337.500
G01 X272.500 Y325.000
G01 X272.554 Y313.649
G01 X272.500 Y312.500
G01 X272.708 Y304.522
G01 X272.500 Y300.000
G01 X271.729 Y305.403
G01 X270.478 Y310.840
G01 X270.000 Y312.500
G01 X270.000 Y324.997
G01 X270.000 Y325.000
G01 X270.000 Y337.500
G01 X270.000 Y350.000
G01 X270.000 Y362.500
G01 X270.000 Y375.000
G01 X270.000 Y387.500
G01 X270.000 Y400.000
G01 X267.500 Y387.500
G01 X267.500 Y375.000
G01 X267.500 Y362.500
G01 X267.500 Y350.000
G01 X267.500 Y337.500
G01 X267.500 Y325.000
G01 X267.500 Y312.500
G01 X267.634 Y302.841
G01 X267.500 Y300.000
G01 X266.581 Y306.058
G01 X265.107 Y312.135
G01 X265.000 Y312.500
G01 X265.000 Y325.000
G01 X265.000 Y337.500
G01 X265.000 Y350.000
G01 X265.000 Y362.500
G01 X265.000 Y375.000
G01 X265.000 Y387.500
G01 X265.000 Y400.000
G01 X262.500 Y387.500
G01 X262.500 Y375.000
G01 X262.500 Y362.500
G01 X262.500 Y350.000
G01 X262.500 Y337.500
G01 X262.500 Y325.000
G01 X262.500 Y312.500
G01 X262.500 Y300.000
G01 X261.333 Y307.110
G01 X260.000 Y312.500
G01 X260.000 Y325.000
G01 X260.000 Y337.500
G01 X260.000 Y350.000
G01 X260.000 Y362.500
G01 X260.000 Y375.000
G01 X260.000 Y387.500
G01 X260.000 Y400.000
G01 X257.500 Y387.500
G01 X257.500 Y375.000
G01 X257.500 Y362.500
G01 X257.500 Y350.000
G01 X257.500 Y337.500
G01 X257.500 Y325.000
G01 X257.500 Y312.500
G01 X257.500 Y300.000
G01 X255.897 Y308.894
G01 X255.000 Y312.500
G01 X255.000 Y325.000
G01 X255.000 Y337.500
G01 X255.000 Y350.000
G01 X255.000 Y362.500
G01 X255.000 Y375.000
G01 X255.000 Y387.500
G01 X255.000 Y400.000
G01 X252.500 Y387.500
G01 X252.500 Y375.000
G01 X252.500 Y362.500
G01 X252.500 Y350.000
G01 X252.500 Y337.500
G01 X252.500 Y325.000
G01 X252.500 Y312.500
G01 X252.500 Y300.000
G01 X250.054 Y312.283
G01 X250.000 Y312.500
G01 X250.000 Y325.000
G01 X250.000 Y337.500
G01 X250.000 Y350.000
G01 X250.000 Y362.500
G01 X250.000 Y375.000
G01 X250.000 Y387.500
G01 X250.000 Y400.000
G01 X247.500 Y387.500
G01 X247.500 Y375.000
G01 X247.500 Y362.500
G01 X247.500 Y350.000
G01 X247.500 Y337.500
G01 X247.500 Y325.000
G01 X247.500 Y312.500
G01 X247.500 Y300.000
G01 X245.000 Y312.500
G01 X245.000 Y325.000
G01 X245.000 Y337.500
G01 X245.000 Y350.000
G01 X245.000 Y362.500
G01 X245.000 Y375.000
G01 X245.000 Y387.500
G01 X245.000 Y400.000
G01 X242.500 Y387.500
G01 X242.500 Y375.000
G01 X242.500 Y362.500
G01 X242.500 Y350.000
G01 X242.500 Y337.500
G01 X242.500 Y325.000
G01 X242.500 Y312.500
G01 X242.500 Y300.000
G01 X240.000 Y312.500
G01 X240.000 Y325.000
G01 X240.000 Y337.500
G01 X240.000 Y350.000
G01 X240.000 Y362.500
G01 X240.000 Y375.000
G01 X240.000 Y387.500
G01 X240.000 Y400.000
G01 X237.500 Y387.500
G01 X237.500 Y375.000
G01 X237.500 Y362.500
G01 X237.500 Y350.000
G01 X237.500 Y337.500
G01 X237.500 Y325.000
G01 X237.500 Y312.500
G01 X237.500 Y300.000
G01 X235.000 Y312.500
G01 X235.000 Y325.000
G01 X235.000 Y337.500
G01 X235.000 Y350.000
G01 X235.000 Y362.500
G01 X235.000 Y375.000
G01 X235.000 Y387.500
G01 X235.000 Y400.000
G01 X232.500 Y387.500
G01 X232.500 Y375.000
G01 X232.500 Y362.500
G01 X232.500 Y350.000
G01 X232.500 Y337.500
G01 X232.500 Y325.000
G01 X232.500 Y312.500
G01 X232.366 Y302.841
G01 X232.500 Y300.000
G01 X230.000 Y312.500
G01 X230.000 Y324.997
G01 X230.000 Y325.000
G01 X230.000 Y337.500
G01 X230.000 Y350.000
G01 X230.000 Y362.500
G01 X230.000 Y375.000
G01 X230.000 Y387.500
G01 X230.000 Y400.000
G01 X227.500 Y387.500
G01 X227.500 Y375.000
G01 X227.500 Y362.500
G01 X227.500 Y350.000
G01 X227.500 Y337.500
G01 X227.500 Y325.000
G01 X227.446 Y313.649
G01 X227.500 Y312.500
G01 X227.292 Y304.522
G01 X227.500 Y300.000
G01 X225.000 Y312.500
G01 X224.905 Y322.928
G01 X225.000 Y325.000
G01 X225.000 Y337.500
G01 X225.000 Y350.000
G01 X225.000 Y362.500
G01 X225.000 Y375.000
G01 X225.000 Y387.500
G01 X225.000 Y400.000
G01 X222.500 Y387.500
G01 X222.500 Y375.000
G01 X222.500 Y362.500
G01 X222.500 Y350.000
G01 X222.500 Y337.500
G01 X222.500 Y325.000
G01 X222.374 Y315.245
G01 X222.500 Y312.500
G01 X222.254 Y305.499
G01 X222.500 Y300.000
G01 X220.217 Y311.069
G01 X220.000 Y312.500
G01 X219.849 Y321.627
G01 X220.000 Y325.000
G01 X219.987 Y337.219
G01 X220.000 Y337.500
G01 X220.000 Y350.000
G01 X220.000 Y362.500
G01 X220.000 Y375.000
G01 X220.000 Y387.500
G01 X220.000 Y400.000
G01 X217.500 Y387.500
G01 X217.500 Y375.000
G01 X217.500 Y362.500
G01 X217.500 Y350.000
G01 X217.500 Y337.500
G01 X217.455 Y325.973
G01 X217.500 Y325.000
G01 X217.331 Y316.273
G01 X217.500 Y312.500
G01 X217.236 Y306.099
G01 X217.500 Y300.000
G01 X215.494 Y309.259
G01 X215.000 Y312.500
G01 X214.815 Y320.767
G01 X215.000 Y325.000
G01 X214.929 Y335.920
G01 X215.000 Y337.500
G01 X215.000 Y350.000
G01 X215.000 Y362.500
G01 X215.000 Y375.000
G01 X215.000 Y387.500
G01 X215.000 Y400.000
G01 X212.500 Y387.500
G01 X212.500 Y375.000
G01 X212.500 Y362.500
G01 X212.500 Y350.000
G01 X212.500 Y337.500
G01 X212.408 Y327.037
G01 X212.500 Y325.000
G01 X212.305 Y316.960
G01 X212.500 Y312.500
G01 X212.228 Y306.473
G01 X212.451 Y300.580
G01 X212.500 Y300.000
G01 X210.662 Y308.196
G01 X210.000 Y312.500
G01 X209.795 Y320.182
G01 X210.000 Y325.000
G01 X209.890 Y335.006
G01 X210.000 Y337.500
G01 X210.000 Y350.000
G01 X210.000 Y362.500
G01 X210.000 Y375.000
G01 X210.000 Y387.500
G01 X210.000 Y400.000
G01 X207.500 Y387.500
G01 X207.500 Y375.000
G01 X207.500 Y362.500
G01 X207.500 Y350.000
G01 X207.487 Y337.794
G01 X207.500 Y337.500
G01 X207.377 Y327.792
G01 X207.500 Y325.000
G01 X207.290 Y317.427
G01 X207.500 Y312.500
G01 X207.228 Y306.703
G01 X207.415 Y301.038
G01 X207.500 Y300.000
G01 X205.769 Y307.535
G01 X205.000 Y312.500
G01 X204.785 Y319.782
G01 X205.000 Y325.000
G01 X204.865 Y334.349
G01 X205.000 Y337.500
G01 X204.967 Y349.258
G01 X205.000 Y350.000
G01 X205.000 Y362.500
G01 X205.000 Y375.000
G01 X205.000 Y387.500
G01 X205.000 Y400.000
G01 X202.500 Y387.500
G01 X202.500 Y375.000
G01 X202.500 Y362.500
G01 X202.500 Y350.000
G01 X202.451 Y338.603
G01 X202.500 Y337.500
G01 X202.356 Y328.336
G01 X202.500 Y325.000
G01 X202.282 Y317.745
G01 X202.500 Y312.500
G01 X202.231 Y306.833
G01 X202.397 Y301.298
G01 X202.500 Y300.000
G01 X200.840 Y307.116
G01 X200.000 Y312.500
G01 X199.780 Y319.511
G01 X200.000 Y325.000
G01 X199.848 Y333.873
G01 X200.000 Y337.500
G01 X199.937 Y348.542
G01 X200.000 Y350.000
G01 X200.000 Y362.500
G01 X200.000 Y375.000
G01 X200.000 Y387.500
G01 X200.000 Y400.000
G01 X191.632 Y400.113
G01 X187.500 Y400.000
G01 X178.622 Y400.104
G01 X175.000 Y400.000
G01 X165.506 Y400.090
G01 X162.500 Y400.000
G01 X152.286 Y400.071
G01 X150.000 Y400.000
G01 X138.960 Y400.048
G01 X137.500 Y400.000
G01 X125.531 Y400.018
G01 X125.000 Y400.000
G01 X112.500 Y400.000
G01 X100.000 Y400.000
G01 X112.500 Y397.500
G01 X125.000 Y397.500
G01 X136.938 Y397.519
G01 X137.500 Y397.500
G01 X148.514 Y397.549
G01 X150.000 Y397.500
G01 X160.191 Y397.573
G01 X162.500 Y397.500
G01 X171.970 Y397.592
G01 X175.000 Y397.500
G01 X183.850 Y397.606
G01 X187.500 Y397.500
G01 X195.830 Y397.616
G01 X200.000 Y397.500
G01 X192.339 Y396.095
G01 X187.500 Y395.000
G01 X178.816 Y395.110
G01 X175.000 Y395.000
G01 X165.680 Y395.096
G01 X162.500 Y395.000
G01 X152.434 Y395.077
G01 X150.000 Y395.000
G01 X139.080 Y395.052
G01 X137.500 Y395.000
G01 X125.618 Y395.021
G01 X125.000 Y395.000
G01 X112.500 Y395.000
G01 X100.000 Y395.000
G01 X112.500 Y392.500
G01 X125.000 Y392.500
G01 X136.858 Y392.522
G01 X137.500 Y392.500
G01 X148.401 Y392.554
G01 X150.000 Y392.500
G01 X160.050 Y392.579
G01 X162.500 Y392.500
G01 X171.804 Y392.598
G01 X175.000 Y392.500
G01 X183.662 Y392.613
G01 X187.500 Y392.500
G01 X195.624 Y392.623
G01 X200.000 Y392.500
G01 X192.552 Y391.144
G01 X187.500 Y390.000
G01 X179.007 Y390.117
G01 X175.000 Y390.000
G01 X165.848 Y390.102
G01 X162.500 Y390.000
G01 X152.575 Y390.082
G01 X150.000 Y390.000
G01 X139.191 Y390.056
G01 X137.500 Y390.000
G01 X125.695 Y390.024
G01 X125.000 Y390.000
G01 X112.500 Y390.000
G01 X100.000 Y390.000
G01 X112.500 Y387.500
G01 X125.000 Y387.500
G01 X136.789 Y387.525
G01 X137.500 Y387.500
G01 X148.298 Y387.558
G01 X150.000 Y387.500
G01 X159.916 Y387.584
G01 X162.500 Y387.500
G01 X171.643 Y387.604
G01 X175.000 Y387.500
G01 X183.478 Y387.619
G01 X187.500 Y387.500
G01 X195.421 Y387.629
G01 X200.000 Y387.500
G01 X192.762 Y386.192
G01 X187.500 Y385.000
G01 X179.194 Y385.123
G01 X175.000 Y385.000
G01 X166.010 Y385.108
G01 X162.500 Y385.000
G01 X152.709 Y385.087
G01 X150.000 Y385.000
G01 X139.291 Y385.060
G01 X137.500 Y385.000
G01 X125.758 Y385.027
G01 X125.000 Y385.000
G01 X112.500 Y385.000
G01 X100.000 Y385.000
G01 X112.500 Y382.500
G01 X125.000 Y382.500
G01 X136.734 Y382.527
G01 X137.500 Y382.500
G01 X148.206 Y382.562
G01 X150.000 Y382.500
G01 X159.791 Y382.589
G01 X162.500 Y382.500
G01 X171.489 Y382.611
G01 X175.000 Y382.500
G01 X183.299 Y382.626
G01 X187.500 Y382.500
G01 X195.221 Y382.636
G01 X200.000 Y382.500
G01 X192.971 Y381.240
G01 X187.500 Y380.000
G01 X179.377 Y380.130
G01 X175.000 Y380.000
G01 X166.166 Y380.114
G01 X162.500 Y380.000
G01 X152.834 Y380.093
G01 X150.000 Y380.000
G01 X139.381 Y380.064
G01 X137.500 Y380.000
G01 X125.807 Y380.029
G01 X125.000 Y380.000
G01 X112.500 Y380.000
G01 X100.000 Y380.000
G01 X112.500 Y377.500
G01 X125.000 Y377.500
G01 X136.694 Y377.529
G01 X137.500 Y377.500
G01 X148.125 Y377.565
G01 X150.000 Y377.500
G01 X159.675 Y377.594
G01 X162.500 Y377.500
G01 X171.341 Y377.617
G01 X175.000 Y377.500
G01 X183.125 Y377.633
G01 X187.500 Y377.500
G01 X195.024 Y377.643
G01 X200.000 Y377.500
G01 X193.177 Y376.287
G01 X187.500 Y375.000
G01 X179.554 Y375.137
G01 X175.000 Y375.000
G01 X166.314 Y375.120
G01 X162.500 Y375.000
G01 X152.949 Y375.098
G01 X150.000 Y375.000
G01 X139.457 Y375.068
G01 X137.500 Y375.000
G01 X125.841 Y375.030
G01 X125.000 Y375.000
G01 X112.500 Y375.000
G01 X100.000 Y375.000
G01 X112.500 Y372.500
G01 X125.000 Y372.500
G01 X136.670 Y372.530
G01 X137.500 Y372.500
G01 X148.058 Y372.569
G01 X150.000 Y372.500
G01 X159.568 Y372.599
G01 X162.500 Y372.500
G01 X171.202 Y372.623
G01 X175.000 Y372.500
G01 X182.956 Y372.639
G01 X187.500 Y372.500
G01 X194.832 Y372.650
G01 X200.000 Y372.500
G01 X193.380 Y371.334
G01 X187.500 Y370.000
G01 X179.725 Y370.143
G01 X175.000 Y370.000
G01 X166.454 Y370.126
G01 X162.500 Y370.000
G01 X153.052 Y370.102
G01 X150.000 Y370.000
G01 X139.519 Y370.071
G01 X137.500 Y370.000
G01 X125.856 Y370.031
G01 X125.000 Y370.000
G01 X112.500 Y370.000
G01 X100.000 Y370.000
G01 X112.500 Y367.500
G01 X125.000 Y367.500
G01 X136.664 Y367.531
G01 X137.500 Y367.500
G01 X148.005 Y367.572
G01 X150.000 Y367.500
G01 X159.474 Y367.604
G01 X162.500 Y367.500
G01 X171.070 Y367.629
G01 X175.000 Y367.500
G01 X182.794 Y367.646
G01 X187.500 Y367.500
G01 X194.643 Y367.657
G01 X200.000 Y367.500
G01 X193.579 Y366.381
G01 X187.500 Y365.000
G01 X179.889 Y365.150
G01 X175.000 Y365.000
G01 X166.585 Y365.132
G01 X162.500 Y365.000
G01 X153.143 Y365.107
G01 X150.000 Y365.000
G01 X139.565 Y365.073
G01 X137.500 Y365.000
G01 X125.852 Y365.031
G01 X125.000 Y365.000
G01 X112.500 Y365.000
G01 X100.000 Y365.000
G01 X112.500 Y362.500
G01 X125.000 Y362.500
G01 X136.680 Y362.531
G01 X137.500 Y362.500
G01 X147.969 Y362.574
G01 X150.000 Y362.500
G01 X159.392 Y362.608
G01 X162.500 Y362.500
G01 X170.949 Y362.635
G01 X175.000 Y362.500
G01 X182.638 Y362.653
G01 X187.500 Y362.500
G01 X194.459 Y362.665
G01 X200.000 Y362.500
G01 X193.775 Y361.427
G01 X187.538 Y360.010
G01 X187.500 Y360.000
G01 X180.046 Y360.157
G01 X175.000 Y360.000
G01 X166.705 Y360.138
G01 X162.500 Y360.000
G01 X153.220 Y360.111
G01 X150.000 Y360.000
G01 X139.593 Y360.076
G01 X137.500 Y360.000
G01 X125.824 Y360.031
G01 X125.000 Y360.000
G01 X112.500 Y360.000
G01 X100.000 Y360.000
G01 X112.500 Y357.500
G01 X125.000 Y357.500
G01 X136.719 Y357.530
G01 X137.500 Y357.500
G01 X147.952 Y357.576
G01 X150.000 Y357.500
G01 X159.326 Y357.612
G01 X162.500 Y357.500
G01 X170.839 Y357.640
G01 X175.000 Y357.500
G01 X182.491 Y357.660
G01 X187.500 Y357.500
G01 X194.281 Y357.672
G01 X200.000 Y357.500
G01 X193.967 Y356.472
G01 X187.917 Y355.107
G01 X187.500 Y355.000
G01 X180.195 Y355.164
G01 X175.000 Y355.000
G01 X166.813 Y355.144
G01 X162.500 Y355.000
G01 X153.280 Y355.115
G01 X150.000 Y355.000
G01 X139.599 Y355.077
G01 X137.500 Y355.000
G01 X125.770 Y355.029
G01 X125.000 Y355.000
G01 X112.500 Y355.000
G01 X100.000 Y355.000
G01 X112.500 Y352.500
G01 X125.000 Y352.500
G01 X136.786 Y352.528
G01 X137.500 Y352.500
G01 X147.957 Y352.577
G01 X150.000 Y352.500
G01 X159.276 Y352.616
G01 X162.500 Y352.500
G01 X170.742 Y352.646
G01 X175.000 Y352.500
G01 X182.353 Y352.667
G01 X187.500 Y352.500
G01 X194.109 Y352.680
G01 X200.000 Y352.500
G01 X194.154 Y351.516
G01 X188.287 Y350.202
G01 X187.500 Y350.000
G01 X180.333 Y350.171
G01 X175.000 Y350.000
G01 X166.906 Y350.150
G01 X162.500 Y350.000
G01 X153.322 Y350.119
G01 X150.000 Y350.000
G01 X139.581 Y350.078
G01 X137.500 Y350.000
G01 X125.686 Y350.026
G01 X125.000 Y350.000
G01 X112.500 Y350.000
G01 X100.000 Y350.000
G01 X112.500 Y347.500
G01 X125.000 Y347.500
G01 X136.884 Y347.524
G01 X137.500 Y347.500
G01 X147.988 Y347.577
G01 X150.000 Y347.500
G01 X159.246 Y347.619
G01 X162.500 Y347.500
G01 X170.659 Y347.652
G01 X175.000 Y347.500
G01 X182.226 Y347.674
G01 X187.500 Y347.500
G01 X193.944 Y347.688
G01 X200.000 Y347.500
G01 X194.336 Y346.560
G01 X188.647 Y345.294
G01 X187.500 Y345.000
G01 X180.459 Y345.178
G01 X175.000 Y345.000
G01 X166.983 Y345.155
G01 X162.500 Y345.000
G01 X153.342 Y345.121
G01 X150.000 Y345.000
G01 X139.536 Y345.077
G01 X137.500 Y345.000
G01 X125.566 Y345.022
G01 X125.000 Y345.000
G01 X112.500 Y345.000
G01 X100.000 Y345.000
G01 X112.500 Y342.500
G01 X125.000 Y342.500
G01 X137.020 Y342.519
G01 X137.500 Y342.500
G01 X148.047 Y342.576
G01 X150.000 Y342.500
G01 X159.239 Y342.622
G01 X162.500 Y342.500
G01 X170.594 Y342.657
G01 X175.000 Y342.500
G01 X182.110 Y342.681
G01 X187.500 Y342.500
G01 X193.788 Y342.696
G01 X199.940 Y342.504
G01 X200.000 Y342.500
G01 X194.512 Y341.602
G01 X188.994 Y340.384
G01 X187.500 Y340.000
G01 X180.572 Y340.185
G01 X175.000 Y340.000
G01 X167.041 Y340.160
G01 X162.500 Y340.000
G01 X153.336 Y340.123
G01 X150.000 Y340.000
G01 X139.457 Y340.075
G01 X137.500 Y340.000
G01 X125.406 Y340.016
G01 X125.000 Y340.000
G01 X112.500 Y340.000
G01 X100.000 Y340.000
G01 X112.500 Y337.500
G01 X125.000 Y337.500
G01 X137.198 Y337.512
G01 X137.500 Y337.500
G01 X148.142 Y337.573
G01 X150.000 Y337.500
G01 X159.259 Y337.623
G01 X162.500 Y337.500
G01 X170.548 Y337.661
G01 X175.000 Y337.500
G01 X182.010 Y337.688
G01 X187.500 Y337.500
G01 X193.641 Y337.704
G01 X199.646 Y337.523
G01 X200.000 Y337.500
G01 X194.680 Y336.644
G01 X189.326 Y335.472
G01 X187.500 Y335.000
G01 X180.669 Y335.192
G01 X175.000 Y335.000
G01 X167.077 Y335.164
G01 X162.500 Y335.000
G01 X153.300 Y335.124
G01 X150.000 Y335.000
G01 X139.340 Y335.072
G01 X137.500 Y335.000
G01 X125.198 Y335.008
G01 X125.000 Y335.000
G01 X112.500 Y335.000
G01 X100.000 Y335.000
G01 X112.500 Y332.500
G01 X125.000 Y332.500
G01 X137.428 Y332.503
G01 X137.500 Y332.500
G01 X148.277 Y332.569
G01 X150.000 Y332.500
G01 X159.310 Y332.623
G01 X162.500 Y332.500
G01 X170.527 Y332.665
G01 X175.000 Y332.500
G01 X181.926 Y332.695
G01 X187.500 Y332.500
G01 X193.505 Y332.712
G01 X199.376 Y332.541
G01 X200.000 Y332.500
G01 X194.840 Y331.684
G01 X189.642 Y330.555
G01 X187.500 Y330.000
G01 X180.747 Y330.199
G01 X175.000 Y330.000
G01 X167.085 Y330.168
G01 X162.500 Y330.000
G01 X153.228 Y330.124
G01 X150.000 Y330.000
G01 X139.177 Y330.067
G01 X137.500 Y330.000
G01 X125.000 Y330.000
G01 X112.500 Y330.000
G01 X100.000 Y330.000
G01 X112.500 Y327.500
G01 X125.000 Y327.500
G01 X137.500 Y327.500
G01 X148.460 Y327.563
G01 X150.000 Y327.500
G01 X159.399 Y327.622
G01 X162.500 Y327.500
G01 X170.533 Y327.669
G01 X175.000 Y327.500
G01 X181.862 Y327.701
G01 X187.500 Y327.500
G01 X193.383 Y327.721
G01 X199.132 Y327.558
G01 X200.000 Y327.500
G01 X194.989 Y326.722
G01 X189.938 Y325.635
G01 X187.500 Y325.000
G01 X180.802 Y325.205
G01 X175.000 Y325.000
G01 X167.062 Y325.171
G01 X162.500 Y325.000
G01 X153.114 Y325.122
G01 X150.000 Y325.000
G01 X138.960 Y325.059
G01 X137.500 Y325.000
G01 X125.000 Y325.000
G01 X112.500 Y325.000
G01 X100.000 Y325.000
G01 X112.500 Y322.500
G01 X125.000 Y322.500
G01 X137.500 Y322.500
G01 X148.703 Y322.554
G01 X150.000 Y322.500
G01 X159.533 Y322.619
G01 X162.500 Y322.500
G01 X170.573 Y322.671
G01 X175.000 Y322.500
G01 X181.822 Y322.708
G01 X187.500 Y322.500
G01 X193.277 Y322.730
G01 X198.921 Y322.574
G01 X200.000 Y322.500
G01 X195.127 Y321.758
G01 X190.210 Y320.709
G01 X187.500 Y320.000
G01 X180.829 Y320.211
G01 X175.000 Y320.000
G01 X167.000 Y320.172
G01 X162.500 Y320.000
G01 X152.948 Y320.118
G01 X150.000 Y320.000
G01 X138.676 Y320.049
G01 X137.500 Y320.000
G01 X125.000 Y320.000
G01 X112.500 Y320.000
G01 X100.000 Y320.000
G01 X112.500 Y317.500
G01 X125.000 Y317.500
G01 X137.500 Y317.500
G01 X149.017 Y317.542
G01 X150.000 Y317.500
G01 X159.723 Y317.614
G01 X162.500 Y317.500
G01 X170.655 Y317.671
G01 X175.000 Y317.500
G01 X181.812 Y317.713
G01 X187.500 Y317.500
G01 X193.191 Y317.739
G01 X198.749 Y317.588
G01 X200.000 Y317.500
G01 X195.251 Y316.792
G01 X190.454 Y315.777
G01 X187.500 Y315.000
G01 X180.821 Y315.216
G01 X175.000 Y315.000
G01 X166.889 Y315.172
G01 X162.500 Y315.000
G01 X152.719 Y315.111
G01 X150.000 Y315.000
G01 X138.311 Y315.034
G01 X137.500 Y315.000
G01 X125.000 Y315.000
G01 X112.500 Y315.000
G01 X100.000 Y315.000
G01 X112.500 Y312.500
G01 X125.000 Y312.500
G01 X137.500 Y312.500
G01 X149.421 Y312.525
G01 X150.000 Y312.500
G01 X159.983 Y312.605
G01 X162.500 Y312.500
G01 X170.789 Y312.670
G01 X175.000 Y312.500
G01 X181.839 Y312.717
G01 X187.500 Y312.500
G01 X193.129 Y312.747
G01 X198.626 Y312.599
G01 X200.000 Y312.500
G01 X195.357 Y311.823
G01 X190.663 Y310.837
G01 X187.500 Y310.000
G01 X180.770 Y310.219
G01 X175.000 Y310.000
G01 X166.719 Y310.169
G01 X162.500 Y310.000
G01 X152.409 Y310.100
G01 X150.000 Y310.000
G01 X137.844 Y310.015
G01 X137.500 Y310.000
G01 X125.000 Y310.000
G01 X112.500 Y310.000
G01 X100.000 Y310.000
G01 X112.500 Y307.500
G01 X125.000 Y307.500
G01 X137.500 Y307.500
G01 X149.937 Y307.503
G01 X150.000 Y307.500
G01 X160.329 Y307.593
G01 X162.500 Y307.500
G01 X170.988 Y307.666
G01 X175.000 Y307.500
G01 X181.911 Y307.720
G01 X187.500 Y307.500
G01 X193.098 Y307.755
G01 X198.564 Y307.607
G01 X200.000 Y307.500
G01 X195.441 Y306.851
G01 X190.830 Y305.888
G01 X187.500 Y305.000
G01 X180.665 Y305.221
G01 X175.000 Y305.000
G01 X166.472 Y305.163
G01 X162.500 Y305.000
G01 X151.999 Y305.085
G01 X150.000 Y305.000
G01 X137.500 Y305.000
G01 X125.000 Y305.000
G01 X112.500 Y305.000
G01 X100.000 Y305.000
G01 X112.500 Y302.500
G01 X125.000 Y302.500
G01 X137.500 Y302.500
G01 X150.000 Y302.500
G01 X160.789 Y302.574
G01 X162.500 Y302.500
G01 X171.271 Y302.657
G01 X175.000 Y302.500
G01 X182.044 Y302.721
G01 X187.500 Y302.500
G01 X193.107 Y302.763
G01 X198.581 Y302.609
G01 X200.000 Y302.500
G01 X195.499 Y301.873
G01 X190.944 Y300.926
G01 X187.500 Y300.000
G01 X180.489 Y300.220
G01 X175.000 Y300.000
G01 X166.127 Y300.152
G01 X162.500 Y300.000
G01 X151.458 Y300.063
G01 X150.000 Y300.000
G01 X137.500 Y300.000
G01 X125.000 Y300.000
G01 X112.500 Y300.000
G01 X100.000 Y300.000
G01 X99.887 Y308.368
G01 X100.000 Y312.500
G01 X99.896 Y321.378
G01 X100.000 Y325.000
G01 X99.910 Y334.494
G01 X100.000 Y337.500
G01 X99.929 Y347.714
G01 X100.000 Y350.000
G01 X99.952 Y361.040
G01 X100.000 Y362.500
G01 X99.982 Y374.469
G01 X100.000 Y375.000
G01 X100.000 Y387.500
G01 X100.000 Y400.000
G01 X97.604 Y388.123
G01 X97.500 Y387.500
G01 X97.500 Y375.000
G01 X97.484 Y362.971
G01 X97.500 Y362.500
G01 X97.455 Y351.365
G01 X97.500 Y350.000
G01 X97.432 Y339.661
G01 X97.500 Y337.500
G01 X97.414 Y327.859
G01 X97.500 Y325.000
G01 X97.400 Y315.959
G01 X97.500 Y312.500
G01 X97.391 Y303.961
G01 X97.500 Y300.000
G01 X95.558 Y309.177
G01 X95.000 Y312.500
G01 X94.903 Y321.577
G01 X95.000 Y325.000
G01 X94.916 Y334.672
G01 X95.000 Y337.500
G01 X94.934 Y347.869
G01 X95.000 Y350.000
G01 X94.957 Y361.168
G01 X95.000 Y362.500
G01 X94.986 Y374.568
G01 X95.000 Y375.000
G01 X95.000 Y387.500
G01 X95.000 Y400.000
G01 X92.590 Y388.037
G01 X92.500 Y387.500
G01 X92.500 Y375.000
G01 X92.488 Y362.871
G01 X92.500 Y362.500
G01 X92.460 Y351.237
G01 X92.500 Y350.000
G01 X92.437 Y339.507
G01 X92.500 Y337.500
G01 X92.420 Y327.683
G01 X92.500 Y325.000
G01 X92.407 Y315.764
G01 X92.500 Y312.500
G01 X92.397 Y303.750
G01 X92.500 Y300.000
G01 X90.523 Y309.388
G01 X90.000 Y312.500
G01 X89.909 Y321.778
G01 X90.000 Y325.000
G01 X89.922 Y334.855
G01 X90.000 Y337.500
G01 X89.940 Y348.030
G01 X90.000 Y350.000
G01 X89.962 Y361.303
G01 X90.000 Y362.500
G01 X89.989 Y374.675
G01 X90.000 Y375.000
G01 X90.000 Y387.500
G01 X90.000 Y400.000
G01 X87.574 Y387.942
G01 X87.500 Y387.500
G01 X87.500 Y375.000
G01 X87.491 Y362.762
G01 X87.500 Y362.500
G01 X87.465 Y351.101
G01 X87.500 Y350.000
G01 X87.443 Y339.348
G01 X87.500 Y337.500
G01 X87.426 Y327.503
G01 X87.500 Y325.000
G01 X87.413 Y315.566
G01 X87.500 Y312.500
G01 X87.403 Y303.538
G01 X87.500 Y300.000
G01 X85.488 Y309.602
G01 X85.000 Y312.500
G01 X84.915 Y321.982
G01 X85.000 Y325.000
G01 X84.928 Y335.041
G01 X85.000 Y337.500
G01 X84.945 Y348.196
G01 X85.000 Y350.000
G01 X84.967 Y361.446
G01 X85.000 Y362.500
G01 X84.993 Y374.791
G01 X85.000 Y375.000
G01 X85.000 Y387.500
G01 X85.000 Y400.000
G01 X82.557 Y387.839
G01 X82.500 Y387.500
G01 X82.500 Y375.000
G01 X82.495 Y362.645
G01 X82.500 Y362.500
G01 X82.470 Y350.959
G01 X82.500 Y350.000
G01 X82.449 Y339.184
G01 X82.500 Y337.500
G01 X82.432 Y327.319
G01 X82.500 Y325.000
G01 X82.419 Y315.366
G01 X82.500 Y312.500
G01 X82.410 Y303.323
G01 X82.500 Y300.000
G01 X80.452 Y309.818
G01 X80.000 Y312.500
G01 X79.922 Y322.188
G01 X80.000 Y325.000
G01 X79.934 Y335.231
G01 X80.000 Y337.500
G01 X79.951 Y348.367
G01 X80.000 Y350.000
G01 X79.972 Y361.594
G01 X80.000 Y362.500
G01 X79.997 Y374.915
G01 X80.000 Y375.000
G01 X80.000 Y387.500
G01 X80.000 Y400.000
G01 X77.539 Y387.729
G01 X77.500 Y387.500
G01 X77.500 Y375.000
G01 X77.499 Y362.520
G01 X77.500 Y362.500
G01 X77.474 Y350.811
G01 X77.500 Y350.000
G01 X77.454 Y339.015
G01 X77.500 Y337.500
G01 X77.438 Y327.132
G01 X77.500 Y325.000
G01 X77.425 Y315.163
G01 X77.500 Y312.500
G01 X77.416 Y303.107
G01 X77.500 Y300.000
G01 X75.416 Y310.036
G01 X75.000 Y312.500
G01 X74.928 Y322.397
G01 X75.000 Y325.000
G01 X74.940 Y335.424
G01 X75.000 Y337.500
G01 X74.956 Y348.542
G01 X75.000 Y350.000
G01 X74.977 Y361.749
G01 X75.000 Y362.500
G01 X75.000 Y375.000
G01 X75.000 Y387.500
G01 X75.000 Y400.000
G01 X72.519 Y387.613
G01 X72.500 Y387.500
G01 X72.500 Y375.000
G01 X72.500 Y362.500
G01 X72.479 Y350.658
G01 X72.500 Y350.000
G01 X72.460 Y338.842
G01 X72.500 Y337.500
G01 X72.444 Y326.942
G01 X72.500 Y325.000
G01 X72.432 Y314.957
G01 X72.500 Y312.500
G01 X72.422 Y302.889
G01 X72.500 Y300.000
G01 X70.379 Y310.255
G01 X70.000 Y312.500
G01 X69.934 Y322.607
G01 X70.000 Y325.000
G01 X69.946 Y335.620
G01 X70.000 Y337.500
G01 X69.962 Y348.721
G01 X70.000 Y350.000
G01 X69.982 Y361.908
G01 X70.000 Y362.500
G01 X70.000 Y375.000
G01 X70.000 Y387.500
G01 X70.000 Y400.000
G01 X67.500 Y387.500
G01 X67.500 Y375.000
G01 X67.500 Y362.500
G01 X67.485 Y350.500
G01 X67.500 Y350.000
G01 X67.465 Y338.665
G01 X67.500 Y337.500
G01 X67.450 Y326.748
G01 X67.500 Y325.000
G01 X67.438 Y314.750
G01 X67.500 Y312.500
G01 X67.429 Y302.669
G01 X67.500 Y300.000
G01 X65.342 Y310.477
G01 X65.000 Y312.500
G01 X64.940 Y322.820
G01 X65.000 Y325.000
G01 X64.952 Y335.819
G01 X65.000 Y337.500
G01 X64.968 Y348.903
G01 X65.000 Y350.000
G01 X64.987 Y362.072
G01 X65.000 Y362.500
G01 X65.000 Y375.000
G01 X65.000 Y387.500
G01 X65.000 Y400.000
G01 X62.500 Y387.500
G01 X62.500 Y375.000
G01 X62.500 Y362.500
G01 X62.490 Y350.337
G01 X62.500 Y350.000
G01 X62.471 Y338.484
G01 X62.500 Y337.500
G01 X62.456 Y326.552
G01 X62.500 Y325.000
G01 X62.444 Y314.540
G01 X62.500 Y312.500
G01 X62.435 Y302.448
G01 X62.500 Y300.000
G01 X60.305 Y310.700
G01 X60.000 Y312.500
G01 X59.946 Y323.035
G01 X60.000 Y325.000
G01 X59.958 Y336.021
G01 X60.000 Y337.500
G01 X59.973 Y349.089
G01 X60.000 Y350.000
G01 X59.992 Y362.241
G01 X60.000 Y362.500
G01 X60.000 Y375.000
G01 X60.000 Y387.500
G01 X60.000 Y400.000
G01 X57.500 Y387.500
G01 X57.500 Y375.000
G01 X57.500 Y362.500
G01 X57.495 Y350.170
G01 X57.500 Y350.000
G01 X57.476 Y338.301
G01 X57.500 Y337.500
G01 X57.462 Y326.354
G01 X57.500 Y325.000
G01 X57.450 Y314.329
G01 X57.500 Y312.500
G01 X57.441 Y302.226
G01 X57.500 Y300.000
G01 X55.267 Y310.924
G01 X55.000 Y312.500
G01 X54.952 Y323.251
G01 X55.000 Y325.000
G01 X54.964 Y336.224
G01 X55.000 Y337.500
G01 X54.979 Y349.279
G01 X55.000 Y350.000
G01 X54.997 Y362.413
G01 X55.000 Y362.500
G01 X55.000 Y375.000
G01 X55.000 Y387.500
G01 X55.000 Y400.000
G01 X52.500 Y387.500
G01 X52.500 Y375.000
G01 X52.500 Y362.500
G01 X52.500 Y350.000
G01 X52.482 Y338.114
G01 X52.500 Y337.500
G01 X52.467 Y326.153
G01 X52.500 Y325.000
G01 X52.456 Y314.116
G01 X52.500 Y312.500
G01 X52.447 Y302.003
G01 X52.500 Y300.000
G01 X50.229 Y311.150
G01 X50.000 Y312.500
G01 X49.959 Y323.468
G01 X50.000 Y325.000
G01 X49.970 Y336.430
G01 X50.000 Y337.500
G01 X49.985 Y349.471
G01 X50.000 Y350.000
G01 X50.000 Y362.500
G01 X50.000 Y375.000
G01 X50.000 Y387.500
G01 X50.000 Y400.000
G01 X47.500 Y387.500
G01 X47.500 Y375.000
G01 X47.500 Y362.500
G01 X47.500 Y350.000
G01 X47.488 Y337.924
G01 X47.500 Y337.500
G01 X47.473 Y325.950
G01 X47.500 Y325.000
G01 X47.462 Y313.901
G01 X47.500 Y312.500
G01 X47.453 Y301.779
G01 X47.500 Y300.000
G01 X45.191 Y311.376
G01 X45.000 Y312.500
G01 X44.965 Y323.687
G01 X45.000 Y325.000
G01 X44.976 Y336.638
G01 X45.000 Y337.500
G01 X44.990 Y349.665
G01 X45.000 Y350.000
G01 X45.000 Y362.500
G01 X45.000 Y375.000
G01 X45.000 Y387.500
G01 X42.500 Y387.500
G01 X42.500 Y375.000
G01 X42.500 Y362.500
G01 X42.500 Y350.000
G01 X42.493 Y337.732
G01 X42.500 Y337.500
G01 X42.479 Y325.745
G01 X42.500 Y325.000
G01 X42.468 Y313.685
G01 X42.500 Y312.500
G01 X42.459 Y301.554
G01 X42.500 Y300.000
G01 X40.152 Y311.604
G01 X40.000 Y312.500
G01 X39.971 Y323.907
G01 X40.000 Y325.000
G01 X39.982 Y336.848
G01 X40.000 Y337.500
G01 X39.996 Y349.863
G01 X40.000 Y350.000
G01 X40.000 Y362.500
G01 X40.000 Y375.000
G01 X37.500 Y375.000
G01 X37.500 Y362.500
G01 X37.500 Y350.000
G01 X37.499 Y337.537
G01 X37.500 Y337.500
G01 X37.485 Y325.538
G01 X37.500 Y325.000
G01 X37.474 Y313.468
G01 X37.500 Y312.500
G01 X37.465 Y301.327
G01 X37.500 Y300.000
G01 X35.113 Y311.833
G01 X35.000 Y312.500
G01 X34.977 Y324.129
G01 X35.000 Y325.000
G01 X34.988 Y337.059
G01 X35.000 Y337.500
G01 X35.000 Y350.000
G01 X35.000 Y362.500
G01 X35.000 Y375.000
G01 X32.508 Y362.549
G01 X32.500 Y362.500
G01 X32.500 Y350.000
G01 X32.500 Y337.500
G01 X32.491 Y325.329
G01 X32.500 Y325.000
G01 X32.480 Y313.249
G01 X32.500 Y312.500
G01 X32.471 Y301.100
G01 X32.500 Y300.000
G01 X30.074 Y312.063
G01 X30.000 Y312.500
G01 X29.983 Y324.351
G01 X30.000 Y325.000
G01 X29.994 Y337.272
G01 X30.000 Y337.500
G01 X30.000 Y350.000
G01 X30.000 Y362.500
G01 X27.500 Y362.500
G01 X27.500 Y350.000
G01 X27.500 Y337.500
G01 X27.497 Y325.119
G01 X27.500 Y325.000
G01 X27.486 Y313.030
G01 X27.500 Y312.500
G01 X27.477 Y300.873
G01 X27.500 Y300.000
G01 X25.035 Y312.293
G01 X25.000 Y312.500
G01 X24.989 Y324.575
G01 X25.000 Y325.000
G01 X25.000 Y337.486
G01 X25.000 Y337.500
G01 X25.000 Y350.000
G01 X22.500 Y350.000
G01 X22.500 Y337.500
G01 X22.500 Y325.000
G01 X22.492 Y312.809
G01 X22.500 Y312.500
G01 X22.483 Y300.644
G01 X22.500 Y300.000
G01 X20.000 Y312.500
G01 X19.995 Y324.799
G01 X20.000 Y325.000
G01 X20.000 Y337.500
G01 X17.500 Y337.500
G01 X17.500 Y325.000
G01 X17.498 Y312.587
G01 X17.500 Y312.500
G01 X17.489 Y300.415
G01 X17.500 Y300.000
G01 X15.000 Y312.500
G01 X15.000 Y325.000
G01 X12.500 Y325.000
G01 X12.500 Y312.500
G01 X12.495 Y300.185
G01 X12.500 Y300.000
G01 X10.000 Y312.500
G01 X7.599 Y300.570
G01 X7.500 Y300.000
G01 X12.500 Y300.000
G01 X25.000 Y300.000
G01 X37.500 Y300.000
G01 X50.000 Y300.000
G01 X62.500 Y300.000
G01 X75.000 Y300.000
G01 X87.500 Y300.000
G01 X100.000 Y300.000
G01 X87.500 Y297.500
G01 X75.000 Y297.500
G01 X62.500 Y297.500
G01 X50.000 Y297.500
G01 X37.500 Y297.500
G01 X25.000 Y297.500
G01 X12.500 Y297.500
G01 X12.500 Y295.000
G01 X25.000 Y295.000
G01 X37.500 Y295.000
G01 X50.000 Y295.000
G01 X62.500 Y295.000
G01 X75.000 Y295.000
G01 X87.500 Y295.000
G01 X100.000 Y295.000
G01 X87.500 Y292.500
G01 X75.000 Y292.500
G01 X62.500 Y292.500
G01 X50.000 Y292.500
G01 X37.500 Y292.500
G01 X25.000 Y292.500
G01 X12.500 Y292.500
G01 X12.500 Y290.000
G01 X25.000 Y290.000
G01 X37.500 Y290.000
G01 X50.000 Y290.000
G01 X62.500 Y290.000
G01 X75.000 Y290.000
G01 X87.500 Y290.000
G01 X100.000 Y290.000
G01 X87.500 Y287.500
G01 X75.000 Y287.500
G01 X62.500 Y287.500
G01 X50.000 Y287.500
G01 X37.500 Y287.500
G01 X25.000 Y287.500
G01 X12.500 Y287.500
G01 X12.500 Y285.000
G01 X25.000 Y285.000
G01 X37.500 Y285.000
G01 X50.000 Y285.000
G01 X62.500 Y285.000
G01 X75.000 Y285.000
G01 X87.500 Y285.000
G01 X100.000 Y285.000
G01 X87.500 Y282.500
G01 X75.000 Y282.500
G01 X62.500 Y282.500
G01 X50.000 Y282.500
G01 X37.500 Y282.500
G01 X25.000 Y282.500
G01 X12.500 Y282.500
G01 X12.500 Y280.000
G01 X25.000 Y280.000
G01 X37.500 Y280.000
G01 X50.000 Y280.000
G01 X62.500 Y280.000
G01 X75.000 Y280.000
G01 X87.500 Y280.000
G01 X100.000 Y280.000
G01 X87.500 Y277.500
G01 X75.000 Y277.500
G01 X62.500 Y277.500
G01 X50.000 Y277.500
G01 X37.500 Y277.500
G01 X25.000 Y277.500
G01 X12.500 Y277.500
G01 X12.500 Y275.000
G01 X25.000 Y275.000
G01 X37.500 Y275.000
G01 X50.000 Y275.000
G01 X62.500 Y275.000
G01 X75.000 Y275.000
G01 X87.500 Y275.000
G01 X100.000 Y275.000
G01 X87.500 Y272.500
G01 X75.000 Y272.500
G01 X62.500 Y272.500
G01 X50.000 Y272.500
G01 X37.500 Y272.500
G01 X25.000 Y272.500
G01 X12.500 Y272.500
G01 X12.500 Y270.000
G01 X25.000 Y270.000
G01 X37.500 Y270.000
G01 X50.000 Y270.000
G01 X62.500 Y270.000
G01 X75.000 Y270.000
G01 X87.500 Y270.000
G01 X100.000 Y270.000
G01 X87.500 Y267.500
G01 X75.000 Y267.500
G01 X62.500 Y267.500
G01 X50.000 Y267.500
G01 X37.500 Y267.500
G01 X25.000 Y267.500
G01 X12.500 Y267.500
G01 X12.500 Y265.000
G01 X25.000 Y265.000
G01 X37.500 Y265.000
G01 X50.000 Y265.000
G01 X62.500 Y265.000
G01 X75.000 Y265.000
G01 X87.500 Y265.000
G01 X100.000 Y265.000
G01 X87.500 Y262.500
G01 X75.000 Y262.500
G01 X62.500 Y262.500
G01 X50.000 Y262.500
G01 X37.500 Y262.500
G01 X25.000 Y262.500
G01 X12.500 Y262.500
G01 X12.500 Y260.000
G01 X25.000 Y260.000
G01 X37.500 Y260.000
G01 X50.000 Y260.000
G01 X62.500 Y260.000
G01 X75.000 Y260.000
G01 X87.500 Y260.000
G01 X100.000 Y260.000
G01 X87.500 Y257.500
G01 X75.000 Y257.500
G01 X62.500 Y257.500
G01 X50.000 Y257.500
G01 X37.500 Y257.500
G01 X25.000 Y257.500
G01 X12.500 Y257.500
G01 X12.500 Y255.000
G01 X25.000 Y255.000
G01 X37.500 Y255.000
G01 X50.000 Y255.000
G01 X62.500 Y255.000
G01 X75.000 Y255.000
G01 X87.500 Y255.000
G01 X100.000 Y255.000
G01 X87.500 Y252.500
G01 X75.000 Y252.500
G01 X62.500 Y252.500
G01 X50.000 Y252.500
G01 X37.500 Y252.500
G01 X25.000 Y252.500
G01 X12.500 Y252.500
G01 X12.500 Y250.000
G01 X25.000 Y250.000
G01 X37.500 Y250.000
G01 X50.000 Y250.000
G01 X62.500 Y250.000
G01 X75.000 Y250.000
G01 X87.500 Y250.000
G01 X100.000 Y250.000
G01 X87.500 Y247.500
G01 X75.000 Y247.500
G01 X62.500 Y247.500
G01 X50.000 Y247.500
G01 X37.500 Y247.500
G01 X25.000 Y247.500
G01 X12.500 Y247.500
G01 X12.500 Y245.000
G01 X25.000 Y245.000
G01 X37.500 Y245.000
G01 X50.000 Y245.000
G01 X62.500 Y245.000
G01 X75.000 Y245.000
G01 X87.500 Y245.000
G01 X100.000 Y245.000
G01 X87.500 Y242.500
G01 X75.000 Y242.500
G01 X62.500 Y242.500
G01 X50.000 Y242.500
G01 X37.500 Y242.500
G01 X25.000 Y242.500
G01 X12.500 Y242.500
G01 X12.500 Y240.000
G01 X25.000 Y240.000
G01 X37.500 Y240.000
G01 X50.000 Y240.000
G01 X62.500 Y240.000
G01 X75.000 Y240.000
G01 X87.500 Y240.000
G01 X100.000 Y240.000
G01 X87.500 Y237.500
G01 X75.000 Y237.500
G01 X62.500 Y237.500
G01 X50.000 Y237.500
G01 X37.500 Y237.500
G01 X25.000 Y237.500
G01 X12.500 Y237.500
G01 X12.500 Y235.000
G01 X25.000 Y235.000
G01 X37.500 Y235.000
G01 X50.000 Y235.000
G01 X62.500 Y235.000
G01 X75.000 Y235.000
G01 X87.500 Y235.000
G01 X100.000 Y235.000
G01 X87.500 Y232.500
G01 X75.000 Y232.500
G01 X62.500 Y232.500
G01 X50.000 Y232.500
G01 X37.500 Y232.500
G01 X25.000 Y232.500
G01 X12.500 Y232.500
G01 X12.500 Y230.000
G01 X25.000 Y230.000
G01 X37.500 Y230.000
G01 X50.000 Y230.000
G01 X62.500 Y230.000
G01 X75.000 Y230.000
G01 X87.500 Y230.000
G01 X100.000 Y230.000
G01 X87.500 Y227.500
G01 X75.000 Y227.500
G01 X62.500 Y227.500
G01 X50.000 Y227.500
G01 X37.500 Y227.500
G01 X25.000 Y227.500
G01 X12.500 Y227.500
G01 X12.500 Y225.000
G01 X25.000 Y225.000
G01 X37.500 Y225.000
G01 X50.000 Y225.000
G01 X62.500 Y225.000
G01 X75.000 Y225.000
G01 X87.500 Y225.000
G01 X100.000 Y225.000
G01 X87.500 Y222.500
G01 X75.000 Y222.500
G01 X62.500 Y222.500
G01 X50.000 Y222.500
G01 X37.500 Y222.500
G01 X25.000 Y222.500
G01 X12.500 Y222.500
G01 X12.500 Y220.000
G01 X25.000 Y220.000
G01 X37.500 Y220.000
G01 X50.000 Y220.000
G01 X62.500 Y220.000
G01 X75.000 Y220.000
G01 X87.500 Y220.000
G01 X100.000 Y220.000
G01 X87.500 Y217.500
G01 X75.000 Y217.500
G01 X62.500 Y217.500
G01 X50.000 Y217.500
G01 X37.500 Y217.500
G01 X25.000 Y217.500
G01 X12.500 Y217.500
G01 X12.500 Y215.000
G01 X25.000 Y215.000
G01 X37.500 Y215.000
G01 X50.000 Y215.000
G01 X62.500 Y215.000
G01 X75.000 Y215.000
G01 X87.500 Y215.000
G01 X100.000 Y215.000
G01 X87.500 Y212.500
G01 X75.000 Y212.500
G01 X62.500 Y212.500
G01 X50.000 Y212.500
G01 X37.500 Y212.500
G01 X25.000 Y212.500
G01 X12.500 Y212.500
G01 X12.500 Y210.000
G01 X25.000 Y210.000
G01 X37.500 Y210.000
G01 X50.000 Y210.000
G01 X62.500 Y210.000
G01 X75.000 Y210.000
G01 X87.500 Y210.000
G01 X100.000 Y210.000
G01 X87.500 Y207.500
G01 X75.000 Y207.500
G01 X62.500 Y207.500
G01 X50.000 Y207.500
G01 X37.500 Y207.500
G01 X25.000 Y207.500
G01 X12.500 Y207.500
G01 X12.500 Y205.000
G01 X25.000 Y205.000
G01 X37.500 Y205.000
G01 X50.000 Y205.000
G01 X62.500 Y205.000
G01 X75.000 Y205.000
G01 X87.500 Y205.000
G01 X100.000 Y205.000
G01 X87.500 Y202.500
G01 X75.000 Y202.500
G01 X62.500 Y202.500
G01 X50.000 Y202.500
G01 X37.500 Y202.500
G01 X25.000 Y202.500
G01 X12.500 Y202.500
G01 X12.500 Y200.000
G01 X25.000 Y200.000
G01 X37.500 Y200.000
G01 X50.000 Y200.000
G01 X62.500 Y200.000
G01 X75.000 Y200.000
G01 X87.500 Y200.000
G01 X100.000 Y200.000
G01 X99.881 Y208.023
G01 X100.000 Y212.500
G01 X99.877 Y220.210
G01 X100.000 Y225.000
G01 X99.875 Y232.498
G01 X100.000 Y237.500
G01 X99.874 Y244.886
G01 X100.000 Y250.000
G01 X99.874 Y257.375
G01 X100.000 Y262.500
G01 X99.875 Y269.967
G01 X100.000 Y275.000
G01 X99.877 Y282.663
G01 X100.000 Y287.500
G01 X99.880 Y295.463
G01 X100.000 Y300.000
G01 X101.573 Y291.504
G01 X102.500 Y287.500
G01 X102.374 Y279.906
G01 X102.500 Y275.000
G01 X102.372 Y267.622
G01 X102.500 Y262.500
G01 X102.371 Y255.237
G01 X102.500 Y250.000
G01 X102.371 Y242.747
G01 X102.500 Y237.500
G01 X102.372 Y230.154
G01 X102.500 Y225.000
G01 X102.374 Y217.455
G01 X102.500 Y212.500
G01 X102.377 Y204.650
G01 X102.500 Y200.000
G01 X104.048 Y208.388
G01 X105.000 Y212.500
G01 X104.871 Y219.978
G01 X105.000 Y225.000
G01 X104.869 Y232.258
G01 X105.000 Y237.500
G01 X104.868 Y244.641
G01 X105.000 Y250.000
G01 X104.868 Y257.130
G01 X105.000 Y262.500
G01 X104.869 Y269.725
G01 X105.000 Y275.000
G01 X104.870 Y282.427
G01 X105.000 Y287.500
G01 X104.874 Y295.237
G01 X105.000 Y300.000
G01 X106.522 Y291.720
G01 X107.500 Y287.500
G01 X107.368 Y280.138
G01 X107.500 Y275.000
G01 X107.366 Y267.862
G01 X107.500 Y262.500
G01 X107.365 Y255.481
G01 X107.500 Y250.000
G01 X107.365 Y242.993
G01 X107.500 Y237.500
G01 X107.366 Y230.397
G01 X107.500 Y225.000
G01 X107.367 Y217.691
G01 X107.500 Y212.500
G01 X107.371 Y204.876
G01 X107.500 Y200.000
G01 X108.997 Y208.173
G01 X110.000 Y212.500
G01 X109.864 Y219.746
G01 X110.000 Y225.000
G01 X109.863 Y232.018
G01 X110.000 Y237.500
G01 X109.862 Y244.397
G01 X110.000 Y250.000
G01 X109.862 Y256.885
G01 X110.000 Y262.500
G01 X109.863 Y269.482
G01 X110.000 Y275.000
G01 X109.864 Y282.191
G01 X110.000 Y287.500
G01 X109.867 Y295.012
G01 X110.000 Y300.000
G01 X111.472 Y291.933
G01 X112.500 Y287.500
G01 X112.361 Y280.369
G01 X112.500 Y275.000
G01 X112.360 Y268.102
G01 X112.500 Y262.500
G01 X112.359 Y255.725
G01 X112.500 Y250.000
G01 X112.359 Y243.238
G01 X112.500 Y237.500
G01 X112.359 Y230.639
G01 X112.500 Y225.000
G01 X112.361 Y217.926
G01 X112.500 Y212.500
G01 X112.364 Y205.100
G01 X112.500 Y200.000
G01 X113.947 Y207.961
G01 X115.000 Y212.500
G01 X114.858 Y219.516
G01 X115.000 Y225.000
G01 X114.856 Y231.778
G01 X115.000 Y237.500
G01 X114.856 Y244.152
G01 X115.000 Y250.000
G01 X114.856 Y256.639
G01 X115.000 Y262.500
G01 X114.856 Y269.240
G01 X115.000 Y275.000
G01 X114.858 Y281.956
G01 X115.000 Y287.500
G01 X114.861 Y294.789
G01 X115.000 Y300.000
G01 X116.422 Y292.144
G01 X117.500 Y287.500
G01 X117.355 Y280.599
G01 X117.500 Y275.000
G01 X117.353 Y268.341
G01 X117.500 Y262.500
G01 X117.353 Y255.970
G01 X117.500 Y250.000
G01 X117.353 Y243.483
G01 X117.500 Y237.500
G01 X117.353 Y230.881
G01 X117.500 Y225.000
G01 X117.354 Y218.161
G01 X117.500 Y212.500
G01 X117.357 Y205.322
G01 X117.500 Y200.000
G01 X118.897 Y207.751
G01 X120.000 Y212.500
G01 X119.851 Y219.286
G01 X120.000 Y225.000
G01 X119.850 Y231.539
G01 X120.000 Y237.500
G01 X119.850 Y243.908
G01 X120.000 Y250.000
G01 X119.850 Y256.394
G01 X120.000 Y262.500
G01 X119.850 Y268.998
G01 X120.000 Y275.000
G01 X119.851 Y281.722
G01 X120.000 Y287.500
G01 X119.854 Y294.567
G01 X120.000 Y300.000
G01 X121.372 Y292.353
G01 X122.500 Y287.500
G01 X122.348 Y280.828
G01 X122.500 Y275.000
G01 X122.347 Y268.580
G01 X122.500 Y262.500
G01 X122.347 Y256.214
G01 X122.500 Y250.000
G01 X122.347 Y243.729
G01 X122.500 Y237.500
G01 X122.347 Y231.123
G01 X122.500 Y225.000
G01 X122.348 Y218.395
G01 X122.500 Y212.500
G01 X122.351 Y205.543
G01 X122.500 Y200.000
G01 X123.847 Y207.544
G01 X125.000 Y212.500
G01 X124.845 Y219.058
G01 X125.000 Y225.000
G01 X124.844 Y231.301
G01 X125.000 Y237.500
G01 X124.844 Y243.664
G01 X124.991 Y249.813
G01 X125.000 Y250.000
G01 X124.844 Y256.149
G01 X124.991 Y262.312
G01 X125.000 Y262.500
G01 X124.844 Y268.756
G01 X125.000 Y275.000
G01 X124.845 Y281.489
G01 X125.000 Y287.500
G01 X124.847 Y294.348
G01 X125.000 Y300.000
G01 X126.323 Y292.559
G01 X127.500 Y287.500
G01 X127.341 Y281.056
G01 X127.500 Y275.000
G01 X127.341 Y268.818
G01 X127.491 Y262.681
G01 X127.500 Y262.500
G01 X127.341 Y256.458
G01 X127.479 Y250.431
G01 X127.500 Y250.000
G01 X127.341 Y243.974
G01 X127.479 Y237.933
G01 X127.500 Y237.500
G01 X127.341 Y231.364
G01 X127.491 Y225.184
G01 X127.500 Y225.000
G01 X127.341 Y218.627
G01 X127.500 Y212.500
G01 X127.344 Y205.761
G01 X127.500 Y200.000
G01 X128.798 Y207.340
G01 X130.000 Y212.500
G01 X129.838 Y218.831
G01 X130.000 Y225.000
G01 X129.838 Y231.063
G01 X129.979 Y237.082
G01 X130.000 Y237.500
G01 X129.838 Y243.420
G01 X129.967 Y249.326
G01 X130.000 Y250.000
G01 X129.838 Y255.903
G01 X129.967 Y261.822
G01 X130.000 Y262.500
G01 X129.838 Y268.515
G01 X129.979 Y274.575
G01 X130.000 Y275.000
G01 X129.838 Y281.257
G01 X130.000 Y287.500
G01 X129.840 Y294.130
G01 X130.000 Y300.000
G01 X131.274 Y292.761
G01 X132.500 Y287.500
G01 X132.335 Y281.282
G01 X132.493 Y275.139
G01 X132.500 Y275.000
G01 X132.334 Y269.056
G01 X132.467 Y263.155
G01 X132.500 Y262.500
G01 X132.335 Y256.702
G01 X132.455 Y250.918
G01 X132.500 Y250.000
G01 X132.335 Y244.219
G01 X132.455 Y238.423
G01 X132.500 Y237.500
G01 X132.335 Y231.606
G01 X132.467 Y225.665
G01 X132.500 Y225.000
G01 X132.335 Y218.859
G01 X132.493 Y212.642
G01 X132.500 Y212.500
G01 X132.337 Y205.977
G01 X132.500 Y200.000
G01 X133.750 Y207.139
G01 X135.000 Y212.500
G01 X134.831 Y218.606
G01 X134.981 Y224.637
G01 X135.000 Y225.000
G01 X134.831 Y230.826
G01 X134.955 Y236.608
G01 X135.000 Y237.500
G01 X134.832 Y243.176
G01 X134.943 Y248.838
G01 X135.000 Y250.000
G01 X134.832 Y255.658
G01 X134.943 Y261.332
G01 X135.000 Y262.500
G01 X134.831 Y268.274
G01 X134.954 Y274.094
G01 X135.000 Y275.000
G01 X134.831 Y281.026
G01 X134.981 Y287.128
G01 X135.000 Y287.500
G01 X134.833 Y293.916
G01 X135.000 Y300.000
G01 X136.226 Y292.960
G01 X137.500 Y287.500
G01 X137.328 Y281.506
G01 X137.469 Y275.587
G01 X137.500 Y275.000
G01 X137.328 Y269.292
G01 X137.443 Y263.628
G01 X137.500 Y262.500
G01 X137.329 Y256.946
G01 X137.431 Y251.405
G01 X137.500 Y250.000
G01 X137.329 Y244.465
G01 X137.430 Y238.913
G01 X137.500 Y237.500
G01 X137.328 Y231.847
G01 X137.442 Y226.147
G01 X137.500 Y225.000
G01 X137.328 Y219.089
G01 X137.468 Y213.102
G01 X137.500 Y212.500
G01 X137.330 Y206.191
G01 X137.500 Y200.000
G01 X138.702 Y206.942
G01 X140.000 Y212.500
G01 X139.824 Y218.382
G01 X139.957 Y224.190
G01 X140.000 Y225.000
G01 X139.825 Y230.589
G01 X139.931 Y236.135
G01 X140.000 Y237.500
G01 X139.826 Y242.932
G01 X139.919 Y248.351
G01 X140.000 Y250.000
G01 X139.826 Y255.413
G01 X139.918 Y260.842
G01 X140.000 Y262.500
G01 X139.825 Y268.033
G01 X139.930 Y273.613
G01 X140.000 Y275.000
G01 X139.824 Y280.796
G01 X139.956 Y286.669
G01 X140.000 Y287.500
G01 X139.826 Y293.704
G01 X140.000 Y300.000
G01 X141.178 Y293.155
G01 X142.500 Y287.500
G01 X142.321 Y281.729
G01 X142.445 Y276.032
G01 X142.500 Y275.000
G01 X142.322 Y269.528
G01 X142.419 Y264.100
G01 X142.500 Y262.500
G01 X142.323 Y257.190
G01 X142.407 Y251.892
G01 X142.500 Y250.000
G01 X142.323 Y244.710
G01 X142.406 Y239.403
G01 X142.500 Y237.500
G01 X142.322 Y232.087
G01 X142.418 Y226.627
G01 X142.500 Y225.000
G01 X142.321 Y219.318
G01 X142.444 Y213.559
G01 X142.500 Y212.500
G01 X142.322 Y206.401
G01 X142.489 Y200.196
G01 X142.500 Y200.000
G01 X143.655 Y206.750
G01 X145.000 Y212.500
G01 X144.817 Y218.161
G01 X144.933 Y223.748
G01 X145.000 Y225.000
G01 X144.818 Y230.354
G01 X144.907 Y235.665
G01 X145.000 Y237.500
G01 X144.820 Y242.688
G01 X144.895 Y247.864
G01 X145.000 Y250.000
G01 X144.820 Y255.167
G01 X144.894 Y260.352
G01 X145.000 Y262.500
G01 X144.819 Y267.793
G01 X144.906 Y273.133
G01 X145.000 Y275.000
G01 X144.817 Y280.568
G01 X144.932 Y286.214
G01 X145.000 Y287.500
G01 X144.818 Y293.495
G01 X144.977 Y299.596
G01 X145.000 Y300.000
G01 X146.132 Y293.344
G01 X147.500 Y287.500
G01 X147.313 Y281.949
G01 X147.421 Y276.472
G01 X147.500 Y275.000
G01 X147.315 Y269.764
G01 X147.395 Y264.570
G01 X147.500 Y262.500
G01 X147.316 Y257.433
G01 X147.383 Y252.379
G01 X147.500 Y250.000
G01 X147.317 Y244.955
G01 X147.382 Y239.893
G01 X147.500 Y237.500
G01 X147.315 Y232.327
G01 X147.394 Y227.106
G01 X147.500 Y225.000
G01 X147.314 Y219.545
G01 X147.420 Y214.013
G01 X147.500 Y212.500
G01 X147.315 Y206.608
G01 X147.466 Y200.609
G01 X147.500 Y200.000
G01 X148.608 Y206.563
G01 X150.000 Y212.500
G01 X149.810 Y217.941
G01 X149.909 Y223.310
G01 X150.000 Y225.000
G01 X149.812 Y230.119
G01 X149.882 Y235.196
G01 X150.000 Y237.500
G01 X149.813 Y242.445
G01 X149.870 Y247.378
G01 X150.000 Y250.000
G01 X149.814 Y254.922
G01 X149.870 Y259.862
G01 X150.000 Y262.500
G01 X149.812 Y267.553
G01 X149.881 Y272.655
G01 X150.000 Y275.000
G01 X149.810 Y280.342
G01 X149.908 Y285.762
G01 X150.000 Y287.500
G01 X149.811 Y293.290
G01 X149.954 Y299.188
G01 X150.000 Y300.000
G01 X151.086 Y293.529
G01 X152.500 Y287.500
G01 X152.306 Y282.167
G01 X152.397 Y276.907
G01 X152.500 Y275.000
G01 X152.308 Y269.998
G01 X152.370 Y265.038
G01 X152.500 Y262.500
G01 X152.310 Y257.677
G01 X152.358 Y252.865
G01 X152.500 Y250.000
G01 X152.311 Y245.201
G01 X152.358 Y240.383
G01 X152.500 Y237.500
G01 X152.309 Y232.566
G01 X152.369 Y227.584
G01 X152.500 Y225.000
G01 X152.307 Y219.770
G01 X152.395 Y214.462
G01 X152.500 Y212.500
G01 X152.307 Y206.810
G01 X152.442 Y201.014
G01 X152.500 Y200.000
G01 X153.563 Y206.382
G01 X155.000 Y212.500
G01 X154.802 Y217.725
G01 X154.885 Y222.877
G01 X155.000 Y225.000
G01 X154.805 Y229.885
G01 X154.858 Y234.729
G01 X155.000 Y237.500
G01 X154.807 Y242.202
G01 X154.846 Y246.892
G01 X155.000 Y250.000
G01 X154.808 Y254.677
G01 X154.846 Y259.372
G01 X155.000 Y262.500
G01 X154.806 Y267.314
G01 X154.857 Y272.177
G01 X155.000 Y275.000
G01 X154.803 Y280.118
G01 X154.883 Y285.314
G01 X155.000 Y287.500
G01 X154.803 Y293.090
G01 X154.931 Y298.788
G01 X155.000 Y300.000
G01 X156.041 Y293.706
G01 X157.462 Y287.639
G01 X157.500 Y287.500
G01 X157.298 Y282.383
G01 X157.372 Y277.337
G01 X157.500 Y275.000
G01 X157.301 Y270.231
G01 X157.346 Y265.503
G01 X157.500 Y262.500
G01 X157.304 Y257.920
G01 X157.334 Y253.351
G01 X157.500 Y250.000
G01 X157.305 Y245.446
G01 X157.334 Y240.873
G01 X157.500 Y237.500
G01 X157.302 Y232.805
G01 X157.345 Y228.061
G01 X157.500 Y225.000
G01 X157.299 Y219.993
G01 X157.371 Y214.908
G01 X157.500 Y212.500
G01 X157.299 Y207.008
G01 X157.419 Y201.409
G01 X157.500 Y200.000
G01 X158.519 Y206.208
G01 X159.916 Y212.191
G01 X160.000 Y212.500
G01 X159.794 Y217.511
G01 X159.860 Y222.450
G01 X160.000 Y225.000
G01 X159.798 Y229.653
G01 X159.834 Y234.265
G01 X160.000 Y237.500
G01 X159.801 Y241.958
G01 X159.822 Y246.406
G01 X160.000 Y250.000
G01 X159.801 Y254.431
G01 X159.822 Y258.882
G01 X160.000 Y262.500
G01 X159.799 Y267.076
G01 X159.832 Y271.701
G01 X160.000 Y275.000
G01 X159.795 Y279.896
G01 X159.858 Y284.872
G01 X160.000 Y287.500
G01 X159.795 Y292.895
G01 X159.907 Y298.398
G01 X160.000 Y300.000
G01 X160.997 Y293.876
G01 X162.371 Y287.974
G01 X162.500 Y287.500
G01 X162.290 Y282.595
G01 X162.348 Y277.760
G01 X162.500 Y275.000
G01 X162.294 Y270.463
G01 X162.321 Y265.966
G01 X162.500 Y262.500
G01 X162.298 Y258.163
G01 X162.310 Y253.836
G01 X162.500 Y250.000
G01 X162.298 Y245.691
G01 X162.310 Y241.363
G01 X162.500 Y237.500
G01 X162.295 Y233.043
G01 X162.320 Y228.537
G01 X162.500 Y225.000
G01 X162.292 Y220.214
G01 X162.346 Y215.348
G01 X162.500 Y212.500
G01 X162.291 Y207.200
G01 X162.396 Y201.792
G01 X162.500 Y200.000
G01 X163.476 Y206.043
G01 X164.827 Y211.865
G01 X165.000 Y212.500
G01 X164.786 Y217.301
G01 X164.835 Y222.031
G01 X165.000 Y225.000
G01 X164.791 Y229.422
G01 X164.809 Y233.804
G01 X165.000 Y237.500
G01 X164.795 Y241.716
G01 X164.798 Y245.921
G01 X165.000 Y250.000
G01 X164.795 Y254.186
G01 X164.798 Y258.392
G01 X165.000 Y262.500
G01 X164.792 Y266.838
G01 X164.807 Y271.227
G01 X165.000 Y275.000
G01 X164.788 Y279.678
G01 X164.833 Y284.435
G01 X165.000 Y287.500
G01 X164.786 Y292.706
G01 X164.884 Y298.021
G01 X165.000 Y300.000
G01 X165.956 Y294.036
G01 X167.284 Y288.291
G01 X167.500 Y287.500
G01 X167.282 Y282.803
G01 X167.323 Y278.176
G01 X167.500 Y275.000
G01 X167.287 Y270.693
G01 X167.296 Y266.426
G01 X167.500 Y262.500
G01 X167.292 Y258.406
G01 X167.286 Y254.321
G01 X167.481 Y250.257
G01 X167.500 Y250.000
G01 X167.292 Y245.937
G01 X167.285 Y241.853
G01 X167.481 Y237.759
