;  Created by Sandify
;  https://sandify.org
;  Version: 0.2.6
;
;  Machine type: Rectangular
;    Min X (mm): 0
;    Max X (mm): 500
;    Min Y (mm): 0
;    Max Y (mm): 500
;  Content type: shape
;  Layer:
;    Shape: FileImport
;    Name: dither_sisinfturn.thr
;    From file:: dither_sisinfturn.thr
;    Aspect Ratio: true
;    Comments: 
;    Visible: true
;    Initial width: 10
;    Initial height: 10
;    X offset: 0
;    Y offset: 0
;    Rotate (degrees): 0
;    Reverse path: false
;    Fine tuning:
;      Connect to next layer: line
;      Draw portion of path (%): 100
;      Backtrack at end (%): 0
;      Rotate starting point (%): 0
;  Reverse export path: false
;
; File name: 'sisinfturn (E) (C C)'
; File type: gcode
;

G01 X250.000 Y250.000
G01 X250.002 Y250.036
G01 X250.007 Y250.071
G01 X250.016 Y250.106
G01 X250.028 Y250.140
G01 X250.043 Y250.173
G01 X250.062 Y250.205
G01 X250.084 Y250.235
G01 X250.109 Y250.264
G01 X250.137 Y250.290
G01 X250.168 Y250.315
G01 X250.202 Y250.337
G01 X250.238 Y250.356
G01 X250.276 Y250.373
G01 X250.317 Y250.386
G01 X250.359 Y250.397
G01 X250.404 Y250.404
G01 X250.450 Y250.407
G01 X250.497 Y250.408
G01 X250.545 Y250.404
G01 X250.593 Y250.397
G01 X250.643 Y250.385
G01 X250.692 Y250.370
G01 X250.742 Y250.351
G01 X250.791 Y250.328
G01 X250.840 Y250.301
G01 X250.888 Y250.269
G01 X250.935 Y250.234
G01 X250.980 Y250.195
G01 X251.024 Y250.152
G01 X251.065 Y250.105
G01 X251.105 Y250.054
G01 X251.142 Y250.000
G01 X251.176 Y249.942
G01 X251.208 Y249.881
G01 X251.236 Y249.817
G01 X251.260 Y249.749
G01 X251.281 Y249.679
G01 X251.298 Y249.606
G01 X251.310 Y249.531
G01 X251.319 Y249.454
G01 X251.323 Y249.374
G01 X251.322 Y249.293
G01 X251.316 Y249.211
G01 X251.306 Y249.128
G01 X251.290 Y249.043
G01 X251.269 Y248.959
G01 X251.243 Y248.874
G01 X251.235 Y248.851
G01 X252.454 Y247.714
G01 X253.658 Y246.588
G01 X254.861 Y245.462
G01 X256.050 Y244.349
G01 X257.224 Y243.246
G01 X258.398 Y242.144
G01 X259.557 Y241.053
G01 X260.703 Y239.973
G01 X261.850 Y238.894
G01 X262.982 Y237.826
G01 X264.102 Y236.769
G01 X265.222 Y235.713
G01 X266.330 Y234.668
G01 X267.425 Y233.634
G01 X268.521 Y232.601
G01 X269.605 Y231.578
G01 X270.678 Y230.567
G01 X271.751 Y229.557
G01 X272.813 Y228.557
G01 X274.917 Y226.580
G01 X275.959 Y225.603
G01 X276.993 Y224.637
G01 X278.026 Y223.672
G01 X279.050 Y222.717
G01 X280.066 Y221.774
G01 X281.081 Y220.830
G01 X282.089 Y219.898
G01 X283.089 Y218.977
G01 X284.090 Y218.056
G01 X285.083 Y217.146
G01 X286.069 Y216.247
G01 X287.056 Y215.348
G01 X288.036 Y214.460
G01 X289.010 Y213.583
G01 X289.985 Y212.706
G01 X290.954 Y211.840
G01 X291.919 Y210.985
G01 X292.883 Y210.130
G01 X293.843 Y209.286
G01 X294.798 Y208.452
G01 X296.710 Y206.786
G01 X298.607 Y205.163
G01 X300.495 Y203.583
G01 X302.384 Y202.004
G01 X304.264 Y200.467
G01 X306.144 Y198.973
G01 X308.023 Y197.479
G01 X309.902 Y196.027
G01 X311.786 Y194.618
G01 X313.671 Y193.209
G01 X315.561 Y191.842
G01 X317.465 Y190.516
G01 X319.369 Y189.191
G01 X321.286 Y187.908
G01 X323.223 Y186.665
G01 X325.160 Y185.423
G01 X327.117 Y184.222
G01 X329.101 Y183.062
G01 X331.086 Y181.902
G01 X333.098 Y180.783
G01 X335.144 Y179.704
G01 X337.190 Y178.625
G01 X339.270 Y177.586
G01 X341.392 Y176.588
G01 X343.514 Y175.589
G01 X345.677 Y174.630
G01 X347.888 Y173.711
G01 X350.100 Y172.792
G01 X352.262 Y171.915
G01 X354.380 Y171.081
G01 X356.498 Y170.246
G01 X358.572 Y169.455
G01 X360.608 Y168.709
G01 X362.644 Y167.962
G01 X364.641 Y167.260
G01 X366.607 Y166.604
G01 X368.572 Y165.948
G01 X370.506 Y165.338
G01 X372.413 Y164.775
G01 X374.320 Y164.212
G01 X376.200 Y163.696
G01 X378.060 Y163.229
G01 X379.920 Y162.762
G01 X381.760 Y162.344
G01 X383.585 Y161.975
G01 X385.410 Y161.607
G01 X387.220 Y161.288
G01 X389.021 Y161.021
G01 X390.823 Y160.754
G01 X392.616 Y160.538
G01 X394.405 Y160.375
G01 X396.195 Y160.212
G01 X397.982 Y160.101
G01 X399.772 Y160.045
G01 X401.562 Y159.989
G01 X403.354 Y159.986
G01 X405.156 Y160.040
G01 X406.958 Y160.093
G01 X408.768 Y160.201
G01 X410.593 Y160.367
G01 X412.418 Y160.532
G01 X414.258 Y160.754
G01 X416.118 Y161.034
G01 X417.978 Y161.315
G01 X419.859 Y161.653
G01 X421.767 Y162.051
G01 X423.674 Y162.449
G01 X425.608 Y162.907
G01 X427.573 Y163.425
G01 X429.539 Y163.944
G01 X431.537 Y164.523
G01 X433.574 Y165.165
G01 X435.610 Y165.806
G01 X437.684 Y166.510
G01 X439.803 Y167.277
G01 X441.736 Y167.978
G01 X443.607 Y168.711
G01 X445.417 Y169.474
G01 X447.227 Y170.236
G01 X448.975 Y171.027
G01 X450.664 Y171.841
G01 X452.353 Y172.656
G01 X453.983 Y173.494
G01 X455.553 Y174.351
G01 X457.123 Y175.209
G01 X458.636 Y176.085
G01 X460.090 Y176.975
G01 X461.545 Y177.865
G01 X462.942 Y178.770
G01 X464.284 Y179.683
G01 X465.625 Y180.597
G01 X466.910 Y181.520
G01 X468.141 Y182.447
G01 X469.372 Y183.375
G01 X470.547 Y184.306
G01 X471.670 Y185.238
G01 X472.792 Y186.170
G01 X473.861 Y187.101
G01 X474.878 Y188.027
G01 X475.894 Y188.953
G01 X476.858 Y189.874
G01 X477.772 Y190.785
G01 X478.685 Y191.696
G01 X479.548 Y192.597
G01 X480.360 Y193.483
G01 X481.986 Y195.256
G01 X483.413 Y196.969
G01 X484.651 Y198.585
G01 X485.889 Y200.201
G01 X486.938 Y201.719
G01 X487.809 Y203.101
G01 X488.680 Y204.483
G01 X489.372 Y205.729
G01 X489.896 Y206.800
G01 X490.596 Y208.232
G01 X491.269 Y209.625
G01 X491.914 Y210.986
G01 X492.559 Y212.347
G01 X493.176 Y213.677
G01 X493.764 Y214.980
G01 X494.352 Y216.284
G01 X494.911 Y217.563
G01 X495.440 Y218.821
G01 X495.969 Y220.080
G01 X496.468 Y221.320
G01 X496.936 Y222.547
G01 X497.404 Y223.774
G01 X497.841 Y224.988
G01 X498.246 Y226.195
G01 X498.651 Y227.402
G01 X499.023 Y228.603
G01 X499.184 Y229.818
G01 X499.874 Y242.070
G01 X499.962 Y254.340
G01 X499.448 Y266.600
G01 X499.318 Y268.459
G01 X499.051 Y270.232
G01 X498.628 Y272.059
G01 X498.202 Y273.898
G01 X497.719 Y275.695
G01 X497.183 Y277.449
G01 X496.646 Y279.202
G01 X496.055 Y280.914
G01 X495.414 Y282.583
G01 X494.773 Y284.253
G01 X494.082 Y285.880
G01 X493.344 Y287.466
G01 X492.605 Y289.051
G01 X491.820 Y290.595
G01 X490.991 Y292.098
G01 X490.163 Y293.601
G01 X489.291 Y295.062
G01 X488.379 Y296.482
G01 X487.467 Y297.902
G01 X486.515 Y299.282
G01 X485.527 Y300.621
G01 X484.539 Y301.959
G01 X483.514 Y303.257
G01 X482.456 Y304.515
G01 X481.399 Y305.773
G01 X480.309 Y306.991
G01 X479.189 Y308.169
G01 X478.069 Y309.346
G01 X476.920 Y310.484
G01 X475.745 Y311.583
G01 X474.570 Y312.681
G01 X473.369 Y313.740
G01 X472.145 Y314.759
G01 X470.922 Y315.779
G01 X469.676 Y316.759
G01 X468.412 Y317.701
G01 X467.147 Y318.643
G01 X465.864 Y319.545
G01 X464.565 Y320.410
G01 X463.266 Y321.274
G01 X461.952 Y322.100
G01 X460.625 Y322.888
G01 X459.299 Y323.676
G01 X457.961 Y324.426
G01 X456.615 Y325.137
G01 X455.269 Y325.850
G01 X453.914 Y326.524
G01 X452.554 Y327.161
G01 X451.194 Y327.798
G01 X449.830 Y328.397
G01 X448.464 Y328.960
G01 X446.860 Y329.620
G01 X443.775 Y330.852
G01 X442.252 Y331.453
G01 X440.766 Y332.024
G01 X439.312 Y332.564
G01 X437.859 Y333.105
G01 X436.438 Y333.615
G01 X435.044 Y334.095
G01 X433.650 Y334.574
G01 X432.283 Y335.024
G01 X430.938 Y335.442
G01 X429.592 Y335.861
G01 X428.269 Y336.249
G01 X426.962 Y336.606
G01 X425.656 Y336.963
G01 X424.365 Y337.289
G01 X423.086 Y337.583
G01 X421.807 Y337.878
G01 X420.540 Y338.142
G01 X419.278 Y338.374
G01 X418.016 Y338.607
G01 X416.760 Y338.808
G01 X415.505 Y338.977
G01 X414.250 Y339.146
G01 X412.996 Y339.284
G01 X411.737 Y339.390
G01 X410.478 Y339.496
G01 X409.214 Y339.570
G01 X407.941 Y339.612
G01 X406.668 Y339.654
G01 X405.384 Y339.664
G01 X404.086 Y339.642
G01 X402.788 Y339.620
G01 X401.474 Y339.565
G01 X400.140 Y339.478
G01 X398.806 Y339.391
G01 X397.452 Y339.271
G01 X396.072 Y339.119
G01 X394.692 Y338.967
G01 X393.286 Y338.782
G01 X391.850 Y338.564
G01 X390.413 Y338.346
G01 X388.946 Y338.095
G01 X387.442 Y337.811
G01 X385.938 Y337.527
G01 X384.398 Y337.210
G01 X382.816 Y336.859
G01 X380.751 Y336.401
G01 X378.739 Y335.932
G01 X376.775 Y335.451
G01 X374.810 Y334.970
G01 X372.894 Y334.477
G01 X371.022 Y333.970
G01 X369.149 Y333.463
G01 X367.321 Y332.942
G01 X365.532 Y332.406
G01 X363.743 Y331.871
G01 X361.994 Y331.320
G01 X360.281 Y330.753
G01 X358.568 Y330.186
G01 X356.890 Y329.603
G01 X355.244 Y329.002
G01 X353.598 Y328.401
G01 X351.984 Y327.782
G01 X350.397 Y327.145
G01 X348.810 Y326.507
G01 X347.251 Y325.851
G01 X345.715 Y325.174
G01 X344.179 Y324.497
G01 X342.666 Y323.800
G01 X341.172 Y323.081
G01 X339.679 Y322.362
G01 X338.205 Y321.622
G01 X336.746 Y320.858
G01 X335.287 Y320.095
G01 X333.843 Y319.309
G01 X332.411 Y318.498
G01 X330.978 Y317.687
G01 X329.556 Y316.852
G01 X328.141 Y315.992
G01 X326.727 Y315.131
G01 X325.319 Y314.245
G01 X323.914 Y313.332
G01 X322.509 Y312.419
G01 X321.107 Y311.479
G01 X319.703 Y310.511
G01 X318.300 Y309.542
G01 X316.895 Y308.546
G01 X315.485 Y307.520
G01 X314.075 Y306.493
G01 X312.660 Y305.438
G01 X311.235 Y304.351
G01 X309.810 Y303.264
G01 X308.376 Y302.147
G01 X306.928 Y300.997
G01 X305.937 Y300.210
G01 X304.825 Y299.292
G01 X303.605 Y298.257
G01 X302.385 Y297.223
G01 X301.058 Y296.073
G01 X299.639 Y294.821
G01 X298.220 Y293.570
G01 X296.708 Y292.218
G01 X293.529 Y289.342
G01 X291.862 Y287.818
G01 X290.132 Y286.224
G01 X288.402 Y284.630
G01 X286.609 Y282.965
G01 X284.768 Y281.246
G01 X283.847 Y280.386
G01 X282.914 Y279.512
G01 X281.972 Y278.626
G01 X281.029 Y277.741
G01 X280.076 Y276.843
G01 X279.114 Y275.936
G01 X278.153 Y275.028
G01 X277.183 Y274.111
G01 X276.206 Y273.185
G01 X275.230 Y272.260
G01 X274.247 Y271.326
G01 X273.259 Y270.386
G01 X272.272 Y269.447
G01 X271.280 Y268.500
G01 X270.284 Y267.550
G01 X269.289 Y266.600
G01 X268.291 Y265.645
G01 X267.292 Y264.688
G01 X266.293 Y263.731
G01 X265.293 Y262.772
G01 X264.294 Y261.812
G01 X263.295 Y260.852
G01 X262.296 Y259.892
G01 X261.300 Y258.933
G01 X260.305 Y257.974
G01 X259.312 Y257.017
G01 X258.323 Y256.063
G01 X257.335 Y255.108
G01 X256.351 Y254.158
G01 X255.373 Y253.212
G01 X254.616 Y252.461
G01 X254.395 Y252.267
G01 X253.967 Y251.805
G01 X253.506 Y251.392
G01 X253.424 Y251.326
G01 X253.225 Y251.070
G01 X253.009 Y250.837
G01 X252.779 Y250.628
G01 X252.536 Y250.444
G01 X252.461 Y250.393
G01 X252.390 Y250.262
G01 X252.313 Y250.139
G01 X252.229 Y250.025
G01 X252.140 Y249.919
G01 X252.047 Y249.821
G01 X251.949 Y249.733
G01 X251.847 Y249.654
G01 X251.743 Y249.584
G01 X251.636 Y249.523
G01 X251.528 Y249.472
G01 X251.498 Y249.460
G01 X251.468 Y249.388
G01 X251.435 Y249.317
G01 X251.398 Y249.248
G01 X251.358 Y249.181
G01 X251.315 Y249.117
G01 X251.269 Y249.054
G01 X251.219 Y248.994
G01 X251.167 Y248.936
G01 X251.113 Y248.882
G01 X251.055 Y248.830
G01 X250.996 Y248.780
G01 X250.934 Y248.734
G01 X250.870 Y248.691
G01 X250.803 Y248.652
G01 X250.736 Y248.615
G01 X250.666 Y248.582
G01 X250.595 Y248.553
G01 X250.543 Y248.534
G01 X250.494 Y248.432
G01 X250.437 Y248.332
G01 X250.371 Y248.234
G01 X250.297 Y248.139
G01 X250.214 Y248.047
G01 X250.123 Y247.958
G01 X250.023 Y247.874
G01 X249.916 Y247.796
G01 X249.801 Y247.722
G01 X249.678 Y247.655
G01 X249.598 Y247.617
G01 X249.427 Y247.390
G01 X249.232 Y247.174
G01 X249.015 Y246.972
G01 X248.777 Y246.785
G01 X248.653 Y246.700
G01 X248.261 Y246.273
G01 X247.824 Y245.877
G01 X247.718 Y245.792
G01 X247.018 Y245.092
G01 X246.795 Y244.895
G01 X245.872 Y243.998
G01 X244.961 Y243.112
G01 X244.064 Y242.238
G01 X242.269 Y240.492
G01 X240.529 Y238.797
G01 X238.859 Y237.169
G01 X237.188 Y235.540
G01 X235.587 Y233.978
G01 X234.071 Y232.499
G01 X232.555 Y231.019
G01 X231.123 Y229.621
G01 X229.790 Y228.320
G01 X228.457 Y227.019
G01 X227.223 Y225.815
G01 X226.102 Y224.724
G01 X224.982 Y223.632
G01 X223.858 Y222.566
G01 X222.733 Y221.523
G01 X221.608 Y220.481
G01 X220.482 Y219.462
G01 X219.356 Y218.466
G01 X218.230 Y217.469
G01 X217.106 Y216.495
G01 X215.984 Y215.542
G01 X214.863 Y214.590
G01 X213.744 Y213.658
G01 X212.631 Y212.746
G01 X211.518 Y211.834
G01 X210.411 Y210.942
G01 X209.310 Y210.068
G01 X208.211 Y209.194
G01 X207.118 Y208.339
G01 X206.036 Y207.500
G01 X204.953 Y206.662
G01 X203.880 Y205.841
G01 X202.820 Y205.035
G01 X201.759 Y204.230
G01 X200.711 Y203.440
G01 X199.677 Y202.664
G01 X198.643 Y201.889
G01 X197.623 Y201.128
G01 X196.620 Y200.379
G01 X195.617 Y199.631
G01 X194.631 Y198.896
G01 X193.663 Y198.172
G01 X191.728 Y196.726
G01 X189.868 Y195.325
G01 X188.102 Y193.961
G01 X186.335 Y192.597
G01 X184.662 Y191.268
G01 X183.100 Y189.965
G01 X181.538 Y188.662
G01 X180.088 Y187.384
G01 X178.767 Y186.120
G01 X177.445 Y184.856
G01 X176.184 Y183.606
G01 X174.985 Y182.353
G01 X173.786 Y181.101
G01 X172.649 Y179.845
G01 X171.576 Y178.570
G01 X170.502 Y177.294
G01 X169.492 Y175.999
G01 X168.547 Y174.667
G01 X167.602 Y173.335
G01 X166.723 Y171.966
G01 X165.910 Y170.544
G01 X165.097 Y169.121
G01 X164.351 Y167.645
G01 X163.673 Y166.099
G01 X162.995 Y164.552
G01 X162.386 Y162.934
G01 X161.847 Y161.229
G01 X161.308 Y159.524
G01 X160.838 Y157.732
G01 X160.441 Y155.835
G01 X160.043 Y153.938
G01 X159.717 Y151.936
G01 X159.465 Y149.814
G01 X159.298 Y148.411
G01 X159.243 Y146.932
G01 X159.287 Y145.407
G01 X159.331 Y143.882
G01 X159.474 Y142.312
G01 X159.704 Y140.724
G01 X159.934 Y139.136
G01 X160.250 Y137.531
G01 X160.641 Y135.940
G01 X161.032 Y134.348
G01 X161.497 Y132.770
G01 X162.023 Y131.233
G01 X162.550 Y129.697
G01 X163.138 Y128.203
G01 X163.775 Y126.781
G01 X164.412 Y125.359
G01 X165.098 Y124.009
G01 X165.821 Y122.761
G01 X166.543 Y121.512
G01 X167.303 Y120.365
G01 X168.086 Y119.349
G01 X168.869 Y118.334
G01 X169.676 Y117.449
G01 X170.494 Y116.724
G01 X171.894 Y115.486
G01 X173.356 Y114.336
G01 X174.867 Y113.277
G01 X176.378 Y112.218
G01 X177.938 Y111.252
G01 X179.534 Y110.381
G01 X181.130 Y109.510
G01 X182.763 Y108.736
G01 X184.418 Y108.062
G01 X186.073 Y107.388
G01 X187.751 Y106.815
G01 X189.439 Y106.346
G01 X191.127 Y105.877
G01 X192.824 Y105.513
G01 X194.518 Y105.259
G01 X196.212 Y105.004
G01 X197.903 Y104.858
G01 X199.577 Y104.826
G01 X201.250 Y104.793
G01 X202.908 Y104.874
G01 X204.535 Y105.072
G01 X206.162 Y105.271
G01 X207.760 Y105.587
G01 X209.314 Y106.025
G01 X211.518 Y106.646
G01 X213.579 Y107.340
G01 X215.508 Y108.103
G01 X217.436 Y108.866
G01 X219.232 Y109.697
G01 X220.902 Y110.589
G01 X222.573 Y111.481
G01 X224.120 Y112.434
G01 X225.551 Y113.442
G01 X226.982 Y114.451
G01 X228.297 Y115.514
G01 X229.505 Y116.626
G01 X230.713 Y117.738
G01 X231.815 Y118.898
G01 X232.818 Y120.101
G01 X233.821 Y121.303
G01 X234.726 Y122.548
G01 X235.541 Y123.829
G01 X236.357 Y125.109
G01 X237.083 Y126.426
G01 X237.728 Y127.772
G01 X238.373 Y129.117
G01 X238.937 Y130.492
G01 X239.430 Y131.890
G01 X240.060 Y133.679
G01 X240.607 Y135.410
G01 X241.065 Y137.094
G01 X241.524 Y138.778
G01 X241.893 Y140.414
G01 X242.169 Y142.014
G01 X242.445 Y143.613
G01 X242.627 Y145.175
G01 X242.710 Y146.711
G01 X242.793 Y148.246
G01 X242.776 Y149.755
G01 X242.655 Y151.248
G01 X242.534 Y152.740
G01 X242.309 Y154.217
G01 X241.973 Y155.687
G01 X241.637 Y157.157
G01 X241.192 Y158.621
G01 X240.631 Y160.090
G01 X240.070 Y161.558
G01 X239.394 Y163.032
G01 X238.597 Y164.519
G01 X237.801 Y166.007
G01 X236.883 Y167.509
G01 X235.840 Y169.037
G01 X234.905 Y170.405
G01 X233.972 Y171.684
G01 X233.018 Y172.879
G01 X232.064 Y174.073
G01 X231.091 Y175.185
G01 X230.078 Y176.217
G01 X229.064 Y177.250
G01 X228.011 Y178.204
G01 X226.897 Y179.085
G01 X225.783 Y179.967
G01 X224.609 Y180.775
G01 X223.354 Y181.515
G01 X222.099 Y182.256
G01 X220.764 Y182.928
G01 X219.327 Y183.539
G01 X217.891 Y184.150
G01 X216.353 Y184.698
G01 X214.694 Y185.189
G01 X213.036 Y185.681
G01 X211.255 Y186.115
G01 X209.334 Y186.498
G01 X207.412 Y186.881
G01 X205.349 Y187.213
G01 X203.124 Y187.498
G01 X200.843 Y187.791
G01 X198.580 Y188.039
G01 X196.210 Y188.118
G01 X195.025 Y188.157
G01 X193.813 Y188.154
G01 X192.559 Y188.092
G01 X191.305 Y188.031
G01 X190.009 Y187.912
G01 X188.655 Y187.718
G01 X187.300 Y187.525
G01 X185.888 Y187.258
G01 X184.402 Y186.902
G01 X182.916 Y186.545
G01 X181.357 Y186.099
G01 X179.708 Y185.549
G01 X178.060 Y184.998
G01 X176.322 Y184.342
G01 X174.479 Y183.565
G01 X172.636 Y182.788
G01 X170.689 Y181.890
G01 X168.621 Y180.856
G01 X166.553 Y179.822
G01 X164.310 Y178.730
G01 X161.925 Y177.611
G01 X160.732 Y177.051
G01 X159.504 Y176.485
G01 X158.244 Y175.916
G01 X156.984 Y175.347
G01 X155.693 Y174.775
G01 X154.374 Y174.204
G01 X153.055 Y173.633
G01 X151.709 Y173.063
G01 X150.339 Y172.498
G01 X148.969 Y171.933
G01 X147.576 Y171.373
G01 X146.163 Y170.822
G01 X144.751 Y170.271
G01 X143.319 Y169.729
G01 X141.871 Y169.200
G01 X140.424 Y168.670
G01 X138.962 Y168.153
G01 X137.488 Y167.653
G01 X136.014 Y167.153
G01 X134.528 Y166.670
G01 X133.036 Y166.207
G01 X131.543 Y165.744
G01 X130.044 Y165.302
G01 X128.541 Y164.884
G01 X127.038 Y164.466
G01 X125.532 Y164.072
G01 X124.026 Y163.707
G01 X122.521 Y163.342
G01 X121.017 Y163.005
G01 X119.517 Y162.701
G01 X118.018 Y162.396
G01 X116.523 Y162.124
G01 X115.038 Y161.888
G01 X113.552 Y161.652
G01 X112.075 Y161.452
G01 X110.612 Y161.292
G01 X109.148 Y161.132
G01 X107.697 Y161.012
G01 X106.264 Y160.936
G01 X104.830 Y160.860
G01 X103.414 Y160.828
G01 X102.018 Y160.843
G01 X99.950 Y160.866
G01 X97.735 Y160.939
G01 X95.404 Y161.072
G01 X93.073 Y161.205
G01 X90.626 Y161.399
G01 X88.096 Y161.666
G01 X86.831 Y161.800
G01 X85.545 Y161.952
G01 X84.242 Y162.123
G01 X82.939 Y162.294
G01 X81.620 Y162.485
G01 X80.287 Y162.698
G01 X78.954 Y162.910
G01 X77.609 Y163.144
G01 X76.254 Y163.400
G01 X74.900 Y163.656
G01 X73.537 Y163.936
G01 X72.168 Y164.239
G01 X70.800 Y164.542
G01 X69.427 Y164.869
G01 X68.053 Y165.223
G01 X66.679 Y165.576
G01 X65.304 Y165.954
G01 X63.932 Y166.360
G01 X62.560 Y166.766
G01 X61.191 Y167.200
G01 X59.830 Y167.661
G01 X58.468 Y168.123
G01 X57.113 Y168.614
G01 X55.770 Y169.135
G01 X54.426 Y169.655
G01 X53.094 Y170.206
G01 X51.777 Y170.789
G01 X50.459 Y171.372
G01 X49.157 Y171.986
G01 X47.874 Y172.633
G01 X46.591 Y173.281
G01 X45.327 Y173.961
G01 X44.086 Y174.677
G01 X42.845 Y175.392
G01 X41.627 Y176.142
G01 X40.436 Y176.928
G01 X39.281 Y177.690
G01 X38.159 Y178.448
G01 X37.068 Y179.204
G01 X35.976 Y179.959
G01 X34.916 Y180.712
G01 X33.886 Y181.464
G01 X31.826 Y182.969
G01 X29.887 Y184.471
G01 X28.062 Y185.984
G01 X26.236 Y187.497
G01 X24.525 Y189.021
G01 X22.920 Y190.570
G01 X21.316 Y192.119
G01 X19.818 Y193.693
G01 X18.421 Y195.305
G01 X17.024 Y196.918
G01 X15.726 Y198.570
G01 X14.522 Y200.275
G01 X13.318 Y201.979
G01 X12.207 Y203.736
G01 X11.182 Y205.560
G01 X10.157 Y207.384
G01 X9.218 Y209.274
G01 X8.359 Y211.245
G01 X7.499 Y213.216
G01 X6.719 Y215.268
G01 X6.011 Y217.414
G01 X5.599 Y218.664
G01 X5.206 Y219.911
G01 X4.834 Y221.156
G01 X4.461 Y222.401
G01 X4.110 Y223.645
G01 X3.780 Y224.887
G01 X3.449 Y226.129
G01 X3.141 Y227.370
G01 X2.855 Y228.611
G01 X2.568 Y229.852
G01 X2.305 Y231.093
G01 X2.065 Y232.335
G01 X1.824 Y233.577
G01 X1.607 Y234.820
G01 X1.415 Y236.064
G01 X1.222 Y237.309
G01 X1.054 Y238.556
G01 X0.912 Y239.805
G01 X0.769 Y241.055
G01 X0.651 Y242.308
G01 X0.560 Y243.564
G01 X0.469 Y244.821
G01 X0.404 Y246.081
G01 X0.367 Y247.347
G01 X0.329 Y248.612
G01 X0.319 Y249.882
G01 X0.336 Y251.159
G01 X0.354 Y252.435
G01 X0.400 Y253.717
G01 X0.475 Y255.006
G01 X0.550 Y256.295
G01 X0.654 Y257.591
G01 X0.789 Y258.895
G01 X0.923 Y260.199
G01 X1.087 Y261.510
G01 X1.283 Y262.831
G01 X1.478 Y264.152
G01 X1.705 Y265.481
G01 X1.963 Y266.821
G01 X2.221 Y268.160
G01 X2.512 Y269.509
G01 X2.835 Y270.870
G01 X3.159 Y272.230
G01 X3.515 Y273.601
G01 X3.905 Y274.983
G01 X4.295 Y276.367
G01 X4.720 Y277.761
G01 X5.179 Y279.169
G01 X5.607 Y280.482
G01 X6.049 Y281.752
G01 X6.506 Y282.981
G01 X6.963 Y284.210
G01 X7.436 Y285.400
G01 X7.925 Y286.552
G01 X8.903 Y288.857
G01 X9.947 Y291.014
G01 X11.065 Y293.051
G01 X12.184 Y295.089
G01 X13.378 Y297.006
G01 X14.656 Y298.831
G01 X15.934 Y300.655
G01 X17.297 Y302.386
G01 X18.754 Y304.052
G01 X20.210 Y305.717
G01 X21.761 Y307.317
G01 X23.415 Y308.877
G01 X25.070 Y310.438
G01 X26.828 Y311.960
G01 X28.698 Y313.471
G01 X30.569 Y314.982
G01 X32.553 Y316.481
G01 X34.659 Y317.995
G01 X35.712 Y318.752
G01 X36.796 Y319.513
G01 X37.912 Y320.282
G01 X39.027 Y321.050
G01 X41.355 Y322.612
G01 X42.458 Y323.347
G01 X43.562 Y324.048
G01 X44.667 Y324.718
G01 X45.772 Y325.388
G01 X46.880 Y326.025
G01 X47.989 Y326.633
G01 X50.208 Y327.848
G01 X52.435 Y328.941
G01 X54.678 Y329.924
G01 X56.920 Y330.908
G01 X59.178 Y331.781
G01 X61.456 Y332.556
G01 X63.734 Y333.331
G01 X66.032 Y334.007
G01 X68.357 Y334.597
G01 X70.682 Y335.186
G01 X73.033 Y335.688
G01 X75.417 Y336.115
G01 X77.800 Y336.543
G01 X80.215 Y336.895
G01 X82.667 Y337.183
G01 X83.894 Y337.326
G01 X85.130 Y337.455
G01 X86.376 Y337.568
G01 X87.622 Y337.682
G01 X88.878 Y337.781
G01 X90.145 Y337.867
G01 X91.411 Y337.953
G01 X92.689 Y338.026
G01 X93.979 Y338.087
G01 X95.268 Y338.148
G01 X96.569 Y338.198
G01 X97.882 Y338.238
G01 X99.292 Y338.280
G01 X100.661 Y338.303
G01 X101.995 Y338.306
G01 X103.328 Y338.310
G01 X104.625 Y338.294
G01 X105.890 Y338.260
G01 X108.419 Y338.192
G01 X110.817 Y338.048
G01 X113.112 Y337.835
G01 X115.407 Y337.621
G01 X117.599 Y337.336
G01 X119.716 Y336.985
G01 X121.833 Y336.634
G01 X123.875 Y336.216
G01 X125.870 Y335.735
G01 X127.866 Y335.254
G01 X129.814 Y334.710
G01 X131.743 Y334.108
G01 X133.673 Y333.506
G01 X135.583 Y332.845
G01 X137.503 Y332.129
G01 X139.423 Y331.413
G01 X141.351 Y330.642
G01 X143.317 Y329.821
G01 X145.283 Y328.999
G01 X147.286 Y328.127
G01 X149.354 Y327.208
G01 X151.422 Y326.289
G01 X153.543 Y325.303
G01 X155.703 Y324.255
G01 X157.863 Y323.206
G01 X160.062 Y322.095
G01 X162.285 Y320.926
G01 X163.397 Y320.341
G01 X164.514 Y319.742
G01 X165.637 Y319.129
G01 X166.759 Y318.515
G01 X167.886 Y317.888
G01 X169.015 Y317.247
G01 X170.144 Y316.606
G01 X171.276 Y315.951
G01 X172.409 Y315.283
G01 X173.542 Y314.615
G01 X174.675 Y313.934
G01 X175.808 Y313.241
G01 X176.941 Y312.548
G01 X178.073 Y311.842
G01 X179.202 Y311.124
G01 X180.331 Y310.406
G01 X181.458 Y309.676
G01 X182.580 Y308.934
G01 X183.702 Y308.192
G01 X184.820 Y307.439
G01 X185.931 Y306.675
G01 X187.043 Y305.911
G01 X188.148 Y305.136
G01 X189.245 Y304.350
G01 X190.343 Y303.564
G01 X191.432 Y302.768
G01 X192.512 Y301.962
G01 X193.591 Y301.155
G01 X194.661 Y300.339
G01 X195.720 Y299.513
G01 X196.778 Y298.687
G01 X197.825 Y297.852
G01 X198.859 Y297.008
G01 X199.892 Y296.164
G01 X200.913 Y295.310
G01 X201.918 Y294.449
G01 X202.923 Y293.587
G01 X203.991 Y292.659
G01 X205.109 Y291.677
G01 X206.227 Y290.696
G01 X207.395 Y289.659
G01 X208.602 Y288.580
G01 X209.809 Y287.501
G01 X211.055 Y286.380
G01 X212.328 Y285.227
G01 X213.601 Y284.074
G01 X214.901 Y282.890
G01 X216.217 Y281.687
G01 X217.532 Y280.484
G01 X218.863 Y279.261
G01 X220.197 Y278.030
G01 X221.532 Y276.800
G01 X222.870 Y275.561
G01 X224.200 Y274.326
G01 X225.530 Y273.091
G01 X226.852 Y271.860
G01 X228.155 Y270.644
G01 X229.457 Y269.428
G01 X230.740 Y268.228
G01 X231.991 Y267.054
G01 X233.242 Y265.881
G01 X234.462 Y264.734
G01 X235.639 Y263.626
G01 X236.815 Y262.518
G01 X237.949 Y261.448
G01 X239.028 Y260.429
G01 X240.107 Y259.409
G01 X241.131 Y258.440
G01 X242.088 Y257.532
G01 X243.045 Y256.625
G01 X243.936 Y255.779
G01 X244.749 Y255.006
G01 X248.000 Y251.916
G01 X247.941 Y251.787
G01 X247.891 Y251.657
G01 X247.847 Y251.527
G01 X247.812 Y251.396
G01 X247.784 Y251.265
G01 X247.763 Y251.135
G01 X247.750 Y251.006
G01 X247.744 Y250.879
G01 X247.745 Y250.753
G01 X247.753 Y250.630
G01 X247.767 Y250.509
G01 X247.787 Y250.391
G01 X247.814 Y250.277
G01 X247.847 Y250.166
G01 X247.885 Y250.059
G01 X247.928 Y249.956
G01 X247.976 Y249.857
G01 X248.029 Y249.763
G01 X248.086 Y249.674
G01 X248.146 Y249.590
G01 X248.211 Y249.511
G01 X248.278 Y249.437
G01 X248.349 Y249.369
G01 X248.422 Y249.306
G01 X248.497 Y249.249
G01 X248.573 Y249.198
G01 X248.651 Y249.152
G01 X248.730 Y249.112
G01 X248.810 Y249.077
G01 X248.889 Y249.048
G01 X248.969 Y249.025
G01 X249.048 Y249.007
G01 X249.127 Y248.994
G01 X249.204 Y248.987
G01 X249.280 Y248.985
G01 X249.354 Y248.987
G01 X249.426 Y248.995
G01 X249.496 Y249.007
G01 X249.563 Y249.023
G01 X249.627 Y249.043
G01 X249.689 Y249.067
G01 X249.746 Y249.095
G01 X249.801 Y249.126
G01 X249.852 Y249.160
G01 X249.898 Y249.197
G01 X249.941 Y249.237
G01 X249.980 Y249.278
G01 X250.014 Y249.322
G01 X250.045 Y249.367
G01 X250.070 Y249.413
G01 X250.092 Y249.460
G01 X250.109 Y249.508
G01 X250.121 Y249.556
G01 X250.129 Y249.604
G01 X250.133 Y249.651
G01 X250.133 Y249.698
G01 X250.128 Y249.744
G01 X250.119 Y249.789
G01 X250.106 Y249.832
G01 X250.089 Y249.873
G01 X250.068 Y249.912
G01 X250.044 Y249.948
G01 X250.017 Y249.982
G01 X250.000 Y250.000
G01 X250.620 Y249.438
G01 X251.294 Y248.938
G01 X251.305 Y248.931
G01 X252.593 Y247.872
G01 X253.865 Y246.825
G01 X255.137 Y245.777
G01 X256.393 Y244.740
G01 X257.634 Y243.713
G01 X258.874 Y242.686
G01 X260.100 Y241.670
G01 X261.312 Y240.665
G01 X262.524 Y239.660
G01 X263.721 Y238.665
G01 X264.905 Y237.681
G01 X266.089 Y236.697
G01 X267.260 Y235.724
G01 X268.418 Y234.761
G01 X269.577 Y233.798
G01 X270.723 Y232.846
G01 X271.857 Y231.904
G01 X272.991 Y230.963
G01 X274.114 Y230.032
G01 X276.339 Y228.191
G01 X277.440 Y227.281
G01 X278.532 Y226.382
G01 X279.624 Y225.483
G01 X280.705 Y224.595
G01 X281.779 Y223.717
G01 X282.852 Y222.839
G01 X283.916 Y221.972
G01 X284.972 Y221.116
G01 X286.028 Y220.259
G01 X287.077 Y219.413
G01 X288.117 Y218.578
G01 X289.159 Y217.743
G01 X290.193 Y216.918
G01 X291.220 Y216.104
G01 X292.248 Y215.290
G01 X293.269 Y214.487
G01 X294.286 Y213.694
G01 X295.302 Y212.901
G01 X296.313 Y212.119
G01 X297.319 Y211.347
G01 X299.331 Y209.804
G01 X301.326 Y208.304
G01 X303.310 Y206.846
G01 X305.294 Y205.388
G01 X307.267 Y203.972
G01 X309.237 Y202.599
G01 X311.207 Y201.226
G01 X313.173 Y199.895
G01 X315.142 Y198.607
G01 X317.111 Y197.319
G01 X319.084 Y196.073
G01 X321.067 Y194.870
G01 X323.050 Y193.667
G01 X325.044 Y192.506
G01 X327.055 Y191.388
G01 X329.066 Y190.270
G01 X331.095 Y189.194
G01 X333.148 Y188.161
G01 X335.202 Y187.128
G01 X337.280 Y186.137
G01 X339.390 Y185.189
G01 X341.499 Y184.240
G01 X343.641 Y183.334
G01 X345.821 Y182.471
G01 X348.001 Y181.608
G01 X350.221 Y180.787
G01 X352.486 Y180.008
G01 X354.751 Y179.230
G01 X356.963 Y178.490
G01 X359.130 Y177.790
G01 X361.296 Y177.091
G01 X363.415 Y176.431
G01 X365.494 Y175.814
G01 X367.573 Y175.197
G01 X369.611 Y174.622
G01 X371.613 Y174.091
G01 X373.616 Y173.559
G01 X375.584 Y173.072
G01 X377.522 Y172.629
G01 X379.461 Y172.187
G01 X381.370 Y171.791
G01 X383.256 Y171.441
G01 X385.142 Y171.092
G01 X387.004 Y170.790
G01 X388.848 Y170.537
G01 X390.693 Y170.283
G01 X392.519 Y170.079
G01 X394.334 Y169.926
G01 X396.149 Y169.772
G01 X397.952 Y169.669
G01 X399.748 Y169.619
G01 X401.545 Y169.569
G01 X403.335 Y169.571
G01 X405.125 Y169.627
G01 X406.915 Y169.683
G01 X408.704 Y169.793
G01 X410.499 Y169.959
G01 X412.293 Y170.125
G01 X414.093 Y170.347
G01 X415.905 Y170.627
G01 X417.716 Y170.907
G01 X419.538 Y171.244
G01 X421.377 Y171.641
G01 X423.216 Y172.037
G01 X425.072 Y172.493
G01 X426.950 Y173.010
G01 X428.828 Y173.527
G01 X430.730 Y174.105
G01 X432.659 Y174.746
G01 X434.588 Y175.387
G01 X436.546 Y176.090
G01 X438.538 Y176.858
G01 X440.530 Y177.627
G01 X442.556 Y178.459
G01 X444.622 Y179.358
G01 X446.508 Y180.179
G01 X448.329 Y181.028
G01 X450.088 Y181.903
G01 X451.846 Y182.777
G01 X453.542 Y183.676
G01 X455.176 Y184.595
G01 X456.811 Y185.515
G01 X458.384 Y186.453
G01 X459.898 Y187.407
G01 X461.411 Y188.362
G01 X462.865 Y189.331
G01 X464.261 Y190.311
G01 X465.657 Y191.291
G01 X466.995 Y192.281
G01 X468.276 Y193.277
G01 X469.557 Y194.273
G01 X470.782 Y195.275
G01 X471.952 Y196.278
G01 X473.122 Y197.281
G01 X474.237 Y198.284
G01 X475.299 Y199.285
G01 X476.360 Y200.285
G01 X477.369 Y201.281
G01 X478.325 Y202.269
G01 X479.282 Y203.258
G01 X480.186 Y204.237
G01 X481.041 Y205.204
G01 X481.895 Y206.170
G01 X482.699 Y207.124
G01 X483.455 Y208.059
G01 X484.966 Y209.930
G01 X486.282 Y211.730
G01 X487.416 Y213.420
G01 X488.550 Y215.111
G01 X489.502 Y216.691
G01 X490.285 Y218.126
G01 X491.067 Y219.560
G01 X491.680 Y220.847
G01 X492.135 Y221.949
G01 X492.744 Y223.421
G01 X493.328 Y224.854
G01 X493.886 Y226.253
G01 X494.444 Y227.652
G01 X494.977 Y229.017
G01 X495.482 Y230.356
G01 X495.987 Y231.694
G01 X496.464 Y233.005
G01 X496.913 Y234.294
G01 X497.362 Y235.584
G01 X497.782 Y236.853
G01 X498.172 Y238.107
G01 X498.562 Y239.360
G01 X498.922 Y240.599
G01 X499.251 Y241.830
G01 X499.579 Y243.060
G01 X499.876 Y244.282
G01 X499.960 Y245.505
G01 X499.879 Y257.775
G01 X499.197 Y270.027
G01 X497.914 Y282.230
G01 X497.667 Y284.078
G01 X497.289 Y285.830
G01 X496.752 Y287.627
G01 X496.212 Y289.436
G01 X495.617 Y291.198
G01 X494.972 Y292.915
G01 X494.326 Y294.632
G01 X493.629 Y296.303
G01 X492.884 Y297.929
G01 X492.140 Y299.555
G01 X491.347 Y301.135
G01 X490.511 Y302.671
G01 X489.675 Y304.208
G01 X488.794 Y305.699
G01 X487.873 Y307.147
G01 X486.951 Y308.594
G01 X485.989 Y309.998
G01 X484.990 Y311.358
G01 X483.991 Y312.719
G01 X482.954 Y314.036
G01 X481.884 Y315.310
G01 X480.813 Y316.584
G01 X479.709 Y317.815
G01 X478.575 Y319.004
G01 X477.440 Y320.193
G01 X476.276 Y321.340
G01 X475.084 Y322.445
G01 X473.893 Y323.550
G01 X472.674 Y324.613
G01 X471.432 Y325.636
G01 X470.191 Y326.658
G01 X468.926 Y327.639
G01 X467.641 Y328.580
G01 X466.356 Y329.521
G01 X465.051 Y330.421
G01 X463.730 Y331.281
G01 X462.409 Y332.142
G01 X461.071 Y332.962
G01 X459.720 Y333.743
G01 X458.370 Y334.525
G01 X457.006 Y335.266
G01 X455.633 Y335.969
G01 X454.260 Y336.672
G01 X452.878 Y337.337
G01 X451.489 Y337.963
G01 X450.101 Y338.589
G01 X448.706 Y339.177
G01 X447.309 Y339.727
G01 X445.912 Y340.277
G01 X444.513 Y340.790
G01 X443.114 Y341.266
G01 X441.472 Y341.824
G01 X438.316 Y342.860
G01 X436.758 Y343.364
G01 X435.239 Y343.840
G01 X433.754 Y344.288
G01 X432.270 Y344.736
G01 X430.820 Y345.156
G01 X429.398 Y345.548
G01 X427.977 Y345.939
G01 X426.584 Y346.301
G01 X425.216 Y346.635
G01 X423.847 Y346.968
G01 X422.502 Y347.272
G01 X421.175 Y347.546
G01 X419.849 Y347.821
G01 X418.540 Y348.065
G01 X417.245 Y348.279
G01 X415.950 Y348.493
G01 X414.669 Y348.676
G01 X413.395 Y348.829
G01 X412.121 Y348.982
G01 X410.855 Y349.103
G01 X409.592 Y349.194
G01 X408.328 Y349.284
G01 X407.068 Y349.343
G01 X405.805 Y349.369
G01 X404.542 Y349.396
G01 X403.276 Y349.391
G01 X402.002 Y349.353
G01 X400.729 Y349.314
G01 X399.448 Y349.244
G01 X398.153 Y349.140
G01 X396.859 Y349.036
G01 X395.551 Y348.900
G01 X394.226 Y348.729
G01 X392.900 Y348.558
G01 X391.556 Y348.354
G01 X390.188 Y348.115
G01 X388.820 Y347.877
G01 X387.429 Y347.604
G01 X386.009 Y347.296
G01 X384.589 Y346.988
G01 X383.140 Y346.646
G01 X381.657 Y346.268
G01 X380.174 Y345.890
G01 X378.656 Y345.476
G01 X377.100 Y345.027
G01 X375.068 Y344.441
G01 X373.089 Y343.846
G01 X371.159 Y343.243
G01 X369.229 Y342.639
G01 X367.347 Y342.027
G01 X365.510 Y341.403
G01 X363.673 Y340.780
G01 X361.881 Y340.145
G01 X360.129 Y339.498
G01 X358.378 Y338.851
G01 X356.667 Y338.192
G01 X354.993 Y337.518
G01 X353.318 Y336.845
G01 X351.681 Y336.157
G01 X350.076 Y335.454
G01 X348.471 Y334.751
G01 X346.898 Y334.032
G01 X345.355 Y333.296
G01 X343.811 Y332.560
G01 X342.296 Y331.807
G01 X340.805 Y331.035
G01 X339.315 Y330.263
G01 X337.849 Y329.473
G01 X336.404 Y328.661
G01 X334.958 Y327.850
G01 X333.534 Y327.019
G01 X332.125 Y326.165
G01 X330.717 Y325.312
G01 X329.326 Y324.436
G01 X327.947 Y323.537
G01 X326.568 Y322.638
G01 X325.201 Y321.716
G01 X323.843 Y320.768
G01 X322.486 Y319.821
G01 X321.136 Y318.848
G01 X319.791 Y317.848
G01 X318.446 Y316.849
G01 X317.106 Y315.823
G01 X315.766 Y314.768
G01 X314.426 Y313.713
G01 X313.087 Y312.631
G01 X311.744 Y311.518
G01 X310.402 Y310.405
G01 X309.055 Y309.263
G01 X307.701 Y308.089
G01 X306.348 Y306.915
G01 X304.986 Y305.709
G01 X303.614 Y304.471
G01 X302.674 Y303.623
G01 X301.621 Y302.637
G01 X300.469 Y301.528
G01 X299.317 Y300.419
G01 X298.065 Y299.188
G01 X296.727 Y297.850
G01 X295.389 Y296.512
G01 X293.965 Y295.067
G01 X290.973 Y291.997
G01 X289.405 Y290.372
G01 X287.778 Y288.673
G01 X286.152 Y286.973
G01 X284.467 Y285.199
G01 X282.737 Y283.367
G01 X281.872 Y282.451
G01 X280.996 Y281.521
G01 X280.111 Y280.578
G01 X279.226 Y279.635
G01 X278.331 Y278.679
G01 X277.428 Y277.713
G01 X276.525 Y276.747
G01 X275.615 Y275.770
G01 X274.699 Y274.785
G01 X273.782 Y273.800
G01 X272.860 Y272.807
G01 X271.933 Y271.807
G01 X271.007 Y270.807
G01 X270.076 Y269.800
G01 X269.142 Y268.789
G01 X268.209 Y267.778
G01 X267.273 Y266.763
G01 X266.336 Y265.745
G01 X265.399 Y264.727
G01 X264.461 Y263.707
G01 X263.524 Y262.686
G01 X262.587 Y261.666
G01 X261.651 Y260.645
G01 X260.717 Y259.625
G01 X259.784 Y258.605
G01 X258.853 Y257.588
G01 X257.926 Y256.573
G01 X256.999 Y255.559
G01 X256.077 Y254.548
G01 X255.161 Y253.543
G01 X254.452 Y252.746
G01 X254.244 Y252.538
G01 X253.846 Y252.051
G01 X253.412 Y251.609
G01 X253.334 Y251.539
G01 X253.151 Y251.271
G01 X252.950 Y251.024
G01 X252.734 Y250.801
G01 X252.503 Y250.602
G01 X252.431 Y250.547
G01 X252.369 Y250.412
G01 X252.299 Y250.284
G01 X252.223 Y250.165
G01 X252.141 Y250.053
G01 X252.054 Y249.950
G01 X251.961 Y249.856
G01 X251.865 Y249.771
G01 X251.765 Y249.694
G01 X251.663 Y249.627
G01 X251.558 Y249.569
G01 X251.529 Y249.555
G01 X251.504 Y249.481
G01 X251.475 Y249.408
G01 X251.443 Y249.337
G01 X251.407 Y249.268
G01 X251.368 Y249.201
G01 X251.326 Y249.136
G01 X251.280 Y249.073
G01 X251.232 Y249.012
G01 X251.181 Y248.954
G01 X251.127 Y248.898
G01 X251.070 Y248.845
G01 X251.011 Y248.795
G01 X250.950 Y248.749
G01 X250.887 Y248.705
G01 X250.821 Y248.664
G01 X250.754 Y248.627
G01 X250.685 Y248.593
G01 X250.634 Y248.571
G01 X250.592 Y248.466
G01 X250.541 Y248.363
G01 X250.482 Y248.261
G01 X250.413 Y248.161
G01 X250.336 Y248.064
G01 X250.251 Y247.970
G01 X250.157 Y247.880
G01 X250.054 Y247.795
G01 X249.944 Y247.714
G01 X249.826 Y247.640
G01 X249.748 Y247.596
G01 X249.592 Y247.359
G01 X249.411 Y247.132
G01 X249.207 Y246.916
G01 X248.981 Y246.715
G01 X248.863 Y246.622
G01 X248.498 Y246.171
G01 X248.087 Y245.749
G01 X247.987 Y245.657
G01 X247.332 Y244.914
G01 X247.122 Y244.704
G01 X246.257 Y243.750
G01 X245.404 Y242.809
G01 X244.563 Y241.881
G01 X242.881 Y240.025
G01 X241.251 Y238.224
G01 X239.686 Y236.494
G01 X238.122 Y234.764
G01 X236.622 Y233.105
G01 X235.202 Y231.533
G01 X233.781 Y229.961
G01 X232.439 Y228.476
G01 X231.191 Y227.094
G01 X229.942 Y225.712
G01 X228.786 Y224.433
G01 X227.737 Y223.273
G01 X226.687 Y222.113
G01 X225.632 Y220.978
G01 X224.575 Y219.867
G01 X223.518 Y218.756
G01 X222.457 Y217.669
G01 X221.397 Y216.604
G01 X220.336 Y215.539
G01 X219.274 Y214.496
G01 X218.215 Y213.475
G01 X217.155 Y212.453
G01 X216.098 Y211.453
G01 X215.044 Y210.473
G01 X213.991 Y209.493
G01 X212.941 Y208.533
G01 X211.898 Y207.592
G01 X210.855 Y206.651
G01 X209.819 Y205.728
G01 X208.791 Y204.824
G01 X207.763 Y203.919
G01 X206.744 Y203.032
G01 X205.736 Y202.162
G01 X204.729 Y201.291
G01 X203.732 Y200.437
G01 X202.749 Y199.598
G01 X201.765 Y198.759
G01 X200.796 Y197.935
G01 X199.841 Y197.126
G01 X198.887 Y196.316
G01 X197.949 Y195.520
G01 X197.028 Y194.737
G01 X195.188 Y193.172
G01 X193.420 Y191.658
G01 X191.742 Y190.185
G01 X190.065 Y188.712
G01 X188.479 Y187.282
G01 X187.002 Y185.883
G01 X185.525 Y184.484
G01 X184.158 Y183.117
G01 X182.918 Y181.773
G01 X181.679 Y180.429
G01 X180.499 Y179.102
G01 X179.381 Y177.777
G01 X178.263 Y176.451
G01 X177.207 Y175.127
G01 X176.216 Y173.786
G01 X175.224 Y172.446
G01 X174.297 Y171.090
G01 X173.438 Y169.701
G01 X172.579 Y168.313
G01 X171.787 Y166.891
G01 X171.065 Y165.421
G01 X170.343 Y163.950
G01 X169.691 Y162.430
G01 X169.111 Y160.844
G01 X168.532 Y159.257
G01 X168.026 Y157.605
G01 X167.595 Y155.869
G01 X167.163 Y154.134
G01 X166.808 Y152.316
G01 X166.530 Y150.397
G01 X166.253 Y148.479
G01 X166.053 Y146.461
G01 X165.934 Y144.326
G01 X165.855 Y142.916
G01 X165.893 Y141.437
G01 X166.033 Y139.918
G01 X166.173 Y138.399
G01 X166.414 Y136.840
G01 X166.743 Y135.270
G01 X167.073 Y133.699
G01 X167.489 Y132.118
G01 X167.979 Y130.554
G01 X168.469 Y128.990
G01 X169.032 Y127.444
G01 X169.654 Y125.944
G01 X170.276 Y124.443
G01 X170.957 Y122.989
G01 X171.682 Y121.610
G01 X172.407 Y120.231
G01 X173.177 Y118.927
G01 X173.976 Y117.726
G01 X174.776 Y116.525
G01 X175.605 Y115.428
G01 X176.451 Y114.464
G01 X177.296 Y113.499
G01 X178.157 Y112.667
G01 X179.020 Y111.995
G01 X180.494 Y110.847
G01 X182.025 Y109.791
G01 X183.600 Y108.829
G01 X185.174 Y107.867
G01 X186.792 Y107.001
G01 X188.440 Y106.232
G01 X190.088 Y105.463
G01 X191.766 Y104.793
G01 X193.460 Y104.224
G01 X195.154 Y103.656
G01 X196.865 Y103.189
G01 X198.579 Y102.827
G01 X200.293 Y102.465
G01 X202.010 Y102.208
G01 X203.716 Y102.060
G01 X205.423 Y101.912
G01 X207.119 Y101.873
G01 X208.792 Y101.946
G01 X210.464 Y102.018
G01 X212.113 Y102.203
G01 X213.725 Y102.504
G01 X215.336 Y102.804
G01 X216.911 Y103.219
G01 X218.435 Y103.754
G01 X220.595 Y104.512
G01 X222.609 Y105.335
G01 X224.486 Y106.217
G01 X226.362 Y107.100
G01 X228.102 Y108.042
G01 X229.714 Y109.037
G01 X231.325 Y110.032
G01 X232.809 Y111.080
G01 X234.174 Y112.176
G01 X235.538 Y113.273
G01 X236.784 Y114.417
G01 X237.920 Y115.602
G01 X239.056 Y116.788
G01 X240.083 Y118.015
G01 X241.008 Y119.278
G01 X241.934 Y120.542
G01 X242.759 Y121.841
G01 X243.492 Y123.170
G01 X244.226 Y124.499
G01 X244.868 Y125.859
G01 X245.427 Y127.242
G01 X245.986 Y128.626
G01 X246.463 Y130.033
G01 X246.867 Y131.460
G01 X247.383 Y133.285
G01 X247.821 Y135.047
G01 X248.172 Y136.756
G01 X248.524 Y138.465
G01 X248.790 Y140.122
G01 X248.965 Y141.735
G01 X249.140 Y143.348
G01 X249.224 Y144.919
G01 X249.210 Y146.457
G01 X249.196 Y147.995
G01 X249.085 Y149.499
G01 X248.871 Y150.981
G01 X248.656 Y152.464
G01 X248.338 Y153.923
G01 X247.911 Y155.369
G01 X247.484 Y156.815
G01 X246.947 Y158.249
G01 X246.295 Y159.679
G01 X245.643 Y161.109
G01 X244.876 Y162.537
G01 X243.987 Y163.972
G01 X243.099 Y165.407
G01 X242.089 Y166.849
G01 X240.951 Y168.308
G01 X239.933 Y169.614
G01 X238.921 Y170.832
G01 X237.894 Y171.964
G01 X236.867 Y173.097
G01 X235.826 Y174.145
G01 X234.750 Y175.112
G01 X233.674 Y176.079
G01 X232.562 Y176.965
G01 X231.395 Y177.774
G01 X230.228 Y178.584
G01 X229.006 Y179.317
G01 X227.707 Y179.977
G01 X226.408 Y180.637
G01 X225.033 Y181.225
G01 X223.561 Y181.744
G01 X222.089 Y182.263
G01 X220.520 Y182.714
G01 X218.833 Y183.100
G01 X217.147 Y183.487
G01 X215.343 Y183.808
G01 X213.401 Y184.070
G01 X211.459 Y184.332
G01 X209.380 Y184.533
G01 X207.141 Y184.678
G01 X204.846 Y184.827
G01 X202.572 Y184.933
G01 X200.202 Y184.862
G01 X199.016 Y184.827
G01 X197.807 Y184.748
G01 X196.560 Y184.608
G01 X195.312 Y184.468
G01 X194.026 Y184.267
G01 X192.686 Y183.989
G01 X191.347 Y183.711
G01 X189.954 Y183.356
G01 X188.494 Y182.907
G01 X187.033 Y182.458
G01 X185.505 Y181.915
G01 X183.894 Y181.262
G01 X182.283 Y180.609
G01 X180.590 Y179.845
G01 X178.799 Y178.954
G01 X177.009 Y178.063
G01 X175.122 Y177.045
G01 X173.123 Y175.883
G01 X171.124 Y174.721
G01 X168.954 Y173.490
G01 X166.644 Y172.223
G01 X165.488 Y171.590
G01 X164.298 Y170.948
G01 X163.077 Y170.301
G01 X161.855 Y169.654
G01 X160.602 Y169.002
G01 X159.322 Y168.349
G01 X158.042 Y167.697
G01 X156.734 Y167.043
G01 X155.402 Y166.393
G01 X154.071 Y165.744
G01 X152.715 Y165.097
G01 X151.340 Y164.459
G01 X149.965 Y163.820
G01 X148.570 Y163.189
G01 X147.159 Y162.570
G01 X145.747 Y161.950
G01 X144.320 Y161.343
G01 X142.880 Y160.751
G01 X141.441 Y160.159
G01 X139.989 Y159.584
G01 X138.528 Y159.028
G01 X137.068 Y158.472
G01 X135.599 Y157.937
G01 X134.125 Y157.425
G01 X132.651 Y156.914
G01 X131.173 Y156.427
G01 X129.693 Y155.968
G01 X128.214 Y155.509
G01 X126.734 Y155.078
G01 X125.256 Y154.680
G01 X123.779 Y154.282
G01 X122.304 Y153.916
G01 X120.837 Y153.587
G01 X119.369 Y153.258
G01 X117.907 Y152.966
G01 X116.457 Y152.714
G01 X115.006 Y152.463
G01 X113.566 Y152.252
G01 X112.140 Y152.086
G01 X110.714 Y151.920
G01 X109.302 Y151.799
G01 X107.909 Y151.727
G01 X105.843 Y151.621
G01 X103.627 Y151.554
G01 X101.293 Y151.540
G01 X98.958 Y151.527
G01 X96.504 Y151.567
G01 X93.962 Y151.675
G01 X92.691 Y151.728
G01 X91.398 Y151.799
G01 X90.087 Y151.888
G01 X88.776 Y151.978
G01 X87.447 Y152.085
G01 X86.104 Y152.214
G01 X84.760 Y152.342
G01 X83.403 Y152.491
G01 X82.035 Y152.661
G01 X80.667 Y152.832
G01 X79.289 Y153.025
G01 X77.904 Y153.242
G01 X76.520 Y153.459
G01 X75.129 Y153.699
G01 X73.735 Y153.965
G01 X72.342 Y154.231
G01 X70.946 Y154.523
G01 X69.551 Y154.842
G01 X68.156 Y155.161
G01 X66.763 Y155.508
G01 X65.375 Y155.883
G01 X63.987 Y156.258
G01 X62.604 Y156.663
G01 X61.231 Y157.098
G01 X59.857 Y157.534
G01 X58.493 Y158.000
G01 X57.141 Y158.499
G01 X55.790 Y158.997
G01 X54.452 Y159.529
G01 X53.131 Y160.094
G01 X51.809 Y160.660
G01 X50.505 Y161.260
G01 X49.222 Y161.896
G01 X47.938 Y162.532
G01 X46.675 Y163.204
G01 X45.437 Y163.914
G01 X44.238 Y164.602
G01 X43.070 Y165.288
G01 X41.933 Y165.973
G01 X40.797 Y166.659
G01 X39.691 Y167.343
G01 X38.616 Y168.030
G01 X36.466 Y169.402
G01 X34.436 Y170.779
G01 X32.519 Y172.174
G01 X30.602 Y173.570
G01 X28.799 Y174.983
G01 X27.100 Y176.428
G01 X25.402 Y177.874
G01 X23.808 Y179.351
G01 X22.312 Y180.872
G01 X20.816 Y182.394
G01 X19.418 Y183.961
G01 X18.109 Y185.587
G01 X16.800 Y187.212
G01 X15.581 Y188.896
G01 X14.443 Y190.652
G01 X13.306 Y192.408
G01 X12.250 Y194.236
G01 X11.269 Y196.149
G01 X10.287 Y198.062
G01 X9.380 Y200.061
G01 X8.539 Y202.158
G01 X8.049 Y203.380
G01 X7.578 Y204.600
G01 X7.129 Y205.819
G01 X6.679 Y207.038
G01 X6.250 Y208.257
G01 X5.842 Y209.476
G01 X5.435 Y210.695
G01 X5.049 Y211.914
G01 X4.685 Y213.135
G01 X4.322 Y214.355
G01 X3.981 Y215.577
G01 X3.663 Y216.801
G01 X3.345 Y218.026
G01 X3.051 Y219.253
G01 X2.781 Y220.483
G01 X2.510 Y221.713
G01 X2.264 Y222.947
G01 X2.043 Y224.185
G01 X1.822 Y225.424
G01 X1.626 Y226.666
G01 X1.457 Y227.915
G01 X1.287 Y229.163
G01 X1.143 Y230.417
G01 X1.026 Y231.677
G01 X0.909 Y232.938
G01 X0.819 Y234.205
G01 X0.756 Y235.480
G01 X0.694 Y236.755
G01 X0.659 Y238.037
G01 X0.653 Y239.328
G01 X0.647 Y240.620
G01 X0.670 Y241.919
G01 X0.722 Y243.229
G01 X0.774 Y244.539
G01 X0.856 Y245.858
G01 X0.968 Y247.189
G01 X1.080 Y248.519
G01 X1.223 Y249.860
G01 X1.396 Y251.213
G01 X1.570 Y252.566
G01 X1.775 Y253.931
G01 X2.013 Y255.309
G01 X2.250 Y256.686
G01 X2.520 Y258.077
G01 X2.822 Y259.482
G01 X3.125 Y260.887
G01 X3.460 Y262.305
G01 X3.830 Y263.739
G01 X4.175 Y265.076
G01 X4.536 Y266.371
G01 X4.916 Y267.627
G01 X5.295 Y268.883
G01 X5.692 Y270.099
G01 X6.108 Y271.280
G01 X6.939 Y273.641
G01 X7.845 Y275.860
G01 X8.834 Y277.964
G01 X9.822 Y280.067
G01 X10.893 Y282.056
G01 X12.054 Y283.957
G01 X13.215 Y285.858
G01 X14.467 Y287.671
G01 X15.816 Y289.425
G01 X17.165 Y291.179
G01 X18.613 Y292.872
G01 X20.166 Y294.534
G01 X21.718 Y296.196
G01 X23.377 Y297.825
G01 X25.150 Y299.450
G01 X26.922 Y301.075
G01 X28.808 Y302.696
G01 X30.815 Y304.339
G01 X31.818 Y305.161
G01 X32.852 Y305.989
G01 X33.917 Y306.826
G01 X34.982 Y307.663
G01 X37.207 Y309.368
G01 X38.262 Y310.170
G01 X39.320 Y310.940
G01 X40.381 Y311.678
G01 X41.442 Y312.415
G01 X42.507 Y313.122
G01 X43.576 Y313.797
G01 X45.714 Y315.149
G01 X47.868 Y316.380
G01 X50.045 Y317.502
G01 X52.221 Y318.625
G01 X54.419 Y319.638
G01 X56.644 Y320.554
G01 X58.869 Y321.470
G01 X61.121 Y322.290
G01 X63.404 Y323.024
G01 X65.687 Y323.758
G01 X68.002 Y324.407
G01 X70.354 Y324.983
G01 X72.705 Y325.560
G01 X75.094 Y326.062
G01 X77.523 Y326.504
G01 X78.738 Y326.724
G01 X79.964 Y326.930
G01 X81.200 Y327.121
G01 X82.436 Y327.313
G01 X83.684 Y327.491
G01 X84.943 Y327.656
G01 X86.202 Y327.821
G01 X87.472 Y327.974
G01 X88.755 Y328.116
G01 X90.038 Y328.259
G01 X91.334 Y328.390
G01 X92.642 Y328.512
G01 X94.046 Y328.643
G01 X95.411 Y328.751
G01 X96.742 Y328.839
G01 X98.073 Y328.926
G01 X99.368 Y328.992
G01 X100.632 Y329.037
G01 X103.161 Y329.128
G01 X105.563 Y329.135
G01 X107.867 Y329.066
G01 X110.170 Y328.997
G01 X112.376 Y328.850
G01 X114.511 Y328.633
G01 X116.646 Y328.415
G01 X118.711 Y328.126
G01 X120.732 Y327.771
G01 X122.754 Y327.417
G01 X124.732 Y326.997
G01 X126.696 Y326.517
G01 X128.659 Y326.037
G01 X130.607 Y325.497
G01 X132.568 Y324.903
G01 X134.529 Y324.309
G01 X136.502 Y323.661
G01 X138.516 Y322.965
G01 X140.529 Y322.268
G01 X142.583 Y321.523
G01 X144.705 Y320.736
G01 X146.826 Y319.948
G01 X149.005 Y319.098
G01 X151.227 Y318.187
G01 X153.448 Y317.276
G01 X155.712 Y316.306
G01 X158.005 Y315.278
G01 X159.151 Y314.765
G01 X160.304 Y314.237
G01 X161.463 Y313.695
G01 X162.621 Y313.153
G01 X163.785 Y312.598
G01 X164.952 Y312.029
G01 X166.120 Y311.460
G01 X167.291 Y310.878
G01 X168.463 Y310.282
G01 X169.636 Y309.687
G01 X170.810 Y309.079
G01 X171.984 Y308.458
G01 X173.158 Y307.837
G01 X174.332 Y307.203
G01 X175.504 Y306.558
G01 X176.676 Y305.912
G01 X177.846 Y305.254
G01 X179.013 Y304.584
G01 X180.179 Y303.915
G01 X181.342 Y303.233
G01 X182.499 Y302.540
G01 X183.656 Y301.847
G01 X184.808 Y301.143
G01 X185.953 Y300.428
G01 X187.097 Y299.712
G01 X188.235 Y298.986
G01 X189.363 Y298.249
G01 X190.491 Y297.512
G01 X191.610 Y296.765
G01 X192.718 Y296.007
G01 X193.826 Y295.250
G01 X194.923 Y294.482
G01 X196.008 Y293.704
G01 X197.093 Y292.926
G01 X198.164 Y292.139
G01 X199.222 Y291.342
G01 X200.279 Y290.545
G01 X201.403 Y289.686
G01 X202.580 Y288.777
G01 X203.758 Y287.867
G01 X204.989 Y286.906
G01 X206.261 Y285.905
G01 X207.534 Y284.904
G01 X208.848 Y283.863
G01 X210.191 Y282.792
G01 X211.533 Y281.722
G01 X212.905 Y280.622
G01 X214.294 Y279.503
G01 X215.682 Y278.385
G01 X217.087 Y277.248
G01 X218.496 Y276.104
G01 X219.905 Y274.959
G01 X221.318 Y273.807
G01 X222.724 Y272.658
G01 X224.128 Y271.509
G01 X225.525 Y270.363
G01 X226.901 Y269.232
G01 X228.278 Y268.100
G01 X229.633 Y266.982
G01 X230.956 Y265.890
G01 X232.278 Y264.797
G01 X233.567 Y263.729
G01 X234.811 Y262.697
G01 X236.055 Y261.665
G01 X237.254 Y260.669
G01 X238.395 Y259.719
G01 X239.535 Y258.769
G01 X240.618 Y257.866
G01 X241.631 Y257.021
G01 X242.643 Y256.175
G01 X243.585 Y255.387
G01 X244.445 Y254.667
G01 X247.884 Y251.787
G01 X247.834 Y251.654
G01 X247.792 Y251.521
G01 X247.758 Y251.387
G01 X247.732 Y251.254
G01 X247.713 Y251.121
G01 X247.701 Y250.990
G01 X247.697 Y250.861
G01 X247.700 Y250.733
G01 X247.710 Y250.608
G01 X247.726 Y250.486
G01 X247.749 Y250.366
G01 X247.778 Y250.250
G01 X247.813 Y250.138
G01 X247.853 Y250.030
G01 X247.899 Y249.926
G01 X247.949 Y249.827
G01 X248.004 Y249.732
G01 X248.063 Y249.643
G01 X248.126 Y249.559
G01 X248.193 Y249.479
G01 X248.263 Y249.406
G01 X248.335 Y249.338
G01 X248.410 Y249.275
G01 X248.487 Y249.219
G01 X248.566 Y249.168
G01 X248.646 Y249.122
G01 X248.727 Y249.083
G01 X248.808 Y249.049
G01 X248.889 Y249.021
G01 X248.971 Y248.999
G01 X249.051 Y248.982
G01 X249.131 Y248.971
G01 X249.210 Y248.965
G01 X249.287 Y248.964
G01 X249.362 Y248.968
G01 X249.435 Y248.977
G01 X249.505 Y248.990
G01 X249.573 Y249.008
G01 X249.638 Y249.030
G01 X249.699 Y249.056
G01 X249.757 Y249.085
G01 X249.812 Y249.118
G01 X249.862 Y249.154
G01 X249.909 Y249.192
G01 X249.952 Y249.233
G01 X249.990 Y249.276
G01 X250.024 Y249.321
G01 X250.053 Y249.367
G01 X250.078 Y249.414
G01 X250.099 Y249.463
G01 X250.115 Y249.512
G01 X250.127 Y249.560
G01 X250.134 Y249.609
G01 X250.136 Y249.658
G01 X250.134 Y249.705
G01 X250.128 Y249.752
G01 X250.118 Y249.797
G01 X250.104 Y249.840
G01 X250.085 Y249.881
G01 X250.063 Y249.921
G01 X250.038 Y249.957
G01 X250.009 Y249.991
G01 X250.000 Y250.000
G01 X250.379 Y249.656
G01 X250.791 Y249.351
G01 X251.233 Y249.085
G01 X251.369 Y249.015
G01 X252.721 Y248.039
G01 X254.057 Y247.073
G01 X255.392 Y246.108
G01 X256.710 Y245.151
G01 X258.013 Y244.205
G01 X259.316 Y243.258
G01 X260.603 Y242.321
G01 X261.876 Y241.394
G01 X263.148 Y240.466
G01 X264.406 Y239.549
G01 X265.649 Y238.641
G01 X266.893 Y237.733
G01 X268.122 Y236.835
G01 X269.339 Y235.947
G01 X270.555 Y235.059
G01 X271.759 Y234.181
G01 X272.950 Y233.312
G01 X274.141 Y232.444
G01 X275.321 Y231.585
G01 X276.488 Y230.737
G01 X277.656 Y229.888
G01 X278.813 Y229.049
G01 X279.959 Y228.220
G01 X281.105 Y227.392
G01 X282.240 Y226.573
G01 X283.366 Y225.764
G01 X284.492 Y224.956
G01 X285.609 Y224.157
G01 X286.717 Y223.369
G01 X287.825 Y222.580
G01 X288.924 Y221.802
G01 X290.015 Y221.033
G01 X291.107 Y220.265
G01 X292.190 Y219.507
G01 X293.267 Y218.759
G01 X294.344 Y218.011
G01 X295.414 Y217.273
G01 X296.478 Y216.546
G01 X297.542 Y215.819
G01 X298.600 Y215.101
G01 X299.653 Y214.395
G01 X301.758 Y212.981
G01 X303.843 Y211.609
G01 X305.915 Y210.278
G01 X307.986 Y208.947
G01 X310.045 Y207.659
G01 X312.097 Y206.412
G01 X314.148 Y205.165
G01 X316.194 Y203.961
G01 X318.240 Y202.799
G01 X320.287 Y201.637
G01 X322.333 Y200.517
G01 X324.388 Y199.441
G01 X326.443 Y198.365
G01 X328.506 Y197.332
G01 X330.583 Y196.342
G01 X332.660 Y195.352
G01 X334.753 Y194.406
G01 X336.867 Y193.504
G01 X338.981 Y192.602
G01 X341.118 Y191.743
G01 X343.283 Y190.929
G01 X345.448 Y190.115
G01 X347.642 Y189.346
G01 X349.872 Y188.621
G01 X352.102 Y187.896
G01 X354.369 Y187.216
G01 X356.678 Y186.581
G01 X358.988 Y185.947
G01 X361.243 Y185.347
G01 X363.448 Y184.785
G01 X365.654 Y184.223
G01 X367.811 Y183.698
G01 X369.924 Y183.213
G01 X372.037 Y182.727
G01 X374.107 Y182.281
G01 X376.140 Y181.877
G01 X378.172 Y181.472
G01 X380.166 Y181.109
G01 X382.129 Y180.789
G01 X384.091 Y180.470
G01 X386.022 Y180.194
G01 X387.926 Y179.964
G01 X389.830 Y179.733
G01 X391.707 Y179.549
G01 X393.564 Y179.412
G01 X395.421 Y179.275
G01 X397.256 Y179.186
G01 X399.077 Y179.147
G01 X400.898 Y179.107
G01 X402.704 Y179.118
G01 X404.500 Y179.180
G01 X406.296 Y179.243
G01 X408.083 Y179.357
G01 X409.865 Y179.526
G01 X411.648 Y179.694
G01 X413.427 Y179.916
G01 X415.208 Y180.195
G01 X416.988 Y180.474
G01 X418.771 Y180.808
G01 X420.561 Y181.201
G01 X422.351 Y181.594
G01 X424.148 Y182.045
G01 X425.959 Y182.556
G01 X427.769 Y183.067
G01 X429.593 Y183.639
G01 X431.435 Y184.273
G01 X433.277 Y184.907
G01 X435.138 Y185.603
G01 X437.024 Y186.364
G01 X438.909 Y187.124
G01 X440.819 Y187.950
G01 X442.759 Y188.841
G01 X444.699 Y189.733
G01 X446.669 Y190.691
G01 X448.674 Y191.718
G01 X450.504 Y192.655
G01 X452.268 Y193.618
G01 X453.968 Y194.601
G01 X455.669 Y195.584
G01 X457.304 Y196.588
G01 X458.878 Y197.608
G01 X460.452 Y198.627
G01 X461.963 Y199.663
G01 X463.414 Y200.711
G01 X464.864 Y201.758
G01 X466.254 Y202.816
G01 X467.586 Y203.882
G01 X468.918 Y204.948
G01 X470.191 Y206.020
G01 X471.407 Y207.094
G01 X472.623 Y208.169
G01 X473.783 Y209.246
G01 X474.887 Y210.320
G01 X475.992 Y211.394
G01 X477.042 Y212.466
G01 X478.039 Y213.531
G01 X479.035 Y214.596
G01 X479.979 Y215.654
G01 X480.872 Y216.700
G01 X481.764 Y217.746
G01 X482.605 Y218.781
G01 X483.397 Y219.799
G01 X484.190 Y220.817
G01 X484.932 Y221.819
G01 X485.628 Y222.800
G01 X487.018 Y224.763
G01 X488.219 Y226.641
G01 X489.244 Y228.400
G01 X490.270 Y230.158
G01 X491.121 Y231.796
G01 X491.812 Y233.276
G01 X492.502 Y234.756
G01 X493.033 Y236.079
G01 X493.419 Y237.208
G01 X493.934 Y238.716
G01 X494.427 Y240.182
G01 X494.896 Y241.614
G01 X495.365 Y243.045
G01 X495.811 Y244.441
G01 X496.231 Y245.808
G01 X496.651 Y247.176
G01 X497.045 Y248.514
G01 X497.412 Y249.829
G01 X497.779 Y251.144
G01 X498.119 Y252.437
G01 X498.430 Y253.713
G01 X498.740 Y254.988
G01 X499.021 Y256.248
G01 X499.272 Y257.496
G01 X499.522 Y258.745
G01 X499.742 Y259.983
G01 X499.749 Y261.208
G01 X498.898 Y273.449
G01 X497.447 Y285.634
G01 X495.401 Y297.733
G01 X495.038 Y299.562
G01 X494.551 Y301.287
G01 X493.903 Y303.047
G01 X493.250 Y304.818
G01 X492.546 Y306.540
G01 X491.794 Y308.212
G01 X491.041 Y309.885
G01 X490.241 Y311.509
G01 X489.395 Y313.085
G01 X488.550 Y314.661
G01 X487.660 Y316.189
G01 X486.729 Y317.669
G01 X485.798 Y319.150
G01 X484.825 Y320.583
G01 X483.815 Y321.970
G01 X482.804 Y323.357
G01 X481.756 Y324.698
G01 X480.673 Y325.993
G01 X479.591 Y327.287
G01 X478.473 Y328.536
G01 X477.325 Y329.741
G01 X476.177 Y330.945
G01 X474.998 Y332.104
G01 X473.791 Y333.220
G01 X472.584 Y334.335
G01 X471.350 Y335.407
G01 X470.091 Y336.435
G01 X468.832 Y337.463
G01 X467.550 Y338.448
G01 X466.246 Y339.390
G01 X464.943 Y340.333
G01 X463.619 Y341.233
G01 X462.277 Y342.091
G01 X460.936 Y342.949
G01 X459.577 Y343.766
G01 X458.204 Y344.541
G01 X456.832 Y345.317
G01 X455.445 Y346.052
G01 X454.048 Y346.747
G01 X452.651 Y347.442
G01 X451.244 Y348.096
G01 X449.829 Y348.712
G01 X448.415 Y349.327
G01 X446.993 Y349.903
G01 X445.568 Y350.441
G01 X444.143 Y350.979
G01 X442.715 Y351.478
G01 X441.286 Y351.939
G01 X439.857 Y352.401
G01 X438.428 Y352.824
G01 X437.003 Y353.211
G01 X435.328 Y353.666
G01 X432.114 Y354.501
G01 X430.527 Y354.906
G01 X428.981 Y355.286
G01 X427.472 Y355.640
G01 X425.962 Y355.994
G01 X424.488 Y356.322
G01 X423.045 Y356.624
G01 X421.602 Y356.925
G01 X420.189 Y357.199
G01 X418.802 Y357.446
G01 X417.415 Y357.693
G01 X416.054 Y357.912
G01 X414.712 Y358.102
G01 X413.371 Y358.292
G01 X412.050 Y358.454
G01 X410.744 Y358.586
G01 X409.438 Y358.719
G01 X408.148 Y358.821
G01 X406.867 Y358.894
G01 X405.586 Y358.966
G01 X404.315 Y359.008
G01 X403.048 Y359.019
G01 X401.782 Y359.029
G01 X400.520 Y359.009
G01 X399.258 Y358.956
G01 X397.996 Y358.903
G01 X396.733 Y358.819
G01 X395.464 Y358.701
G01 X394.196 Y358.583
G01 X392.921 Y358.432
G01 X391.636 Y358.247
G01 X390.351 Y358.062
G01 X389.054 Y357.844
G01 X387.742 Y357.590
G01 X386.429 Y357.336
G01 X385.101 Y357.048
G01 X383.751 Y356.724
G01 X382.401 Y356.400
G01 X381.029 Y356.040
G01 X379.631 Y355.644
G01 X378.233 Y355.248
G01 X376.809 Y354.815
G01 X375.352 Y354.345
G01 X373.896 Y353.874
G01 X372.408 Y353.366
G01 X370.882 Y352.820
G01 X368.892 Y352.107
G01 X366.954 Y351.390
G01 X365.065 Y350.667
G01 X363.176 Y349.943
G01 X361.337 Y349.213
G01 X359.543 Y348.476
G01 X357.749 Y347.738
G01 X356.000 Y346.992
G01 X354.292 Y346.237
G01 X352.585 Y345.481
G01 X350.919 Y344.715
G01 X349.290 Y343.938
G01 X347.661 Y343.161
G01 X346.070 Y342.372
G01 X344.513 Y341.569
G01 X342.955 Y340.767
G01 X341.431 Y339.951
G01 X339.936 Y339.119
G01 X338.442 Y338.288
G01 X336.977 Y337.441
G01 X335.538 Y336.577
G01 X334.099 Y335.713
G01 X332.686 Y334.832
G01 X331.294 Y333.931
G01 X329.902 Y333.031
G01 X328.533 Y332.112
G01 X327.181 Y331.172
G01 X325.829 Y330.231
G01 X324.495 Y329.270
G01 X323.175 Y328.287
G01 X321.856 Y327.303
G01 X320.550 Y326.296
G01 X319.254 Y325.265
G01 X317.958 Y324.234
G01 X316.673 Y323.179
G01 X315.393 Y322.097
G01 X314.114 Y321.015
G01 X312.841 Y319.906
G01 X311.570 Y318.770
G01 X310.299 Y317.633
G01 X309.030 Y316.468
G01 X307.760 Y315.273
G01 X306.490 Y314.079
G01 X305.218 Y312.854
G01 X303.940 Y311.597
G01 X302.663 Y310.340
G01 X301.380 Y309.052
G01 X300.088 Y307.730
G01 X299.203 Y306.825
G01 X298.214 Y305.774
G01 X297.134 Y304.595
G01 X296.054 Y303.416
G01 X294.881 Y302.109
G01 X293.630 Y300.689
G01 X292.379 Y299.270
G01 X291.048 Y297.739
G01 X288.255 Y294.487
G01 X286.792 Y292.767
G01 X285.276 Y290.968
G01 X283.759 Y289.170
G01 X282.189 Y287.294
G01 X280.578 Y285.357
G01 X279.772 Y284.388
G01 X278.956 Y283.405
G01 X278.132 Y282.408
G01 X277.307 Y281.411
G01 X276.474 Y280.401
G01 X275.634 Y279.381
G01 X274.794 Y278.360
G01 X273.947 Y277.328
G01 X273.094 Y276.287
G01 X272.241 Y275.246
G01 X271.383 Y274.197
G01 X270.521 Y273.141
G01 X269.659 Y272.085
G01 X268.793 Y271.022
G01 X267.925 Y269.954
G01 X267.057 Y268.887
G01 X266.186 Y267.814
G01 X265.315 Y266.740
G01 X264.444 Y265.665
G01 X263.572 Y264.588
G01 X262.701 Y263.511
G01 X261.830 Y262.433
G01 X260.959 Y261.355
G01 X260.092 Y260.279
G01 X259.224 Y259.203
G01 X258.359 Y258.128
G01 X257.498 Y257.058
G01 X256.637 Y255.987
G01 X255.779 Y254.921
G01 X254.928 Y253.860
G01 X254.271 Y253.020
G01 X254.077 Y252.800
G01 X253.710 Y252.288
G01 X253.304 Y251.820
G01 X253.231 Y251.745
G01 X253.065 Y251.466
G01 X252.880 Y251.208
G01 X252.678 Y250.971
G01 X252.461 Y250.758
G01 X252.392 Y250.698
G01 X252.338 Y250.560
G01 X252.277 Y250.428
G01 X252.209 Y250.304
G01 X252.134 Y250.188
G01 X252.053 Y250.079
G01 X251.967 Y249.979
G01 X251.876 Y249.888
G01 X251.781 Y249.806
G01 X251.683 Y249.732
G01 X251.582 Y249.668
G01 X251.554 Y249.652
G01 X251.533 Y249.576
G01 X251.509 Y249.502
G01 X251.481 Y249.429
G01 X251.450 Y249.358
G01 X251.415 Y249.288
G01 X251.377 Y249.221
G01 X251.336 Y249.155
G01 X251.292 Y249.091
G01 X251.244 Y249.030
G01 X251.194 Y248.971
G01 X251.141 Y248.915
G01 X251.085 Y248.861
G01 X251.027 Y248.811
G01 X250.966 Y248.763
G01 X250.903 Y248.718
G01 X250.839 Y248.677
G01 X250.772 Y248.639
G01 X250.722 Y248.613
G01 X250.687 Y248.507
G01 X250.643 Y248.400
G01 X250.590 Y248.295
G01 X250.528 Y248.191
G01 X250.457 Y248.089
G01 X250.378 Y247.990
G01 X250.289 Y247.894
G01 X250.193 Y247.802
G01 X250.088 Y247.715
G01 X249.975 Y247.634
G01 X249.900 Y247.585
G01 X249.758 Y247.338
G01 X249.592 Y247.100
G01 X249.403 Y246.873
G01 X249.190 Y246.657
G01 X249.077 Y246.557
G01 X248.742 Y246.084
G01 X248.358 Y245.637
G01 X248.264 Y245.539
G01 X247.657 Y244.757
G01 X247.460 Y244.533
G01 X246.657 Y243.528
G01 X245.864 Y242.535
G01 X245.083 Y241.556
G01 X243.521 Y239.598
G01 X242.008 Y237.698
G01 X240.555 Y235.873
G01 X239.102 Y234.049
G01 X237.709 Y232.298
G01 X236.390 Y230.640
G01 X235.071 Y228.982
G01 X233.826 Y227.415
G01 X232.666 Y225.958
G01 X231.507 Y224.500
G01 X230.433 Y223.151
G01 X229.459 Y221.928
G01 X228.484 Y220.704
G01 X227.503 Y219.506
G01 X226.517 Y218.330
G01 X225.532 Y217.155
G01 X224.542 Y216.003
G01 X223.550 Y214.874
G01 X222.558 Y213.744
G01 X221.564 Y212.637
G01 X220.571 Y211.551
G01 X219.578 Y210.465
G01 X218.585 Y209.400
G01 X217.595 Y208.356
G01 X216.605 Y207.312
G01 X215.618 Y206.288
G01 X214.636 Y205.283
G01 X213.654 Y204.278
G01 X212.678 Y203.293
G01 X211.709 Y202.325
G01 X210.740 Y201.358
G01 X209.779 Y200.409
G01 X208.828 Y199.477
G01 X207.876 Y198.544
G01 X206.935 Y197.629
G01 X206.007 Y196.730
G01 X205.078 Y195.831
G01 X204.162 Y194.948
G01 X203.260 Y194.080
G01 X202.359 Y193.212
G01 X201.472 Y192.359
G01 X200.603 Y191.520
G01 X198.864 Y189.842
G01 X197.195 Y188.220
G01 X195.613 Y186.645
G01 X194.032 Y185.070
G01 X192.538 Y183.542
G01 X191.152 Y182.054
G01 X189.766 Y180.565
G01 X188.487 Y179.115
G01 X187.335 Y177.695
G01 X186.182 Y176.276
G01 X185.088 Y174.878
G01 X184.055 Y173.485
G01 X183.023 Y172.092
G01 X182.052 Y170.704
G01 X181.146 Y169.304
G01 X180.241 Y167.904
G01 X179.402 Y166.492
G01 X178.631 Y165.052
G01 X177.861 Y163.612
G01 X177.160 Y162.144
G01 X176.531 Y160.631
G01 X175.903 Y159.118
G01 X175.348 Y157.560
G01 X174.869 Y155.940
G01 X174.391 Y154.321
G01 X173.989 Y152.640
G01 X173.668 Y150.881
G01 X173.346 Y149.122
G01 X173.106 Y147.285
G01 X172.949 Y145.353
G01 X172.792 Y143.421
G01 X172.720 Y141.394
G01 X172.735 Y139.256
G01 X172.745 Y137.844
G01 X172.876 Y136.370
G01 X173.111 Y134.863
G01 X173.345 Y133.355
G01 X173.685 Y131.815
G01 X174.112 Y130.268
G01 X174.539 Y128.722
G01 X175.054 Y127.170
G01 X175.641 Y125.640
G01 X176.228 Y124.110
G01 X176.887 Y122.602
G01 X177.602 Y121.143
G01 X178.317 Y119.685
G01 X179.088 Y118.277
G01 X179.898 Y116.946
G01 X180.708 Y115.615
G01 X181.558 Y114.362
G01 X182.432 Y113.214
G01 X183.305 Y112.066
G01 X184.202 Y111.023
G01 X185.106 Y110.113
G01 X186.011 Y109.203
G01 X186.922 Y108.427
G01 X187.825 Y107.811
G01 X189.369 Y106.758
G01 X190.963 Y105.799
G01 X192.595 Y104.938
G01 X194.227 Y104.077
G01 X195.896 Y103.314
G01 X197.589 Y102.650
G01 X199.281 Y101.987
G01 X200.998 Y101.423
G01 X202.725 Y100.962
G01 X204.451 Y100.501
G01 X206.188 Y100.142
G01 X207.921 Y99.888
G01 X209.654 Y99.635
G01 X211.384 Y99.487
G01 X213.097 Y99.446
G01 X214.809 Y99.406
G01 X216.505 Y99.473
G01 X218.169 Y99.651
G01 X219.834 Y99.828
G01 X221.468 Y100.116
G01 X223.058 Y100.517
G01 X224.647 Y100.918
G01 X226.193 Y101.431
G01 X227.680 Y102.061
G01 X229.788 Y102.953
G01 X231.746 Y103.901
G01 X233.564 Y104.899
G01 X235.382 Y105.898
G01 X237.059 Y106.947
G01 X238.605 Y108.041
G01 X240.151 Y109.135
G01 X241.566 Y110.275
G01 X242.859 Y111.455
G01 X244.152 Y112.634
G01 X245.324 Y113.854
G01 X246.383 Y115.109
G01 X247.442 Y116.363
G01 X248.390 Y117.653
G01 X249.234 Y118.971
G01 X250.078 Y120.291
G01 X250.820 Y121.639
G01 X251.469 Y123.011
G01 X252.117 Y124.384
G01 X252.672 Y125.781
G01 X253.144 Y127.197
G01 X253.615 Y128.613
G01 X254.003 Y130.048
G01 X254.316 Y131.497
G01 X254.717 Y133.351
G01 X255.043 Y135.137
G01 X255.287 Y136.865
G01 X255.530 Y138.593
G01 X255.692 Y140.263
G01 X255.765 Y141.884
G01 X255.839 Y143.505
G01 X255.823 Y145.078
G01 X255.713 Y146.611
G01 X255.603 Y148.145
G01 X255.397 Y149.640
G01 X255.090 Y151.106
G01 X254.783 Y152.572
G01 X254.374 Y154.008
G01 X253.857 Y155.424
G01 X253.340 Y156.841
G01 X252.714 Y158.238
G01 X251.974 Y159.625
G01 X251.233 Y161.011
G01 X250.378 Y162.388
G01 X249.401 Y163.764
G01 X248.424 Y165.140
G01 X247.325 Y166.516
G01 X246.099 Y167.901
G01 X245.000 Y169.141
G01 X243.914 Y170.292
G01 X242.818 Y171.358
G01 X241.722 Y172.424
G01 X240.617 Y173.405
G01 X239.482 Y174.302
G01 X238.347 Y175.199
G01 X237.183 Y176.014
G01 X235.967 Y176.749
G01 X234.752 Y177.484
G01 X233.485 Y178.138
G01 X232.148 Y178.715
G01 X230.810 Y179.293
G01 X229.400 Y179.793
G01 X227.899 Y180.219
G01 X226.397 Y180.645
G01 X224.803 Y180.996
G01 X223.096 Y181.275
G01 X221.388 Y181.555
G01 X219.568 Y181.763
G01 X217.613 Y181.902
G01 X215.659 Y182.041
G01 X213.570 Y182.112
G01 X211.327 Y182.116
G01 X209.027 Y182.121
G01 X206.751 Y182.083
G01 X204.390 Y181.864
G01 X203.209 Y181.754
G01 X202.008 Y181.599
G01 X200.771 Y181.381
G01 X199.535 Y181.163
G01 X198.264 Y180.882
G01 X196.944 Y180.521
G01 X195.625 Y180.159
G01 X194.257 Y179.717
G01 X192.828 Y179.178
G01 X191.398 Y178.638
G01 X189.907 Y178.000
G01 X188.341 Y177.247
G01 X186.774 Y176.494
G01 X185.132 Y175.625
G01 X183.401 Y174.623
G01 X181.670 Y173.622
G01 X179.851 Y172.487
G01 X177.928 Y171.202
G01 X176.006 Y169.917
G01 X173.918 Y168.552
G01 X171.692 Y167.143
G01 X170.579 Y166.438
G01 X169.431 Y165.723
G01 X168.252 Y165.000
G01 X167.074 Y164.278
G01 X165.865 Y163.548
G01 X164.628 Y162.817
G01 X163.391 Y162.085
G01 X162.127 Y161.351
G01 X160.838 Y160.619
G01 X159.550 Y159.886
G01 X158.238 Y159.156
G01 X156.906 Y158.433
G01 X155.573 Y157.709
G01 X154.221 Y156.991
G01 X152.851 Y156.285
G01 X151.482 Y155.578
G01 X150.095 Y154.882
G01 X148.696 Y154.201
G01 X147.296 Y153.520
G01 X145.883 Y152.854
G01 X144.460 Y152.208
G01 X143.038 Y151.562
G01 X141.605 Y150.935
G01 X140.166 Y150.332
G01 X138.728 Y149.729
G01 X137.283 Y149.150
G01 X135.835 Y148.599
G01 X134.387 Y148.048
G01 X132.937 Y147.526
G01 X131.488 Y147.036
G01 X130.038 Y146.545
G01 X128.589 Y146.088
G01 X127.145 Y145.668
G01 X125.701 Y145.247
G01 X124.261 Y144.863
G01 X122.829 Y144.521
G01 X121.397 Y144.179
G01 X119.973 Y143.878
G01 X118.560 Y143.623
G01 X117.147 Y143.368
G01 X115.746 Y143.159
G01 X114.359 Y142.999
G01 X112.305 Y142.763
G01 X110.098 Y142.557
G01 X107.768 Y142.397
G01 X105.439 Y142.237
G01 X102.988 Y142.123
G01 X100.444 Y142.071
G01 X99.172 Y142.045
G01 X97.877 Y142.034
G01 X96.563 Y142.041
G01 X95.249 Y142.048
G01 X93.916 Y142.072
G01 X92.567 Y142.116
G01 X91.218 Y142.159
G01 X89.854 Y142.223
G01 X88.478 Y142.307
G01 X87.102 Y142.392
G01 X85.715 Y142.497
G01 X84.319 Y142.627
G01 X82.924 Y142.756
G01 X81.521 Y142.909
G01 X80.113 Y143.087
G01 X78.705 Y143.265
G01 X77.294 Y143.469
G01 X75.882 Y143.700
G01 X74.470 Y143.930
G01 X73.058 Y144.188
G01 X71.649 Y144.476
G01 X70.240 Y144.764
G01 X68.835 Y145.081
G01 X67.437 Y145.429
G01 X66.038 Y145.777
G01 X64.647 Y146.157
G01 X63.267 Y146.570
G01 X61.887 Y146.983
G01 X60.518 Y147.429
G01 X59.164 Y147.911
G01 X57.810 Y148.392
G01 X56.471 Y148.909
G01 X55.150 Y149.463
G01 X53.829 Y150.017
G01 X52.526 Y150.608
G01 X51.246 Y151.239
G01 X50.006 Y151.850
G01 X48.797 Y152.462
G01 X47.620 Y153.074
G01 X46.442 Y153.687
G01 X45.296 Y154.301
G01 X44.180 Y154.919
G01 X41.948 Y156.153
G01 X39.836 Y157.400
G01 X37.835 Y158.672
G01 X35.834 Y159.944
G01 X33.946 Y161.242
G01 X32.160 Y162.578
G01 X30.374 Y163.913
G01 X28.691 Y165.287
G01 X27.102 Y166.712
G01 X25.513 Y168.137
G01 X24.019 Y169.614
G01 X22.611 Y171.154
G01 X21.203 Y172.694
G01 X19.880 Y174.298
G01 X18.635 Y175.979
G01 X17.389 Y177.660
G01 X16.221 Y179.418
G01 X15.121 Y181.265
G01 X14.022 Y183.113
G01 X12.990 Y185.051
G01 X12.019 Y187.091
G01 X11.453 Y188.279
G01 X10.907 Y189.468
G01 X10.382 Y190.656
G01 X9.857 Y191.845
G01 X9.352 Y193.034
G01 X8.869 Y194.225
G01 X8.385 Y195.416
G01 X7.924 Y196.609
G01 X7.484 Y197.804
G01 X7.045 Y198.999
G01 X6.628 Y200.197
G01 X6.234 Y201.399
G01 X5.840 Y202.601
G01 X5.469 Y203.807
G01 X5.122 Y205.018
G01 X4.775 Y206.229
G01 X4.452 Y207.445
G01 X4.154 Y208.667
G01 X3.855 Y209.889
G01 X3.582 Y211.117
G01 X3.334 Y212.352
G01 X3.086 Y213.587
G01 X2.864 Y214.830
G01 X2.668 Y216.080
G01 X2.472 Y217.331
G01 X2.302 Y218.590
G01 X2.160 Y219.858
G01 X2.017 Y221.127
G01 X1.902 Y222.405
G01 X1.815 Y223.693
G01 X1.728 Y224.981
G01 X1.669 Y226.280
G01 X1.639 Y227.590
G01 X1.609 Y228.901
G01 X1.607 Y230.223
G01 X1.636 Y231.557
G01 X1.664 Y232.892
G01 X1.722 Y234.240
G01 X1.811 Y235.601
G01 X1.899 Y236.962
G01 X2.018 Y238.337
G01 X2.169 Y239.727
G01 X2.319 Y241.117
G01 X2.501 Y242.522
G01 X2.714 Y243.943
G01 X2.928 Y245.364
G01 X3.174 Y246.801
G01 X3.453 Y248.255
G01 X3.713 Y249.611
G01 X3.993 Y250.926
G01 X4.292 Y252.203
G01 X4.592 Y253.480
G01 X4.912 Y254.719
G01 X5.253 Y255.924
G01 X5.934 Y258.333
G01 X6.699 Y260.604
G01 X7.553 Y262.766
G01 X8.408 Y264.927
G01 X9.352 Y266.979
G01 X10.391 Y268.949
G01 X11.431 Y270.919
G01 X12.566 Y272.808
G01 X13.802 Y274.643
G01 X15.039 Y276.477
G01 X16.377 Y278.259
G01 X17.823 Y280.015
G01 X19.268 Y281.771
G01 X20.822 Y283.501
G01 X22.488 Y285.234
G01 X24.155 Y286.967
G01 X25.935 Y288.703
G01 X27.835 Y290.469
G01 X28.785 Y291.353
G01 X29.765 Y292.244
G01 X30.775 Y293.146
G01 X31.786 Y294.048
G01 X33.899 Y295.889
G01 X34.902 Y296.757
G01 X35.909 Y297.591
G01 X36.922 Y298.394
G01 X37.934 Y299.197
G01 X38.953 Y299.968
G01 X39.977 Y300.710
G01 X42.026 Y302.193
G01 X44.099 Y303.557
G01 X46.201 Y304.814
G01 X48.302 Y306.071
G01 X50.433 Y307.220
G01 X52.596 Y308.274
G01 X54.759 Y309.328
G01 X56.954 Y310.287
G01 X59.187 Y311.164
G01 X61.420 Y312.040
G01 X63.689 Y312.833
G01 X66.000 Y313.555
G01 X68.311 Y314.278
G01 X70.663 Y314.930
G01 X73.060 Y315.523
G01 X74.259 Y315.819
G01 X75.469 Y316.101
G01 X76.691 Y316.370
G01 X77.913 Y316.639
G01 X79.146 Y316.895
G01 X80.393 Y317.139
G01 X81.639 Y317.383
G01 X82.897 Y317.616
G01 X84.169 Y317.838
G01 X85.440 Y318.060
G01 X86.725 Y318.273
G01 X88.023 Y318.476
G01 X89.416 Y318.695
G01 X90.771 Y318.889
G01 X92.094 Y319.060
G01 X93.416 Y319.231
G01 X94.705 Y319.378
G01 X95.964 Y319.502
G01 X98.482 Y319.751
G01 X100.879 Y319.910
G01 X103.183 Y319.985
G01 X105.486 Y320.061
G01 X107.697 Y320.053
G01 X109.841 Y319.970
G01 X111.986 Y319.887
G01 X114.064 Y319.728
G01 X116.104 Y319.501
G01 X118.144 Y319.274
G01 X120.145 Y318.979
G01 X122.134 Y318.623
G01 X124.124 Y318.268
G01 X126.102 Y317.851
G01 X128.097 Y317.382
G01 X130.091 Y316.912
G01 X132.101 Y316.389
G01 X134.154 Y315.820
G01 X136.207 Y315.252
G01 X138.304 Y314.638
G01 X140.471 Y313.985
G01 X142.638 Y313.332
G01 X144.866 Y312.620
G01 X147.140 Y311.851
G01 X149.414 Y311.081
G01 X151.735 Y310.255
G01 X154.087 Y309.373
G01 X155.263 Y308.932
G01 X156.448 Y308.478
G01 X157.638 Y308.010
G01 X158.828 Y307.542
G01 X160.025 Y307.061
G01 X161.225 Y306.566
G01 X162.426 Y306.072
G01 X163.631 Y305.564
G01 X164.839 Y305.044
G01 X166.046 Y304.523
G01 X167.256 Y303.990
G01 X168.467 Y303.444
G01 X169.678 Y302.898
G01 X170.889 Y302.339
G01 X172.100 Y301.768
G01 X173.310 Y301.198
G01 X174.519 Y300.614
G01 X175.725 Y300.019
G01 X176.932 Y299.424
G01 X178.135 Y298.817
G01 X179.333 Y298.198
G01 X180.532 Y297.579
G01 X181.726 Y296.949
G01 X182.913 Y296.307
G01 X184.100 Y295.665
G01 X185.280 Y295.011
G01 X186.453 Y294.347
G01 X187.625 Y293.682
G01 X188.789 Y293.006
G01 X189.942 Y292.320
G01 X191.096 Y291.633
G01 X192.239 Y290.936
G01 X193.370 Y290.227
G01 X194.502 Y289.519
G01 X195.621 Y288.801
G01 X196.726 Y288.072
G01 X197.832 Y287.343
G01 X199.007 Y286.557
G01 X200.239 Y285.723
G01 X201.471 Y284.888
G01 X202.760 Y284.007
G01 X204.093 Y283.088
G01 X205.426 Y282.169
G01 X206.803 Y281.212
G01 X208.210 Y280.228
G01 X209.617 Y279.244
G01 X211.056 Y278.232
G01 X212.511 Y277.203
G01 X213.967 Y276.174
G01 X215.441 Y275.128
G01 X216.919 Y274.074
G01 X218.397 Y273.020
G01 X219.880 Y271.959
G01 X221.355 Y270.901
G01 X222.829 Y269.842
G01 X224.295 Y268.787
G01 X225.739 Y267.743
G01 X227.184 Y266.700
G01 X228.607 Y265.670
G01 X229.995 Y264.663
G01 X231.384 Y263.655
G01 X232.738 Y262.670
G01 X234.044 Y261.718
G01 X235.350 Y260.767
G01 X236.609 Y259.847
G01 X237.807 Y258.971
G01 X239.005 Y258.095
G01 X240.143 Y257.262
G01 X241.206 Y256.481
G01 X242.270 Y255.701
G01 X243.260 Y254.973
G01 X244.163 Y254.309
G01 X247.776 Y251.651
G01 X247.735 Y251.514
G01 X247.703 Y251.378
G01 X247.678 Y251.242
G01 X247.661 Y251.107
G01 X247.651 Y250.974
G01 X247.649 Y250.842
G01 X247.654 Y250.712
G01 X247.666 Y250.585
G01 X247.684 Y250.461
G01 X247.709 Y250.340
G01 X247.741 Y250.223
G01 X247.778 Y250.110
G01 X247.820 Y250.001
G01 X247.868 Y249.896
G01 X247.921 Y249.796
G01 X247.979 Y249.701
G01 X248.040 Y249.611
G01 X248.106 Y249.526
G01 X248.175 Y249.447
G01 X248.247 Y249.373
G01 X248.322 Y249.305
G01 X248.399 Y249.243
G01 X248.478 Y249.187
G01 X248.559 Y249.137
G01 X248.641 Y249.092
G01 X248.723 Y249.054
G01 X248.806 Y249.021
G01 X248.889 Y248.994
G01 X248.972 Y248.973
G01 X249.054 Y248.957
G01 X249.135 Y248.947
G01 X249.215 Y248.942
G01 X249.293 Y248.943
G01 X249.369 Y248.949
G01 X249.443 Y248.959
G01 X249.514 Y248.974
G01 X249.583 Y248.993
G01 X249.648 Y249.017
G01 X249.710 Y249.044
G01 X249.768 Y249.075
G01 X249.823 Y249.109
G01 X249.873 Y249.146
G01 X249.920 Y249.186
G01 X249.962 Y249.229
G01 X250.000 Y249.273
G01 X250.033 Y249.320
G01 X250.062 Y249.367
G01 X250.086 Y249.416
G01 X250.106 Y249.465
G01 X250.121 Y249.515
G01 X250.132 Y249.565
G01 X250.138 Y249.615
G01 X250.139 Y249.664
G01 X250.136 Y249.712
G01 X250.128 Y249.759
G01 X250.117 Y249.805
G01 X250.101 Y249.849
G01 X250.081 Y249.890
G01 X250.058 Y249.930
G01 X250.031 Y249.966
G01 X250.000 Y250.000
G01 X250.273 Y249.752
G01 X250.570 Y249.532
G01 X250.888 Y249.341
G01 X251.226 Y249.181
G01 X251.429 Y249.103
G01 X252.839 Y248.214
G01 X254.232 Y247.334
G01 X255.626 Y246.454
G01 X257.002 Y245.582
G01 X258.361 Y244.719
G01 X259.721 Y243.856
G01 X261.065 Y243.002
G01 X262.393 Y242.156
G01 X263.721 Y241.311
G01 X265.034 Y240.474
G01 X266.332 Y239.646
G01 X267.630 Y238.818
G01 X268.913 Y237.999
G01 X270.183 Y237.189
G01 X271.453 Y236.379
G01 X272.709 Y235.578
G01 X273.953 Y234.786
G01 X275.196 Y233.994
G01 X276.427 Y233.211
G01 X278.864 Y231.664
G01 X280.071 Y230.900
G01 X281.267 Y230.145
G01 X282.463 Y229.389
G01 X283.647 Y228.644
G01 X284.822 Y227.907
G01 X285.997 Y227.171
G01 X287.161 Y226.444
G01 X288.316 Y225.727
G01 X289.472 Y225.009
G01 X290.618 Y224.301
G01 X291.755 Y223.603
G01 X292.893 Y222.905
G01 X294.022 Y222.216
G01 X295.144 Y221.537
G01 X296.265 Y220.859
G01 X297.379 Y220.190
G01 X298.487 Y219.530
G01 X299.594 Y218.871
G01 X300.695 Y218.222
G01 X301.790 Y217.583
G01 X303.980 Y216.304
G01 X306.147 Y215.065
G01 X308.298 Y213.867
G01 X310.450 Y212.670
G01 X312.585 Y211.512
G01 X314.711 Y210.397
G01 X316.837 Y209.282
G01 X318.954 Y208.208
G01 X321.069 Y207.177
G01 X323.185 Y206.145
G01 X325.298 Y205.157
G01 X327.416 Y204.212
G01 X329.535 Y203.267
G01 X331.658 Y202.365
G01 X333.793 Y201.508
G01 X335.929 Y200.650
G01 X338.076 Y199.838
G01 X340.243 Y199.070
G01 X342.410 Y198.302
G01 X344.596 Y197.579
G01 X346.808 Y196.903
G01 X349.020 Y196.227
G01 X351.258 Y195.596
G01 X353.529 Y195.013
G01 X355.801 Y194.430
G01 X358.105 Y193.894
G01 X360.450 Y193.405
G01 X362.795 Y192.917
G01 X365.083 Y192.460
G01 X367.319 Y192.037
G01 X369.556 Y191.615
G01 X371.741 Y191.226
G01 X373.881 Y190.875
G01 X376.021 Y190.523
G01 X378.115 Y190.207
G01 X380.168 Y189.931
G01 X382.222 Y189.655
G01 X384.235 Y189.418
G01 X386.214 Y189.222
G01 X388.193 Y189.027
G01 X390.137 Y188.872
G01 X392.051 Y188.762
G01 X393.966 Y188.652
G01 X395.851 Y188.586
G01 X397.713 Y188.566
G01 X399.574 Y188.546
G01 X401.412 Y188.572
G01 X403.232 Y188.647
G01 X405.052 Y188.722
G01 X406.853 Y188.846
G01 X408.642 Y189.021
G01 X410.430 Y189.196
G01 X412.206 Y189.423
G01 X413.975 Y189.703
G01 X415.744 Y189.983
G01 X417.505 Y190.316
G01 X419.265 Y190.706
G01 X421.025 Y191.096
G01 X422.782 Y191.542
G01 X424.544 Y192.046
G01 X426.306 Y192.551
G01 X428.072 Y193.114
G01 X429.846 Y193.738
G01 X431.621 Y194.362
G01 X433.405 Y195.047
G01 X435.204 Y195.795
G01 X437.003 Y196.543
G01 X438.817 Y197.355
G01 X440.651 Y198.233
G01 X442.484 Y199.110
G01 X444.339 Y200.054
G01 X446.219 Y201.065
G01 X448.099 Y202.077
G01 X450.004 Y203.157
G01 X451.942 Y204.308
G01 X453.709 Y205.358
G01 X455.410 Y206.430
G01 X457.045 Y207.517
G01 X458.679 Y208.605
G01 X460.249 Y209.710
G01 X461.756 Y210.827
G01 X463.262 Y211.943
G01 X464.705 Y213.072
G01 X466.087 Y214.208
G01 X467.469 Y215.344
G01 X468.790 Y216.488
G01 X470.052 Y217.635
G01 X471.315 Y218.782
G01 X472.518 Y219.933
G01 X473.664 Y221.082
G01 X474.811 Y222.230
G01 X475.900 Y223.378
G01 X476.935 Y224.519
G01 X477.970 Y225.661
G01 X478.951 Y226.797
G01 X479.878 Y227.922
G01 X480.806 Y229.047
G01 X481.682 Y230.162
G01 X482.507 Y231.262
G01 X483.332 Y232.363
G01 X484.107 Y233.448
G01 X484.833 Y234.514
G01 X485.560 Y235.580
G01 X486.238 Y236.627
G01 X486.870 Y237.649
G01 X488.135 Y239.695
G01 X489.215 Y241.645
G01 X490.129 Y243.465
G01 X491.042 Y245.284
G01 X491.788 Y246.972
G01 X492.385 Y248.492
G01 X492.981 Y250.013
G01 X493.428 Y251.367
G01 X493.741 Y252.518
G01 X494.161 Y254.055
G01 X494.561 Y255.549
G01 X494.939 Y257.007
G01 X495.318 Y258.465
G01 X495.675 Y259.887
G01 X496.008 Y261.277
G01 X496.341 Y262.669
G01 X496.651 Y264.029
G01 X496.935 Y265.365
G01 X497.219 Y266.700
G01 X497.476 Y268.012
G01 X497.706 Y269.304
G01 X497.936 Y270.597
G01 X498.138 Y271.871
G01 X498.309 Y273.133
G01 X498.481 Y274.395
G01 X498.622 Y275.645
G01 X498.552 Y276.868
G01 X496.934 Y289.032
G01 X494.722 Y301.101
G01 X491.919 Y313.047
G01 X491.443 Y314.850
G01 X490.848 Y316.541
G01 X490.090 Y318.257
G01 X489.328 Y319.984
G01 X488.517 Y321.658
G01 X487.661 Y323.280
G01 X486.805 Y324.902
G01 X485.904 Y326.472
G01 X484.962 Y327.992
G01 X484.020 Y329.512
G01 X483.035 Y330.981
G01 X482.013 Y332.400
G01 X480.991 Y333.819
G01 X479.930 Y335.189
G01 X478.834 Y336.509
G01 X477.739 Y337.830
G01 X476.609 Y339.102
G01 X475.447 Y340.326
G01 X474.285 Y341.551
G01 X473.091 Y342.727
G01 X471.870 Y343.857
G01 X470.648 Y344.987
G01 X469.398 Y346.070
G01 X468.124 Y347.108
G01 X466.849 Y348.145
G01 X465.550 Y349.137
G01 X464.230 Y350.084
G01 X462.909 Y351.031
G01 X461.567 Y351.933
G01 X460.207 Y352.792
G01 X458.847 Y353.651
G01 X457.469 Y354.466
G01 X456.076 Y355.238
G01 X454.683 Y356.010
G01 X453.276 Y356.740
G01 X451.857 Y357.428
G01 X450.438 Y358.116
G01 X449.009 Y358.762
G01 X447.571 Y359.368
G01 X446.133 Y359.974
G01 X444.687 Y360.539
G01 X443.237 Y361.064
G01 X441.787 Y361.590
G01 X440.332 Y362.075
G01 X438.876 Y362.522
G01 X437.420 Y362.969
G01 X435.963 Y363.378
G01 X434.508 Y363.749
G01 X433.053 Y364.120
G01 X431.600 Y364.453
G01 X430.153 Y364.750
G01 X428.453 Y365.098
G01 X425.193 Y365.730
G01 X423.584 Y366.034
G01 X422.017 Y366.317
G01 X420.488 Y366.575
G01 X418.959 Y366.834
G01 X417.467 Y367.069
G01 X416.008 Y367.279
G01 X414.549 Y367.489
G01 X413.122 Y367.674
G01 X411.722 Y367.833
G01 X410.323 Y367.992
G01 X408.950 Y368.125
G01 X407.600 Y368.231
G01 X406.249 Y368.337
G01 X404.921 Y368.415
G01 X403.609 Y368.465
G01 X402.297 Y368.515
G01 X401.003 Y368.537
G01 X399.720 Y368.529
G01 X398.437 Y368.520
G01 X397.166 Y368.482
G01 X395.901 Y368.414
G01 X394.636 Y368.345
G01 X393.378 Y368.245
G01 X392.122 Y368.113
G01 X390.865 Y367.981
G01 X389.610 Y367.817
G01 X388.352 Y367.620
G01 X387.093 Y367.423
G01 X385.831 Y367.192
G01 X384.559 Y366.927
G01 X383.288 Y366.662
G01 X382.008 Y366.362
G01 X380.714 Y366.027
G01 X379.420 Y365.691
G01 X378.113 Y365.320
G01 X376.785 Y364.912
G01 X375.458 Y364.504
G01 X374.112 Y364.058
G01 X372.742 Y363.575
G01 X371.372 Y363.092
G01 X369.977 Y362.570
G01 X368.553 Y362.010
G01 X367.129 Y361.449
G01 X365.676 Y360.848
G01 X364.188 Y360.208
G01 X362.246 Y359.371
G01 X360.357 Y358.534
G01 X358.517 Y357.693
G01 X356.678 Y356.852
G01 X354.888 Y356.008
G01 X353.143 Y355.160
G01 X351.399 Y354.311
G01 X349.701 Y353.457
G01 X348.044 Y352.595
G01 X346.387 Y351.734
G01 X344.772 Y350.865
G01 X343.196 Y349.987
G01 X341.619 Y349.109
G01 X340.081 Y348.222
G01 X338.576 Y347.323
G01 X337.072 Y346.425
G01 X335.602 Y345.514
G01 X334.163 Y344.591
G01 X332.724 Y343.667
G01 X331.315 Y342.730
G01 X329.933 Y341.777
G01 X328.551 Y340.824
G01 X327.196 Y339.856
G01 X325.864 Y338.870
G01 X324.531 Y337.884
G01 X323.222 Y336.881
G01 X321.932 Y335.858
G01 X320.642 Y334.834
G01 X319.371 Y333.792
G01 X318.116 Y332.727
G01 X316.860 Y331.662
G01 X315.620 Y330.576
G01 X314.392 Y329.465
G01 X313.163 Y328.355
G01 X311.946 Y327.221
G01 X310.737 Y326.060
G01 X309.528 Y324.900
G01 X308.327 Y323.714
G01 X307.130 Y322.500
G01 X305.933 Y321.286
G01 X304.740 Y320.044
G01 X303.547 Y318.772
G01 X302.355 Y317.499
G01 X301.162 Y316.197
G01 X299.966 Y314.863
G01 X298.770 Y313.528
G01 X297.571 Y312.162
G01 X296.364 Y310.761
G01 X295.538 Y309.802
G01 X294.617 Y308.692
G01 X293.613 Y307.447
G01 X292.609 Y306.203
G01 X291.521 Y304.824
G01 X290.361 Y303.329
G01 X289.201 Y301.834
G01 X287.970 Y300.222
G01 X285.386 Y296.802
G01 X284.034 Y294.992
G01 X282.634 Y293.102
G01 X281.233 Y291.212
G01 X279.784 Y289.241
G01 X278.297 Y287.207
G01 X277.554 Y286.190
G01 X276.802 Y285.157
G01 X276.041 Y284.110
G01 X275.281 Y283.064
G01 X274.513 Y282.004
G01 X273.739 Y280.932
G01 X272.964 Y279.861
G01 X272.183 Y278.778
G01 X271.398 Y277.686
G01 X270.612 Y276.593
G01 X269.821 Y275.492
G01 X269.027 Y274.384
G01 X268.233 Y273.275
G01 X267.436 Y272.160
G01 X266.636 Y271.040
G01 X265.837 Y269.920
G01 X265.036 Y268.796
G01 X264.234 Y267.668
G01 X263.432 Y266.541
G01 X262.629 Y265.411
G01 X261.827 Y264.281
G01 X261.026 Y263.151
G01 X260.225 Y262.021
G01 X259.427 Y260.892
G01 X258.628 Y259.764
G01 X257.832 Y258.637
G01 X257.040 Y257.515
G01 X256.247 Y256.392
G01 X255.459 Y255.274
G01 X254.676 Y254.162
G01 X254.073 Y253.282
G01 X253.893 Y253.050
G01 X253.559 Y252.517
G01 X253.183 Y252.024
G01 X253.115 Y251.944
G01 X252.967 Y251.655
G01 X252.799 Y251.386
G01 X252.612 Y251.138
G01 X252.408 Y250.911
G01 X252.344 Y250.847
G01 X252.299 Y250.705
G01 X252.246 Y250.570
G01 X252.185 Y250.442
G01 X252.118 Y250.321
G01 X252.044 Y250.208
G01 X251.964 Y250.103
G01 X251.879 Y250.006
G01 X251.790 Y249.918
G01 X251.696 Y249.838
G01 X251.600 Y249.768
G01 X251.573 Y249.750
G01 X251.557 Y249.674
G01 X251.537 Y249.598
G01 X251.514 Y249.523
G01 X251.487 Y249.450
G01 X251.457 Y249.379
G01 X251.423 Y249.309
G01 X251.386 Y249.240
G01 X251.346 Y249.174
G01 X251.303 Y249.110
G01 X251.256 Y249.048
G01 X251.207 Y248.989
G01 X251.154 Y248.932
G01 X251.099 Y248.878
G01 X251.042 Y248.826
G01 X250.982 Y248.778
G01 X250.920 Y248.732
G01 X250.856 Y248.690
G01 X250.808 Y248.661
G01 X250.779 Y248.553
G01 X250.742 Y248.444
G01 X250.696 Y248.335
G01 X250.640 Y248.227
G01 X250.576 Y248.121
G01 X250.503 Y248.018
G01 X250.421 Y247.916
G01 X250.330 Y247.819
G01 X250.231 Y247.725
G01 X250.123 Y247.637
G01 X250.052 Y247.584
G01 X249.926 Y247.328
G01 X249.775 Y247.080
G01 X249.600 Y246.841
G01 X249.401 Y246.613
G01 X249.295 Y246.506
G01 X248.990 Y246.013
G01 X248.635 Y245.542
G01 X248.547 Y245.439
G01 X247.991 Y244.620
G01 X247.809 Y244.385
G01 X247.070 Y243.331
G01 X246.341 Y242.290
G01 X245.623 Y241.264
G01 X244.187 Y239.212
G01 X242.796 Y237.221
G01 X241.460 Y235.308
G01 X240.125 Y233.396
G01 X238.845 Y231.562
G01 X237.633 Y229.824
G01 X236.420 Y228.086
G01 X235.276 Y226.444
G01 X234.210 Y224.917
G01 X233.144 Y223.389
G01 X232.158 Y221.975
G01 X231.262 Y220.693
G01 X230.366 Y219.411
G01 X229.462 Y218.153
G01 X228.552 Y216.918
G01 X227.642 Y215.683
G01 X226.727 Y214.472
G01 X225.808 Y213.282
G01 X224.889 Y212.092
G01 X223.966 Y210.925
G01 X223.043 Y209.779
G01 X222.120 Y208.633
G01 X221.196 Y207.508
G01 X220.274 Y206.404
G01 X219.351 Y205.299
G01 X218.431 Y204.215
G01 X217.514 Y203.151
G01 X216.597 Y202.086
G01 X215.684 Y201.041
G01 X214.778 Y200.015
G01 X213.872 Y198.989
G01 X212.972 Y197.981
G01 X212.081 Y196.991
G01 X211.190 Y196.001
G01 X210.309 Y195.029
G01 X209.438 Y194.073
G01 X208.568 Y193.117
G01 X207.709 Y192.179
G01 X206.864 Y191.256
G01 X206.019 Y190.333
G01 X205.187 Y189.426
G01 X204.373 Y188.534
G01 X202.743 Y186.750
G01 X201.178 Y185.026
G01 X199.699 Y183.355
G01 X198.219 Y181.684
G01 X196.825 Y180.066
G01 X195.535 Y178.493
G01 X194.245 Y176.920
G01 X193.059 Y175.392
G01 X191.998 Y173.903
G01 X190.937 Y172.414
G01 X189.933 Y170.950
G01 X188.990 Y169.495
G01 X188.047 Y168.040
G01 X187.165 Y166.594
G01 X186.349 Y165.140
G01 X185.534 Y163.686
G01 X184.784 Y162.224
G01 X184.106 Y160.739
G01 X183.427 Y159.253
G01 X182.820 Y157.744
G01 X182.288 Y156.194
G01 X181.756 Y154.645
G01 X181.300 Y153.055
G01 X180.924 Y151.409
G01 X180.548 Y149.762
G01 X180.252 Y148.059
G01 X180.042 Y146.284
G01 X179.832 Y144.508
G01 X179.707 Y142.659
G01 X179.672 Y140.721
G01 X179.637 Y138.783
G01 X179.692 Y136.756
G01 X179.841 Y134.624
G01 X179.940 Y133.214
G01 X180.163 Y131.752
G01 X180.492 Y130.262
G01 X180.821 Y128.772
G01 X181.256 Y127.256
G01 X181.780 Y125.740
G01 X182.303 Y124.223
G01 X182.914 Y122.706
G01 X183.597 Y121.216
G01 X184.279 Y119.726
G01 X185.031 Y118.262
G01 X185.836 Y116.852
G01 X186.641 Y115.441
G01 X187.499 Y114.084
G01 X188.391 Y112.807
G01 X189.283 Y111.529
G01 X190.210 Y110.332
G01 X191.154 Y109.241
G01 X192.098 Y108.150
G01 X193.058 Y107.166
G01 X194.018 Y106.314
G01 X194.978 Y105.463
G01 X195.936 Y104.745
G01 X196.876 Y104.187
G01 X198.483 Y103.233
G01 X200.134 Y102.377
G01 X201.817 Y101.620
G01 X203.499 Y100.863
G01 X205.213 Y100.206
G01 X206.944 Y99.650
G01 X208.675 Y99.094
G01 X210.424 Y98.639
G01 X212.176 Y98.287
G01 X213.928 Y97.936
G01 X215.684 Y97.687
G01 X217.430 Y97.543
G01 X219.175 Y97.398
G01 X220.911 Y97.359
G01 X222.623 Y97.426
G01 X224.335 Y97.493
G01 X226.022 Y97.667
G01 X227.673 Y97.949
G01 X229.323 Y98.230
G01 X230.936 Y98.620
G01 X232.497 Y99.120
G01 X234.058 Y99.620
G01 X235.568 Y100.230
G01 X237.013 Y100.951
G01 X239.061 Y101.974
G01 X240.956 Y103.043
G01 X242.708 Y104.153
G01 X244.459 Y105.264
G01 X246.067 Y106.416
G01 X247.541 Y107.606
G01 X249.015 Y108.795
G01 X250.356 Y110.021
G01 X251.572 Y111.280
G01 X252.789 Y112.538
G01 X253.881 Y113.829
G01 X254.860 Y115.148
G01 X255.839 Y116.466
G01 X256.703 Y117.813
G01 X257.463 Y119.182
G01 X258.223 Y120.551
G01 X258.878 Y121.944
G01 X259.440 Y123.354
G01 X260.000 Y124.765
G01 X260.467 Y126.194
G01 X260.849 Y127.637
G01 X261.230 Y129.080
G01 X261.527 Y130.536
G01 X261.749 Y132.002
G01 X262.032 Y133.877
G01 X262.245 Y135.680
G01 X262.380 Y137.420
G01 X262.515 Y139.160
G01 X262.571 Y140.836
G01 X262.543 Y142.459
G01 X262.514 Y144.082
G01 X262.400 Y145.650
G01 X262.194 Y147.174
G01 X261.987 Y148.698
G01 X261.688 Y150.177
G01 X261.290 Y151.621
G01 X260.891 Y153.064
G01 X260.393 Y154.472
G01 X259.788 Y155.853
G01 X259.183 Y157.234
G01 X258.471 Y158.589
G01 X257.645 Y159.927
G01 X256.818 Y161.264
G01 X255.878 Y162.585
G01 X254.817 Y163.897
G01 X253.755 Y165.209
G01 X252.573 Y166.513
G01 X251.261 Y167.818
G01 X250.087 Y168.986
G01 X248.930 Y170.067
G01 X247.770 Y171.062
G01 X246.609 Y172.057
G01 X245.445 Y172.967
G01 X244.256 Y173.791
G01 X243.067 Y174.615
G01 X241.854 Y175.355
G01 X240.594 Y176.012
G01 X239.335 Y176.669
G01 X238.030 Y177.243
G01 X236.659 Y177.735
G01 X235.287 Y178.227
G01 X233.849 Y178.638
G01 X232.324 Y178.969
G01 X230.798 Y179.299
G01 X229.185 Y179.550
G01 X227.464 Y179.722
G01 X225.743 Y179.894
G01 X223.912 Y179.987
G01 X221.953 Y180.003
G01 X219.994 Y180.019
G01 X217.905 Y179.958
G01 X215.666 Y179.822
G01 X213.370 Y179.682
G01 X211.101 Y179.502
G01 X208.758 Y179.134
G01 X207.587 Y178.951
G01 X206.397 Y178.721
G01 X205.177 Y178.425
G01 X203.957 Y178.130
G01 X202.706 Y177.770
G01 X201.412 Y177.327
G01 X200.117 Y176.883
G01 X198.780 Y176.356
G01 X197.388 Y175.728
G01 X195.995 Y175.099
G01 X194.547 Y174.369
G01 X193.030 Y173.519
G01 X191.514 Y172.669
G01 X189.930 Y171.699
G01 X188.265 Y170.590
G01 X186.601 Y169.482
G01 X184.856 Y168.235
G01 X183.018 Y166.832
G01 X181.181 Y165.429
G01 X179.182 Y163.936
G01 X177.049 Y162.389
G01 X175.982 Y161.616
G01 X174.882 Y160.830
G01 X173.751 Y160.035
G01 X172.620 Y159.240
G01 X171.459 Y158.436
G01 X170.271 Y157.628
G01 X169.082 Y156.820
G01 X167.866 Y156.008
G01 X166.627 Y155.197
G01 X165.387 Y154.385
G01 X164.124 Y153.574
G01 X162.839 Y152.768
G01 X161.555 Y151.962
G01 X160.250 Y151.161
G01 X158.927 Y150.369
G01 X157.605 Y149.578
G01 X156.265 Y148.797
G01 X154.911 Y148.029
G01 X153.557 Y147.262
G01 X152.188 Y146.509
G01 X150.809 Y145.774
G01 X149.430 Y145.040
G01 X148.039 Y144.324
G01 X146.641 Y143.632
G01 X145.243 Y142.940
G01 X143.838 Y142.272
G01 X142.427 Y141.631
G01 X141.017 Y140.990
G01 X139.603 Y140.377
G01 X138.187 Y139.797
G01 X136.771 Y139.217
G01 X135.354 Y138.669
G01 X133.939 Y138.159
G01 X132.524 Y137.649
G01 X131.111 Y137.176
G01 X129.703 Y136.744
G01 X128.295 Y136.313
G01 X126.893 Y135.923
G01 X125.499 Y135.580
G01 X124.105 Y135.236
G01 X122.719 Y134.940
G01 X121.346 Y134.694
G01 X119.310 Y134.329
G01 X117.120 Y133.985
G01 X114.806 Y133.679
G01 X112.491 Y133.373
G01 X110.051 Y133.105
G01 X107.516 Y132.893
G01 X106.248 Y132.787
G01 X104.957 Y132.695
G01 X103.645 Y132.620
G01 X102.333 Y132.544
G01 X101.001 Y132.484
G01 X99.652 Y132.443
G01 X98.303 Y132.402
G01 X96.937 Y132.380
G01 X95.559 Y132.378
G01 X94.181 Y132.375
G01 X92.789 Y132.394
G01 X91.388 Y132.436
G01 X89.988 Y132.477
G01 X88.577 Y132.541
G01 X87.161 Y132.631
G01 X85.746 Y132.720
G01 X84.324 Y132.835
G01 X82.900 Y132.976
G01 X81.477 Y133.118
G01 X80.051 Y133.287
G01 X78.627 Y133.486
G01 X77.203 Y133.684
G01 X75.780 Y133.912
G01 X74.363 Y134.172
G01 X72.945 Y134.432
G01 X71.533 Y134.723
G01 X70.130 Y135.049
G01 X68.727 Y135.374
G01 X67.333 Y135.734
G01 X65.951 Y136.129
G01 X64.569 Y136.525
G01 X63.200 Y136.956
G01 X61.847 Y137.427
G01 X60.494 Y137.897
G01 X59.157 Y138.405
G01 X57.840 Y138.954
G01 X56.563 Y139.486
G01 X55.319 Y140.021
G01 X54.105 Y140.558
G01 X52.892 Y141.096
G01 X51.709 Y141.637
G01 X50.557 Y142.183
G01 X48.251 Y143.275
G01 X46.065 Y144.387
G01 X43.988 Y145.530
G01 X41.912 Y146.675
G01 X39.945 Y147.851
G01 X38.079 Y149.072
G01 X36.212 Y150.293
G01 X34.446 Y151.558
G01 X32.772 Y152.881
G01 X31.097 Y154.203
G01 X29.513 Y155.583
G01 X28.011 Y157.031
G01 X26.508 Y158.480
G01 X25.088 Y159.998
G01 X23.739 Y161.597
G01 X22.391 Y163.197
G01 X21.114 Y164.878
G01 X19.901 Y166.653
G01 X18.687 Y168.428
G01 X17.536 Y170.297
G01 X16.439 Y172.272
G01 X15.800 Y173.423
G01 X15.180 Y174.574
G01 X14.581 Y175.728
G01 X13.982 Y176.881
G01 X13.404 Y178.036
G01 X12.847 Y179.194
G01 X12.290 Y180.353
G01 X11.754 Y181.514
G01 X11.240 Y182.679
G01 X10.727 Y183.845
G01 X10.235 Y185.014
G01 X9.766 Y186.189
G01 X9.298 Y187.364
G01 X8.852 Y188.544
G01 X8.429 Y189.731
G01 X8.007 Y190.918
G01 X7.608 Y192.111
G01 X7.234 Y193.312
G01 X6.860 Y194.512
G01 X6.509 Y195.721
G01 X6.184 Y196.938
G01 X5.860 Y198.155
G01 X5.560 Y199.381
G01 X5.285 Y200.617
G01 X5.011 Y201.853
G01 X4.763 Y203.099
G01 X4.541 Y204.356
G01 X4.320 Y205.613
G01 X4.124 Y206.881
G01 X3.957 Y208.161
G01 X3.789 Y209.441
G01 X3.648 Y210.734
G01 X3.536 Y212.040
G01 X3.424 Y213.346
G01 X3.339 Y214.665
G01 X3.284 Y215.999
G01 X3.228 Y217.333
G01 X3.202 Y218.681
G01 X3.204 Y220.045
G01 X3.207 Y221.409
G01 X3.240 Y222.789
G01 X3.303 Y224.186
G01 X3.365 Y225.583
G01 X3.459 Y226.996
G01 X3.583 Y228.427
G01 X3.707 Y229.859
G01 X3.862 Y231.309
G01 X4.049 Y232.777
G01 X4.224 Y234.147
G01 X4.420 Y235.477
G01 X4.639 Y236.771
G01 X4.858 Y238.064
G01 X5.099 Y239.321
G01 X5.364 Y240.544
G01 X5.893 Y242.991
G01 X6.513 Y245.306
G01 X7.230 Y247.517
G01 X7.947 Y249.728
G01 X8.761 Y251.835
G01 X9.674 Y253.866
G01 X10.588 Y255.898
G01 X11.602 Y257.854
G01 X12.721 Y259.763
G01 X13.840 Y261.672
G01 X15.064 Y263.534
G01 X16.396 Y265.377
G01 X17.729 Y267.220
G01 X19.170 Y269.045
G01 X20.725 Y270.879
G01 X22.279 Y272.713
G01 X23.947 Y274.558
G01 X25.732 Y276.440
G01 X26.625 Y277.381
G01 X27.547 Y278.332
G01 X28.499 Y279.296
G01 X29.451 Y280.259
G01 X31.444 Y282.230
G01 X32.390 Y283.158
G01 X33.343 Y284.054
G01 X34.303 Y284.919
G01 X35.264 Y285.784
G01 X36.232 Y286.618
G01 X37.207 Y287.423
G01 X39.159 Y289.032
G01 X41.142 Y290.523
G01 X43.161 Y291.909
G01 X45.180 Y293.295
G01 X47.233 Y294.576
G01 X49.326 Y295.764
G01 X51.419 Y296.952
G01 X53.550 Y298.047
G01 X55.723 Y299.062
G01 X57.896 Y300.076
G01 X60.111 Y301.010
G01 X62.373 Y301.877
G01 X64.633 Y302.743
G01 X66.940 Y303.541
G01 X69.295 Y304.283
G01 X70.473 Y304.655
G01 X71.663 Y305.012
G01 X72.865 Y305.357
G01 X74.068 Y305.702
G01 X75.283 Y306.035
G01 X76.512 Y306.357
G01 X77.740 Y306.678
G01 X78.981 Y306.989
G01 X80.236 Y307.291
G01 X81.491 Y307.593
G01 X82.760 Y307.886
G01 X84.042 Y308.171
G01 X85.419 Y308.476
G01 X86.760 Y308.755
G01 X88.069 Y309.009
G01 X89.378 Y309.262
G01 X90.656 Y309.490
G01 X91.904 Y309.693
G01 X94.401 Y310.100
G01 X96.783 Y310.409
G01 X99.078 Y310.629
G01 X101.372 Y310.848
G01 X103.579 Y310.980
G01 X105.724 Y311.031
G01 X107.870 Y311.083
G01 X109.954 Y311.055
G01 X112.004 Y310.957
G01 X114.054 Y310.858
G01 X116.070 Y310.689
G01 X118.078 Y310.459
G01 X120.086 Y310.229
G01 X122.087 Y309.938
G01 X124.106 Y309.594
G01 X126.126 Y309.251
G01 X128.165 Y308.855
G01 X130.250 Y308.417
G01 X132.335 Y307.978
G01 X134.466 Y307.497
G01 X136.669 Y306.981
G01 X138.873 Y306.466
G01 X141.141 Y305.895
G01 X143.459 Y305.270
G01 X145.777 Y304.645
G01 X148.145 Y303.966
G01 X150.548 Y303.234
G01 X151.750 Y302.867
G01 X152.960 Y302.488
G01 X154.178 Y302.096
G01 X155.395 Y301.704
G01 X156.619 Y301.299
G01 X157.849 Y300.880
G01 X159.078 Y300.462
G01 X160.313 Y300.031
G01 X161.550 Y299.588
G01 X162.788 Y299.144
G01 X164.030 Y298.688
G01 X165.272 Y298.219
G01 X166.515 Y297.750
G01 X167.759 Y297.269
G01 X169.003 Y296.775
G01 X170.247 Y296.281
G01 X171.490 Y295.775
G01 X172.731 Y295.257
G01 X173.972 Y294.739
G01 X175.211 Y294.208
G01 X176.446 Y293.666
G01 X177.681 Y293.123
G01 X178.912 Y292.569
G01 X180.137 Y292.003
G01 X181.363 Y291.437
G01 X182.582 Y290.859
G01 X183.793 Y290.269
G01 X185.005 Y289.679
G01 X186.209 Y289.078
G01 X187.403 Y288.465
G01 X188.598 Y287.852
G01 X189.782 Y287.228
G01 X190.956 Y286.592
G01 X192.130 Y285.957
G01 X193.292 Y285.310
G01 X194.441 Y284.652
G01 X195.590 Y283.994
G01 X196.812 Y283.283
G01 X198.094 Y282.528
G01 X199.376 Y281.772
G01 X200.718 Y280.973
G01 X202.106 Y280.140
G01 X203.494 Y279.306
G01 X204.928 Y278.438
G01 X206.395 Y277.544
G01 X207.861 Y276.650
G01 X209.360 Y275.731
G01 X210.877 Y274.796
G01 X212.395 Y273.860
G01 X213.931 Y272.908
G01 X215.473 Y271.949
G01 X217.014 Y270.990
G01 X218.561 Y270.025
G01 X220.099 Y269.061
G01 X221.637 Y268.097
G01 X223.166 Y267.135
G01 X224.673 Y266.185
G01 X226.180 Y265.235
G01 X227.665 Y264.296
G01 X229.114 Y263.378
G01 X230.563 Y262.459
G01 X231.976 Y261.561
G01 X233.340 Y260.693
G01 X234.703 Y259.825
G01 X236.017 Y258.987
G01 X237.268 Y258.188
G01 X238.519 Y257.389
G01 X239.706 Y256.628
G01 X240.817 Y255.916
G01 X241.927 Y255.204
G01 X242.961 Y254.540
G01 X243.904 Y253.934
G01 X247.677 Y251.508
G01 X247.645 Y251.369
G01 X247.622 Y251.230
G01 X247.607 Y251.093
G01 X247.599 Y250.957
G01 X247.599 Y250.823
G01 X247.606 Y250.691
G01 X247.620 Y250.562
G01 X247.641 Y250.436
G01 X247.669 Y250.314
G01 X247.702 Y250.195
G01 X247.742 Y250.080
G01 X247.787 Y249.970
G01 X247.837 Y249.865
G01 X247.893 Y249.764
G01 X247.953 Y249.668
G01 X248.017 Y249.578
G01 X248.085 Y249.493
G01 X248.156 Y249.413
G01 X248.230 Y249.340
G01 X248.308 Y249.272
G01 X248.387 Y249.210
G01 X248.468 Y249.155
G01 X248.551 Y249.105
G01 X248.635 Y249.061
G01 X248.720 Y249.023
G01 X248.804 Y248.992
G01 X248.889 Y248.966
G01 X248.974 Y248.946
G01 X249.057 Y248.931
G01 X249.140 Y248.923
G01 X249.221 Y248.919
G01 X249.300 Y248.921
G01 X249.377 Y248.928
G01 X249.452 Y248.940
G01 X249.524 Y248.957
G01 X249.593 Y248.978
G01 X249.658 Y249.003
G01 X249.721 Y249.032
G01 X249.779 Y249.065
G01 X249.834 Y249.100
G01 X249.884 Y249.139
G01 X249.930 Y249.181
G01 X249.972 Y249.225
G01 X250.010 Y249.271
G01 X250.043 Y249.318
G01 X250.071 Y249.367
G01 X250.094 Y249.417
G01 X250.113 Y249.468
G01 X250.127 Y249.519
G01 X250.137 Y249.570
G01 X250.141 Y249.621
G01 X250.142 Y249.671
G01 X250.137 Y249.720
G01 X250.128 Y249.768
G01 X250.115 Y249.814
G01 X250.098 Y249.858
G01 X250.077 Y249.899
G01 X250.052 Y249.939
G01 X250.023 Y249.975
G01 X250.000 Y250.000
G01 X250.213 Y249.807
G01 X250.445 Y249.635
G01 X250.694 Y249.485
G01 X250.958 Y249.360
G01 X251.235 Y249.260
G01 X251.482 Y249.194
G01 X252.946 Y248.396
G01 X254.391 Y247.605
G01 X255.837 Y246.814
G01 X257.265 Y246.031
G01 X258.676 Y245.255
G01 X260.088 Y244.479
G01 X261.482 Y243.711
G01 X262.861 Y242.950
G01 X264.239 Y242.190
G01 X265.602 Y241.437
G01 X266.949 Y240.692
G01 X268.297 Y239.947
G01 X269.629 Y239.211
G01 X270.948 Y238.482
G01 X272.266 Y237.753
G01 X273.570 Y237.033
G01 X274.861 Y236.320
G01 X276.151 Y235.608
G01 X277.429 Y234.904
G01 X279.959 Y233.513
G01 X281.211 Y232.826
G01 X282.452 Y232.147
G01 X283.693 Y231.468
G01 X284.922 Y230.798
G01 X286.141 Y230.137
G01 X287.359 Y229.476
G01 X288.567 Y228.824
G01 X289.765 Y228.180
G01 X290.963 Y227.537
G01 X292.151 Y226.902
G01 X293.330 Y226.277
G01 X294.509 Y225.652
G01 X295.680 Y225.035
G01 X296.842 Y224.428
G01 X298.004 Y223.821
G01 X299.158 Y223.223
G01 X300.304 Y222.635
G01 X301.451 Y222.047
G01 X302.590 Y221.468
G01 X303.723 Y220.899
G01 X305.990 Y219.760
G01 X308.230 Y218.660
G01 X310.452 Y217.599
G01 X312.674 Y216.539
G01 X314.878 Y215.518
G01 X317.070 Y214.538
G01 X319.262 Y213.559
G01 X321.442 Y212.620
G01 X323.618 Y211.724
G01 X325.794 Y210.827
G01 X327.965 Y209.973
G01 X330.138 Y209.163
G01 X332.312 Y208.353
G01 X334.488 Y207.586
G01 X336.673 Y206.865
G01 X338.858 Y206.143
G01 X341.052 Y205.467
G01 X343.263 Y204.837
G01 X345.474 Y204.206
G01 X347.701 Y203.623
G01 X349.951 Y203.086
G01 X352.201 Y202.550
G01 X354.474 Y202.062
G01 X356.778 Y201.622
G01 X359.081 Y201.183
G01 X361.415 Y200.792
G01 X363.786 Y200.452
G01 X366.156 Y200.112
G01 X368.468 Y199.799
G01 X370.727 Y199.518
G01 X372.986 Y199.237
G01 X375.192 Y198.987
G01 X377.349 Y198.770
G01 X379.507 Y198.553
G01 X381.616 Y198.370
G01 X383.683 Y198.223
G01 X385.750 Y198.077
G01 X387.774 Y197.966
G01 X389.761 Y197.895
G01 X391.748 Y197.824
G01 X393.698 Y197.792
G01 X395.616 Y197.803
G01 X397.534 Y197.813
G01 X399.420 Y197.865
G01 X401.279 Y197.962
G01 X403.138 Y198.059
G01 X404.971 Y198.200
G01 X406.782 Y198.390
G01 X408.593 Y198.579
G01 X410.383 Y198.816
G01 X412.157 Y199.103
G01 X413.932 Y199.390
G01 X415.690 Y199.727
G01 X417.437 Y200.118
G01 X419.185 Y200.508
G01 X420.922 Y200.952
G01 X422.654 Y201.451
G01 X424.386 Y201.951
G01 X426.112 Y202.506
G01 X427.839 Y203.120
G01 X429.565 Y203.734
G01 X431.292 Y204.407
G01 X433.024 Y205.141
G01 X434.756 Y205.876
G01 X436.494 Y206.671
G01 X438.242 Y207.531
G01 X439.991 Y208.391
G01 X441.750 Y209.315
G01 X443.525 Y210.306
G01 X445.300 Y211.297
G01 X447.091 Y212.355
G01 X448.904 Y213.483
G01 X450.717 Y214.611
G01 X452.551 Y215.808
G01 X454.412 Y217.078
G01 X456.110 Y218.237
G01 X457.740 Y219.413
G01 X459.303 Y220.602
G01 X460.867 Y221.790
G01 X462.364 Y222.991
G01 X463.797 Y224.200
G01 X465.231 Y225.409
G01 X466.600 Y226.626
G01 X467.908 Y227.847
G01 X469.216 Y229.068
G01 X470.463 Y230.292
G01 X471.650 Y231.517
G01 X472.838 Y232.741
G01 X473.967 Y233.964
G01 X475.039 Y235.182
G01 X476.111 Y236.401
G01 X477.126 Y237.615
G01 X478.087 Y238.819
G01 X479.049 Y240.023
G01 X479.956 Y241.218
G01 X480.811 Y242.400
G01 X481.667 Y243.581
G01 X482.470 Y244.749
G01 X483.225 Y245.899
G01 X483.979 Y247.049
G01 X484.684 Y248.180
G01 X485.342 Y249.290
G01 X486.000 Y250.399
G01 X486.612 Y251.486
G01 X487.178 Y252.547
G01 X488.312 Y254.668
G01 X489.268 Y256.682
G01 X490.065 Y258.555
G01 X490.862 Y260.428
G01 X491.501 Y262.160
G01 X492.001 Y263.715
G01 X492.501 Y265.270
G01 X492.861 Y266.649
G01 X493.102 Y267.817
G01 X493.424 Y269.378
G01 X493.730 Y270.894
G01 X494.016 Y272.373
G01 X494.302 Y273.852
G01 X494.569 Y275.293
G01 X494.815 Y276.702
G01 X495.060 Y278.111
G01 X495.284 Y279.488
G01 X495.483 Y280.839
G01 X495.682 Y282.190
G01 X495.857 Y283.515
G01 X496.005 Y284.820
G01 X496.153 Y286.125
G01 X496.275 Y287.409
G01 X496.367 Y288.679
G01 X496.459 Y289.949
G01 X496.521 Y291.205
G01 X496.374 Y292.422
G01 X493.996 Y304.460
G01 X491.030 Y316.366
G01 X487.483 Y328.113
G01 X486.894 Y329.882
G01 X486.195 Y331.533
G01 X485.331 Y333.198
G01 X484.461 Y334.873
G01 X483.547 Y336.493
G01 X482.591 Y338.058
G01 X481.635 Y339.623
G01 X480.637 Y341.134
G01 X479.601 Y342.592
G01 X478.565 Y344.049
G01 X477.491 Y345.454
G01 X476.381 Y346.806
G01 X475.272 Y348.158
G01 X474.127 Y349.458
G01 X472.951 Y350.707
G01 X471.775 Y351.957
G01 X470.567 Y353.155
G01 X469.330 Y354.304
G01 X468.094 Y355.453
G01 X466.829 Y356.552
G01 X465.539 Y357.603
G01 X464.249 Y358.654
G01 X462.933 Y359.657
G01 X461.596 Y360.612
G01 X460.259 Y361.568
G01 X458.900 Y362.476
G01 X457.522 Y363.338
G01 X456.145 Y364.200
G01 X454.749 Y365.017
G01 X453.338 Y365.788
G01 X451.926 Y366.560
G01 X450.500 Y367.287
G01 X449.061 Y367.970
G01 X447.623 Y368.653
G01 X446.172 Y369.293
G01 X444.713 Y369.891
G01 X443.254 Y370.488
G01 X441.786 Y371.044
G01 X440.314 Y371.558
G01 X438.841 Y372.072
G01 X437.362 Y372.545
G01 X435.882 Y372.978
G01 X434.401 Y373.412
G01 X432.919 Y373.805
G01 X431.438 Y374.160
G01 X429.957 Y374.515
G01 X428.477 Y374.831
G01 X427.001 Y375.110
G01 X425.526 Y375.389
G01 X424.055 Y375.630
G01 X422.592 Y375.835
G01 X420.874 Y376.076
G01 X417.580 Y376.502
G01 X415.955 Y376.705
G01 X414.374 Y376.888
G01 X412.832 Y377.050
G01 X411.290 Y377.212
G01 X409.786 Y377.353
G01 X408.317 Y377.471
G01 X406.847 Y377.589
G01 X405.411 Y377.684
G01 X404.005 Y377.755
G01 X402.597 Y377.826
G01 X401.219 Y377.873
G01 X399.865 Y377.893
G01 X398.510 Y377.914
G01 X397.179 Y377.909
G01 X395.867 Y377.877
G01 X394.555 Y377.844
G01 X393.262 Y377.784
G01 X391.982 Y377.696
G01 X390.702 Y377.607
G01 X389.436 Y377.489
G01 X388.178 Y377.341
G01 X386.920 Y377.193
G01 X385.671 Y377.014
G01 X384.425 Y376.804
G01 X383.179 Y376.594
G01 X381.937 Y376.351
G01 X380.693 Y376.075
G01 X379.449 Y375.799
G01 X378.204 Y375.490
G01 X376.952 Y375.145
G01 X375.700 Y374.801
G01 X374.441 Y374.421
G01 X373.171 Y374.005
G01 X371.901 Y373.589
G01 X370.619 Y373.137
G01 X369.320 Y372.646
G01 X368.021 Y372.155
G01 X366.706 Y371.626
G01 X365.368 Y371.058
G01 X364.031 Y370.490
G01 X362.672 Y369.882
G01 X361.286 Y369.233
G01 X359.900 Y368.583
G01 X358.487 Y367.893
G01 X357.043 Y367.160
G01 X355.157 Y366.203
G01 X353.324 Y365.249
G01 X351.541 Y364.294
G01 X349.758 Y363.340
G01 X348.024 Y362.385
G01 X346.337 Y361.429
G01 X344.649 Y360.472
G01 X343.008 Y359.513
G01 X341.408 Y358.549
G01 X339.809 Y357.585
G01 X338.252 Y356.617
G01 X336.734 Y355.642
G01 X335.215 Y354.666
G01 X333.736 Y353.684
G01 X332.291 Y352.693
G01 X330.846 Y351.702
G01 X329.436 Y350.701
G01 X328.057 Y349.689
G01 X326.679 Y348.677
G01 X325.332 Y347.653
G01 X324.013 Y346.615
G01 X322.693 Y345.578
G01 X321.401 Y344.526
G01 X320.134 Y343.459
G01 X318.866 Y342.391
G01 X317.622 Y341.307
G01 X316.399 Y340.205
G01 X315.176 Y339.103
G01 X313.973 Y337.982
G01 X312.787 Y336.841
G01 X311.600 Y335.699
G01 X310.431 Y334.537
G01 X309.275 Y333.352
G01 X308.119 Y332.166
G01 X306.975 Y330.958
G01 X305.842 Y329.724
G01 X304.708 Y328.490
G01 X303.584 Y327.231
G01 X302.465 Y325.944
G01 X301.347 Y324.657
G01 X300.234 Y323.343
G01 X299.124 Y321.998
G01 X298.013 Y320.654
G01 X296.905 Y319.279
G01 X295.795 Y317.872
G01 X294.685 Y316.465
G01 X293.574 Y315.026
G01 X292.457 Y313.552
G01 X291.693 Y312.543
G01 X290.844 Y311.377
G01 X289.920 Y310.072
G01 X288.996 Y308.767
G01 X287.996 Y307.323
G01 X286.933 Y305.758
G01 X285.869 Y304.193
G01 X284.741 Y302.507
G01 X282.378 Y298.931
G01 X281.142 Y297.041
G01 X279.863 Y295.067
G01 X278.583 Y293.092
G01 X277.261 Y291.034
G01 X275.905 Y288.910
G01 X275.227 Y287.849
G01 X274.541 Y286.770
G01 X273.848 Y285.678
G01 X273.155 Y284.586
G01 X272.455 Y283.480
G01 X271.750 Y282.362
G01 X271.044 Y281.244
G01 X270.333 Y280.114
