;  Created by Sandify
;  https://sandify.org
;  Version: 0.2.6
;
;  Machine type: Rectangular
;    Min X (mm): 0
;    Max X (mm): 500
;    Min Y (mm): 0
;    Max Y (mm): 500
;  Content type: shape
;  Layer:
;    Shape: FileImport
;    Name: SierpinskiTriangle.thr
;    From file:: SierpinskiTriangle.thr
;    Aspect Ratio: true
;    Comments: 
;    Visible: true
;    Initial width: 10
;    Initial height: 10
;    X offset: 0
;    Y offset: 0
;    Rotate (degrees): 0
;    Reverse path: false
;    Fine tuning:
;      Connect to next layer: line
;      Draw portion of path (%): 100
;      Backtrack at end (%): 0
;      Rotate starting point (%): 0
;  Reverse export path: false
;
; File name: 'pentagontriangles'
; File type: gcode
;

G01 X250.000 Y250.000
G01 X250.000 Y264.063
G01 X249.322 Y263.801
G01 X248.670 Y263.508
G01 X248.044 Y263.185
G01 X247.447 Y262.833
G01 X246.880 Y262.456
G01 X246.344 Y262.054
G01 X245.941 Y261.719
G01 X245.370 Y261.505
G01 X244.811 Y261.264
G01 X244.265 Y260.996
G01 X243.732 Y260.702
G01 X243.215 Y260.381
G01 X242.714 Y260.036
G01 X242.230 Y259.666
G01 X241.881 Y259.375
G01 X241.262 Y259.142
G01 X240.646 Y258.870
G01 X240.037 Y258.560
G01 X239.436 Y258.211
G01 X238.846 Y257.823
G01 X238.269 Y257.397
G01 X237.822 Y257.031
G01 X247.970 Y251.172
G01 X247.999 Y251.028
G01 X248.037 Y250.889
G01 X248.084 Y250.757
G01 X248.138 Y250.632
G01 X248.200 Y250.514
G01 X248.269 Y250.404
G01 X248.344 Y250.301
G01 X248.425 Y250.207
G01 X248.511 Y250.122
G01 X248.601 Y250.046
G01 X248.695 Y249.979
G01 X248.792 Y249.921
G01 X248.891 Y249.872
G01 X248.992 Y249.834
G01 X249.094 Y249.804
G01 X249.196 Y249.784
G01 X249.297 Y249.774
G01 X249.397 Y249.773
G01 X249.496 Y249.781
G01 X249.592 Y249.799
G01 X249.685 Y249.825
G01 X249.774 Y249.859
G01 X249.859 Y249.902
G01 X249.939 Y249.953
G01 X250.000 Y250.000
G01 X249.959 Y249.969
G01 X249.916 Y249.943
G01 X249.870 Y249.921
G01 X249.822 Y249.903
G01 X249.771 Y249.890
G01 X249.719 Y249.881
G01 X249.666 Y249.878
G01 X249.612 Y249.879
G01 X249.558 Y249.886
G01 X249.503 Y249.897
G01 X249.448 Y249.914
G01 X249.394 Y249.936
G01 X249.341 Y249.963
G01 X249.289 Y249.995
G01 X249.239 Y250.032
G01 X249.191 Y250.074
G01 X249.145 Y250.120
G01 X249.102 Y250.172
G01 X249.062 Y250.227
G01 X249.026 Y250.288
G01 X248.993 Y250.352
G01 X248.965 Y250.420
G01 X248.940 Y250.491
G01 X248.921 Y250.566
G01 X248.906 Y250.644
G01 X248.897 Y250.725
G01 X248.893 Y250.808
G01 X248.894 Y250.894
G01 X248.901 Y250.981
G01 X248.915 Y251.069
G01 X248.934 Y251.158
G01 X248.960 Y251.248
G01 X248.992 Y251.338
G01 X249.030 Y251.428
G01 X249.075 Y251.518
G01 X249.126 Y251.606
G01 X249.184 Y251.692
G01 X249.248 Y251.777
G01 X249.319 Y251.860
G01 X249.396 Y251.939
G01 X249.479 Y252.016
G01 X249.568 Y252.089
G01 X249.663 Y252.158
G01 X249.764 Y252.222
G01 X249.871 Y252.282
G01 X249.982 Y252.336
G01 X250.000 Y252.344
G01 X250.000 Y264.063
G01 X250.000 Y278.125
G01 X248.648 Y277.531
G01 X247.353 Y276.872
G01 X246.120 Y276.155
G01 X244.951 Y275.383
G01 X243.911 Y274.609
G01 X242.761 Y274.115
G01 X241.644 Y273.567
G01 X240.564 Y272.967
G01 X239.522 Y272.320
G01 X238.521 Y271.625
G01 X237.822 Y271.094
G01 X239.550 Y270.344
G01 X241.174 Y269.480
G01 X242.686 Y268.508
G01 X243.911 Y267.578
G01 X245.002 Y267.098
G01 X246.031 Y266.554
G01 X246.995 Y265.953
G01 X247.889 Y265.299
G01 X247.970 Y265.234
G01 X248.761 Y264.833
G01 X249.506 Y264.392
G01 X250.000 Y264.063
G01 X250.000 Y252.344
G01 X249.888 Y252.285
G01 X249.781 Y252.221
G01 X249.681 Y252.152
G01 X249.587 Y252.079
G01 X249.499 Y252.002
G01 X249.417 Y251.921
G01 X249.343 Y251.837
G01 X249.275 Y251.751
G01 X249.214 Y251.662
G01 X249.160 Y251.572
G01 X249.112 Y251.481
G01 X249.072 Y251.389
G01 X249.038 Y251.297
G01 X249.011 Y251.205
G01 X248.991 Y251.113
G01 X248.977 Y251.023
G01 X248.970 Y250.934
G01 X248.969 Y250.847
G01 X248.973 Y250.761
G01 X248.984 Y250.679
G01 X249.000 Y250.600
G01 X249.021 Y250.523
G01 X249.047 Y250.451
G01 X249.078 Y250.382
G01 X249.113 Y250.317
G01 X249.152 Y250.257
G01 X249.195 Y250.202
G01 X249.241 Y250.151
G01 X249.290 Y250.105
G01 X249.342 Y250.065
G01 X249.395 Y250.030
G01 X249.451 Y250.000
G01 X249.507 Y249.976
G01 X249.565 Y249.957
G01 X249.623 Y249.944
G01 X249.681 Y249.937
G01 X249.739 Y249.935
G01 X249.796 Y249.938
G01 X249.852 Y249.947
G01 X249.907 Y249.961
G01 X249.960 Y249.981
G01 X250.000 Y250.000
G01 X249.896 Y249.952
G01 X249.787 Y249.914
G01 X249.675 Y249.887
G01 X249.560 Y249.871
G01 X249.443 Y249.866
G01 X249.325 Y249.873
G01 X249.206 Y249.890
G01 X249.087 Y249.919
G01 X248.970 Y249.960
G01 X248.855 Y250.011
G01 X248.742 Y250.074
G01 X248.634 Y250.148
G01 X248.529 Y250.233
G01 X248.430 Y250.329
G01 X248.338 Y250.434
G01 X248.252 Y250.550
G01 X248.173 Y250.674
G01 X248.103 Y250.808
G01 X248.042 Y250.950
G01 X247.991 Y251.100
G01 X247.970 Y251.172
G01 X237.822 Y257.031
G01 X237.698 Y257.932
G01 X237.635 Y258.860
G01 X237.635 Y259.813
G01 X237.700 Y260.787
G01 X237.822 Y261.719
G01 X237.608 Y263.155
G01 X237.507 Y264.639
G01 X237.525 Y266.162
G01 X237.663 Y267.716
G01 X237.822 Y268.750
G01 X237.815 Y270.942
G01 X237.822 Y271.094
G01 X236.707 Y270.617
G01 X235.610 Y270.081
G01 X234.534 Y269.487
G01 X233.482 Y268.835
G01 X232.457 Y268.127
G01 X231.732 Y267.578
G01 X230.469 Y267.029
G01 X229.216 Y266.398
G01 X227.979 Y265.684
G01 X226.764 Y264.888
G01 X225.643 Y264.063
G01 X237.822 Y257.031
G01 X247.970 Y251.172
G01 X248.058 Y250.997
G01 X248.158 Y250.835
G01 X248.269 Y250.684
G01 X248.389 Y250.547
G01 X248.519 Y250.423
G01 X248.656 Y250.313
G01 X248.801 Y250.218
G01 X248.951 Y250.138
G01 X249.105 Y250.073
G01 X249.263 Y250.024
G01 X249.424 Y249.991
G01 X249.585 Y249.973
G01 X249.746 Y249.971
G01 X249.907 Y249.985
G01 X250.000 Y250.000
G01 X249.935 Y249.991
G01 X249.870 Y249.988
G01 X249.804 Y249.991
G01 X249.739 Y250.001
G01 X249.674 Y250.017
G01 X249.611 Y250.040
G01 X249.548 Y250.069
G01 X249.488 Y250.104
G01 X249.431 Y250.145
G01 X249.376 Y250.192
G01 X249.325 Y250.244
G01 X249.278 Y250.302
G01 X249.235 Y250.366
G01 X249.196 Y250.434
G01 X249.162 Y250.506
G01 X249.134 Y250.583
G01 X249.112 Y250.664
G01 X249.095 Y250.749
G01 X249.085 Y250.836
G01 X249.081 Y250.926
G01 X249.084 Y251.019
G01 X249.094 Y251.113
G01 X249.111 Y251.209
G01 X249.135 Y251.305
G01 X249.167 Y251.402
G01 X249.206 Y251.499
G01 X249.253 Y251.595
G01 X249.307 Y251.691
G01 X249.369 Y251.784
G01 X249.439 Y251.875
G01 X249.516 Y251.964
G01 X249.601 Y252.049
G01 X249.692 Y252.131
G01 X249.791 Y252.209
G01 X249.897 Y252.281
G01 X250.000 Y252.344
G01 X250.000 Y278.125
G01 X250.000 Y292.188
G01 X247.973 Y291.259
G01 X246.037 Y290.235
G01 X244.197 Y289.122
G01 X242.456 Y287.928
G01 X241.881 Y287.500
G01 X240.174 Y286.598
G01 X238.535 Y285.620
G01 X237.822 Y285.156
G01 X240.040 Y284.073
G01 X242.122 Y282.861
G01 X243.911 Y281.641
G01 X245.619 Y280.854
G01 X247.236 Y279.979
G01 X248.755 Y279.022
G01 X250.000 Y278.125
G01 X250.000 Y292.188
G01 X250.000 Y306.250
G01 X247.302 Y304.910
G01 X244.736 Y303.444
G01 X242.307 Y301.862
G01 X241.881 Y301.562
G01 X239.534 Y300.270
G01 X237.822 Y299.219
G01 X240.624 Y297.855
G01 X243.262 Y296.340
G01 X245.728 Y294.686
G01 X245.941 Y294.531
G01 X248.188 Y293.313
G01 X250.000 Y292.188
G01 X250.000 Y278.125
G01 X248.568 Y279.147
G01 X247.036 Y280.095
G01 X245.408 Y280.959
G01 X243.911 Y281.641
G01 X241.961 Y282.962
G01 X239.868 Y284.164
G01 X237.822 Y285.156
G01 X237.516 Y292.707
G01 X237.822 Y299.219
G01 X235.556 Y298.114
G01 X233.369 Y296.906
G01 X231.265 Y295.601
G01 X229.703 Y294.531
G01 X227.595 Y293.379
G01 X225.643 Y292.188
G01 X229.274 Y290.351
G01 X232.662 Y288.266
G01 X233.762 Y287.500
G01 X236.462 Y286.015
G01 X237.822 Y285.156
G01 X240.040 Y284.073
G01 X242.122 Y282.861
G01 X243.911 Y281.641
G01 X245.619 Y280.854
G01 X247.236 Y279.979
G01 X248.755 Y279.022
G01 X250.000 Y278.125
G01 X250.000 Y252.344
G01 X249.888 Y252.288
G01 X249.781 Y252.227
G01 X249.679 Y252.161
G01 X249.584 Y252.091
G01 X249.495 Y252.016
G01 X249.412 Y251.938
G01 X249.335 Y251.857
G01 X249.265 Y251.773
G01 X249.202 Y251.687
G01 X249.145 Y251.599
G01 X249.095 Y251.510
G01 X249.051 Y251.420
G01 X249.014 Y251.329
G01 X248.984 Y251.238
G01 X248.960 Y251.147
G01 X248.943 Y251.057
G01 X248.931 Y250.969
G01 X248.926 Y250.881
G01 X248.927 Y250.796
G01 X248.933 Y250.713
G01 X248.945 Y250.633
G01 X248.962 Y250.555
G01 X248.984 Y250.481
G01 X249.010 Y250.410
G01 X249.041 Y250.343
G01 X249.076 Y250.280
G01 X249.115 Y250.222
G01 X249.157 Y250.168
G01 X249.203 Y250.118
G01 X249.250 Y250.074
G01 X249.301 Y250.034
G01 X249.353 Y250.000
G01 X249.407 Y249.971
G01 X249.462 Y249.947
G01 X249.517 Y249.928
G01 X249.573 Y249.915
G01 X249.629 Y249.907
G01 X249.685 Y249.905
G01 X249.740 Y249.907
G01 X249.794 Y249.915
G01 X249.846 Y249.927
G01 X249.897 Y249.945
G01 X249.945 Y249.967
G01 X249.991 Y249.994
G01 X250.000 Y250.000
G01 X249.913 Y249.946
G01 X249.820 Y249.902
G01 X249.723 Y249.866
G01 X249.623 Y249.839
G01 X249.519 Y249.823
G01 X249.413 Y249.816
G01 X249.306 Y249.819
G01 X249.198 Y249.832
G01 X249.089 Y249.856
G01 X248.981 Y249.889
G01 X248.875 Y249.933
G01 X248.770 Y249.988
G01 X248.669 Y250.052
G01 X248.571 Y250.126
G01 X248.477 Y250.210
G01 X248.389 Y250.304
G01 X248.306 Y250.406
G01 X248.230 Y250.518
G01 X248.160 Y250.637
G01 X248.099 Y250.765
G01 X248.045 Y250.900
G01 X248.001 Y251.043
G01 X247.970 Y251.172
G01 X225.643 Y264.063
G01 X225.474 Y265.814
G01 X225.419 Y267.614
G01 X225.485 Y269.457
G01 X225.643 Y271.094
G01 X225.473 Y273.443
G01 X225.479 Y275.857
G01 X225.643 Y278.125
G01 X223.876 Y277.331
G01 X222.130 Y276.431
G01 X220.410 Y275.424
G01 X218.723 Y274.310
G01 X217.524 Y273.438
G01 X215.547 Y272.379
G01 X213.597 Y271.181
G01 X213.465 Y271.094
G01 X225.643 Y264.063
G01 X225.474 Y265.814
G01 X225.419 Y267.614
G01 X225.485 Y269.457
G01 X225.643 Y271.094
G01 X225.473 Y273.443
G01 X225.479 Y275.857
G01 X225.643 Y278.125
G01 X225.401 Y281.394
G01 X225.425 Y284.749
G01 X225.643 Y287.500
G01 X225.630 Y291.885
G01 X225.643 Y292.188
G01 X223.477 Y291.136
G01 X221.356 Y289.972
G01 X219.286 Y288.699
G01 X217.524 Y287.500
G01 X215.315 Y286.289
G01 X213.465 Y285.156
G01 X220.231 Y281.602
G01 X225.643 Y278.125
G01 X225.472 Y275.662
G01 X225.481 Y273.253
G01 X225.643 Y271.094
G01 X225.470 Y269.221
G01 X225.420 Y267.383
G01 X225.489 Y265.589
G01 X225.643 Y264.063
G01 X213.465 Y271.094
G01 X213.248 Y273.696
G01 X213.202 Y276.369
G01 X213.333 Y279.101
G01 X213.465 Y280.469
G01 X213.413 Y283.689
G01 X213.465 Y285.156
G01 X211.042 Y283.968
G01 X208.649 Y282.625
G01 X206.297 Y281.128
G01 X205.346 Y280.469
G01 X202.684 Y278.988
G01 X201.286 Y278.125
G01 X213.465 Y271.094
G01 X225.643 Y264.063
G01 X247.970 Y251.172
G01 X247.996 Y251.029
G01 X248.031 Y250.892
G01 X248.074 Y250.761
G01 X248.125 Y250.636
G01 X248.184 Y250.519
G01 X248.249 Y250.408
G01 X248.321 Y250.305
G01 X248.398 Y250.211
G01 X248.481 Y250.125
G01 X248.567 Y250.047
G01 X248.658 Y249.978
G01 X248.751 Y249.918
G01 X248.847 Y249.867
G01 X248.945 Y249.826
G01 X249.044 Y249.793
G01 X249.143 Y249.770
G01 X249.242 Y249.756
G01 X249.340 Y249.752
G01 X249.437 Y249.756
G01 X249.531 Y249.769
G01 X249.622 Y249.790
G01 X249.710 Y249.820
G01 X249.794 Y249.858
G01 X249.874 Y249.903
G01 X249.948 Y249.956
G01 X250.000 Y250.000
G01 X249.960 Y249.967
G01 X249.917 Y249.938
G01 X249.871 Y249.913
G01 X249.822 Y249.892
G01 X249.771 Y249.877
G01 X249.719 Y249.866
G01 X249.665 Y249.860
G01 X249.609 Y249.858
G01 X249.553 Y249.863
G01 X249.497 Y249.872
G01 X249.440 Y249.886
G01 X249.384 Y249.906
G01 X249.328 Y249.931
G01 X249.274 Y249.961
G01 X249.221 Y249.997
G01 X249.170 Y250.038
G01 X249.121 Y250.083
G01 X249.075 Y250.134
G01 X249.031 Y250.189
G01 X248.991 Y250.249
G01 X248.955 Y250.313
G01 X248.922 Y250.381
G01 X248.894 Y250.453
G01 X248.871 Y250.529
G01 X248.852 Y250.608
G01 X248.839 Y250.690
G01 X248.831 Y250.775
G01 X248.828 Y250.862
G01 X248.832 Y250.951
G01 X248.841 Y251.042
G01 X248.857 Y251.134
G01 X248.879 Y251.227
G01 X248.907 Y251.321
G01 X248.942 Y251.415
G01 X248.984 Y251.508
G01 X249.032 Y251.600
G01 X249.087 Y251.692
G01 X249.149 Y251.781
G01 X249.217 Y251.869
G01 X249.292 Y251.954
G01 X249.374 Y252.036
G01 X249.462 Y252.114
G01 X249.556 Y252.189
G01 X249.656 Y252.260
G01 X249.762 Y252.325
G01 X249.873 Y252.386
G01 X249.990 Y252.442
G01 X250.000 Y252.446
G01 X250.000 Y306.250
G01 X250.000 Y320.313
G01 X246.628 Y318.638
G01 X243.420 Y316.805
G01 X240.384 Y314.827
G01 X239.851 Y314.453
G01 X237.822 Y313.281
G01 X241.253 Y311.610
G01 X244.490 Y309.759
G01 X247.523 Y307.744
G01 X247.970 Y307.422
G01 X250.000 Y306.250
G01 X250.000 Y320.313
G01 X250.000 Y334.375
G01 X245.957 Y332.288
G01 X242.120 Y330.012
G01 X239.851 Y328.516
G01 X237.822 Y327.344
G01 X241.910 Y325.257
G01 X245.763 Y322.962
G01 X247.970 Y321.484
G01 X250.000 Y320.313
G01 X250.000 Y306.250
G01 X247.141 Y308.205
G01 X244.089 Y310.010
G01 X240.855 Y311.652
G01 X239.851 Y312.109
G01 X237.822 Y313.281
G01 X237.822 Y327.344
G01 X234.274 Y325.536
G01 X230.873 Y323.569
G01 X227.673 Y321.484
G01 X225.643 Y320.312
G01 X230.117 Y318.021
G01 X234.305 Y315.469
G01 X235.792 Y314.453
G01 X237.822 Y313.281
G01 X241.253 Y311.610
G01 X244.490 Y309.759
G01 X247.523 Y307.744
G01 X247.970 Y307.422
G01 X250.000 Y306.250
G01 X250.000 Y334.375
G01 X250.000 Y348.438
G01 X245.283 Y346.015
G01 X240.804 Y343.373
G01 X237.822 Y341.406
G01 X242.563 Y338.999
G01 X247.039 Y336.353
G01 X250.000 Y334.375
G01 X250.000 Y348.438
G01 X250.000 Y362.500
G01 X244.613 Y359.665
G01 X239.503 Y356.578
G01 X237.822 Y355.469
G01 X243.229 Y352.645
G01 X248.329 Y349.552
G01 X250.000 Y348.438
G01 X250.000 Y334.375
G01 X245.717 Y337.175
G01 X241.160 Y339.751
G01 X237.822 Y341.406
G01 X237.822 Y355.469
G01 X232.960 Y352.936
G01 X228.318 Y350.185
G01 X225.643 Y348.438
G01 X231.290 Y345.493
G01 X236.588 Y342.240
G01 X237.822 Y341.406
G01 X242.563 Y338.999
G01 X247.039 Y336.353
G01 X250.000 Y334.375
G01 X250.000 Y306.250
G01 X247.141 Y308.205
G01 X244.089 Y310.010
G01 X240.855 Y311.652
G01 X239.851 Y312.109
G01 X236.174 Y314.532
G01 X232.237 Y316.736
G01 X229.703 Y317.969
G01 X225.643 Y320.312
G01 X225.601 Y333.470
G01 X225.643 Y334.375
G01 X221.759 Y332.417
G01 X218.007 Y330.283
G01 X214.397 Y327.981
G01 X213.465 Y327.344
G01 X219.240 Y324.363
G01 X224.630 Y321.013
G01 X225.643 Y320.312
G01 X225.601 Y333.470
G01 X225.643 Y334.375
G01 X225.643 Y348.438
G01 X221.147 Y346.110
G01 X216.819 Y343.581
G01 X213.465 Y341.406
G01 X219.702 Y338.121
G01 X225.524 Y334.457
G01 X225.643 Y334.375
G01 X225.601 Y321.204
G01 X225.643 Y320.312
G01 X220.331 Y323.732
G01 X214.630 Y326.788
G01 X213.465 Y327.344
G01 X213.340 Y338.626
G01 X213.465 Y341.406
G01 X209.167 Y339.189
G01 X204.999 Y336.771
G01 X201.286 Y334.375
G01 X208.725 Y330.355
G01 X213.465 Y327.344
G01 X219.240 Y324.363
G01 X224.630 Y321.013
G01 X225.643 Y320.312
G01 X230.117 Y318.021
G01 X234.305 Y315.469
G01 X235.792 Y314.453
G01 X239.375 Y312.693
G01 X242.750 Y310.743
G01 X245.907 Y308.618
G01 X245.941 Y308.594
G01 X248.856 Y306.960
G01 X250.000 Y306.250
G01 X250.000 Y252.446
G01 X249.883 Y252.376
G01 X249.773 Y252.302
G01 X249.670 Y252.222
G01 X249.575 Y252.138
G01 X249.486 Y252.050
G01 X249.406 Y251.959
G01 X249.333 Y251.865
G01 X249.268 Y251.768
G01 X249.210 Y251.670
G01 X249.160 Y251.571
G01 X249.118 Y251.471
G01 X249.084 Y251.370
G01 X249.058 Y251.271
G01 X249.039 Y251.171
G01 X249.027 Y251.074
G01 X249.022 Y250.978
G01 X249.025 Y250.884
G01 X249.034 Y250.793
G01 X249.050 Y250.705
G01 X249.072 Y250.620
G01 X249.099 Y250.540
G01 X249.132 Y250.464
G01 X249.171 Y250.392
G01 X249.214 Y250.326
G01 X249.261 Y250.264
G01 X249.313 Y250.208
G01 X249.368 Y250.158
G01 X249.426 Y250.114
G01 X249.487 Y250.076
G01 X249.550 Y250.044
G01 X249.615 Y250.019
G01 X249.681 Y250.000
G01 X249.747 Y249.988
G01 X249.815 Y249.982
G01 X249.881 Y249.982
G01 X249.948 Y249.990
G01 X250.000 Y250.000
G01 X249.845 Y249.971
G01 X249.687 Y249.957
G01 X249.528 Y249.958
G01 X249.368 Y249.975
G01 X249.210 Y250.008
G01 X249.053 Y250.056
G01 X248.900 Y250.119
G01 X248.751 Y250.198
G01 X248.607 Y250.291
G01 X248.470 Y250.399
G01 X248.341 Y250.521
G01 X248.220 Y250.656
G01 X248.109 Y250.805
G01 X248.009 Y250.965
G01 X247.920 Y251.138
G01 X247.882 Y251.223
G01 X201.286 Y278.125
G01 X201.023 Y281.579
G01 X200.985 Y285.124
G01 X201.181 Y288.746
G01 X201.286 Y289.844
G01 X201.286 Y292.187
G01 X198.138 Y290.637
G01 X195.028 Y288.877
G01 X191.969 Y286.907
G01 X191.137 Y286.328
G01 X189.108 Y285.156
G01 X201.286 Y278.125
G01 X201.023 Y281.579
G01 X200.985 Y285.124
G01 X201.181 Y288.746
G01 X201.286 Y289.844
G01 X201.286 Y292.187
G01 X201.030 Y296.806
G01 X201.116 Y301.546
G01 X201.286 Y303.906
G01 X201.286 Y306.250
G01 X197.885 Y304.524
G01 X194.538 Y302.597
G01 X191.256 Y300.472
G01 X191.137 Y300.391
G01 X189.108 Y299.219
G01 X201.286 Y292.187
G01 X201.018 Y288.380
G01 X201.002 Y284.652
G01 X201.230 Y281.017
G01 X201.286 Y280.469
G01 X201.286 Y278.125
G01 X189.108 Y285.156
G01 X188.871 Y289.414
G01 X188.911 Y293.776
G01 X189.108 Y296.875
G01 X189.108 Y299.219
G01 X185.282 Y297.255
G01 X181.507 Y295.031
G01 X178.959 Y293.359
G01 X176.929 Y292.188
G01 X189.108 Y285.156
G01 X201.286 Y278.125
G01 X201.023 Y281.579
G01 X200.985 Y285.124
G01 X201.181 Y288.746
G01 X201.286 Y289.844
G01 X201.027 Y294.239
G01 X201.087 Y298.751
G01 X201.286 Y301.563
G01 X201.286 Y306.250
G01 X200.981 Y312.560
G01 X201.185 Y319.025
G01 X201.286 Y320.312
G01 X197.469 Y318.392
G01 X193.724 Y316.264
G01 X190.063 Y313.933
G01 X189.108 Y313.281
G01 X200.535 Y306.732
G01 X201.286 Y306.250
G01 X200.981 Y312.560
G01 X201.185 Y319.025
G01 X201.286 Y320.312
G01 X201.047 Y328.639
G01 X201.286 Y334.375
G01 X197.017 Y332.174
G01 X192.848 Y329.756
G01 X189.108 Y327.344
G01 X198.983 Y321.785
G01 X201.286 Y320.312
G01 X200.980 Y313.820
G01 X201.186 Y307.478
G01 X201.286 Y306.250
G01 X189.912 Y312.866
G01 X189.108 Y313.281
G01 X188.834 Y320.152
G01 X189.096 Y327.193
G01 X189.108 Y327.344
G01 X184.691 Y325.061
G01 X180.354 Y322.530
G01 X176.929 Y320.313
G01 X189.108 Y313.281
G01 X200.535 Y306.732
G01 X201.286 Y306.250
G01 X201.033 Y301.230
G01 X201.150 Y296.327
G01 X201.286 Y294.531
G01 X201.019 Y290.548
G01 X201.020 Y286.650
G01 X201.282 Y282.854
G01 X201.286 Y282.813
G01 X201.243 Y279.471
G01 X201.286 Y278.125
G01 X176.929 Y292.188
G01 X176.646 Y297.296
G01 X176.693 Y302.531
G01 X176.929 Y306.250
G01 X172.363 Y303.912
G01 X167.854 Y301.259
G01 X164.751 Y299.219
G01 X176.929 Y292.188
G01 X176.646 Y297.296
G01 X176.693 Y302.531
G01 X176.929 Y306.250
G01 X176.657 Y312.424
G01 X176.821 Y318.753
G01 X176.929 Y320.313
G01 X172.186 Y317.847
G01 X167.512 Y315.082
G01 X164.751 Y313.281
G01 X176.929 Y306.250
G01 X176.643 Y300.940
G01 X176.697 Y295.741
G01 X176.929 Y292.188
G01 X164.751 Y299.219
G01 X164.494 Y305.132
G01 X164.618 Y311.184
G01 X164.751 Y313.281
G01 X159.501 Y310.525
G01 X154.323 Y307.402
G01 X152.572 Y306.250
G01 X164.751 Y299.219
G01 X176.929 Y292.188
G01 X201.286 Y278.125
G01 X247.882 Y251.223
G01 X248.010 Y251.283
G01 X248.139 Y251.333
G01 X248.268 Y251.374
G01 X248.397 Y251.406
G01 X248.524 Y251.429
G01 X248.649 Y251.442
G01 X248.772 Y251.447
G01 X248.893 Y251.443
G01 X249.009 Y251.431
G01 X249.122 Y251.412
G01 X249.230 Y251.385
G01 X249.334 Y251.351
G01 X249.432 Y251.310
G01 X249.525 Y251.263
G01 X249.611 Y251.210
G01 X249.691 Y251.152
G01 X249.765 Y251.089
G01 X249.831 Y251.022
G01 X249.891 Y250.951
G01 X249.942 Y250.878
G01 X249.987 Y250.801
G01 X250.024 Y250.722
G01 X250.053 Y250.642
G01 X250.074 Y250.561
G01 X250.087 Y250.480
G01 X250.093 Y250.399
G01 X250.091 Y250.319
G01 X250.081 Y250.240
G01 X250.064 Y250.162
G01 X250.040 Y250.088
G01 X250.008 Y250.016
G01 X250.000 Y250.000
G01 X250.107 Y250.229
G01 X250.191 Y250.468
G01 X250.252 Y250.715
G01 X250.288 Y250.968
G01 X250.301 Y251.227
G01 X250.288 Y251.488
G01 X250.251 Y251.750
G01 X250.188 Y252.012
G01 X250.100 Y252.271
G01 X250.000 Y252.500
G01 X250.000 Y362.500
G01 X250.000 Y376.563
G01 X243.942 Y373.314
G01 X238.202 Y369.783
G01 X237.822 Y369.531
G01 X243.895 Y366.291
G01 X249.621 Y362.753
G01 X250.000 Y362.500
G01 X250.000 Y376.563
G01 X250.000 Y390.625
G01 X243.271 Y386.962
G01 X237.822 Y383.594
G01 X244.563 Y379.938
G01 X250.000 Y376.563
G01 X250.000 Y362.500
G01 X244.298 Y366.058
G01 X238.248 Y369.320
G01 X237.822 Y369.531
G01 X237.822 Y383.594
G01 X231.644 Y380.257
G01 X225.764 Y376.642
G01 X225.643 Y376.563
G01 X232.563 Y372.813
G01 X237.822 Y369.531
G01 X243.895 Y366.291
G01 X249.621 Y362.753
G01 X250.000 Y362.500
G01 X250.000 Y390.625
G01 X250.000 Y404.688
G01 X242.601 Y400.611
G01 X237.822 Y397.656
G01 X245.231 Y393.585
G01 X250.000 Y390.625
G01 X250.000 Y404.688
G01 X250.000 Y418.750
G01 X241.930 Y414.259
G01 X237.822 Y411.719
G01 X245.899 Y407.232
G01 X250.000 Y404.688
G01 X250.000 Y390.625
G01 X242.879 Y394.943
G01 X237.822 Y397.656
G01 X237.822 Y411.719
G01 X230.320 Y407.569
G01 X225.643 Y404.687
G01 X233.862 Y400.124
G01 X237.822 Y397.656
G01 X245.231 Y393.585
G01 X250.000 Y390.625
G01 X250.000 Y362.500
G01 X244.294 Y366.146
G01 X238.231 Y369.493
G01 X235.792 Y370.703
G01 X229.068 Y374.737
G01 X225.643 Y376.563
G01 X225.643 Y390.625
G01 X219.247 Y387.143
G01 X213.465 Y383.594
G01 X221.391 Y379.228
G01 X225.643 Y376.563
G01 X225.643 Y390.625
G01 X225.643 Y404.687
G01 X218.602 Y400.811
G01 X213.465 Y397.656
G01 X222.001 Y392.905
G01 X225.643 Y390.625
G01 X225.643 Y376.563
G01 X218.007 Y381.183
G01 X213.465 Y383.594
G01 X213.465 Y397.656
G01 X206.774 Y393.986
G01 X201.286 Y390.625
G01 X210.382 Y385.533
G01 X213.465 Y383.594
G01 X221.391 Y379.228
G01 X225.643 Y376.563
G01 X232.548 Y372.916
G01 X239.035 Y368.908
G01 X239.851 Y368.359
G01 X245.803 Y365.105
G01 X250.000 Y362.500
G01 X250.000 Y418.750
G01 X250.000 Y432.813
G01 X241.260 Y427.907
G01 X237.822 Y425.781
G01 X246.568 Y420.879
G01 X250.000 Y418.750
G01 X250.000 Y432.813
G01 X250.000 Y446.875
G01 X240.589 Y441.555
G01 X237.822 Y439.844
G01 X247.237 Y434.527
G01 X250.000 Y432.813
G01 X250.000 Y418.750
G01 X241.460 Y423.829
G01 X237.822 Y425.781
G01 X237.822 Y439.844
G01 X228.992 Y434.877
G01 X225.643 Y432.812
G01 X235.174 Y427.429
G01 X237.822 Y425.781
G01 X246.568 Y420.879
G01 X250.000 Y418.750
G01 X250.000 Y446.875
G01 X250.000 Y460.938
G01 X239.919 Y455.203
G01 X237.822 Y453.906
G01 X247.906 Y448.174
G01 X250.000 Y446.875
G01 X250.000 Y460.938
G01 X250.000 Y475.000
G01 X239.249 Y468.851
G01 X237.822 Y467.969
G01 X248.575 Y461.821
G01 X250.000 Y460.938
G01 X250.000 Y446.875
G01 X240.041 Y452.715
G01 X237.822 Y453.906
G01 X237.822 Y467.969
G01 X227.660 Y462.181
G01 X225.643 Y460.937
G01 X236.494 Y454.732
G01 X237.822 Y453.906
G01 X247.906 Y448.174
G01 X250.000 Y446.875
G01 X250.000 Y418.750
G01 X241.452 Y424.001
G01 X233.762 Y428.125
G01 X225.643 Y432.812
G01 X225.643 Y446.875
G01 X216.646 Y441.800
G01 X213.465 Y439.844
G01 X223.889 Y433.908
G01 X225.643 Y432.812
G01 X225.643 Y446.875
G01 X225.643 Y460.937
G01 X215.989 Y455.460
G01 X213.465 Y453.906
G01 X224.530 Y447.570
G01 X225.643 Y446.875
G01 X225.643 Y432.812
G01 X215.335 Y438.848
G01 X213.465 Y439.844
G01 X213.465 Y453.906
G01 X204.236 Y448.686
G01 X201.286 Y446.875
G01 X212.712 Y440.315
G01 X213.465 Y439.844
G01 X223.889 Y433.908
G01 X225.643 Y432.812
G01 X235.158 Y427.621
G01 X241.881 Y423.438
G01 X250.000 Y418.750
G01 X250.000 Y362.500
G01 X244.297 Y366.081
G01 X238.244 Y369.365
G01 X237.292 Y369.837
G01 X230.653 Y374.033
G01 X223.573 Y377.854
G01 X222.466 Y378.397
G01 X214.484 Y383.329
G01 X207.640 Y386.957
G01 X201.286 Y390.625
G01 X201.286 Y404.688
G01 X194.241 Y400.796
G01 X189.108 Y397.656
G01 X199.537 Y391.729
G01 X201.286 Y390.625
G01 X201.286 Y404.688
G01 X201.286 Y418.750
G01 X193.636 Y414.490
G01 X189.108 Y411.719
G01 X200.017 Y405.487
G01 X201.286 Y404.688
G01 X201.286 Y390.625
G01 X190.983 Y396.669
G01 X189.108 Y397.656
G01 X189.108 Y411.719
G01 X181.661 Y407.579
G01 X176.929 Y404.687
G01 X188.856 Y397.816
G01 X189.108 Y397.656
G01 X199.537 Y391.729
G01 X201.286 Y390.625
G01 X201.286 Y416.406
G01 X201.286 Y418.750
G01 X201.286 Y432.812
G01 X193.022 Y428.178
G01 X189.108 Y425.781
G01 X200.535 Y419.223
G01 X201.286 Y418.750
G01 X201.286 Y432.812
G01 X201.286 Y446.875
G01 X192.401 Y441.862
G01 X189.108 Y439.844
G01 X201.079 Y432.942
G01 X201.286 Y432.812
G01 X201.286 Y418.750
G01 X189.912 Y425.356
G01 X189.108 Y425.781
G01 X189.108 Y439.844
G01 X180.482 Y434.986
G01 X176.929 Y432.812
G01 X189.108 Y425.781
G01 X200.535 Y419.223
G01 X201.286 Y418.750
G01 X201.286 Y392.969
G01 X201.286 Y390.625
G01 X190.877 Y396.932
G01 X185.048 Y400.000
G01 X176.929 Y404.687
G01 X176.929 Y418.750
G01 X169.043 Y414.340
G01 X164.751 Y411.719
G01 X176.929 Y404.687
G01 X176.929 Y418.750
G01 X176.929 Y432.812
G01 X168.480 Y428.060
G01 X164.751 Y425.781
G01 X176.929 Y418.750
G01 X176.929 Y404.687
G01 X164.751 Y411.719
G01 X164.751 Y425.781
G01 X156.394 Y421.084
G01 X152.572 Y418.750
G01 X164.751 Y411.719
G01 X176.929 Y404.687
G01 X188.729 Y398.121
G01 X193.167 Y395.313
G01 X201.286 Y390.625
G01 X210.333 Y385.701
G01 X216.112 Y382.065
G01 X223.776 Y377.990
G01 X230.938 Y373.505
G01 X237.468 Y370.016
G01 X243.608 Y366.194
G01 X243.646 Y366.168
G01 X249.373 Y362.889
G01 X250.000 Y362.500
G01 X250.000 Y252.500
G01 X250.118 Y252.402
G01 X250.226 Y252.298
G01 X250.325 Y252.190
G01 X250.413 Y252.078
G01 X250.492 Y251.962
G01 X250.559 Y251.844
G01 X250.617 Y251.725
G01 X250.665 Y251.604
G01 X250.702 Y251.483
G01 X250.729 Y251.363
G01 X250.746 Y251.244
G01 X250.753 Y251.126
G01 X250.750 Y251.011
G01 X250.738 Y250.900
G01 X250.717 Y250.792
G01 X250.688 Y250.688
G01 X250.650 Y250.589
G01 X250.605 Y250.496
G01 X250.552 Y250.409
G01 X250.492 Y250.328
G01 X250.425 Y250.255
G01 X250.353 Y250.189
G01 X250.276 Y250.130
G01 X250.193 Y250.080
G01 X250.107 Y250.038
G01 X250.018 Y250.005
G01 X250.000 Y250.000
G01 X250.050 Y250.017
G01 X250.098 Y250.039
G01 X250.143 Y250.066
G01 X250.186 Y250.097
G01 X250.227 Y250.133
G01 X250.264 Y250.173
G01 X250.298 Y250.217
G01 X250.328 Y250.264
G01 X250.354 Y250.315
G01 X250.375 Y250.368
G01 X250.393 Y250.425
G01 X250.405 Y250.484
G01 X250.413 Y250.545
G01 X250.415 Y250.608
G01 X250.412 Y250.673
G01 X250.404 Y250.738
G01 X250.390 Y250.805
G01 X250.371 Y250.871
G01 X250.346 Y250.938
G01 X250.315 Y251.004
G01 X250.279 Y251.069
G01 X250.237 Y251.133
G01 X250.189 Y251.195
G01 X250.136 Y251.255
G01 X250.077 Y251.313
G01 X250.013 Y251.368
G01 X249.944 Y251.419
G01 X249.870 Y251.467
G01 X249.791 Y251.511
G01 X249.707 Y251.551
G01 X249.619 Y251.585
G01 X249.527 Y251.615
G01 X249.431 Y251.640
G01 X249.331 Y251.659
G01 X249.229 Y251.672
G01 X249.123 Y251.678
G01 X249.015 Y251.679
G01 X248.905 Y251.672
G01 X248.794 Y251.659
G01 X248.681 Y251.639
G01 X248.567 Y251.612
G01 X248.453 Y251.577
G01 X248.339 Y251.535
G01 X248.225 Y251.485
G01 X248.112 Y251.428
G01 X248.001 Y251.363
G01 X247.892 Y251.291
G01 X247.835 Y251.250
G01 X152.572 Y306.250
G01 X152.341 Y312.967
G01 X152.542 Y319.837
G01 X152.572 Y320.313
G01 X146.640 Y317.136
G01 X140.790 Y313.542
G01 X140.394 Y313.281
G01 X152.572 Y306.250
G01 X152.341 Y312.967
G01 X152.542 Y319.837
G01 X152.572 Y320.313
G01 X152.359 Y328.030
G01 X152.572 Y334.375
G01 X146.500 Y331.099
G01 X140.519 Y327.426
G01 X140.394 Y327.344
G01 X152.572 Y320.313
G01 X152.341 Y313.433
G01 X152.543 Y306.704
G01 X152.572 Y306.250
G01 X140.394 Y313.281
G01 X140.189 Y320.803
G01 X140.394 Y327.344
G01 X133.777 Y323.746
G01 X128.215 Y320.313
G01 X140.394 Y313.281
G01 X152.572 Y306.250
G01 X152.268 Y313.014
G01 X152.400 Y319.939
G01 X152.572 Y322.656
G01 X152.441 Y330.496
G01 X152.572 Y334.375
G01 X152.389 Y343.298
G01 X152.572 Y348.438
G01 X146.259 Y345.004
G01 X140.394 Y341.406
G01 X152.572 Y334.375
G01 X152.389 Y343.298
G01 X152.572 Y348.438
G01 X152.432 Y358.771
G01 X152.572 Y362.500
G01 X145.944 Y358.866
G01 X140.394 Y355.469
G01 X152.572 Y348.438
G01 X152.390 Y339.390
G01 X152.572 Y334.375
G01 X140.394 Y341.406
G01 X140.239 Y351.068
G01 X140.394 Y355.469
G01 X133.430 Y351.638
G01 X128.215 Y348.437
G01 X140.394 Y341.406
G01 X152.572 Y334.375
G01 X152.277 Y326.572
G01 X152.505 Y318.950
G01 X152.572 Y317.969
G01 X152.414 Y311.188
G01 X152.572 Y306.250
G01 X128.215 Y320.313
G01 X128.036 Y328.638
G01 X128.215 Y334.375
G01 X120.915 Y330.356
G01 X116.037 Y327.344
G01 X128.215 Y320.313
G01 X128.036 Y328.638
G01 X128.215 Y334.375
G01 X128.057 Y343.663
G01 X128.215 Y348.437
G01 X120.800 Y344.338
G01 X116.037 Y341.406
G01 X128.215 Y334.375
G01 X128.036 Y325.923
G01 X128.215 Y320.313
G01 X116.037 Y327.344
G01 X115.883 Y336.474
G01 X116.037 Y341.406
G01 X108.053 Y336.965
G01 X103.858 Y334.375
G01 X116.037 Y327.344
G01 X128.215 Y320.313
G01 X152.572 Y306.250
G01 X152.322 Y312.979
G01 X152.505 Y319.864
G01 X152.572 Y320.924
G01 X152.258 Y328.771
G01 X152.489 Y336.813
G01 X152.572 Y338.043
G01 X152.291 Y347.422
G01 X152.572 Y355.163
G01 X152.572 Y362.500
G01 X152.490 Y374.445
G01 X152.572 Y376.563
G01 X145.571 Y372.697
G01 X140.394 Y369.531
G01 X152.572 Y362.500
G01 X152.490 Y374.445
G01 X152.572 Y376.563
G01 X152.560 Y390.320
G01 X152.572 Y390.625
G01 X145.154 Y386.502
G01 X140.394 Y383.594
G01 X152.572 Y376.563
G01 X152.490 Y364.567
G01 X152.572 Y362.500
G01 X140.394 Y369.531
G01 X140.335 Y382.058
G01 X140.394 Y383.594
G01 X132.788 Y379.360
G01 X128.215 Y376.562
G01 X140.394 Y369.531
G01 X152.572 Y362.500
G01 X152.315 Y374.668
G01 X152.572 Y381.250
G01 X152.572 Y390.625
G01 X152.572 Y404.688
G01 X144.702 Y400.287
G01 X140.394 Y397.656
G01 X152.572 Y390.625
G01 X152.572 Y404.688
G01 X152.572 Y418.750
G01 X144.222 Y414.056
G01 X140.394 Y411.719
G01 X152.572 Y404.688
G01 X152.572 Y390.625
G01 X140.394 Y397.656
G01 X140.394 Y411.719
G01 X131.965 Y406.978
G01 X128.215 Y404.688
G01 X140.394 Y397.656
G01 X152.572 Y390.625
G01 X152.358 Y377.123
G01 X152.572 Y371.875
G01 X152.572 Y362.500
G01 X130.245 Y375.391
G01 X128.215 Y376.562
G01 X128.181 Y389.716
G01 X128.215 Y390.625
G01 X119.994 Y386.016
G01 X116.037 Y383.594
G01 X128.215 Y376.562
G01 X128.181 Y389.716
G01 X128.215 Y390.625
G01 X128.215 Y404.688
G01 X119.621 Y399.848
G01 X116.037 Y397.656
G01 X128.215 Y390.625
G01 X128.181 Y377.450
G01 X128.215 Y376.562
G01 X116.037 Y383.594
G01 X116.027 Y397.406
G01 X116.037 Y397.656
G01 X107.190 Y392.666
G01 X103.858 Y390.625
G01 X116.037 Y383.594
G01 X128.215 Y376.562
G01 X150.542 Y363.672
G01 X152.572 Y362.500
G01 X152.313 Y352.203
G01 X152.572 Y345.380
G01 X152.270 Y336.705
G01 X152.572 Y328.261
G01 X152.329 Y320.862
G01 X152.569 Y313.633
G01 X152.572 Y313.587
G01 X152.549 Y306.987
G01 X152.572 Y306.250
G01 X103.858 Y334.375
G01 X103.729 Y344.310
G01 X103.858 Y348.438
G01 X95.190 Y343.575
G01 X91.680 Y341.406
G01 X103.858 Y334.375
G01 X103.729 Y344.310
G01 X103.858 Y348.438
G01 X103.754 Y359.310
G01 X103.858 Y362.500
G01 X95.091 Y357.571
G01 X91.680 Y355.469
G01 X103.858 Y348.438
G01 X103.730 Y338.412
G01 X103.858 Y334.375
G01 X91.680 Y341.406
G01 X91.576 Y352.146
G01 X91.680 Y355.469
G01 X82.327 Y350.183
G01 X79.501 Y348.438
G01 X91.680 Y341.406
G01 X103.858 Y334.375
G01 X103.585 Y344.403
G01 X103.858 Y353.125
G01 X103.858 Y362.500
G01 X103.786 Y374.445
G01 X103.858 Y376.562
G01 X94.914 Y371.519
G01 X91.680 Y369.531
G01 X103.858 Y362.500
G01 X103.786 Y374.445
G01 X103.858 Y376.562
G01 X103.826 Y389.716
G01 X103.858 Y390.625
G01 X94.673 Y385.431
G01 X91.680 Y383.594
G01 X103.858 Y376.562
G01 X103.787 Y364.567
G01 X103.858 Y362.500
G01 X91.680 Y369.531
G01 X91.634 Y382.251
G01 X91.680 Y383.594
G01 X82.069 Y378.142
G01 X79.501 Y376.562
G01 X91.680 Y369.531
G01 X103.858 Y362.500
G01 X103.597 Y351.664
G01 X103.858 Y343.750
G01 X103.858 Y334.375
G01 X79.501 Y348.438
G01 X79.423 Y359.982
G01 X79.501 Y362.500
G01 X69.464 Y356.792
G01 X67.323 Y355.469
G01 X79.501 Y348.438
G01 X79.423 Y359.982
G01 X79.501 Y362.500
G01 X79.449 Y374.964
G01 X79.501 Y376.562
G01 X69.378 Y370.798
G01 X67.323 Y369.531
G01 X79.501 Y362.500
G01 X79.424 Y350.901
G01 X79.501 Y348.438
G01 X67.323 Y355.469
G01 X67.269 Y367.818
G01 X67.323 Y369.531
G01 X56.601 Y363.400
G01 X55.144 Y362.500
G01 X67.323 Y355.469
G01 X79.501 Y348.438
G01 X103.858 Y334.375
G01 X152.572 Y306.250
G01 X247.835 Y251.250
G01 X247.949 Y251.322
G01 X248.065 Y251.387
G01 X248.182 Y251.443
G01 X248.300 Y251.491
G01 X248.418 Y251.531
G01 X248.536 Y251.563
G01 X248.653 Y251.588
G01 X248.769 Y251.605
G01 X248.883 Y251.614
G01 X248.995 Y251.616
G01 X249.105 Y251.611
G01 X249.211 Y251.600
G01 X249.314 Y251.582
G01 X249.414 Y251.558
G01 X249.509 Y251.528
G01 X249.600 Y251.492
G01 X249.686 Y251.452
G01 X249.768 Y251.407
G01 X249.844 Y251.357
G01 X249.915 Y251.303
G01 X249.980 Y251.246
G01 X250.039 Y251.186
G01 X250.092 Y251.123
G01 X250.139 Y251.058
G01 X250.180 Y250.992
G01 X250.215 Y250.923
G01 X250.244 Y250.854
G01 X250.266 Y250.785
G01 X250.283 Y250.715
G01 X250.293 Y250.646
G01 X250.297 Y250.578
G01 X250.295 Y250.511
G01 X250.287 Y250.446
G01 X250.274 Y250.383
G01 X250.255 Y250.322
G01 X250.232 Y250.264
G01 X250.203 Y250.210
G01 X250.169 Y250.159
G01 X250.131 Y250.111
G01 X250.089 Y250.069
G01 X250.043 Y250.030
G01 X250.000 Y250.000
G01 X262.178 Y257.031
G01 X261.613 Y257.488
G01 X261.033 Y257.906
G01 X260.441 Y258.286
G01 X259.838 Y258.627
G01 X259.227 Y258.930
G01 X258.610 Y259.193
G01 X258.119 Y259.375
G01 X257.649 Y259.762
G01 X257.161 Y260.126
G01 X256.656 Y260.465
G01 X256.134 Y260.779
G01 X255.598 Y261.067
G01 X255.048 Y261.328
G01 X254.486 Y261.562
G01 X254.059 Y261.719
G01 X253.548 Y262.138
G01 X253.005 Y262.536
G01 X252.432 Y262.908
G01 X251.829 Y263.254
G01 X251.198 Y263.571
G01 X250.540 Y263.858
G01 X250.000 Y264.063
G01 X250.000 Y252.344
G01 X250.109 Y252.227
G01 X250.207 Y252.105
G01 X250.294 Y251.980
G01 X250.368 Y251.851
G01 X250.431 Y251.720
G01 X250.482 Y251.588
G01 X250.521 Y251.455
G01 X250.548 Y251.322
G01 X250.563 Y251.190
G01 X250.567 Y251.061
G01 X250.560 Y250.934
G01 X250.541 Y250.810
G01 X250.513 Y250.691
G01 X250.474 Y250.577
G01 X250.425 Y250.469
G01 X250.366 Y250.366
G01 X250.299 Y250.271
G01 X250.224 Y250.184
G01 X250.141 Y250.105
G01 X250.051 Y250.034
G01 X250.000 Y250.000
G01 X262.178 Y257.031
G01 X274.357 Y264.063
G01 X273.166 Y264.937
G01 X271.949 Y265.728
G01 X270.711 Y266.437
G01 X269.458 Y267.064
G01 X268.268 Y267.578
G01 X267.264 Y268.327
G01 X266.231 Y269.020
G01 X265.172 Y269.656
G01 X264.090 Y270.234
G01 X262.988 Y270.754
G01 X262.178 Y271.094
G01 X262.394 Y269.222
G01 X262.457 Y267.383
G01 X262.371 Y265.588
G01 X262.178 Y264.063
G01 X262.308 Y262.877
G01 X262.352 Y261.714
G01 X262.313 Y260.579
G01 X262.194 Y259.478
G01 X262.178 Y259.375
G01 X262.226 Y258.490
G01 X262.217 Y257.624
G01 X262.178 Y257.031
G01 X250.000 Y250.000
G01 X250.094 Y250.067
G01 X250.180 Y250.143
G01 X250.260 Y250.227
G01 X250.331 Y250.319
G01 X250.394 Y250.419
G01 X250.448 Y250.525
G01 X250.491 Y250.638
G01 X250.525 Y250.756
G01 X250.548 Y250.878
G01 X250.561 Y251.004
G01 X250.562 Y251.134
G01 X250.552 Y251.265
G01 X250.530 Y251.398
G01 X250.496 Y251.532
G01 X250.450 Y251.666
G01 X250.392 Y251.798
G01 X250.322 Y251.929
G01 X250.241 Y252.057
G01 X250.147 Y252.181
G01 X250.042 Y252.300
G01 X250.000 Y252.344
G01 X250.000 Y264.063
G01 X250.718 Y264.619
G01 X251.491 Y265.138
G01 X252.316 Y265.615
G01 X253.192 Y266.046
G01 X254.059 Y266.406
G01 X255.197 Y267.310
G01 X256.431 Y268.138
G01 X257.759 Y268.885
G01 X259.174 Y269.542
G01 X260.149 Y269.922
G01 X262.044 Y271.024
G01 X262.178 Y271.094
G01 X261.208 Y271.820
G01 X260.196 Y272.502
G01 X259.143 Y273.137
G01 X258.053 Y273.722
G01 X256.927 Y274.256
G01 X256.089 Y274.609
G01 X254.982 Y275.429
G01 X253.809 Y276.199
G01 X252.573 Y276.913
G01 X251.275 Y277.567
G01 X250.000 Y278.125
G01 X250.000 Y264.063
G01 X250.000 Y252.344
G01 X250.109 Y252.225
G01 X250.207 Y252.102
G01 X250.293 Y251.975
G01 X250.367 Y251.845
G01 X250.429 Y251.712
G01 X250.479 Y251.578
G01 X250.517 Y251.444
G01 X250.543 Y251.310
G01 X250.557 Y251.177
G01 X250.559 Y251.047
G01 X250.551 Y250.919
G01 X250.531 Y250.794
G01 X250.500 Y250.674
G01 X250.459 Y250.560
G01 X250.408 Y250.451
G01 X250.348 Y250.348
G01 X250.279 Y250.253
G01 X250.202 Y250.166
G01 X250.117 Y250.087
G01 X250.025 Y250.016
G01 X250.000 Y250.000
G01 X268.800 Y260.950
G01 X270.297 Y261.719
G01 X274.357 Y264.063
G01 X286.535 Y271.094
G01 X284.718 Y272.385
G01 X282.863 Y273.549
G01 X280.979 Y274.587
G01 X279.074 Y275.498
G01 X278.416 Y275.781
G01 X276.782 Y276.809
G01 X275.115 Y277.739
G01 X274.357 Y278.125
G01 X274.528 Y275.662
G01 X274.519 Y273.253
G01 X274.357 Y271.094
G01 X274.530 Y269.221
G01 X274.580 Y267.383
G01 X274.511 Y265.589
G01 X274.357 Y264.063
G01 X286.535 Y271.094
G01 X298.714 Y278.125
G01 X296.205 Y279.791
G01 X293.652 Y281.281
G01 X291.067 Y282.593
G01 X290.595 Y282.812
G01 X288.302 Y284.199
G01 X286.535 Y285.156
G01 X286.756 Y282.048
G01 X286.763 Y279.005
G01 X286.563 Y276.042
G01 X286.535 Y275.781
G01 X286.604 Y273.226
G01 X286.535 Y271.094
G01 X274.357 Y264.063
G01 X274.526 Y265.814
G01 X274.581 Y267.614
G01 X274.515 Y269.457
G01 X274.357 Y271.094
G01 X274.527 Y273.443
G01 X274.521 Y275.857
G01 X274.357 Y278.125
G01 X280.743 Y282.164
G01 X286.535 Y285.156
G01 X284.446 Y286.566
G01 X282.306 Y287.856
G01 X280.124 Y289.026
G01 X278.416 Y289.844
G01 X276.365 Y291.093
G01 X274.357 Y292.188
G01 X274.581 Y288.125
G01 X274.470 Y284.148
G01 X274.357 Y282.812
G01 X274.421 Y279.731
G01 X274.357 Y278.125
G01 X274.528 Y275.662
G01 X274.519 Y273.253
G01 X274.357 Y271.094
G01 X274.530 Y269.221
G01 X274.580 Y267.383
G01 X274.511 Y265.589
G01 X274.357 Y264.063
G01 X252.030 Y251.172
G01 X251.041 Y250.671
G01 X250.108 Y250.077
G01 X250.000 Y250.000
G01 X250.095 Y250.076
G01 X250.182 Y250.162
G01 X250.261 Y250.256
G01 X250.331 Y250.358
G01 X250.392 Y250.467
G01 X250.442 Y250.583
G01 X250.482 Y250.705
G01 X250.510 Y250.832
G01 X250.528 Y250.963
G01 X250.533 Y251.097
G01 X250.526 Y251.234
G01 X250.508 Y251.373
G01 X250.476 Y251.513
G01 X250.432 Y251.652
G01 X250.376 Y251.791
G01 X250.307 Y251.928
G01 X250.225 Y252.062
G01 X250.131 Y252.192
G01 X250.024 Y252.318
G01 X250.000 Y252.344
G01 X250.000 Y278.125
G01 X251.432 Y279.147
G01 X252.964 Y280.095
G01 X254.592 Y280.959
G01 X256.089 Y281.641
G01 X258.039 Y282.962
G01 X260.132 Y284.164
G01 X262.178 Y285.156
G01 X260.608 Y286.289
G01 X258.955 Y287.351
G01 X257.222 Y288.337
G01 X255.415 Y289.242
G01 X254.059 Y289.844
G01 X252.154 Y291.027
G01 X250.142 Y292.117
G01 X250.000 Y292.188
G01 X250.000 Y278.125
G01 X251.432 Y279.147
G01 X252.964 Y280.095
G01 X254.592 Y280.959
G01 X256.089 Y281.641
G01 X258.039 Y282.962
G01 X260.132 Y284.164
G01 X262.178 Y285.156
G01 X264.888 Y287.000
G01 X267.806 Y288.657
G01 X270.297 Y289.844
G01 X274.088 Y292.047
G01 X274.357 Y292.188
G01 X272.363 Y293.537
G01 X270.295 Y294.792
G01 X268.158 Y295.949
G01 X266.238 Y296.875
G01 X264.084 Y298.183
G01 X262.178 Y299.219
G01 X262.483 Y291.582
G01 X262.178 Y285.156
G01 X259.960 Y284.073
G01 X257.878 Y282.861
G01 X256.089 Y281.641
G01 X254.381 Y280.854
G01 X252.764 Y279.979
G01 X251.245 Y279.022
G01 X250.000 Y278.125
G01 X250.000 Y292.188
G01 X252.146 Y293.676
G01 X254.437 Y295.052
G01 X256.869 Y296.305
G01 X258.119 Y296.875
G01 X260.882 Y298.530
G01 X262.178 Y299.219
G01 X259.938 Y300.723
G01 X257.579 Y302.123
G01 X255.106 Y303.412
G01 X254.059 Y303.906
G01 X251.447 Y305.471
G01 X250.000 Y306.250
G01 X250.000 Y292.188
G01 X250.000 Y278.125
G01 X250.000 Y252.344
G01 X250.109 Y252.214
G01 X250.205 Y252.079
G01 X250.288 Y251.941
G01 X250.358 Y251.800
G01 X250.415 Y251.656
G01 X250.459 Y251.512
G01 X250.490 Y251.368
G01 X250.507 Y251.225
G01 X250.512 Y251.084
G01 X250.505 Y250.945
G01 X250.485 Y250.810
G01 X250.454 Y250.679
G01 X250.411 Y250.554
G01 X250.357 Y250.435
G01 X250.292 Y250.322
G01 X250.218 Y250.218
G01 X250.134 Y250.121
G01 X250.041 Y250.034
G01 X250.000 Y250.000
G01 X252.054 Y251.458
G01 X254.245 Y252.712
G01 X256.354 Y253.668
G01 X298.714 Y278.125
G01 X310.892 Y285.156
G01 X307.756 Y287.239
G01 X304.565 Y289.101
G01 X301.334 Y290.741
G01 X300.744 Y291.016
G01 X298.714 Y292.187
G01 X298.982 Y288.380
G01 X298.998 Y284.652
G01 X298.770 Y281.017
G01 X298.714 Y280.469
G01 X298.714 Y278.125
G01 X310.892 Y285.156
G01 X323.071 Y292.188
G01 X319.242 Y294.645
G01 X315.352 Y296.831
G01 X312.922 Y298.047
G01 X310.892 Y299.219
G01 X311.130 Y294.635
G01 X311.069 Y290.150
G01 X310.892 Y287.500
G01 X310.892 Y285.156
G01 X298.714 Y278.125
G01 X298.977 Y281.579
G01 X299.015 Y285.124
G01 X298.819 Y288.746
G01 X298.714 Y289.844
G01 X298.714 Y292.187
G01 X310.892 Y299.219
G01 X307.553 Y301.387
G01 X304.149 Y303.349
G01 X300.744 Y305.078
G01 X298.714 Y306.250
G01 X298.967 Y301.230
G01 X298.850 Y296.327
G01 X298.714 Y294.531
G01 X298.714 Y292.187
G01 X298.982 Y288.380
G01 X298.998 Y284.652
G01 X298.770 Y281.017
G01 X298.714 Y280.469
G01 X298.714 Y278.125
G01 X323.071 Y292.188
G01 X335.249 Y299.219
G01 X330.793 Y302.093
G01 X326.265 Y304.651
G01 X323.071 Y306.250
G01 X323.357 Y300.940
G01 X323.303 Y295.741
G01 X323.071 Y292.188
G01 X335.249 Y299.219
G01 X347.428 Y306.250
G01 X342.279 Y309.498
G01 X337.051 Y312.380
G01 X335.249 Y313.281
G01 X335.507 Y307.187
G01 X335.379 Y301.224
G01 X335.249 Y299.219
G01 X323.071 Y292.188
G01 X323.354 Y297.296
G01 X323.307 Y302.531
G01 X323.071 Y306.250
G01 X335.249 Y313.281
G01 X330.626 Y316.225
G01 X325.922 Y318.870
G01 X323.071 Y320.313
G01 X323.344 Y313.949
G01 X323.177 Y307.735
G01 X323.071 Y306.250
G01 X323.357 Y300.940
G01 X323.303 Y295.741
G01 X323.071 Y292.188
G01 X298.714 Y278.125
G01 X298.977 Y281.579
G01 X299.015 Y285.124
G01 X298.819 Y288.746
G01 X298.714 Y289.844
G01 X298.973 Y294.239
G01 X298.913 Y298.751
G01 X298.714 Y301.563
G01 X298.714 Y306.250
G01 X310.088 Y312.866
G01 X310.892 Y313.281
G01 X307.255 Y315.666
G01 X303.531 Y317.848
G01 X299.732 Y319.824
G01 X298.714 Y320.312
G01 X299.020 Y313.820
G01 X298.814 Y307.478
G01 X298.714 Y306.250
G01 X310.088 Y312.866
G01 X310.892 Y313.281
G01 X323.071 Y320.313
G01 X318.807 Y323.043
G01 X314.453 Y325.526
G01 X310.892 Y327.344
G01 X311.166 Y320.300
G01 X310.904 Y313.425
G01 X310.892 Y313.281
G01 X299.465 Y306.732
G01 X298.714 Y306.250
G01 X299.019 Y312.560
G01 X298.815 Y319.025
G01 X298.714 Y320.312
G01 X308.422 Y326.062
G01 X310.892 Y327.344
G01 X306.824 Y329.957
G01 X302.646 Y332.357
G01 X298.714 Y334.375
G01 X298.952 Y325.923
G01 X298.714 Y320.312
G01 X299.020 Y313.820
G01 X298.814 Y307.478
G01 X298.714 Y306.250
G01 X298.967 Y301.230
G01 X298.850 Y296.327
G01 X298.714 Y294.531
G01 X298.981 Y290.548
G01 X298.980 Y286.650
G01 X298.718 Y282.854
G01 X298.714 Y282.813
G01 X298.757 Y279.471
G01 X298.714 Y278.125
G01 X252.118 Y251.223
G01 X251.837 Y251.184
G01 X251.565 Y251.121
G01 X251.304 Y251.035
G01 X251.055 Y250.926
G01 X250.822 Y250.795
G01 X250.604 Y250.644
G01 X250.403 Y250.475
G01 X250.220 Y250.287
G01 X250.058 Y250.083
G01 X250.000 Y250.000
G01 X250.105 Y250.176
G01 X250.192 Y250.362
G01 X250.261 Y250.556
G01 X250.311 Y250.758
G01 X250.342 Y250.965
G01 X250.353 Y251.177
G01 X250.344 Y251.391
G01 X250.315 Y251.608
G01 X250.265 Y251.824
G01 X250.195 Y252.038
G01 X250.104 Y252.250
G01 X250.000 Y252.446
G01 X250.000 Y306.250
G01 X252.859 Y308.205
G01 X255.911 Y310.010
G01 X259.145 Y311.652
G01 X260.149 Y312.109
G01 X262.178 Y313.281
G01 X259.262 Y315.232
G01 X256.182 Y317.045
G01 X252.947 Y318.710
G01 X252.030 Y319.141
G01 X250.000 Y320.313
G01 X250.000 Y306.250
G01 X252.859 Y308.205
G01 X255.911 Y310.010
G01 X259.145 Y311.652
G01 X260.149 Y312.109
G01 X262.178 Y313.281
G01 X266.050 Y315.812
G01 X270.198 Y318.108
G01 X272.327 Y319.141
G01 X274.357 Y320.312
G01 X271.162 Y322.395
G01 X267.820 Y324.330
G01 X264.339 Y326.110
G01 X264.208 Y326.172
G01 X262.178 Y327.344
G01 X262.178 Y313.281
G01 X258.747 Y311.610
G01 X255.510 Y309.759
G01 X252.477 Y307.744
G01 X252.030 Y307.422
G01 X250.000 Y306.250
G01 X250.000 Y320.313
G01 X253.569 Y322.646
G01 X257.366 Y324.792
G01 X260.149 Y326.172
G01 X262.178 Y327.344
G01 X258.565 Y329.674
G01 X254.752 Y331.832
G01 X252.030 Y333.203
G01 X250.000 Y334.375
G01 X250.000 Y320.313
G01 X250.000 Y306.250
G01 X252.859 Y308.205
G01 X255.911 Y310.010
G01 X259.145 Y311.652
G01 X260.149 Y312.109
G01 X263.826 Y314.532
G01 X267.763 Y316.736
G01 X270.297 Y317.969
G01 X274.357 Y320.312
G01 X279.669 Y323.732
G01 X285.370 Y326.788
G01 X286.535 Y327.344
G01 X282.963 Y329.689
G01 X279.249 Y331.868
G01 X275.399 Y333.874
G01 X274.357 Y334.375
G01 X274.399 Y321.204
G01 X274.357 Y320.312
G01 X279.669 Y323.732
G01 X285.370 Y326.788
G01 X286.535 Y327.344
G01 X293.627 Y331.714
G01 X298.714 Y334.375
G01 X294.673 Y336.971
G01 X290.495 Y339.373
G01 X286.535 Y341.406
G01 X286.660 Y330.074
G01 X286.535 Y327.344
G01 X280.760 Y324.363
G01 X275.370 Y321.013
G01 X274.357 Y320.312
G01 X274.399 Y333.470
G01 X274.357 Y334.375
G01 X280.170 Y338.047
G01 X286.399 Y341.341
G01 X286.535 Y341.406
G01 X282.350 Y344.090
G01 X277.989 Y346.580
G01 X274.357 Y348.438
G01 X274.357 Y334.375
G01 X274.399 Y321.204
G01 X274.357 Y320.312
G01 X269.883 Y318.021
G01 X265.695 Y315.469
G01 X264.208 Y314.453
G01 X260.625 Y312.693
G01 X257.250 Y310.743
G01 X254.093 Y308.618
G01 X254.059 Y308.594
G01 X251.144 Y306.960
G01 X250.000 Y306.250
G01 X250.000 Y334.375
G01 X254.283 Y337.175
G01 X258.840 Y339.751
G01 X262.178 Y341.406
G01 X257.871 Y344.192
G01 X253.319 Y346.770
G01 X250.000 Y348.438
G01 X250.000 Y334.375
G01 X254.283 Y337.175
G01 X258.840 Y339.751
G01 X262.178 Y341.406
G01 X267.389 Y344.729
G01 X272.953 Y347.751
G01 X274.357 Y348.438
G01 X269.850 Y351.312
G01 X265.118 Y353.978
G01 X262.178 Y355.469
G01 X262.178 Y341.406
G01 X257.437 Y338.999
G01 X252.961 Y336.353
G01 X250.000 Y334.375
G01 X250.000 Y348.438
G01 X254.992 Y351.616
G01 X260.296 Y354.535
G01 X262.178 Y355.469
G01 X257.167 Y358.636
G01 X251.873 Y361.560
G01 X250.000 Y362.500
G01 X250.000 Y348.438
G01 X250.000 Y334.375
G01 X250.000 Y306.250
G01 X250.000 Y252.446
G01 X250.098 Y251.997
G01 X250.152 Y251.546
G01 X250.162 Y251.095
G01 X250.129 Y250.648
G01 X250.052 Y250.208
G01 X250.000 Y250.000
G01 X250.049 Y250.150
G01 X250.113 Y250.294
G01 X250.191 Y250.433
G01 X250.283 Y250.564
G01 X250.388 Y250.686
G01 X250.506 Y250.800
G01 X250.635 Y250.903
G01 X250.775 Y250.995
G01 X250.926 Y251.076
G01 X251.086 Y251.143
G01 X251.255 Y251.197
G01 X251.432 Y251.237
G01 X251.615 Y251.263
G01 X251.804 Y251.273
G01 X251.997 Y251.267
G01 X252.165 Y251.250
G01 X347.428 Y306.250
G01 X359.606 Y313.281
G01 X353.764 Y316.903
G01 X347.836 Y320.108
G01 X347.428 Y320.313
G01 X347.659 Y313.433
G01 X347.457 Y306.704
G01 X347.428 Y306.250
G01 X359.606 Y313.281
G01 X371.785 Y320.313
G01 X365.249 Y324.308
G01 X359.606 Y327.344
G01 X359.811 Y319.678
G01 X359.606 Y313.281
G01 X347.428 Y306.250
G01 X347.659 Y312.967
G01 X347.458 Y319.837
G01 X347.428 Y320.313
G01 X359.606 Y327.344
G01 X353.628 Y331.025
G01 X347.557 Y334.310
G01 X347.428 Y334.375
G01 X347.641 Y326.508
G01 X347.428 Y320.313
G01 X347.659 Y313.433
G01 X347.457 Y306.704
G01 X347.428 Y306.250
G01 X371.785 Y320.313
G01 X383.963 Y327.344
G01 X376.733 Y331.713
G01 X371.785 Y334.375
G01 X371.964 Y325.923
G01 X371.785 Y320.313
G01 X383.963 Y327.344
G01 X396.142 Y334.375
G01 X388.218 Y339.118
G01 X383.963 Y341.406
G01 X384.117 Y332.168
G01 X383.963 Y327.344
G01 X371.785 Y320.313
G01 X371.964 Y328.638
G01 X371.785 Y334.375
G01 X383.963 Y341.406
G01 X376.619 Y345.828
G01 X371.785 Y348.437
G01 X371.942 Y339.038
G01 X371.785 Y334.375
G01 X371.964 Y325.923
G01 X371.785 Y320.313
G01 X347.428 Y306.250
G01 X347.732 Y313.014
G01 X347.600 Y319.939
G01 X347.428 Y322.656
G01 X347.559 Y330.496
G01 X347.428 Y334.375
G01 X359.606 Y341.406
G01 X353.393 Y345.204
G01 X347.428 Y348.438
G01 X347.610 Y339.390
G01 X347.428 Y334.375
G01 X359.606 Y341.406
G01 X371.785 Y348.437
G01 X364.907 Y352.598
G01 X359.606 Y355.469
G01 X359.760 Y345.701
G01 X359.606 Y341.406
G01 X347.428 Y334.375
G01 X347.611 Y343.298
G01 X347.428 Y348.438
G01 X359.606 Y355.469
G01 X353.083 Y359.428
G01 X347.428 Y362.500
G01 X347.567 Y352.077
G01 X347.428 Y348.438
G01 X347.610 Y339.390
G01 X347.428 Y334.375
G01 X347.723 Y326.572
G01 X347.495 Y318.950
G01 X347.428 Y317.969
G01 X347.586 Y311.188
G01 X347.428 Y306.250
G01 X396.142 Y334.375
G01 X408.320 Y341.406
G01 X399.702 Y346.523
G01 X396.142 Y348.438
G01 X396.270 Y338.412
G01 X396.142 Y334.375
G01 X408.320 Y341.406
G01 X420.499 Y348.438
G01 X411.187 Y353.927
G01 X408.320 Y355.469
G01 X408.423 Y344.657
G01 X408.320 Y341.406
G01 X396.142 Y334.375
G01 X396.271 Y344.310
G01 X396.142 Y348.438
G01 X408.320 Y355.469
G01 X399.604 Y360.632
G01 X396.142 Y362.500
G01 X396.245 Y351.555
G01 X396.142 Y348.438
G01 X396.270 Y338.412
G01 X396.142 Y334.375
G01 X420.499 Y348.438
G01 X432.677 Y355.469
G01 X422.671 Y361.332
G01 X420.499 Y362.500
G01 X420.576 Y350.901
G01 X420.499 Y348.438
G01 X432.677 Y355.469
G01 X444.856 Y362.500
G01 X434.155 Y368.737
G01 X432.677 Y369.531
G01 X432.730 Y357.145
G01 X432.677 Y355.469
G01 X420.499 Y348.438
G01 X420.577 Y359.982
G01 X420.499 Y362.500
G01 X432.677 Y369.531
G01 X422.584 Y375.438
G01 X420.499 Y376.562
G01 X420.550 Y364.062
G01 X420.499 Y362.500
G01 X420.576 Y350.901
G01 X420.499 Y348.438
G01 X396.142 Y334.375
G01 X396.415 Y344.403
G01 X396.142 Y353.125
G01 X396.142 Y362.500
G01 X408.320 Y369.531
G01 X399.427 Y374.786
G01 X396.142 Y376.562
G01 X396.213 Y364.567
G01 X396.142 Y362.500
G01 X408.320 Y369.531
G01 X420.499 Y376.562
G01 X410.928 Y382.184
G01 X408.320 Y383.594
G01 X408.365 Y370.842
G01 X408.320 Y369.531
G01 X396.142 Y362.500
G01 X396.214 Y374.445
G01 X396.142 Y376.562
G01 X408.320 Y383.594
G01 X399.185 Y388.976
G01 X396.142 Y390.625
G01 X396.174 Y377.450
G01 X396.142 Y376.562
G01 X396.213 Y364.567
G01 X396.142 Y362.500
G01 X396.403 Y351.664
G01 X396.142 Y343.750
G01 X396.142 Y334.375
G01 X347.428 Y306.250
G01 X347.678 Y312.979
G01 X347.495 Y319.864
G01 X347.428 Y320.924
G01 X347.742 Y328.771
G01 X347.511 Y336.813
G01 X347.428 Y338.043
G01 X347.709 Y347.422
G01 X347.428 Y355.163
G01 X347.428 Y362.500
G01 X359.606 Y369.531
G01 X352.714 Y373.687
G01 X347.428 Y376.563
G01 X347.510 Y364.567
G01 X347.428 Y362.500
G01 X359.606 Y369.531
G01 X371.785 Y376.562
G01 X364.270 Y381.058
G01 X359.606 Y383.594
G01 X359.665 Y371.030
G01 X359.606 Y369.531
G01 X347.428 Y362.500
G01 X347.510 Y374.445
G01 X347.428 Y376.563
G01 X359.606 Y383.594
G01 X352.298 Y387.973
G01 X347.428 Y390.625
G01 X347.440 Y376.860
G01 X347.428 Y376.563
G01 X347.510 Y364.567
G01 X347.428 Y362.500
G01 X369.755 Y375.391
G01 X371.785 Y376.562
G01 X383.963 Y383.594
G01 X375.818 Y388.434
G01 X371.785 Y390.625
G01 X371.819 Y377.450
G01 X371.785 Y376.562
G01 X383.963 Y383.594
G01 X396.142 Y390.625
G01 X387.357 Y395.813
G01 X383.963 Y397.656
G01 X383.972 Y383.838
G01 X383.963 Y383.594
G01 X371.785 Y376.562
G01 X371.819 Y389.716
G01 X371.785 Y390.625
G01 X383.963 Y397.656
G01 X375.444 Y402.697
G01 X371.785 Y404.688
G01 X371.785 Y390.625
G01 X371.819 Y377.450
G01 X371.785 Y376.562
G01 X349.458 Y363.672
G01 X347.428 Y362.500
G01 X347.685 Y374.668
G01 X347.428 Y381.250
G01 X347.428 Y390.625
G01 X359.606 Y397.656
G01 X351.844 Y402.281
G01 X347.428 Y404.688
G01 X347.428 Y390.625
G01 X359.606 Y397.656
G01 X371.785 Y404.688
G01 X363.445 Y409.628
G01 X359.606 Y411.719
G01 X359.606 Y397.656
G01 X347.428 Y390.625
G01 X347.428 Y404.688
G01 X359.606 Y411.719
G01 X351.360 Y416.607
G01 X347.428 Y418.750
G01 X347.428 Y404.688
G01 X347.428 Y390.625
G01 X347.642 Y377.123
G01 X347.428 Y371.875
G01 X347.428 Y362.500
G01 X347.687 Y352.203
G01 X347.428 Y345.380
G01 X347.730 Y336.705
G01 X347.428 Y328.261
G01 X347.671 Y320.862
G01 X347.431 Y313.633
G01 X347.428 Y313.587
G01 X347.451 Y306.987
G01 X347.428 Y306.250
G01 X252.165 Y251.250
G01 X252.030 Y251.309
G01 X251.895 Y251.358
G01 X251.759 Y251.396
G01 X251.625 Y251.425
G01 X251.493 Y251.445
G01 X251.362 Y251.454
G01 X251.234 Y251.455
G01 X251.110 Y251.447
G01 X250.990 Y251.430
G01 X250.874 Y251.405
G01 X250.763 Y251.372
G01 X250.657 Y251.332
G01 X250.557 Y251.285
G01 X250.464 Y251.232
G01 X250.377 Y251.172
G01 X250.297 Y251.108
G01 X250.224 Y251.038
G01 X250.159 Y250.965
G01 X250.102 Y250.887
G01 X250.053 Y250.807
G01 X250.012 Y250.724
G01 X249.979 Y250.639
G01 X249.955 Y250.553
G01 X249.939 Y250.466
G01 X249.931 Y250.380
G01 X249.932 Y250.293
G01 X249.941 Y250.208
G01 X249.958 Y250.125
G01 X249.983 Y250.044
G01 X250.000 Y250.000
G01 X249.894 Y250.285
G01 X249.817 Y250.580
G01 X249.769 Y250.882
G01 X249.750 Y251.189
G01 X249.760 Y251.500
G01 X249.801 Y251.812
G01 X249.872 Y252.123
G01 X249.973 Y252.431
G01 X250.000 Y252.500
G01 X250.000 Y362.500
G01 X255.702 Y366.058
G01 X261.752 Y369.320
G01 X262.178 Y369.531
G01 X256.461 Y373.081
G01 X250.425 Y376.350
G01 X250.000 Y376.563
G01 X250.000 Y362.500
G01 X255.702 Y366.058
G01 X261.752 Y369.320
G01 X262.178 Y369.531
G01 X268.755 Y373.575
G01 X274.357 Y376.563
G01 X268.484 Y380.183
G01 X262.313 Y383.526
G01 X262.178 Y383.594
G01 X262.178 Y369.531
G01 X256.105 Y366.291
G01 X250.379 Y362.753
G01 X250.000 Y362.500
G01 X250.000 Y376.563
G01 X256.411 Y380.501
G01 X262.178 Y383.594
G01 X255.755 Y387.525
G01 X250.000 Y390.625
G01 X250.000 Y376.563
G01 X250.000 Y362.500
G01 X255.706 Y366.146
G01 X261.769 Y369.493
G01 X264.208 Y370.703
G01 X270.932 Y374.737
G01 X274.357 Y376.563
G01 X281.993 Y381.183
G01 X286.535 Y383.594
G01 X280.405 Y387.344
G01 X274.357 Y390.625
G01 X274.357 Y376.563
G01 X281.993 Y381.183
G01 X286.535 Y383.594
G01 X295.414 Y388.881
G01 X298.714 Y390.625
G01 X292.253 Y394.549
G01 X286.535 Y397.656
G01 X286.535 Y383.594
G01 X278.609 Y379.228
G01 X274.357 Y376.563
G01 X274.357 Y390.625
G01 X282.647 Y395.590
G01 X286.535 Y397.656
G01 X279.736 Y401.772
G01 X274.357 Y404.687
G01 X274.357 Y390.625
G01 X274.357 Y376.563
G01 X267.452 Y372.916
G01 X260.965 Y368.908
G01 X260.149 Y368.359
G01 X254.197 Y365.105
G01 X250.000 Y362.500
G01 X250.000 Y390.625
G01 X257.121 Y394.943
G01 X262.178 Y397.656
G01 X255.048 Y401.969
G01 X250.000 Y404.688
G01 X250.000 Y390.625
G01 X257.121 Y394.943
G01 X262.178 Y397.656
G01 X270.143 Y402.437
G01 X274.357 Y404.687
G01 X267.099 Y409.060
G01 X262.178 Y411.719
G01 X262.178 Y397.656
G01 X254.769 Y393.585
G01 X250.000 Y390.625
G01 X250.000 Y404.688
G01 X257.830 Y409.386
G01 X262.178 Y411.719
G01 X254.341 Y416.413
G01 X250.000 Y418.750
G01 X250.000 Y404.688
G01 X250.000 Y390.625
G01 X250.000 Y362.500
G01 X255.703 Y366.081
G01 X261.756 Y369.365
G01 X262.708 Y369.837
G01 X269.347 Y374.033
G01 X276.427 Y377.854
G01 X277.534 Y378.397
G01 X285.516 Y383.329
G01 X292.360 Y386.957
G01 X298.714 Y390.625
G01 X309.017 Y396.669
G01 X310.892 Y397.656
G01 X304.044 Y401.787
G01 X298.714 Y404.688
G01 X298.714 Y390.625
G01 X309.017 Y396.669
G01 X310.892 Y397.656
G01 X322.801 Y404.546
G01 X323.071 Y404.687
G01 X315.791 Y409.050
G01 X310.892 Y411.719
G01 X310.892 Y397.656
G01 X300.463 Y391.729
G01 X298.714 Y390.625
G01 X298.714 Y404.688
G01 X309.533 Y411.002
G01 X310.892 Y411.719
G01 X303.423 Y416.189
G01 X298.714 Y418.750
G01 X298.714 Y404.688
G01 X298.714 Y390.625
G01 X309.123 Y396.932
G01 X314.952 Y400.000
G01 X323.071 Y404.687
G01 X335.249 Y411.719
G01 X327.504 Y416.334
G01 X323.071 Y418.750
G01 X323.071 Y404.687
G01 X335.249 Y411.719
G01 X347.428 Y418.750
G01 X339.188 Y423.634
G01 X335.249 Y425.781
G01 X335.249 Y411.719
G01 X323.071 Y404.687
G01 X323.071 Y418.750
G01 X335.249 Y425.781
G01 X326.929 Y430.711
G01 X323.071 Y432.812
G01 X323.071 Y418.750
G01 X323.071 Y404.687
G01 X311.271 Y398.121
G01 X306.833 Y395.313
G01 X298.714 Y390.625
G01 X298.714 Y416.406
G01 X298.714 Y418.750
G01 X310.088 Y425.356
G01 X310.892 Y425.781
G01 X302.790 Y430.597
G01 X298.714 Y432.812
G01 X298.714 Y418.750
G01 X310.088 Y425.356
G01 X310.892 Y425.781
G01 X323.071 Y432.812
G01 X314.583 Y437.836
G01 X310.892 Y439.844
G01 X310.892 Y425.781
G01 X299.465 Y419.223
G01 X298.714 Y418.750
G01 X298.714 Y432.812
G01 X310.671 Y439.727
G01 X310.892 Y439.844
G01 X302.147 Y445.010
G01 X298.714 Y446.875
G01 X298.714 Y432.812
G01 X298.714 Y418.750
G01 X298.714 Y392.969
G01 X298.714 Y390.625
G01 X289.667 Y385.701
G01 X283.888 Y382.065
G01 X276.224 Y377.990
G01 X269.062 Y373.505
G01 X262.532 Y370.016
G01 X256.392 Y366.194
G01 X256.354 Y366.168
G01 X250.627 Y362.889
G01 X250.000 Y362.500
G01 X250.000 Y418.750
G01 X258.540 Y423.829
G01 X262.178 Y425.781
G01 X253.633 Y430.857
G01 X250.000 Y432.813
G01 X250.000 Y418.750
G01 X258.540 Y423.829
G01 X262.178 Y425.781
G01 X271.542 Y431.308
G01 X274.357 Y432.812
G01 X265.704 Y437.940
G01 X262.178 Y439.844
G01 X262.178 Y425.781
G01 X253.432 Y420.879
G01 X250.000 Y418.750
G01 X250.000 Y432.813
G01 X259.249 Y438.272
G01 X262.178 Y439.844
G01 X252.925 Y445.301
G01 X250.000 Y446.875
G01 X250.000 Y432.813
G01 X250.000 Y418.750
G01 X258.548 Y424.001
G01 X266.238 Y428.125
G01 X274.357 Y432.812
G01 X284.665 Y438.848
G01 X286.535 Y439.844
G01 X277.696 Y445.068
G01 X274.357 Y446.875
G01 X274.357 Y432.812
G01 X284.665 Y438.848
G01 X286.535 Y439.844
G01 X297.910 Y446.448
G01 X298.714 Y446.875
G01 X289.623 Y452.232
G01 X286.535 Y453.906
G01 X286.535 Y439.844
G01 X276.111 Y433.908
G01 X274.357 Y432.812
G01 X274.357 Y446.875
G01 X285.350 Y453.274
G01 X286.535 Y453.906
G01 X277.008 Y459.503
G01 X274.357 Y460.937
G01 X274.357 Y446.875
G01 X274.357 Y432.812
G01 X264.842 Y427.621
G01 X258.119 Y423.438
G01 X250.000 Y418.750
G01 X250.000 Y446.875
G01 X259.959 Y452.715
G01 X262.178 Y453.906
G01 X252.217 Y459.745
G01 X250.000 Y460.938
G01 X250.000 Y446.875
G01 X259.959 Y452.715
G01 X262.178 Y453.906
G01 X272.946 Y460.183
G01 X274.357 Y460.937
G01 X264.304 Y466.822
G01 X262.178 Y467.969
G01 X262.178 Y453.906
G01 X252.094 Y448.174
G01 X250.000 Y446.875
G01 X250.000 Y460.938
G01 X260.668 Y467.158
G01 X262.178 Y467.969
G01 X251.508 Y474.188
G01 X250.000 Y475.000
G01 X250.000 Y460.938
G01 X250.000 Y446.875
G01 X250.000 Y418.750
G01 X250.000 Y362.500
G01 X250.000 Y252.500
G01 X249.885 Y252.347
G01 X249.784 Y252.189
G01 X249.699 Y252.028
G01 X249.629 Y251.863
G01 X249.575 Y251.697
G01 X249.536 Y251.531
G01 X249.512 Y251.365
G01 X249.503 Y251.201
G01 X249.509 Y251.039
G01 X249.529 Y250.881
G01 X249.563 Y250.729
G01 X249.611 Y250.581
G01 X249.673 Y250.441
G01 X249.747 Y250.309
G01 X249.833 Y250.185
G01 X249.930 Y250.070
G01 X250.000 Y250.000
G01 X249.973 Y250.028
G01 X249.948 Y250.059
G01 X249.926 Y250.093
G01 X249.908 Y250.128
G01 X249.893 Y250.166
G01 X249.882 Y250.205
G01 X249.874 Y250.246
G01 X249.870 Y250.288
G01 X249.869 Y250.331
G01 X249.873 Y250.374
G01 X249.881 Y250.418
G01 X249.892 Y250.462
G01 X249.908 Y250.505
G01 X249.928 Y250.548
G01 X249.952 Y250.591
G01 X249.980 Y250.632
G01 X250.011 Y250.672
G01 X250.047 Y250.710
G01 X250.086 Y250.746
G01 X250.129 Y250.780
G01 X250.175 Y250.811
G01 X250.225 Y250.839
G01 X250.278 Y250.865
G01 X250.334 Y250.887
G01 X250.393 Y250.906
G01 X250.455 Y250.921
G01 X250.518 Y250.932
G01 X250.584 Y250.939
G01 X250.652 Y250.942
G01 X250.722 Y250.940
G01 X250.793 Y250.934
G01 X250.864 Y250.922
G01 X250.937 Y250.906
G01 X251.010 Y250.885
G01 X251.083 Y250.859
G01 X251.156 Y250.828
G01 X251.229 Y250.792
G01 X251.300 Y250.750
G01 X251.371 Y250.704
G01 X251.440 Y250.652
G01 X251.507 Y250.595
G01 X251.571 Y250.533
G01 X251.634 Y250.466
G01 X251.693 Y250.394
G01 X251.749 Y250.318
G01 X251.802 Y250.237
G01 X251.851 Y250.151
G01 X251.895 Y250.061
G01 X251.936 Y249.968
G01 X251.971 Y249.870
G01 X252.002 Y249.769
G01 X252.027 Y249.665
G01 X252.046 Y249.557
G01 X252.060 Y249.447
G01 X252.068 Y249.335
G01 X252.070 Y249.220
G01 X252.066 Y249.104
G01 X252.055 Y248.986
G01 X252.037 Y248.867
G01 X252.030 Y248.828
G01 X262.178 Y242.969
G01 X262.291 Y243.686
G01 X262.364 Y244.398
G01 X262.396 Y245.101
G01 X262.390 Y245.794
G01 X262.347 Y246.474
G01 X262.267 Y247.140
G01 X262.178 Y247.656
G01 X262.279 Y248.257
G01 X262.350 Y248.861
G01 X262.391 Y249.469
G01 X262.402 Y250.077
G01 X262.383 Y250.686
G01 X262.334 Y251.292
G01 X262.256 Y251.896
G01 X262.178 Y252.344
G01 X262.286 Y252.996
G01 X262.359 Y253.665
G01 X262.395 Y254.348
G01 X262.393 Y255.043
G01 X262.352 Y255.748
G01 X262.271 Y256.461
G01 X262.178 Y257.031
G01 X252.030 Y251.172
G01 X251.918 Y251.237
G01 X251.805 Y251.293
G01 X251.691 Y251.342
G01 X251.577 Y251.383
G01 X251.462 Y251.415
G01 X251.349 Y251.440
G01 X251.237 Y251.458
G01 X251.126 Y251.468
G01 X251.018 Y251.471
G01 X250.912 Y251.466
G01 X250.809 Y251.455
G01 X250.709 Y251.438
G01 X250.613 Y251.414
G01 X250.521 Y251.385
G01 X250.434 Y251.350
G01 X250.351 Y251.310
G01 X250.273 Y251.266
G01 X250.201 Y251.217
G01 X250.134 Y251.164
G01 X250.073 Y251.107
G01 X250.017 Y251.048
G01 X249.968 Y250.986
G01 X249.924 Y250.921
G01 X249.887 Y250.855
G01 X249.857 Y250.788
G01 X249.832 Y250.720
G01 X249.814 Y250.652
G01 X249.802 Y250.583
G01 X249.796 Y250.515
G01 X249.797 Y250.449
G01 X249.803 Y250.383
G01 X249.815 Y250.320
G01 X249.833 Y250.258
G01 X249.857 Y250.200
G01 X249.886 Y250.144
G01 X249.919 Y250.092
G01 X249.958 Y250.043
G01 X250.000 Y250.000
G01 X249.973 Y250.028
G01 X249.948 Y250.059
G01 X249.926 Y250.093
G01 X249.908 Y250.129
G01 X249.893 Y250.166
G01 X249.882 Y250.205
G01 X249.874 Y250.246
G01 X249.870 Y250.288
G01 X249.870 Y250.331
G01 X249.873 Y250.374
G01 X249.881 Y250.418
G01 X249.893 Y250.462
G01 X249.909 Y250.505
G01 X249.928 Y250.549
G01 X249.952 Y250.591
G01 X249.980 Y250.632
G01 X250.012 Y250.672
G01 X250.047 Y250.710
G01 X250.087 Y250.746
G01 X250.129 Y250.780
G01 X250.176 Y250.811
G01 X250.226 Y250.839
G01 X250.279 Y250.865
G01 X250.335 Y250.887
G01 X250.394 Y250.906
G01 X250.455 Y250.921
G01 X250.519 Y250.932
G01 X250.585 Y250.939
G01 X250.653 Y250.942
G01 X250.723 Y250.940
G01 X250.793 Y250.933
G01 X250.865 Y250.922
G01 X250.938 Y250.906
G01 X251.011 Y250.885
G01 X251.084 Y250.859
G01 X251.157 Y250.827
G01 X251.229 Y250.791
G01 X251.301 Y250.750
G01 X251.371 Y250.703
G01 X251.440 Y250.651
G01 X251.507 Y250.594
G01 X251.572 Y250.532
G01 X251.634 Y250.465
G01 X251.694 Y250.393
G01 X251.750 Y250.317
G01 X251.802 Y250.236
G01 X251.851 Y250.150
G01 X251.896 Y250.060
G01 X251.936 Y249.967
G01 X251.971 Y249.869
G01 X252.002 Y249.768
G01 X252.027 Y249.663
G01 X252.047 Y249.556
G01 X252.061 Y249.446
G01 X252.068 Y249.333
G01 X252.070 Y249.219
G01 X252.066 Y249.102
G01 X252.055 Y248.984
G01 X252.037 Y248.866
G01 X252.030 Y248.828
G01 X262.178 Y242.969
G01 X274.357 Y235.938
G01 X274.518 Y237.406
G01 X274.596 Y238.856
G01 X274.591 Y240.282
G01 X274.507 Y241.681
G01 X274.357 Y242.969
G01 X274.504 Y244.212
G01 X274.587 Y245.453
G01 X274.609 Y246.688
G01 X274.568 Y247.914
G01 X274.467 Y249.129
G01 X274.357 Y250.000
G01 X272.844 Y248.878
G01 X271.283 Y247.904
G01 X269.685 Y247.080
G01 X268.268 Y246.484
G01 X267.306 Y245.779
G01 X266.321 Y245.160
G01 X265.319 Y244.626
G01 X264.305 Y244.179
G01 X264.208 Y244.141
G01 X263.466 Y243.657
G01 X262.711 Y243.231
G01 X262.178 Y242.969
G01 X252.030 Y248.828
G01 X251.941 Y248.748
G01 X251.850 Y248.675
G01 X251.756 Y248.607
G01 X251.659 Y248.545
G01 X251.562 Y248.489
G01 X251.462 Y248.439
G01 X251.362 Y248.395
G01 X251.261 Y248.357
G01 X251.159 Y248.325
G01 X251.057 Y248.300
G01 X250.956 Y248.280
G01 X250.855 Y248.265
G01 X250.756 Y248.257
G01 X250.657 Y248.254
G01 X250.560 Y248.256
G01 X250.465 Y248.264
G01 X250.372 Y248.276
G01 X250.282 Y248.294
G01 X250.194 Y248.316
G01 X250.109 Y248.343
G01 X250.027 Y248.373
G01 X249.948 Y248.408
G01 X249.873 Y248.447
G01 X249.801 Y248.489
G01 X249.733 Y248.534
G01 X249.669 Y248.582
G01 X249.610 Y248.633
G01 X249.554 Y248.686
G01 X249.503 Y248.741
G01 X249.455 Y248.798
G01 X249.413 Y248.857
G01 X249.374 Y248.916
G01 X249.341 Y248.977
G01 X249.311 Y249.039
G01 X249.286 Y249.100
G01 X249.265 Y249.162
G01 X249.249 Y249.224
G01 X249.236 Y249.285
G01 X249.228 Y249.345
G01 X249.224 Y249.405
G01 X249.224 Y249.463
G01 X249.227 Y249.520
G01 X249.235 Y249.575
G01 X249.245 Y249.628
G01 X249.259 Y249.679
G01 X249.276 Y249.728
G01 X249.296 Y249.774
G01 X249.319 Y249.818
G01 X249.344 Y249.858
G01 X249.372 Y249.896
G01 X249.402 Y249.931
G01 X249.433 Y249.963
G01 X249.466 Y249.991
G01 X249.500 Y250.016
G01 X249.536 Y250.038
G01 X249.572 Y250.056
G01 X249.609 Y250.071
G01 X249.646 Y250.083
G01 X249.683 Y250.090
G01 X249.721 Y250.095
G01 X249.757 Y250.096
G01 X249.793 Y250.094
G01 X249.829 Y250.088
G01 X249.863 Y250.079
G01 X249.895 Y250.067
G01 X249.927 Y250.053
G01 X249.956 Y250.035
G01 X249.983 Y250.015
G01 X250.000 Y250.000
G01 X249.957 Y250.044
G01 X249.919 Y250.093
G01 X249.885 Y250.145
G01 X249.856 Y250.200
G01 X249.833 Y250.259
G01 X249.815 Y250.320
G01 X249.802 Y250.384
G01 X249.796 Y250.449
G01 X249.796 Y250.516
G01 X249.801 Y250.583
G01 X249.813 Y250.652
G01 X249.831 Y250.720
G01 X249.856 Y250.788
G01 X249.886 Y250.855
G01 X249.923 Y250.921
G01 X249.967 Y250.986
G01 X250.016 Y251.048
G01 X250.071 Y251.107
G01 X250.133 Y251.164
G01 X250.199 Y251.217
G01 X250.272 Y251.266
G01 X250.350 Y251.310
G01 X250.432 Y251.350
G01 X250.520 Y251.385
G01 X250.611 Y251.415
G01 X250.707 Y251.438
G01 X250.807 Y251.456
G01 X250.910 Y251.467
G01 X251.016 Y251.471
G01 X251.124 Y251.468
G01 X251.235 Y251.458
G01 X251.347 Y251.441
G01 X251.460 Y251.416
G01 X251.574 Y251.384
G01 X251.688 Y251.343
G01 X251.802 Y251.295
G01 X251.915 Y251.238
G01 X252.027 Y251.173
G01 X252.030 Y251.172
G01 X262.178 Y257.031
G01 X263.020 Y256.688
G01 X263.855 Y256.278
G01 X264.681 Y255.802
G01 X265.492 Y255.259
G01 X266.238 Y254.688
G01 X267.589 Y254.154
G01 X268.924 Y253.499
G01 X270.234 Y252.723
G01 X271.511 Y251.826
G01 X272.327 Y251.172
G01 X274.229 Y250.081
G01 X274.357 Y250.000
G01 X274.501 Y251.204
G01 X274.585 Y252.421
G01 X274.609 Y253.650
G01 X274.570 Y254.887
G01 X274.470 Y256.129
G01 X274.357 Y257.031
G01 X274.514 Y258.400
G01 X274.593 Y259.800
G01 X274.593 Y261.228
G01 X274.511 Y262.679
G01 X274.357 Y264.062
G01 X262.178 Y257.031
G01 X252.030 Y251.172
G01 X251.918 Y251.237
G01 X251.805 Y251.293
G01 X251.691 Y251.342
G01 X251.577 Y251.383
G01 X251.463 Y251.416
G01 X251.350 Y251.441
G01 X251.237 Y251.458
G01 X251.127 Y251.468
G01 X251.018 Y251.471
G01 X250.912 Y251.467
G01 X250.809 Y251.456
G01 X250.710 Y251.439
G01 X250.614 Y251.416
G01 X250.522 Y251.386
G01 X250.434 Y251.352
G01 X250.352 Y251.312
G01 X250.274 Y251.267
G01 X250.201 Y251.218
G01 X250.134 Y251.166
G01 X250.073 Y251.109
G01 X250.017 Y251.050
G01 X249.968 Y250.988
G01 X249.924 Y250.924
G01 X249.887 Y250.858
G01 X249.856 Y250.791
G01 X249.831 Y250.723
G01 X249.813 Y250.654
G01 X249.801 Y250.586
G01 X249.795 Y250.518
G01 X249.795 Y250.452
G01 X249.802 Y250.386
G01 X249.814 Y250.323
G01 X249.831 Y250.261
G01 X249.855 Y250.203
G01 X249.883 Y250.147
G01 X249.917 Y250.095
G01 X249.955 Y250.046
G01 X249.998 Y250.002
G01 X250.000 Y250.000
G01 X249.972 Y250.028
G01 X249.948 Y250.059
G01 X249.926 Y250.093
G01 X249.908 Y250.128
G01 X249.893 Y250.166
G01 X249.881 Y250.205
G01 X249.873 Y250.245
G01 X249.869 Y250.287
G01 X249.869 Y250.330
G01 X249.872 Y250.373
G01 X249.880 Y250.417
G01 X249.891 Y250.461
G01 X249.907 Y250.505
G01 X249.927 Y250.548
G01 X249.950 Y250.590
G01 X249.978 Y250.631
G01 X250.009 Y250.671
G01 X250.045 Y250.709
G01 X250.084 Y250.745
G01 X250.127 Y250.779
G01 X250.173 Y250.811
G01 X250.223 Y250.839
G01 X250.276 Y250.865
G01 X250.332 Y250.887
G01 X250.390 Y250.906
G01 X250.452 Y250.921
G01 X250.515 Y250.933
G01 X250.581 Y250.940
G01 X250.649 Y250.943
G01 X250.719 Y250.941
G01 X250.789 Y250.935
G01 X250.861 Y250.924
G01 X250.934 Y250.908
G01 X251.007 Y250.887
G01 X251.080 Y250.861
G01 X251.153 Y250.830
G01 X251.225 Y250.794
G01 X251.297 Y250.753
G01 X251.368 Y250.707
G01 X251.436 Y250.655
G01 X251.504 Y250.598
G01 X251.568 Y250.537
G01 X251.631 Y250.470
G01 X251.690 Y250.398
G01 X251.747 Y250.322
G01 X251.799 Y250.241
G01 X251.848 Y250.156
G01 X251.893 Y250.066
G01 X251.934 Y249.973
G01 X251.970 Y249.876
G01 X252.000 Y249.775
G01 X252.026 Y249.670
G01 X252.046 Y249.563
G01 X252.060 Y249.453
G01 X252.068 Y249.341
G01 X252.070 Y249.226
G01 X252.066 Y249.110
G01 X252.056 Y248.992
G01 X252.038 Y248.874
G01 X252.030 Y248.828
G01 X274.357 Y235.937
G01 X286.535 Y228.906
G01 X286.744 Y231.126
G01 X286.825 Y233.315
G01 X286.782 Y235.465
G01 X286.619 Y237.570
G01 X286.535 Y238.281
G01 X286.608 Y240.211
G01 X286.580 Y242.119
G01 X286.535 Y242.969
G01 X284.488 Y241.589
G01 X282.397 Y240.392
G01 X280.446 Y239.453
G01 X278.911 Y238.367
G01 X277.345 Y237.405
G01 X275.756 Y236.567
G01 X274.357 Y235.937
G01 X286.535 Y228.906
G01 X298.714 Y221.875
G01 X298.902 Y224.881
G01 X298.916 Y227.837
G01 X298.760 Y230.731
G01 X298.714 Y231.250
G01 X298.769 Y233.929
G01 X298.714 Y235.937
G01 X296.132 Y234.192
G01 X293.501 Y232.665
G01 X290.835 Y231.356
G01 X290.595 Y231.250
G01 X288.416 Y229.913
G01 X286.535 Y228.906
G01 X274.357 Y235.937
G01 X275.958 Y236.666
G01 X277.545 Y237.520
G01 X279.107 Y238.498
G01 X280.446 Y239.453
G01 X282.565 Y240.481
G01 X284.653 Y241.692
G01 X286.535 Y242.969
G01 X293.227 Y239.458
G01 X298.714 Y235.937
G01 X298.890 Y238.452
G01 X298.938 Y240.950
G01 X298.859 Y243.425
G01 X298.714 Y245.312
G01 X298.770 Y247.714
G01 X298.714 Y250.000
G01 X295.308 Y247.774
G01 X291.809 Y245.882
G01 X290.595 Y245.313
G01 X287.959 Y243.716
G01 X286.535 Y242.969
G01 X284.488 Y241.589
G01 X282.397 Y240.392
G01 X280.446 Y239.453
G01 X278.911 Y238.367
G01 X277.345 Y237.405
G01 X275.756 Y236.567
G01 X274.357 Y235.937
G01 X252.030 Y248.828
G01 X251.941 Y248.749
G01 X251.849 Y248.675
G01 X251.755 Y248.607
G01 X251.659 Y248.545
G01 X251.561 Y248.489
G01 X251.461 Y248.440
G01 X251.361 Y248.396
G01 X251.260 Y248.358
G01 X251.158 Y248.327
G01 X251.056 Y248.301
G01 X250.955 Y248.281
G01 X250.854 Y248.267
G01 X250.755 Y248.259
G01 X250.656 Y248.256
G01 X250.560 Y248.259
G01 X250.465 Y248.266
G01 X250.372 Y248.279
G01 X250.281 Y248.297
G01 X250.193 Y248.319
G01 X250.108 Y248.346
G01 X250.027 Y248.377
G01 X249.948 Y248.412
G01 X249.873 Y248.451
G01 X249.802 Y248.493
G01 X249.734 Y248.538
G01 X249.670 Y248.586
G01 X249.611 Y248.637
G01 X249.555 Y248.690
G01 X249.504 Y248.746
G01 X249.458 Y248.803
G01 X249.415 Y248.861
G01 X249.377 Y248.921
G01 X249.344 Y248.982
G01 X249.314 Y249.043
G01 X249.290 Y249.105
G01 X249.269 Y249.167
G01 X249.253 Y249.228
G01 X249.241 Y249.289
G01 X249.233 Y249.349
G01 X249.229 Y249.409
G01 X249.230 Y249.467
G01 X249.234 Y249.523
G01 X249.241 Y249.578
G01 X249.252 Y249.631
G01 X249.266 Y249.682
G01 X249.284 Y249.730
G01 X249.304 Y249.776
G01 X249.327 Y249.820
G01 X249.353 Y249.860
G01 X249.380 Y249.898
G01 X249.410 Y249.932
G01 X249.442 Y249.963
G01 X249.475 Y249.991
G01 X249.509 Y250.016
G01 X249.545 Y250.037
G01 X249.581 Y250.055
G01 X249.618 Y250.069
G01 X249.656 Y250.080
G01 X249.693 Y250.088
G01 X249.730 Y250.092
G01 X249.767 Y250.092
G01 X249.803 Y250.089
G01 X249.838 Y250.083
G01 X249.872 Y250.074
G01 X249.905 Y250.061
G01 X249.936 Y250.046
G01 X249.965 Y250.028
G01 X249.992 Y250.007
G01 X250.000 Y250.000
G01 X249.957 Y250.043
G01 X249.918 Y250.090
G01 X249.884 Y250.142
G01 X249.854 Y250.196
G01 X249.830 Y250.254
G01 X249.811 Y250.314
G01 X249.798 Y250.377
G01 X249.790 Y250.442
G01 X249.789 Y250.508
G01 X249.793 Y250.575
G01 X249.804 Y250.643
G01 X249.821 Y250.711
G01 X249.844 Y250.779
G01 X249.873 Y250.846
G01 X249.909 Y250.912
G01 X249.951 Y250.976
G01 X249.999 Y251.039
G01 X250.052 Y251.098
G01 X250.112 Y251.155
G01 X250.178 Y251.209
G01 X250.248 Y251.259
G01 X250.325 Y251.304
G01 X250.406 Y251.345
G01 X250.492 Y251.381
G01 X250.582 Y251.412
G01 X250.677 Y251.437
G01 X250.775 Y251.456
G01 X250.877 Y251.469
G01 X250.982 Y251.475
G01 X251.090 Y251.474
G01 X251.199 Y251.466
G01 X251.311 Y251.450
G01 X251.424 Y251.428
G01 X251.537 Y251.397
G01 X251.651 Y251.359
G01 X251.765 Y251.313
G01 X251.878 Y251.259
G01 X251.990 Y251.196
G01 X252.030 Y251.172
G01 X274.357 Y264.062
G01 X275.958 Y263.334
G01 X277.545 Y262.480
G01 X279.107 Y261.502
G01 X280.446 Y260.547
G01 X282.565 Y259.519
G01 X284.653 Y258.308
G01 X286.535 Y257.031
G01 X286.731 Y258.958
G01 X286.825 Y260.921
G01 X286.812 Y262.914
G01 X286.692 Y264.931
G01 X286.535 Y266.406
G01 X286.607 Y268.648
G01 X286.545 Y270.936
G01 X286.535 Y271.094
G01 X274.357 Y264.062
G01 X275.958 Y263.334
G01 X277.545 Y262.480
G01 X279.107 Y261.502
G01 X280.446 Y260.547
G01 X282.565 Y259.519
G01 X284.653 Y258.308
G01 X286.535 Y257.031
G01 X289.487 Y255.606
G01 X292.381 Y253.908
G01 X294.654 Y252.344
G01 X298.458 Y250.162
G01 X298.714 Y250.000
G01 X298.886 Y252.402
G01 X298.939 Y254.820
G01 X298.872 Y257.249
G01 X298.714 Y259.375
G01 X298.770 Y261.894
G01 X298.714 Y264.063
G01 X292.252 Y259.980
G01 X286.535 Y257.031
G01 X284.488 Y258.411
G01 X282.397 Y259.608
G01 X280.446 Y260.547
G01 X278.911 Y261.633
G01 X277.345 Y262.595
G01 X275.756 Y263.433
G01 X274.357 Y264.062
G01 X286.535 Y271.094
G01 X288.898 Y269.980
G01 X291.235 Y268.683
G01 X293.536 Y267.204
G01 X294.654 Y266.406
G01 X297.469 Y264.841
G01 X298.714 Y264.063
G01 X298.896 Y266.755
G01 X298.929 Y269.498
G01 X298.809 Y272.284
G01 X298.714 Y273.438
G01 X298.763 Y276.482
G01 X298.714 Y278.125
G01 X286.535 Y271.094
G01 X274.357 Y264.062
G01 X252.030 Y251.172
G01 X251.919 Y251.237
G01 X251.806 Y251.294
G01 X251.693 Y251.344
G01 X251.579 Y251.385
G01 X251.466 Y251.418
G01 X251.353 Y251.444
G01 X251.241 Y251.462
G01 X251.131 Y251.473
G01 X251.022 Y251.477
G01 X250.916 Y251.474
G01 X250.813 Y251.464
G01 X250.714 Y251.447
G01 X250.618 Y251.425
G01 X250.526 Y251.396
G01 X250.438 Y251.363
G01 X250.355 Y251.324
G01 X250.276 Y251.280
G01 X250.203 Y251.232
G01 X250.136 Y251.180
G01 X250.074 Y251.125
G01 X250.017 Y251.066
G01 X249.967 Y251.005
G01 X249.923 Y250.941
G01 X249.885 Y250.876
G01 X249.853 Y250.810
G01 X249.827 Y250.742
G01 X249.807 Y250.674
G01 X249.794 Y250.606
G01 X249.787 Y250.539
G01 X249.786 Y250.472
G01 X249.791 Y250.407
G01 X249.801 Y250.344
G01 X249.818 Y250.283
G01 X249.840 Y250.224
G01 X249.867 Y250.168
G01 X249.899 Y250.116
G01 X249.935 Y250.067
G01 X249.977 Y250.022
G01 X250.000 Y250.000
G01 X249.971 Y250.029
G01 X249.945 Y250.060
G01 X249.921 Y250.094
G01 X249.901 Y250.130
G01 X249.885 Y250.169
G01 X249.872 Y250.209
G01 X249.863 Y250.251
G01 X249.857 Y250.294
G01 X249.856 Y250.338
G01 X249.859 Y250.383
G01 X249.865 Y250.429
G01 X249.876 Y250.474
G01 X249.891 Y250.520
G01 X249.911 Y250.565
G01 X249.934 Y250.609
G01 X249.962 Y250.653
G01 X249.993 Y250.695
G01 X250.029 Y250.735
G01 X250.069 Y250.773
G01 X250.112 Y250.809
G01 X250.159 Y250.843
G01 X250.210 Y250.874
G01 X250.264 Y250.902
G01 X250.322 Y250.926
G01 X250.382 Y250.947
G01 X250.445 Y250.965
G01 X250.511 Y250.978
G01 X250.579 Y250.987
G01 X250.649 Y250.991
G01 X250.721 Y250.991
G01 X250.794 Y250.987
G01 X250.869 Y250.977
G01 X250.944 Y250.962
G01 X251.020 Y250.943
G01 X251.097 Y250.918
G01 X251.173 Y250.887
G01 X251.249 Y250.852
G01 X251.324 Y250.811
G01 X251.398 Y250.764
G01 X251.471 Y250.713
G01 X251.541 Y250.656
G01 X251.610 Y250.593
G01 X251.676 Y250.526
G01 X251.740 Y250.453
G01 X251.800 Y250.376
G01 X251.856 Y250.293
G01 X251.909 Y250.206
G01 X251.958 Y250.115
G01 X252.002 Y250.019
G01 X252.041 Y249.919
G01 X252.075 Y249.815
G01 X252.104 Y249.708
G01 X252.128 Y249.598
G01 X252.145 Y249.484
G01 X252.156 Y249.368
G01 X252.161 Y249.250
G01 X252.160 Y249.129
G01 X252.152 Y249.007
G01 X252.137 Y248.884
G01 X252.118 Y248.777
G01 X298.714 Y221.875
G01 X310.892 Y214.844
G01 X311.128 Y218.601
G01 X311.145 Y222.296
G01 X310.950 Y225.914
G01 X310.892 Y226.563
G01 X310.892 Y228.906
G01 X307.729 Y226.771
G01 X304.508 Y224.893
G01 X301.246 Y223.273
G01 X300.744 Y223.047
G01 X298.714 Y221.875
G01 X310.892 Y214.844
G01 X323.071 Y207.812
G01 X323.284 Y212.357
G01 X323.232 Y216.819
G01 X323.071 Y219.531
G01 X323.071 Y221.875
G01 X319.220 Y219.378
G01 X315.306 Y217.188
G01 X312.922 Y216.016
G01 X310.892 Y214.844
G01 X298.714 Y221.875
G01 X301.837 Y223.374
G01 X304.926 Y225.113
G01 X307.964 Y227.094
G01 X308.863 Y227.734
G01 X310.892 Y228.906
G01 X323.071 Y221.875
G01 X323.279 Y225.851
G01 X323.276 Y229.780
G01 X323.071 Y233.594
G01 X323.071 Y235.938
G01 X318.850 Y233.209
G01 X314.545 Y230.858
G01 X312.922 Y230.078
G01 X310.892 Y228.906
G01 X307.729 Y226.771
G01 X304.508 Y224.893
G01 X301.246 Y223.273
G01 X300.744 Y223.047
G01 X298.714 Y221.875
G01 X323.071 Y207.812
G01 X335.249 Y200.781
G01 X335.510 Y206.077
G01 X335.461 Y211.278
G01 X335.249 Y214.844
G01 X330.794 Y211.941
G01 X326.265 Y209.388
G01 X323.071 Y207.812
G01 X335.249 Y200.781
G01 X347.428 Y193.750
G01 X347.666 Y199.833
G01 X347.548 Y205.802
G01 X347.428 Y207.812
G01 X342.279 Y204.542
G01 X337.051 Y201.671
G01 X335.249 Y200.781
G01 X323.071 Y207.812
G01 X327.637 Y210.121
G01 X332.146 Y212.780
G01 X335.249 Y214.844
G01 X347.428 Y207.812
G01 X347.665 Y213.289
G01 X347.604 Y218.685
G01 X347.428 Y221.875
G01 X342.054 Y218.457
G01 X336.588 Y215.495
G01 X335.249 Y214.844
G01 X330.794 Y211.941
G01 X326.265 Y209.388
G01 X323.071 Y207.812
G01 X298.714 Y221.875
G01 X301.837 Y223.374
G01 X304.926 Y225.113
G01 X307.964 Y227.094
G01 X308.863 Y227.734
G01 X312.799 Y229.708
G01 X316.676 Y232.016
G01 X319.011 Y233.594
G01 X323.071 Y235.938
G01 X334.487 Y229.395
G01 X335.249 Y228.906
G01 X335.496 Y233.249
G01 X335.523 Y237.565
G01 X335.335 Y241.843
G01 X335.249 Y242.969
G01 X329.780 Y239.458
G01 X324.184 Y236.465
G01 X323.071 Y235.938
G01 X334.487 Y229.395
G01 X335.249 Y228.906
G01 X347.428 Y221.875
G01 X347.661 Y226.933
G01 X347.634 Y231.945
G01 X347.428 Y235.938
G01 X341.465 Y232.178
G01 X335.380 Y228.968
G01 X335.249 Y228.906
G01 X323.864 Y235.528
G01 X323.071 Y235.938
G01 X328.688 Y238.828
G01 X334.185 Y242.237
G01 X335.249 Y242.969
G01 X345.083 Y237.436
G01 X347.428 Y235.938
G01 X347.656 Y240.768
G01 X347.646 Y245.586
G01 X347.428 Y250.000
G01 X340.227 Y245.567
G01 X335.249 Y242.969
G01 X329.780 Y239.458
G01 X324.184 Y236.465
G01 X323.071 Y235.938
G01 X318.850 Y233.209
G01 X314.545 Y230.858
G01 X312.922 Y230.078
G01 X309.607 Y227.855
G01 X306.230 Y225.907
G01 X302.811 Y224.236
G01 X302.773 Y224.219
G01 X299.901 Y222.511
G01 X298.714 Y221.875
G01 X252.118 Y248.777
G01 X252.024 Y248.695
G01 X251.928 Y248.619
G01 X251.828 Y248.549
G01 X251.727 Y248.485
G01 X251.624 Y248.428
G01 X251.520 Y248.378
G01 X251.414 Y248.333
G01 X251.308 Y248.295
G01 X251.202 Y248.264
G01 X251.096 Y248.238
G01 X250.990 Y248.219
G01 X250.885 Y248.206
G01 X250.781 Y248.199
G01 X250.678 Y248.197
G01 X250.578 Y248.201
G01 X250.479 Y248.211
G01 X250.383 Y248.226
G01 X250.290 Y248.246
G01 X250.199 Y248.271
G01 X250.111 Y248.300
G01 X250.027 Y248.334
G01 X249.947 Y248.372
G01 X249.870 Y248.413
G01 X249.797 Y248.458
G01 X249.728 Y248.507
G01 X249.664 Y248.558
G01 X249.604 Y248.612
G01 X249.548 Y248.668
G01 X249.497 Y248.726
G01 X249.450 Y248.786
G01 X249.408 Y248.848
G01 X249.371 Y248.910
G01 X249.338 Y248.974
G01 X249.310 Y249.038
G01 X249.287 Y249.102
G01 X249.268 Y249.166
G01 X249.254 Y249.229
G01 X249.244 Y249.292
G01 X249.239 Y249.354
G01 X249.237 Y249.415
G01 X249.240 Y249.474
G01 X249.247 Y249.532
G01 X249.257 Y249.587
G01 X249.271 Y249.640
G01 X249.288 Y249.691
G01 X249.309 Y249.740
G01 X249.332 Y249.785
G01 X249.358 Y249.828
G01 X249.387 Y249.868
G01 X249.418 Y249.904
G01 X249.450 Y249.937
G01 X249.485 Y249.966
G01 X249.521 Y249.992
G01 X249.558 Y250.014
G01 X249.597 Y250.033
G01 X249.635 Y250.048
G01 X249.675 Y250.059
G01 X249.714 Y250.067
G01 X249.753 Y250.070
G01 X249.792 Y250.070
G01 X249.831 Y250.067
G01 X249.868 Y250.060
G01 X249.904 Y250.049
G01 X249.939 Y250.035
G01 X249.972 Y250.018
G01 X250.000 Y250.000
G01 X249.953 Y250.037
G01 X249.909 Y250.079
G01 X249.870 Y250.125
G01 X249.835 Y250.174
G01 X249.805 Y250.228
G01 X249.780 Y250.285
G01 X249.759 Y250.344
G01 X249.745 Y250.407
G01 X249.736 Y250.471
G01 X249.732 Y250.537
G01 X249.735 Y250.604
G01 X249.743 Y250.673
G01 X249.758 Y250.742
G01 X249.779 Y250.810
G01 X249.806 Y250.879
G01 X249.839 Y250.947
G01 X249.879 Y251.013
G01 X249.925 Y251.077
G01 X249.976 Y251.140
G01 X250.034 Y251.200
G01 X250.097 Y251.256
G01 X250.166 Y251.310
G01 X250.241 Y251.359
G01 X250.321 Y251.404
G01 X250.405 Y251.444
G01 X250.495 Y251.480
G01 X250.589 Y251.509
G01 X250.687 Y251.533
G01 X250.788 Y251.551
G01 X250.893 Y251.563
G01 X251.001 Y251.568
G01 X251.111 Y251.566
G01 X251.224 Y251.557
G01 X251.338 Y251.540
G01 X251.454 Y251.516
G01 X251.570 Y251.484
G01 X251.687 Y251.444
G01 X251.803 Y251.396
G01 X251.918 Y251.340
G01 X252.033 Y251.277
G01 X252.118 Y251.223
G01 X298.714 Y278.125
G01 X301.837 Y276.626
G01 X304.926 Y274.887
G01 X307.964 Y272.906
G01 X308.863 Y272.266
G01 X310.892 Y271.094
G01 X311.123 Y274.595
G01 X311.154 Y278.169
G01 X310.978 Y281.803
G01 X310.892 Y282.813
G01 X310.892 Y285.156
G01 X298.714 Y278.125
G01 X301.837 Y276.626
G01 X304.926 Y274.887
G01 X307.964 Y272.906
G01 X308.863 Y272.266
G01 X310.892 Y271.094
G01 X315.020 Y269.006
G01 X319.082 Y266.562
G01 X321.041 Y265.234
G01 X323.071 Y264.063
G01 X323.276 Y267.871
G01 X323.282 Y271.733
G01 X323.082 Y275.637
G01 X323.071 Y275.781
G01 X323.071 Y278.125
G01 X310.892 Y271.094
G01 X307.729 Y273.229
G01 X304.508 Y275.107
G01 X301.246 Y276.727
G01 X300.744 Y276.953
G01 X298.714 Y278.125
G01 X310.892 Y285.156
G01 X314.698 Y283.232
G01 X318.455 Y281.017
G01 X321.041 Y279.297
G01 X323.071 Y278.125
G01 X323.283 Y282.420
G01 X323.245 Y286.801
G01 X323.071 Y289.844
G01 X323.071 Y292.188
G01 X310.892 Y285.156
G01 X298.714 Y278.125
G01 X301.837 Y276.626
G01 X304.926 Y274.887
G01 X307.964 Y272.906
G01 X308.863 Y272.266
G01 X312.799 Y270.292
G01 X316.676 Y267.984
G01 X319.011 Y266.406
G01 X323.071 Y264.063
G01 X328.688 Y261.172
G01 X334.185 Y257.763
G01 X335.249 Y257.031
G01 X335.494 Y261.297
G01 X335.524 Y265.604
G01 X335.336 Y269.941
G01 X335.249 Y271.094
G01 X323.864 Y264.472
G01 X323.071 Y264.063
G01 X328.688 Y261.172
G01 X334.185 Y257.763
G01 X335.249 Y257.031
G01 X342.580 Y253.075
G01 X347.428 Y250.000
G01 X347.656 Y254.798
G01 X347.647 Y259.617
G01 X347.428 Y264.062
G01 X337.676 Y258.289
G01 X335.249 Y257.031
G01 X329.780 Y260.542
G01 X324.184 Y263.535
G01 X323.071 Y264.063
G01 X334.487 Y270.605
G01 X335.249 Y271.094
G01 X341.337 Y267.895
G01 X347.303 Y264.148
G01 X347.428 Y264.062
G01 X347.659 Y269.029
G01 X347.636 Y274.051
G01 X347.428 Y278.125
G01 X335.249 Y271.094
G01 X323.864 Y264.472
G01 X323.071 Y264.063
G01 X318.850 Y266.791
G01 X314.545 Y269.142
G01 X312.922 Y269.922
G01 X309.607 Y272.145
G01 X306.230 Y274.093
G01 X302.811 Y275.764
G01 X302.773 Y275.781
G01 X299.901 Y277.489
G01 X298.714 Y278.125
G01 X323.071 Y292.188
G01 X327.637 Y289.879
G01 X332.146 Y287.220
G01 X335.249 Y285.156
G01 X335.508 Y290.280
G01 X335.465 Y295.511
G01 X335.249 Y299.219
G01 X323.071 Y292.188
G01 X327.637 Y289.879
G01 X332.146 Y287.220
G01 X335.249 Y285.156
G01 X340.732 Y282.305
G01 X346.131 Y278.998
G01 X347.428 Y278.125
G01 X347.664 Y283.466
G01 X347.606 Y288.896
G01 X347.428 Y292.188
G01 X335.249 Y285.156
G01 X330.794 Y288.059
G01 X326.265 Y290.612
G01 X323.071 Y292.188
G01 X335.249 Y299.219
G01 X340.498 Y296.485
G01 X345.678 Y293.351
G01 X347.428 Y292.188
G01 X347.665 Y298.112
G01 X347.550 Y304.158
G01 X347.428 Y306.250
G01 X335.249 Y299.219
G01 X323.071 Y292.188
G01 X298.714 Y278.125
G01 X252.118 Y251.223
G01 X252.007 Y251.294
G01 X251.894 Y251.357
G01 X251.780 Y251.412
G01 X251.665 Y251.460
G01 X251.549 Y251.500
G01 X251.434 Y251.531
G01 X251.320 Y251.556
G01 X251.207 Y251.573
G01 X251.095 Y251.583
G01 X250.986 Y251.585
G01 X250.879 Y251.581
G01 X250.774 Y251.570
G01 X250.673 Y251.553
G01 X250.576 Y251.530
G01 X250.482 Y251.502
G01 X250.393 Y251.468
G01 X250.309 Y251.429
G01 X250.229 Y251.385
G01 X250.154 Y251.337
G01 X250.084 Y251.285
G01 X250.020 Y251.230
G01 X249.962 Y251.171
G01 X249.909 Y251.110
G01 X249.862 Y251.047
G01 X249.821 Y250.982
G01 X249.786 Y250.916
G01 X249.758 Y250.849
G01 X249.735 Y250.781
G01 X249.718 Y250.713
G01 X249.707 Y250.646
G01 X249.703 Y250.579
G01 X249.703 Y250.514
G01 X249.710 Y250.450
G01 X249.722 Y250.388
G01 X249.739 Y250.328
G01 X249.762 Y250.272
G01 X249.789 Y250.218
G01 X249.821 Y250.168
G01 X249.857 Y250.121
G01 X249.897 Y250.079
G01 X249.941 Y250.041
G01 X249.988 Y250.007
G01 X250.000 Y250.000
G01 X249.967 Y250.022
G01 X249.937 Y250.047
G01 X249.909 Y250.075
G01 X249.884 Y250.106
G01 X249.862 Y250.140
G01 X249.842 Y250.176
G01 X249.826 Y250.214
G01 X249.814 Y250.253
G01 X249.805 Y250.295
G01 X249.799 Y250.338
G01 X249.798 Y250.382
G01 X249.800 Y250.427
G01 X249.806 Y250.473
G01 X249.817 Y250.519
G01 X249.831 Y250.565
G01 X249.850 Y250.611
G01 X249.872 Y250.656
G01 X249.899 Y250.701
G01 X249.930 Y250.744
G01 X249.965 Y250.786
G01 X250.004 Y250.826
G01 X250.046 Y250.864
G01 X250.093 Y250.900
G01 X250.143 Y250.933
G01 X250.196 Y250.963
G01 X250.253 Y250.991
G01 X250.313 Y251.015
G01 X250.375 Y251.035
G01 X250.441 Y251.052
G01 X250.509 Y251.064
G01 X250.579 Y251.073
G01 X250.652 Y251.076
G01 X250.726 Y251.076
G01 X250.801 Y251.070
G01 X250.878 Y251.060
G01 X250.955 Y251.045
G01 X251.033 Y251.024
G01 X251.112 Y250.999
G01 X251.190 Y250.968
G01 X251.267 Y250.931
G01 X251.344 Y250.890
G01 X251.420 Y250.843
G01 X251.495 Y250.791
G01 X251.567 Y250.733
G01 X251.638 Y250.670
G01 X251.706 Y250.602
G01 X251.771 Y250.529
G01 X251.833 Y250.451
G01 X251.891 Y250.368
G01 X251.946 Y250.280
G01 X251.997 Y250.188
G01 X252.043 Y250.091
G01 X252.084 Y249.991
G01 X252.120 Y249.886
G01 X252.151 Y249.779
G01 X252.177 Y249.667
G01 X252.196 Y249.553
G01 X252.210 Y249.436
G01 X252.217 Y249.317
G01 X252.218 Y249.195
G01 X252.212 Y249.072
G01 X252.199 Y248.948
G01 X252.180 Y248.823
G01 X252.165 Y248.750
G01 X347.428 Y193.750
G01 X359.606 Y186.719
G01 X359.822 Y193.590
G01 X359.634 Y200.326
G01 X359.606 Y200.781
G01 X353.764 Y197.141
G01 X347.836 Y193.952
G01 X347.428 Y193.750
G01 X359.606 Y186.719
G01 X371.785 Y179.688
G01 X371.977 Y187.346
G01 X371.785 Y193.750
G01 X365.249 Y189.740
G01 X359.606 Y186.719
G01 X347.428 Y193.750
G01 X353.360 Y196.908
G01 X359.210 Y200.518
G01 X359.606 Y200.781
G01 X371.785 Y193.750
G01 X371.984 Y200.768
G01 X371.793 Y207.668
G01 X371.785 Y207.812
G01 X365.078 Y203.694
G01 X359.606 Y200.781
G01 X353.764 Y197.141
G01 X347.836 Y193.952
G01 X347.428 Y193.750
G01 X371.785 Y179.688
G01 X383.963 Y172.656
G01 X384.132 Y181.102
G01 X383.963 Y186.719
G01 X376.733 Y182.338
G01 X371.785 Y179.688
G01 X383.963 Y172.656
G01 X396.142 Y165.625
G01 X396.287 Y174.859
G01 X396.142 Y179.687
G01 X388.218 Y174.936
G01 X383.963 Y172.656
G01 X371.785 Y179.688
G01 X379.085 Y183.695
G01 X383.963 Y186.719
G01 X396.142 Y179.687
G01 X396.299 Y188.258
G01 X396.142 Y193.750
G01 X388.080 Y188.914
G01 X383.963 Y186.719
G01 X376.733 Y182.338
G01 X371.785 Y179.688
G01 X347.428 Y193.750
G01 X353.438 Y196.869
G01 X359.369 Y200.446
G01 X361.636 Y201.953
G01 X368.491 Y205.759
G01 X371.785 Y207.812
G01 X383.963 Y200.781
G01 X384.146 Y208.061
G01 X383.963 Y214.844
G01 X376.219 Y210.162
G01 X371.785 Y207.812
G01 X383.963 Y200.781
G01 X396.142 Y193.750
G01 X396.306 Y201.786
G01 X396.142 Y207.812
G01 X387.759 Y202.795
G01 X383.963 Y200.781
G01 X371.785 Y207.812
G01 X379.604 Y212.115
G01 X383.963 Y214.844
G01 X396.142 Y207.812
G01 X396.309 Y215.442
G01 X396.142 Y221.875
G01 X387.184 Y216.543
G01 X383.963 Y214.844
G01 X376.219 Y210.162
G01 X371.785 Y207.812
G01 X365.174 Y203.656
G01 X358.460 Y200.042
G01 X357.577 Y199.609
G01 X351.783 Y196.082
G01 X347.428 Y193.750
G01 X396.142 Y165.625
G01 X408.320 Y158.594
G01 X408.442 Y168.615
G01 X408.320 Y172.656
G01 X399.702 Y167.533
G01 X396.142 Y165.625
G01 X408.320 Y158.594
G01 X420.499 Y151.563
G01 X420.597 Y162.372
G01 X420.499 Y165.625
G01 X411.186 Y160.130
G01 X408.320 Y158.594
G01 X396.142 Y165.625
G01 X404.810 Y170.481
G01 X408.320 Y172.656
G01 X420.499 Y165.625
G01 X420.612 Y175.755
G01 X420.499 Y179.687
G01 X411.071 Y174.125
G01 X408.320 Y172.656
G01 X399.702 Y167.533
G01 X396.142 Y165.625
G01 X420.499 Y151.563
G01 X432.677 Y144.531
G01 X432.752 Y156.129
G01 X432.677 Y158.594
G01 X422.671 Y152.727
G01 X420.499 Y151.563
G01 X432.677 Y144.531
G01 X444.856 Y137.500
G01 X444.906 Y149.885
G01 X444.856 Y151.562
G01 X434.155 Y145.324
G01 X432.677 Y144.531
G01 X420.499 Y151.563
G01 X430.536 Y157.267
G01 X432.677 Y158.594
G01 X444.856 Y151.562
G01 X444.925 Y163.256
G01 X444.856 Y165.625
G01 X434.056 Y159.331
G01 X432.677 Y158.594
G01 X422.671 Y152.727
G01 X420.499 Y151.563
G01 X396.142 Y165.625
G01 X404.963 Y170.402
G01 X412.380 Y175.000
G01 X420.499 Y179.687
G01 X432.677 Y172.656
G01 X432.781 Y182.986
G01 X432.677 Y186.719
G01 X422.325 Y180.659
G01 X420.499 Y179.687
G01 X432.677 Y172.656
G01 X444.856 Y165.625
G01 X444.939 Y176.725
G01 X444.856 Y179.688
G01 X433.835 Y173.273
G01 X432.677 Y172.656
G01 X420.499 Y179.687
G01 X430.879 Y185.597
G01 X432.677 Y186.719
G01 X444.856 Y179.688
G01 X444.949 Y190.290
G01 X444.856 Y193.750
G01 X433.462 Y187.135
G01 X432.677 Y186.719
G01 X422.325 Y180.659
G01 X420.499 Y179.687
G01 X411.245 Y174.043
G01 X404.261 Y170.312
G01 X396.142 Y165.625
G01 X347.428 Y193.750
G01 X353.381 Y196.898
G01 X359.251 Y200.499
G01 X360.136 Y201.087
G01 X367.089 Y204.739
G01 X373.938 Y208.959
G01 X374.962 Y209.647
G01 X383.225 Y214.093
G01 X389.788 Y218.207
G01 X396.142 Y221.875
G01 X408.320 Y214.844
G01 X408.473 Y222.891
G01 X408.320 Y228.906
G01 X397.973 Y222.838
G01 X396.142 Y221.875
G01 X408.320 Y214.844
G01 X420.499 Y207.813
G01 X420.635 Y216.568
G01 X420.499 Y221.875
G01 X409.648 Y215.543
G01 X408.320 Y214.844
G01 X396.142 Y221.875
G01 X406.528 Y227.776
G01 X408.320 Y228.906
G01 X420.499 Y221.875
G01 X420.637 Y230.394
G01 X420.499 Y235.938
G01 X408.584 Y229.045
G01 X408.320 Y228.906
G01 X397.973 Y222.838
G01 X396.142 Y221.875
G01 X418.469 Y208.984
G01 X420.499 Y207.813
G01 X432.677 Y200.781
G01 X432.796 Y210.256
G01 X432.677 Y214.844
G01 X421.284 Y208.227
G01 X420.499 Y207.813
G01 X432.677 Y200.781
G01 X444.856 Y193.750
G01 X444.957 Y203.952
G01 X444.856 Y207.812
G01 X432.893 Y200.895
G01 X432.677 Y200.781
G01 X420.499 Y207.813
G01 X431.907 Y214.359
G01 X432.677 Y214.844
G01 X444.856 Y207.812
G01 X444.961 Y217.711
G01 X444.856 Y221.875
G01 X432.677 Y214.844
G01 X421.284 Y208.227
G01 X420.499 Y207.813
G01 X398.172 Y220.703
G01 X396.142 Y221.875
G01 X406.809 Y227.736
G01 X412.380 Y231.250
G01 X420.499 Y235.938
G01 X432.677 Y228.906
G01 X432.802 Y237.941
G01 X432.677 Y242.969
G01 X420.499 Y235.938
G01 X432.677 Y228.906
G01 X444.856 Y221.875
G01 X444.964 Y231.568
G01 X444.856 Y235.937
G01 X432.677 Y228.906
G01 X420.499 Y235.938
G01 X432.677 Y242.969
G01 X444.856 Y235.937
G01 X444.966 Y245.523
G01 X444.856 Y250.000
G01 X432.677 Y242.969
G01 X420.499 Y235.938
G01 X408.912 Y229.001
G01 X404.261 Y226.563
G01 X396.142 Y221.875
G01 X387.354 Y216.502
G01 X381.316 Y213.315
G01 X373.954 Y208.716
G01 X366.490 Y204.755
G01 X360.203 Y200.845
G01 X353.823 Y197.439
G01 X353.782 Y197.418
G01 X348.078 Y194.099
G01 X347.428 Y193.750
G01 X252.165 Y248.750
G01 X252.058 Y248.673
G01 X251.949 Y248.603
G01 X251.838 Y248.541
G01 X251.726 Y248.487
G01 X251.613 Y248.439
G01 X251.499 Y248.399
G01 X251.386 Y248.367
G01 X251.273 Y248.341
G01 X251.161 Y248.323
G01 X251.050 Y248.311
G01 X250.941 Y248.307
G01 X250.834 Y248.308
G01 X250.730 Y248.317
G01 X250.628 Y248.331
G01 X250.530 Y248.351
G01 X250.435 Y248.376
G01 X250.344 Y248.407
G01 X250.257 Y248.442
G01 X250.175 Y248.482
G01 X250.097 Y248.526
G01 X250.023 Y248.575
G01 X249.955 Y248.626
G01 X249.892 Y248.681
G01 X249.834 Y248.739
G01 X249.781 Y248.799
G01 X249.734 Y248.861
G01 X249.693 Y248.924
G01 X249.657 Y248.989
G01 X249.627 Y249.055
G01 X249.602 Y249.121
G01 X249.582 Y249.187
G01 X249.569 Y249.253
G01 X249.560 Y249.318
G01 X249.557 Y249.382
G01 X249.559 Y249.444
G01 X249.566 Y249.505
G01 X249.578 Y249.564
G01 X249.594 Y249.620
G01 X249.615 Y249.674
G01 X249.640 Y249.724
G01 X249.669 Y249.771
G01 X249.702 Y249.815
G01 X249.738 Y249.854
G01 X249.777 Y249.890
G01 X249.819 Y249.921
G01 X249.863 Y249.948
G01 X249.909 Y249.971
G01 X249.957 Y249.989
G01 X250.000 Y250.000
G01 X249.966 Y249.991
G01 X249.932 Y249.978
G01 X249.900 Y249.962
G01 X249.870 Y249.942
G01 X249.841 Y249.920
G01 X249.814 Y249.895
G01 X249.789 Y249.867
G01 X249.767 Y249.836
G01 X249.747 Y249.803
G01 X249.730 Y249.768
G01 X249.716 Y249.730
G01 X249.705 Y249.691
G01 X249.697 Y249.650
G01 X249.693 Y249.607
G01 X249.692 Y249.564
G01 X249.694 Y249.519
G01 X249.701 Y249.474
G01 X249.711 Y249.428
G01 X249.725 Y249.382
G01 X249.743 Y249.336
G01 X249.764 Y249.290
G01 X249.790 Y249.245
G01 X249.819 Y249.201
G01 X249.853 Y249.158
G01 X249.890 Y249.116
G01 X249.931 Y249.077
G01 X249.975 Y249.039
G01 X250.023 Y249.003
G01 X250.075 Y248.970
G01 X250.129 Y248.939
G01 X250.187 Y248.912
G01 X250.248 Y248.888
G01 X250.312 Y248.867
G01 X250.378 Y248.850
G01 X250.447 Y248.836
G01 X250.518 Y248.827
G01 X250.591 Y248.822
G01 X250.665 Y248.822
G01 X250.742 Y248.825
G01 X250.819 Y248.834
G01 X250.897 Y248.848
G01 X250.976 Y248.866
G01 X251.054 Y248.889
G01 X251.133 Y248.918
G01 X251.212 Y248.952
G01 X251.290 Y248.990
G01 X251.367 Y249.034
G01 X251.443 Y249.083
G01 X251.517 Y249.138
G01 X251.590 Y249.197
G01 X251.660 Y249.262
G01 X251.727 Y249.331
G01 X251.792 Y249.405
G01 X251.853 Y249.485
G01 X251.911 Y249.568
G01 X251.965 Y249.656
G01 X252.014 Y249.749
G01 X252.060 Y249.845
G01 X252.101 Y249.946
G01 X252.136 Y250.050
G01 X252.167 Y250.157
G01 X252.192 Y250.267
G01 X252.211 Y250.381
G01 X252.225 Y250.496
G01 X252.232 Y250.614
G01 X252.233 Y250.734
G01 X252.228 Y250.856
G01 X252.215 Y250.978
G01 X252.197 Y251.102
G01 X252.171 Y251.226
G01 X252.165 Y251.250
G01 X347.428 Y306.250
G01 X353.360 Y303.092
G01 X359.210 Y299.482
G01 X359.606 Y299.219
G01 X359.822 Y305.945
G01 X359.634 Y312.807
G01 X359.606 Y313.281
G01 X347.428 Y306.250
G01 X353.360 Y303.092
G01 X359.210 Y299.482
G01 X359.606 Y299.219
G01 X366.397 Y295.545
G01 X371.785 Y292.187
G01 X371.984 Y299.084
G01 X371.793 Y306.100
G01 X371.785 Y306.250
G01 X359.606 Y299.219
G01 X353.764 Y302.859
G01 X347.836 Y306.048
G01 X347.428 Y306.250
G01 X359.606 Y313.281
G01 X366.223 Y309.698
G01 X371.785 Y306.250
G01 X371.977 Y313.779
G01 X371.785 Y320.313
G01 X359.606 Y313.281
G01 X347.428 Y306.250
G01 X353.438 Y303.131
G01 X359.369 Y299.554
G01 X361.636 Y298.047
G01 X368.491 Y294.241
G01 X371.785 Y292.187
G01 X379.604 Y287.885
G01 X383.963 Y285.156
G01 X384.146 Y292.340
G01 X383.963 Y299.219
G01 X371.785 Y292.187
G01 X379.604 Y287.885
G01 X383.963 Y285.156
G01 X392.982 Y280.111
G01 X396.142 Y278.125
G01 X396.309 Y285.682
G01 X396.142 Y292.187
G01 X383.963 Y285.156
G01 X376.219 Y289.838
G01 X371.785 Y292.187
G01 X383.963 Y299.219
G01 X392.408 Y294.522
G01 X396.142 Y292.187
G01 X396.306 Y300.133
G01 X396.142 Y306.250
G01 X383.963 Y299.219
G01 X371.785 Y292.187
G01 X365.174 Y296.344
G01 X358.460 Y299.958
G01 X357.577 Y300.391
G01 X351.783 Y303.918
G01 X347.428 Y306.250
G01 X371.785 Y320.313
G01 X379.085 Y316.305
G01 X383.963 Y313.281
G01 X384.133 Y321.613
G01 X383.963 Y327.344
G01 X371.785 Y320.313
G01 X379.085 Y316.305
G01 X383.963 Y313.281
G01 X392.086 Y308.774
G01 X396.142 Y306.250
G01 X396.300 Y314.722
G01 X396.142 Y320.312
G01 X383.963 Y313.281
G01 X376.733 Y317.662
G01 X371.785 Y320.313
G01 X383.963 Y327.344
G01 X391.948 Y322.912
G01 X396.142 Y320.312
G01 X396.288 Y329.447
G01 X396.142 Y334.375
G01 X383.963 Y327.344
G01 X371.785 Y320.313
G01 X347.428 Y306.250
G01 X353.381 Y303.102
G01 X359.251 Y299.501
G01 X360.136 Y298.913
G01 X367.089 Y295.261
G01 X373.938 Y291.041
G01 X374.962 Y290.353
G01 X383.225 Y285.907
G01 X389.788 Y281.793
G01 X396.142 Y278.125
G01 X406.528 Y272.224
G01 X408.320 Y271.094
G01 X408.473 Y279.090
G01 X408.320 Y285.156
G01 X396.142 Y278.125
G01 X406.528 Y272.224
G01 X408.320 Y271.094
G01 X420.241 Y264.225
G01 X420.499 Y264.062
G01 X420.637 Y272.548
G01 X420.499 Y278.125
G01 X408.320 Y271.094
G01 X397.973 Y277.162
G01 X396.142 Y278.125
G01 X408.320 Y285.156
G01 X419.198 Y278.944
G01 X420.499 Y278.125
G01 X420.635 Y286.829
G01 X420.499 Y292.188
G01 X408.320 Y285.156
G01 X396.142 Y278.125
G01 X406.809 Y272.264
G01 X412.380 Y268.750
G01 X420.499 Y264.062
G01 X432.677 Y257.031
G01 X432.802 Y266.047
G01 X432.677 Y271.094
G01 X420.499 Y264.062
G01 X432.677 Y257.031
G01 X444.856 Y250.000
G01 X444.966 Y259.578
G01 X444.856 Y264.062
G01 X432.677 Y257.031
G01 X420.499 Y264.062
G01 X432.677 Y271.094
G01 X444.856 Y264.062
G01 X444.965 Y273.732
G01 X444.856 Y278.125
G01 X432.677 Y271.094
G01 X420.499 Y264.062
G01 X408.912 Y270.999
G01 X404.261 Y273.438
G01 X396.142 Y278.125
G01 X418.469 Y291.016
G01 X420.499 Y292.188
G01 X431.907 Y285.641
G01 X432.677 Y285.156
G01 X432.796 Y294.581
G01 X432.677 Y299.219
G01 X420.499 Y292.188
G01 X431.907 Y285.641
G01 X432.677 Y285.156
G01 X444.856 Y278.125
G01 X444.962 Y287.988
G01 X444.856 Y292.187
G01 X432.677 Y285.156
G01 X421.284 Y291.773
G01 X420.499 Y292.188
G01 X432.677 Y299.219
G01 X444.644 Y292.321
G01 X444.856 Y292.187
G01 X444.957 Y302.344
G01 X444.856 Y306.250
G01 X432.677 Y299.219
G01 X420.499 Y292.188
G01 X398.172 Y279.297
G01 X396.142 Y278.125
G01 X387.354 Y283.498
G01 X381.316 Y286.685
G01 X373.954 Y291.284
G01 X366.490 Y295.245
G01 X360.203 Y299.155
G01 X353.823 Y302.561
G01 X353.782 Y302.582
G01 X348.078 Y305.901
G01 X347.428 Y306.250
G01 X396.142 Y334.375
G01 X404.810 Y329.519
G01 X408.320 Y327.344
G01 X408.443 Y337.282
G01 X408.320 Y341.406
G01 X396.142 Y334.375
G01 X404.810 Y329.519
G01 X408.320 Y327.344
G01 X417.788 Y321.998
G01 X420.499 Y320.312
G01 X420.613 Y330.370
G01 X420.499 Y334.375
G01 X408.320 Y327.344
G01 X399.702 Y332.467
G01 X396.142 Y334.375
G01 X408.320 Y341.406
G01 X417.673 Y336.126
G01 X420.499 Y334.375
G01 X420.598 Y345.117
G01 X420.499 Y348.438
G01 X408.320 Y341.406
G01 X396.142 Y334.375
G01 X404.963 Y329.598
G01 X412.380 Y325.000
G01 X420.499 Y320.312
G01 X430.879 Y314.403
G01 X432.677 Y313.281
G01 X432.782 Y323.549
G01 X432.677 Y327.344
G01 X420.499 Y320.312
G01 X430.879 Y314.403
G01 X432.677 Y313.281
G01 X444.084 Y306.733
G01 X444.856 Y306.250
G01 X444.950 Y316.802
G01 X444.856 Y320.313
G01 X432.677 Y313.281
G01 X422.325 Y319.341
G01 X420.499 Y320.312
G01 X432.677 Y327.344
G01 X443.716 Y321.023
G01 X444.856 Y320.313
G01 X444.939 Y331.362
G01 X444.856 Y334.375
G01 X432.677 Y327.344
G01 X420.499 Y320.312
G01 X411.245 Y325.957
G01 X404.261 Y329.687
G01 X396.142 Y334.375
G01 X420.499 Y348.438
G01 X430.536 Y342.733
G01 X432.677 Y341.406
G01 X432.752 Y352.953
G01 X432.677 Y355.469
G01 X420.499 Y348.438
G01 X430.536 Y342.733
G01 X432.677 Y341.406
G01 X443.497 Y335.219
G01 X444.856 Y334.375
G01 X444.925 Y346.024
G01 X444.856 Y348.437
G01 X432.677 Y341.406
G01 X422.671 Y347.273
G01 X420.499 Y348.438
G01 X432.677 Y355.469
G01 X443.399 Y349.340
G01 X444.856 Y348.437
G01 X444.907 Y360.788
G01 X444.856 Y362.500
G01 X432.677 Y355.469
G01 X420.499 Y348.438
G01 X396.142 Y334.375
G01 X347.428 Y306.250
G01 X252.165 Y251.250
G01 X252.072 Y251.336
G01 X251.975 Y251.415
G01 X251.876 Y251.489
G01 X251.774 Y251.556
G01 X251.670 Y251.616
G01 X251.565 Y251.671
G01 X251.458 Y251.719
G01 X251.351 Y251.760
G01 X251.243 Y251.796
G01 X251.135 Y251.825
G01 X251.027 Y251.847
G01 X250.919 Y251.864
G01 X250.813 Y251.875
G01 X250.707 Y251.879
G01 X250.604 Y251.878
G01 X250.502 Y251.872
G01 X250.402 Y251.860
G01 X250.304 Y251.843
G01 X250.209 Y251.821
G01 X250.118 Y251.794
G01 X250.029 Y251.762
G01 X249.943 Y251.726
G01 X249.862 Y251.686
G01 X249.784 Y251.643
G01 X249.710 Y251.596
G01 X249.640 Y251.545
G01 X249.574 Y251.492
G01 X249.513 Y251.436
G01 X249.456 Y251.378
G01 X249.403 Y251.317
G01 X249.355 Y251.255
G01 X249.312 Y251.191
G01 X249.273 Y251.127
G01 X249.240 Y251.061
G01 X249.210 Y250.995
G01 X249.186 Y250.929
G01 X249.165 Y250.862
G01 X249.150 Y250.796
G01 X249.138 Y250.731
G01 X249.131 Y250.666
G01 X249.129 Y250.603
G01 X249.130 Y250.541
G01 X249.135 Y250.481
G01 X249.144 Y250.422
G01 X249.157 Y250.366
G01 X249.173 Y250.311
G01 X249.192 Y250.260
G01 X249.214 Y250.211
G01 X249.239 Y250.164
G01 X249.266 Y250.121
G01 X249.296 Y250.081
G01 X249.328 Y250.044
G01 X249.362 Y250.010
G01 X249.397 Y249.980
G01 X249.434 Y249.954
G01 X249.472 Y249.930
G01 X249.510 Y249.911
G01 X249.550 Y249.895
G01 X249.589 Y249.883
G01 X249.629 Y249.874
G01 X249.668 Y249.869
G01 X249.707 Y249.867
G01 X249.745 Y249.869
G01 X249.782 Y249.874
G01 X249.818 Y249.883
G01 X249.853 Y249.894
G01 X249.885 Y249.909
G01 X249.916 Y249.927
G01 X249.945 Y249.947
G01 X249.972 Y249.970
G01 X249.996 Y249.996
G01 X250.000 Y250.000
G01 X249.900 Y249.868
G01 X249.814 Y249.727
G01 X249.741 Y249.577
G01 X249.683 Y249.419
G01 X249.640 Y249.255
G01 X249.613 Y249.086
G01 X249.601 Y248.913
G01 X249.605 Y248.737
G01 X249.626 Y248.559
