;  Created by Sandify
;  https://sandify.org
;  Version: 0.2.6
;
;  Machine type: Rectangular
;    Min X (mm): 0
;    Max X (mm): 500
;    Min Y (mm): 0
;    Max Y (mm): 500
;  Content type: shape
;  Layer:
;    Shape: FileImport
;    Name: SixPennyHandley 4-6-2009.thr
;    From file:: SixPennyHandley 4-6-2009.thr
;    Aspect Ratio: true
;    Comments: 
;    Visible: true
;    Initial width: 10
;    Initial height: 10
;    X offset: 0
;    Y offset: 0
;    Rotate (degrees): 0
;    Reverse path: false
;    Fine tuning:
;      Connect to next layer: line
;      Draw portion of path (%): 100
;      Backtrack at end (%): 0
;      Rotate starting point (%): 0
;  Reverse export path: false
;
; File name: 'SixPennyHandley  (C C)'
; File type: gcode
;

G01 X250.000 Y250.000
G01 X250.011 Y250.002
G01 X250.022 Y250.006
G01 X250.032 Y250.010
G01 X250.042 Y250.016
G01 X250.052 Y250.023
G01 X250.061 Y250.030
G01 X250.069 Y250.039
G01 X250.077 Y250.048
G01 X250.084 Y250.058
G01 X250.090 Y250.069
G01 X250.095 Y250.081
G01 X250.099 Y250.093
G01 X250.102 Y250.106
G01 X250.104 Y250.119
G01 X250.105 Y250.133
G01 X250.105 Y250.147
G01 X250.104 Y250.162
G01 X250.102 Y250.177
G01 X250.098 Y250.192
G01 X250.093 Y250.206
G01 X250.087 Y250.221
G01 X250.080 Y250.236
G01 X250.071 Y250.251
G01 X250.061 Y250.265
G01 X250.050 Y250.279
G01 X250.038 Y250.292
G01 X250.025 Y250.305
G01 X250.010 Y250.317
G01 X249.994 Y250.328
G01 X249.977 Y250.339
G01 X249.959 Y250.349
G01 X249.940 Y250.357
G01 X249.921 Y250.365
G01 X249.900 Y250.372
G01 X249.878 Y250.377
G01 X249.856 Y250.381
G01 X249.833 Y250.384
G01 X249.809 Y250.386
G01 X249.785 Y250.386
G01 X249.760 Y250.384
G01 X249.735 Y250.381
G01 X249.710 Y250.377
G01 X249.684 Y250.371
G01 X249.659 Y250.363
G01 X249.633 Y250.354
G01 X249.608 Y250.343
G01 X249.583 Y250.330
G01 X249.558 Y250.316
G01 X249.533 Y250.300
G01 X249.509 Y250.282
G01 X249.486 Y250.263
G01 X249.463 Y250.242
G01 X249.441 Y250.220
G01 X249.421 Y250.196
G01 X249.401 Y250.170
G01 X249.382 Y250.143
G01 X249.365 Y250.115
G01 X249.358 Y250.103
G01 X246.516 Y250.735
G01 X243.742 Y251.645
G01 X241.219 Y252.746
G01 X238.842 Y253.519
G01 X236.464 Y254.291
G01 X234.086 Y255.064
G01 X231.709 Y255.837
G01 X229.331 Y256.609
G01 X226.954 Y257.382
G01 X224.576 Y258.155
G01 X222.222 Y258.919
G01 X219.844 Y259.693
G01 X217.466 Y260.464
G01 X215.089 Y261.237
G01 X212.711 Y262.010
G01 X210.333 Y262.781
G01 X207.956 Y263.556
G01 X205.578 Y264.327
G01 X203.224 Y265.092
G01 X200.847 Y265.864
G01 X198.469 Y266.637
G01 X196.092 Y267.411
G01 X193.713 Y268.179
G01 X191.336 Y268.953
G01 X188.959 Y269.728
G01 X186.580 Y270.497
G01 X184.203 Y271.272
G01 X181.848 Y272.034
G01 X179.472 Y272.810
G01 X177.093 Y273.579
G01 X174.717 Y274.356
G01 X172.338 Y275.125
G01 X169.962 Y275.903
G01 X167.584 Y276.673
G01 X165.205 Y277.443
G01 X162.829 Y278.221
G01 X160.475 Y278.983
G01 X158.096 Y279.753
G01 X155.718 Y280.523
G01 X153.342 Y281.303
G01 X150.964 Y282.073
G01 X148.586 Y282.844
G01 X146.207 Y283.614
G01 X143.832 Y284.395
G01 X141.478 Y285.157
G01 X139.100 Y285.928
G01 X136.721 Y286.698
G01 X134.343 Y287.469
G01 X131.965 Y288.239
G01 X129.590 Y289.022
G01 X127.212 Y289.793
G01 X124.834 Y290.563
G01 X122.456 Y291.334
G01 X120.101 Y292.097
G01 X117.723 Y292.868
G01 X115.345 Y293.639
G01 X112.971 Y294.423
G01 X110.593 Y295.194
G01 X108.215 Y295.965
G01 X105.836 Y296.736
G01 X103.458 Y297.507
G01 X101.104 Y298.270
G01 X98.726 Y299.041
G01 X96.348 Y299.812
G01 X93.969 Y300.583
G01 X91.596 Y301.370
G01 X89.218 Y302.141
G01 X86.840 Y302.912
G01 X84.462 Y303.684
G01 X82.084 Y304.455
G01 X80.990 Y304.809
G01 X82.329 Y304.802
G01 X84.831 Y304.808
G01 X87.336 Y304.809
G01 X89.818 Y304.812
G01 X92.327 Y304.800
G01 X94.819 Y304.805
G01 X97.312 Y304.802
G01 X99.812 Y304.805
G01 X102.313 Y304.798
G01 X104.798 Y304.803
G01 X107.312 Y304.802
G01 X109.809 Y304.810
G01 X112.306 Y304.805
G01 X114.785 Y304.807
G01 X117.299 Y304.811
G01 X119.789 Y304.806
G01 X122.289 Y304.809
G01 X124.794 Y304.805
G01 X127.281 Y304.803
G01 X129.776 Y304.802
G01 X132.281 Y304.802
G01 X134.772 Y304.811
G01 X137.265 Y304.805
G01 X139.772 Y304.804
G01 X142.264 Y304.807
G01 X144.763 Y304.800
G01 X147.252 Y304.804
G01 X149.752 Y304.804
G01 X152.242 Y304.810
G01 X154.741 Y304.807
G01 X157.235 Y304.814
G01 X159.737 Y304.808
G01 X162.231 Y304.806
G01 X164.744 Y304.802
G01 X167.228 Y304.811
G01 X169.728 Y304.811
G01 X172.223 Y304.812
G01 X174.714 Y304.811
G01 X177.229 Y304.805
G01 X179.718 Y304.806
G01 X182.209 Y304.808
G01 X184.709 Y304.815
G01 X187.205 Y304.809
G01 X189.712 Y304.805
G01 X192.206 Y304.809
G01 X194.704 Y304.800
G01 X197.199 Y304.802
G01 X199.690 Y304.811
G01 X202.194 Y304.804
G01 X204.698 Y304.799
G01 X207.182 Y304.807
G01 X209.678 Y304.817
G01 X212.175 Y304.816
G01 X214.679 Y304.804
G01 X217.181 Y304.799
G01 X219.668 Y304.818
G01 X222.164 Y304.812
G01 X224.667 Y304.803
G01 X227.163 Y304.807
G01 X229.661 Y304.797
G01 X232.156 Y304.819
G01 X234.652 Y304.817
G01 X237.148 Y304.814
G01 X239.647 Y304.806
G01 X242.141 Y304.815
G01 X244.639 Y304.813
G01 X247.137 Y304.800
G01 X249.638 Y304.799
G01 X252.133 Y304.809
G01 X254.631 Y304.805
G01 X257.127 Y304.814
G01 X259.623 Y304.812
G01 X262.122 Y304.800
G01 X264.621 Y304.808
G01 X267.118 Y304.814
G01 X269.612 Y304.796
G01 X272.108 Y304.809
G01 X274.606 Y304.805
G01 X277.109 Y304.813
G01 X279.605 Y304.816
G01 X282.103 Y304.816
G01 X284.591 Y304.795
G01 X287.092 Y304.803
G01 X289.585 Y304.797
G01 X292.087 Y304.804
G01 X294.583 Y304.806
G01 X297.079 Y304.806
G01 X299.573 Y304.806
G01 X302.072 Y304.808
G01 X304.574 Y304.815
G01 X307.069 Y304.808
G01 X309.571 Y304.810
G01 X312.064 Y304.808
G01 X314.550 Y304.801
G01 X317.054 Y304.803
G01 X319.550 Y304.807
G01 X322.049 Y304.806
G01 X324.544 Y304.809
G01 X327.046 Y304.806
G01 X329.547 Y304.807
G01 X332.027 Y304.803
G01 X334.538 Y304.808
G01 X337.031 Y304.806
G01 X339.532 Y304.806
G01 X342.020 Y304.797
G01 X344.537 Y304.808
G01 X347.016 Y304.803
G01 X349.530 Y304.813
G01 X352.010 Y304.804
G01 X354.502 Y304.803
G01 X357.009 Y304.801
G01 X359.504 Y304.799
G01 X362.008 Y304.812
G01 X364.510 Y304.807
G01 X366.998 Y304.809
G01 X369.506 Y304.808
G01 X372.006 Y304.806
G01 X374.495 Y304.806
G01 X376.981 Y304.797
G01 X379.479 Y304.804
G01 X381.973 Y304.804
G01 X384.485 Y304.809
G01 X386.969 Y304.802
G01 X389.470 Y304.802
G01 X391.965 Y304.801
G01 X394.478 Y304.810
G01 X396.961 Y304.813
G01 X399.466 Y304.813
G01 X401.965 Y304.818
G01 X404.463 Y304.812
G01 X406.954 Y304.814
G01 X409.443 Y304.808
G01 X411.954 Y304.804
G01 X414.434 Y304.801
G01 X416.935 Y304.802
G01 X419.434 Y304.797
G01 X420.272 Y304.805
G01 X418.906 Y303.825
G01 X416.880 Y302.354
G01 X414.874 Y300.892
G01 X412.844 Y299.411
G01 X410.827 Y297.957
G01 X408.809 Y296.492
G01 X406.790 Y295.017
G01 X404.765 Y293.549
G01 X402.760 Y292.080
G01 X400.724 Y290.612
G01 X398.709 Y289.146
G01 X396.689 Y287.674
G01 X394.661 Y286.214
G01 X392.655 Y284.743
G01 X390.615 Y283.280
G01 X388.597 Y281.808
G01 X386.595 Y280.344
G01 X384.561 Y278.877
G01 X382.546 Y277.407
G01 X380.522 Y275.942
G01 X378.515 Y274.476
G01 X376.475 Y273.001
G01 X374.476 Y271.533
G01 X372.443 Y270.061
G01 X370.423 Y268.594
G01 X368.417 Y267.134
G01 X366.376 Y265.664
G01 X364.372 Y264.197
G01 X362.356 Y262.727
G01 X360.327 Y261.259
G01 X358.308 Y259.796
G01 X356.274 Y258.327
G01 X354.275 Y256.860
G01 X352.233 Y255.392
G01 X350.223 Y253.920
G01 X348.194 Y252.455
G01 X346.195 Y250.990
G01 X344.174 Y249.519
G01 X342.154 Y248.046
G01 X340.135 Y246.582
G01 X338.115 Y245.113
G01 X336.091 Y243.643
G01 X334.062 Y242.176
G01 X332.051 Y240.713
G01 X330.030 Y239.244
G01 X327.999 Y237.780
G01 X325.976 Y236.308
G01 X323.962 Y234.837
G01 X321.954 Y233.372
G01 X319.922 Y231.907
G01 X317.913 Y230.434
G01 X315.875 Y228.971
G01 X313.854 Y227.506
G01 X311.844 Y226.034
G01 X309.818 Y224.568
G01 X307.797 Y223.100
G01 X305.776 Y221.633
G01 X303.751 Y220.166
G01 X301.742 Y218.695
G01 X299.720 Y217.226
G01 X297.706 Y215.754
G01 X295.675 Y214.294
G01 X293.667 Y212.822
G01 X291.633 Y211.362
G01 X289.615 Y209.890
G01 X287.594 Y208.428
G01 X285.580 Y206.951
G01 X283.561 Y205.483
G01 X281.534 Y204.025
G01 X279.514 Y202.556
G01 X277.501 Y201.075
G01 X275.474 Y199.625
G01 X273.455 Y198.159
G01 X271.441 Y196.674
G01 X269.416 Y195.214
G01 X267.393 Y193.753
G01 X265.377 Y192.288
G01 X263.359 Y190.814
G01 X261.337 Y189.350
G01 X259.320 Y187.870
G01 X257.299 Y186.418
G01 X255.275 Y184.938
G01 X253.255 Y183.480
G01 X251.237 Y182.011
G01 X249.214 Y180.529
G01 X247.196 Y179.055
G01 X245.178 Y177.610
G01 X243.155 Y176.141
G01 X241.138 Y174.670
G01 X239.113 Y173.193
G01 X237.095 Y171.732
G01 X235.077 Y170.259
G01 X233.057 Y168.799
G01 X231.033 Y167.323
G01 X229.014 Y165.852
G01 X226.995 Y164.387
G01 X224.979 Y162.924
G01 X222.960 Y161.462
G01 X220.934 Y159.976
G01 X218.908 Y158.514
G01 X216.888 Y157.047
G01 X214.866 Y155.574
G01 X212.855 Y154.119
G01 X210.837 Y152.658
G01 X208.815 Y151.189
G01 X206.792 Y149.712
G01 X204.778 Y148.246
G01 X202.757 Y146.772
G01 X200.739 Y145.311
G01 X198.717 Y143.838
G01 X196.692 Y142.379
G01 X194.665 Y140.906
G01 X192.650 Y139.439
G01 X190.626 Y137.960
G01 X188.617 Y136.512
G01 X186.590 Y135.027
G01 X184.570 Y133.576
G01 X182.558 Y132.102
G01 X180.531 Y130.645
G01 X178.514 Y129.162
G01 X176.485 Y127.694
G01 X174.469 Y126.226
G01 X172.455 Y124.764
G01 X170.432 Y123.286
G01 X168.399 Y121.820
G01 X166.384 Y120.350
G01 X164.362 Y118.891
G01 X162.360 Y117.424
G01 X160.326 Y115.955
G01 X158.299 Y114.486
G01 X156.282 Y113.016
G01 X154.262 Y111.553
G01 X152.253 Y110.088
G01 X150.227 Y108.608
G01 X148.214 Y107.155
G01 X146.185 Y105.686
G01 X145.792 Y105.384
G01 X146.403 Y107.287
G01 X147.179 Y109.660
G01 X147.947 Y112.044
G01 X148.722 Y114.428
G01 X149.487 Y116.792
G01 X150.276 Y119.174
G01 X151.044 Y121.546
G01 X151.809 Y123.927
G01 X152.583 Y126.305
G01 X153.353 Y128.661
G01 X154.125 Y131.053
G01 X154.895 Y133.423
G01 X155.666 Y135.798
G01 X156.441 Y138.177
G01 X157.203 Y140.542
G01 X157.971 Y142.911
G01 X158.762 Y145.301
G01 X159.517 Y147.665
G01 X160.299 Y150.049
G01 X161.074 Y152.415
G01 X161.842 Y154.799
G01 X162.606 Y157.163
G01 X163.377 Y159.535
G01 X164.154 Y161.912
G01 X164.933 Y164.302
G01 X165.687 Y166.661
G01 X166.472 Y169.040
G01 X167.238 Y171.419
G01 X168.021 Y173.799
G01 X168.790 Y176.176
G01 X169.554 Y178.543
G01 X170.333 Y180.914
G01 X171.099 Y183.287
G01 X171.878 Y185.669
G01 X172.650 Y188.050
G01 X173.422 Y190.421
G01 X174.191 Y192.788
G01 X174.954 Y195.157
G01 X175.734 Y197.541
G01 X176.496 Y199.908
G01 X177.277 Y202.293
G01 X178.040 Y204.665
G01 X178.810 Y207.037
G01 X179.585 Y209.412
G01 X180.370 Y211.790
G01 X181.139 Y214.169
G01 X181.901 Y216.541
G01 X182.680 Y218.915
G01 X183.454 Y221.291
G01 X184.225 Y223.668
G01 X185.001 Y226.038
G01 X185.755 Y228.411
G01 X186.545 Y230.788
G01 X187.297 Y233.159
G01 X188.067 Y235.532
G01 X188.858 Y237.912
G01 X189.626 Y240.289
G01 X190.400 Y242.663
G01 X191.159 Y245.035
G01 X191.933 Y247.409
G01 X192.700 Y249.789
G01 X193.466 Y252.161
G01 X194.259 Y254.537
G01 X195.032 Y256.908
G01 X195.789 Y259.284
G01 X196.557 Y261.660
G01 X197.338 Y264.033
G01 X198.108 Y266.412
G01 X198.867 Y268.787
G01 X199.641 Y271.162
G01 X200.427 Y273.533
G01 X201.199 Y275.905
G01 X201.961 Y278.290
G01 X202.745 Y280.651
G01 X203.516 Y283.032
G01 X204.284 Y285.408
G01 X205.047 Y287.787
G01 X205.825 Y290.158
G01 X206.590 Y292.534
G01 X207.366 Y294.912
G01 X208.138 Y297.281
G01 X208.911 Y299.654
G01 X209.684 Y302.034
G01 X210.462 Y304.400
G01 X211.227 Y306.773
G01 X211.992 Y309.169
G01 X212.763 Y311.535
G01 X213.539 Y313.905
G01 X214.316 Y316.279
G01 X215.083 Y318.656
G01 X215.861 Y321.021
G01 X216.633 Y323.396
G01 X217.396 Y325.784
G01 X218.163 Y328.165
G01 X218.938 Y330.543
G01 X219.707 Y332.914
G01 X220.483 Y335.287
G01 X221.254 Y337.657
G01 X222.024 Y340.028
G01 X222.799 Y342.405
G01 X223.565 Y344.783
G01 X224.346 Y347.145
G01 X225.115 Y349.536
G01 X225.882 Y351.910
G01 X226.663 Y354.270
G01 X227.424 Y356.662
G01 X228.198 Y359.016
G01 X228.968 Y361.407
G01 X229.743 Y363.786
G01 X230.517 Y366.152
G01 X231.286 Y368.532
G01 X232.063 Y370.902
G01 X232.829 Y373.285
G01 X233.599 Y375.659
G01 X234.370 Y378.024
G01 X235.150 Y380.407
G01 X235.915 Y382.780
G01 X236.688 Y385.146
G01 X237.466 Y387.530
G01 X238.236 Y389.906
G01 X239.011 Y392.276
G01 X239.772 Y394.664
G01 X240.550 Y397.022
G01 X241.312 Y399.398
G01 X242.088 Y401.769
G01 X242.860 Y404.160
G01 X243.628 Y406.520
G01 X244.407 Y408.902
G01 X245.179 Y411.278
G01 X245.943 Y413.650
G01 X246.715 Y416.018
G01 X247.493 Y418.406
G01 X248.261 Y420.766
G01 X249.033 Y423.147
G01 X249.810 Y425.525
G01 X250.572 Y427.899
G01 X250.626 Y428.049
G01 X251.357 Y425.845
G01 X252.119 Y423.462
G01 X252.894 Y421.076
G01 X253.664 Y418.710
G01 X254.445 Y416.341
G01 X255.202 Y413.968
G01 X255.984 Y411.589
G01 X256.757 Y409.207
G01 X257.521 Y406.845
G01 X258.289 Y404.453
G01 X259.062 Y402.080
G01 X259.837 Y399.702
G01 X260.614 Y397.343
G01 X261.375 Y394.954
G01 X262.151 Y392.583
G01 X262.923 Y390.206
G01 X263.694 Y387.847
G01 X264.469 Y385.454
G01 X265.239 Y383.080
G01 X266.013 Y380.698
G01 X266.780 Y378.333
G01 X267.559 Y375.957
G01 X268.324 Y373.574
G01 X269.102 Y371.204
G01 X269.873 Y368.825
G01 X270.641 Y366.460
G01 X271.410 Y364.083
G01 X272.183 Y361.719
G01 X272.953 Y359.342
G01 X273.727 Y356.950
G01 X274.502 Y354.593
G01 X275.277 Y352.221
G01 X276.037 Y349.836
G01 X276.815 Y347.453
G01 X277.579 Y345.081
G01 X278.356 Y342.711
G01 X279.131 Y340.345
G01 X279.903 Y337.956
G01 X280.675 Y335.594
G01 X281.444 Y333.207
G01 X282.216 Y330.842
G01 X282.994 Y328.471
G01 X283.765 Y326.095
G01 X284.533 Y323.712
G01 X285.304 Y321.343
G01 X286.070 Y318.961
G01 X286.845 Y316.586
G01 X287.619 Y314.218
G01 X288.380 Y311.832
G01 X289.157 Y309.466
G01 X289.933 Y307.096
G01 X290.708 Y304.719
G01 X291.472 Y302.335
G01 X292.244 Y299.959
G01 X293.019 Y297.588
G01 X293.795 Y295.218
G01 X294.570 Y292.846
G01 X295.341 Y290.469
G01 X296.102 Y288.087
G01 X296.871 Y285.711
G01 X297.643 Y283.340
G01 X298.420 Y280.966
G01 X299.195 Y278.592
G01 X299.966 Y276.215
G01 X300.728 Y273.837
G01 X301.506 Y271.466
G01 X302.273 Y269.092
G01 X303.053 Y266.719
G01 X303.822 Y264.340
G01 X304.604 Y261.969
G01 X305.375 Y259.596
G01 X306.138 Y257.218
G01 X306.919 Y254.843
G01 X307.672 Y252.469
G01 X308.450 Y250.092
G01 X309.231 Y247.717
G01 X309.995 Y245.346
G01 X310.769 Y242.967
G01 X311.535 Y240.592
G01 X312.320 Y238.214
G01 X313.082 Y235.846
G01 X313.845 Y233.472
G01 X314.616 Y231.096
G01 X315.399 Y228.717
G01 X316.174 Y226.344
G01 X316.941 Y223.965
G01 X317.708 Y221.595
G01 X318.476 Y219.222
G01 X319.248 Y216.846
G01 X320.028 Y214.471
G01 X320.794 Y212.101
G01 X321.569 Y209.721
G01 X322.339 Y207.351
G01 X323.120 Y204.967
G01 X323.878 Y202.603
G01 X324.650 Y200.221
G01 X325.428 Y197.851
G01 X326.199 Y195.472
G01 X326.973 Y193.093
G01 X327.753 Y190.718
G01 X328.510 Y188.346
G01 X329.278 Y185.980
G01 X330.049 Y183.606
G01 X330.825 Y181.226
G01 X331.607 Y178.840
G01 X332.380 Y176.466
G01 X333.139 Y174.099
G01 X333.913 Y171.730
G01 X334.687 Y169.344
G01 X335.463 Y166.977
G01 X336.234 Y164.586
G01 X337.011 Y162.216
G01 X337.779 Y159.851
G01 X338.547 Y157.465
G01 X339.318 Y155.095
G01 X340.084 Y152.733
G01 X340.856 Y150.352
G01 X341.626 Y147.981
G01 X342.403 Y145.592
G01 X343.182 Y143.215
G01 X343.954 Y140.841
G01 X344.721 Y138.470
G01 X345.483 Y136.103
G01 X346.257 Y133.723
G01 X347.030 Y131.347
G01 X347.801 Y128.978
G01 X348.589 Y126.596
G01 X349.350 Y124.232
G01 X350.116 Y121.845
G01 X350.898 Y119.477
G01 X351.659 Y117.097
G01 X352.425 Y114.727
G01 X353.213 Y112.347
G01 X353.980 Y109.987
G01 X354.742 Y107.597
G01 X355.468 Y105.402
G01 X355.336 Y105.492
G01 X353.309 Y106.955
G01 X351.282 Y108.423
G01 X349.257 Y109.897
G01 X347.248 Y111.356
G01 X345.227 Y112.841
G01 X343.209 Y114.304
G01 X341.182 Y115.765
G01 X339.159 Y117.235
G01 X337.155 Y118.692
G01 X335.130 Y120.171
G01 X333.112 Y121.631
G01 X331.088 Y123.094
G01 X329.073 Y124.569
G01 X327.041 Y126.040
G01 X325.032 Y127.503
G01 X323.010 Y128.965
G01 X320.986 Y130.435
G01 X318.964 Y131.913
G01 X316.944 Y133.372
G01 X314.926 Y134.842
G01 X312.902 Y136.317
G01 X310.883 Y137.776
G01 X308.871 Y139.250
G01 X306.844 Y140.726
G01 X304.828 Y142.191
G01 X302.801 Y143.662
G01 X300.787 Y145.125
G01 X298.766 Y146.597
G01 X296.740 Y148.054
G01 X294.721 Y149.528
G01 X292.701 Y150.991
G01 X290.682 Y152.470
G01 X288.666 Y153.913
G01 X286.646 Y155.400
G01 X284.624 Y156.852
G01 X282.602 Y158.325
G01 X280.584 Y159.794
G01 X278.561 Y161.258
G01 X276.547 Y162.723
G01 X274.519 Y164.210
G01 X272.502 Y165.676
G01 X270.477 Y167.143
G01 X268.467 Y168.593
G01 X266.442 Y170.074
G01 X264.422 Y171.539
G01 X262.398 Y173.017
G01 X260.378 Y174.485
G01 X258.365 Y175.946
G01 X256.345 Y177.402
G01 X254.321 Y178.881
G01 X252.298 Y180.338
G01 X250.278 Y181.801
G01 X248.263 Y183.273
G01 X246.243 Y184.758
G01 X244.223 Y186.211
G01 X242.200 Y187.686
G01 X240.181 Y189.162
G01 X238.159 Y190.619
G01 X236.139 Y192.086
G01 X234.124 Y193.565
G01 X232.100 Y195.015
G01 X230.076 Y196.489
G01 X228.058 Y197.962
G01 X226.035 Y199.414
G01 X224.022 Y200.898
G01 X222.002 Y202.370
G01 X219.978 Y203.827
G01 X217.957 Y205.298
G01 X215.935 Y206.756
G01 X213.913 Y208.229
G01 X211.907 Y209.706
G01 X209.887 Y211.175
G01 X207.855 Y212.633
G01 X205.845 Y214.112
G01 X203.819 Y215.575
G01 X201.793 Y217.036
G01 X199.781 Y218.510
G01 X197.764 Y219.975
G01 X195.732 Y221.438
G01 X193.706 Y222.906
G01 X191.706 Y224.381
G01 X189.681 Y225.847
G01 X187.649 Y227.313
G01 X185.633 Y228.778
G01 X183.625 Y230.253
G01 X181.601 Y231.718
G01 X179.579 Y233.186
G01 X177.558 Y234.652
G01 X175.532 Y236.120
G01 X173.525 Y237.590
G01 X171.485 Y239.050
G01 X169.481 Y240.522
G01 X167.463 Y241.988
G01 X165.427 Y243.460
G01 X163.424 Y244.923
G01 X161.398 Y246.394
G01 X159.375 Y247.863
G01 X157.352 Y249.326
G01 X155.328 Y250.798
G01 X153.302 Y252.266
G01 X151.296 Y253.735
G01 X149.284 Y255.194
G01 X147.241 Y256.671
G01 X145.241 Y258.138
G01 X143.206 Y259.608
G01 X141.187 Y261.074
G01 X139.182 Y262.534
G01 X137.142 Y264.012
G01 X135.138 Y265.476
G01 X133.121 Y266.939
G01 X131.092 Y268.412
G01 X129.073 Y269.878
G01 X127.040 Y271.351
G01 X125.039 Y272.807
G01 X123.001 Y274.283
G01 X120.995 Y275.751
G01 X118.972 Y277.220
G01 X116.956 Y278.681
G01 X114.924 Y280.152
G01 X112.901 Y281.628
G01 X110.882 Y283.091
G01 X108.869 Y284.556
G01 X106.838 Y286.026
G01 X104.837 Y287.488
G01 X102.817 Y288.953
G01 X100.778 Y290.420
G01 X98.770 Y291.891
G01 X96.741 Y293.362
G01 X94.715 Y294.825
G01 X92.696 Y296.296
G01 X90.683 Y297.772
G01 X88.672 Y299.238
G01 X86.637 Y300.700
G01 X84.630 Y302.158
G01 X80.992 Y304.814
G01 X83.275 Y304.074
G01 X85.647 Y303.286
G01 X88.002 Y302.523
G01 X90.356 Y301.760
G01 X92.710 Y300.996
G01 X95.065 Y300.233
G01 X97.419 Y299.470
G01 X99.774 Y298.706
G01 X102.128 Y297.943
G01 X104.482 Y297.180
G01 X106.837 Y296.416
G01 X109.210 Y295.631
G01 X111.565 Y294.868
G01 X113.919 Y294.105
G01 X116.273 Y293.342
G01 X118.628 Y292.579
G01 X120.982 Y291.816
G01 X123.337 Y291.053
G01 X125.691 Y290.290
G01 X128.042 Y289.514
G01 X130.420 Y288.744
G01 X132.774 Y287.981
G01 X135.129 Y287.218
G01 X137.483 Y286.455
G01 X139.838 Y285.692
G01 X142.189 Y284.919
G01 X144.543 Y284.156
G01 X146.898 Y283.393
G01 X149.253 Y282.631
G01 X151.631 Y281.861
G01 X153.982 Y281.088
G01 X156.337 Y280.326
G01 X158.692 Y279.564
G01 X161.044 Y278.792
G01 X163.398 Y278.030
G01 X165.753 Y277.268
G01 X168.108 Y276.506
G01 X170.460 Y275.736
G01 X172.815 Y274.974
G01 X175.191 Y274.197
G01 X177.546 Y273.435
G01 X179.901 Y272.673
G01 X182.253 Y271.905
G01 X184.608 Y271.143
G01 X186.961 Y270.376
G01 X189.314 Y269.608
G01 X191.669 Y268.847
G01 X194.023 Y268.081
G01 X196.400 Y267.307
G01 X198.754 Y266.542
G01 X201.109 Y265.781
G01 X203.463 Y265.016
G01 X205.815 Y264.247
G01 X208.169 Y263.484
G01 X210.524 Y262.720
G01 X212.877 Y261.954
G01 X215.232 Y261.192
G01 X217.586 Y260.427
G01 X219.963 Y259.652
G01 X222.316 Y258.887
G01 X224.671 Y258.123
G01 X227.024 Y257.358
G01 X229.378 Y256.593
G01 X231.732 Y255.828
G01 X234.087 Y255.065
G01 X236.440 Y254.299
G01 X238.794 Y253.534
G01 X241.172 Y252.762
G01 X241.549 Y253.107
G01 X241.937 Y253.422
G01 X242.336 Y253.707
G01 X242.742 Y253.961
G01 X243.155 Y254.184
G01 X243.571 Y254.377
G01 X243.990 Y254.539
G01 X244.408 Y254.671
G01 X244.824 Y254.774
G01 X245.237 Y254.847
G01 X245.644 Y254.891
G01 X246.043 Y254.908
G01 X246.433 Y254.898
G01 X246.812 Y254.862
G01 X247.179 Y254.801
G01 X247.532 Y254.716
G01 X247.869 Y254.608
G01 X248.190 Y254.480
G01 X248.493 Y254.331
G01 X248.776 Y254.165
G01 X249.040 Y253.981
G01 X249.282 Y253.782
G01 X249.502 Y253.570
G01 X249.700 Y253.346
G01 X249.744 Y253.290
G01 X249.895 Y253.672
G01 X250.083 Y254.047
G01 X250.307 Y254.411
G01 X250.568 Y254.762
G01 X250.628 Y254.834
G01 X250.629 Y256.746
G01 X250.628 Y258.677
G01 X250.628 Y261.057
G01 X250.629 Y262.785
G01 X250.628 Y265.012
G01 X250.629 Y267.264
G01 X250.629 Y269.515
G01 X250.628 Y272.316
G01 X250.629 Y275.042
G01 X250.628 Y279.168
G01 X250.628 Y284.069
G01 X250.627 Y288.170
G01 X250.628 Y293.821
G01 X250.630 Y297.271
G01 X250.628 Y300.521
G01 X250.626 Y303.821
G01 X250.628 Y308.522
G01 X250.631 Y319.922
G01 X250.627 Y329.023
G01 X250.626 Y339.048
G01 X250.627 Y348.998
G01 X250.632 Y356.523
G01 X250.625 Y365.123
G01 X250.634 Y373.598
G01 X250.633 Y381.073
G01 X250.624 Y390.874
G01 X250.632 Y396.049
G01 X250.633 Y403.299
G01 X250.625 Y405.049
G01 X250.471 Y416.324
G01 X250.628 Y428.049
G01 X250.593 Y428.099
G01 X250.557 Y428.149
G01 X250.504 Y428.174
G01 X250.433 Y428.199
G01 X250.344 Y428.175
G01 X250.272 Y428.150
G01 X250.201 Y428.100
G01 X250.148 Y428.025
G01 X250.112 Y427.925
G01 X250.076 Y427.800
G01 X250.076 Y427.675
G01 X250.094 Y427.550
G01 X250.129 Y427.425
G01 X250.218 Y427.300
G01 X250.324 Y427.200
G01 X250.466 Y427.099
G01 X250.625 Y427.024
G01 X250.802 Y426.973
G01 X251.014 Y426.972
G01 X251.209 Y426.996
G01 X251.422 Y427.044
G01 X251.617 Y427.143
G01 X251.796 Y427.291
G01 X251.957 Y427.464
G01 X252.102 Y427.688
G01 X252.194 Y427.936
G01 X252.251 Y428.211
G01 X252.254 Y428.486
G01 X252.222 Y428.786
G01 X252.136 Y429.062
G01 X251.996 Y429.339
G01 X251.819 Y429.591
G01 X251.570 Y429.843
G01 X251.283 Y430.020
G01 X250.942 Y430.148
G01 X250.582 Y430.224
G01 X250.222 Y430.250
G01 X249.825 Y430.200
G01 X249.447 Y430.099
G01 X249.088 Y429.948
G01 X248.747 Y429.721
G01 X248.462 Y429.418
G01 X248.215 Y429.041
G01 X248.022 Y428.639
G01 X247.902 Y428.213
G01 X247.855 Y427.737
G01 X247.878 Y427.262
G01 X247.990 Y426.789
G01 X248.171 Y426.341
G01 X248.457 Y425.918
G01 X248.811 Y425.546
G01 X249.234 Y425.223
G01 X249.708 Y424.975
G01 X250.215 Y424.800
G01 X250.756 Y424.698
G01 X251.316 Y424.720
G01 X251.893 Y424.815
G01 X252.438 Y425.033
G01 X252.951 Y425.325
G01 X253.414 Y425.717
G01 X253.829 Y426.183
G01 X254.158 Y426.701
G01 X254.385 Y427.296
G01 X254.525 Y427.917
G01 X254.542 Y428.592
G01 X254.451 Y429.245
G01 X254.252 Y429.900
G01 X253.941 Y430.507
G01 X253.537 Y431.065
G01 X253.038 Y431.575
G01 X252.462 Y431.983
G01 X251.810 Y432.291
G01 X251.082 Y432.472
G01 X250.352 Y432.525
G01 X249.586 Y432.475
G01 X248.839 Y432.296
G01 X248.131 Y432.015
G01 X247.463 Y431.607
G01 X246.872 Y431.073
G01 X246.379 Y430.414
G01 X245.997 Y429.705
G01 X245.728 Y428.924
G01 X245.588 Y428.095
G01 X245.591 Y427.245
G01 X245.718 Y426.398
G01 X246.001 Y425.579
G01 X246.438 Y424.814
G01 X246.992 Y424.124
G01 X247.680 Y423.534
G01 X248.448 Y423.043
G01 X249.297 Y422.699
G01 X250.195 Y422.475
G01 X251.126 Y422.396
G01 X252.075 Y422.513
G01 X252.994 Y422.774
G01 X253.868 Y423.207
G01 X254.663 Y423.762
G01 X255.363 Y424.468
G01 X255.967 Y425.273
G01 X256.420 Y426.158
G01 X256.721 Y427.123
G01 X256.850 Y428.168
G01 X256.800 Y429.196
G01 X256.569 Y430.230
G01 X256.187 Y431.219
G01 X255.635 Y432.138
G01 X254.928 Y432.959
G01 X254.102 Y433.654
G01 X253.137 Y434.198
G01 X252.091 Y434.588
G01 X250.985 Y434.797
G01 X249.858 Y434.825
G01 X248.731 Y434.671
G01 X247.627 Y434.335
G01 X246.605 Y433.794
G01 X245.666 Y433.074
G01 X244.848 Y432.202
G01 X244.186 Y431.232
G01 X243.680 Y430.139
G01 X243.362 Y428.977
G01 X243.265 Y427.747
G01 X243.365 Y426.525
G01 X243.674 Y425.311
G01 X244.169 Y424.152
G01 X244.845 Y423.098
G01 X245.701 Y422.146
G01 X246.714 Y421.369
G01 X247.870 Y420.762
G01 X249.102 Y420.348
G01 X250.396 Y420.150
G01 X251.723 Y420.141
G01 X253.038 Y420.373
G01 X254.311 Y420.821
G01 X255.478 Y421.513
G01 X256.540 Y422.351
G01 X257.465 Y423.389
G01 X258.215 Y424.557
G01 X258.751 Y425.832
G01 X259.051 Y427.219
G01 X259.123 Y428.617
G01 X258.979 Y430.051
G01 X258.593 Y431.422
G01 X257.977 Y432.726
G01 X257.146 Y433.936
G01 X256.130 Y434.973
G01 X254.931 Y435.835
G01 X253.587 Y436.491
G01 X252.155 Y436.938
G01 X250.660 Y437.124
G01 X249.145 Y437.073
G01 X247.652 Y436.760
G01 X246.225 Y436.187
G01 X244.906 Y435.380
G01 X243.716 Y434.368
G01 X242.711 Y433.180
G01 X241.891 Y431.819
G01 X241.324 Y430.341
G01 X241.023 Y428.775
G01 X240.997 Y427.171
G01 X241.220 Y425.556
G01 X241.699 Y424.002
G01 X242.426 Y422.534
G01 X243.410 Y421.223
G01 X244.612 Y420.065
G01 X245.995 Y419.153
G01 X247.528 Y418.457
G01 X249.165 Y417.998
G01 X250.844 Y417.823
G01 X252.558 Y417.931
G01 X254.215 Y418.347
G01 X255.805 Y419.025
G01 X257.267 Y419.970
G01 X258.569 Y421.136
G01 X259.675 Y422.504
G01 X260.531 Y424.057
G01 X261.110 Y425.749
G01 X261.381 Y427.511
G01 X261.389 Y429.314
G01 X261.085 Y431.111
G01 X260.493 Y432.824
G01 X259.642 Y434.448
G01 X258.488 Y435.881
G01 X257.119 Y437.115
G01 X255.538 Y438.119
G01 X253.821 Y438.836
G01 X251.993 Y439.290
G01 X250.100 Y439.450
G01 X248.207 Y439.267
G01 X246.362 Y438.740
G01 X244.629 Y437.923
G01 X243.033 Y436.845
G01 X241.615 Y435.511
G01 X240.450 Y433.952
G01 X239.554 Y432.201
G01 X238.974 Y430.313
G01 X238.701 Y428.342
G01 X238.773 Y426.368
G01 X239.144 Y424.387
G01 X239.850 Y422.502
G01 X240.861 Y420.756
G01 X242.166 Y419.194
G01 X243.723 Y417.883
G01 X245.500 Y416.814
G01 X247.414 Y416.055
G01 X249.442 Y415.624
G01 X251.511 Y415.518
G01 X253.603 Y415.786
G01 X255.598 Y416.406
G01 X257.491 Y417.357
G01 X259.220 Y418.598
G01 X260.736 Y420.112
G01 X261.969 Y421.859
G01 X262.907 Y423.796
G01 X263.487 Y425.884
G01 X263.724 Y428.047
G01 X263.603 Y430.237
G01 X263.141 Y432.377
G01 X262.287 Y434.416
G01 X261.122 Y436.293
G01 X259.638 Y437.978
G01 X257.908 Y439.385
G01 X255.951 Y440.507
G01 X253.831 Y441.262
G01 X251.597 Y441.668
G01 X249.316 Y441.699
G01 X247.059 Y441.352
G01 X244.876 Y440.631
G01 X242.818 Y439.564
G01 X240.986 Y438.159
G01 X239.404 Y436.449
G01 X238.108 Y434.492
G01 X237.147 Y432.348
G01 X236.567 Y430.050
G01 X236.367 Y427.703
G01 X236.566 Y425.336
G01 X237.162 Y422.999
G01 X238.132 Y420.813
G01 X239.442 Y418.795
G01 X241.093 Y417.038
G01 X243.031 Y415.553
G01 X245.203 Y414.405
G01 X247.517 Y413.631
G01 X249.956 Y413.250
G01 X252.422 Y413.282
G01 X254.853 Y413.728
G01 X257.202 Y414.593
G01 X259.383 Y415.810
G01 X261.338 Y417.391
G01 X263.014 Y419.275
G01 X264.352 Y421.425
G01 X265.302 Y423.778
G01 X265.876 Y426.261
G01 X266.036 Y428.832
G01 X265.753 Y431.392
G01 X265.042 Y433.861
G01 X263.922 Y436.205
G01 X262.435 Y438.340
G01 X260.611 Y440.204
G01 X258.487 Y441.762
G01 X256.124 Y442.928
G01 X253.589 Y443.667
G01 X250.956 Y444.023
G01 X248.299 Y443.918
G01 X245.673 Y443.377
G01 X243.173 Y442.379
G01 X240.869 Y441.007
G01 X238.827 Y439.245
G01 X237.071 Y437.154
G01 X235.672 Y434.820
G01 X234.714 Y432.260
G01 X234.182 Y429.555
G01 X234.103 Y426.812
G01 X234.473 Y424.059
G01 X235.296 Y421.420
G01 X236.546 Y418.940
G01 X238.234 Y416.685
G01 X240.256 Y414.762
G01 X242.576 Y413.156
G01 X245.129 Y411.952
G01 X247.861 Y411.211
G01 X250.697 Y410.923
G01 X253.550 Y411.136
G01 X256.333 Y411.776
G01 X258.990 Y412.902
G01 X261.435 Y414.428
G01 X263.580 Y416.397
G01 X265.380 Y418.675
G01 X266.788 Y421.229
G01 X267.779 Y423.994
G01 X268.271 Y426.884
G01 X268.284 Y429.823
G01 X267.787 Y432.736
G01 X266.824 Y435.539
G01 X265.413 Y438.170
G01 X263.595 Y440.541
G01 X261.380 Y442.564
G01 X258.827 Y444.174
G01 X256.064 Y445.381
G01 X253.124 Y446.100
G01 X250.104 Y446.350
G01 X247.065 Y446.053
G01 X244.107 Y445.261
G01 X241.310 Y443.980
G01 X238.745 Y442.271
G01 X236.502 Y440.146
G01 X234.639 Y437.672
G01 X233.225 Y434.916
G01 X232.265 Y431.938
G01 X231.810 Y428.827
G01 X231.880 Y425.693
G01 X232.460 Y422.611
G01 X233.568 Y419.631
G01 X235.163 Y416.892
G01 X237.185 Y414.451
G01 X239.584 Y412.341
G01 X242.319 Y410.667
G01 X245.299 Y409.481
G01 X248.448 Y408.817
G01 X251.686 Y408.641
G01 X254.904 Y409.024
G01 X258.024 Y409.924
G01 X260.961 Y411.353
G01 X263.619 Y413.258
G01 X265.933 Y415.585
G01 X267.859 Y418.280
G01 X269.299 Y421.241
G01 X270.239 Y424.405
G01 X270.604 Y427.709
G01 X270.442 Y431.050
G01 X269.747 Y434.320
G01 X268.509 Y437.438
G01 X266.739 Y440.315
G01 X264.516 Y442.854
G01 X261.895 Y444.988
G01 X258.962 Y446.696
G01 X255.786 Y447.890
G01 X252.428 Y448.535
G01 X248.993 Y448.597
G01 X245.608 Y448.076
G01 X242.318 Y447.025
G01 X239.245 Y445.454
G01 X236.467 Y443.377
G01 X234.091 Y440.838
G01 X232.153 Y437.955
G01 X230.701 Y434.770
G01 X229.789 Y431.377
G01 X229.460 Y427.868
G01 X229.742 Y424.352
G01 X230.590 Y420.927
G01 X232.013 Y417.663
G01 X233.930 Y414.693
G01 X236.328 Y412.049
G01 X239.150 Y409.857
G01 X242.312 Y408.163
G01 X245.718 Y406.992
G01 X249.270 Y406.398
G01 X252.898 Y406.398
G01 X256.462 Y407.017
G01 X259.892 Y408.241
G01 X263.091 Y410.015
G01 X265.958 Y412.267
G01 X268.429 Y414.999
G01 X270.393 Y418.092
G01 X271.815 Y421.493
G01 X272.664 Y425.089
G01 X272.910 Y428.813
G01 X272.568 Y432.510
G01 X271.578 Y436.103
G01 X269.993 Y439.473
G01 X267.870 Y442.573
G01 X265.249 Y445.281
G01 X262.230 Y447.547
G01 X258.878 Y449.252
G01 X255.257 Y450.381
G01 X251.493 Y450.894
G01 X247.677 Y450.787
G01 X243.922 Y450.058
G01 X240.539 Y448.725
G01 X237.276 Y446.789
G01 X234.223 Y444.185
G01 X231.817 Y441.288
G01 X230.283 Y438.773
G01 X228.749 Y435.160
G01 X227.868 Y431.304
G01 X227.723 Y426.046
G01 X228.713 Y421.106
G01 X230.882 Y416.280
G01 X233.517 Y412.692
G01 X236.527 Y409.883
G01 X238.808 Y408.330
G01 X240.892 Y407.211
G01 X244.814 Y405.814
G01 X247.489 Y405.280
G01 X249.834 Y405.075
G01 X250.625 Y405.049
G01 X250.624 Y401.124
G01 X250.625 Y394.424
G01 X250.624 Y390.874
G01 X250.633 Y383.849
G01 X250.628 Y377.348
G01 X250.627 Y372.273
G01 X250.625 Y365.123
G01 X250.631 Y358.248
G01 X250.633 Y346.923
G01 X250.626 Y339.048
G01 X250.627 Y332.223
G01 X250.628 Y326.322
G01 X250.631 Y314.222
G01 X250.628 Y308.522
G01 X250.626 Y303.821
G01 X250.630 Y297.271
G01 X250.627 Y288.170
G01 X250.627 Y281.619
G01 X250.628 Y270.916
G01 X250.628 Y263.911
G01 X250.628 Y258.677
G01 X250.628 Y255.540
G01 X250.801 Y254.907
G01 X250.915 Y254.271
G01 X250.939 Y254.068
G01 X251.136 Y254.015
G01 X251.331 Y253.952
G01 X251.522 Y253.879
G01 X251.710 Y253.797
G01 X251.893 Y253.706
G01 X252.071 Y253.607
G01 X252.244 Y253.499
G01 X252.412 Y253.382
G01 X252.573 Y253.258
G01 X252.728 Y253.126
G01 X252.876 Y252.986
G01 X253.018 Y252.840
G01 X253.151 Y252.686
G01 X253.277 Y252.527
G01 X253.395 Y252.362
G01 X253.505 Y252.191
G01 X253.606 Y252.015
G01 X253.698 Y251.834
G01 X253.781 Y251.650
G01 X253.783 Y251.645
G01 X254.229 Y251.596
G01 X254.678 Y251.508
G01 X255.128 Y251.379
G01 X255.457 Y251.259
G01 X257.341 Y251.869
G01 X259.174 Y252.466
G01 X261.435 Y253.201
G01 X263.077 Y253.734
G01 X265.218 Y254.430
G01 X267.335 Y255.118
G01 X269.476 Y255.813
G01 X272.164 Y256.686
G01 X274.732 Y257.520
G01 X278.655 Y258.797
G01 X283.340 Y260.319
G01 X287.240 Y261.584
G01 X292.590 Y263.323
G01 X295.871 Y264.389
G01 X298.961 Y265.396
G01 X302.101 Y266.412
G01 X306.572 Y267.864
G01 X317.436 Y271.399
G01 X326.091 Y274.212
G01 X335.627 Y277.303
G01 X345.089 Y280.383
G01 X352.223 Y282.696
G01 X360.400 Y285.360
G01 X368.484 Y287.989
G01 X375.570 Y290.288
G01 X384.893 Y293.309
G01 X389.811 Y294.919
G01 X396.733 Y297.159
G01 X398.394 Y297.709
G01 X409.072 Y301.335
G01 X420.268 Y304.817
G01 X420.311 Y304.850
G01 X420.342 Y304.916
G01 X420.349 Y304.975
G01 X420.327 Y305.043
G01 X420.305 Y305.111
G01 X420.259 Y305.171
G01 X420.166 Y305.216
G01 X420.078 Y305.244
G01 X419.966 Y305.264
G01 X419.865 Y305.250
G01 X419.741 Y305.229
G01 X419.628 Y305.173
G01 X419.525 Y305.084
G01 X419.429 Y304.977
G01 X419.343 Y304.837
G01 X419.291 Y304.671
G01 X419.293 Y304.503
G01 X419.305 Y304.302
G01 X419.341 Y304.108
G01 X419.424 Y303.929
G01 X419.560 Y303.748
G01 X419.715 Y303.592
G01 X419.887 Y303.460
G01 X420.108 Y303.342
G01 X420.360 Y303.290
G01 X420.625 Y303.279
G01 X420.903 Y303.310
G01 X421.190 Y303.400
G01 X421.442 Y303.516
G01 X421.701 Y303.691
G01 X421.926 Y303.893
G01 X422.105 Y304.157
G01 X422.244 Y304.466
G01 X422.323 Y304.795
G01 X422.343 Y305.143
G01 X422.304 Y305.511
G01 X422.211 Y305.880
G01 X422.069 Y306.234
G01 X421.856 Y306.564
G01 X421.576 Y306.852
G01 X421.254 Y307.107
G01 X420.878 Y307.286
G01 X420.466 Y307.413
G01 X420.024 Y307.472
G01 X419.558 Y307.447
G01 X419.114 Y307.353
G01 X418.670 Y307.184
G01 X418.254 Y306.930
G01 X417.885 Y306.618
G01 X417.572 Y306.214
G01 X417.329 Y305.761
G01 X417.148 Y305.274
G01 X417.059 Y304.744
G01 X417.027 Y304.198
G01 X417.123 Y303.657
G01 X417.293 Y303.122
G01 X417.563 Y302.599
G01 X417.940 Y302.146
G01 X418.402 Y301.755
G01 X418.894 Y301.426
G01 X419.462 Y301.192
G01 X420.080 Y301.045
G01 X420.698 Y300.988
G01 X421.356 Y301.054
G01 X421.979 Y301.240
G01 X422.571 Y301.529
G01 X423.132 Y301.923
G01 X423.612 Y302.408
G01 X424.018 Y302.967
G01 X424.347 Y303.601
G01 X424.556 Y304.277
G01 X424.646 Y304.995
G01 X424.597 Y305.729
G01 X424.438 Y306.468
G01 X424.158 Y307.167
G01 X423.756 Y307.825
G01 X423.244 Y308.407
G01 X422.649 Y308.918
G01 X421.957 Y309.316
G01 X421.200 Y309.592
G01 X420.390 Y309.712
G01 X419.563 Y309.727
G01 X418.732 Y309.604
G01 X417.924 Y309.338
G01 X417.182 Y308.963
G01 X416.492 Y308.439
G01 X415.894 Y307.801
G01 X415.416 Y307.041
G01 X415.064 Y306.219
G01 X414.836 Y305.333
G01 X414.743 Y304.424
G01 X414.810 Y303.497
G01 X415.049 Y302.591
G01 X415.426 Y301.729
G01 X415.984 Y300.939
G01 X416.644 Y300.231
G01 X417.444 Y299.651
G01 X418.308 Y299.194
G01 X419.262 Y298.868
G01 X420.244 Y298.709
G01 X421.279 Y298.727
G01 X422.289 Y298.921
G01 X423.246 Y299.305
G01 X424.162 Y299.830
G01 X424.983 Y300.500
G01 X425.685 Y301.313
G01 X426.250 Y302.225
G01 X426.649 Y303.247
G01 X426.872 Y304.319
G01 X426.917 Y305.439
G01 X426.778 Y306.542
G01 X426.477 Y307.635
G01 X425.980 Y308.663
G01 X425.299 Y309.588
G01 X424.467 Y310.397
G01 X423.514 Y311.079
G01 X422.430 Y311.591
G01 X421.302 Y311.922
G01 X420.105 Y312.068
G01 X418.884 Y311.986
G01 X417.702 Y311.723
G01 X416.547 Y311.242
G01 X415.512 Y310.579
G01 X414.564 Y309.748
G01 X413.749 Y308.767
G01 X413.134 Y307.664
G01 X412.709 Y306.454
G01 X412.487 Y305.178
G01 X412.476 Y303.873
G01 X412.667 Y302.568
G01 X413.091 Y301.321
G01 X413.696 Y300.129
G01 X414.537 Y299.076
G01 X415.534 Y298.168
G01 X416.686 Y297.420
G01 X417.932 Y296.869
G01 X419.276 Y296.514
G01 X420.655 Y296.398
G01 X422.071 Y296.525
G01 X423.423 Y296.890
G01 X424.737 Y297.489
G01 X425.919 Y298.283
G01 X426.997 Y299.265
G01 X427.870 Y300.410
G01 X428.535 Y301.719
G01 X428.980 Y303.131
G01 X429.191 Y304.600
G01 X429.171 Y306.105
G01 X428.913 Y307.580
G01 X428.393 Y309.012
G01 X427.637 Y310.323
G01 X426.648 Y311.508
G01 X425.470 Y312.518
G01 X424.138 Y313.342
G01 X422.695 Y313.934
G01 X421.153 Y314.279
G01 X419.571 Y314.363
G01 X417.987 Y314.166
G01 X416.454 Y313.695
G01 X414.987 Y312.982
G01 X413.659 Y312.044
G01 X412.489 Y310.896
G01 X411.519 Y309.558
G01 X410.815 Y308.059
G01 X410.355 Y306.447
G01 X410.165 Y304.783
G01 X410.233 Y303.094
G01 X410.589 Y301.435
G01 X411.220 Y299.848
G01 X412.132 Y298.394
G01 X413.271 Y297.085
G01 X414.620 Y295.997
G01 X416.133 Y295.115
G01 X417.798 Y294.506
G01 X419.516 Y294.165
G01 X421.305 Y294.137
G01 X423.069 Y294.407
G01 X424.781 Y294.977
G01 X426.399 Y295.807
G01 X427.848 Y296.887
G01 X429.123 Y298.220
G01 X430.131 Y299.749
G01 X430.878 Y301.438
G01 X431.346 Y303.242
G01 X431.518 Y305.111
G01 X431.381 Y306.997
G01 X430.926 Y308.828
G01 X430.169 Y310.561
G01 X429.118 Y312.168
G01 X427.803 Y313.570
G01 X426.281 Y314.761
G01 X424.553 Y315.676
G01 X422.733 Y316.315
G01 X420.788 Y316.629
G01 X418.813 Y316.599
G01 X416.860 Y316.234
G01 X414.975 Y315.562
G01 X413.237 Y314.588
G01 X411.657 Y313.346
G01 X410.311 Y311.841
G01 X409.226 Y310.127
G01 X408.464 Y308.233
G01 X407.995 Y306.221
G01 X407.869 Y304.157
G01 X408.062 Y302.094
G01 X408.629 Y300.091
G01 X409.530 Y298.191
G01 X410.741 Y296.477
G01 X412.206 Y294.973
G01 X413.923 Y293.707
G01 X415.830 Y292.744
G01 X417.878 Y292.092
G01 X420.008 Y291.814
G01 X422.173 Y291.909
G01 X424.303 Y292.353
G01 X426.352 Y293.131
G01 X428.238 Y294.254
G01 X429.940 Y295.691
G01 X431.362 Y297.386
G01 X432.483 Y299.301
G01 X433.282 Y301.390
G01 X433.745 Y303.587
G01 X433.827 Y305.852
G01 X433.525 Y308.094
G01 X432.820 Y310.274
G01 X431.789 Y312.321
G01 X430.454 Y314.172
G01 X428.806 Y315.790
G01 X426.877 Y317.096
G01 X424.758 Y318.077
G01 X422.524 Y318.702
G01 X420.186 Y318.956
G01 X417.820 Y318.800
G01 X415.525 Y318.266
G01 X413.320 Y317.318
G01 X411.300 Y316.052
G01 X409.516 Y314.466
G01 X408.011 Y312.575
G01 X406.824 Y310.460
G01 X406.039 Y308.158
G01 X405.612 Y305.759
G01 X405.597 Y303.307
G01 X405.965 Y300.867
G01 X406.758 Y298.537
G01 X407.963 Y296.359
G01 X409.487 Y294.391
G01 X411.323 Y292.685
G01 X413.431 Y291.325
G01 X415.744 Y290.309
G01 X418.200 Y289.714
G01 X420.736 Y289.521
G01 X423.275 Y289.744
G01 X425.769 Y290.390
G01 X428.115 Y291.454
G01 X430.240 Y292.900
G01 X432.125 Y294.678
G01 X433.692 Y296.761
G01 X434.901 Y299.062
G01 X435.722 Y301.574
G01 X436.101 Y304.173
G01 X436.044 Y306.811
G01 X435.540 Y309.427
G01 X434.614 Y311.931
G01 X433.313 Y314.261
G01 X431.593 Y316.321
G01 X429.555 Y318.071
G01 X427.238 Y319.493
G01 X424.733 Y320.514
G01 X422.086 Y321.112
G01 X419.346 Y321.253
G01 X416.614 Y320.908
G01 X413.980 Y320.137
G01 X411.477 Y318.932
G01 X409.217 Y317.347
G01 X407.247 Y315.386
G01 X405.622 Y313.092
G01 X404.399 Y310.556
G01 X403.612 Y307.867
G01 X403.256 Y305.070
G01 X403.378 Y302.222
G01 X404.007 Y299.446
G01 X405.069 Y296.793
G01 X406.563 Y294.355
G01 X408.437 Y292.159
G01 X410.644 Y290.313
G01 X413.155 Y288.885
G01 X415.906 Y287.879
G01 X418.771 Y287.327
G01 X421.680 Y287.251
G01 X424.584 Y287.662
G01 X427.406 Y288.568
G01 X430.025 Y289.930
G01 X432.390 Y291.719
G01 X434.456 Y293.864
G01 X436.145 Y296.336
G01 X437.379 Y299.079
G01 X438.127 Y301.978
G01 X438.414 Y304.990
G01 X438.214 Y308.008
G01 X437.488 Y310.962
G01 X436.291 Y313.761
G01 X434.618 Y316.340
G01 X432.536 Y318.596
G01 X430.120 Y320.498
G01 X427.402 Y321.984
G01 X424.477 Y322.981
G01 X421.415 Y323.479
G01 X418.291 Y323.458
G01 X415.191 Y322.933
G01 X412.225 Y321.914
G01 X409.451 Y320.398
G01 X406.984 Y318.429
G01 X404.875 Y316.059
G01 X403.154 Y313.379
G01 X401.911 Y310.458
G01 X401.164 Y307.342
G01 X400.959 Y304.143
G01 X401.286 Y300.919
G01 X402.140 Y297.808
G01 X403.478 Y294.860
G01 X405.300 Y292.174
G01 X407.570 Y289.826
G01 X410.208 Y287.878
G01 X413.141 Y286.390
G01 X416.274 Y285.399
G01 X419.540 Y284.927
G01 X422.860 Y285.035
G01 X426.119 Y285.695
G01 X429.244 Y286.888
G01 X432.136 Y288.567
G01 X434.719 Y290.700
G01 X436.908 Y293.264
G01 X438.606 Y296.169
G01 X439.848 Y299.320
G01 X440.566 Y302.631
G01 X440.714 Y306.033
G01 X440.289 Y309.420
G01 X439.286 Y312.699
G01 X437.761 Y315.778
G01 X435.746 Y318.575
G01 X433.303 Y321.005
G01 X430.471 Y322.998
G01 X427.317 Y324.481
G01 X423.949 Y325.431
G01 X420.499 Y325.827
G01 X416.988 Y325.650
G01 X413.548 Y324.881
G01 X410.291 Y323.526
G01 X407.297 Y321.658
G01 X404.628 Y319.306
G01 X402.377 Y316.548
G01 X400.626 Y313.465
G01 X399.390 Y310.096
G01 X398.758 Y306.566
G01 X398.723 Y302.972
G01 X399.260 Y299.408
G01 X400.357 Y295.962
G01 X402.055 Y292.749
G01 X404.283 Y289.866
G01 X406.958 Y287.391
G01 X409.991 Y285.352
G01 X413.332 Y283.835
G01 X416.908 Y282.926
G01 X420.583 Y282.624
G01 X424.266 Y282.931
G01 X427.861 Y283.831
G01 X431.265 Y285.325
G01 X434.401 Y287.374
G01 X437.115 Y289.915
G01 X439.401 Y292.904
G01 X441.170 Y296.209
G01 X442.385 Y299.794
G01 X442.965 Y303.522
G01 X442.917 Y307.310
G01 X442.265 Y311.051
G01 X440.982 Y314.642
G01 X439.105 Y317.973
G01 X436.785 Y320.790
G01 X433.937 Y323.289
G01 X430.518 Y325.380
G01 X427.015 Y326.782
G01 X424.177 Y327.462
G01 X420.262 Y327.811
G01 X416.321 Y327.462
G01 X411.274 Y325.977
G01 X406.883 Y323.507
G01 X402.960 Y319.960
G01 X400.368 Y316.334
G01 X398.628 Y312.605
G01 X397.855 Y309.960
G01 X397.434 Y307.637
G01 X397.298 Y303.462
G01 X397.618 Y300.755
G01 X398.149 Y298.466
G01 X398.394 Y297.709
G01 X394.638 Y296.486
G01 X388.269 Y294.408
G01 X384.893 Y293.309
G01 X378.208 Y291.149
G01 X372.027 Y289.138
G01 X367.202 Y287.565
G01 X360.400 Y285.360
G01 X353.863 Y283.232
G01 X343.115 Y279.742
G01 X335.627 Y277.303
G01 X329.111 Y275.190
G01 X323.501 Y273.364
G01 X311.991 Y269.630
G01 X306.572 Y267.864
G01 X302.101 Y266.412
G01 X295.871 Y264.389
G01 X287.240 Y261.584
G01 X280.986 Y259.553
G01 X270.807 Y256.247
G01 X264.148 Y254.082
G01 X259.174 Y252.466
G01 X256.196 Y251.498
G01 X255.511 Y251.049
G01 X254.797 Y250.672
G01 X254.779 Y250.663
G01 X254.637 Y250.413
G01 X254.496 Y250.197
G01 X254.493 Y249.977
G01 X254.480 Y249.756
G01 X254.455 Y249.538
G01 X254.420 Y249.321
G01 X254.375 Y249.106
G01 X254.319 Y248.894
G01 X254.253 Y248.686
G01 X254.177 Y248.481
G01 X254.091 Y248.280
G01 X253.995 Y248.085
G01 X253.890 Y247.894
G01 X253.776 Y247.710
G01 X253.654 Y247.531
G01 X253.523 Y247.359
G01 X253.467 Y247.291
G01 X253.483 Y246.991
G01 X253.479 Y246.684
G01 X253.452 Y246.370
G01 X253.402 Y246.051
G01 X253.373 Y245.912
G01 X254.771 Y243.988
G01 X255.918 Y242.409
G01 X257.314 Y240.487
G01 X258.329 Y239.091
G01 X259.637 Y237.291
G01 X260.945 Y235.490
G01 X262.267 Y233.669
G01 X263.929 Y231.384
G01 X265.530 Y229.179
G01 X267.955 Y225.842
G01 X270.851 Y221.858
G01 X273.246 Y218.560
G01 X276.565 Y213.988
G01 X278.594 Y211.197
G01 X280.505 Y208.569
G01 X282.444 Y205.898
G01 X285.205 Y202.095
G01 X291.905 Y192.871
G01 X297.255 Y185.510
G01 X303.166 Y177.382
G01 X309.011 Y169.330
G01 X313.422 Y163.264
G01 X318.479 Y156.308
G01 X323.475 Y149.431
G01 X327.848 Y143.400
G01 X333.617 Y135.477
G01 X336.656 Y131.289
G01 X340.919 Y125.424
G01 X341.952 Y123.981
G01 X348.705 Y114.982
G01 X355.466 Y105.400
G01 X355.524 Y105.350
G01 X355.583 Y105.362
G01 X355.641 Y105.373
G01 X355.713 Y105.396
G01 X355.771 Y105.438
G01 X355.799 Y105.520
G01 X355.828 Y105.603
G01 X355.841 Y105.706
G01 X355.811 Y105.808
G01 X355.780 Y105.910
G01 X355.706 Y106.010
G01 X355.618 Y106.100
G01 X355.501 Y106.170
G01 X355.370 Y106.228
G01 X355.209 Y106.266
G01 X355.035 Y106.263
G01 X354.862 Y106.229
G01 X354.703 Y106.144
G01 X354.530 Y106.049
G01 X354.372 Y105.904
G01 X354.243 Y105.748
G01 X354.143 Y105.553
G01 X354.071 Y105.316
G01 X354.043 Y105.081
G01 X354.058 Y104.815
G01 X354.131 Y104.559
G01 X354.247 Y104.304
G01 X354.407 Y104.081
G01 X354.611 Y103.858
G01 X354.844 Y103.687
G01 X355.107 Y103.537
G01 X355.414 Y103.449
G01 X355.751 Y103.384
G01 X356.103 Y103.422
G01 X356.440 Y103.512
G01 X356.777 Y103.665
G01 X357.084 Y103.858
G01 X357.376 Y104.104
G01 X357.623 Y104.410
G01 X357.809 Y104.766
G01 X357.950 Y105.151
G01 X358.017 Y105.575
G01 X358.009 Y106.007
G01 X357.927 Y106.445
G01 X357.757 Y106.880
G01 X357.529 Y107.272
G01 X357.229 Y107.641
G01 X356.872 Y107.967
G01 X356.446 Y108.209
G01 X355.978 Y108.390
G01 X355.471 Y108.479
G01 X354.951 Y108.498
G01 X354.406 Y108.436
G01 X353.891 Y108.275
G01 X353.407 Y108.014
G01 X352.952 Y107.684
G01 X352.540 Y107.264
G01 X352.228 Y106.764
G01 X351.986 Y106.223
G01 X351.842 Y105.632
G01 X351.783 Y105.040
G01 X351.837 Y104.406
G01 X351.977 Y103.802
G01 X352.246 Y103.197
G01 X352.603 Y102.654
G01 X353.063 Y102.182
G01 X353.612 Y101.773
G01 X354.224 Y101.469
G01 X354.882 Y101.229
G01 X355.572 Y101.135
G01 X356.295 Y101.128
G01 X357.006 Y101.268
G01 X357.688 Y101.545
G01 X358.340 Y101.927
G01 X358.916 Y102.413
G01 X359.416 Y103.001
G01 X359.823 Y103.649
G01 X360.123 Y104.375
G01 X360.285 Y105.157
G01 X360.310 Y105.963
G01 X360.184 Y106.780
G01 X359.940 Y107.570
G01 X359.563 Y108.322
G01 X359.072 Y109.016
G01 X358.453 Y109.612
G01 X357.753 Y110.114
G01 X356.960 Y110.482
G01 X356.088 Y110.697
G01 X355.197 Y110.774
G01 X354.297 Y110.723
G01 X353.390 Y110.515
G01 X352.530 Y110.161
G01 X351.744 Y109.680
G01 X351.043 Y109.021
G01 X350.454 Y108.263
G01 X350.002 Y107.424
G01 X349.688 Y106.473
G01 X349.524 Y105.509
G01 X349.512 Y104.500
G01 X349.669 Y103.518
G01 X349.997 Y102.562
G01 X350.498 Y101.663
G01 X351.161 Y100.844
G01 X351.947 Y100.139
G01 X352.841 Y99.569
G01 X353.817 Y99.147
G01 X354.861 Y98.896
G01 X355.942 Y98.827
G01 X357.060 Y98.942
G01 X358.123 Y99.239
G01 X359.143 Y99.728
G01 X360.087 Y100.357
G01 X360.894 Y101.140
G01 X361.574 Y102.088
G01 X362.097 Y103.112
G01 X362.432 Y104.251
G01 X362.594 Y105.421
G01 X362.541 Y106.617
G01 X362.320 Y107.779
G01 X361.874 Y108.925
G01 X361.254 Y109.965
G01 X360.435 Y110.911
G01 X359.495 Y111.697
G01 X358.408 Y112.336
G01 X357.235 Y112.813
G01 X355.994 Y113.051
G01 X354.696 Y113.094
G01 X353.414 Y112.905
G01 X352.171 Y112.505
G01 X351.004 Y111.924
G01 X349.924 Y111.141
G01 X349.010 Y110.181
G01 X348.258 Y109.073
G01 X347.694 Y107.831
G01 X347.331 Y106.523
G01 X347.197 Y105.136
G01 X347.267 Y103.770
G01 X347.603 Y102.403
G01 X348.153 Y101.118
G01 X348.922 Y99.919
G01 X349.889 Y98.879
G01 X351.013 Y97.974
G01 X352.269 Y97.280
G01 X353.644 Y96.789
G01 X355.096 Y96.567
G01 X356.562 Y96.576
G01 X358.038 Y96.816
G01 X359.462 Y97.307
G01 X360.768 Y98.035
G01 X361.980 Y98.958
G01 X362.989 Y100.086
G01 X363.806 Y101.398
G01 X364.413 Y102.813
G01 X364.778 Y104.337
G01 X364.890 Y105.893
G01 X364.749 Y107.478
G01 X364.334 Y109.007
G01 X363.651 Y110.449
G01 X362.737 Y111.769
G01 X361.617 Y112.919
G01 X360.307 Y113.917
G01 X358.849 Y114.668
G01 X357.290 Y115.149
G01 X355.643 Y115.377
G01 X353.981 Y115.319
G01 X352.325 Y114.996
G01 X350.741 Y114.401
G01 X349.277 Y113.542
G01 X347.966 Y112.445
G01 X346.856 Y111.143
G01 X345.970 Y109.650
G01 X345.345 Y108.018
G01 X344.982 Y106.304
G01 X344.897 Y104.543
G01 X345.110 Y102.804
G01 X345.645 Y101.097
G01 X346.439 Y99.497
G01 X347.516 Y98.050
G01 X348.812 Y96.773
G01 X350.291 Y95.735
G01 X351.942 Y94.933
G01 X353.709 Y94.423
G01 X355.547 Y94.243
G01 X357.407 Y94.364
G01 X359.237 Y94.786
G01 X360.970 Y95.497
G01 X362.583 Y96.482
G01 X364.023 Y97.736
G01 X365.191 Y99.246
G01 X366.127 Y100.916
G01 X366.783 Y102.735
G01 X367.142 Y104.655
G01 X367.164 Y106.604
G01 X366.884 Y108.542
G01 X366.237 Y110.409
G01 X365.293 Y112.161
G01 X364.064 Y113.741
G01 X362.608 Y115.097
G01 X360.933 Y116.208
G01 X359.078 Y117.044
G01 X357.110 Y117.537
G01 X355.072 Y117.665
G01 X353.026 Y117.489
G01 X351.023 Y116.990
G01 X349.124 Y116.159
G01 X347.384 Y115.012
G01 X345.862 Y113.559
G01 X344.599 Y111.892
G01 X343.630 Y109.999
G01 X342.951 Y107.991
G01 X342.620 Y105.869
G01 X342.658 Y103.728
G01 X343.047 Y101.609
G01 X343.800 Y99.574
G01 X344.874 Y97.681
G01 X346.256 Y95.979
G01 X347.898 Y94.530
G01 X349.766 Y93.375
G01 X351.822 Y92.556
G01 X354.005 Y92.070
G01 X356.254 Y91.945
G01 X358.486 Y92.193
G01 X360.649 Y92.814
G01 X362.684 Y93.804
G01 X364.550 Y95.136
G01 X366.172 Y96.726
G01 X367.529 Y98.586
G01 X368.550 Y100.659
G01 X369.204 Y102.881
G01 X369.474 Y105.202
G01 X369.367 Y107.551
G01 X368.893 Y109.833
G01 X368.035 Y112.024
G01 X366.793 Y114.055
G01 X365.245 Y115.856
G01 X363.393 Y117.397
G01 X361.327 Y118.593
G01 X359.071 Y119.440
G01 X356.690 Y119.903
G01 X354.267 Y119.966
G01 X351.853 Y119.617
G01 X349.504 Y118.881
G01 X347.314 Y117.775
G01 X345.335 Y116.280
G01 X343.630 Y114.472
G01 X342.239 Y112.407
G01 X341.180 Y110.148
G01 X340.521 Y107.732
G01 X340.281 Y105.217
G01 X340.472 Y102.689
G01 X341.083 Y100.220
G01 X342.076 Y97.869
G01 X343.455 Y95.694
G01 X345.185 Y93.791
G01 X347.224 Y92.226
G01 X349.504 Y90.993
G01 X351.970 Y90.126
G01 X354.536 Y89.698
G01 X357.162 Y89.695
G01 X359.764 Y90.129
G01 X362.253 Y91.009
G01 X364.580 Y92.276
G01 X366.685 Y93.920
G01 X368.477 Y95.906
G01 X369.912 Y98.166
G01 X370.968 Y100.643
G01 X371.595 Y103.290
G01 X371.782 Y105.990
G01 X371.537 Y108.704
G01 X370.813 Y111.351
G01 X369.661 Y113.832
G01 X368.117 Y116.103
G01 X366.189 Y118.102
G01 X363.972 Y119.782
G01 X361.491 Y121.037
G01 X358.815 Y121.871
G01 X356.047 Y122.257
G01 X353.229 Y122.179
G01 X350.460 Y121.638
G01 X347.790 Y120.657
G01 X345.335 Y119.208
G01 X343.148 Y117.366
G01 X341.286 Y115.201
G01 X339.789 Y112.733
G01 X338.727 Y110.057
G01 X338.130 Y107.207
G01 X338.024 Y104.301
G01 X338.371 Y101.419
G01 X339.208 Y98.603
G01 X340.493 Y95.965
G01 X342.225 Y93.590
G01 X344.352 Y91.508
G01 X346.760 Y89.804
G01 X349.445 Y88.514
G01 X352.321 Y87.684
G01 X355.311 Y87.340
G01 X358.313 Y87.517
G01 X361.248 Y88.176
G01 X364.054 Y89.313
G01 X366.648 Y90.906
G01 X368.933 Y92.921
G01 X370.860 Y95.318
G01 X372.369 Y97.983
G01 X373.421 Y100.874
G01 X373.999 Y103.903
G01 X374.046 Y107.007
G01 X373.576 Y110.084
G01 X372.610 Y113.038
G01 X371.140 Y115.818
G01 X369.257 Y118.329
G01 X366.965 Y120.469
G01 X364.317 Y122.224
G01 X361.417 Y123.494
G01 X358.343 Y124.297
G01 X355.175 Y124.589
G01 X351.976 Y124.349
G01 X348.856 Y123.558
G01 X345.909 Y122.244
G01 X343.207 Y120.475
G01 X340.826 Y118.278
G01 X338.819 Y115.716
G01 X337.301 Y112.824
G01 X336.278 Y109.707
G01 X335.757 Y106.468
G01 X335.784 Y103.173
G01 X336.360 Y99.924
G01 X337.476 Y96.817
G01 X339.109 Y93.921
G01 X341.206 Y91.319
G01 X343.690 Y89.088
G01 X346.525 Y87.303
G01 X349.642 Y85.997
G01 X352.913 Y85.252
G01 X356.296 Y85.059
G01 X359.666 Y85.415
G01 X362.959 Y86.319
G01 X366.058 Y87.763
G01 X368.845 Y89.731
G01 X371.294 Y92.144
G01 X373.338 Y94.915
G01 X374.898 Y98.009
G01 X375.922 Y101.305
G01 X376.377 Y104.760
G01 X376.227 Y108.258
G01 X375.524 Y111.660
G01 X374.271 Y114.952
G01 X372.494 Y117.973
G01 X370.200 Y120.653
G01 X367.501 Y122.923
G01 X364.443 Y124.730
G01 X361.112 Y126.032
G01 X357.629 Y126.756
G01 X354.057 Y126.851
G01 X350.500 Y126.370
G01 X347.070 Y125.303
G01 X343.838 Y123.693
G01 X340.908 Y121.568
G01 X338.387 Y118.975
G01 X336.321 Y115.966
G01 X334.783 Y112.662
G01 X333.797 Y109.141
G01 X333.378 Y105.506
G01 X333.622 Y101.816
G01 X334.460 Y98.245
G01 X335.903 Y94.814
G01 X337.885 Y91.683
G01 X340.338 Y88.900
G01 X343.249 Y86.555
G01 X346.526 Y84.751
G01 X350.065 Y83.506
G01 X353.757 Y82.862
G01 X357.540 Y82.798
G01 X361.261 Y83.383
G01 X364.845 Y84.614
G01 X368.196 Y86.406
G01 X371.221 Y88.729
G01 X373.816 Y91.536
G01 X375.783 Y94.602
G01 X377.268 Y98.091
G01 X378.218 Y101.988
G01 X378.455 Y105.756
G01 X378.228 Y108.679
G01 X377.336 Y112.507
G01 X375.802 Y116.136
G01 X372.825 Y120.477
G01 X369.128 Y123.897
G01 X364.541 Y126.520
G01 X360.280 Y127.873
G01 X356.202 Y128.364
G01 X353.442 Y128.296
G01 X351.103 Y127.965
G01 X347.089 Y126.811
G01 X344.630 Y125.665
G01 X342.594 Y124.452
G01 X341.952 Y123.981
G01 X339.636 Y127.181
G01 X335.698 Y132.601
G01 X333.617 Y135.477
G01 X329.485 Y141.159
G01 X325.662 Y146.416
G01 X322.678 Y150.521
G01 X318.479 Y156.308
G01 X314.431 Y161.865
G01 X307.779 Y171.031
G01 X303.166 Y177.382
G01 X299.139 Y182.924
G01 X295.671 Y187.697
G01 X288.560 Y197.486
G01 X285.205 Y202.095
G01 X282.444 Y205.898
G01 X278.594 Y211.197
G01 X273.246 Y218.560
G01 X269.396 Y223.860
G01 X263.106 Y232.517
G01 X258.990 Y238.181
G01 X255.918 Y242.409
G01 X254.064 Y244.959
G01 X252.967 Y246.006
G01 X252.627 Y246.075
G01 X252.306 Y246.165
G01 X252.095 Y246.094
G01 X251.883 Y246.035
G01 X251.669 Y245.987
G01 X251.456 Y245.950
G01 X251.243 Y245.925
G01 X251.031 Y245.910
G01 X250.821 Y245.906
G01 X250.612 Y245.913
G01 X250.407 Y245.931
G01 X250.205 Y245.959
G01 X250.006 Y245.996
G01 X249.812 Y246.043
G01 X249.622 Y246.100
G01 X249.437 Y246.166
G01 X249.258 Y246.240
G01 X249.227 Y246.254
G01 X249.022 Y246.211
G01 X248.812 Y246.180
G01 X248.595 Y246.160
G01 X248.375 Y246.153
G01 X248.150 Y246.158
G01 X247.921 Y246.177
G01 X247.861 Y246.184
G01 X247.887 Y245.914
G01 X246.556 Y244.073
G01 X246.480 Y243.979
G01 X245.343 Y242.415
G01 X243.944 Y240.490
G01 X242.929 Y239.091
G01 X241.619 Y237.289
G01 X240.310 Y235.488
G01 X238.987 Y233.666
G01 X237.325 Y231.379
G01 X235.737 Y229.194
G01 X233.313 Y225.855
G01 X230.417 Y221.870
G01 X228.006 Y218.553
G01 X224.684 Y213.982
G01 X222.658 Y211.189
G01 X220.745 Y208.561
G01 X218.806 Y205.891
G01 X216.044 Y202.087
G01 X209.344 Y192.863
G01 X203.991 Y185.504
G01 X198.104 Y177.389
G01 X192.253 Y169.340
G01 X187.830 Y163.253
G01 X182.773 Y156.296
G01 X177.792 Y149.439
G01 X173.401 Y143.390
G01 X167.651 Y135.485
G01 X164.606 Y131.300
G01 X160.332 Y125.413
G01 X159.310 Y123.992
G01 X152.805 Y114.783
G01 X145.788 Y105.387
G01 X145.773 Y105.336
G01 X145.787 Y105.264
G01 X145.816 Y105.213
G01 X145.874 Y105.171
G01 X145.932 Y105.129
G01 X146.019 Y105.098
G01 X146.106 Y105.097
G01 X146.193 Y105.127
G01 X146.280 Y105.187
G01 X146.382 Y105.268
G01 X146.455 Y105.370
G01 X146.513 Y105.482
G01 X146.557 Y105.604
G01 X146.572 Y105.747
G01 X146.544 Y105.890
G01 X146.487 Y106.054
G01 X146.387 Y106.219
G01 X146.273 Y106.363
G01 X146.115 Y106.477
G01 X145.943 Y106.602
G01 X145.741 Y106.656
G01 X145.524 Y106.690
G01 X145.293 Y106.704
G01 X145.061 Y106.657
G01 X144.813 Y106.559
G01 X144.593 Y106.411
G01 X144.387 Y106.221
G01 X144.225 Y105.999
G01 X144.076 Y105.736
G01 X143.956 Y105.452
G01 X143.909 Y105.145
G01 X143.921 Y104.827
G01 X143.978 Y104.507
G01 X144.108 Y104.196
G01 X144.297 Y103.873
G01 X144.546 Y103.601
G01 X144.824 Y103.371
G01 X145.176 Y103.180
G01 X145.542 Y103.042
G01 X145.923 Y102.956
G01 X146.332 Y102.942
G01 X146.755 Y103.012
G01 X147.162 Y103.154
G01 X147.538 Y103.379
G01 X147.912 Y103.666
G01 X148.214 Y104.005
G01 X148.471 Y104.404
G01 X148.670 Y104.845
G01 X148.768 Y105.325
G01 X148.796 Y105.825
G01 X148.738 Y106.354
G01 X148.581 Y106.863
G01 X148.355 Y107.331
G01 X148.029 Y107.779
G01 X147.647 Y108.177
G01 X147.194 Y108.505
G01 X146.682 Y108.754
G01 X146.112 Y108.894
G01 X145.510 Y108.965
G01 X144.905 Y108.916
G01 X144.296 Y108.778
G01 X143.727 Y108.549
G01 X143.182 Y108.208
G01 X142.706 Y107.784
G01 X142.301 Y107.276
G01 X141.995 Y106.692
G01 X141.776 Y106.043
G01 X141.661 Y105.348
G01 X141.665 Y104.658
G01 X141.760 Y103.965
G01 X141.991 Y103.297
G01 X142.358 Y102.656
G01 X142.831 Y102.096
G01 X143.394 Y101.596
G01 X144.032 Y101.201
G01 X144.730 Y100.891
G01 X145.499 Y100.717
G01 X146.280 Y100.659
G01 X147.072 Y100.750
G01 X147.844 Y100.978
G01 X148.566 Y101.332
G01 X149.240 Y101.811
G01 X149.837 Y102.403
G01 X150.343 Y103.086
G01 X150.733 Y103.849
G01 X150.978 Y104.680
G01 X151.082 Y105.548
G01 X151.032 Y106.431
G01 X150.830 Y107.301
G01 X150.490 Y108.148
G01 X150.013 Y108.943
G01 X149.412 Y109.648
G01 X148.699 Y110.254
G01 X147.887 Y110.722
G01 X146.987 Y111.045
G01 X146.023 Y111.201
G01 X145.039 Y111.222
G01 X144.060 Y111.087
G01 X143.114 Y110.772
G01 X142.216 Y110.327
G01 X141.410 Y109.718
G01 X140.712 Y108.962
G01 X140.126 Y108.088
G01 X139.698 Y107.123
G01 X139.433 Y106.097
G01 X139.348 Y105.028
G01 X139.431 Y103.960
G01 X139.684 Y102.893
G01 X140.153 Y101.889
G01 X140.762 Y100.973
G01 X141.527 Y100.138
G01 X142.428 Y99.459
G01 X143.421 Y98.908
G01 X144.529 Y98.558
G01 X145.676 Y98.403
G01 X146.846 Y98.420
G01 X148.020 Y98.621
G01 X149.124 Y99.025
G01 X150.187 Y99.608
G01 X151.136 Y100.389
G01 X151.916 Y101.312
G01 X152.561 Y102.354
G01 X153.031 Y103.512
G01 X153.302 Y104.743
G01 X153.392 Y106.005
G01 X153.235 Y107.257
G01 X152.876 Y108.501
G01 X152.301 Y109.658
G01 X151.538 Y110.712
G01 X150.614 Y111.647
G01 X149.538 Y112.426
G01 X148.347 Y113.023
G01 X147.064 Y113.390
G01 X145.713 Y113.537
G01 X144.347 Y113.483
G01 X143.005 Y113.197
G01 X141.716 Y112.684
G01 X140.524 Y111.969
G01 X139.459 Y111.027
G01 X138.588 Y109.931
G01 X137.870 Y108.681
G01 X137.373 Y107.353
G01 X137.085 Y105.925
G01 X137.043 Y104.468
G01 X137.281 Y103.022
G01 X137.740 Y101.603
G01 X138.438 Y100.297
G01 X139.343 Y99.100
G01 X140.421 Y98.068
G01 X141.685 Y97.227
G01 X143.067 Y96.591
G01 X144.563 Y96.225
G01 X146.108 Y96.081
G01 X147.666 Y96.211
G01 X149.191 Y96.581
G01 X150.622 Y97.199
G01 X151.959 Y98.060
G01 X153.116 Y99.159
G01 X154.114 Y100.449
G01 X154.859 Y101.872
G01 X155.387 Y103.405
G01 X155.649 Y105.023
G01 X155.638 Y106.674
G01 X155.347 Y108.307
G01 X154.764 Y109.875
G01 X153.948 Y111.345
G01 X152.896 Y112.661
G01 X151.631 Y113.811
G01 X150.186 Y114.711
G01 X148.596 Y115.366
G01 X146.906 Y115.740
G01 X145.167 Y115.823
G01 X143.415 Y115.642
G01 X141.734 Y115.193
G01 X140.121 Y114.438
G01 X138.668 Y113.429
G01 X137.393 Y112.146
G01 X136.338 Y110.684
G01 X135.541 Y109.076
G01 X134.997 Y107.330
G01 X134.744 Y105.514
G01 X134.819 Y103.668
G01 X135.215 Y101.868
G01 X135.903 Y100.142
G01 X136.867 Y98.537
G01 X138.076 Y97.084
G01 X139.508 Y95.862
G01 X141.155 Y94.908
G01 X142.950 Y94.240
G01 X144.837 Y93.863
G01 X146.765 Y93.809
G01 X148.697 Y94.067
G01 X150.554 Y94.624
G01 X152.319 Y95.517
G01 X153.890 Y96.714
G01 X155.246 Y98.136
G01 X156.380 Y99.786
G01 X157.230 Y101.613
G01 X157.781 Y103.540
G01 X157.988 Y105.539
G01 X157.833 Y107.570
G01 X157.340 Y109.564
G01 X156.541 Y111.449
G01 X155.437 Y113.202
G01 X154.064 Y114.744
G01 X152.426 Y116.044
G01 X150.595 Y117.054
G01 X148.611 Y117.741
G01 X146.517 Y118.068
G01 X144.390 Y118.094
G01 X142.275 Y117.746
G01 X140.259 Y117.071
G01 X138.355 Y116.052
G01 X136.656 Y114.703
G01 X135.190 Y113.093
G01 X134.001 Y111.252
G01 X133.132 Y109.243
G01 X132.596 Y107.092
G01 X132.451 Y104.887
G01 X132.663 Y102.664
G01 X133.237 Y100.492
G01 X134.161 Y98.452
G01 X135.431 Y96.583
G01 X136.999 Y94.930
G01 X138.837 Y93.576
G01 X140.862 Y92.522
G01 X143.044 Y91.815
G01 X145.342 Y91.483
G01 X147.651 Y91.557
G01 X149.950 Y92.016
G01 X152.132 Y92.830
G01 X154.178 Y94.004
G01 X155.991 Y95.504
G01 X157.535 Y97.286
G01 X158.750 Y99.327
G01 X159.639 Y101.566
G01 X160.164 Y103.912
G01 X160.285 Y106.308
G01 X159.974 Y108.720
G01 X159.273 Y111.047
G01 X158.198 Y113.228
G01 X156.776 Y115.225
G01 X155.038 Y116.966
G01 X153.025 Y118.394
G01 X150.773 Y119.456
G01 X148.372 Y120.139
G01 X145.904 Y120.437
G01 X143.396 Y120.318
G01 X140.923 Y119.771
G01 X138.584 Y118.800
G01 X136.433 Y117.481
G01 X134.491 Y115.787
G01 X132.868 Y113.819
G01 X131.595 Y111.584
G01 X130.708 Y109.155
G01 X130.240 Y106.609
G01 X130.193 Y104.019
G01 X130.576 Y101.421
G01 X131.382 Y98.928
G01 X132.596 Y96.596
G01 X134.213 Y94.498
G01 X136.148 Y92.674
G01 X138.357 Y91.191
G01 X140.795 Y90.079
G01 X143.397 Y89.412
G01 X146.072 Y89.184
G01 X148.763 Y89.395
G01 X151.397 Y90.050
G01 X153.896 Y91.132
G01 X156.198 Y92.636
G01 X158.194 Y94.504
G01 X159.886 Y96.670
G01 X161.201 Y99.116
G01 X162.094 Y101.754
G01 X162.533 Y104.491
G01 X162.497 Y107.291
G01 X161.994 Y110.045
G01 X161.065 Y112.715
G01 X159.698 Y115.171
G01 X157.931 Y117.406
G01 X155.800 Y119.280
G01 X153.381 Y120.808
G01 X150.729 Y121.916
G01 X147.927 Y122.564
G01 X145.049 Y122.745
G01 X142.178 Y122.439
G01 X139.375 Y121.643
G01 X136.719 Y120.407
G01 X134.307 Y118.765
G01 X132.200 Y116.724
G01 X130.463 Y114.322
G01 X129.145 Y111.687
G01 X128.267 Y108.840
G01 X127.869 Y105.892
G01 X127.968 Y102.905
G01 X128.577 Y99.981
G01 X129.670 Y97.158
G01 X131.216 Y94.567
G01 X133.159 Y92.260
G01 X135.472 Y90.265
G01 X138.088 Y88.726
G01 X140.956 Y87.645
G01 X143.965 Y87.035
G01 X147.035 Y86.908
G01 X150.102 Y87.295
G01 X153.077 Y88.211
G01 X155.849 Y89.618
G01 X158.352 Y91.458
G01 X160.550 Y93.713
G01 X162.348 Y96.285
G01 X163.685 Y99.120
G01 X164.531 Y102.181
G01 X164.853 Y105.321
G01 X164.651 Y108.497
G01 X163.963 Y111.615
G01 X162.735 Y114.582
G01 X161.023 Y117.293
G01 X158.856 Y119.686
G01 X156.333 Y121.704
G01 X153.518 Y123.304
G01 X150.470 Y124.406
G01 X147.234 Y124.962
G01 X143.966 Y124.987
G01 X140.734 Y124.469
G01 X137.604 Y123.425
G01 X134.684 Y121.877
G01 X132.067 Y119.862
G01 X129.821 Y117.410
G01 X127.997 Y114.610
G01 X126.645 Y111.559
G01 X125.807 Y108.296
G01 X125.543 Y104.951
G01 X125.858 Y101.604
G01 X126.702 Y98.316
G01 X128.093 Y95.218
G01 X129.966 Y92.376
G01 X132.307 Y89.875
G01 X135.035 Y87.813
G01 X138.079 Y86.243
G01 X141.355 Y85.158
G01 X144.758 Y84.622
G01 X148.233 Y84.659
G01 X151.633 Y85.316
G01 X154.920 Y86.542
G01 X157.961 Y88.253
G01 X160.683 Y90.449
G01 X163.011 Y93.101
G01 X164.859 Y96.107
G01 X166.176 Y99.379
G01 X166.960 Y102.837
G01 X167.152 Y106.383
G01 X166.775 Y109.935
G01 X165.776 Y113.375
G01 X164.209 Y116.606
G01 X162.141 Y119.554
G01 X159.618 Y122.115
G01 X156.688 Y124.236
G01 X153.428 Y125.834
G01 X149.926 Y126.862
G01 X146.322 Y127.317
G01 X142.667 Y127.161
G01 X139.060 Y126.416
G01 X135.638 Y125.063
G01 X132.507 Y123.154
G01 X129.695 Y120.716
G01 X127.307 Y117.885
G01 X125.434 Y114.679
G01 X124.105 Y111.187
G01 X123.402 Y107.518
G01 X123.310 Y103.774
G01 X123.819 Y100.052
G01 X124.955 Y96.450
G01 X126.657 Y93.072
G01 X128.914 Y90.036
G01 X131.663 Y87.403
G01 X134.817 Y85.246
G01 X138.280 Y83.661
G01 X141.812 Y82.739
G01 X145.583 Y82.389
G01 X149.573 Y82.704
G01 X153.236 Y83.646
G01 X155.954 Y84.764
G01 X159.296 Y86.786
G01 X162.291 Y89.388
G01 X165.502 Y93.562
G01 X167.605 Y98.109
G01 X168.687 Y103.304
G01 X168.666 Y107.762
G01 X167.873 Y111.784
G01 X166.942 Y114.389
G01 X165.920 Y116.525
G01 X163.575 Y119.978
G01 X161.718 Y121.960
G01 X159.939 Y123.511
G01 X159.310 Y123.992
G01 X161.615 Y127.169
G01 X165.567 Y132.611
G01 X167.651 Y135.485
G01 X171.770 Y141.144
G01 X175.599 Y146.428
G01 X178.590 Y150.529
G01 X182.773 Y156.296
G01 X186.830 Y161.877
G01 X193.469 Y171.022
G01 X198.104 Y177.389
G01 X202.112 Y182.913
G01 X205.578 Y187.688
G01 X212.691 Y197.478
G01 X216.044 Y202.087
G01 X218.806 Y205.891
G01 X222.658 Y211.189
G01 X228.006 Y218.553
G01 X231.856 Y223.854
G01 X238.148 Y232.513
G01 X242.267 Y238.180
G01 X245.343 Y242.415
G01 X247.189 Y244.955
G01 X247.724 Y246.349
G01 X247.828 Y246.581
G01 X247.797 Y246.882
G01 X247.792 Y247.000
G01 X247.669 Y247.139
G01 X247.554 Y247.283
G01 X247.448 Y247.430
G01 X247.351 Y247.582
G01 X247.262 Y247.737
G01 X247.182 Y247.895
G01 X247.111 Y248.055
G01 X247.048 Y248.217
G01 X246.995 Y248.380
G01 X246.950 Y248.544
G01 X246.914 Y248.709
G01 X246.887 Y248.874
G01 X246.869 Y249.038
G01 X246.859 Y249.201
G01 X246.857 Y249.363
G01 X246.864 Y249.524
G01 X246.879 Y249.682
G01 X246.901 Y249.837
G01 X246.925 Y249.960
G01 X246.833 Y250.115
G01 X246.749 Y250.278
G01 X246.673 Y250.450
G01 X246.606 Y250.630
G01 X246.550 Y250.817
G01 X246.504 Y251.012
G01 X246.469 Y251.213
G01 X246.457 Y251.302
G01 X246.250 Y251.173
G01 X246.189 Y251.131
G01 X243.930 Y251.866
G01 X242.075 Y252.468
G01 X239.817 Y253.202
G01 X238.176 Y253.735
G01 X236.036 Y254.431
G01 X233.920 Y255.118
G01 X231.780 Y255.813
G01 X229.093 Y256.686
G01 X226.525 Y257.521
G01 X222.602 Y258.796
G01 X217.918 Y260.317
G01 X214.018 Y261.583
G01 X208.669 Y263.323
G01 X205.365 Y264.398
G01 X202.273 Y265.401
G01 X199.134 Y266.419
G01 X194.689 Y267.867
G01 X183.824 Y271.398
G01 X175.167 Y274.206
G01 X165.634 Y277.308
G01 X156.171 Y280.381
G01 X149.015 Y282.709
G01 X140.834 Y285.359
G01 X132.775 Y287.983
G01 X125.664 Y290.287
G01 X116.369 Y293.313
G01 X111.446 Y294.909
G01 X104.530 Y297.166
G01 X102.866 Y297.706
G01 X92.089 Y301.026
G01 X80.987 Y304.800
G01 X80.934 Y304.799
G01 X80.870 Y304.763
G01 X80.830 Y304.720
G01 X80.808 Y304.652
G01 X80.786 Y304.585
G01 X80.788 Y304.509
G01 X80.814 Y304.426
G01 X80.887 Y304.328
G01 X80.948 Y304.271
G01 X81.056 Y304.199
G01 X81.175 Y304.161
G01 X81.300 Y304.140
G01 X81.435 Y304.152
G01 X81.575 Y304.181
G01 X81.727 Y304.244
G01 X81.842 Y304.356
G01 X81.962 Y304.484
G01 X82.070 Y304.653
G01 X82.130 Y304.838
G01 X82.190 Y305.023
G01 X82.185 Y305.247
G01 X82.151 Y305.463
G01 X82.094 Y305.687
G01 X81.978 Y305.894
G01 X81.803 Y306.082
G01 X81.600 Y306.262
G01 X81.356 Y306.400
G01 X81.095 Y306.487
G01 X80.800 Y306.549
G01 X80.487 Y306.559
G01 X80.181 Y306.510
G01 X79.887 Y306.419
G01 X79.594 Y306.251
G01 X79.338 Y306.033
G01 X79.113 Y305.748
G01 X78.907 Y305.437
G01 X78.791 Y305.077
G01 X78.700 Y304.710
G01 X78.680 Y304.320
G01 X78.715 Y303.932
G01 X78.828 Y303.539
G01 X79.023 Y303.159
G01 X79.307 Y302.809
G01 X79.632 Y302.503
G01 X80.001 Y302.259
G01 X80.440 Y302.069
G01 X80.899 Y301.946
G01 X81.360 Y301.915
G01 X81.866 Y301.944
G01 X82.355 Y302.087
G01 X82.812 Y302.293
G01 X83.248 Y302.596
G01 X83.629 Y302.971
G01 X83.955 Y303.416
G01 X84.217 Y303.899
G01 X84.390 Y304.430
G01 X84.476 Y305.007
G01 X84.434 Y305.592
G01 X84.312 Y306.168
G01 X84.080 Y306.728
G01 X83.762 Y307.264
G01 X83.369 Y307.735
G01 X82.877 Y308.149
G01 X82.328 Y308.472
G01 X81.696 Y308.711
G01 X81.047 Y308.824
G01 X80.357 Y308.817
G01 X79.690 Y308.724
G01 X79.035 Y308.510
G01 X78.398 Y308.192
G01 X77.834 Y307.770
G01 X77.336 Y307.227
G01 X76.948 Y306.607
G01 X76.646 Y305.920
G01 X76.460 Y305.177
G01 X76.403 Y304.412
G01 X76.455 Y303.654
G01 X76.640 Y302.894
G01 X76.964 Y302.153
G01 X77.417 Y301.490
G01 X78.000 Y300.904
G01 X78.662 Y300.410
G01 X79.408 Y300.024
G01 X80.219 Y299.768
G01 X81.064 Y299.630
G01 X81.930 Y299.650
G01 X82.787 Y299.815
G01 X83.618 Y300.147
G01 X84.384 Y300.604
G01 X85.085 Y301.184
G01 X85.672 Y301.886
G01 X86.158 Y302.671
G01 X86.516 Y303.532
G01 X86.718 Y304.462
G01 X86.749 Y305.415
G01 X86.602 Y306.377
G01 X86.321 Y307.318
G01 X85.868 Y308.215
G01 X85.302 Y309.009
G01 X84.580 Y309.735
G01 X83.753 Y310.316
G01 X82.820 Y310.749
G01 X81.803 Y311.024
G01 X80.754 Y311.136
G01 X79.696 Y311.076
G01 X78.653 Y310.832
G01 X77.662 Y310.428
G01 X76.742 Y309.837
G01 X75.930 Y309.087
G01 X75.240 Y308.212
G01 X74.680 Y307.233
G01 X74.311 Y306.170
G01 X74.114 Y305.052
G01 X74.098 Y303.901
G01 X74.296 Y302.746
G01 X74.696 Y301.634
G01 X75.253 Y300.598
G01 X75.970 Y299.655
G01 X76.857 Y298.841
G01 X77.891 Y298.178
G01 X79.008 Y297.718
G01 X80.198 Y297.422
G01 X81.448 Y297.346
G01 X82.698 Y297.446
G01 X83.932 Y297.761
G01 X85.079 Y298.307
G01 X86.129 Y299.033
G01 X87.053 Y299.931
G01 X87.852 Y300.984
G01 X88.458 Y302.146
G01 X88.846 Y303.412
G01 X89.049 Y304.724
G01 X89.010 Y306.070
G01 X88.735 Y307.398
G01 X88.236 Y308.671
G01 X87.552 Y309.858
G01 X86.669 Y310.927
G01 X85.623 Y311.842
G01 X84.400 Y312.567
G01 X83.091 Y313.062
G01 X81.682 Y313.363
G01 X80.259 Y313.415
G01 X78.806 Y313.237
G01 X77.430 Y312.825
G01 X76.103 Y312.168
G01 X74.918 Y311.291
G01 X73.890 Y310.232
G01 X73.023 Y308.990
G01 X72.372 Y307.652
G01 X71.953 Y306.179
G01 X71.796 Y304.665
G01 X71.883 Y303.141
G01 X72.244 Y301.623
G01 X72.846 Y300.183
G01 X73.666 Y298.848
G01 X74.717 Y297.671
G01 X75.947 Y296.664
G01 X77.347 Y295.900
G01 X78.862 Y295.369
G01 X80.444 Y295.095
G01 X82.094 Y295.070
G01 X83.713 Y295.313
G01 X85.256 Y295.832
G01 X86.726 Y296.622
G01 X88.039 Y297.651
G01 X89.168 Y298.896
G01 X90.098 Y300.295
G01 X90.805 Y301.846
G01 X91.223 Y303.507
G01 X91.336 Y305.224
G01 X91.174 Y306.942
G01 X90.725 Y308.635
G01 X90.011 Y310.228
G01 X89.045 Y311.697
G01 X87.856 Y312.991
G01 X86.420 Y314.057
G01 X84.832 Y314.870
G01 X83.117 Y315.428
G01 X81.313 Y315.688
G01 X79.508 Y315.665
G01 X77.703 Y315.353
G01 X75.963 Y314.703
G01 X74.372 Y313.779
G01 X72.934 Y312.583
G01 X71.704 Y311.178
G01 X70.716 Y309.580
G01 X69.986 Y307.830
G01 X69.584 Y305.975
G01 X69.499 Y304.068
G01 X69.743 Y302.154
G01 X70.278 Y300.289
G01 X71.122 Y298.552
G01 X72.246 Y296.952
G01 X73.613 Y295.554
G01 X75.229 Y294.410
G01 X77.027 Y293.567
G01 X78.945 Y292.993
G01 X80.920 Y292.748
G01 X82.931 Y292.845
G01 X84.922 Y293.250
G01 X86.806 Y294.015
G01 X88.529 Y295.096
G01 X90.087 Y296.459
G01 X91.393 Y298.047
G01 X92.443 Y299.835
G01 X93.179 Y301.785
G01 X93.578 Y303.830
G01 X93.606 Y305.946
G01 X93.275 Y308.035
G01 X92.649 Y310.063
G01 X91.669 Y311.965
G01 X90.386 Y313.685
G01 X88.827 Y315.169
G01 X87.022 Y316.373
G01 X85.034 Y317.259
G01 X82.918 Y317.830
G01 X80.740 Y318.045
G01 X78.546 Y317.873
G01 X76.373 Y317.331
G01 X74.347 Y316.445
G01 X72.450 Y315.222
G01 X70.792 Y313.723
G01 X69.404 Y311.947
G01 X68.330 Y309.930
G01 X67.606 Y307.771
G01 X67.247 Y305.520
G01 X67.240 Y303.215
G01 X67.634 Y300.951
G01 X68.408 Y298.763
G01 X69.550 Y296.719
G01 X71.019 Y294.890
G01 X72.740 Y293.311
G01 X74.747 Y292.041
G01 X76.921 Y291.136
G01 X79.236 Y290.603
G01 X81.639 Y290.441
G01 X84.012 Y290.680
G01 X86.333 Y291.310
G01 X88.534 Y292.339
G01 X90.537 Y293.728
G01 X92.287 Y295.426
G01 X93.756 Y297.399
G01 X94.856 Y299.584
G01 X95.604 Y301.944
G01 X95.923 Y304.406
G01 X95.838 Y306.893
G01 X95.348 Y309.351
G01 X94.465 Y311.697
G01 X93.181 Y313.865
G01 X91.547 Y315.808
G01 X89.603 Y317.445
G01 X87.389 Y318.758
G01 X85.020 Y319.702
G01 X82.504 Y320.233
G01 X79.914 Y320.321
G01 X77.340 Y319.974
G01 X74.855 Y319.213
G01 X72.524 Y318.050
G01 X70.393 Y316.508
G01 X68.563 Y314.618
G01 X67.040 Y312.452
G01 X65.922 Y310.051
G01 X65.183 Y307.483
G01 X64.898 Y304.822
G01 X65.062 Y302.148
G01 X65.666 Y299.539
G01 X66.711 Y297.024
G01 X68.144 Y294.723
G01 X69.939 Y292.681
G01 X72.082 Y290.972
G01 X74.472 Y289.646
G01 X77.080 Y288.712
G01 X79.787 Y288.213
G01 X82.571 Y288.169
G01 X85.314 Y288.602
G01 X87.971 Y289.504
G01 X90.442 Y290.834
G01 X92.673 Y292.534
G01 X94.601 Y294.608
G01 X96.161 Y296.972
G01 X97.297 Y299.579
G01 X97.991 Y302.363
G01 X98.233 Y305.217
G01 X97.991 Y308.076
G01 X97.287 Y310.879
G01 X96.094 Y313.523
G01 X94.472 Y315.929
G01 X92.475 Y318.061
G01 X90.173 Y319.854
G01 X87.556 Y321.230
G01 X84.761 Y322.140
G01 X81.843 Y322.575
G01 X78.859 Y322.527
G01 X75.931 Y322.008
G01 X73.113 Y320.988
G01 X70.511 Y319.502
G01 X68.184 Y317.595
G01 X66.193 Y315.338
G01 X64.605 Y312.745
G01 X63.447 Y309.952
G01 X62.779 Y306.980
G01 X62.602 Y303.916
G01 X62.968 Y300.866
G01 X63.814 Y297.906
G01 X65.125 Y295.113
G01 X66.908 Y292.569
G01 X69.099 Y290.366
G01 X71.643 Y288.545
G01 X74.438 Y287.152
G01 X77.441 Y286.246
G01 X80.573 Y285.836
G01 X83.725 Y285.987
G01 X86.816 Y286.652
G01 X89.780 Y287.826
G01 X92.516 Y289.448
G01 X94.966 Y291.531
G01 X97.002 Y294.002
G01 X98.619 Y296.801
G01 X99.767 Y299.809
G01 X100.408 Y302.990
G01 X100.528 Y306.234
G01 X100.066 Y309.476
G01 X99.066 Y312.597
G01 X97.582 Y315.511
G01 X95.631 Y318.168
G01 X93.257 Y320.456
G01 X90.508 Y322.326
G01 X87.487 Y323.715
G01 X84.257 Y324.582
G01 X80.932 Y324.922
G01 X77.594 Y324.716
G01 X74.323 Y323.932
G01 X71.228 Y322.597
G01 X68.375 Y320.768
G01 X65.847 Y318.484
G01 X63.718 Y315.840
G01 X62.081 Y312.847
G01 X60.974 Y309.601
G01 X60.384 Y306.221
G01 X60.382 Y302.773
G01 X60.935 Y299.353
G01 X62.042 Y296.084
G01 X63.707 Y293.038
G01 X65.882 Y290.292
G01 X68.473 Y287.940
G01 X71.397 Y286.026
G01 X74.611 Y284.630
G01 X78.039 Y283.793
G01 X81.584 Y283.551
G01 X85.123 Y283.893
G01 X88.556 Y284.789
G01 X91.800 Y286.248
G01 X94.770 Y288.257
G01 X97.345 Y290.747
G01 X99.496 Y293.627
G01 X101.169 Y296.829
G01 X102.295 Y300.269
G01 X102.793 Y303.858
G01 X102.698 Y307.496
G01 X102.010 Y311.081
G01 X100.743 Y314.507
G01 X98.922 Y317.692
G01 X96.587 Y320.533
G01 X93.782 Y322.923
G01 X90.601 Y324.855
G01 X87.161 Y326.232
G01 X83.537 Y327.038
G01 X79.822 Y327.213
G01 X76.108 Y326.748
G01 X72.511 Y325.678
G01 X69.118 Y324.044
G01 X66.040 Y321.868
G01 X63.364 Y319.195
G01 X61.185 Y316.099
G01 X59.525 Y312.686
G01 X58.464 Y309.027
G01 X58.007 Y305.217
G01 X58.216 Y301.582
G01 X59.064 Y297.889
G01 X60.588 Y294.198
G01 X62.610 Y291.008
G01 X64.508 Y288.769
G01 X67.482 Y286.209
G01 X70.878 Y284.159
G01 X75.838 Y282.402
G01 X80.814 Y281.809
G01 X86.093 Y282.380
G01 X90.311 Y283.793
G01 X93.899 Y285.784
G01 X96.097 Y287.474
G01 X97.795 Y289.114
G01 X100.367 Y292.403
G01 X101.688 Y294.782
G01 X102.596 Y296.948
G01 X102.866 Y297.706
G01 X106.619 Y296.474
G01 X112.992 Y294.408
G01 X116.369 Y293.313
G01 X123.052 Y291.147
G01 X129.231 Y289.131
G01 X134.059 Y287.567
G01 X140.834 Y285.359
G01 X147.398 Y283.233
G01 X158.145 Y279.742
G01 X165.634 Y277.308
G01 X172.125 Y275.198
G01 X177.736 Y273.375
G01 X189.243 Y269.632
G01 X194.689 Y267.867
G01 X199.134 Y266.419
G01 X205.365 Y264.398
G01 X214.018 Y261.583
G01 X220.249 Y259.561
G01 X230.449 Y256.246
G01 X237.106 Y254.083
G01 X242.075 Y252.468
G01 X245.048 Y251.502
G01 X245.094 Y251.229
G01 X245.155 Y250.964
G01 X245.230 Y250.708
G01 X245.318 Y250.461
G01 X245.418 Y250.225
G01 X245.530 Y250.000
G01 X245.653 Y249.787
G01 X245.786 Y249.585
G01 X245.927 Y249.396
G01 X246.077 Y249.220
G01 X246.234 Y249.057
G01 X246.397 Y248.907
G01 X246.566 Y248.771
G01 X246.739 Y248.649
G01 X246.916 Y248.541
G01 X247.095 Y248.447
G01 X247.275 Y248.367
G01 X247.456 Y248.300
G01 X247.637 Y248.248
G01 X247.817 Y248.208
G01 X247.994 Y248.182
G01 X248.169 Y248.169
G01 X248.340 Y248.169
G01 X248.506 Y248.180
G01 X248.668 Y248.204
G01 X248.823 Y248.238
G01 X248.971 Y248.283
G01 X249.112 Y248.338
G01 X249.245 Y248.403
G01 X249.369 Y248.477
G01 X249.484 Y248.558
G01 X249.590 Y248.647
G01 X249.601 Y248.658
G01 X249.669 Y248.643
G01 X249.736 Y248.632
G01 X249.804 Y248.625
G01 X249.872 Y248.620
G01 X249.940 Y248.619
G01 X250.008 Y248.621
G01 X250.075 Y248.627
G01 X250.146 Y248.597
G01 X250.220 Y248.570
G01 X250.297 Y248.547
G01 X250.377 Y248.529
G01 X250.459 Y248.515
G01 X250.543 Y248.506
G01 X250.628 Y248.501
G01 X250.661 Y248.176
G01 X250.663 Y247.844
G01 X250.634 Y247.509
G01 X250.626 Y247.451
G01 X250.698 Y246.406
G01 X250.668 Y245.351
G01 X250.629 Y244.939
G01 X250.628 Y242.451
G01 X250.628 Y239.945
G01 X250.628 Y237.441
G01 X250.628 Y234.938
G01 X250.628 Y232.436
G01 X250.630 Y229.935
G01 X250.628 Y227.459
G01 X250.628 Y224.958
G01 X250.627 Y222.457
G01 X250.627 Y219.957
G01 X250.627 Y217.456
G01 X250.630 Y214.956
G01 X250.629 Y212.455
G01 X250.627 Y209.955
G01 X250.628 Y207.455
G01 X250.629 Y204.954
G01 X250.626 Y202.454
G01 X250.629 Y199.954
G01 X250.629 Y197.454
G01 X250.626 Y194.954
G01 X250.631 Y192.453
G01 X250.628 Y189.953
G01 X250.629 Y187.453
G01 X250.629 Y184.953
G01 X250.626 Y182.453
G01 X250.628 Y179.953
G01 X250.629 Y177.453
G01 X250.628 Y174.953
G01 X250.625 Y172.453
G01 X250.629 Y169.952
G01 X250.624 Y167.452
G01 X250.626 Y164.952
G01 X250.627 Y162.452
G01 X250.627 Y159.952
G01 X250.626 Y157.452
G01 X250.624 Y154.952
G01 X250.630 Y152.452
G01 X250.627 Y149.952
G01 X250.632 Y147.452
G01 X250.626 Y144.952
G01 X250.630 Y142.477
G01 X250.623 Y139.977
G01 X250.626 Y137.477
G01 X250.628 Y134.977
G01 X250.630 Y132.477
G01 X250.632 Y129.977
G01 X250.633 Y127.477
G01 X250.633 Y124.977
G01 X250.633 Y122.477
G01 X250.632 Y119.977
G01 X250.631 Y117.477
G01 X250.630 Y114.976
G01 X250.628 Y112.476
G01 X250.625 Y109.976
G01 X250.622 Y107.476
G01 X250.633 Y104.976
G01 X250.629 Y102.476
G01 X250.625 Y99.976
G01 X250.635 Y97.476
G01 X250.630 Y94.976
G01 X250.624 Y92.476
G01 X250.634 Y89.976
G01 X250.628 Y87.476
G01 X250.621 Y84.876
G01 X250.629 Y51.026
G01 X250.649 Y51.076
G01 X250.669 Y51.126
G01 X250.669 Y51.176
G01 X250.649 Y51.226
G01 X250.609 Y51.276
G01 X250.569 Y51.326
G01 X250.489 Y51.351
G01 X250.410 Y51.350
G01 X250.330 Y51.350
G01 X250.251 Y51.325
G01 X250.152 Y51.275
G01 X250.072 Y51.225
G01 X250.013 Y51.150
G01 X249.953 Y51.050
G01 X249.913 Y50.925
G01 X249.893 Y50.800
G01 X249.913 Y50.650
G01 X249.953 Y50.500
G01 X250.013 Y50.375
G01 X250.113 Y50.225
G01 X250.233 Y50.100
G01 X250.373 Y50.000
G01 X250.533 Y49.926
G01 X250.733 Y49.876
G01 X250.933 Y49.877
G01 X251.133 Y49.903
G01 X251.353 Y49.980
G01 X251.552 Y50.081
G01 X251.731 Y50.207
G01 X251.909 Y50.384
G01 X252.047 Y50.586
G01 X252.164 Y50.812
G01 X252.221 Y51.062
G01 X252.238 Y51.338
G01 X252.195 Y51.612
G01 X252.113 Y51.886
G01 X251.991 Y52.160
G01 X251.811 Y52.408
G01 X251.611 Y52.632
G01 X251.353 Y52.830
G01 X251.057 Y52.978
G01 X250.741 Y53.051
G01 X250.406 Y53.100
G01 X250.052 Y53.075
G01 X249.697 Y52.975
G01 X249.362 Y52.851
G01 X249.026 Y52.652
G01 X248.748 Y52.404
G01 X248.508 Y52.081
G01 X248.327 Y51.732
G01 X248.185 Y51.333
G01 X248.121 Y50.934
G01 X248.137 Y50.509
G01 X248.213 Y50.083
G01 X248.350 Y49.682
G01 X248.567 Y49.280
G01 X248.867 Y48.928
G01 X249.207 Y48.627
G01 X249.630 Y48.375
G01 X250.073 Y48.200
G01 X250.538 Y48.101
G01 X251.043 Y48.078
G01 X251.527 Y48.131
G01 X252.030 Y48.285
G01 X252.491 Y48.515
G01 X252.910 Y48.821
G01 X253.286 Y49.227
G01 X253.599 Y49.657
G01 X253.830 Y50.162
G01 X253.979 Y50.690
G01 X254.047 Y51.266
G01 X254.016 Y51.841
G01 X253.866 Y52.413
G01 X253.639 Y52.934
G01 X253.295 Y53.453
G01 X252.895 Y53.896
G01 X252.420 Y54.290
G01 X251.888 Y54.584
G01 X251.281 Y54.804
G01 X250.656 Y54.901
G01 X249.993 Y54.875
G01 X249.349 Y54.776
G01 X248.722 Y54.554
G01 X248.133 Y54.234
G01 X247.599 Y53.815
G01 X247.140 Y53.296
G01 X246.776 Y52.701
G01 X246.509 Y52.056
G01 X246.357 Y51.358
G01 X246.324 Y50.634
G01 X246.391 Y49.908
G01 X246.579 Y49.204
G01 X246.890 Y48.524
G01 X247.325 Y47.918
G01 X247.865 Y47.386
G01 X248.490 Y46.931
G01 X249.199 Y46.602
G01 X249.952 Y46.375
G01 X250.726 Y46.276
G01 X251.520 Y46.281
G01 X252.313 Y46.463
G01 X253.062 Y46.748
G01 X253.765 Y47.185
G01 X254.402 Y47.748
G01 X254.933 Y48.385
G01 X255.377 Y49.122
G01 X255.677 Y49.906
G01 X255.832 Y50.760
G01 X255.846 Y51.636
G01 X255.722 Y52.508
G01 X255.441 Y53.350
G01 X255.046 Y54.165
G01 X254.501 Y54.877
G01 X253.844 Y55.513
G01 X253.077 Y56.024
G01 X252.220 Y56.388
G01 X251.308 Y56.629
G01 X250.379 Y56.725
G01 X249.432 Y56.651
G01 X248.483 Y56.431
G01 X247.607 Y56.040
G01 X246.783 Y55.502
G01 X246.069 Y54.815
G01 X245.446 Y54.053
G01 X244.972 Y53.164
G01 X244.651 Y52.197
G01 X244.504 Y51.201
G01 X244.516 Y50.175
G01 X244.709 Y49.145
G01 X245.047 Y48.186
G01 X245.552 Y47.249
G01 X246.206 Y46.435
G01 X247.010 Y45.722
G01 X247.924 Y45.161
G01 X248.925 Y44.753
G01 X249.992 Y44.500
G01 X251.082 Y44.428
G01 X252.191 Y44.562
G01 X253.255 Y44.851
G01 X254.270 Y45.345
G01 X255.196 Y45.991
G01 X256.009 Y46.789
G01 X256.691 Y47.711
G01 X257.200 Y48.754
G01 X257.541 Y49.867
G01 X257.677 Y51.023
G01 X257.612 Y52.196
G01 X257.370 Y53.363
G01 X256.937 Y54.473
G01 X256.336 Y55.503
G01 X255.550 Y56.430
G01 X254.602 Y57.205
G01 X253.530 Y57.807
G01 X252.390 Y58.240
G01 X251.161 Y58.504
G01 X249.916 Y58.550
G01 X248.671 Y58.380
G01 X247.458 Y57.967
G01 X246.333 Y57.385
G01 X245.312 Y56.632
G01 X244.415 Y55.705
G01 X243.680 Y54.627
G01 X243.130 Y53.445
G01 X242.789 Y52.181
G01 X242.681 Y50.859
G01 X242.773 Y49.530
G01 X243.089 Y48.218
G01 X243.595 Y46.976
G01 X244.335 Y45.829
G01 X245.252 Y44.830
G01 X246.325 Y44.008
G01 X247.554 Y43.339
G01 X248.853 Y42.878
G01 X250.241 Y42.650
G01 X251.631 Y42.631
G01 X253.017 Y42.872
G01 X254.353 Y43.346
G01 X255.616 Y44.052
G01 X256.742 Y44.936
G01 X257.708 Y45.996
G01 X258.494 Y47.228
G01 X259.064 Y48.554
G01 X259.400 Y49.996
G01 X259.489 Y51.477
G01 X259.340 Y52.946
G01 X258.958 Y54.380
G01 X258.331 Y55.754
G01 X257.485 Y56.995
G01 X256.425 Y58.083
G01 X255.190 Y58.970
G01 X253.838 Y59.664
G01 X252.366 Y60.140
G01 X250.827 Y60.352
G01 X249.272 Y60.326
G01 X247.751 Y60.013
G01 X246.277 Y59.436
G01 X244.920 Y58.617
G01 X243.699 Y57.603
G01 X242.652 Y56.414
G01 X241.819 Y55.047
G01 X241.245 Y53.545
G01 X240.936 Y51.957
G01 X240.860 Y50.309
G01 X241.069 Y48.698
G01 X241.528 Y47.127
G01 X242.264 Y45.646
G01 X243.243 Y44.286
G01 X244.447 Y43.150
G01 X245.815 Y42.192
G01 X247.344 Y41.467
G01 X248.968 Y40.978
G01 X250.662 Y40.801
G01 X252.355 Y40.888
G01 X254.042 Y41.289
G01 X255.632 Y41.951
G01 X257.101 Y42.847
G01 X258.402 Y43.996
G01 X259.515 Y45.371
G01 X260.359 Y46.914
G01 X260.961 Y48.573
G01 X261.267 Y50.318
G01 X261.305 Y52.098
G01 X261.027 Y53.860
G01 X260.464 Y55.556
G01 X259.604 Y57.164
G01 X258.497 Y58.589
G01 X257.166 Y59.835
G01 X255.650 Y60.859
G01 X253.950 Y61.591
G01 X252.174 Y62.038
G01 X250.312 Y62.175
G01 X248.471 Y62.031
G01 X246.658 Y61.580
G01 X244.941 Y60.818
G01 X243.370 Y59.765
G01 X241.982 Y58.468
G01 X240.835 Y56.942
G01 X239.935 Y55.260
G01 X239.329 Y53.439
G01 X239.047 Y51.552
G01 X239.080 Y49.597
G01 X239.423 Y47.701
G01 X240.084 Y45.866
G01 X241.053 Y44.144
G01 X242.296 Y42.643
G01 X243.793 Y41.342
G01 X245.462 Y40.274
G01 X247.298 Y39.517
G01 X249.254 Y39.076
G01 X251.258 Y38.979
G01 X253.260 Y39.200
G01 X255.207 Y39.764
G01 X257.050 Y40.644
G01 X258.721 Y41.808
G01 X260.173 Y43.250
G01 X261.366 Y44.915
G01 X262.282 Y46.771
G01 X262.891 Y48.737
G01 X263.138 Y50.808
G01 X263.041 Y52.881
G01 X262.612 Y54.932
G01 X261.845 Y56.888
G01 X260.755 Y58.702
G01 X259.370 Y60.331
G01 X257.737 Y61.684
G01 X255.894 Y62.743
G01 X253.891 Y63.516
G01 X251.779 Y63.934
G01 X249.621 Y64.000
G01 X247.478 Y63.692
G01 X245.393 Y63.032
G01 X243.449 Y62.039
G01 X241.698 Y60.732
G01 X240.156 Y59.154
G01 X238.922 Y57.343
G01 X238.005 Y55.319
G01 X237.418 Y53.177
G01 X237.195 Y50.936
G01 X237.356 Y48.722
G01 X237.872 Y46.536
G01 X238.759 Y44.457
G01 X239.985 Y42.542
G01 X241.518 Y40.872
G01 X243.294 Y39.432
G01 X245.292 Y38.327
G01 X247.464 Y37.590
G01 X249.737 Y37.200
G01 X252.056 Y37.210
G01 X254.348 Y37.569
G01 X256.535 Y38.326
G01 X258.587 Y39.450
G01 X260.435 Y40.910
G01 X262.011 Y42.648
G01 X263.298 Y44.630
G01 X264.240 Y46.798
G01 X264.804 Y49.120
G01 X264.969 Y51.489
G01 X264.730 Y53.877
G01 X264.108 Y56.188
G01 X263.119 Y58.399
G01 X261.764 Y60.390
G01 X260.091 Y62.146
G01 X258.126 Y63.577
G01 X255.961 Y64.721
G01 X253.648 Y65.461
G01 X251.209 Y65.804
G01 X248.740 Y65.754
G01 X246.316 Y65.262
G01 X243.996 Y64.397
G01 X241.823 Y63.154
G01 X239.902 Y61.570
G01 X238.272 Y59.661
G01 X236.980 Y57.515
G01 X236.039 Y55.175
G01 X235.505 Y52.707
G01 X235.380 Y50.184
G01 X235.703 Y47.654
G01 X236.435 Y45.199
G01 X237.551 Y42.899
G01 X239.042 Y40.812
G01 X240.870 Y38.972
G01 X242.977 Y37.491
G01 X245.313 Y36.376
G01 X247.827 Y35.661
G01 X250.400 Y35.350
G01 X253.017 Y35.471
G01 X255.578 Y36.023
G01 X258.025 Y37.026
G01 X260.262 Y38.424
G01 X262.282 Y40.159
G01 X263.957 Y42.193
G01 X265.288 Y44.518
G01 X266.204 Y47.021
G01 X266.699 Y49.670
G01 X266.753 Y52.359
G01 X266.369 Y55.036
G01 X265.534 Y57.601
G01 X264.269 Y60.010
G01 X262.615 Y62.173
G01 X260.641 Y64.054
G01 X258.371 Y65.590
G01 X255.860 Y66.719
G01 X253.207 Y67.403
G01 X250.449 Y67.651
G01 X247.675 Y67.440
G01 X244.990 Y66.768
G01 X242.432 Y65.680
G01 X240.096 Y64.139
G01 X238.035 Y62.231
G01 X236.310 Y60.018
G01 X234.970 Y57.536
G01 X234.053 Y54.851
G01 X233.605 Y52.053
G01 X233.633 Y49.216
G01 X234.122 Y46.418
G01 X235.073 Y43.714
G01 X236.442 Y41.190
G01 X238.246 Y38.952
G01 X240.403 Y37.041
G01 X242.846 Y35.494
G01 X245.528 Y34.371
G01 X248.348 Y33.681
G01 X251.248 Y33.504
G01 X254.165 Y33.815
G01 X256.995 Y34.614
G01 X259.657 Y35.843
G01 X262.097 Y37.494
G01 X264.219 Y39.555
G01 X265.959 Y41.961
G01 X267.287 Y44.601
G01 X268.168 Y47.463
G01 X268.588 Y50.414
G01 X268.508 Y53.394
G01 X267.898 Y56.350
G01 X266.811 Y59.164
G01 X265.292 Y61.770
G01 X263.347 Y64.078
G01 X261.453 Y65.706
G01 X259.389 Y67.016
G01 X257.277 Y67.995
G01 X255.254 Y68.651
G01 X253.142 Y69.077
G01 X251.385 Y69.255
G01 X250.626 Y69.251
G01 X250.634 Y85.826
G01 X250.552 Y85.826
G01 X248.976 Y85.803
G01 X246.492 Y85.612
G01 X244.013 Y85.309
G01 X241.548 Y84.866
G01 X239.122 Y84.257
G01 X236.731 Y83.528
G01 X234.385 Y82.652
G01 X232.098 Y81.649
G01 X229.881 Y80.490
G01 X227.719 Y79.222
G01 X225.645 Y77.839
G01 X223.658 Y76.336
G01 X221.759 Y74.710
G01 X219.953 Y72.982
G01 X218.241 Y71.148
G01 X216.649 Y69.226
G01 X215.180 Y67.212
G01 X213.820 Y65.107
G01 X212.583 Y62.956
G01 X211.483 Y60.704
G01 X210.496 Y58.405
G01 X209.666 Y56.050
G01 X208.961 Y53.643
G01 X208.390 Y51.208
G01 X207.978 Y48.740
G01 X207.696 Y46.271
G01 X207.564 Y43.771
G01 X207.592 Y41.264
G01 X207.748 Y38.785
G01 X208.051 Y36.303
G01 X208.489 Y33.850
G01 X209.082 Y31.396
G01 X209.804 Y29.026
G01 X210.669 Y26.687
G01 X211.680 Y24.381
G01 X212.803 Y22.167
G01 X214.075 Y19.989
G01 X215.436 Y17.910
G01 X216.957 Y15.921
G01 X218.562 Y14.010
G01 X220.279 Y12.200
G01 X222.107 Y10.494
G01 X224.021 Y8.896
G01 X226.045 Y7.430
G01 X226.939 Y6.791
G01 X228.148 Y6.052
G01 X229.858 Y5.027
G01 X230.307 Y4.789
G01 X231.710 Y4.079
G01 X232.548 Y3.693
G01 X233.869 Y3.076
G01 X235.225 Y2.541
G01 X237.150 Y1.857
G01 X238.425 Y1.444
G01 X239.681 Y1.114
G01 X241.957 Y0.580
G01 X243.845 Y0.226
G01 X247.216 Y0.016
G01 X249.916 Y0.000
G01 X252.816 Y0.016
G01 X255.840 Y0.068
G01 X259.175 Y0.544
G01 X263.563 Y1.670
G01 X267.282 Y3.029
G01 X270.011 Y4.289
G01 X273.441 Y6.224
G01 X276.670 Y8.443
G01 X280.208 Y11.455
G01 X282.675 Y13.976
G01 X285.472 Y17.440
G01 X287.534 Y20.575
G01 X289.132 Y23.480
G01 X290.880 Y27.448
G01 X292.143 Y31.298
G01 X293.010 Y35.137
G01 X293.559 Y39.408
G01 X293.704 Y43.193
G01 X293.373 Y48.055
G01 X292.493 Y52.827
G01 X291.358 Y56.777
G01 X289.819 Y60.641
G01 X288.106 Y63.988
G01 X285.573 Y67.943
G01 X283.330 Y70.773
G01 X280.214 Y74.050
G01 X275.945 Y77.591
G01 X271.956 Y80.163
G01 X267.436 Y82.405
G01 X262.659 Y84.107
G01 X259.783 Y84.839
G01 X256.267 Y85.444
G01 X253.131 Y85.755
G01 X251.554 Y85.807
G01 X249.764 Y85.825
G01 X247.727 Y85.716
G01 X245.882 Y85.552
G01 X242.767 Y85.109
G01 X240.323 Y84.583
G01 X237.675 Y83.831
G01 X235.554 Y83.099
G01 X232.098 Y81.649
G01 X229.881 Y80.490
G01 X226.034 Y78.113
G01 X224.180 Y76.738
G01 X222.095 Y75.011
G01 X219.953 Y72.982
G01 X217.751 Y70.575
G01 X215.516 Y67.683
G01 X213.572 Y64.722
G01 X212.004 Y61.823
G01 X210.496 Y58.405
G01 X209.295 Y54.850
G01 X208.390 Y51.208
G01 X207.829 Y47.520
G01 X207.627 Y45.009
G01 X207.566 Y42.520
G01 X207.874 Y37.536
G01 X208.489 Y33.850
G01 X209.659 Y29.485
G01 X210.381 Y27.398
G01 X211.408 Y24.960
G01 X212.732 Y22.305
G01 X213.792 Y20.438
G01 X214.969 Y18.586
G01 X216.430 Y16.577
G01 X218.292 Y14.323
G01 X220.279 Y12.200
G01 X223.059 Y9.680
G01 X225.042 Y8.159
G01 X227.544 Y6.433
G01 X230.996 Y4.434
G01 X233.869 Y3.076
G01 X236.173 Y2.185
G01 X233.714 Y2.610
G01 X231.718 Y2.850
G01 X230.436 Y3.300
G01 X230.341 Y3.357
G01 X228.164 Y4.569
G01 X226.041 Y5.898
G01 X224.000 Y7.339
G01 X222.043 Y8.890
G01 X220.171 Y10.551
G01 X218.409 Y12.315
G01 X216.736 Y14.185
G01 X215.198 Y16.150
G01 X213.747 Y18.193
G01 X212.428 Y20.303
G01 X211.217 Y22.482
G01 X210.142 Y24.749
G01 X209.192 Y27.054
G01 X208.370 Y29.419
G01 X207.669 Y31.819
G01 X207.136 Y34.267
G01 X206.714 Y36.723
G01 X206.448 Y39.202
G01 X206.314 Y41.707
G01 X206.343 Y44.205
G01 X206.491 Y46.704
G01 X206.768 Y49.176
G01 X207.215 Y51.637
G01 X207.781 Y54.072
G01 X208.482 Y56.479
G01 X209.326 Y58.829
G01 X210.289 Y61.130
G01 X211.404 Y63.374
G01 X212.622 Y65.549
G01 X213.959 Y67.653
G01 X215.427 Y69.685
G01 X217.000 Y71.627
G01 X218.692 Y73.480
G01 X220.460 Y75.229
G01 X222.338 Y76.871
G01 X224.306 Y78.413
G01 X226.361 Y79.834
G01 X228.504 Y81.163
G01 X230.695 Y82.333
G01 X232.958 Y83.394
G01 X235.277 Y84.328
G01 X237.639 Y85.138
G01 X240.048 Y85.801
G01 X242.492 Y86.322
G01 X244.963 Y86.703
G01 X247.451 Y86.970
G01 X249.945 Y87.075
G01 X252.455 Y87.043
G01 X254.938 Y86.875
G01 X257.420 Y86.543
G01 X259.873 Y86.097
G01 X262.304 Y85.510
G01 X264.704 Y84.778
G01 X267.043 Y83.922
G01 X269.342 Y82.941
G01 X271.573 Y81.803
G01 X273.748 Y80.581
G01 X275.840 Y79.219
G01 X277.846 Y77.736
G01 X279.785 Y76.133
G01 X281.612 Y74.449
G01 X283.351 Y72.633
G01 X284.986 Y70.757
G01 X286.505 Y68.765
G01 X287.913 Y66.705
G01 X289.205 Y64.574
G01 X290.377 Y62.370
G01 X291.424 Y60.090
G01 X292.336 Y57.757
G01 X293.102 Y55.391
G01 X293.761 Y52.976
G01 X294.263 Y50.527
G01 X294.623 Y48.046
G01 X294.851 Y45.562
G01 X294.941 Y43.074
G01 X294.896 Y40.558
G01 X294.695 Y38.087
G01 X294.370 Y35.593
G01 X293.883 Y33.145
G01 X293.277 Y30.730
G01 X292.529 Y28.343
G01 X291.658 Y25.990
G01 X290.653 Y23.723
G01 X289.499 Y21.489
G01 X288.236 Y19.322
G01 X286.860 Y17.251
G01 X285.374 Y15.250
G01 X283.755 Y13.320
G01 X282.043 Y11.518
G01 X280.247 Y9.797
G01 X278.340 Y8.180
G01 X276.348 Y6.672
G01 X274.273 Y5.276
G01 X272.117 Y3.992
G01 X270.812 Y3.301
G01 X271.775 Y3.660
G01 X274.065 Y4.627
G01 X276.334 Y5.665
G01 X278.549 Y6.820
G01 X278.896 Y7.012
G01 X280.525 Y8.370
G01 X282.363 Y10.048
G01 X284.110 Y11.855
G01 X285.751 Y13.714
G01 X287.298 Y15.700
G01 X288.711 Y17.754
G01 X290.038 Y19.882
G01 X291.231 Y22.074
G01 X292.294 Y24.329
G01 X293.248 Y26.648
G01 X294.077 Y29.003
G01 X294.757 Y31.410
G01 X295.317 Y33.849
G01 X295.743 Y36.291
G01 X296.028 Y38.782
G01 X296.164 Y41.269
G01 X296.192 Y43.785
G01 X296.064 Y46.268
G01 X295.795 Y48.770
G01 X295.405 Y51.220
G01 X294.868 Y53.661
G01 X294.214 Y56.076
G01 X293.409 Y58.457
G01 X292.489 Y60.761
G01 X291.429 Y63.035
G01 X290.263 Y65.236
G01 X288.973 Y67.387
G01 X287.554 Y69.439
G01 X286.043 Y71.426
G01 X284.412 Y73.320
G01 X282.700 Y75.131
G01 X280.857 Y76.853
G01 X278.947 Y78.450
G01 X276.948 Y79.947
G01 X274.879 Y81.350
G01 X272.730 Y82.611
G01 X270.511 Y83.761
G01 X268.225 Y84.777
G01 X265.899 Y85.692
G01 X263.517 Y86.458
G01 X261.104 Y87.103
G01 X258.658 Y87.606
G01 X256.186 Y87.993
G01 X253.700 Y88.217
G01 X251.207 Y88.330
G01 X248.700 Y88.280
G01 X246.205 Y88.119
G01 X243.730 Y87.796
G01 X241.268 Y87.359
G01 X238.845 Y86.781
G01 X236.438 Y86.060
G01 X234.093 Y85.216
G01 X231.788 Y84.248
G01 X229.537 Y83.150
G01 X227.356 Y81.944
G01 X225.240 Y80.600
G01 X223.212 Y79.162
G01 X221.252 Y77.606
G01 X219.394 Y75.920
G01 X217.614 Y74.158
G01 X215.949 Y72.308
G01 X214.384 Y70.372
G01 X212.924 Y68.345
G01 X211.571 Y66.225
G01 X210.341 Y64.057
G01 X209.233 Y61.815
G01 X208.257 Y59.520
G01 X207.399 Y57.175
G01 X206.665 Y54.777
G01 X206.083 Y52.345
G01 X205.621 Y49.887
G01 X205.308 Y47.421
G01 X205.123 Y44.928
G01 X205.056 Y42.435
G01 X205.152 Y39.934
G01 X205.373 Y37.434
G01 X205.729 Y34.960
G01 X206.222 Y32.512
G01 X206.855 Y30.093
G01 X207.609 Y27.706
G01 X208.513 Y25.374
G01 X209.519 Y23.082
G01 X210.661 Y20.878
G01 X211.930 Y18.712
G01 X213.286 Y16.620
G01 X214.778 Y14.621
G01 X216.380 Y12.695
G01 X218.095 Y10.869
G01 X219.871 Y9.127
G01 X221.757 Y7.489
G01 X222.367 Y7.016
G01 X220.848 Y7.899
G01 X218.733 Y9.222
G01 X216.674 Y10.634
G01 X216.384 Y10.826
G01 X214.962 Y12.445
G01 X213.391 Y14.377
G01 X211.934 Y16.406
G01 X210.587 Y18.506
G01 X209.350 Y20.675
G01 X208.222 Y22.911
G01 X207.226 Y25.208
G01 X206.354 Y27.541
G01 X205.611 Y29.932
G01 X204.989 Y32.356
G01 X204.486 Y34.811
G01 X204.142 Y37.287
G01 X203.906 Y39.769
G01 X203.823 Y42.271
G01 X203.862 Y44.772
G01 X204.034 Y47.245
G01 X204.327 Y49.742
G01 X204.764 Y52.207
G01 X205.341 Y54.639
G01 X206.033 Y57.046
G01 X206.869 Y59.394
G01 X207.805 Y61.695
G01 X208.880 Y63.965
G01 X210.078 Y66.160
G01 X211.376 Y68.285
G01 X212.806 Y70.335
G01 X214.327 Y72.321
G01 X215.950 Y74.218
G01 X217.688 Y76.025
G01 X219.516 Y77.726
G01 X221.420 Y79.352
G01 X223.408 Y80.853
G01 X225.482 Y82.257
G01 X227.622 Y83.547
G01 X229.844 Y84.699
G01 X232.102 Y85.747
G01 X234.433 Y86.690
G01 X236.801 Y87.485
G01 X239.200 Y88.160
G01 X241.631 Y88.692
G01 X244.103 Y89.108
G01 X246.589 Y89.411
G01 X249.080 Y89.553
G01 X251.583 Y89.558
G01 X254.073 Y89.452
G01 X256.558 Y89.209
G01 X259.031 Y88.803
G01 X261.477 Y88.307
G01 X263.893 Y87.643
G01 X266.278 Y86.885
G01 X268.608 Y85.977
G01 X270.882 Y84.966
G01 X273.107 Y83.824
G01 X275.264 Y82.570
G01 X277.355 Y81.202
G01 X279.365 Y79.713
G01 X281.305 Y78.128
G01 X283.139 Y76.435
G01 X284.897 Y74.664
G01 X286.545 Y72.779
G01 X288.106 Y70.833
G01 X289.546 Y68.790
G01 X290.872 Y66.676
G01 X292.100 Y64.492
G01 X293.200 Y62.256
G01 X294.173 Y59.941
G01 X295.022 Y57.597
G01 X295.767 Y55.204
G01 X296.359 Y52.775
G01 X296.831 Y50.318
G01 X297.174 Y47.856
G01 X297.368 Y45.361
G01 X297.444 Y42.864
G01 X297.378 Y40.362
G01 X297.186 Y37.859
G01 X296.859 Y35.381
G01 X296.395 Y32.928
G01 X295.812 Y30.505
G01 X295.087 Y28.109
G01 X294.260 Y25.751
G01 X293.280 Y23.447
G01 X292.192 Y21.208
G01 X290.972 Y19.031
G01 X289.668 Y16.901
G01 X288.227 Y14.862
G01 X286.675 Y12.895
G01 X285.037 Y11.005
G01 X284.867 Y10.828
G01 X286.683 Y12.213
G01 X288.620 Y13.786
G01 X289.695 Y14.751
G01 X290.297 Y15.614
G01 X291.662 Y17.706
G01 X292.911 Y19.892
G01 X294.031 Y22.115
G01 X295.042 Y24.402
G01 X295.948 Y26.729
G01 X296.704 Y29.108
G01 X297.358 Y31.524
G01 X297.892 Y33.970
G01 X298.265 Y36.436
G01 X298.549 Y38.911
G01 X298.679 Y41.405
G01 X298.685 Y43.897
G01 X298.564 Y46.412
G01 X298.311 Y48.897
G01 X297.932 Y51.351
G01 X297.404 Y53.795
G01 X296.778 Y56.216
G01 X296.000 Y58.600
G01 X295.120 Y60.934
G01 X294.116 Y63.240
G01 X292.986 Y65.466
G01 X291.749 Y67.643
G01 X290.414 Y69.750
G01 X288.954 Y71.757
G01 X287.399 Y73.724
G01 X285.728 Y75.597
G01 X283.983 Y77.363
G01 X282.145 Y79.046
G01 X280.216 Y80.649
G01 X278.206 Y82.128
G01 X276.111 Y83.510
G01 X273.968 Y84.779
G01 X271.744 Y85.935
G01 X269.468 Y86.983
G01 X267.142 Y87.904
G01 X264.778 Y88.701
G01 X262.370 Y89.376
G01 X259.933 Y89.908
G01 X257.472 Y90.325
G01 X254.984 Y90.628
G01 X252.494 Y90.795
G01 X249.994 Y90.825
G01 X247.493 Y90.720
G01 X245.016 Y90.503
G01 X242.540 Y90.149
G01 X240.088 Y89.656
G01 X237.657 Y89.048
G01 X235.271 Y88.294
G01 X232.928 Y87.444
G01 X230.624 Y86.469
G01 X228.386 Y85.363
G01 X226.199 Y84.149
G01 X224.077 Y82.823
G01 X222.041 Y81.403
G01 X220.070 Y79.863
G01 X218.185 Y78.221
G01 X216.370 Y76.479
G01 X214.667 Y74.649
G01 X213.062 Y72.733
G01 X211.562 Y70.750
G01 X210.150 Y68.677
G01 X208.856 Y66.557
G01 X207.675 Y64.338
G01 X206.604 Y62.070
G01 X205.673 Y59.771
G01 X204.835 Y57.400
G01 X204.153 Y55.017
G01 X203.581 Y52.584
G01 X203.129 Y50.122
G01 X202.801 Y47.631
G01 X202.607 Y45.135
G01 X202.558 Y42.658
G01 X202.626 Y40.156
G01 X202.840 Y37.649
G01 X203.168 Y35.170
G01 X203.612 Y32.722
G01 X204.197 Y30.299
G01 X204.924 Y27.903
G01 X205.753 Y25.545
G01 X206.706 Y23.221
G01 X207.773 Y20.985
G01 X208.968 Y18.788
G01 X210.268 Y16.633
G01 X211.547 Y14.772
G01 X211.399 Y14.898
G01 X209.594 Y16.622
G01 X207.852 Y18.429
G01 X207.536 Y18.792
G01 X206.581 Y20.572
G01 X205.526 Y22.838
G01 X204.574 Y25.143
G01 X203.726 Y27.486
G01 X203.007 Y29.886
G01 X202.431 Y32.312
G01 X201.953 Y34.773
G01 X201.614 Y37.258
G01 X201.404 Y39.743
G01 X201.321 Y42.226
G01 X201.346 Y44.737
G01 X201.511 Y47.242
G01 X201.807 Y49.717
G01 X202.213 Y52.190
G01 X202.761 Y54.630
G01 X203.420 Y57.017
G01 X204.197 Y59.401
G01 X205.115 Y61.727
G01 X206.129 Y64.004
G01 X207.255 Y66.231
G01 X208.507 Y68.405
G01 X209.856 Y70.510
G01 X211.315 Y72.543
G01 X212.877 Y74.483
G01 X214.524 Y76.362
G01 X216.284 Y78.151
G01 X218.114 Y79.837
G01 X220.035 Y81.443
G01 X222.040 Y82.949
G01 X224.108 Y84.336
G01 X226.244 Y85.633
G01 X228.460 Y86.815
G01 X230.707 Y87.869
G01 X233.024 Y88.817
G01 X235.379 Y89.665
G01 X237.774 Y90.367
G01 X240.200 Y90.952
G01 X242.663 Y91.420
G01 X245.135 Y91.775
G01 X247.624 Y91.993
G01 X250.121 Y92.075
G01 X252.616 Y92.047
G01 X255.120 Y91.858
G01 X257.604 Y91.582
G01 X260.062 Y91.168
G01 X262.500 Y90.614
G01 X264.920 Y89.969
G01 X267.284 Y89.176
G01 X269.611 Y88.260
G01 X271.902 Y87.242
G01 X274.126 Y86.116
G01 X276.285 Y84.879
G01 X278.398 Y83.530
G01 X280.415 Y82.057
G01 X282.383 Y80.490
G01 X284.244 Y78.842
G01 X286.035 Y77.090
G01 X287.733 Y75.252
G01 X289.334 Y73.326
G01 X290.830 Y71.331
G01 X292.216 Y69.265
G01 X293.506 Y67.129
G01 X294.678 Y64.916
G01 X295.759 Y62.657
G01 X296.707 Y60.342
G01 X297.529 Y57.995
G01 X298.246 Y55.597
G01 X298.829 Y53.166
G01 X299.291 Y50.705
G01 X299.644 Y48.243
G01 X299.847 Y45.744
G01 X299.952 Y43.249
G01 X299.915 Y40.746
G01 X299.747 Y38.265
G01 X299.455 Y35.759
G01 X299.041 Y33.305
G01 X298.486 Y30.875
G01 X297.838 Y28.456
G01 X297.038 Y26.087
G01 X296.136 Y23.756
G01 X295.130 Y21.463
G01 X293.985 Y19.255
G01 X293.741 Y18.776
G01 X295.031 Y20.272
G01 X296.592 Y22.216
G01 X297.136 Y22.915
G01 X297.747 Y24.397
G01 X298.602 Y26.754
G01 X299.333 Y29.143
G01 X299.941 Y31.561
G01 X300.428 Y34.009
G01 X300.818 Y36.489
G01 X301.049 Y38.987
G01 X301.179 Y41.463
G01 X301.172 Y43.985
G01 X301.050 Y46.480
G01 X300.816 Y48.947
G01 X300.441 Y51.432
G01 X299.963 Y53.890
G01 X299.346 Y56.312
G01 X298.614 Y58.706
G01 X297.778 Y61.047
G01 X296.816 Y63.357
G01 X295.741 Y65.614
G01 X294.556 Y67.819
G01 X293.254 Y69.948
G01 X291.869 Y72.034
G01 X290.363 Y74.020
G01 X288.770 Y75.941
G01 X287.093 Y77.800
G01 X285.310 Y79.544
G01 X283.449 Y81.233
G01 X281.510 Y82.793
G01 X279.500 Y84.280
G01 X277.412 Y85.645
G01 X275.259 Y86.919
G01 X273.043 Y88.081
G01 X270.779 Y89.137
G01 X268.465 Y90.088
G01 X266.103 Y90.888
G01 X263.697 Y91.616
G01 X261.280 Y92.203
G01 X258.815 Y92.647
G01 X256.340 Y93.003
G01 X253.852 Y93.222
G01 X251.357 Y93.331
G01 X248.866 Y93.304
G01 X246.370 Y93.142
G01 X243.879 Y92.869
G01 X241.417 Y92.484
G01 X238.961 Y91.960
G01 X236.554 Y91.319
G01 X234.158 Y90.560
G01 X231.819 Y89.703
G01 X229.532 Y88.719
G01 X227.275 Y87.607
G01 X225.102 Y86.409
G01 X222.976 Y85.100
G01 X220.912 Y83.674
G01 X218.930 Y82.151
G01 X217.014 Y80.530
G01 X215.188 Y78.829
G01 X213.454 Y77.044
G01 X211.810 Y75.147
G01 X210.256 Y73.212
G01 X208.797 Y71.160
G01 X207.437 Y69.064
G01 X206.191 Y66.893
G01 X205.052 Y64.673
G01 X204.025 Y62.402
G01 X203.113 Y60.077
G01 X202.321 Y57.698
G01 X201.641 Y55.290
G01 X201.078 Y52.854
G01 X200.642 Y50.413
G01 X200.325 Y47.916
G01 X200.128 Y45.442
G01 X200.065 Y42.936
G01 X200.104 Y40.433
G01 X200.296 Y37.947
G01 X200.596 Y35.465
G01 X201.007 Y32.987
G01 X201.565 Y30.557
G01 X202.216 Y28.137
G01 X202.996 Y25.774
G01 X203.901 Y23.443
G01 X204.124 Y22.913
G01 X202.982 Y24.474
G01 X201.595 Y26.558
G01 X201.211 Y27.153
G01 X200.707 Y28.878
G01 X200.097 Y31.296
G01 X199.608 Y33.744
G01 X199.237 Y36.219
G01 X198.976 Y38.698
G01 X198.830 Y41.204
G01 X198.823 Y43.677
G01 X198.923 Y46.177
G01 X199.142 Y48.674
G01 X199.496 Y51.164
G01 X199.948 Y53.602
G01 X200.546 Y56.030
G01 X201.241 Y58.433
G01 X202.046 Y60.808
G01 X202.972 Y63.127
G01 X204.013 Y65.392
G01 X205.164 Y67.605
G01 X206.404 Y69.773
G01 X207.763 Y71.889
G01 X209.227 Y73.909
G01 X210.778 Y75.862
G01 X212.415 Y77.753
G01 X214.145 Y79.555
G01 X215.967 Y81.273
G01 X217.860 Y82.913
G01 X219.830 Y84.426
G01 X221.887 Y85.865
G01 X223.991 Y87.215
G01 X226.172 Y88.448
G01 X228.400 Y89.573
G01 X230.692 Y90.590
G01 X233.016 Y91.482
G01 X235.379 Y92.276
G01 X237.783 Y92.949
G01 X240.218 Y93.530
G01 X242.687 Y93.971
G01 X245.165 Y94.275
G01 X247.646 Y94.493
G01 X250.150 Y94.575
G01 X252.653 Y94.548
G01 X255.147 Y94.385
G01 X257.623 Y94.111
G01 X260.090 Y93.700
G01 X262.535 Y93.175
G01 X264.964 Y92.560
G01 X267.339 Y91.797
G01 X269.690 Y90.939
G01 X271.990 Y89.979
G01 X274.245 Y88.889
G01 X276.437 Y87.689
G01 X278.566 Y86.400
G01 X280.650 Y84.998
G01 X282.655 Y83.497
G01 X284.573 Y81.919
G01 X286.431 Y80.214
G01 X288.193 Y78.450
G01 X289.863 Y76.598
G01 X291.450 Y74.683
G01 X292.937 Y72.674
G01 X294.334 Y70.597
G01 X295.636 Y68.448
G01 X296.815 Y66.245
G01 X297.885 Y63.990
G01 X298.860 Y61.685
G01 X299.711 Y59.349
G01 X300.457 Y56.960
G01 X301.090 Y54.542
G01 X301.603 Y52.092
G01 X301.987 Y49.634
G01 X302.264 Y47.150
G01 X302.403 Y44.656
G01 X302.448 Y42.140
G01 X302.362 Y39.644
G01 X302.143 Y37.169
G01 X301.819 Y34.673
G01 X301.372 Y32.227
G01 X300.788 Y29.781
G01 X300.120 Y27.398
G01 X300.036 Y27.148
G01 X301.184 Y29.077
G01 X302.380 Y31.285
G01 X302.492 Y31.492
G01 X302.922 Y33.705
G01 X303.290 Y36.191
G01 X303.546 Y38.678
G01 X303.673 Y41.162
G01 X303.689 Y43.671
G01 X303.588 Y46.151
G01 X303.361 Y48.651
G01 X303.026 Y51.123
G01 X302.578 Y53.591
G01 X302.009 Y56.026
G01 X301.323 Y58.431
G01 X300.532 Y60.781
G01 X299.625 Y63.127
G01 X298.627 Y65.397
G01 X297.492 Y67.633
G01 X296.269 Y69.821
G01 X294.949 Y71.936
G01 X293.529 Y74.003
G01 X292.009 Y75.974
G01 X290.398 Y77.903
G01 X288.698 Y79.717
G01 X286.920 Y81.472
G01 X285.053 Y83.142
G01 X283.121 Y84.711
G01 X281.105 Y86.202
G01 X279.026 Y87.599
G01 X276.889 Y88.878
G01 X274.689 Y90.069
G01 X272.428 Y91.150
G01 X270.124 Y92.102
G01 X267.782 Y92.979
G01 X265.405 Y93.732
G01 X262.989 Y94.366
G01 X260.543 Y94.883
G01 X258.076 Y95.311
G01 X255.586 Y95.601
G01 X253.095 Y95.756
G01 X250.596 Y95.826
G01 X248.097 Y95.762
G01 X245.608 Y95.587
G01 X243.121 Y95.303
G01 X240.660 Y94.881
G01 X238.220 Y94.345
G01 X235.796 Y93.719
G01 X233.411 Y92.949
G01 X231.080 Y92.079
G01 X228.769 Y91.112
G01 X226.521 Y90.039
G01 X224.320 Y88.858
G01 X222.178 Y87.566
G01 X220.095 Y86.157
G01 X218.096 Y84.675
G01 X216.160 Y83.096
G01 X214.295 Y81.440
G01 X212.513 Y79.676
G01 X210.811 Y77.854
G01 X209.220 Y75.938
G01 X207.691 Y73.937
G01 X206.274 Y71.889
G01 X204.951 Y69.770
G01 X203.724 Y67.578
G01 X202.610 Y65.360
G01 X201.602 Y63.063
G01 X200.698 Y60.741
G01 X199.914 Y58.362
