;  Created by Sandify
;  https://sandify.org
;  Version: 0.2.6
;
;  Machine type: Rectangular
;    Min X (mm): 0
;    Max X (mm): 500
;    Min Y (mm): 0
;    Max Y (mm): 500
;  Content type: shape
;  Layer:
;    Shape: FileImport
;    Name: HexagonAlley.thr
;    From file:: HexagonAlley.thr
;    Aspect Ratio: true
;    Comments: 
;    Visible: true
;    Initial width: 10
;    Initial height: 10
;    X offset: 0
;    Y offset: 0
;    Rotate (degrees): 0
;    Reverse path: false
;    Fine tuning:
;      Connect to next layer: line
;      Draw portion of path (%): 100
;      Backtrack at end (%): 0
;      Rotate starting point (%): 0
;  Reverse export path: false
;
; File name: 'hexagonalley'
; File type: gcode
;

G01 X250.000 Y250.000
G01 X250.011 Y250.232
G01 X250.046 Y250.462
G01 X250.102 Y250.689
G01 X250.181 Y250.911
G01 X250.282 Y251.127
G01 X250.405 Y251.334
G01 X250.548 Y251.531
G01 X250.711 Y251.717
G01 X250.894 Y251.890
G01 X251.095 Y252.049
G01 X251.239 Y252.146
G01 X310.714 Y355.160
G01 X317.958 Y355.400
G01 X325.367 Y355.174
G01 X325.583 Y355.160
G01 X333.946 Y355.463
G01 X342.512 Y355.188
G01 X342.930 Y355.160
G01 X352.810 Y355.429
G01 X360.277 Y355.160
G01 X371.962 Y355.375
G01 X377.624 Y355.160
G01 X391.525 Y355.395
G01 X397.449 Y355.160
G01 X414.259 Y355.387
G01 X419.752 Y355.160
G01 X432.143 Y355.160
G01 X437.571 Y346.347
G01 X442.571 Y337.253
G01 X443.294 Y335.845
G01 X448.824 Y326.856
G01 X453.933 Y317.530
G01 X454.446 Y316.530
G01 X460.195 Y307.161
G01 X465.510 Y297.386
G01 X465.598 Y297.215
G01 X471.683 Y287.256
G01 X476.749 Y277.900
G01 X483.285 Y267.140
G01 X487.901 Y258.585
G01 X492.857 Y250.000
G01 X486.464 Y238.383
G01 X481.706 Y230.685
G01 X475.842 Y219.956
G01 X470.554 Y211.370
G01 X465.101 Y201.339
G01 X459.402 Y192.055
G01 X454.244 Y182.531
G01 X448.661 Y173.372
G01 X448.251 Y172.739
G01 X443.273 Y163.529
G01 X437.871 Y154.620
G01 X437.099 Y153.424
G01 X432.143 Y144.840
G01 X413.330 Y144.691
G01 X409.840 Y144.840
G01 X394.161 Y144.668
G01 X390.015 Y144.840
G01 X376.890 Y144.573
G01 X370.190 Y144.840
G01 X359.156 Y144.601
G01 X352.843 Y144.840
G01 X343.452 Y144.555
G01 X335.496 Y144.840
G01 X327.474 Y144.528
G01 X319.634 Y144.740
G01 X318.149 Y144.840
G01 X311.045 Y144.829
G01 X310.714 Y144.840
G01 X251.239 Y247.854
G01 X251.085 Y247.887
G01 X250.938 Y247.929
G01 X250.798 Y247.981
G01 X250.665 Y248.041
G01 X250.540 Y248.109
G01 X250.423 Y248.185
G01 X250.315 Y248.267
G01 X250.217 Y248.355
G01 X250.127 Y248.449
G01 X250.048 Y248.547
G01 X249.978 Y248.648
G01 X249.918 Y248.753
G01 X249.869 Y248.861
G01 X249.830 Y248.969
G01 X249.801 Y249.079
G01 X249.783 Y249.189
G01 X249.774 Y249.298
G01 X249.776 Y249.406
G01 X249.788 Y249.511
G01 X249.810 Y249.614
G01 X249.841 Y249.713
G01 X249.881 Y249.809
G01 X249.930 Y249.899
G01 X249.987 Y249.984
G01 X250.000 Y250.000
G01 X249.975 Y249.964
G01 X249.953 Y249.926
G01 X249.935 Y249.885
G01 X249.920 Y249.843
G01 X249.910 Y249.799
G01 X249.904 Y249.753
G01 X249.903 Y249.707
G01 X249.905 Y249.660
G01 X249.912 Y249.613
G01 X249.924 Y249.566
G01 X249.940 Y249.519
G01 X249.960 Y249.472
G01 X249.985 Y249.427
G01 X250.014 Y249.383
G01 X250.048 Y249.340
G01 X250.085 Y249.300
G01 X250.127 Y249.261
G01 X250.173 Y249.225
G01 X250.222 Y249.192
G01 X250.275 Y249.162
G01 X250.332 Y249.136
G01 X250.392 Y249.112
G01 X250.454 Y249.093
G01 X250.520 Y249.078
G01 X250.588 Y249.068
G01 X250.659 Y249.062
G01 X250.731 Y249.060
G01 X250.805 Y249.064
G01 X250.880 Y249.072
G01 X250.957 Y249.086
G01 X251.034 Y249.105
G01 X251.111 Y249.130
G01 X251.188 Y249.160
G01 X251.265 Y249.196
G01 X251.342 Y249.237
G01 X251.417 Y249.284
G01 X251.490 Y249.336
G01 X251.562 Y249.394
G01 X251.632 Y249.458
G01 X251.699 Y249.527
G01 X251.763 Y249.601
G01 X251.824 Y249.680
G01 X251.881 Y249.765
G01 X251.935 Y249.854
G01 X251.984 Y249.948
G01 X252.028 Y250.046
G01 X252.067 Y250.149
G01 X252.101 Y250.256
G01 X252.129 Y250.366
G01 X252.152 Y250.479
G01 X252.168 Y250.596
G01 X252.178 Y250.716
G01 X252.182 Y250.837
G01 X252.178 Y250.961
G01 X252.168 Y251.087
G01 X252.151 Y251.213
G01 X252.146 Y251.239
G01 X355.160 Y310.714
G01 X361.553 Y307.300
G01 X367.856 Y303.400
G01 X368.037 Y303.280
G01 X375.431 Y299.361
G01 X382.712 Y294.840
G01 X383.060 Y294.606
G01 X391.751 Y289.899
G01 X398.083 Y285.933
G01 X408.310 Y280.276
G01 X413.106 Y277.259
G01 X425.262 Y270.513
G01 X430.275 Y267.347
G01 X444.945 Y259.138
G01 X449.590 Y256.195
G01 X460.320 Y250.000
G01 X460.614 Y239.653
G01 X460.398 Y229.278
G01 X460.320 Y227.697
G01 X460.615 Y217.148
G01 X460.377 Y206.516
G01 X460.320 Y205.394
G01 X460.615 Y194.405
G01 X460.330 Y183.282
G01 X460.320 Y183.090
G01 X460.611 Y171.423
G01 X460.320 Y160.787
G01 X460.601 Y148.201
G01 X460.320 Y138.484
G01 X460.320 Y128.571
G01 X448.976 Y121.707
G01 X441.005 Y117.420
G01 X430.563 Y111.060
G01 X421.690 Y106.268
G01 X411.952 Y100.308
G01 X402.375 Y95.117
G01 X393.146 Y89.448
G01 X383.731 Y84.308
G01 X383.060 Y83.965
G01 X374.144 Y78.477
G01 X365.011 Y73.463
G01 X363.745 Y72.813
G01 X355.160 Y67.857
G01 X338.793 Y77.135
G01 X335.845 Y79.009
G01 X322.181 Y86.700
G01 X318.676 Y88.921
G01 X307.177 Y95.253
G01 X301.507 Y98.834
G01 X291.832 Y104.143
G01 X286.484 Y107.507
G01 X278.209 Y111.956
G01 X271.461 Y116.181
G01 X264.358 Y119.921
G01 X257.675 Y124.026
G01 X256.438 Y124.854
G01 X250.281 Y128.397
G01 X250.000 Y128.571
G01 X250.000 Y247.522
G01 X250.119 Y247.580
G01 X250.232 Y247.643
G01 X250.339 Y247.712
G01 X250.441 Y247.785
G01 X250.535 Y247.863
G01 X250.624 Y247.944
G01 X250.705 Y248.029
G01 X250.780 Y248.117
G01 X250.848 Y248.207
G01 X250.909 Y248.299
G01 X250.963 Y248.393
G01 X251.010 Y248.488
G01 X251.051 Y248.583
G01 X251.084 Y248.679
G01 X251.111 Y248.774
G01 X251.131 Y248.869
G01 X251.144 Y248.963
G01 X251.151 Y249.055
G01 X251.152 Y249.146
G01 X251.147 Y249.234
G01 X251.136 Y249.319
G01 X251.119 Y249.402
G01 X251.098 Y249.481
G01 X251.071 Y249.556
G01 X251.040 Y249.628
G01 X251.004 Y249.695
G01 X250.965 Y249.758
G01 X250.922 Y249.817
G01 X250.875 Y249.870
G01 X250.826 Y249.919
G01 X250.774 Y249.962
G01 X250.720 Y250.000
G01 X250.664 Y250.033
G01 X250.607 Y250.060
G01 X250.549 Y250.081
G01 X250.491 Y250.098
G01 X250.432 Y250.108
G01 X250.373 Y250.113
G01 X250.316 Y250.113
G01 X250.259 Y250.107
G01 X250.204 Y250.096
G01 X250.150 Y250.080
G01 X250.099 Y250.059
G01 X250.050 Y250.034
G01 X250.005 Y250.003
G01 X250.000 Y250.000
G01 X250.157 Y250.106
G01 X250.323 Y250.196
G01 X250.499 Y250.270
G01 X250.682 Y250.327
G01 X250.872 Y250.366
G01 X251.067 Y250.388
G01 X251.265 Y250.391
G01 X251.466 Y250.375
G01 X251.668 Y250.340
G01 X251.869 Y250.287
G01 X252.069 Y250.214
G01 X252.266 Y250.123
G01 X252.459 Y250.012
G01 X252.478 Y250.000
G01 X371.429 Y250.000
G01 X375.258 Y243.846
G01 X378.766 Y237.318
G01 X378.863 Y237.123
G01 X383.307 Y230.032
G01 X387.352 Y222.476
G01 X387.536 Y222.100
G01 X392.709 Y213.678
G01 X396.210 Y207.077
G01 X402.239 Y197.065
G01 X404.883 Y192.055
G01 X412.037 Y180.134
G01 X414.796 Y174.886
G01 X423.397 Y160.441
G01 X425.948 Y155.570
G01 X432.143 Y144.840
G01 X427.224 Y135.732
G01 X421.849 Y126.855
G01 X420.991 Y125.525
G01 X415.972 Y116.242
G01 X410.450 Y107.154
G01 X409.840 Y106.209
G01 X404.600 Y96.546
G01 X398.793 Y87.055
G01 X398.688 Y86.894
G01 X393.106 Y76.645
G01 X387.536 Y67.579
G01 X381.486 Y56.539
G01 X376.385 Y48.264
G01 X371.429 Y39.680
G01 X358.172 Y39.407
G01 X349.125 Y39.680
G01 X336.902 Y39.393
G01 X326.822 Y39.680
G01 X315.409 Y39.387
G01 X304.519 Y39.680
G01 X293.692 Y39.385
G01 X282.969 Y39.641
G01 X282.216 Y39.680
G01 X271.750 Y39.385
G01 X261.334 Y39.609
G01 X259.913 Y39.680
G01 X250.000 Y39.680
G01 X240.464 Y55.898
G01 X238.848 Y58.995
G01 X230.861 Y72.487
G01 X228.936 Y76.164
G01 X222.143 Y87.397
G01 X219.023 Y93.333
G01 X213.299 Y102.768
G01 X210.350 Y108.356
G01 X205.407 Y116.346
G01 X201.676 Y123.379
G01 X197.395 Y130.170
G01 X193.659 Y137.066
G01 X193.003 Y138.401
G01 X189.442 Y144.548
G01 X189.286 Y144.840
G01 X248.761 Y247.854
G01 X248.692 Y247.971
G01 X248.632 Y248.090
G01 X248.579 Y248.210
G01 X248.536 Y248.330
G01 X248.500 Y248.450
G01 X248.473 Y248.570
G01 X248.454 Y248.688
G01 X248.442 Y248.805
G01 X248.439 Y248.919
G01 X248.442 Y249.031
G01 X248.453 Y249.140
G01 X248.470 Y249.246
G01 X248.494 Y249.347
G01 X248.524 Y249.444
G01 X248.560 Y249.537
G01 X248.601 Y249.625
G01 X248.647 Y249.708
G01 X248.698 Y249.785
G01 X248.753 Y249.857
G01 X248.812 Y249.922
G01 X248.874 Y249.982
G01 X248.938 Y250.035
G01 X249.005 Y250.082
G01 X249.074 Y250.122
G01 X249.145 Y250.156
G01 X249.216 Y250.183
G01 X249.288 Y250.203
G01 X249.360 Y250.217
G01 X249.431 Y250.225
G01 X249.501 Y250.226
G01 X249.570 Y250.221
G01 X249.637 Y250.209
G01 X249.702 Y250.192
G01 X249.764 Y250.169
G01 X249.823 Y250.140
G01 X249.879 Y250.106
G01 X249.930 Y250.067
G01 X249.978 Y250.024
G01 X250.000 Y250.000
G01 X249.973 Y250.034
G01 X249.949 Y250.070
G01 X249.929 Y250.108
G01 X249.913 Y250.149
G01 X249.900 Y250.191
G01 X249.891 Y250.235
G01 X249.887 Y250.280
G01 X249.887 Y250.326
G01 X249.891 Y250.372
G01 X249.899 Y250.419
G01 X249.911 Y250.466
G01 X249.928 Y250.512
G01 X249.950 Y250.558
G01 X249.976 Y250.603
G01 X250.005 Y250.647
G01 X250.040 Y250.688
G01 X250.078 Y250.729
G01 X250.120 Y250.766
G01 X250.167 Y250.802
G01 X250.217 Y250.834
G01 X250.270 Y250.864
G01 X250.327 Y250.890
G01 X250.387 Y250.913
G01 X250.450 Y250.931
G01 X250.516 Y250.946
G01 X250.584 Y250.956
G01 X250.655 Y250.962
G01 X250.727 Y250.963
G01 X250.801 Y250.959
G01 X250.876 Y250.951
G01 X250.953 Y250.937
G01 X251.030 Y250.918
G01 X251.107 Y250.893
G01 X251.184 Y250.863
G01 X251.261 Y250.827
G01 X251.338 Y250.786
G01 X251.413 Y250.740
G01 X251.487 Y250.688
G01 X251.558 Y250.630
G01 X251.628 Y250.567
G01 X251.695 Y250.499
G01 X251.760 Y250.425
G01 X251.821 Y250.346
G01 X251.878 Y250.262
G01 X251.932 Y250.174
G01 X251.981 Y250.080
G01 X252.026 Y249.983
G01 X252.065 Y249.881
G01 X252.100 Y249.775
G01 X252.129 Y249.666
G01 X252.152 Y249.553
G01 X252.169 Y249.437
G01 X252.180 Y249.318
G01 X252.185 Y249.197
G01 X252.182 Y249.074
G01 X252.173 Y248.950
G01 X252.157 Y248.824
G01 X252.146 Y248.761
G01 X355.160 Y189.286
G01 X355.400 Y182.042
G01 X355.174 Y174.633
G01 X355.160 Y174.417
G01 X355.463 Y166.054
G01 X355.188 Y157.488
G01 X355.160 Y157.070
G01 X355.429 Y147.190
G01 X355.160 Y139.723
G01 X355.375 Y128.038
G01 X355.160 Y122.376
G01 X355.395 Y108.475
G01 X355.160 Y102.551
G01 X355.387 Y85.741
G01 X355.160 Y80.248
G01 X355.160 Y67.857
G01 X346.347 Y62.429
G01 X337.253 Y57.429
G01 X335.845 Y56.706
G01 X326.856 Y51.176
G01 X317.530 Y46.067
G01 X316.530 Y45.554
G01 X307.161 Y39.805
G01 X297.386 Y34.490
G01 X297.215 Y34.402
G01 X287.256 Y28.317
G01 X277.900 Y23.251
G01 X267.140 Y16.715
G01 X258.585 Y12.099
G01 X250.000 Y7.143
G01 X238.383 Y13.536
G01 X230.685 Y18.294
G01 X219.956 Y24.158
G01 X211.370 Y29.446
G01 X201.339 Y34.899
G01 X192.055 Y40.598
G01 X182.531 Y45.756
G01 X173.372 Y51.339
G01 X172.739 Y51.749
G01 X163.529 Y56.727
G01 X154.620 Y62.129
G01 X153.424 Y62.901
G01 X144.840 Y67.857
G01 X144.691 Y86.670
G01 X144.840 Y90.160
G01 X144.668 Y105.839
G01 X144.840 Y109.985
G01 X144.573 Y123.110
G01 X144.840 Y129.810
G01 X144.601 Y140.844
G01 X144.840 Y147.157
G01 X144.555 Y156.548
G01 X144.840 Y164.504
G01 X144.528 Y172.526
G01 X144.740 Y180.366
G01 X144.840 Y181.851
G01 X144.829 Y188.955
G01 X144.840 Y189.286
G01 X247.854 Y248.761
G01 X247.961 Y248.953
G01 X248.082 Y249.131
G01 X248.215 Y249.295
G01 X248.359 Y249.443
G01 X248.513 Y249.575
G01 X248.676 Y249.691
G01 X248.845 Y249.790
G01 X249.021 Y249.871
G01 X249.202 Y249.935
G01 X249.386 Y249.980
G01 X249.572 Y250.007
G01 X249.759 Y250.016
G01 X249.945 Y250.006
G01 X250.000 Y250.000
G01 X249.971 Y250.005
G01 X249.942 Y250.014
G01 X249.914 Y250.025
G01 X249.886 Y250.038
G01 X249.861 Y250.055
G01 X249.836 Y250.074
G01 X249.813 Y250.096
G01 X249.792 Y250.119
G01 X249.773 Y250.146
G01 X249.756 Y250.174
G01 X249.741 Y250.204
G01 X249.729 Y250.237
G01 X249.720 Y250.270
G01 X249.713 Y250.306
G01 X249.709 Y250.342
G01 X249.707 Y250.380
G01 X249.709 Y250.418
G01 X249.714 Y250.458
G01 X249.723 Y250.497
G01 X249.734 Y250.537
G01 X249.749 Y250.577
G01 X249.767 Y250.617
G01 X249.788 Y250.656
G01 X249.813 Y250.694
G01 X249.841 Y250.732
G01 X249.872 Y250.768
G01 X249.906 Y250.804
G01 X249.944 Y250.837
G01 X249.984 Y250.869
G01 X250.028 Y250.899
G01 X250.074 Y250.926
G01 X250.123 Y250.951
G01 X250.175 Y250.973
G01 X250.230 Y250.993
G01 X250.286 Y251.009
G01 X250.345 Y251.022
G01 X250.406 Y251.032
G01 X250.468 Y251.038
G01 X250.532 Y251.040
G01 X250.597 Y251.039
G01 X250.664 Y251.034
G01 X250.731 Y251.024
G01 X250.799 Y251.011
G01 X250.868 Y250.993
G01 X250.936 Y250.971
G01 X251.004 Y250.944
G01 X251.072 Y250.913
G01 X251.140 Y250.878
G01 X251.206 Y250.838
G01 X251.271 Y250.793
G01 X251.334 Y250.745
G01 X251.396 Y250.692
G01 X251.456 Y250.634
G01 X251.513 Y250.573
G01 X251.568 Y250.507
G01 X251.620 Y250.437
G01 X251.669 Y250.364
G01 X251.714 Y250.286
G01 X251.756 Y250.205
G01 X251.794 Y250.121
G01 X251.828 Y250.033
G01 X251.857 Y249.942
G01 X251.882 Y249.849
G01 X251.902 Y249.753
G01 X251.917 Y249.655
G01 X251.927 Y249.554
G01 X251.931 Y249.452
G01 X251.931 Y249.348
G01 X251.924 Y249.244
G01 X251.912 Y249.138
G01 X251.894 Y249.031
G01 X251.870 Y248.925
G01 X251.840 Y248.818
G01 X251.805 Y248.712
G01 X251.763 Y248.606
G01 X251.715 Y248.502
G01 X251.661 Y248.398
G01 X251.601 Y248.297
G01 X251.535 Y248.198
G01 X251.463 Y248.101
G01 X251.385 Y248.007
G01 X251.301 Y247.916
G01 X251.239 Y247.854
G01 X310.714 Y144.840
G01 X307.300 Y138.447
G01 X303.400 Y132.144
G01 X303.280 Y131.963
G01 X299.361 Y124.569
G01 X294.840 Y117.288
G01 X294.606 Y116.940
G01 X289.899 Y108.249
G01 X285.933 Y101.917
G01 X280.276 Y91.690
G01 X277.259 Y86.894
G01 X270.513 Y74.738
G01 X267.347 Y69.725
G01 X259.138 Y55.055
G01 X256.195 Y50.410
G01 X250.000 Y39.680
G01 X239.653 Y39.386
G01 X229.278 Y39.602
G01 X227.697 Y39.680
G01 X217.148 Y39.385
G01 X206.516 Y39.623
G01 X205.394 Y39.680
G01 X194.405 Y39.385
G01 X183.282 Y39.670
G01 X183.090 Y39.680
G01 X171.423 Y39.389
G01 X160.787 Y39.680
G01 X148.201 Y39.399
G01 X138.484 Y39.680
G01 X128.571 Y39.680
G01 X121.707 Y51.024
G01 X117.420 Y58.995
G01 X111.060 Y69.437
G01 X106.268 Y78.310
G01 X100.308 Y88.048
G01 X95.117 Y97.625
G01 X89.448 Y106.854
G01 X84.308 Y116.269
G01 X83.965 Y116.940
G01 X78.477 Y125.856
G01 X73.463 Y134.989
G01 X72.813 Y136.255
G01 X67.857 Y144.840
G01 X77.135 Y161.207
G01 X79.009 Y164.155
G01 X86.700 Y177.819
G01 X88.921 Y181.324
G01 X95.253 Y192.823
G01 X98.834 Y198.493
G01 X104.143 Y208.168
G01 X107.507 Y213.516
G01 X111.956 Y221.791
G01 X116.181 Y228.539
G01 X119.921 Y235.642
G01 X124.026 Y242.325
G01 X124.854 Y243.562
G01 X128.397 Y249.719
G01 X128.571 Y250.000
G01 X247.522 Y250.000
G01 X247.754 Y250.110
G01 X247.990 Y250.198
G01 X248.229 Y250.263
G01 X248.468 Y250.305
G01 X248.707 Y250.324
G01 X248.944 Y250.320
G01 X249.177 Y250.295
G01 X249.404 Y250.247
G01 X249.624 Y250.178
G01 X249.835 Y250.088
G01 X250.000 Y250.000
G01 X249.949 Y250.027
G01 X249.895 Y250.049
G01 X249.839 Y250.065
G01 X249.781 Y250.076
G01 X249.722 Y250.081
G01 X249.662 Y250.081
G01 X249.602 Y250.075
G01 X249.541 Y250.064
G01 X249.481 Y250.046
G01 X249.422 Y250.023
G01 X249.363 Y249.994
G01 X249.307 Y249.960
G01 X249.252 Y249.919
G01 X249.200 Y249.874
G01 X249.150 Y249.823
G01 X249.104 Y249.767
G01 X249.061 Y249.706
G01 X249.022 Y249.640
G01 X248.988 Y249.570
G01 X248.958 Y249.496
G01 X248.933 Y249.417
G01 X248.914 Y249.335
G01 X248.900 Y249.250
G01 X248.892 Y249.162
G01 X248.890 Y249.072
G01 X248.894 Y248.979
G01 X248.905 Y248.885
G01 X248.923 Y248.789
G01 X248.947 Y248.693
G01 X248.978 Y248.596
G01 X249.017 Y248.499
G01 X249.062 Y248.403
G01 X249.115 Y248.307
G01 X249.175 Y248.213
G01 X249.242 Y248.121
G01 X249.316 Y248.032
G01 X249.397 Y247.945
G01 X249.485 Y247.862
G01 X249.580 Y247.782
G01 X249.681 Y247.707
G01 X249.789 Y247.636
G01 X249.903 Y247.571
G01 X250.000 Y247.522
G01 X250.000 Y128.571
G01 X243.846 Y124.742
G01 X237.318 Y121.234
G01 X237.123 Y121.137
G01 X230.032 Y116.693
G01 X222.476 Y112.648
G01 X222.100 Y112.464
G01 X213.678 Y107.291
G01 X207.077 Y103.790
G01 X197.065 Y97.761
G01 X192.055 Y95.117
G01 X180.134 Y87.963
G01 X174.886 Y85.204
G01 X160.441 Y76.603
G01 X155.570 Y74.052
G01 X144.840 Y67.857
G01 X135.732 Y72.776
G01 X126.855 Y78.151
G01 X125.525 Y79.009
G01 X116.242 Y84.028
G01 X107.154 Y89.550
G01 X106.209 Y90.160
G01 X96.546 Y95.400
G01 X87.055 Y101.207
G01 X86.894 Y101.312
G01 X76.645 Y106.894
G01 X67.579 Y112.464
G01 X56.539 Y118.514
G01 X48.264 Y123.615
G01 X39.680 Y128.571
G01 X39.407 Y141.828
G01 X39.680 Y150.875
G01 X39.393 Y163.098
G01 X39.680 Y173.178
G01 X39.387 Y184.591
G01 X39.680 Y195.481
G01 X39.385 Y206.308
G01 X39.641 Y217.031
G01 X39.680 Y217.784
G01 X39.385 Y228.250
G01 X39.609 Y238.666
G01 X39.680 Y240.087
G01 X39.680 Y250.000
G01 X55.898 Y259.536
G01 X58.995 Y261.152
G01 X72.487 Y269.139
G01 X76.164 Y271.064
G01 X87.397 Y277.857
G01 X93.333 Y280.977
G01 X102.768 Y286.701
G01 X108.356 Y289.650
G01 X116.346 Y294.593
G01 X123.379 Y298.324
G01 X130.170 Y302.605
G01 X137.066 Y306.341
G01 X138.401 Y306.997
G01 X144.548 Y310.558
G01 X144.840 Y310.714
G01 X247.854 Y251.239
G01 X248.085 Y251.235
G01 X248.310 Y251.211
G01 X248.527 Y251.169
G01 X248.736 Y251.108
G01 X248.935 Y251.031
G01 X249.123 Y250.936
G01 X249.299 Y250.826
G01 X249.462 Y250.701
G01 X249.610 Y250.563
G01 X249.744 Y250.412
G01 X249.861 Y250.250
G01 X249.961 Y250.078
G01 X250.000 Y250.000
G01 X249.974 Y250.049
G01 X249.943 Y250.096
G01 X249.908 Y250.140
G01 X249.868 Y250.180
G01 X249.824 Y250.216
G01 X249.777 Y250.249
G01 X249.725 Y250.277
G01 X249.671 Y250.301
G01 X249.614 Y250.320
G01 X249.554 Y250.334
G01 X249.492 Y250.343
G01 X249.428 Y250.347
G01 X249.362 Y250.345
G01 X249.296 Y250.337
G01 X249.229 Y250.324
G01 X249.161 Y250.305
G01 X249.094 Y250.280
G01 X249.028 Y250.249
G01 X248.962 Y250.212
G01 X248.898 Y250.169
G01 X248.835 Y250.121
G01 X248.775 Y250.066
G01 X248.717 Y250.007
G01 X248.663 Y249.941
G01 X248.612 Y249.870
G01 X248.565 Y249.795
G01 X248.522 Y249.714
G01 X248.483 Y249.628
G01 X248.450 Y249.538
G01 X248.422 Y249.444
G01 X248.399 Y249.347
G01 X248.383 Y249.245
G01 X248.373 Y249.141
G01 X248.369 Y249.034
G01 X248.372 Y248.924
G01 X248.381 Y248.812
G01 X248.398 Y248.699
G01 X248.423 Y248.585
G01 X248.454 Y248.470
G01 X248.494 Y248.355
G01 X248.540 Y248.240
G01 X248.595 Y248.126
G01 X248.658 Y248.013
G01 X248.728 Y247.902
G01 X248.761 Y247.854
G01 X189.286 Y144.840
G01 X182.042 Y144.600
G01 X174.633 Y144.826
G01 X174.417 Y144.840
G01 X166.054 Y144.537
G01 X157.488 Y144.812
G01 X157.070 Y144.840
G01 X147.190 Y144.571
G01 X139.723 Y144.840
G01 X128.038 Y144.625
G01 X122.376 Y144.840
G01 X108.475 Y144.605
G01 X102.551 Y144.840
G01 X85.741 Y144.613
G01 X80.248 Y144.840
G01 X67.857 Y144.840
G01 X62.429 Y153.653
G01 X57.429 Y162.747
G01 X56.706 Y164.155
G01 X51.176 Y173.144
G01 X46.067 Y182.470
G01 X45.554 Y183.470
G01 X39.805 Y192.839
G01 X34.490 Y202.614
G01 X34.402 Y202.785
G01 X28.317 Y212.744
G01 X23.251 Y222.100
G01 X16.715 Y232.860
G01 X12.099 Y241.415
G01 X7.143 Y250.000
G01 X13.536 Y261.617
G01 X18.294 Y269.315
G01 X24.158 Y280.044
G01 X29.446 Y288.630
G01 X34.899 Y298.661
G01 X40.598 Y307.945
G01 X45.756 Y317.469
G01 X51.339 Y326.628
G01 X51.749 Y327.261
G01 X56.727 Y336.471
G01 X62.129 Y345.380
G01 X62.901 Y346.576
G01 X67.857 Y355.160
G01 X86.670 Y355.309
G01 X90.160 Y355.160
G01 X105.839 Y355.332
G01 X109.985 Y355.160
G01 X123.110 Y355.427
G01 X129.810 Y355.160
G01 X140.844 Y355.399
G01 X147.157 Y355.160
G01 X156.548 Y355.445
G01 X164.504 Y355.160
G01 X172.526 Y355.472
G01 X180.366 Y355.260
G01 X181.851 Y355.160
G01 X188.955 Y355.171
G01 X189.286 Y355.160
G01 X248.761 Y252.146
G01 X249.074 Y251.802
G01 X249.350 Y251.434
G01 X249.588 Y251.043
G01 X249.785 Y250.634
G01 X249.940 Y250.209
G01 X250.000 Y250.000
G01 X249.980 Y250.063
G01 X249.954 Y250.124
G01 X249.922 Y250.183
G01 X249.885 Y250.238
G01 X249.842 Y250.290
G01 X249.793 Y250.338
G01 X249.739 Y250.382
G01 X249.681 Y250.422
G01 X249.618 Y250.457
G01 X249.552 Y250.486
G01 X249.481 Y250.510
G01 X249.407 Y250.527
G01 X249.331 Y250.539
G01 X249.252 Y250.545
G01 X249.170 Y250.543
G01 X249.088 Y250.536
G01 X249.004 Y250.521
G01 X248.920 Y250.499
G01 X248.835 Y250.470
G01 X248.751 Y250.434
G01 X248.668 Y250.391
G01 X248.586 Y250.341
G01 X248.506 Y250.283
G01 X248.428 Y250.219
G01 X248.354 Y250.147
G01 X248.282 Y250.069
G01 X248.215 Y249.984
G01 X248.152 Y249.892
G01 X248.094 Y249.795
G01 X248.041 Y249.691
G01 X247.993 Y249.582
G01 X247.952 Y249.467
G01 X247.918 Y249.348
G01 X247.890 Y249.223
G01 X247.870 Y249.095
G01 X247.858 Y248.963
G01 X247.853 Y248.827
G01 X247.854 Y248.761
G01 X144.840 Y189.286
G01 X138.447 Y192.700
G01 X132.144 Y196.600
G01 X131.963 Y196.720
G01 X124.569 Y200.639
G01 X117.288 Y205.160
G01 X116.940 Y205.394
G01 X108.249 Y210.101
G01 X101.917 Y214.067
G01 X91.690 Y219.724
G01 X86.894 Y222.741
G01 X74.738 Y229.487
G01 X69.725 Y232.653
G01 X55.055 Y240.862
G01 X50.410 Y243.805
G01 X39.680 Y250.000
G01 X39.386 Y260.347
G01 X39.602 Y270.722
G01 X39.680 Y272.303
G01 X39.385 Y282.852
G01 X39.623 Y293.484
G01 X39.680 Y294.606
G01 X39.385 Y305.595
G01 X39.670 Y316.718
G01 X39.680 Y316.910
G01 X39.389 Y328.577
G01 X39.680 Y339.213
G01 X39.399 Y351.799
G01 X39.680 Y361.516
G01 X39.680 Y371.429
G01 X51.024 Y378.293
G01 X58.995 Y382.580
G01 X69.437 Y388.940
G01 X78.310 Y393.732
G01 X88.048 Y399.692
G01 X97.625 Y404.883
G01 X106.854 Y410.552
G01 X116.269 Y415.692
G01 X116.940 Y416.035
G01 X125.856 Y421.523
G01 X134.989 Y426.537
G01 X136.255 Y427.187
G01 X144.840 Y432.143
G01 X161.207 Y422.865
G01 X164.155 Y420.991
G01 X177.819 Y413.300
G01 X181.324 Y411.079
G01 X192.823 Y404.747
G01 X198.493 Y401.166
G01 X208.168 Y395.857
G01 X213.516 Y392.493
G01 X221.791 Y388.044
G01 X228.539 Y383.819
G01 X235.642 Y380.079
G01 X242.325 Y375.974
G01 X243.562 Y375.146
G01 X249.719 Y371.603
G01 X250.000 Y371.429
G01 X250.000 Y252.478
G01 X250.000 Y250.000
G01 X249.994 Y250.078
G01 X249.981 Y250.156
G01 X249.960 Y250.233
G01 X249.931 Y250.307
G01 X249.895 Y250.379
G01 X249.852 Y250.448
G01 X249.802 Y250.514
G01 X249.745 Y250.575
G01 X249.682 Y250.632
G01 X249.612 Y250.684
G01 X249.537 Y250.731
G01 X249.457 Y250.772
G01 X249.371 Y250.806
G01 X249.281 Y250.834
G01 X249.187 Y250.855
G01 X249.089 Y250.868
G01 X248.988 Y250.874
G01 X248.884 Y250.871
G01 X248.778 Y250.861
G01 X248.671 Y250.842
G01 X248.563 Y250.815
G01 X248.455 Y250.778
G01 X248.346 Y250.734
G01 X248.239 Y250.680
G01 X248.133 Y250.617
G01 X248.029 Y250.546
G01 X247.928 Y250.466
G01 X247.830 Y250.377
G01 X247.736 Y250.280
G01 X247.647 Y250.174
G01 X247.562 Y250.061
G01 X247.522 Y250.000
G01 X128.571 Y250.000
G01 X124.742 Y256.154
G01 X121.234 Y262.682
G01 X121.137 Y262.877
G01 X116.693 Y269.968
G01 X112.648 Y277.524
G01 X112.464 Y277.900
G01 X107.291 Y286.322
G01 X103.790 Y292.923
G01 X97.761 Y302.935
G01 X95.117 Y307.945
G01 X87.963 Y319.866
G01 X85.204 Y325.114
G01 X76.603 Y339.559
G01 X74.052 Y344.430
G01 X67.857 Y355.160
G01 X72.776 Y364.268
G01 X78.151 Y373.145
G01 X79.009 Y374.475
G01 X84.028 Y383.758
G01 X89.550 Y392.846
G01 X90.160 Y393.791
G01 X95.400 Y403.454
G01 X101.207 Y412.945
G01 X101.312 Y413.106
G01 X106.894 Y423.355
G01 X112.464 Y432.421
G01 X118.514 Y443.461
G01 X123.615 Y451.736
G01 X128.571 Y460.320
G01 X141.828 Y460.593
G01 X150.875 Y460.320
G01 X163.098 Y460.607
G01 X173.178 Y460.320
G01 X184.591 Y460.613
G01 X195.481 Y460.320
G01 X206.308 Y460.615
G01 X217.031 Y460.359
G01 X217.784 Y460.320
G01 X228.250 Y460.615
G01 X238.666 Y460.391
G01 X240.087 Y460.320
G01 X250.000 Y460.320
G01 X259.536 Y444.102
G01 X261.152 Y441.005
G01 X269.139 Y427.513
G01 X271.064 Y423.836
G01 X277.857 Y412.603
G01 X280.977 Y406.667
G01 X286.701 Y397.232
G01 X289.650 Y391.644
G01 X294.593 Y383.654
G01 X298.324 Y376.621
G01 X302.605 Y369.830
G01 X306.341 Y362.934
G01 X306.997 Y361.599
G01 X310.558 Y355.452
G01 X310.714 Y355.160
G01 X251.239 Y252.146
G01 X250.959 Y251.867
G01 X250.710 Y251.567
G01 X250.493 Y251.248
G01 X250.310 Y250.912
G01 X250.161 Y250.562
G01 X250.047 Y250.201
G01 X250.000 Y250.000
G01 X250.015 Y250.096
G01 X250.020 Y250.194
G01 X250.016 Y250.292
G01 X250.002 Y250.389
G01 X249.979 Y250.486
G01 X249.946 Y250.582
G01 X249.904 Y250.675
G01 X249.853 Y250.765
G01 X249.792 Y250.851
G01 X249.723 Y250.933
G01 X249.645 Y251.010
G01 X249.559 Y251.082
G01 X249.466 Y251.147
G01 X249.365 Y251.206
G01 X249.257 Y251.257
G01 X249.142 Y251.300
G01 X249.022 Y251.335
G01 X248.897 Y251.361
G01 X248.766 Y251.378
G01 X248.632 Y251.385
G01 X248.494 Y251.382
G01 X248.353 Y251.369
G01 X248.210 Y251.345
G01 X248.065 Y251.310
G01 X247.920 Y251.264
G01 X247.854 Y251.239
G01 X144.840 Y310.714
G01 X144.600 Y317.958
G01 X144.826 Y325.367
G01 X144.840 Y325.583
G01 X144.537 Y333.946
G01 X144.812 Y342.512
G01 X144.840 Y342.930
G01 X144.571 Y352.810
G01 X144.840 Y360.277
G01 X144.625 Y371.962
G01 X144.840 Y377.624
G01 X144.605 Y391.525
G01 X144.840 Y397.449
G01 X144.613 Y414.259
G01 X144.840 Y419.752
G01 X144.840 Y432.143
G01 X153.653 Y437.571
G01 X162.747 Y442.571
G01 X164.155 Y443.294
G01 X173.144 Y448.824
G01 X182.470 Y453.933
G01 X183.470 Y454.446
G01 X192.839 Y460.195
G01 X202.614 Y465.510
G01 X202.785 Y465.598
G01 X212.744 Y471.683
G01 X222.100 Y476.749
G01 X232.860 Y483.285
G01 X241.415 Y487.901
G01 X250.000 Y492.857
G01 X261.617 Y486.464
G01 X269.315 Y481.706
G01 X280.044 Y475.842
G01 X288.630 Y470.554
G01 X298.661 Y465.101
G01 X307.945 Y459.402
G01 X317.469 Y454.244
G01 X326.628 Y448.661
G01 X327.261 Y448.251
G01 X336.471 Y443.273
G01 X345.380 Y437.871
G01 X346.576 Y437.099
G01 X355.160 Y432.143
G01 X355.309 Y413.330
G01 X355.160 Y409.840
G01 X355.332 Y394.161
G01 X355.160 Y390.015
G01 X355.427 Y376.890
G01 X355.160 Y370.190
G01 X355.399 Y359.156
G01 X355.160 Y352.843
G01 X355.445 Y343.452
G01 X355.160 Y335.496
G01 X355.472 Y327.474
G01 X355.260 Y319.634
G01 X355.160 Y318.149
G01 X355.171 Y311.045
G01 X355.160 Y310.714
G01 X252.146 Y251.239
G01 X251.986 Y251.281
G01 X251.827 Y251.309
G01 X251.671 Y251.326
G01 X251.517 Y251.331
G01 X251.368 Y251.323
G01 X251.222 Y251.305
G01 X251.082 Y251.276
G01 X250.948 Y251.236
G01 X250.821 Y251.187
G01 X250.701 Y251.128
G01 X250.589 Y251.060
G01 X250.486 Y250.985
G01 X250.391 Y250.902
G01 X250.306 Y250.812
G01 X250.230 Y250.717
G01 X250.165 Y250.616
G01 X250.110 Y250.511
G01 X250.066 Y250.402
G01 X250.033 Y250.291
G01 X250.012 Y250.178
G01 X250.001 Y250.063
G01 X250.000 Y250.000
G01 X249.986 Y250.237
G01 X249.949 Y250.471
G01 X249.888 Y250.702
G01 X249.805 Y250.928
G01 X249.700 Y251.147
G01 X249.573 Y251.357
G01 X249.425 Y251.557
G01 X249.256 Y251.744
G01 X249.068 Y251.919
G01 X248.861 Y252.079
G01 X248.761 Y252.146
G01 X189.286 Y355.160
G01 X192.700 Y361.553
G01 X196.600 Y367.856
G01 X196.720 Y368.037
G01 X200.639 Y375.431
G01 X205.160 Y382.712
G01 X205.394 Y383.060
G01 X210.101 Y391.751
G01 X214.067 Y398.083
G01 X219.724 Y408.310
G01 X222.741 Y413.106
G01 X229.487 Y425.262
G01 X232.653 Y430.275
G01 X240.862 Y444.945
G01 X243.805 Y449.590
G01 X250.000 Y460.320
G01 X260.347 Y460.614
G01 X270.722 Y460.398
G01 X272.303 Y460.320
G01 X282.852 Y460.615
G01 X293.484 Y460.377
G01 X294.606 Y460.320
G01 X305.595 Y460.615
G01 X316.718 Y460.330
G01 X316.910 Y460.320
G01 X328.577 Y460.611
G01 X339.213 Y460.320
G01 X351.799 Y460.601
G01 X361.516 Y460.320
G01 X371.429 Y460.320
G01 X378.293 Y448.976
G01 X382.580 Y441.005
G01 X388.940 Y430.563
G01 X393.732 Y421.690
G01 X399.692 Y411.952
G01 X404.883 Y402.375
G01 X410.552 Y393.146
G01 X415.692 Y383.731
G01 X416.035 Y383.060
G01 X421.523 Y374.144
G01 X426.537 Y365.011
G01 X427.187 Y363.745
G01 X432.143 Y355.160
G01 X422.865 Y338.793
G01 X420.991 Y335.845
G01 X413.300 Y322.181
G01 X411.079 Y318.676
G01 X404.747 Y307.177
G01 X401.166 Y301.507
G01 X395.857 Y291.832
G01 X392.493 Y286.484
G01 X388.044 Y278.209
G01 X383.819 Y271.461
G01 X380.079 Y264.358
G01 X375.974 Y257.675
G01 X375.146 Y256.438
G01 X371.603 Y250.281
G01 X371.429 Y250.000
G01 X252.478 Y250.000
G01 X252.414 Y250.119
G01 X252.345 Y250.231
G01 X252.270 Y250.337
G01 X252.191 Y250.436
G01 X252.108 Y250.528
G01 X252.021 Y250.613
G01 X251.931 Y250.691
G01 X251.839 Y250.762
G01 X251.744 Y250.825
G01 X251.647 Y250.881
G01 X251.550 Y250.929
G01 X251.452 Y250.970
G01 X251.353 Y251.004
G01 X251.255 Y251.030
G01 X251.158 Y251.050
G01 X251.062 Y251.062
G01 X250.968 Y251.068
G01 X250.875 Y251.067
G01 X250.786 Y251.059
G01 X250.699 Y251.046
G01 X250.615 Y251.027
G01 X250.535 Y251.002
G01 X250.460 Y250.972
G01 X250.388 Y250.937
G01 X250.321 Y250.897
G01 X250.259 Y250.853
G01 X250.202 Y250.806
G01 X250.150 Y250.755
G01 X250.104 Y250.701
G01 X250.063 Y250.645
G01 X250.029 Y250.586
G01 X250.000 Y250.526
G01 X249.977 Y250.464
G01 X249.960 Y250.402
G01 X249.950 Y250.339
G01 X249.945 Y250.276
G01 X249.946 Y250.214
G01 X249.954 Y250.153
G01 X249.967 Y250.093
G01 X249.986 Y250.035
G01 X250.000 Y250.000
G01 X249.895 Y250.268
G01 X249.816 Y250.545
G01 X249.765 Y250.830
G01 X249.741 Y251.121
G01 X249.746 Y251.415
G01 X249.779 Y251.711
G01 X249.840 Y252.007
G01 X249.930 Y252.299
G01 X250.000 Y252.478
G01 X250.000 Y371.429
G01 X256.154 Y375.258
G01 X262.682 Y378.766
G01 X262.877 Y378.863
G01 X269.968 Y383.307
G01 X277.524 Y387.352
G01 X277.900 Y387.536
G01 X286.322 Y392.709
G01 X292.923 Y396.210
G01 X302.935 Y402.239
G01 X307.945 Y404.883
G01 X319.866 Y412.037
G01 X325.114 Y414.796
G01 X339.559 Y423.397
G01 X344.430 Y425.948
G01 X355.160 Y432.143
G01 X364.268 Y427.224
G01 X373.145 Y421.849
G01 X374.475 Y420.991
G01 X383.758 Y415.972
G01 X392.846 Y410.450
G01 X393.791 Y409.840
G01 X403.454 Y404.600
G01 X412.945 Y398.793
G01 X413.106 Y398.688
G01 X423.355 Y393.106
G01 X432.421 Y387.536
G01 X443.461 Y381.486
G01 X451.736 Y376.385
G01 X460.320 Y371.429
G01 X460.593 Y358.172
G01 X460.320 Y349.125
G01 X460.607 Y336.902
G01 X460.320 Y326.822
G01 X460.613 Y315.409
G01 X460.320 Y304.519
G01 X460.615 Y293.692
G01 X460.359 Y282.969
G01 X460.320 Y282.216
G01 X460.615 Y271.750
G01 X460.391 Y261.334
G01 X460.320 Y259.913
G01 X460.320 Y250.000
G01 X444.102 Y240.464
G01 X441.005 Y238.848
G01 X427.513 Y230.861
G01 X423.836 Y228.936
G01 X412.603 Y222.143
G01 X406.667 Y219.023
G01 X397.232 Y213.299
G01 X391.644 Y210.350
G01 X383.654 Y205.407
G01 X376.621 Y201.676
G01 X369.830 Y197.395
G01 X362.934 Y193.659
G01 X361.599 Y193.003
G01 X355.452 Y189.442
G01 X355.160 Y189.286
G01 X252.146 Y248.761
G01 X252.055 Y248.675
G01 X251.961 Y248.595
G01 X251.864 Y248.520
G01 X251.765 Y248.452
G01 X251.663 Y248.390
G01 X251.560 Y248.334
G01 X251.455 Y248.285
G01 X251.349 Y248.241
G01 X251.243 Y248.204
G01 X251.136 Y248.173
G01 X251.029 Y248.148
G01 X250.923 Y248.129
G01 X250.817 Y248.116
G01 X250.712 Y248.109
G01 X250.608 Y248.107
G01 X250.506 Y248.111
G01 X250.406 Y248.121
G01 X250.308 Y248.135
G01 X250.212 Y248.155
G01 X250.119 Y248.179
G01 X250.029 Y248.208
G01 X249.942 Y248.242
G01 X249.859 Y248.279
G01 X249.779 Y248.320
G01 X249.703 Y248.365
G01 X249.630 Y248.414
G01 X249.562 Y248.465
G01 X249.497 Y248.520
G01 X249.437 Y248.576
G01 X249.382 Y248.635
G01 X249.330 Y248.696
G01 X249.284 Y248.759
G01 X249.241 Y248.823
G01 X249.204 Y248.889
G01 X249.170 Y248.955
G01 X249.141 Y249.021
G01 X249.117 Y249.088
G01 X249.097 Y249.155
G01 X249.082 Y249.221
G01 X249.071 Y249.287
G01 X249.064 Y249.352
G01 X249.061 Y249.416
G01 X249.062 Y249.479
G01 X249.067 Y249.540
G01 X249.075 Y249.599
G01 X249.087 Y249.656
G01 X249.102 Y249.712
G01 X249.121 Y249.764
G01 X249.142 Y249.815
G01 X249.167 Y249.862
G01 X249.193 Y249.907
G01 X249.222 Y249.949
G01 X249.253 Y249.988
G01 X249.286 Y250.023
G01 X249.321 Y250.056
G01 X249.357 Y250.085
G01 X249.394 Y250.110
G01 X249.432 Y250.132
G01 X249.470 Y250.151
G01 X249.509 Y250.167
G01 X249.549 Y250.178
G01 X249.588 Y250.187
G01 X249.626 Y250.192
G01 X249.665 Y250.194
G01 X249.702 Y250.192
G01 X249.738 Y250.188
G01 X249.773 Y250.180
G01 X249.807 Y250.169
G01 X249.839 Y250.156
G01 X249.869 Y250.140
G01 X249.897 Y250.121
G01 X249.923 Y250.100
G01 X249.947 Y250.077
G01 X249.968 Y250.052
G01 X249.986 Y250.024
G01 X250.000 Y250.000
G01 X249.950 Y250.113
G01 X249.912 Y250.230
G01 X249.885 Y250.351
G01 X249.869 Y250.474
G01 X249.866 Y250.600
G01 X249.875 Y250.727
G01 X249.896 Y250.855
G01 X249.929 Y250.982
G01 X249.974 Y251.107
G01 X250.032 Y251.230
G01 X250.101 Y251.350
G01 X250.182 Y251.465
G01 X250.275 Y251.575
G01 X250.379 Y251.680
G01 X250.494 Y251.778
G01 X250.620 Y251.868
G01 X250.755 Y251.950
G01 X250.900 Y252.023
G01 X251.053 Y252.087
G01 X251.215 Y252.139
G01 X251.239 Y252.146
G01 X284.694 Y310.092
G01 X288.912 Y310.351
G01 X293.236 Y310.336
G01 X297.085 Y310.092
G01 X302.257 Y310.343
G01 X307.563 Y310.225
G01 X309.475 Y310.092
G01 X315.863 Y310.316
G01 X321.866 Y310.092
G01 X329.849 Y310.365
G01 X336.735 Y310.092
G01 X347.006 Y310.386
G01 X354.082 Y310.092
G01 X357.284 Y305.107
G01 X360.247 Y299.952
G01 X362.755 Y295.069
G01 X366.065 Y289.906
G01 X369.138 Y284.527
G01 X371.429 Y280.046
G01 X374.975 Y274.486
G01 X378.263 Y268.650
G01 X380.102 Y265.023
G01 X384.010 Y258.840
G01 X387.616 Y252.310
G01 X388.776 Y250.000
G01 X385.278 Y243.354
G01 X381.471 Y237.051
G01 X380.102 Y234.977
G01 X376.978 Y228.981
G01 X373.585 Y223.253
G01 X371.429 Y219.954
G01 X368.558 Y214.408
G01 X365.438 Y209.069
G01 X362.755 Y204.931
G01 X360.020 Y199.631
G01 X357.037 Y194.489
G01 X354.082 Y189.908
G01 X343.655 Y189.614
G01 X336.735 Y189.908
G01 X328.590 Y189.636
G01 X321.866 Y189.908
G01 X315.333 Y189.684
G01 X309.475 Y189.908
G01 X304.128 Y189.656
G01 X298.906 Y189.778
G01 X297.085 Y189.908
G01 X292.682 Y189.646
G01 X288.370 Y189.667
G01 X284.694 Y189.908
G01 X251.239 Y247.854
G01 X251.115 Y247.829
G01 X250.992 Y247.811
G01 X250.870 Y247.799
G01 X250.749 Y247.795
G01 X250.629 Y247.797
G01 X250.512 Y247.805
G01 X250.397 Y247.819
G01 X250.284 Y247.839
G01 X250.175 Y247.865
G01 X250.069 Y247.896
G01 X249.966 Y247.933
G01 X249.867 Y247.974
G01 X249.772 Y248.020
G01 X249.681 Y248.070
G01 X249.595 Y248.125
G01 X249.513 Y248.183
G01 X249.436 Y248.245
G01 X249.364 Y248.309
G01 X249.296 Y248.377
G01 X249.234 Y248.447
G01 X249.177 Y248.519
G01 X249.125 Y248.593
G01 X249.078 Y248.668
G01 X249.037 Y248.745
G01 X249.000 Y248.822
G01 X248.969 Y248.899
G01 X248.943 Y248.977
G01 X248.922 Y249.055
G01 X248.907 Y249.132
G01 X248.896 Y249.209
G01 X248.890 Y249.284
G01 X248.888 Y249.358
G01 X248.891 Y249.430
G01 X248.899 Y249.501
G01 X248.910 Y249.569
G01 X248.926 Y249.635
G01 X248.945 Y249.699
G01 X248.968 Y249.759
G01 X248.994 Y249.817
G01 X249.023 Y249.871
G01 X249.055 Y249.923
G01 X249.090 Y249.970
G01 X249.127 Y250.014
G01 X249.166 Y250.055
G01 X249.206 Y250.091
G01 X249.249 Y250.124
G01 X249.292 Y250.153
G01 X249.337 Y250.178
G01 X249.382 Y250.199
G01 X249.427 Y250.216
G01 X249.473 Y250.229
G01 X249.518 Y250.238
G01 X249.563 Y250.243
G01 X249.607 Y250.244
G01 X249.650 Y250.242
G01 X249.692 Y250.236
G01 X249.732 Y250.227
G01 X249.771 Y250.214
G01 X249.808 Y250.199
G01 X249.842 Y250.180
G01 X249.875 Y250.158
G01 X249.904 Y250.134
G01 X249.931 Y250.107
G01 X249.955 Y250.078
G01 X249.976 Y250.047
G01 X249.994 Y250.014
G01 X250.000 Y250.000
G01 X249.971 Y250.078
G01 X249.949 Y250.160
G01 X249.936 Y250.243
G01 X249.930 Y250.328
G01 X249.933 Y250.413
G01 X249.944 Y250.499
G01 X249.964 Y250.585
G01 X249.991 Y250.670
G01 X250.027 Y250.753
G01 X250.071 Y250.834
G01 X250.123 Y250.913
G01 X250.183 Y250.988
G01 X250.251 Y251.059
G01 X250.326 Y251.126
G01 X250.408 Y251.188
G01 X250.497 Y251.244
G01 X250.592 Y251.295
G01 X250.693 Y251.338
G01 X250.800 Y251.375
G01 X250.912 Y251.404
G01 X251.029 Y251.426
G01 X251.150 Y251.439
G01 X251.275 Y251.444
G01 X251.403 Y251.439
G01 X251.533 Y251.426
G01 X251.665 Y251.403
G01 X251.798 Y251.370
G01 X251.932 Y251.328
G01 X252.066 Y251.275
G01 X252.146 Y251.239
G01 X310.092 Y284.694
G01 X313.874 Y282.809
G01 X317.612 Y280.634
G01 X320.822 Y278.499
G01 X325.428 Y276.130
G01 X329.963 Y273.375
G01 X331.553 Y272.303
G01 X337.197 Y269.304
G01 X342.283 Y266.108
G01 X349.334 Y262.353
G01 X355.160 Y258.673
G01 X364.202 Y253.793
G01 X370.183 Y250.000
G01 X370.464 Y244.082
G01 X370.453 Y238.136
G01 X370.183 Y232.653
G01 X370.469 Y226.527
G01 X370.439 Y220.332
G01 X370.183 Y215.306
G01 X370.474 Y208.718
G01 X370.403 Y202.020
G01 X370.183 Y197.959
G01 X370.476 Y190.651
G01 X370.334 Y183.193
G01 X370.183 Y180.612
G01 X363.831 Y176.606
G01 X357.383 Y173.051
G01 X355.160 Y171.939
G01 X349.457 Y168.308
G01 X343.654 Y165.045
G01 X340.137 Y163.265
G01 X334.878 Y159.897
G01 X329.507 Y156.834
G01 X325.114 Y154.592
G01 X320.095 Y151.369
G01 X314.942 Y148.407
G01 X310.092 Y145.918
G01 X300.915 Y150.877
G01 X295.069 Y154.592
G01 X287.879 Y158.428
G01 X282.192 Y162.026
G01 X276.422 Y165.098
G01 X271.461 Y168.222
G01 X266.705 Y170.677
G01 X262.243 Y173.393
G01 X260.731 Y174.417
G01 X256.787 Y176.391
G01 X253.063 Y178.565
G01 X250.000 Y180.612
G01 X250.000 Y247.522
G01 X249.880 Y247.568
G01 X249.765 Y247.619
G01 X249.655 Y247.675
G01 X249.550 Y247.737
G01 X249.450 Y247.803
G01 X249.355 Y247.874
G01 X249.266 Y247.948
G01 X249.182 Y248.026
G01 X249.105 Y248.107
G01 X249.033 Y248.191
G01 X248.968 Y248.277
G01 X248.908 Y248.366
G01 X248.855 Y248.456
G01 X248.807 Y248.547
G01 X248.766 Y248.639
G01 X248.731 Y248.731
G01 X248.702 Y248.823
G01 X248.679 Y248.916
G01 X248.661 Y249.007
G01 X248.650 Y249.098
G01 X248.644 Y249.187
G01 X248.643 Y249.275
G01 X248.648 Y249.360
G01 X248.657 Y249.444
G01 X248.672 Y249.525
G01 X248.691 Y249.603
G01 X248.715 Y249.678
G01 X248.742 Y249.750
G01 X248.774 Y249.818
G01 X248.809 Y249.883
G01 X248.847 Y249.943
G01 X248.889 Y250.000
G01 X248.933 Y250.052
G01 X248.979 Y250.101
G01 X249.027 Y250.144
G01 X249.077 Y250.184
G01 X249.129 Y250.218
G01 X249.182 Y250.248
G01 X249.235 Y250.274
G01 X249.289 Y250.295
G01 X249.343 Y250.311
G01 X249.396 Y250.323
G01 X249.450 Y250.330
G01 X249.502 Y250.333
G01 X249.553 Y250.331
G01 X249.603 Y250.326
G01 X249.651 Y250.316
G01 X249.697 Y250.303
G01 X249.741 Y250.286
G01 X249.783 Y250.265
G01 X249.821 Y250.241
G01 X249.857 Y250.214
G01 X249.890 Y250.184
G01 X249.919 Y250.152
G01 X249.945 Y250.117
G01 X249.967 Y250.080
G01 X249.985 Y250.041
G01 X250.000 Y250.001
G01 X249.984 Y250.063
G01 X249.975 Y250.128
G01 X249.971 Y250.194
G01 X249.975 Y250.260
G01 X249.984 Y250.326
G01 X250.000 Y250.392
G01 X250.023 Y250.456
G01 X250.052 Y250.519
G01 X250.087 Y250.581
G01 X250.128 Y250.640
G01 X250.175 Y250.696
G01 X250.228 Y250.749
G01 X250.287 Y250.798
G01 X250.351 Y250.844
G01 X250.420 Y250.884
G01 X250.493 Y250.920
G01 X250.571 Y250.951
G01 X250.654 Y250.976
G01 X250.740 Y250.995
G01 X250.829 Y251.008
G01 X250.921 Y251.014
G01 X251.016 Y251.014
G01 X251.113 Y251.007
G01 X251.212 Y250.992
G01 X251.311 Y250.970
G01 X251.412 Y250.941
G01 X251.512 Y250.904
G01 X251.612 Y250.859
G01 X251.712 Y250.807
G01 X251.809 Y250.747
G01 X251.905 Y250.679
G01 X251.999 Y250.604
G01 X252.089 Y250.521
G01 X252.177 Y250.430
G01 X252.260 Y250.333
G01 X252.338 Y250.228
G01 X252.412 Y250.116
G01 X252.478 Y250.000
G01 X319.388 Y250.000
G01 X321.721 Y246.477
G01 X323.871 Y242.724
G01 X325.583 Y239.269
G01 X328.387 Y234.915
G01 X330.938 Y230.262
G01 X331.778 Y228.539
G01 X335.167 Y223.119
G01 X337.974 Y217.808
G01 X342.202 Y211.031
G01 X345.408 Y204.931
G01 X350.799 Y196.184
G01 X354.082 Y189.908
G01 X351.366 Y184.643
G01 X348.384 Y179.499
G01 X345.408 Y174.886
G01 X342.592 Y169.438
G01 X339.470 Y164.087
G01 X336.735 Y159.863
G01 X333.693 Y154.012
G01 X330.282 Y148.246
G01 X328.061 Y144.840
G01 X324.661 Y138.365
G01 X320.809 Y131.976
G01 X319.388 Y129.817
G01 X311.884 Y129.523
G01 X304.521 Y129.669
G01 X302.041 Y129.817
G01 X295.286 Y129.524
G01 X288.629 Y129.599
G01 X284.694 Y129.817
G01 X278.455 Y129.530
G01 X272.272 Y129.563
G01 X267.347 Y129.817
G01 X261.389 Y129.535
G01 X255.445 Y129.547
G01 X250.000 Y129.817
G01 X244.532 Y138.699
G01 X241.327 Y144.840
G01 X237.018 Y151.757
G01 X233.892 Y157.717
G01 X230.431 Y163.262
G01 X227.697 Y168.447
G01 X224.805 Y172.952
G01 X222.299 Y177.535
G01 X221.501 Y179.178
G01 X219.073 Y182.860
G01 X216.935 Y186.604
G01 X215.306 Y189.908
G01 X248.761 Y247.854
G01 X248.684 Y247.959
G01 X248.614 Y248.066
G01 X248.552 Y248.175
G01 X248.496 Y248.285
G01 X248.448 Y248.397
G01 X248.408 Y248.509
G01 X248.374 Y248.621
G01 X248.348 Y248.732
G01 X248.328 Y248.843
G01 X248.315 Y248.952
G01 X248.309 Y249.060
G01 X248.309 Y249.166
G01 X248.316 Y249.270
G01 X248.328 Y249.371
G01 X248.346 Y249.469
G01 X248.370 Y249.563
G01 X248.399 Y249.654
G01 X248.433 Y249.741
G01 X248.471 Y249.824
G01 X248.513 Y249.903
G01 X248.560 Y249.976
G01 X248.610 Y250.046
G01 X248.663 Y250.110
G01 X248.719 Y250.169
G01 X248.777 Y250.222
G01 X248.838 Y250.271
G01 X248.900 Y250.314
G01 X248.964 Y250.352
G01 X249.028 Y250.384
G01 X249.093 Y250.411
G01 X249.158 Y250.432
G01 X249.223 Y250.448
G01 X249.288 Y250.459
G01 X249.351 Y250.465
G01 X249.414 Y250.465
G01 X249.474 Y250.461
G01 X249.533 Y250.452
G01 X249.590 Y250.438
G01 X249.644 Y250.420
G01 X249.695 Y250.398
G01 X249.743 Y250.372
G01 X249.787 Y250.342
G01 X249.828 Y250.309
G01 X249.866 Y250.273
G01 X249.899 Y250.233
G01 X249.928 Y250.192
G01 X249.952 Y250.148
G01 X249.973 Y250.103
G01 X249.988 Y250.056
G01 X249.999 Y250.007
G01 X250.000 Y250.000
G01 X249.994 Y250.054
G01 X249.994 Y250.108
G01 X249.999 Y250.162
G01 X250.009 Y250.216
G01 X250.024 Y250.269
G01 X250.045 Y250.321
G01 X250.070 Y250.372
G01 X250.101 Y250.420
G01 X250.137 Y250.467
G01 X250.177 Y250.511
G01 X250.223 Y250.551
G01 X250.272 Y250.589
G01 X250.326 Y250.623
G01 X250.383 Y250.653
G01 X250.444 Y250.678
G01 X250.509 Y250.699
G01 X250.576 Y250.715
G01 X250.647 Y250.727
G01 X250.720 Y250.733
G01 X250.794 Y250.733
G01 X250.871 Y250.728
G01 X250.949 Y250.717
G01 X251.027 Y250.700
G01 X251.107 Y250.677
G01 X251.186 Y250.648
G01 X251.265 Y250.612
G01 X251.343 Y250.571
G01 X251.420 Y250.523
G01 X251.496 Y250.469
G01 X251.569 Y250.408
G01 X251.640 Y250.342
G01 X251.708 Y250.269
G01 X251.773 Y250.191
G01 X251.835 Y250.107
G01 X251.892 Y250.017
G01 X251.944 Y249.922
G01 X251.992 Y249.822
G01 X252.034 Y249.717
G01 X252.071 Y249.607
G01 X252.102 Y249.494
G01 X252.126 Y249.376
G01 X252.144 Y249.255
G01 X252.155 Y249.130
G01 X252.159 Y249.003
G01 X252.155 Y248.873
G01 X252.146 Y248.761
G01 X310.092 Y215.306
G01 X310.351 Y211.088
G01 X310.336 Y206.764
G01 X310.092 Y202.915
G01 X310.343 Y197.743
G01 X310.225 Y192.437
G01 X310.092 Y190.525
G01 X310.316 Y184.137
G01 X310.092 Y178.134
G01 X310.365 Y170.151
G01 X310.092 Y163.265
G01 X310.386 Y152.994
G01 X310.092 Y145.918
G01 X305.107 Y142.716
G01 X299.952 Y139.753
G01 X295.069 Y137.245
G01 X289.906 Y133.935
G01 X284.527 Y130.862
G01 X280.046 Y128.571
G01 X274.486 Y125.025
G01 X268.650 Y121.737
G01 X265.023 Y119.898
G01 X258.840 Y115.990
G01 X252.310 Y112.384
G01 X250.000 Y111.224
G01 X243.354 Y114.722
G01 X237.051 Y118.529
G01 X234.977 Y119.898
G01 X228.981 Y123.022
G01 X223.253 Y126.415
G01 X219.954 Y128.571
G01 X214.408 Y131.442
G01 X209.069 Y134.562
G01 X204.931 Y137.245
G01 X199.631 Y139.980
G01 X194.489 Y142.963
G01 X189.908 Y145.918
G01 X189.614 Y156.345
G01 X189.908 Y163.265
G01 X189.636 Y171.410
G01 X189.908 Y178.134
G01 X189.684 Y184.667
G01 X189.908 Y190.525
G01 X189.656 Y195.872
G01 X189.778 Y201.094
G01 X189.908 Y202.915
G01 X189.646 Y207.318
G01 X189.667 Y211.630
G01 X189.908 Y215.306
G01 X247.854 Y248.761
G01 X247.848 Y248.895
G01 X247.850 Y249.026
G01 X247.859 Y249.154
G01 X247.876 Y249.279
G01 X247.900 Y249.400
G01 X247.930 Y249.517
G01 X247.967 Y249.630
G01 X248.009 Y249.738
G01 X248.057 Y249.841
G01 X248.111 Y249.938
G01 X248.169 Y250.030
G01 X248.231 Y250.116
G01 X248.297 Y250.196
G01 X248.367 Y250.270
G01 X248.440 Y250.337
G01 X248.515 Y250.398
G01 X248.592 Y250.452
G01 X248.671 Y250.500
G01 X248.751 Y250.541
G01 X248.832 Y250.576
G01 X248.913 Y250.604
G01 X248.994 Y250.626
G01 X249.074 Y250.641
G01 X249.153 Y250.650
G01 X249.231 Y250.652
G01 X249.307 Y250.649
G01 X249.380 Y250.640
G01 X249.451 Y250.626
G01 X249.519 Y250.606
G01 X249.584 Y250.581
G01 X249.645 Y250.551
G01 X249.702 Y250.517
G01 X249.754 Y250.479
G01 X249.802 Y250.437
G01 X249.845 Y250.391
G01 X249.884 Y250.343
G01 X249.917 Y250.291
G01 X249.945 Y250.238
G01 X249.967 Y250.182
G01 X249.983 Y250.126
G01 X249.994 Y250.068
G01 X250.000 Y250.009
G01 X250.000 Y250.000
G01 X250.001 Y250.046
G01 X250.007 Y250.092
G01 X250.017 Y250.137
G01 X250.031 Y250.181
G01 X250.050 Y250.225
G01 X250.073 Y250.266
G01 X250.101 Y250.306
G01 X250.132 Y250.344
G01 X250.168 Y250.379
G01 X250.207 Y250.411
G01 X250.249 Y250.441
G01 X250.295 Y250.467
G01 X250.344 Y250.489
G01 X250.396 Y250.508
G01 X250.451 Y250.523
G01 X250.507 Y250.534
G01 X250.566 Y250.540
G01 X250.627 Y250.541
G01 X250.689 Y250.538
G01 X250.752 Y250.530
G01 X250.816 Y250.518
G01 X250.881 Y250.500
G01 X250.945 Y250.476
G01 X251.010 Y250.448
G01 X251.073 Y250.415
G01 X251.136 Y250.376
G01 X251.197 Y250.332
G01 X251.257 Y250.283
G01 X251.315 Y250.229
G01 X251.370 Y250.170
G01 X251.423 Y250.106
G01 X251.472 Y250.037
G01 X251.518 Y249.964
G01 X251.561 Y249.886
G01 X251.599 Y249.804
G01 X251.633 Y249.718
G01 X251.662 Y249.628
G01 X251.686 Y249.535
G01 X251.705 Y249.438
G01 X251.718 Y249.338
G01 X251.726 Y249.236
G01 X251.727 Y249.132
G01 X251.722 Y249.026
G01 X251.711 Y248.918
G01 X251.694 Y248.808
G01 X251.670 Y248.699
G01 X251.639 Y248.588
G01 X251.601 Y248.478
G01 X251.556 Y248.368
G01 X251.504 Y248.258
G01 X251.445 Y248.150
G01 X251.379 Y248.044
G01 X251.306 Y247.940
G01 X251.239 Y247.854
G01 X284.694 Y189.908
G01 X282.809 Y186.126
G01 X280.634 Y182.388
G01 X278.499 Y179.178
G01 X276.130 Y174.572
G01 X273.375 Y170.037
G01 X272.303 Y168.447
G01 X269.304 Y162.803
G01 X266.108 Y157.717
G01 X262.353 Y150.666
G01 X258.673 Y144.840
G01 X253.793 Y135.798
G01 X250.000 Y129.817
G01 X244.082 Y129.536
G01 X238.136 Y129.547
G01 X232.653 Y129.817
G01 X226.527 Y129.531
G01 X220.332 Y129.561
G01 X215.306 Y129.817
G01 X208.718 Y129.526
G01 X202.020 Y129.597
G01 X197.959 Y129.817
G01 X190.651 Y129.524
G01 X183.193 Y129.666
G01 X180.612 Y129.817
G01 X176.606 Y136.169
G01 X173.051 Y142.617
G01 X171.939 Y144.840
G01 X168.308 Y150.543
G01 X165.045 Y156.346
G01 X163.265 Y159.863
G01 X159.897 Y165.122
G01 X156.834 Y170.493
G01 X154.592 Y174.886
G01 X151.369 Y179.905
G01 X148.407 Y185.058
G01 X145.918 Y189.908
G01 X150.877 Y199.085
G01 X154.592 Y204.931
G01 X158.428 Y212.121
G01 X162.026 Y217.808
G01 X165.098 Y223.578
G01 X168.222 Y228.539
G01 X170.677 Y233.295
G01 X173.393 Y237.757
G01 X174.417 Y239.269
G01 X176.391 Y243.213
G01 X178.565 Y246.937
G01 X180.612 Y250.000
G01 X247.522 Y250.000
G01 X247.597 Y250.118
G01 X247.678 Y250.229
G01 X247.763 Y250.332
G01 X247.853 Y250.427
G01 X247.947 Y250.514
G01 X248.044 Y250.593
G01 X248.143 Y250.664
G01 X248.245 Y250.727
G01 X248.348 Y250.781
G01 X248.452 Y250.827
G01 X248.557 Y250.865
G01 X248.661 Y250.895
G01 X248.765 Y250.916
G01 X248.867 Y250.930
G01 X248.968 Y250.936
G01 X249.066 Y250.934
G01 X249.161 Y250.925
G01 X249.254 Y250.909
G01 X249.342 Y250.887
G01 X249.427 Y250.858
G01 X249.507 Y250.823
G01 X249.582 Y250.782
G01 X249.652 Y250.736
G01 X249.716 Y250.686
G01 X249.774 Y250.631
G01 X249.826 Y250.572
G01 X249.872 Y250.510
G01 X249.912 Y250.444
G01 X249.944 Y250.377
G01 X249.970 Y250.307
G01 X249.988 Y250.236
G01 X250.000 Y250.164
G01 X250.004 Y250.091
G01 X250.002 Y250.019
G01 X250.000 Y250.000
G01 X250.006 Y250.040
G01 X250.017 Y250.079
G01 X250.031 Y250.116
G01 X250.049 Y250.153
G01 X250.070 Y250.188
G01 X250.095 Y250.221
G01 X250.123 Y250.252
G01 X250.155 Y250.281
G01 X250.190 Y250.307
G01 X250.227 Y250.331
G01 X250.268 Y250.351
G01 X250.310 Y250.368
G01 X250.355 Y250.382
G01 X250.402 Y250.392
G01 X250.451 Y250.399
G01 X250.502 Y250.401
G01 X250.553 Y250.399
G01 X250.606 Y250.394
G01 X250.659 Y250.384
G01 X250.713 Y250.369
G01 X250.767 Y250.350
G01 X250.820 Y250.327
G01 X250.873 Y250.300
G01 X250.925 Y250.268
G01 X250.977 Y250.231
G01 X251.026 Y250.190
G01 X251.074 Y250.145
G01 X251.120 Y250.096
G01 X251.163 Y250.042
G01 X251.204 Y249.984
G01 X251.242 Y249.923
G01 X251.277 Y249.858
G01 X251.308 Y249.789
G01 X251.335 Y249.716
G01 X251.358 Y249.641
G01 X251.377 Y249.563
G01 X251.392 Y249.482
G01 X251.402 Y249.398
G01 X251.406 Y249.312
G01 X251.406 Y249.225
G01 X251.401 Y249.136
G01 X251.390 Y249.045
G01 X251.373 Y248.954
G01 X251.351 Y248.862
G01 X251.323 Y248.770
G01 X251.289 Y248.678
G01 X251.249 Y248.586
G01 X251.203 Y248.495
G01 X251.151 Y248.405
G01 X251.093 Y248.317
G01 X251.030 Y248.231
G01 X250.960 Y248.147
G01 X250.885 Y248.065
G01 X250.803 Y247.987
G01 X250.717 Y247.912
G01 X250.625 Y247.841
G01 X250.527 Y247.774
G01 X250.425 Y247.711
G01 X250.317 Y247.653
G01 X250.205 Y247.600
G01 X250.088 Y247.553
G01 X250.000 Y247.522
G01 X250.000 Y180.612
G01 X246.477 Y178.279
G01 X242.724 Y176.129
G01 X239.269 Y174.417
G01 X234.915 Y171.613
G01 X230.262 Y169.062
G01 X228.539 Y168.222
G01 X223.119 Y164.833
G01 X217.808 Y162.026
G01 X211.031 Y157.798
G01 X204.931 Y154.592
G01 X196.184 Y149.201
G01 X189.908 Y145.918
G01 X184.643 Y148.634
G01 X179.499 Y151.616
G01 X174.886 Y154.592
G01 X169.438 Y157.408
G01 X164.087 Y160.530
G01 X159.863 Y163.265
G01 X154.012 Y166.307
G01 X148.246 Y169.718
G01 X144.840 Y171.939
G01 X138.365 Y175.339
G01 X131.976 Y179.191
G01 X129.817 Y180.612
G01 X129.523 Y188.116
G01 X129.669 Y195.479
G01 X129.817 Y197.959
G01 X129.524 Y204.714
G01 X129.599 Y211.371
G01 X129.817 Y215.306
G01 X129.530 Y221.545
G01 X129.563 Y227.728
G01 X129.817 Y232.653
G01 X129.535 Y238.611
G01 X129.547 Y244.555
G01 X129.817 Y250.000
G01 X138.699 Y255.468
G01 X144.840 Y258.673
G01 X151.757 Y262.982
G01 X157.717 Y266.108
G01 X163.262 Y269.569
G01 X168.447 Y272.303
G01 X172.952 Y275.195
G01 X177.535 Y277.701
G01 X179.178 Y278.499
G01 X182.860 Y280.927
G01 X186.604 Y283.065
G01 X189.908 Y284.694
G01 X247.854 Y251.239
G01 X247.998 Y251.291
G01 X248.141 Y251.332
G01 X248.284 Y251.362
G01 X248.425 Y251.381
G01 X248.563 Y251.391
G01 X248.699 Y251.389
G01 X248.830 Y251.379
G01 X248.958 Y251.358
G01 X249.080 Y251.329
G01 X249.197 Y251.291
G01 X249.308 Y251.246
G01 X249.412 Y251.192
G01 X249.509 Y251.132
G01 X249.599 Y251.065
G01 X249.681 Y250.992
G01 X249.755 Y250.914
G01 X249.820 Y250.831
G01 X249.877 Y250.745
G01 X249.925 Y250.655
G01 X249.963 Y250.562
G01 X249.992 Y250.468
G01 X250.012 Y250.372
G01 X250.023 Y250.275
G01 X250.024 Y250.179
G01 X250.015 Y250.083
G01 X250.000 Y250.000
G01 X250.007 Y250.042
G01 X250.011 Y250.085
G01 X250.010 Y250.128
G01 X250.005 Y250.171
G01 X249.995 Y250.214
G01 X249.982 Y250.256
G01 X249.964 Y250.298
G01 X249.942 Y250.338
G01 X249.917 Y250.376
G01 X249.887 Y250.413
G01 X249.853 Y250.448
G01 X249.816 Y250.480
G01 X249.776 Y250.509
G01 X249.732 Y250.536
G01 X249.685 Y250.560
G01 X249.635 Y250.580
G01 X249.582 Y250.596
G01 X249.527 Y250.609
G01 X249.470 Y250.617
G01 X249.411 Y250.622
G01 X249.350 Y250.622
G01 X249.288 Y250.617
G01 X249.225 Y250.608
G01 X249.161 Y250.594
G01 X249.097 Y250.575
G01 X249.033 Y250.551
G01 X248.969 Y250.522
G01 X248.905 Y250.489
G01 X248.843 Y250.450
G01 X248.781 Y250.406
G01 X248.722 Y250.357
G01 X248.664 Y250.304
G01 X248.609 Y250.245
G01 X248.556 Y250.182
G01 X248.506 Y250.114
G01 X248.459 Y250.042
G01 X248.416 Y249.965
G01 X248.377 Y249.884
G01 X248.342 Y249.800
G01 X248.312 Y249.711
G01 X248.286 Y249.620
G01 X248.266 Y249.525
G01 X248.251 Y249.427
G01 X248.241 Y249.327
G01 X248.237 Y249.224
G01 X248.239 Y249.119
G01 X248.247 Y249.013
G01 X248.261 Y248.905
G01 X248.282 Y248.796
G01 X248.309 Y248.687
G01 X248.343 Y248.578
G01 X248.384 Y248.469
G01 X248.431 Y248.361
G01 X248.486 Y248.253
G01 X248.547 Y248.147
G01 X248.615 Y248.043
G01 X248.689 Y247.942
G01 X248.761 Y247.854
G01 X215.306 Y189.908
G01 X211.088 Y189.649
G01 X206.764 Y189.664
G01 X202.915 Y189.908
G01 X197.743 Y189.657
G01 X192.437 Y189.775
G01 X190.525 Y189.908
G01 X184.137 Y189.684
G01 X178.134 Y189.908
G01 X170.151 Y189.635
G01 X163.265 Y189.908
G01 X152.994 Y189.614
G01 X145.918 Y189.908
G01 X142.716 Y194.893
G01 X139.753 Y200.048
G01 X137.245 Y204.931
G01 X133.935 Y210.094
G01 X130.862 Y215.473
G01 X128.571 Y219.954
G01 X125.025 Y225.514
G01 X121.737 Y231.350
G01 X119.898 Y234.977
G01 X115.990 Y241.160
G01 X112.384 Y247.690
G01 X111.224 Y250.000
G01 X114.722 Y256.646
G01 X118.529 Y262.949
G01 X119.898 Y265.023
G01 X123.022 Y271.019
G01 X126.415 Y276.747
G01 X128.571 Y280.046
G01 X131.442 Y285.592
G01 X134.562 Y290.931
G01 X137.245 Y295.069
G01 X139.980 Y300.369
G01 X142.963 Y305.511
G01 X145.918 Y310.092
G01 X156.345 Y310.386
G01 X163.265 Y310.092
G01 X171.410 Y310.364
G01 X178.134 Y310.092
G01 X184.667 Y310.316
G01 X190.525 Y310.092
G01 X195.872 Y310.344
G01 X201.094 Y310.222
G01 X202.915 Y310.092
G01 X207.318 Y310.354
G01 X211.630 Y310.333
G01 X215.306 Y310.092
G01 X248.761 Y252.146
G01 X248.934 Y252.076
G01 X249.097 Y251.994
G01 X249.249 Y251.902
G01 X249.389 Y251.799
G01 X249.518 Y251.688
G01 X249.634 Y251.569
G01 X249.737 Y251.443
G01 X249.827 Y251.311
G01 X249.904 Y251.174
G01 X249.966 Y251.033
G01 X250.015 Y250.889
G01 X250.049 Y250.743
G01 X250.069 Y250.596
G01 X250.074 Y250.449
G01 X250.066 Y250.304
G01 X250.043 Y250.161
G01 X250.007 Y250.021
G01 X250.000 Y250.000
G01 X250.013 Y250.049
G01 X250.022 Y250.098
G01 X250.026 Y250.149
G01 X250.025 Y250.200
G01 X250.018 Y250.251
G01 X250.007 Y250.302
G01 X249.991 Y250.353
G01 X249.970 Y250.402
G01 X249.944 Y250.450
G01 X249.913 Y250.497
G01 X249.878 Y250.541
G01 X249.838 Y250.583
G01 X249.794 Y250.622
G01 X249.745 Y250.658
G01 X249.693 Y250.691
G01 X249.637 Y250.720
G01 X249.577 Y250.745
G01 X249.514 Y250.766
G01 X249.448 Y250.783
G01 X249.379 Y250.794
G01 X249.308 Y250.801
G01 X249.235 Y250.803
G01 X249.160 Y250.799
G01 X249.083 Y250.790
G01 X249.006 Y250.775
G01 X248.928 Y250.754
G01 X248.849 Y250.727
G01 X248.771 Y250.695
G01 X248.693 Y250.656
G01 X248.617 Y250.612
G01 X248.541 Y250.561
G01 X248.468 Y250.505
G01 X248.396 Y250.443
G01 X248.327 Y250.374
G01 X248.261 Y250.300
G01 X248.198 Y250.221
G01 X248.139 Y250.136
G01 X248.085 Y250.046
G01 X248.034 Y249.950
G01 X247.989 Y249.850
G01 X247.949 Y249.745
G01 X247.914 Y249.636
G01 X247.885 Y249.523
G01 X247.862 Y249.407
G01 X247.846 Y249.287
G01 X247.837 Y249.164
G01 X247.834 Y249.038
G01 X247.839 Y248.910
G01 X247.851 Y248.781
G01 X247.854 Y248.761
G01 X189.908 Y215.306
G01 X186.126 Y217.191
G01 X182.388 Y219.366
G01 X179.178 Y221.501
G01 X174.572 Y223.870
G01 X170.037 Y226.625
G01 X168.447 Y227.697
G01 X162.803 Y230.696
G01 X157.717 Y233.892
G01 X150.666 Y237.647
G01 X144.840 Y241.327
G01 X135.798 Y246.207
G01 X129.817 Y250.000
G01 X129.536 Y255.918
G01 X129.547 Y261.864
G01 X129.817 Y267.347
G01 X129.531 Y273.473
G01 X129.561 Y279.668
G01 X129.817 Y284.694
G01 X129.526 Y291.282
G01 X129.597 Y297.980
G01 X129.817 Y302.041
G01 X129.524 Y309.349
G01 X129.666 Y316.807
G01 X129.817 Y319.388
G01 X136.169 Y323.394
G01 X142.617 Y326.949
G01 X144.840 Y328.061
G01 X150.543 Y331.692
G01 X156.346 Y334.955
G01 X159.863 Y336.735
G01 X165.122 Y340.103
G01 X170.493 Y343.166
G01 X174.886 Y345.408
G01 X179.905 Y348.631
G01 X185.058 Y351.593
G01 X189.908 Y354.082
G01 X199.085 Y349.123
G01 X204.931 Y345.408
G01 X212.121 Y341.572
G01 X217.808 Y337.974
G01 X223.578 Y334.902
G01 X228.539 Y331.778
G01 X233.295 Y329.323
G01 X237.757 Y326.607
G01 X239.269 Y325.583
G01 X243.213 Y323.609
G01 X246.937 Y321.435
G01 X250.000 Y319.388
G01 X250.000 Y252.478
G01 X250.101 Y252.047
G01 X250.159 Y251.613
G01 X250.175 Y251.180
G01 X250.149 Y250.750
G01 X250.082 Y250.326
G01 X250.000 Y250.000
G01 X250.015 Y250.064
G01 X250.024 Y250.129
G01 X250.027 Y250.195
G01 X250.023 Y250.261
G01 X250.013 Y250.328
G01 X249.996 Y250.394
G01 X249.973 Y250.458
G01 X249.943 Y250.522
G01 X249.907 Y250.583
G01 X249.865 Y250.642
G01 X249.817 Y250.698
G01 X249.764 Y250.751
G01 X249.704 Y250.800
G01 X249.640 Y250.845
G01 X249.570 Y250.885
G01 X249.496 Y250.920
G01 X249.417 Y250.950
G01 X249.334 Y250.975
G01 X249.247 Y250.993
G01 X249.157 Y251.005
G01 X249.064 Y251.011
G01 X248.969 Y251.009
G01 X248.872 Y251.001
G01 X248.773 Y250.986
G01 X248.673 Y250.963
G01 X248.572 Y250.932
G01 X248.471 Y250.894
G01 X248.371 Y250.848
G01 X248.272 Y250.795
G01 X248.174 Y250.734
G01 X248.078 Y250.665
G01 X247.985 Y250.588
G01 X247.895 Y250.504
G01 X247.808 Y250.412
G01 X247.726 Y250.313
G01 X247.648 Y250.206
G01 X247.575 Y250.093
G01 X247.522 Y250.000
G01 X180.612 Y250.000
G01 X178.279 Y253.523
G01 X176.129 Y257.276
G01 X174.417 Y260.731
G01 X171.613 Y265.085
G01 X169.062 Y269.738
G01 X168.222 Y271.461
G01 X164.833 Y276.881
G01 X162.026 Y282.192
G01 X157.798 Y288.969
G01 X154.592 Y295.069
G01 X149.201 Y303.816
G01 X145.918 Y310.092
G01 X148.634 Y315.357
G01 X151.616 Y320.501
G01 X154.592 Y325.114
G01 X157.408 Y330.562
G01 X160.530 Y335.913
G01 X163.265 Y340.137
G01 X166.307 Y345.988
G01 X169.718 Y351.754
G01 X171.939 Y355.160
G01 X175.339 Y361.635
G01 X179.191 Y368.024
G01 X180.612 Y370.183
G01 X188.116 Y370.477
G01 X195.479 Y370.331
G01 X197.959 Y370.183
G01 X204.714 Y370.476
G01 X211.371 Y370.401
G01 X215.306 Y370.183
G01 X221.545 Y370.470
G01 X227.728 Y370.437
G01 X232.653 Y370.183
G01 X238.611 Y370.465
G01 X244.555 Y370.453
G01 X250.000 Y370.183
G01 X255.468 Y361.301
G01 X258.673 Y355.160
G01 X262.982 Y348.243
G01 X266.108 Y342.283
G01 X269.569 Y336.738
G01 X272.303 Y331.553
G01 X275.195 Y327.048
G01 X277.701 Y322.465
G01 X278.499 Y320.822
G01 X280.927 Y317.140
G01 X283.065 Y313.396
G01 X284.694 Y310.092
G01 X251.239 Y252.146
G01 X251.000 Y251.947
G01 X250.784 Y251.730
G01 X250.591 Y251.497
G01 X250.424 Y251.250
G01 X250.283 Y250.991
G01 X250.168 Y250.721
G01 X250.081 Y250.444
G01 X250.021 Y250.160
G01 X250.000 Y250.000
G01 X250.006 Y250.106
G01 X250.001 Y250.211
G01 X249.986 Y250.317
G01 X249.961 Y250.421
G01 X249.925 Y250.523
G01 X249.880 Y250.623
G01 X249.824 Y250.719
G01 X249.759 Y250.811
G01 X249.684 Y250.897
G01 X249.601 Y250.979
G01 X249.508 Y251.054
G01 X249.408 Y251.122
G01 X249.300 Y251.183
G01 X249.184 Y251.235
G01 X249.062 Y251.279
G01 X248.934 Y251.313
G01 X248.800 Y251.338
G01 X248.662 Y251.353
G01 X248.519 Y251.357
G01 X248.373 Y251.350
G01 X248.224 Y251.332
G01 X248.073 Y251.302
G01 X247.921 Y251.261
G01 X247.854 Y251.239
G01 X189.908 Y284.694
G01 X189.649 Y288.912
G01 X189.664 Y293.236
G01 X189.908 Y297.085
G01 X189.657 Y302.257
G01 X189.775 Y307.563
G01 X189.908 Y309.475
G01 X189.684 Y315.863
G01 X189.908 Y321.866
G01 X189.635 Y329.849
G01 X189.908 Y336.735
G01 X189.614 Y347.006
G01 X189.908 Y354.082
G01 X194.893 Y357.284
G01 X200.048 Y360.247
G01 X204.931 Y362.755
G01 X210.094 Y366.065
G01 X215.473 Y369.138
G01 X219.954 Y371.429
G01 X225.514 Y374.975
G01 X231.350 Y378.263
G01 X234.977 Y380.102
G01 X241.160 Y384.010
G01 X247.690 Y387.616
G01 X250.000 Y388.776
G01 X256.646 Y385.278
G01 X262.949 Y381.471
G01 X265.023 Y380.102
G01 X271.019 Y376.978
G01 X276.747 Y373.585
G01 X280.046 Y371.429
G01 X285.592 Y368.558
G01 X290.931 Y365.438
G01 X295.069 Y362.755
G01 X300.369 Y360.020
G01 X305.511 Y357.037
G01 X310.092 Y354.082
G01 X310.386 Y343.655
G01 X310.092 Y336.735
G01 X310.364 Y328.590
G01 X310.092 Y321.866
G01 X310.316 Y315.333
G01 X310.092 Y309.475
G01 X310.344 Y304.128
G01 X310.222 Y298.906
G01 X310.092 Y297.085
G01 X310.354 Y292.682
G01 X310.333 Y288.370
G01 X310.092 Y284.694
G01 X252.146 Y251.239
G01 X251.999 Y251.289
G01 X251.853 Y251.328
G01 X251.708 Y251.356
G01 X251.565 Y251.373
G01 X251.425 Y251.379
G01 X251.287 Y251.375
G01 X251.154 Y251.361
G01 X251.026 Y251.337
G01 X250.903 Y251.304
G01 X250.785 Y251.263
G01 X250.674 Y251.213
G01 X250.570 Y251.156
G01 X250.473 Y251.091
G01 X250.384 Y251.020
G01 X250.303 Y250.944
G01 X250.231 Y250.862
G01 X250.167 Y250.775
G01 X250.113 Y250.685
G01 X250.068 Y250.591
G01 X250.032 Y250.495
G01 X250.006 Y250.396
G01 X249.990 Y250.297
G01 X249.984 Y250.198
G01 X249.987 Y250.098
G01 X250.000 Y250.000
G01 X249.920 Y250.345
G01 X249.806 Y250.681
G01 X249.659 Y251.006
G01 X249.480 Y251.317
G01 X249.270 Y251.612
G01 X249.030 Y251.889
G01 X248.761 Y252.146
G01 X215.306 Y310.092
G01 X217.191 Y313.874
G01 X219.366 Y317.612
G01 X221.501 Y320.822
G01 X223.870 Y325.428
G01 X226.625 Y329.963
G01 X227.697 Y331.553
G01 X230.696 Y337.197
G01 X233.892 Y342.283
G01 X237.647 Y349.334
G01 X241.327 Y355.160
G01 X246.207 Y364.202
G01 X250.000 Y370.183
G01 X255.918 Y370.464
G01 X261.864 Y370.453
G01 X267.347 Y370.183
G01 X273.473 Y370.469
G01 X279.668 Y370.439
G01 X284.694 Y370.183
G01 X291.282 Y370.474
G01 X297.980 Y370.403
G01 X302.041 Y370.183
G01 X309.349 Y370.476
G01 X316.807 Y370.334
G01 X319.388 Y370.183
G01 X323.394 Y363.831
G01 X326.949 Y357.383
G01 X328.061 Y355.160
G01 X331.692 Y349.457
G01 X334.955 Y343.654
G01 X336.735 Y340.137
G01 X340.103 Y334.878
G01 X343.166 Y329.507
G01 X345.408 Y325.114
G01 X348.631 Y320.095
G01 X351.593 Y314.942
G01 X354.082 Y310.092
G01 X349.123 Y300.915
G01 X345.408 Y295.069
G01 X341.572 Y287.879
G01 X337.974 Y282.192
G01 X334.902 Y276.422
G01 X331.778 Y271.461
G01 X329.323 Y266.705
G01 X326.607 Y262.243
G01 X325.583 Y260.731
G01 X323.609 Y256.787
G01 X321.435 Y253.063
G01 X319.388 Y250.000
G01 X252.478 Y250.000
G01 X252.412 Y250.118
G01 X252.340 Y250.230
G01 X252.263 Y250.336
G01 X252.181 Y250.434
G01 X252.095 Y250.525
G01 X252.006 Y250.609
G01 X251.914 Y250.685
G01 X251.819 Y250.754
G01 X251.723 Y250.815
G01 X251.625 Y250.868
G01 X251.525 Y250.914
G01 X251.426 Y250.953
G01 X251.326 Y250.984
G01 X251.227 Y251.007
G01 X251.129 Y251.023
G01 X251.033 Y251.033
G01 X250.938 Y251.035
G01 X250.846 Y251.031
G01 X250.756 Y251.020
G01 X250.670 Y251.003
G01 X250.587 Y250.980
G01 X250.508 Y250.951
G01 X250.434 Y250.918
G01 X250.364 Y250.879
G01 X250.299 Y250.836
G01 X250.239 Y250.789
G01 X250.185 Y250.738
G01 X250.136 Y250.684
G01 X250.093 Y250.627
G01 X250.056 Y250.567
G01 X250.025 Y250.506
G01 X250.000 Y250.443
G01 X249.981 Y250.379
G01 X249.969 Y250.314
G01 X249.963 Y250.249
G01 X249.963 Y250.185
G01 X249.970 Y250.121
G01 X249.982 Y250.058
G01 X250.000 Y250.000
G01 X249.897 Y250.341
G01 X249.828 Y250.691
G01 X249.794 Y251.048
G01 X249.794 Y251.410
G01 X249.829 Y251.773
G01 X249.900 Y252.135
G01 X250.000 Y252.478
G01 X250.000 Y319.388
G01 X253.523 Y321.721
G01 X257.276 Y323.871
G01 X260.731 Y325.583
G01 X265.085 Y328.387
G01 X269.738 Y330.938
G01 X271.461 Y331.778
G01 X276.881 Y335.167
G01 X282.192 Y337.974
G01 X288.969 Y342.202
G01 X295.069 Y345.408
G01 X303.816 Y350.799
G01 X310.092 Y354.082
G01 X315.357 Y351.366
G01 X320.501 Y348.384
G01 X325.114 Y345.408
G01 X330.562 Y342.592
G01 X335.913 Y339.470
G01 X340.137 Y336.735
G01 X345.988 Y333.693
G01 X351.754 Y330.282
G01 X355.160 Y328.061
G01 X361.635 Y324.661
G01 X368.024 Y320.809
G01 X370.183 Y319.388
G01 X370.477 Y311.884
G01 X370.331 Y304.521
G01 X370.183 Y302.041
G01 X370.476 Y295.286
G01 X370.401 Y288.629
G01 X370.183 Y284.694
G01 X370.470 Y278.455
G01 X370.437 Y272.272
G01 X370.183 Y267.347
G01 X370.465 Y261.389
G01 X370.453 Y255.445
G01 X370.183 Y250.000
G01 X361.301 Y244.532
G01 X355.160 Y241.327
G01 X348.243 Y237.018
G01 X342.283 Y233.892
G01 X336.738 Y230.431
G01 X331.553 Y227.697
G01 X327.048 Y224.805
G01 X322.465 Y222.299
G01 X320.822 Y221.501
G01 X317.140 Y219.073
G01 X313.396 Y216.935
G01 X310.092 Y215.306
G01 X252.146 Y248.761
G01 X252.056 Y248.674
G01 X251.962 Y248.594
G01 X251.866 Y248.519
G01 X251.767 Y248.450
G01 X251.666 Y248.388
G01 X251.563 Y248.331
G01 X251.459 Y248.281
G01 X251.353 Y248.237
G01 X251.247 Y248.198
G01 X251.140 Y248.167
G01 X251.033 Y248.141
G01 X250.927 Y248.121
G01 X250.821 Y248.107
G01 X250.716 Y248.099
G01 X250.612 Y248.096
G01 X250.509 Y248.100
G01 X250.409 Y248.108
G01 X250.310 Y248.122
G01 X250.214 Y248.141
G01 X250.120 Y248.164
G01 X250.030 Y248.192
G01 X249.942 Y248.225
G01 X249.857 Y248.262
G01 X249.777 Y248.302
G01 X249.699 Y248.347
G01 X249.626 Y248.395
G01 X249.556 Y248.446
G01 X249.491 Y248.500
G01 X249.429 Y248.556
G01 X249.372 Y248.615
G01 X249.320 Y248.676
G01 X249.272 Y248.738
G01 X249.228 Y248.802
G01 X249.189 Y248.868
G01 X249.154 Y248.934
G01 X249.124 Y249.001
G01 X249.098 Y249.068
G01 X249.076 Y249.135
G01 X249.059 Y249.202
G01 X249.047 Y249.269
G01 X249.038 Y249.334
G01 X249.034 Y249.399
G01 X249.033 Y249.463
G01 X249.037 Y249.525
G01 X249.044 Y249.586
G01 X249.055 Y249.644
G01 X249.069 Y249.701
G01 X249.086 Y249.755
G01 X249.106 Y249.807
G01 X249.129 Y249.856
G01 X249.155 Y249.903
G01 X249.183 Y249.946
G01 X249.214 Y249.987
G01 X249.246 Y250.025
G01 X249.280 Y250.059
G01 X249.315 Y250.090
G01 X249.352 Y250.118
G01 X249.389 Y250.142
G01 X249.428 Y250.163
G01 X249.467 Y250.181
G01 X249.506 Y250.195
G01 X249.545 Y250.206
G01 X249.584 Y250.214
G01 X249.623 Y250.218
G01 X249.661 Y250.219
G01 X249.698 Y250.217
G01 X249.734 Y250.211
G01 X249.769 Y250.203
G01 X249.802 Y250.192
G01 X249.833 Y250.178
G01 X249.863 Y250.162
G01 X249.890 Y250.143
G01 X249.916 Y250.122
G01 X249.939 Y250.099
G01 X249.959 Y250.074
G01 X249.977 Y250.047
G01 X249.992 Y250.019
G01 X250.000 Y250.000
G01 X249.956 Y250.128
G01 X249.926 Y250.260
G01 X249.908 Y250.394
G01 X249.903 Y250.531
G01 X249.911 Y250.669
G01 X249.933 Y250.807
G01 X249.968 Y250.945
G01 X250.017 Y251.080
G01 X250.078 Y251.213
G01 X250.153 Y251.342
G01 X250.240 Y251.466
G01 X250.340 Y251.584
G01 X250.453 Y251.696
G01 X250.576 Y251.800
G01 X250.711 Y251.896
G01 X250.857 Y251.983
G01 X251.013 Y252.060
G01 X251.178 Y252.126
G01 X251.239 Y252.146
G01 X269.825 Y284.338
G01 X272.243 Y284.497
G01 X274.722 Y284.500
G01 X277.253 Y284.339
G01 X277.259 Y284.338
G01 X280.333 Y284.579
G01 X283.492 Y284.598
G01 X286.722 Y284.386
G01 X287.172 Y284.338
G01 X291.309 Y284.561
G01 X295.551 Y284.457
G01 X297.085 Y284.338
G01 X302.719 Y284.617
G01 X308.485 Y284.420
G01 X309.475 Y284.338
G01 X311.360 Y281.518
G01 X313.110 Y278.595
G01 X314.721 Y275.576
G01 X315.671 Y273.607
G01 X317.652 Y270.632
G01 X319.498 Y267.518
G01 X321.199 Y264.272
G01 X321.866 Y262.877
G01 X324.062 Y259.548
G01 X326.101 Y256.034
G01 X327.969 Y252.342
G01 X328.061 Y252.146
G01 X329.300 Y250.000
G01 X327.384 Y246.198
G01 X325.290 Y242.585
G01 X323.105 Y239.269
G01 X321.431 Y235.904
G01 X319.606 Y232.677
G01 X317.638 Y229.594
G01 X316.910 Y228.539
G01 X315.375 Y225.432
G01 X313.697 Y222.424
G01 X311.883 Y219.521
G01 X310.714 Y217.808
G01 X309.475 Y215.662
G01 X303.690 Y215.382
G01 X298.031 Y215.582
G01 X297.085 Y215.662
G01 X292.810 Y215.438
G01 X288.633 Y215.545
G01 X287.172 Y215.662
G01 X283.933 Y215.418
G01 X280.763 Y215.405
G01 X277.677 Y215.616
G01 X277.259 Y215.662
G01 X274.728 Y215.501
G01 X272.249 Y215.502
G01 X269.831 Y215.661
G01 X269.825 Y215.662
G01 X251.239 Y247.854
G01 X251.116 Y247.828
G01 X250.993 Y247.809
G01 X250.870 Y247.797
G01 X250.750 Y247.792
G01 X250.630 Y247.793
G01 X250.513 Y247.800
G01 X250.398 Y247.814
G01 X250.285 Y247.833
G01 X250.176 Y247.858
G01 X250.069 Y247.889
G01 X249.966 Y247.924
G01 X249.867 Y247.965
G01 X249.771 Y248.010
G01 X249.680 Y248.060
G01 X249.593 Y248.114
G01 X249.510 Y248.171
G01 X249.432 Y248.232
G01 X249.359 Y248.297
G01 X249.291 Y248.364
G01 X249.227 Y248.433
G01 X249.169 Y248.505
G01 X249.116 Y248.579
G01 X249.068 Y248.654
G01 X249.026 Y248.730
G01 X248.988 Y248.807
G01 X248.956 Y248.885
G01 X248.929 Y248.963
G01 X248.907 Y249.041
G01 X248.889 Y249.119
G01 X248.877 Y249.195
G01 X248.870 Y249.271
G01 X248.867 Y249.346
G01 X248.869 Y249.419
G01 X248.875 Y249.490
G01 X248.885 Y249.560
G01 X248.900 Y249.627
G01 X248.918 Y249.691
G01 X248.940 Y249.753
G01 X248.965 Y249.812
G01 X248.993 Y249.867
G01 X249.024 Y249.920
G01 X249.058 Y249.969
G01 X249.094 Y250.015
G01 X249.133 Y250.057
G01 X249.173 Y250.095
G01 X249.214 Y250.130
G01 X249.257 Y250.160
G01 X249.302 Y250.187
G01 X249.346 Y250.210
G01 X249.392 Y250.229
G01 X249.437 Y250.244
G01 X249.483 Y250.255
G01 X249.528 Y250.262
G01 X249.572 Y250.266
G01 X249.616 Y250.266
G01 X249.658 Y250.262
G01 X249.700 Y250.255
G01 X249.739 Y250.244
G01 X249.777 Y250.231
G01 X249.813 Y250.214
G01 X249.846 Y250.194
G01 X249.877 Y250.172
G01 X249.905 Y250.147
G01 X249.931 Y250.120
G01 X249.954 Y250.090
G01 X249.973 Y250.059
G01 X249.990 Y250.026
G01 X250.000 Y250.000
G01 X249.975 Y250.084
G01 X249.958 Y250.171
G01 X249.950 Y250.259
G01 X249.950 Y250.348
G01 X249.959 Y250.437
G01 X249.977 Y250.526
G01 X250.003 Y250.615
G01 X250.038 Y250.701
G01 X250.082 Y250.786
G01 X250.134 Y250.868
G01 X250.194 Y250.946
G01 X250.262 Y251.021
G01 X250.337 Y251.090
G01 X250.420 Y251.155
G01 X250.511 Y251.214
G01 X250.607 Y251.267
G01 X250.711 Y251.313
G01 X250.820 Y251.351
G01 X250.934 Y251.382
G01 X251.054 Y251.405
G01 X251.177 Y251.419
G01 X251.305 Y251.424
G01 X251.436 Y251.420
G01 X251.569 Y251.407
G01 X251.704 Y251.383
G01 X251.841 Y251.350
G01 X251.978 Y251.306
G01 X252.115 Y251.253
G01 X252.146 Y251.239
G01 X284.338 Y269.825
G01 X286.512 Y268.754
G01 X288.660 Y267.516
G01 X290.771 Y266.112
G01 X290.776 Y266.108
G01 X293.559 Y264.780
G01 X296.304 Y263.217
G01 X298.995 Y261.418
G01 X299.361 Y261.152
G01 X303.055 Y259.277
G01 X306.676 Y257.065
G01 X307.945 Y256.195
G01 X312.965 Y253.620
G01 X317.860 Y250.566
G01 X318.676 Y250.000
G01 X318.898 Y246.615
G01 X318.952 Y243.209
G01 X318.838 Y239.789
G01 X318.676 Y237.609
G01 X318.905 Y234.042
G01 X318.946 Y230.422
G01 X318.796 Y226.761
G01 X318.676 Y225.219
G01 X318.914 Y221.238
G01 X318.922 Y217.175
G01 X318.694 Y213.044
G01 X318.676 Y212.828
G01 X318.676 Y210.350
G01 X315.116 Y208.016
G01 X311.496 Y205.933
G01 X307.945 Y204.155
G01 X304.813 Y202.077
G01 X301.619 Y200.195
G01 X298.374 Y198.509
G01 X297.215 Y197.959
G01 X294.332 Y196.036
G01 X291.376 Y194.270
G01 X288.353 Y192.663
G01 X286.484 Y191.764
G01 X284.338 Y190.525
G01 X279.188 Y193.175
G01 X274.387 Y196.177
G01 X273.607 Y196.720
G01 X269.794 Y198.663
G01 X266.230 Y200.845
G01 X265.023 Y201.676
G01 X262.096 Y203.084
G01 X259.344 Y204.658
G01 X256.777 Y206.384
G01 X256.438 Y206.633
G01 X254.166 Y207.759
G01 X252.019 Y209.000
G01 X250.005 Y210.346
G01 X250.000 Y210.350
G01 X250.000 Y247.522
G01 X249.880 Y247.567
G01 X249.765 Y247.618
G01 X249.655 Y247.674
G01 X249.550 Y247.736
G01 X249.449 Y247.802
G01 X249.354 Y247.872
G01 X249.265 Y247.946
G01 X249.181 Y248.024
G01 X249.104 Y248.105
G01 X249.032 Y248.188
G01 X248.966 Y248.274
G01 X248.906 Y248.362
G01 X248.852 Y248.452
G01 X248.804 Y248.543
G01 X248.763 Y248.635
G01 X248.727 Y248.727
G01 X248.698 Y248.820
G01 X248.674 Y248.912
G01 X248.656 Y249.003
G01 X248.644 Y249.094
G01 X248.638 Y249.184
G01 X248.637 Y249.271
G01 X248.641 Y249.357
G01 X248.650 Y249.441
G01 X248.664 Y249.522
G01 X248.683 Y249.601
G01 X248.706 Y249.676
G01 X248.733 Y249.748
G01 X248.764 Y249.817
G01 X248.799 Y249.882
G01 X248.837 Y249.943
G01 X248.878 Y250.000
G01 X248.922 Y250.053
G01 X248.968 Y250.102
G01 X249.016 Y250.146
G01 X249.066 Y250.186
G01 X249.117 Y250.221
G01 X249.170 Y250.252
G01 X249.223 Y250.278
G01 X249.277 Y250.300
G01 X249.331 Y250.317
G01 X249.384 Y250.329
G01 X249.438 Y250.337
G01 X249.490 Y250.341
G01 X249.541 Y250.340
G01 X249.591 Y250.335
G01 X249.640 Y250.326
G01 X249.686 Y250.314
G01 X249.730 Y250.297
G01 X249.772 Y250.278
G01 X249.811 Y250.254
G01 X249.848 Y250.228
G01 X249.881 Y250.199
G01 X249.911 Y250.167
G01 X249.937 Y250.133
G01 X249.960 Y250.097
G01 X249.979 Y250.059
G01 X249.994 Y250.019
G01 X250.000 Y250.000
G01 X249.985 Y250.064
G01 X249.977 Y250.130
G01 X249.975 Y250.197
G01 X249.980 Y250.263
G01 X249.991 Y250.330
G01 X250.009 Y250.396
G01 X250.033 Y250.461
G01 X250.064 Y250.524
G01 X250.101 Y250.586
G01 X250.144 Y250.644
G01 X250.193 Y250.700
G01 X250.247 Y250.753
G01 X250.308 Y250.801
G01 X250.373 Y250.846
G01 X250.444 Y250.885
G01 X250.519 Y250.920
G01 X250.599 Y250.949
G01 X250.683 Y250.973
G01 X250.770 Y250.990
G01 X250.861 Y251.001
G01 X250.955 Y251.006
G01 X251.051 Y251.003
G01 X251.149 Y250.994
G01 X251.248 Y250.977
G01 X251.348 Y250.953
G01 X251.449 Y250.921
G01 X251.550 Y250.881
G01 X251.650 Y250.834
G01 X251.749 Y250.779
G01 X251.847 Y250.716
G01 X251.943 Y250.645
G01 X252.036 Y250.567
G01 X252.125 Y250.481
G01 X252.211 Y250.387
G01 X252.293 Y250.286
G01 X252.370 Y250.178
G01 X252.442 Y250.064
G01 X252.478 Y250.000
G01 X289.650 Y250.000
G01 X290.997 Y247.986
G01 X292.238 Y245.840
G01 X293.365 Y243.567
G01 X293.367 Y243.562
G01 X295.113 Y241.021
G01 X296.708 Y238.294
G01 X298.140 Y235.390
G01 X298.324 Y234.977
G01 X300.585 Y231.506
G01 X302.616 Y227.780
G01 X303.280 Y226.393
G01 X306.339 Y221.652
G01 X309.051 Y216.560
G01 X309.475 Y215.662
G01 X307.975 Y212.620
G01 X306.319 Y209.643
G01 X304.510 Y206.738
G01 X303.280 Y204.931
G01 X301.694 Y201.727
G01 X299.920 Y198.572
G01 X297.960 Y195.476
G01 X297.085 Y194.201
G01 X295.300 Y190.634
G01 X293.276 Y187.112
G01 X291.013 Y183.648
G01 X290.889 Y183.470
G01 X289.650 Y181.324
G01 X285.400 Y181.083
G01 X281.223 Y181.089
G01 X277.259 Y181.324
G01 X273.508 Y181.091
G01 X269.801 Y181.058
G01 X266.147 Y181.221
G01 X264.869 Y181.324
G01 X261.411 Y181.100
G01 X257.967 Y181.049
G01 X254.546 Y181.168
G01 X252.478 Y181.324
G01 X250.000 Y181.324
G01 X246.865 Y186.194
G01 X244.208 Y191.195
G01 X243.805 Y192.055
G01 X241.473 Y195.644
G01 X239.478 Y199.315
G01 X238.848 Y200.639
G01 X237.017 Y203.322
G01 X235.421 Y206.061
G01 X234.061 Y208.839
G01 X233.892 Y209.224
G01 X232.487 Y211.335
G01 X231.249 Y213.483
G01 X230.177 Y215.657
G01 X230.175 Y215.662
G01 X248.761 Y247.854
G01 X248.684 Y247.959
G01 X248.615 Y248.067
G01 X248.553 Y248.176
G01 X248.498 Y248.287
G01 X248.450 Y248.399
G01 X248.410 Y248.511
G01 X248.377 Y248.623
G01 X248.351 Y248.735
G01 X248.332 Y248.845
G01 X248.320 Y248.955
G01 X248.314 Y249.063
G01 X248.315 Y249.169
G01 X248.322 Y249.273
G01 X248.335 Y249.373
G01 X248.354 Y249.471
G01 X248.378 Y249.565
G01 X248.408 Y249.656
G01 X248.442 Y249.743
G01 X248.481 Y249.825
G01 X248.524 Y249.903
G01 X248.571 Y249.977
G01 X248.621 Y250.045
G01 X248.675 Y250.109
G01 X248.731 Y250.167
G01 X248.790 Y250.220
G01 X248.851 Y250.268
G01 X248.914 Y250.310
G01 X248.977 Y250.347
G01 X249.042 Y250.378
G01 X249.107 Y250.404
G01 X249.173 Y250.425
G01 X249.238 Y250.440
G01 X249.302 Y250.450
G01 X249.366 Y250.454
G01 X249.428 Y250.454
G01 X249.489 Y250.449
G01 X249.547 Y250.438
G01 X249.603 Y250.424
G01 X249.657 Y250.405
G01 X249.707 Y250.381
G01 X249.755 Y250.354
G01 X249.799 Y250.323
G01 X249.839 Y250.289
G01 X249.876 Y250.252
G01 X249.908 Y250.212
G01 X249.936 Y250.169
G01 X249.960 Y250.125
G01 X249.979 Y250.078
G01 X249.993 Y250.030
G01 X250.000 Y250.000
G01 X249.993 Y250.053
G01 X249.991 Y250.106
G01 X249.994 Y250.160
G01 X250.003 Y250.214
G01 X250.017 Y250.267
G01 X250.036 Y250.319
G01 X250.060 Y250.369
G01 X250.089 Y250.418
G01 X250.123 Y250.465
G01 X250.162 Y250.509
G01 X250.206 Y250.551
G01 X250.254 Y250.589
G01 X250.306 Y250.624
G01 X250.362 Y250.655
G01 X250.422 Y250.682
G01 X250.485 Y250.704
G01 X250.551 Y250.722
G01 X250.621 Y250.735
G01 X250.692 Y250.742
G01 X250.766 Y250.745
G01 X250.842 Y250.742
G01 X250.919 Y250.733
G01 X250.997 Y250.718
G01 X251.076 Y250.697
G01 X251.155 Y250.670
G01 X251.234 Y250.637
G01 X251.313 Y250.598
G01 X251.390 Y250.553
G01 X251.466 Y250.501
G01 X251.540 Y250.444
G01 X251.612 Y250.380
G01 X251.682 Y250.310
G01 X251.748 Y250.234
G01 X251.810 Y250.152
G01 X251.869 Y250.065
G01 X251.923 Y249.973
G01 X251.973 Y249.875
G01 X252.018 Y249.772
G01 X252.057 Y249.665
G01 X252.090 Y249.553
G01 X252.117 Y249.438
G01 X252.138 Y249.318
G01 X252.152 Y249.195
G01 X252.159 Y249.070
G01 X252.159 Y248.941
G01 X252.151 Y248.811
G01 X252.146 Y248.761
G01 X284.338 Y230.175
G01 X284.497 Y227.757
G01 X284.500 Y225.278
G01 X284.339 Y222.747
G01 X284.338 Y222.741
G01 X284.579 Y219.667
G01 X284.598 Y216.508
G01 X284.386 Y213.278
G01 X284.338 Y212.828
G01 X284.561 Y208.691
G01 X284.457 Y204.449
G01 X284.338 Y202.915
G01 X284.617 Y197.281
G01 X284.420 Y191.515
G01 X284.338 Y190.525
G01 X281.518 Y188.640
G01 X278.595 Y186.890
G01 X275.576 Y185.279
G01 X273.607 Y184.329
G01 X270.632 Y182.348
G01 X267.518 Y180.502
G01 X264.272 Y178.801
G01 X262.877 Y178.134
G01 X259.548 Y175.938
G01 X256.034 Y173.899
G01 X252.342 Y172.031
G01 X252.146 Y171.939
G01 X250.000 Y170.700
G01 X246.198 Y172.616
G01 X242.585 Y174.710
G01 X239.269 Y176.895
G01 X235.904 Y178.569
G01 X232.677 Y180.394
G01 X229.594 Y182.362
G01 X228.539 Y183.090
G01 X225.432 Y184.625
G01 X222.424 Y186.303
G01 X219.521 Y188.117
G01 X217.808 Y189.286
G01 X215.662 Y190.525
G01 X215.382 Y196.310
G01 X215.582 Y201.969
G01 X215.662 Y202.915
G01 X215.438 Y207.190
G01 X215.545 Y211.367
G01 X215.662 Y212.828
G01 X215.418 Y216.067
G01 X215.405 Y219.237
G01 X215.616 Y222.323
G01 X215.662 Y222.741
G01 X215.501 Y225.272
G01 X215.502 Y227.751
G01 X215.661 Y230.169
G01 X215.662 Y230.175
G01 X247.854 Y248.761
G01 X247.850 Y248.896
G01 X247.854 Y249.027
G01 X247.865 Y249.156
G01 X247.884 Y249.282
G01 X247.910 Y249.403
G01 X247.942 Y249.520
G01 X247.981 Y249.633
G01 X248.026 Y249.740
G01 X248.076 Y249.842
G01 X248.131 Y249.939
G01 X248.191 Y250.030
G01 X248.256 Y250.114
G01 X248.324 Y250.193
G01 X248.395 Y250.265
G01 X248.470 Y250.330
G01 X248.547 Y250.389
G01 X248.625 Y250.442
G01 X248.706 Y250.487
G01 X248.787 Y250.526
G01 X248.869 Y250.558
G01 X248.951 Y250.583
G01 X249.032 Y250.602
G01 X249.113 Y250.614
G01 X249.192 Y250.620
G01 X249.270 Y250.619
G01 X249.346 Y250.613
G01 X249.419 Y250.600
G01 X249.489 Y250.582
G01 X249.556 Y250.559
G01 X249.620 Y250.531
G01 X249.679 Y250.498
G01 X249.734 Y250.460
G01 X249.785 Y250.418
G01 X249.831 Y250.373
G01 X249.872 Y250.324
G01 X249.907 Y250.273
G01 X249.938 Y250.218
G01 X249.962 Y250.162
G01 X249.981 Y250.104
G01 X249.994 Y250.044
G01 X250.000 Y250.000
G01 X249.998 Y250.045
G01 X250.000 Y250.090
G01 X250.007 Y250.134
G01 X250.018 Y250.178
G01 X250.034 Y250.222
G01 X250.053 Y250.264
G01 X250.077 Y250.304
G01 X250.105 Y250.343
G01 X250.137 Y250.380
G01 X250.173 Y250.414
G01 X250.212 Y250.445
G01 X250.255 Y250.474
G01 X250.301 Y250.499
G01 X250.350 Y250.521
G01 X250.402 Y250.539
G01 X250.457 Y250.553
G01 X250.514 Y250.563
G01 X250.572 Y250.569
G01 X250.633 Y250.570
G01 X250.695 Y250.567
G01 X250.758 Y250.559
G01 X250.822 Y250.545
G01 X250.886 Y250.527
G01 X250.951 Y250.504
G01 X251.015 Y250.476
G01 X251.078 Y250.443
G01 X251.141 Y250.404
G01 X251.203 Y250.361
G01 X251.262 Y250.312
G01 X251.320 Y250.258
G01 X251.376 Y250.200
G01 X251.428 Y250.136
G01 X251.478 Y250.068
G01 X251.524 Y249.995
G01 X251.567 Y249.918
G01 X251.606 Y249.837
G01 X251.640 Y249.751
G01 X251.670 Y249.662
G01 X251.695 Y249.570
G01 X251.715 Y249.474
G01 X251.729 Y249.375
G01 X251.738 Y249.274
G01 X251.740 Y249.170
G01 X251.737 Y249.065
G01 X251.727 Y248.957
G01 X251.711 Y248.849
G01 X251.689 Y248.739
G01 X251.659 Y248.629
G01 X251.623 Y248.519
G01 X251.580 Y248.410
G01 X251.530 Y248.301
G01 X251.473 Y248.193
G01 X251.410 Y248.087
G01 X251.339 Y247.983
G01 X251.261 Y247.881
G01 X251.239 Y247.854
G01 X269.825 Y215.662
G01 X268.754 Y213.488
G01 X267.516 Y211.340
G01 X266.112 Y209.229
G01 X266.108 Y209.224
G01 X264.780 Y206.441
G01 X263.217 Y203.696
G01 X261.418 Y201.005
G01 X261.152 Y200.639
G01 X259.277 Y196.945
G01 X257.065 Y193.324
G01 X256.195 Y192.055
G01 X253.620 Y187.035
G01 X250.566 Y182.140
G01 X250.000 Y181.324
G01 X246.615 Y181.102
G01 X243.209 Y181.048
G01 X239.789 Y181.162
G01 X237.609 Y181.324
G01 X234.042 Y181.095
G01 X230.422 Y181.054
G01 X226.761 Y181.204
G01 X225.219 Y181.324
G01 X221.238 Y181.086
G01 X217.175 Y181.078
G01 X213.044 Y181.306
G01 X212.828 Y181.324
G01 X210.350 Y181.324
G01 X208.016 Y184.884
G01 X205.933 Y188.504
G01 X204.155 Y192.055
G01 X202.077 Y195.187
G01 X200.195 Y198.381
G01 X198.509 Y201.626
G01 X197.959 Y202.785
G01 X196.036 Y205.668
G01 X194.270 Y208.624
G01 X192.663 Y211.647
G01 X191.764 Y213.516
G01 X190.525 Y215.662
G01 X193.175 Y220.812
G01 X196.177 Y225.613
G01 X196.720 Y226.393
G01 X198.663 Y230.206
G01 X200.845 Y233.770
G01 X201.676 Y234.977
G01 X203.084 Y237.904
G01 X204.658 Y240.656
G01 X206.384 Y243.223
G01 X206.633 Y243.562
G01 X207.759 Y245.834
G01 X209.000 Y247.981
G01 X210.346 Y249.995
G01 X210.350 Y250.000
G01 X247.522 Y250.000
G01 X247.603 Y250.118
G01 X247.690 Y250.228
G01 X247.781 Y250.329
G01 X247.876 Y250.422
G01 X247.976 Y250.507
G01 X248.078 Y250.583
G01 X248.182 Y250.650
G01 X248.289 Y250.709
G01 X248.396 Y250.759
G01 X248.504 Y250.799
G01 X248.613 Y250.832
G01 X248.720 Y250.855
G01 X248.826 Y250.870
G01 X248.931 Y250.877
G01 X249.033 Y250.876
G01 X249.133 Y250.867
G01 X249.229 Y250.851
G01 X249.321 Y250.827
G01 X249.409 Y250.797
G01 X249.492 Y250.760
G01 X249.571 Y250.716
G01 X249.643 Y250.668
G01 X249.710 Y250.614
G01 X249.770 Y250.555
G01 X249.824 Y250.492
G01 X249.871 Y250.425
G01 X249.911 Y250.355
G01 X249.944 Y250.282
G01 X249.969 Y250.207
G01 X249.987 Y250.131
G01 X249.997 Y250.053
G01 X250.000 Y250.000
G01 X249.997 Y250.039
G01 X249.991 Y250.077
G01 X249.981 Y250.115
G01 X249.967 Y250.152
G01 X249.950 Y250.188
G01 X249.929 Y250.222
G01 X249.904 Y250.255
G01 X249.876 Y250.286
G01 X249.845 Y250.314
G01 X249.811 Y250.340
G01 X249.774 Y250.364
G01 X249.734 Y250.384
G01 X249.692 Y250.402
G01 X249.648 Y250.416
G01 X249.601 Y250.426
G01 X249.553 Y250.433
G01 X249.503 Y250.436
G01 X249.452 Y250.436
G01 X249.399 Y250.431
G01 X249.346 Y250.422
G01 X249.292 Y250.409
G01 X249.239 Y250.392
G01 X249.185 Y250.370
G01 X249.132 Y250.344
G01 X249.079 Y250.313
G01 X249.027 Y250.278
G01 X248.977 Y250.239
G01 X248.928 Y250.196
G01 X248.881 Y250.148
G01 X248.836 Y250.096
G01 X248.794 Y250.040
G01 X248.755 Y249.980
G01 X248.718 Y249.917
G01 X248.685 Y249.850
G01 X248.656 Y249.779
G01 X248.630 Y249.705
G01 X248.609 Y249.628
G01 X248.592 Y249.548
G01 X248.579 Y249.466
G01 X248.571 Y249.382
G01 X248.569 Y249.295
G01 X248.571 Y249.207
G01 X248.578 Y249.117
G01 X248.591 Y249.026
G01 X248.610 Y248.935
G01 X248.634 Y248.843
G01 X248.664 Y248.750
G01 X248.700 Y248.658
G01 X248.742 Y248.567
G01 X248.790 Y248.477
G01 X248.843 Y248.387
G01 X248.902 Y248.300
G01 X248.968 Y248.214
G01 X249.039 Y248.131
G01 X249.116 Y248.051
G01 X249.198 Y247.974
G01 X249.286 Y247.900
G01 X249.379 Y247.830
G01 X249.477 Y247.764
G01 X249.581 Y247.703
G01 X249.689 Y247.647
G01 X249.801 Y247.595
G01 X249.918 Y247.550
G01 X250.000 Y247.522
G01 X250.000 Y210.350
G01 X247.986 Y209.003
G01 X245.840 Y207.762
G01 X243.567 Y206.635
G01 X243.562 Y206.633
G01 X241.021 Y204.887
G01 X238.294 Y203.292
G01 X235.390 Y201.860
G01 X234.977 Y201.676
G01 X231.506 Y199.415
G01 X227.780 Y197.384
G01 X226.393 Y196.720
G01 X221.652 Y193.661
G01 X216.560 Y190.949
G01 X215.662 Y190.525
G01 X212.620 Y192.025
G01 X209.643 Y193.681
G01 X206.738 Y195.490
G01 X204.931 Y196.720
G01 X201.727 Y198.306
G01 X198.572 Y200.080
G01 X195.476 Y202.040
G01 X194.201 Y202.915
G01 X190.634 Y204.700
G01 X187.112 Y206.724
G01 X183.648 Y208.987
G01 X183.470 Y209.111
G01 X181.324 Y210.350
G01 X181.083 Y214.600
G01 X181.089 Y218.777
G01 X181.324 Y222.741
G01 X181.091 Y226.492
G01 X181.058 Y230.199
G01 X181.221 Y233.853
G01 X181.324 Y235.131
G01 X181.100 Y238.589
G01 X181.049 Y242.033
G01 X181.168 Y245.454
G01 X181.324 Y247.522
G01 X181.324 Y250.000
G01 X186.194 Y253.135
G01 X191.195 Y255.792
G01 X192.055 Y256.195
G01 X195.644 Y258.527
G01 X199.315 Y260.522
G01 X200.639 Y261.152
G01 X203.322 Y262.983
G01 X206.061 Y264.579
G01 X208.839 Y265.939
G01 X209.224 Y266.108
G01 X211.335 Y267.513
G01 X213.483 Y268.751
G01 X215.657 Y269.823
G01 X215.662 Y269.825
G01 X247.854 Y251.239
G01 X248.012 Y251.282
G01 X248.169 Y251.312
G01 X248.324 Y251.330
G01 X248.477 Y251.336
G01 X248.625 Y251.331
G01 X248.769 Y251.314
G01 X248.908 Y251.287
G01 X249.042 Y251.249
G01 X249.168 Y251.202
G01 X249.288 Y251.145
G01 X249.400 Y251.080
G01 X249.504 Y251.007
G01 X249.599 Y250.926
G01 X249.684 Y250.839
G01 X249.760 Y250.746
G01 X249.826 Y250.648
G01 X249.882 Y250.545
G01 X249.928 Y250.439
G01 X249.962 Y250.329
G01 X249.986 Y250.218
G01 X249.998 Y250.106
G01 X250.000 Y250.000
G01 X249.999 Y250.046
G01 X249.994 Y250.092
G01 X249.984 Y250.137
G01 X249.969 Y250.181
G01 X249.951 Y250.224
G01 X249.928 Y250.266
G01 X249.901 Y250.306
G01 X249.869 Y250.344
G01 X249.834 Y250.379
G01 X249.795 Y250.411
G01 X249.753 Y250.441
G01 X249.707 Y250.467
G01 X249.658 Y250.490
G01 X249.607 Y250.509
G01 X249.552 Y250.524
G01 X249.496 Y250.535
G01 X249.437 Y250.541
G01 X249.376 Y250.543
G01 X249.314 Y250.540
G01 X249.251 Y250.533
G01 X249.187 Y250.520
G01 X249.123 Y250.503
G01 X249.058 Y250.480
G01 X248.994 Y250.452
G01 X248.930 Y250.419
G01 X248.868 Y250.380
G01 X248.806 Y250.337
G01 X248.746 Y250.288
G01 X248.688 Y250.234
G01 X248.633 Y250.176
G01 X248.580 Y250.112
G01 X248.530 Y250.043
G01 X248.484 Y249.970
G01 X248.441 Y249.893
G01 X248.403 Y249.811
G01 X248.369 Y249.725
G01 X248.339 Y249.636
G01 X248.315 Y249.543
G01 X248.296 Y249.446
G01 X248.282 Y249.347
G01 X248.274 Y249.245
G01 X248.272 Y249.141
G01 X248.276 Y249.035
G01 X248.287 Y248.927
G01 X248.304 Y248.818
G01 X248.327 Y248.708
G01 X248.358 Y248.598
G01 X248.395 Y248.487
G01 X248.439 Y248.377
G01 X248.491 Y248.268
G01 X248.549 Y248.160
G01 X248.615 Y248.053
G01 X248.687 Y247.949
G01 X248.761 Y247.854
G01 X230.175 Y215.662
G01 X227.757 Y215.503
G01 X225.278 Y215.500
G01 X222.747 Y215.661
G01 X222.741 Y215.662
G01 X219.667 Y215.421
G01 X216.508 Y215.402
G01 X213.278 Y215.614
G01 X212.828 Y215.662
G01 X208.691 Y215.439
G01 X204.449 Y215.543
G01 X202.915 Y215.662
G01 X197.281 Y215.383
G01 X191.515 Y215.580
G01 X190.525 Y215.662
G01 X188.640 Y218.482
G01 X186.890 Y221.405
G01 X185.279 Y224.424
G01 X184.329 Y226.393
G01 X182.348 Y229.368
G01 X180.502 Y232.482
G01 X178.801 Y235.728
G01 X178.134 Y237.123
G01 X175.938 Y240.452
G01 X173.899 Y243.966
G01 X172.031 Y247.658
G01 X171.939 Y247.854
G01 X170.700 Y250.000
G01 X172.616 Y253.802
G01 X174.710 Y257.415
G01 X176.895 Y260.731
G01 X178.569 Y264.096
G01 X180.394 Y267.323
G01 X182.362 Y270.406
G01 X183.090 Y271.461
G01 X184.625 Y274.568
G01 X186.303 Y277.576
G01 X188.117 Y280.479
G01 X189.286 Y282.192
G01 X190.525 Y284.338
G01 X196.310 Y284.618
G01 X201.969 Y284.418
G01 X202.915 Y284.338
G01 X207.190 Y284.562
G01 X211.367 Y284.455
G01 X212.828 Y284.338
G01 X216.067 Y284.582
G01 X219.237 Y284.595
G01 X222.323 Y284.384
G01 X222.741 Y284.338
G01 X225.272 Y284.499
G01 X227.751 Y284.498
G01 X230.169 Y284.339
G01 X230.175 Y284.338
G01 X248.761 Y252.146
G01 X248.968 Y252.010
G01 X249.158 Y251.859
G01 X249.330 Y251.695
G01 X249.484 Y251.519
G01 X249.620 Y251.332
G01 X249.735 Y251.136
G01 X249.830 Y250.933
G01 X249.905 Y250.724
G01 X249.958 Y250.510
G01 X249.990 Y250.293
G01 X250.001 Y250.074
G01 X250.000 Y250.000
G01 X249.999 Y250.057
G01 X249.993 Y250.114
G01 X249.980 Y250.170
G01 X249.963 Y250.226
G01 X249.940 Y250.279
G01 X249.911 Y250.331
G01 X249.878 Y250.381
G01 X249.839 Y250.428
G01 X249.795 Y250.472
G01 X249.747 Y250.513
G01 X249.695 Y250.550
G01 X249.638 Y250.583
G01 X249.577 Y250.611
G01 X249.513 Y250.635
G01 X249.445 Y250.654
G01 X249.375 Y250.668
G01 X249.302 Y250.676
G01 X249.226 Y250.679
G01 X249.149 Y250.676
G01 X249.071 Y250.666
G01 X248.991 Y250.651
G01 X248.911 Y250.629
G01 X248.830 Y250.601
G01 X248.750 Y250.567
G01 X248.671 Y250.526
G01 X248.592 Y250.478
G01 X248.516 Y250.424
G01 X248.441 Y250.364
G01 X248.369 Y250.297
G01 X248.299 Y250.224
G01 X248.233 Y250.145
G01 X248.171 Y250.060
G01 X248.113 Y249.970
G01 X248.060 Y249.873
G01 X248.012 Y249.772
G01 X247.969 Y249.665
G01 X247.932 Y249.554
G01 X247.901 Y249.438
G01 X247.877 Y249.318
G01 X247.859 Y249.195
G01 X247.849 Y249.068
G01 X247.846 Y248.938
G01 X247.850 Y248.806
G01 X247.854 Y248.761
G01 X215.662 Y230.175
G01 X213.488 Y231.246
G01 X211.340 Y232.484
G01 X209.229 Y233.888
G01 X209.224 Y233.892
G01 X206.441 Y235.220
G01 X203.696 Y236.783
G01 X201.005 Y238.582
G01 X200.639 Y238.848
G01 X196.945 Y240.723
G01 X193.324 Y242.935
G01 X192.055 Y243.805
G01 X187.035 Y246.380
G01 X182.140 Y249.434
G01 X181.324 Y250.000
G01 X181.102 Y253.385
G01 X181.048 Y256.791
G01 X181.162 Y260.211
G01 X181.324 Y262.391
G01 X181.095 Y265.958
G01 X181.054 Y269.578
G01 X181.204 Y273.239
G01 X181.324 Y274.781
G01 X181.086 Y278.762
G01 X181.078 Y282.825
G01 X181.306 Y286.956
G01 X181.324 Y287.172
G01 X181.324 Y289.650
G01 X184.884 Y291.984
G01 X188.504 Y294.067
G01 X192.055 Y295.845
G01 X195.187 Y297.923
G01 X198.381 Y299.805
G01 X201.626 Y301.491
G01 X202.785 Y302.041
G01 X205.668 Y303.964
G01 X208.624 Y305.730
G01 X211.647 Y307.337
G01 X213.516 Y308.236
G01 X215.662 Y309.475
G01 X220.812 Y306.825
G01 X225.613 Y303.823
G01 X226.393 Y303.280
G01 X230.206 Y301.337
G01 X233.770 Y299.155
G01 X234.977 Y298.324
G01 X237.904 Y296.916
G01 X240.656 Y295.342
G01 X243.223 Y293.616
G01 X243.562 Y293.367
G01 X245.834 Y292.241
G01 X247.981 Y291.000
G01 X249.995 Y289.654
G01 X250.000 Y289.650
G01 X250.000 Y250.000
G01 X249.994 Y250.078
G01 X249.981 Y250.156
G01 X249.960 Y250.232
G01 X249.932 Y250.307
G01 X249.896 Y250.379
G01 X249.854 Y250.448
G01 X249.804 Y250.513
G01 X249.747 Y250.575
G01 X249.684 Y250.632
G01 X249.615 Y250.684
G01 X249.540 Y250.731
G01 X249.460 Y250.772
G01 X249.374 Y250.807
G01 X249.284 Y250.835
G01 X249.190 Y250.855
G01 X249.093 Y250.869
G01 X248.992 Y250.875
G01 X248.888 Y250.873
G01 X248.783 Y250.863
G01 X248.676 Y250.844
G01 X248.568 Y250.817
G01 X248.459 Y250.781
G01 X248.351 Y250.737
G01 X248.244 Y250.683
G01 X248.138 Y250.621
G01 X248.034 Y250.550
G01 X247.933 Y250.471
G01 X247.835 Y250.382
G01 X247.741 Y250.286
G01 X247.651 Y250.180
G01 X247.567 Y250.067
G01 X247.522 Y250.000
G01 X210.350 Y250.000
G01 X209.003 Y252.014
G01 X207.762 Y254.160
G01 X206.635 Y256.433
G01 X206.633 Y256.438
G01 X204.887 Y258.979
G01 X203.292 Y261.706
G01 X201.860 Y264.610
G01 X201.676 Y265.023
G01 X199.415 Y268.494
G01 X197.384 Y272.220
G01 X196.720 Y273.607
G01 X193.661 Y278.348
G01 X190.949 Y283.440
G01 X190.525 Y284.338
G01 X192.025 Y287.380
G01 X193.681 Y290.357
G01 X195.490 Y293.262
G01 X196.720 Y295.069
G01 X198.306 Y298.273
G01 X200.080 Y301.428
G01 X202.040 Y304.524
G01 X202.915 Y305.799
G01 X204.700 Y309.366
G01 X206.724 Y312.888
G01 X208.987 Y316.352
G01 X209.111 Y316.530
G01 X210.350 Y318.676
G01 X214.600 Y318.917
G01 X218.777 Y318.911
G01 X222.741 Y318.676
G01 X226.492 Y318.909
G01 X230.199 Y318.942
G01 X233.853 Y318.779
G01 X235.131 Y318.676
G01 X238.589 Y318.900
G01 X242.033 Y318.951
G01 X245.454 Y318.832
G01 X247.522 Y318.676
G01 X250.000 Y318.676
G01 X253.135 Y313.806
G01 X255.792 Y308.805
G01 X256.195 Y307.945
G01 X258.527 Y304.356
G01 X260.522 Y300.685
G01 X261.152 Y299.361
G01 X262.983 Y296.678
G01 X264.579 Y293.939
G01 X265.939 Y291.161
G01 X266.108 Y290.776
G01 X267.513 Y288.665
G01 X268.751 Y286.517
G01 X269.823 Y284.343
G01 X269.825 Y284.338
G01 X251.239 Y252.146
G01 X251.048 Y252.040
G01 X250.870 Y251.921
G01 X250.707 Y251.790
G01 X250.559 Y251.648
G01 X250.427 Y251.496
G01 X250.311 Y251.335
G01 X250.212 Y251.167
G01 X250.131 Y250.994
G01 X250.067 Y250.815
G01 X250.021 Y250.633
G01 X249.993 Y250.449
G01 X249.983 Y250.264
G01 X249.991 Y250.079
G01 X250.000 Y250.000
G01 X249.975 Y250.131
G01 X249.938 Y250.260
G01 X249.888 Y250.384
G01 X249.826 Y250.505
G01 X249.752 Y250.619
G01 X249.666 Y250.728
G01 X249.569 Y250.829
G01 X249.462 Y250.922
G01 X249.344 Y251.006
G01 X249.217 Y251.081
G01 X249.082 Y251.145
G01 X248.938 Y251.199
G01 X248.787 Y251.241
G01 X248.630 Y251.271
G01 X248.467 Y251.288
G01 X248.300 Y251.292
G01 X248.128 Y251.282
G01 X247.954 Y251.259
G01 X247.854 Y251.239
G01 X215.662 Y269.825
G01 X215.503 Y272.243
G01 X215.500 Y274.722
G01 X215.661 Y277.253
G01 X215.662 Y277.259
G01 X215.421 Y280.333
G01 X215.402 Y283.492
G01 X215.614 Y286.722
G01 X215.662 Y287.172
G01 X215.439 Y291.309
G01 X215.543 Y295.551
G01 X215.662 Y297.085
G01 X215.383 Y302.719
G01 X215.580 Y308.485
G01 X215.662 Y309.475
G01 X218.482 Y311.360
G01 X221.405 Y313.110
G01 X224.424 Y314.721
G01 X226.393 Y315.671
G01 X229.368 Y317.652
G01 X232.482 Y319.498
G01 X235.728 Y321.199
G01 X237.123 Y321.866
G01 X240.452 Y324.062
G01 X243.966 Y326.101
G01 X247.658 Y327.969
G01 X247.854 Y328.061
G01 X250.000 Y329.300
G01 X253.802 Y327.384
G01 X257.415 Y325.290
G01 X260.731 Y323.105
G01 X264.096 Y321.431
G01 X267.323 Y319.606
G01 X270.406 Y317.638
G01 X271.461 Y316.910
G01 X274.568 Y315.375
G01 X277.576 Y313.697
G01 X280.479 Y311.883
G01 X282.192 Y310.714
G01 X284.338 Y309.475
G01 X284.618 Y303.690
G01 X284.418 Y298.031
G01 X284.338 Y297.085
G01 X284.562 Y292.810
G01 X284.455 Y288.633
G01 X284.338 Y287.172
G01 X284.582 Y283.933
G01 X284.595 Y280.763
G01 X284.384 Y277.677
G01 X284.338 Y277.259
G01 X284.499 Y274.728
G01 X284.498 Y272.249
G01 X284.339 Y269.831
G01 X284.338 Y269.825
G01 X252.146 Y251.239
G01 X252.005 Y251.293
G01 X251.864 Y251.336
G01 X251.724 Y251.369
G01 X251.586 Y251.391
G01 X251.449 Y251.403
G01 X251.316 Y251.405
G01 X251.186 Y251.397
G01 X251.060 Y251.381
G01 X250.938 Y251.355
G01 X250.822 Y251.321
G01 X250.711 Y251.280
G01 X250.607 Y251.230
G01 X250.509 Y251.174
G01 X250.418 Y251.111
G01 X250.335 Y251.043
G01 X250.260 Y250.969
G01 X250.192 Y250.890
G01 X250.133 Y250.808
G01 X250.083 Y250.722
G01 X250.041 Y250.633
G01 X250.009 Y250.542
G01 X249.985 Y250.449
G01 X249.971 Y250.356
G01 X249.965 Y250.263
G01 X249.969 Y250.170
G01 X249.982 Y250.079
G01 X250.000 Y250.000
G01 X249.695 Y250.918
G01 X249.300 Y251.804
G01 X248.818 Y252.651
G01 X248.253 Y253.453
G01 X247.607 Y254.204
G01 X247.522 Y254.292
G01 X230.175 Y284.338
G01 X231.246 Y286.512
G01 X232.484 Y288.660
G01 X233.888 Y290.771
G01 X233.892 Y290.776
G01 X235.220 Y293.559
G01 X236.783 Y296.304
G01 X238.582 Y298.995
G01 X238.848 Y299.361
G01 X240.723 Y303.055
G01 X242.935 Y306.676
G01 X243.805 Y307.945
G01 X246.380 Y312.965
G01 X249.434 Y317.860
G01 X250.000 Y318.676
G01 X253.385 Y318.898
G01 X256.791 Y318.952
G01 X260.211 Y318.838
G01 X262.391 Y318.676
G01 X265.958 Y318.905
G01 X269.578 Y318.946
G01 X273.239 Y318.796
G01 X274.781 Y318.676
G01 X278.762 Y318.914
G01 X282.825 Y318.922
G01 X286.956 Y318.694
G01 X287.172 Y318.676
G01 X289.650 Y318.676
G01 X291.984 Y315.116
G01 X294.067 Y311.496
G01 X295.845 Y307.945
G01 X297.923 Y304.813
G01 X299.805 Y301.619
G01 X301.491 Y298.374
G01 X302.041 Y297.215
G01 X303.964 Y294.332
G01 X305.730 Y291.376
G01 X307.337 Y288.353
G01 X308.236 Y286.484
G01 X309.475 Y284.338
G01 X306.825 Y279.188
G01 X303.823 Y274.387
G01 X303.280 Y273.607
G01 X301.337 Y269.794
G01 X299.155 Y266.230
G01 X298.324 Y265.023
G01 X296.916 Y262.096
G01 X295.342 Y259.344
G01 X293.616 Y256.777
G01 X293.367 Y256.438
G01 X292.241 Y254.166
G01 X291.000 Y252.019
G01 X289.654 Y250.005
G01 X289.650 Y250.000
G01 X252.478 Y250.000
G01 X252.412 Y250.118
G01 X252.340 Y250.231
G01 X252.264 Y250.336
G01 X252.182 Y250.434
G01 X252.097 Y250.525
G01 X252.008 Y250.609
G01 X251.917 Y250.686
G01 X251.822 Y250.755
G01 X251.726 Y250.816
G01 X251.628 Y250.870
G01 X251.529 Y250.916
G01 X251.430 Y250.955
G01 X251.330 Y250.987
G01 X251.231 Y251.011
G01 X251.133 Y251.027
G01 X251.037 Y251.037
G01 X250.942 Y251.040
G01 X250.850 Y251.036
G01 X250.761 Y251.026
G01 X250.674 Y251.009
G01 X250.591 Y250.987
G01 X250.512 Y250.959
G01 X250.438 Y250.926
G01 X250.368 Y250.887
G01 X250.302 Y250.845
G01 X250.242 Y250.798
G01 X250.187 Y250.748
G01 X250.138 Y250.694
G01 X250.095 Y250.637
G01 X250.057 Y250.578
G01 X250.025 Y250.517
G01 X250.000 Y250.455
G01 X249.981 Y250.391
G01 X249.968 Y250.327
G01 X249.961 Y250.262
G01 X249.961 Y250.198
G01 X249.966 Y250.134
G01 X249.978 Y250.072
G01 X249.996 Y250.011
G01 X250.000 Y250.000
G01 X249.897 Y250.329
G01 X249.826 Y250.667
G01 X249.789 Y251.012
G01 X249.785 Y251.361
G01 X249.815 Y251.713
G01 X249.879 Y252.064
G01 X249.977 Y252.412
G01 X250.000 Y252.478
G01 X250.000 Y289.650
G01 X252.014 Y290.997
G01 X254.160 Y292.238
G01 X256.433 Y293.365
G01 X256.438 Y293.367
G01 X258.979 Y295.113
G01 X261.706 Y296.708
G01 X264.610 Y298.140
G01 X265.023 Y298.324
G01 X268.494 Y300.585
G01 X272.220 Y302.616
G01 X273.607 Y303.280
G01 X278.348 Y306.339
G01 X283.440 Y309.051
G01 X284.338 Y309.475
G01 X287.380 Y307.975
G01 X290.357 Y306.319
G01 X293.262 Y304.510
G01 X295.069 Y303.280
G01 X298.273 Y301.694
G01 X301.428 Y299.920
G01 X304.524 Y297.960
G01 X305.799 Y297.085
G01 X309.366 Y295.300
G01 X312.888 Y293.276
G01 X316.352 Y291.013
G01 X316.530 Y290.889
G01 X318.676 Y289.650
G01 X318.917 Y285.400
G01 X318.911 Y281.223
G01 X318.676 Y277.259
G01 X318.909 Y273.508
G01 X318.942 Y269.801
G01 X318.779 Y266.147
G01 X318.676 Y264.869
G01 X318.900 Y261.411
G01 X318.951 Y257.967
G01 X318.832 Y254.546
G01 X318.676 Y252.478
G01 X318.676 Y250.000
G01 X313.806 Y246.865
G01 X308.805 Y244.208
G01 X307.945 Y243.805
G01 X304.356 Y241.473
G01 X300.685 Y239.478
G01 X299.361 Y238.848
G01 X296.678 Y237.017
G01 X293.939 Y235.421
G01 X291.161 Y234.061
G01 X290.776 Y233.892
G01 X288.665 Y232.487
G01 X286.517 Y231.249
G01 X284.343 Y230.177
G01 X284.338 Y230.175
G01 X252.146 Y248.761
G01 X252.056 Y248.674
G01 X251.962 Y248.594
G01 X251.866 Y248.519
G01 X251.767 Y248.450
G01 X251.666 Y248.387
G01 X251.563 Y248.331
G01 X251.459 Y248.281
G01 X251.353 Y248.236
G01 X251.247 Y248.198
G01 X251.140 Y248.166
G01 X251.033 Y248.141
G01 X250.927 Y248.121
G01 X250.821 Y248.107
G01 X250.716 Y248.099
G01 X250.612 Y248.096
G01 X250.509 Y248.099
G01 X250.409 Y248.108
G01 X250.310 Y248.121
G01 X250.214 Y248.140
G01 X250.120 Y248.164
G01 X250.030 Y248.192
G01 X249.942 Y248.224
G01 X249.857 Y248.261
G01 X249.776 Y248.302
G01 X249.699 Y248.346
G01 X249.626 Y248.394
G01 X249.556 Y248.445
G01 X249.490 Y248.499
G01 X249.429 Y248.555
G01 X249.372 Y248.614
G01 X249.319 Y248.675
G01 X249.271 Y248.738
G01 X249.227 Y248.802
G01 X249.188 Y248.867
G01 X249.153 Y248.933
G01 X249.123 Y249.000
G01 X249.097 Y249.067
G01 X249.076 Y249.134
G01 X249.059 Y249.201
G01 X249.046 Y249.268
G01 X249.037 Y249.334
G01 X249.033 Y249.399
G01 X249.033 Y249.462
G01 X249.036 Y249.525
G01 X249.043 Y249.585
G01 X249.054 Y249.644
G01 X249.068 Y249.700
G01 X249.085 Y249.755
G01 X249.105 Y249.807
G01 X249.128 Y249.856
G01 X249.154 Y249.903
G01 X249.182 Y249.946
G01 X249.212 Y249.987
G01 X249.244 Y250.025
G01 X249.278 Y250.059
G01 X249.314 Y250.090
G01 X249.350 Y250.118
G01 X249.388 Y250.143
G01 X249.426 Y250.164
G01 X249.465 Y250.181
G01 X249.505 Y250.196
G01 X249.544 Y250.207
G01 X249.583 Y250.214
G01 X249.622 Y250.219
G01 X249.660 Y250.220
G01 X249.697 Y250.217
G01 X249.733 Y250.212
G01 X249.767 Y250.204
G01 X249.801 Y250.193
G01 X249.832 Y250.179
G01 X249.862 Y250.163
G01 X249.889 Y250.144
G01 X249.915 Y250.123
G01 X249.938 Y250.100
G01 X249.958 Y250.075
G01 X249.976 Y250.049
G01 X249.991 Y250.021
G01 X250.000 Y250.000
G01 X249.960 Y250.117
G01 X249.932 Y250.238
G01 X249.916 Y250.362
G01 X249.912 Y250.487
G01 X249.920 Y250.614
G01 X249.941 Y250.741
G01 X249.973 Y250.866
G01 X250.018 Y250.990
G01 X250.075 Y251.112
G01 X250.144 Y251.230
G01 X250.224 Y251.344
G01 X250.316 Y251.452
G01 X250.419 Y251.554
G01 X250.533 Y251.650
G01 X250.657 Y251.737
G01 X250.791 Y251.816
G01 X250.934 Y251.886
G01 X251.086 Y251.946
G01 X251.133 Y251.962
G01 X261.329 Y269.622
G01 X262.763 Y269.795
G01 X264.241 Y269.873
G01 X265.756 Y269.852
G01 X267.302 Y269.729
G01 X268.126 Y269.622
G01 X270.177 Y269.798
G01 X272.286 Y269.817
G01 X274.443 Y269.675
G01 X274.923 Y269.622
G01 X277.956 Y269.868
G01 X281.068 Y269.860
G01 X283.986 Y269.622
G01 X285.106 Y268.033
G01 X286.152 Y266.380
G01 X287.120 Y264.669
G01 X288.007 Y262.902
G01 X288.517 Y261.773
G01 X289.731 Y260.041
G01 X290.866 Y258.219
G01 X291.917 Y256.308
G01 X292.876 Y254.314
G01 X293.049 Y253.924
G01 X294.315 Y251.854
G01 X295.314 Y250.000
G01 X294.284 Y247.824
G01 X293.152 Y245.750
G01 X291.926 Y243.781
G01 X290.783 Y242.151
G01 X289.906 Y240.268
G01 X288.944 Y238.451
G01 X287.901 Y236.704
G01 X286.781 Y235.032
G01 X286.252 Y234.303
G01 X285.338 Y232.592
G01 X284.344 Y230.933
G01 X283.986 Y230.378
G01 X280.817 Y230.130
G01 X277.711 Y230.143
G01 X274.923 Y230.378
G01 X272.757 Y230.200
G01 X270.636 Y230.184
G01 X268.571 Y230.326
G01 X268.126 Y230.378
G01 X266.566 Y230.200
G01 X265.034 Y230.125
G01 X263.536 Y230.152
G01 X262.078 Y230.275
G01 X261.329 Y230.378
G01 X251.133 Y248.038
G01 X251.020 Y248.015
G01 X250.907 Y247.997
G01 X250.796 Y247.987
G01 X250.685 Y247.982
G01 X250.576 Y247.983
G01 X250.469 Y247.990
G01 X250.363 Y248.002
G01 X250.261 Y248.020
