;  Created by Sandify
;  https://sandify.org
;  Version: 0.2.6
;
;  Machine type: Rectangular
;    Min X (mm): 0
;    Max X (mm): 500
;    Min Y (mm): 0
;    Max Y (mm): 500
;  Content type: shape
;  Layer:
;    Shape: Text
;    Name: text
;    Text: I Love yuou Jess
;    Font: Cursive
;    Rotate: Top
;    Visible: true
;    Initial width: 19
;    Initial height: 18
;    X offset: 0
;    Y offset: -50
;    Rotate (degrees): 0
;    Reverse path: false
;    Fine tuning:
;      Connect to next layer: along perimeter
;      Draw portion of path (%): 100
;      Backtrack at end (%): 0
;      Rotate starting point (%): 0
;  Reverse export path: false
;
; File name: 'I Love you Jess (W E) (BJ)'
; File type: gcode
;

G01 X59.360 Y251.129
G01 X60.144 Y253.683
G01 X61.305 Y257.239
G01 X62.723 Y261.276
G01 X63.250 Y264.090
G01 X64.926 Y266.205
G01 X66.231 Y268.706
G01 X66.444 Y271.897
G01 X61.179 Y275.922
G01 X57.721 Y280.050
G01 X52.864 Y280.665
G01 X45.351 Y282.057
G01 X39.190 Y282.845
G01 X32.281 Y284.916
G01 X28.576 Y286.034
G01 X21.001 Y289.315
G01 X16.747 Y292.096
G01 X14.152 Y294.611
G01 X12.848 Y297.394
G01 X15.170 Y302.491
G01 X16.236 Y304.317
G01 X20.499 Y304.593
G01 X23.600 Y304.548
G01 X32.510 Y302.053
G01 X38.762 Y299.493
G01 X47.751 Y294.544
G01 X50.948 Y292.464
G01 X58.032 Y286.742
G01 X60.866 Y283.490
G01 X62.647 Y281.304
G01 X64.755 Y276.599
G01 X66.444 Y271.897
G01 X66.231 Y268.706
G01 X64.926 Y266.205
G01 X63.250 Y264.090
G01 X60.262 Y261.914
G01 X56.996 Y261.653
G01 X53.997 Y261.785
G01 X50.821 Y261.392
G01 X44.823 Y261.596
G01 X48.555 Y265.307
G01 X53.458 Y269.529
G01 X58.177 Y272.805
G01 X61.179 Y275.922
G01 X64.241 Y278.880
G01 X67.117 Y281.365
G01 X69.178 Y284.102
G01 X71.507 Y286.652
G01 X74.945 Y289.822
G01 X77.718 Y292.703
G01 X79.122 Y295.006
G01 X80.560 Y297.290
G01 X82.031 Y299.554
G01 X83.537 Y301.798
G01 X85.076 Y304.022
G01 X86.648 Y306.225
G01 X88.253 Y308.407
G01 X89.890 Y310.567
G01 X91.559 Y312.704
G01 X93.260 Y314.819
G01 X94.993 Y316.911
G01 X96.166 Y318.750
G01 X96.801 Y320.163
G01 X97.798 Y320.847
G01 X98.374 Y321.495
G01 X98.721 Y322.327
G01 X99.361 Y324.298
G01 X99.340 Y325.914
G01 X99.147 Y329.114
G01 X98.095 Y332.297
G01 X97.156 Y334.727
G01 X94.213 Y337.597
G01 X92.105 Y340.206
G01 X88.839 Y343.537
G01 X85.207 Y346.919
G01 X79.652 Y351.466
G01 X77.493 Y353.284
G01 X76.846 Y354.682
G01 X74.138 Y356.683
G01 X69.812 Y361.991
G01 X68.421 Y363.897
G01 X66.426 Y367.699
G01 X65.894 Y370.899
G01 X65.366 Y372.651
G01 X67.013 Y375.384
G01 X70.297 Y375.658
G01 X73.244 Y374.748
G01 X77.217 Y372.021
G01 X78.958 Y369.664
G01 X79.728 Y367.721
G01 X80.029 Y363.072
G01 X79.759 Y361.652
G01 X78.661 Y357.780
G01 X77.911 Y356.370
G01 X74.398 Y351.865
G01 X73.383 Y350.912
G01 X69.295 Y348.105
G01 X64.752 Y346.093
G01 X60.198 Y344.630
G01 X64.752 Y346.093
G01 X69.295 Y348.105
G01 X73.383 Y350.912
G01 X74.398 Y351.865
G01 X77.911 Y356.370
G01 X78.661 Y357.780
G01 X79.759 Y361.652
G01 X80.029 Y363.072
G01 X79.728 Y367.721
G01 X78.958 Y369.664
G01 X77.217 Y372.021
G01 X73.244 Y374.748
G01 X70.297 Y375.658
G01 X67.013 Y375.384
G01 X65.366 Y372.651
G01 X65.894 Y370.899
G01 X66.426 Y367.699
G01 X68.421 Y363.897
G01 X69.812 Y361.991
G01 X74.138 Y356.683
G01 X76.846 Y354.682
G01 X77.493 Y353.284
G01 X79.652 Y351.466
G01 X85.207 Y346.919
G01 X88.839 Y343.537
G01 X92.105 Y340.206
G01 X94.213 Y337.597
G01 X97.156 Y334.727
G01 X98.095 Y332.297
G01 X99.147 Y329.114
G01 X99.340 Y325.914
G01 X99.361 Y324.298
G01 X98.721 Y322.327
G01 X98.374 Y321.495
G01 X97.798 Y320.847
G01 X96.801 Y320.163
G01 X93.834 Y320.427
G01 X91.670 Y320.813
G01 X89.537 Y322.148
G01 X87.837 Y323.822
G01 X87.389 Y326.382
G01 X87.520 Y327.833
G01 X88.830 Y329.535
G01 X90.759 Y331.440
G01 X94.338 Y332.340
G01 X100.611 Y332.431
G01 X104.015 Y332.121
G01 X108.411 Y332.841
G01 X110.248 Y333.056
G01 X113.371 Y335.936
G01 X115.757 Y338.053
G01 X118.106 Y340.070
G01 X120.213 Y341.826
G01 X120.903 Y345.178
G01 X120.510 Y348.057
G01 X120.011 Y350.047
G01 X119.449 Y351.983
G01 X118.876 Y353.536
G01 X118.336 Y354.696
G01 X117.803 Y356.600
G01 X117.472 Y357.961
G01 X116.976 Y359.150
G01 X116.607 Y360.800
G01 X116.124 Y362.774
G01 X116.076 Y363.787
G01 X115.975 Y364.759
G01 X115.830 Y366.424
G01 X115.852 Y367.842
G01 X115.829 Y368.863
G01 X115.811 Y369.885
G01 X115.768 Y370.888
G01 X116.575 Y371.946
G01 X117.500 Y373.343
G01 X119.306 Y374.569
G01 X121.000 Y374.950
G01 X121.854 Y375.031
G01 X123.028 Y374.793
G01 X123.885 Y374.608
G01 X124.810 Y374.073
G01 X125.886 Y373.633
G01 X127.111 Y372.289
G01 X128.103 Y370.838
G01 X129.273 Y369.502
G01 X130.264 Y368.051
G01 X131.100 Y366.457
G01 X131.978 Y364.933
G01 X132.742 Y363.336
G01 X133.420 Y361.639
G01 X133.942 Y359.883
G01 X134.502 Y358.150
G01 X135.128 Y356.677
G01 X135.607 Y354.755
G01 X135.870 Y353.038
G01 X135.468 Y351.265
G01 X134.734 Y350.007
G01 X133.573 Y348.842
G01 X131.680 Y348.038
G01 X130.523 Y348.199
G01 X129.200 Y348.554
G01 X127.475 Y348.973
G01 X126.517 Y349.314
G01 X125.530 Y349.633
G01 X124.540 Y349.947
G01 X123.635 Y350.461
G01 X122.164 Y351.330
G01 X120.711 Y352.164
G01 X119.363 Y353.123
G01 X118.336 Y354.696
G01 X117.803 Y356.600
G01 X117.472 Y357.961
G01 X116.976 Y359.150
G01 X116.607 Y360.800
G01 X116.124 Y362.774
G01 X116.076 Y363.787
G01 X115.975 Y364.759
G01 X115.830 Y366.424
G01 X115.852 Y367.842
G01 X115.829 Y368.863
G01 X115.811 Y369.885
G01 X115.768 Y370.888
G01 X116.575 Y371.946
G01 X118.607 Y371.835
G01 X120.166 Y370.992
G01 X121.699 Y370.527
G01 X122.823 Y370.532
G01 X124.215 Y370.710
G01 X125.411 Y371.146
G01 X126.437 Y371.812
G01 X127.466 Y372.473
G01 X128.500 Y373.128
G01 X129.454 Y373.897
G01 X130.413 Y374.663
G01 X131.275 Y375.575
G01 X131.982 Y376.726
G01 X132.699 Y377.876
G01 X133.266 Y379.269
G01 X135.036 Y379.956
G01 X136.325 Y381.402
G01 X137.085 Y382.537
G01 X137.444 Y383.777
G01 X137.932 Y384.751
G01 X138.224 Y385.987
G01 X139.254 Y386.581
G01 X140.482 Y386.324
G01 X141.557 Y386.024
G01 X142.627 Y385.062
G01 X143.719 Y383.905
G01 X144.698 Y382.935
G01 X145.312 Y381.940
G01 X145.840 Y380.736
G01 X146.523 Y379.408
G01 X147.226 Y378.049
G01 X147.880 Y376.706
G01 X148.585 Y375.347
G01 X149.242 Y374.005
G01 X149.930 Y372.680
G01 X150.608 Y371.307
G01 X151.299 Y369.983
G01 X152.349 Y368.640
G01 X153.733 Y367.305
G01 X154.964 Y366.218
G01 X156.549 Y365.350
G01 X158.111 Y365.158
G01 X158.966 Y366.435
G01 X159.644 Y367.858
G01 X159.348 Y369.452
G01 X159.031 Y371.034
G01 X158.751 Y372.633
G01 X158.479 Y374.235
G01 X157.807 Y375.808
G01 X157.545 Y377.493
G01 X156.860 Y379.260
G01 X156.473 Y380.764
G01 X155.540 Y383.418
G01 X154.633 Y386.043
G01 X153.770 Y388.686
G01 X152.867 Y391.351
G01 X155.426 Y392.181
G01 X158.248 Y392.615
G01 X160.315 Y392.975
G01 X161.867 Y393.381
G01 X164.768 Y394.544
G01 X166.702 Y394.790
G01 X168.037 Y394.833
G01 X169.439 Y394.700
G01 X170.598 Y394.470
G01 X172.188 Y393.737
G01 X174.378 Y393.209
G01 X177.347 Y392.280
G01 X179.863 Y392.469
G01 X181.462 Y393.289
G01 X182.396 Y396.161
G01 X182.423 Y397.646
G01 X182.048 Y398.969
G01 X181.369 Y399.933
G01 X180.131 Y401.595
G01 X179.122 Y402.569
G01 X177.750 Y403.083
G01 X176.005 Y403.166
G01 X174.392 Y402.976
G01 X172.974 Y402.153
G01 X171.706 Y401.063
G01 X170.944 Y399.834
G01 X170.210 Y398.263
G01 X169.927 Y396.502
G01 X170.598 Y394.470
G01 X171.421 Y392.456
G01 X172.229 Y390.475
G01 X173.417 Y387.938
G01 X174.156 Y386.587
G01 X175.178 Y384.992
G01 X176.194 Y383.395
G01 X177.784 Y381.348
G01 X179.006 Y379.821
G01 X180.528 Y379.051
G01 X182.008 Y378.259
G01 X183.969 Y377.928
G01 X186.199 Y378.352
G01 X188.411 Y378.708
G01 X190.644 Y379.083
G01 X192.537 Y379.636
G01 X195.229 Y380.390
G01 X197.932 Y381.107
G01 X200.645 Y381.787
G01 X203.369 Y382.431
G01 X206.101 Y383.039
G01 X208.843 Y383.610
G01 X211.592 Y384.144
G01 X214.350 Y384.641
G01 X217.114 Y385.100
G01 X218.141 Y385.553
G01 X219.112 Y386.357
G01 X220.075 Y387.262
G01 X220.794 Y388.055
G01 X221.295 Y389.434
G01 X221.805 Y390.811
G01 X222.325 Y392.188
G01 X222.855 Y393.563
G01 X223.395 Y394.937
G01 X223.979 Y396.314
G01 X224.539 Y397.686
G01 X225.104 Y399.092
G01 X225.684 Y400.461
G01 X226.273 Y401.828
G01 X226.908 Y403.198
G01 X227.517 Y404.562
G01 X228.136 Y405.925
G01 X228.765 Y407.286
G01 X229.403 Y408.646
G01 X230.052 Y410.003
G01 X231.875 Y410.874
G01 X233.136 Y410.968
G01 X234.624 Y410.529
G01 X235.348 Y409.745
G01 X235.697 Y408.432
G01 X235.622 Y406.876
G01 X235.536 Y405.500
G01 X235.165 Y402.625
G01 X234.845 Y399.753
G01 X234.504 Y396.914
G01 X234.215 Y394.041
G01 X233.904 Y391.201
G01 X234.028 Y388.935
G01 X234.518 Y387.058
G01 X235.176 Y386.275
G01 X235.862 Y385.493
G01 X236.510 Y384.706
G01 X237.309 Y384.000
G01 X238.190 Y383.439
G01 X239.302 Y383.248
G01 X240.398 Y383.302
G01 X242.643 Y383.720
G01 X244.708 Y385.080
G01 X245.722 Y386.328
G01 X248.086 Y389.171
G01 X248.297 Y391.729
G01 X248.513 Y394.287
G01 X248.736 Y396.808
G01 X248.965 Y399.366
G01 X249.165 Y401.922
G01 X249.406 Y404.479
G01 X249.654 Y407.036
G01 X249.908 Y409.556
G01 X250.167 Y411.248
G01 X249.908 Y409.556
G01 X249.654 Y407.036
G01 X249.406 Y404.479
G01 X249.165 Y401.922
G01 X248.965 Y399.366
G01 X248.736 Y396.808
G01 X248.513 Y394.287
G01 X248.297 Y391.729
G01 X248.086 Y389.171
G01 X247.882 Y386.613
G01 X247.685 Y384.055
G01 X247.525 Y381.533
G01 X247.339 Y378.974
G01 X247.160 Y376.415
G01 X246.987 Y373.857
G01 X246.820 Y371.298
G01 X246.659 Y368.774
G01 X246.505 Y366.215
G01 X246.386 Y363.656
G01 X246.244 Y361.097
G01 X245.442 Y359.386
G01 X244.030 Y358.875
G01 X242.174 Y358.479
G01 X240.296 Y358.097
G01 X238.551 Y358.281
G01 X237.194 Y358.801
G01 X236.594 Y359.587
G01 X236.017 Y360.374
G01 X235.434 Y361.158
G01 X234.877 Y362.233
G01 X234.577 Y363.581
G01 X234.609 Y365.427
G01 X235.183 Y366.883
G01 X235.489 Y368.135
G01 X236.054 Y369.586
G01 X236.374 Y370.837
G01 X236.847 Y372.170
G01 X237.238 Y373.062
G01 X237.636 Y373.918
G01 X238.036 Y374.809
G01 X238.443 Y375.663
G01 X238.852 Y376.552
G01 X239.268 Y377.405
G01 X240.498 Y378.405
G01 X241.994 Y379.408
G01 X243.507 Y380.399
G01 X245.068 Y381.416
G01 X249.434 Y383.707
G01 X251.221 Y385.108
G01 X253.063 Y386.205
G01 X254.947 Y386.817
G01 X256.811 Y387.413
G01 X258.501 Y387.531
G01 X259.967 Y388.368
G01 X261.395 Y388.908
G01 X262.865 Y389.436
G01 X263.843 Y389.988
G01 X264.667 Y390.654
G01 X265.633 Y392.174
G01 X266.341 Y393.710
G01 X267.062 Y395.280
G01 X267.811 Y397.063
G01 X268.937 Y397.511
G01 X269.351 Y399.246
G01 X269.737 Y401.020
G01 X270.159 Y402.755
G01 X270.550 Y404.491
G01 X270.980 Y406.224
G01 X271.382 Y407.996
G01 X271.821 Y409.728
G01 X272.227 Y411.462
G01 X272.636 Y413.196
G01 X272.227 Y411.462
G01 X271.821 Y409.728
G01 X271.382 Y407.996
G01 X270.980 Y406.224
G01 X270.550 Y404.491
G01 X270.159 Y402.755
G01 X269.737 Y401.020
G01 X269.351 Y399.246
G01 X268.937 Y397.511
G01 X268.562 Y395.772
G01 X268.156 Y394.035
G01 X267.786 Y392.259
G01 X267.389 Y390.521
G01 X267.029 Y388.780
G01 X267.068 Y387.006
G01 X267.963 Y386.316
G01 X269.338 Y385.867
G01 X271.042 Y386.027
G01 X272.450 Y386.169
G01 X273.706 Y386.646
G01 X275.100 Y387.099
G01 X276.601 Y387.530
G01 X277.977 Y387.969
G01 X279.162 Y388.425
G01 X280.304 Y389.210
G01 X281.335 Y390.298
G01 X281.970 Y391.844
G01 X282.385 Y393.495
G01 X282.768 Y395.150
G01 X283.187 Y396.800
G01 X283.614 Y398.486
G01 X284.003 Y400.140
G01 X284.428 Y401.789
G01 X284.857 Y403.437
G01 X285.251 Y405.091
G01 X285.690 Y406.774
G01 X286.124 Y408.421
G01 X286.636 Y410.494
G01 X287.063 Y412.288
G01 X286.636 Y410.494
G01 X286.124 Y408.421
G01 X285.690 Y406.774
G01 X285.251 Y405.091
G01 X284.857 Y403.437
G01 X284.428 Y401.789
G01 X284.003 Y400.140
G01 X283.614 Y398.486
G01 X283.187 Y396.800
G01 X283.447 Y394.390
G01 X283.360 Y392.471
G01 X283.448 Y390.596
G01 X283.695 Y388.695
G01 X283.635 Y386.842
G01 X284.415 Y384.851
G01 X286.084 Y383.942
G01 X287.895 Y383.615
G01 X289.343 Y383.636
G01 X291.868 Y383.465
G01 X295.112 Y384.955
G01 X297.307 Y386.980
G01 X298.688 Y388.552
G01 X299.985 Y390.140
G01 X300.953 Y391.506
G01 X301.607 Y392.612
G01 X302.895 Y394.158
G01 X303.846 Y395.225
G01 X304.553 Y396.315
G01 X305.724 Y397.585
G01 X307.101 Y399.135
G01 X307.927 Y399.780
G01 X308.688 Y400.440
G01 X310.007 Y401.548
G01 X311.217 Y402.382
G01 X312.065 Y403.013
G01 X312.918 Y403.640
G01 X313.738 Y404.274
G01 X315.116 Y404.297
G01 X316.851 Y404.435
G01 X318.970 Y403.802
G01 X320.308 Y402.747
G01 X320.889 Y402.148
G01 X321.392 Y401.116
G01 X321.751 Y400.355
G01 X321.854 Y399.333
G01 X322.128 Y398.254
G01 X321.729 Y396.519
G01 X321.099 Y394.897
G01 X320.673 Y393.208
G01 X320.042 Y391.586
G01 X319.198 Y389.996
G01 X318.438 Y388.417
G01 X317.548 Y386.879
G01 X316.522 Y385.347
G01 X315.352 Y383.898
G01 X314.225 Y382.433
G01 X313.358 Y381.075
G01 X312.022 Y379.559
G01 X310.730 Y378.329
G01 X308.991 Y377.569
G01 X307.488 Y377.371
G01 X305.808 Y377.551
G01 X303.994 Y378.503
G01 X303.436 Y379.477
G01 X302.940 Y380.693
G01 X302.259 Y382.251
G01 X301.973 Y383.182
G01 X301.649 Y384.121
G01 X301.321 Y385.060
G01 X301.212 Y386.054
G01 X301.063 Y387.690
G01 X300.895 Y389.292
G01 X300.896 Y390.889
G01 X301.607 Y392.612
G01 X302.895 Y394.158
G01 X303.846 Y395.225
G01 X304.553 Y396.315
G01 X305.724 Y397.585
G01 X307.101 Y399.135
G01 X307.927 Y399.780
G01 X308.688 Y400.440
G01 X310.007 Y401.548
G01 X311.217 Y402.382
G01 X312.065 Y403.013
G01 X312.918 Y403.640
G01 X313.738 Y404.274
G01 X315.116 Y404.297
G01 X316.242 Y402.691
G01 X316.466 Y401.004
G01 X316.993 Y399.563
G01 X317.672 Y398.714
G01 X318.658 Y397.766
G01 X319.743 Y397.121
G01 X320.921 Y396.744
G01 X322.097 Y396.360
G01 X323.270 Y395.970
G01 X324.493 Y395.709
G01 X325.714 Y395.441
G01 X327.002 Y395.335
G01 X328.398 Y395.490
G01 X329.799 Y395.637
G01 X331.316 Y396.043
G01 X332.683 Y395.219
G01 X333.994 Y394.366
G01 X335.594 Y394.090
G01 X336.754 Y393.627
G01 X338.166 Y393.720
G01 X339.842 Y394.365
G01 X341.663 Y394.586
G01 X343.233 Y394.944
G01 X344.646 Y394.609
G01 X343.663 Y393.096
G01 X342.683 Y391.581
G01 X341.673 Y390.079
G01 X340.685 Y388.528
G01 X339.682 Y387.022
G01 X338.717 Y385.500
G01 X337.722 Y383.990
G01 X336.747 Y382.432
G01 X335.759 Y380.919
G01 X334.807 Y379.390
G01 X333.827 Y377.873
G01 X332.867 Y376.308
G01 X331.894 Y374.787
G01 X330.956 Y373.251
G01 X330.383 Y371.562
G01 X330.993 Y370.634
G01 X332.139 Y369.785
G01 X333.804 Y369.411
G01 X335.185 Y369.111
G01 X336.536 Y369.175
G01 X338.010 Y369.173
G01 X339.577 Y369.118
G01 X341.029 Y369.108
G01 X342.306 Y369.175
G01 X343.656 Y369.565
G01 X345.005 Y370.276
G01 X346.136 Y371.542
G01 X347.095 Y372.975
G01 X348.026 Y374.422
G01 X348.989 Y375.853
G01 X349.972 Y377.315
G01 X350.908 Y378.760
G01 X351.877 Y380.187
G01 X352.848 Y381.614
G01 X353.789 Y383.056
G01 X354.782 Y384.512
G01 X355.759 Y385.935
G01 X356.955 Y387.737
G01 X357.975 Y389.302
G01 X356.955 Y387.737
G01 X355.759 Y385.935
G01 X354.782 Y384.512
G01 X353.789 Y383.056
G01 X352.848 Y381.614
G01 X351.877 Y380.187
G01 X350.908 Y378.760
G01 X349.972 Y377.315
G01 X348.989 Y375.853
G01 X348.407 Y373.494
G01 X347.666 Y371.706
G01 X347.105 Y369.906
G01 X346.685 Y368.032
G01 X345.992 Y366.299
G01 X346.046 Y364.175
G01 X347.312 Y362.802
G01 X348.911 Y361.934
G01 X350.288 Y361.507
G01 X352.616 Y360.568
G01 X355.007 Y359.174
G01 X357.377 Y357.749
G01 X359.725 Y356.292
G01 X362.051 Y354.804
G01 X364.354 Y353.285
G01 X366.635 Y351.734
G01 X368.892 Y350.154
G01 X371.126 Y348.543
G01 X373.335 Y346.903
G01 X375.519 Y345.233
G01 X377.678 Y343.534
G01 X379.811 Y341.806
G01 X384.054 Y340.798
G01 X387.858 Y338.354
G01 X389.030 Y347.451
G01 X391.096 Y353.978
G01 X395.885 Y361.474
G01 X399.404 Y365.871
G01 X404.870 Y372.289
G01 X411.874 Y378.266
G01 X418.226 Y381.191
G01 X421.329 Y381.036
G01 X424.120 Y379.902
G01 X427.053 Y377.809
G01 X429.913 Y374.811
G01 X430.112 Y372.456
G01 X428.456 Y367.766
G01 X427.136 Y365.805
G01 X422.963 Y361.252
G01 X418.279 Y356.677
G01 X410.751 Y350.168
G01 X405.272 Y345.485
G01 X399.895 Y341.010
G01 X395.062 Y336.782
G01 X389.562 Y332.168
G01 X385.326 Y328.798
G01 X380.809 Y324.168
G01 X375.894 Y320.422
G01 X371.475 Y317.168
G01 X368.651 Y316.407
G01 X366.799 Y316.790
G01 X363.040 Y319.967
G01 X362.372 Y321.727
G01 X362.898 Y324.582
G01 X366.166 Y328.709
G01 X370.225 Y332.668
G01 X375.749 Y337.090
G01 X379.768 Y339.067
G01 X384.054 Y340.798
G01 X387.736 Y338.463
G01 X389.418 Y336.143
G01 X391.030 Y333.781
G01 X392.627 Y331.428
G01 X394.159 Y329.082
G01 X396.125 Y327.136
G01 X398.011 Y325.162
G01 X399.602 Y323.069
G01 X401.427 Y321.048
G01 X403.222 Y319.004
G01 X406.958 Y317.012
G01 X410.293 Y315.933
G01 X412.968 Y314.602
G01 X415.170 Y314.380
G01 X417.946 Y314.925
G01 X420.005 Y315.357
G01 X421.785 Y316.155
G01 X423.187 Y316.897
G01 X425.354 Y318.234
G01 X427.149 Y319.570
G01 X428.434 Y320.778
G01 X429.416 Y321.828
G01 X430.201 Y322.706
G01 X431.496 Y324.328
G01 X432.168 Y325.535
G01 X432.246 Y326.958
G01 X431.822 Y328.530
G01 X431.117 Y329.956
G01 X429.881 Y330.957
G01 X428.377 Y331.798
G01 X426.933 Y332.085
G01 X425.524 Y331.799
G01 X423.525 Y331.057
G01 X422.397 Y330.607
G01 X421.087 Y329.969
G01 X419.489 Y329.151
G01 X417.645 Y327.877
G01 X415.699 Y326.263
G01 X414.566 Y325.186
G01 X413.272 Y323.779
G01 X412.276 Y322.017
G01 X410.970 Y319.633
G01 X410.578 Y317.591
G01 X410.943 Y314.643
G01 X411.380 Y311.483
G01 X412.695 Y308.695
G01 X413.334 Y306.251
G01 X414.906 Y304.048
G01 X416.445 Y301.825
G01 X418.164 Y300.410
G01 X420.585 Y299.315
G01 X422.150 Y298.957
G01 X423.813 Y298.716
G01 X426.465 Y298.150
G01 X430.227 Y298.035
G01 X434.241 Y297.529
G01 X437.084 Y297.720
G01 X439.480 Y297.999
G01 X442.206 Y299.054
G01 X443.908 Y299.931
G01 X447.679 Y302.929
G01 X446.647 Y298.982
G01 X445.809 Y296.547
G01 X445.213 Y294.264
G01 X444.461 Y292.320
G01 X443.704 Y290.283
G01 X441.403 Y287.938
G01 X440.159 Y286.737
G01 X438.774 Y285.811
G01 X437.401 Y284.860
G01 X435.759 Y284.441
G01 X434.000 Y284.250
G01 X432.126 Y284.280
G01 X430.120 Y284.553
G01 X428.146 Y285.315
G01 X425.844 Y286.491
G01 X424.574 Y287.624
G01 X423.746 Y288.937
G01 X423.008 Y290.368
G01 X422.817 Y291.804
G01 X422.531 Y294.103
G01 X422.507 Y296.572
G01 X422.531 Y294.103
G01 X422.817 Y291.804
G01 X423.008 Y290.368
G01 X423.746 Y288.937
G01 X424.574 Y287.624
G01 X425.844 Y286.491
G01 X428.146 Y285.315
G01 X428.082 Y283.667
G01 X428.115 Y282.216
G01 X428.732 Y281.004
G01 X429.327 Y279.817
G01 X429.953 Y278.540
G01 X431.110 Y276.118
G01 X432.576 Y274.468
G01 X434.788 Y273.029
G01 X436.276 Y272.446
G01 X437.879 Y271.963
G01 X440.406 Y271.014
G01 X444.103 Y270.347
G01 X447.986 Y269.257
G01 X450.827 Y269.028
G01 X453.239 Y268.951
G01 X456.104 Y269.593
G01 X457.930 Y270.209
G01 X462.146 Y272.616
G01 X460.480 Y268.868
G01 X459.253 Y266.586
G01 X458.290 Y264.418
G01 X457.229 Y262.609
G01 X456.148 Y260.708
G01 X453.491 Y258.730
G01 X452.065 Y257.726
G01 X450.544 Y257.015
G01 X449.032 Y256.277
G01 X447.341 Y256.105
G01 X445.573 Y256.175
G01 X443.726 Y256.480
G01 X441.790 Y257.045
G01 X439.964 Y258.087
G01 X437.883 Y259.588
G01 X436.814 Y260.893
G01 X436.211 Y262.313
G01 X435.716 Y263.835
G01 X435.763 Y265.282
G01 X435.857 Y267.594
G01 X436.237 Y270.037
G01 X435.857 Y267.594
G01 X435.763 Y265.282
G01 X435.716 Y263.835
G01 X436.211 Y262.313
G01 X436.814 Y260.893
G01 X437.883 Y259.588
G01 X439.964 Y258.087
G01 X439.631 Y256.469
G01 X439.426 Y255.030
G01 X439.837 Y253.743
G01 X440.230 Y252.482
G01 X440.640 Y251.129
G01 X441.385 Y248.566

