;  Created by Sandify
;  https://sandify.org
;  Version: 0.2.6
;
;  Machine type: Rectangular
;    Min X (mm): 0
;    Max X (mm): 500
;    Min Y (mm): 0
;    Max Y (mm): 500
;  Content type: shape
;  Layer:
;    Shape: FileImport
;    Name: goulet_heartswirl_ee.thr
;    From file:: goulet_heartswirl_ee.thr
;    Aspect Ratio: true
;    Comments: 
;    Visible: true
;    Initial width: 10
;    Initial height: 10
;    X offset: 0
;    Y offset: 0
;    Rotate (degrees): 0
;    Reverse path: false
;    Fine tuning:
;      Connect to next layer: line
;      Draw portion of path (%): 100
;      Backtrack at end (%): 0
;      Rotate starting point (%): 0
;  Reverse export path: false
;
; File name: 'heartswirl'
; File type: gcode
;

G01 X0.000 Y250.003
G01 X0.403 Y256.244
G01 X2.710 Y262.378
G01 X6.993 Y268.360
G01 X12.994 Y274.070
G01 X20.683 Y279.447
G01 X29.695 Y284.403
G01 X39.884 Y288.976
G01 X50.806 Y293.084
G01 X61.975 Y296.753
G01 X73.162 Y300.107
G01 X83.911 Y303.113
G01 X93.855 Y305.975
G01 X102.633 Y308.760
G01 X110.090 Y311.611
G01 X115.940 Y314.628
G01 X120.088 Y317.983
G01 X122.497 Y321.741
G01 X123.247 Y326.016
G01 X122.423 Y330.824
G01 X120.246 Y336.242
G01 X116.971 Y342.189
G01 X112.931 Y348.687
G01 X108.415 Y355.595
G01 X103.903 Y362.758
G01 X99.634 Y370.113
G01 X96.027 Y377.367
G01 X93.330 Y384.448
G01 X91.892 Y391.042
G01 X91.861 Y397.059
G01 X93.387 Y402.292
G01 X96.543 Y406.593
G01 X101.261 Y409.889
G01 X107.545 Y412.099
G01 X115.182 Y413.188
G01 X123.987 Y413.279
G01 X133.619 Y412.405
G01 X143.917 Y410.692
G01 X154.469 Y408.368
G01 X164.921 Y405.667
G01 X175.079 Y402.795
G01 X184.530 Y400.065
G01 X193.155 Y397.661
G01 X200.652 Y395.932
G01 X206.991 Y395.032
G01 X211.993 Y395.157
G01 X215.709 Y396.464
G01 X218.158 Y399.036
G01 X219.504 Y402.888
G01 X219.860 Y407.925
G01 X219.461 Y414.108
G01 X218.513 Y421.204
G01 X217.276 Y429.034
G01 X216.037 Y437.296
G01 X215.031 Y445.624
G01 X214.453 Y453.798
G01 X214.534 Y461.446
G01 X215.431 Y468.254
G01 X217.237 Y473.916
G01 X220.021 Y478.265
G01 X223.764 Y481.015
G01 X228.493 Y482.131
G01 X234.051 Y481.501
G01 X240.371 Y479.198
G01 X247.254 Y475.308
G01 X254.558 Y470.003
G01 X262.059 Y463.535
G01 X269.630 Y456.193
G01 X277.040 Y448.315
G01 X284.085 Y440.322
G01 X290.759 Y432.427
G01 X296.834 Y425.198
G01 X302.296 Y418.810
G01 X307.117 Y413.643
G01 X311.320 Y409.842
G01 X314.903 Y407.664
G01 X317.977 Y407.126
G01 X320.604 Y408.266
G01 X322.928 Y411.003
G01 X325.029 Y415.156
G01 X327.090 Y420.508
G01 X329.152 Y426.762
G01 X331.349 Y433.584
G01 X333.756 Y440.610
G01 X336.397 Y447.368
G01 X339.357 Y453.577
G01 X342.541 Y458.785
G01 X346.016 Y462.708
G01 X349.641 Y465.036
G01 X353.389 Y465.619
G01 X357.145 Y464.308
G01 X360.800 Y459.534
G01 X364.228 Y452.964
G01 X367.347 Y444.520
G01 X370.046 Y434.630
G01 X372.315 Y423.371
G01 X374.095 Y411.284
G01 X375.387 Y398.558
G01 X376.215 Y385.668
G01 X376.651 Y373.399
G01 X376.650 Y373.075
G01 X376.760 Y361.625
G01 X376.745 Y361.070
G01 X376.626 Y350.422
G01 X376.611 Y350.098
G01 X376.343 Y340.308
G01 X376.107 Y332.096
G01 X375.984 Y325.549
G01 X376.116 Y320.790
G01 X376.574 Y317.770
G01 X377.460 Y316.468
G01 X378.814 Y316.683
G01 X380.634 Y318.222
G01 X382.901 Y320.782
G01 X385.559 Y324.018
G01 X388.509 Y327.619
G01 X391.624 Y331.198
G01 X394.734 Y334.410
G01 X397.666 Y336.874
G01 X400.239 Y338.367
G01 X402.282 Y338.588
G01 X403.638 Y337.434
G01 X404.118 Y334.733
G01 X403.648 Y330.535
G01 X402.100 Y324.806
G01 X399.485 Y317.759
G01 X395.783 Y309.479
G01 X391.090 Y300.335
G01 X385.866 Y291.077
G01 X385.504 Y290.493
G01 X380.358 Y282.080
G01 X379.203 Y280.372
G01 X374.296 Y272.849
G01 X372.390 Y270.226
G01 X367.741 Y263.564
G01 X365.258 Y260.388
G01 X360.950 Y254.529
G01 X357.150 Y249.998
G01 X362.098 Y244.491
G01 X366.404 Y238.977
G01 X371.657 Y232.421
G01 X373.762 Y229.491
G01 X379.270 Y222.000
G01 X380.656 Y219.915
G01 X386.288 Y211.487
G01 X386.802 Y210.645
G01 X392.103 Y201.894
G01 X396.354 Y194.005
G01 X399.477 Y187.221
G01 X401.477 Y181.732
G01 X402.316 Y177.711
G01 X402.120 Y175.121
G01 X401.008 Y174.010
G01 X399.113 Y174.252
G01 X396.654 Y175.704
G01 X393.744 Y178.151
G01 X390.647 Y181.309
G01 X387.517 Y184.836
G01 X384.569 Y188.395
G01 X381.906 Y191.676
G01 X379.657 Y194.275
G01 X377.936 Y195.847
G01 X376.738 Y196.159
G01 X376.084 Y194.957
G01 X375.946 Y192.083
G01 X376.259 Y187.458
G01 X376.918 Y181.024
G01 X377.777 Y172.969
G01 X378.732 Y163.507
G01 X378.744 Y163.328
G01 X379.626 Y153.164
G01 X379.662 Y152.425
G01 X380.395 Y141.455
G01 X380.423 Y140.454
G01 X380.884 Y128.629
G01 X380.885 Y127.893
G01 X380.966 Y115.205
G01 X380.957 Y114.940
G01 X380.545 Y102.197
G01 X379.624 Y89.895
G01 X378.197 Y78.492
G01 X376.235 Y68.296
G01 X373.781 Y59.569
G01 X370.925 Y52.623
G01 X367.749 Y47.495
G01 X364.321 Y44.309
G01 X360.747 Y42.959
G01 X357.142 Y43.433
G01 X353.574 Y46.995
G01 X350.234 Y51.832
G01 X347.056 Y57.733
G01 X344.146 Y64.190
G01 X341.479 Y70.967
G01 X339.024 Y77.520
G01 X336.704 Y83.610
G01 X334.487 Y88.770
G01 X332.242 Y92.787
G01 X329.859 Y95.352
G01 X327.260 Y96.300
G01 X324.312 Y95.603
G01 X320.941 Y93.202
G01 X317.027 Y89.130
G01 X312.579 Y83.683
G01 X307.496 Y76.952
G01 X301.908 Y69.334
G01 X295.733 Y61.056
G01 X289.169 Y52.598
G01 X282.235 Y44.209
G01 X275.147 Y36.375
G01 X267.995 Y29.358
G01 X261.032 Y23.544
G01 X254.336 Y19.141
G01 X248.172 Y16.332
G01 X242.645 Y15.265
G01 X237.861 Y15.965
G01 X233.963 Y18.354
G01 X230.946 Y22.396
G01 X228.845 Y27.805
G01 X227.607 Y34.460
G01 X227.144 Y41.952
G01 X227.288 Y50.086
G01 X227.902 Y58.395
G01 X228.762 Y66.651
G01 X229.615 Y74.480
G01 X230.258 Y81.628
G01 X230.422 Y87.802
G01 X229.883 Y92.857
G01 X228.431 Y96.634
G01 X225.951 Y99.079
G01 X222.281 Y100.244
G01 X217.379 Y100.134
G01 X211.227 Y98.921
G01 X203.952 Y96.822
G01 X195.558 Y93.975
G01 X186.342 Y90.725
G01 X176.442 Y87.306
G01 X166.236 Y84.041
G01 X155.860 Y81.116
G01 X145.750 Y78.822
G01 X136.177 Y77.372
G01 X127.447 Y76.920
G01 X119.752 Y77.532
G01 X113.361 Y79.335
G01 X108.488 Y82.305
G01 X105.101 Y86.356
G01 X103.315 Y91.411
G01 X103.084 Y97.369
G01 X104.219 Y103.993
G01 X106.568 Y111.121
G01 X109.844 Y118.518
G01 X113.822 Y126.038
G01 X118.065 Y133.400
G01 X122.339 Y140.521
G01 X126.154 Y147.165
G01 X129.280 Y153.299
G01 X131.344 Y158.768
G01 X132.083 Y163.613
G01 X131.307 Y167.805
G01 X128.866 Y171.401
G01 X124.739 Y174.510
G01 X118.918 Y177.181
G01 X111.499 Y179.581
G01 X102.756 Y181.851
G01 X92.798 Y184.115
G01 X82.083 Y186.494
G01 X70.825 Y189.153
G01 X59.565 Y192.159
G01 X48.513 Y195.607
G01 X38.218 Y199.479
G01 X28.935 Y203.880
G01 X21.017 Y208.717
G01 X14.658 Y214.028
G01 X10.138 Y219.647
G01 X7.452 Y225.572
G01 X6.689 Y231.675
G01 X7.781 Y237.812
G01 X10.526 Y243.970
G01 X14.725 Y250.006
G01 X24.400 Y255.828
G01 X34.845 Y261.268
G01 X45.777 Y266.337
G01 X56.690 Y271.023
G01 X67.279 Y275.382
G01 X77.112 Y279.433
G01 X85.923 Y283.316
G01 X93.301 Y287.075
G01 X99.189 Y290.867
G01 X103.301 Y294.757
G01 X105.705 Y298.881
G01 X106.357 Y303.335
G01 X105.420 Y308.121
G01 X103.009 Y313.385
G01 X99.454 Y319.048
G01 X94.998 Y325.186
G01 X90.062 Y331.651
G01 X84.984 Y338.447
G01 X80.144 Y345.373
G01 X75.879 Y352.401
G01 X72.608 Y359.231
G01 X70.520 Y365.809
G01 X69.914 Y371.919
G01 X70.921 Y377.448
G01 X73.624 Y382.206
G01 X78.037 Y386.133
G01 X84.084 Y389.161
G01 X91.576 Y391.214
G01 X100.396 Y392.341
G01 X110.136 Y392.612
G01 X120.667 Y392.108
G01 X131.510 Y390.999
G01 X142.392 Y389.493
G01 X152.938 Y387.736
G01 X162.894 Y386.025
G01 X171.882 Y384.598
G01 X179.817 Y383.642
G01 X186.430 Y383.375
G01 X191.667 Y384.004
G01 X195.477 Y385.653
G01 X197.894 Y388.444
G01 X199.045 Y392.382
G01 X199.095 Y397.381
G01 X198.215 Y403.500
G01 X196.683 Y410.475
G01 X194.781 Y418.166
G01 X192.757 Y426.289
G01 X190.925 Y434.629
G01 X189.543 Y442.793
G01 X188.830 Y450.606
G01 X188.983 Y457.672
G01 X190.157 Y463.756
G01 X192.446 Y468.575
G01 X195.841 Y472.015
G01 X200.364 Y473.889
G01 X205.942 Y474.161
G01 X212.466 Y472.836
G01 X219.703 Y469.973
G01 X227.533 Y465.733
G01 X235.678 Y460.388
G01 X244.024 Y454.113
G01 X252.255 Y447.287
G01 X260.248 Y440.199
G01 X267.748 Y433.293
G01 X274.723 Y426.805
G01 X280.937 Y421.151
G01 X286.464 Y416.555
G01 X291.151 Y413.320
G01 X295.127 Y411.592
G01 X298.380 Y411.457
G01 X301.052 Y412.939
G01 X303.217 Y416.003
G01 X305.050 Y420.430
G01 X306.650 Y426.165
G01 X308.179 Y432.737
G01 X309.790 Y439.963
G01 X311.586 Y447.391
G01 X313.645 Y454.709
G01 X316.050 Y461.475
G01 X318.821 Y467.365
G01 X321.999 Y471.991
G01 X325.511 Y475.123
G01 X329.319 Y476.514
G01 X333.388 Y476.034
G01 X337.574 Y473.640
G01 X341.814 Y469.279
G01 X346.002 Y463.181
G01 X349.981 Y455.438
G01 X353.735 Y446.358
G01 X357.152 Y436.310
G01 X360.200 Y424.016
G01 X362.795 Y411.512
G01 X364.962 Y399.070
G01 X366.736 Y387.243
G01 X368.192 Y376.229
G01 X369.379 Y366.494
G01 X370.434 Y358.162
G01 X371.415 Y351.535
G01 X372.453 Y346.610
G01 X373.641 Y343.518
G01 X375.049 Y342.091
G01 X376.766 Y342.285
G01 X378.809 Y343.812
G01 X381.185 Y346.408
G01 X383.863 Y349.723
G01 X386.831 Y353.473
G01 X389.927 Y357.207
G01 X393.095 Y360.591
G01 X396.153 Y363.258
G01 X398.958 Y364.861
G01 X401.378 Y365.238
G01 X403.224 Y364.074
G01 X404.413 Y361.352
G01 X404.769 Y356.947
G01 X404.215 Y350.963
G01 X402.732 Y343.445
G01 X400.258 Y334.575
G01 X396.866 Y324.708
G01 X392.626 Y313.995
G01 X388.266 Y304.055
G01 X387.708 Y302.916
G01 X383.372 Y293.870
G01 X382.188 Y291.669
G01 X377.987 Y283.538
G01 X376.345 Y280.714
G01 X372.289 Y273.440
G01 X370.303 Y270.275
G01 X366.433 Y263.789
G01 X364.441 Y260.808
G01 X360.773 Y254.997
G01 X357.150 Y249.996
G01 X362.991 Y244.445
G01 X368.530 Y238.322
G01 X369.198 Y237.518
G01 X375.363 Y230.614
G01 X376.356 Y229.397
G01 X382.614 Y221.702
G01 X387.785 Y214.740
G01 X391.787 Y208.716
G01 X394.509 Y203.848
G01 X396.048 Y200.214
G01 X396.354 Y197.977
G01 X395.618 Y197.038
G01 X393.965 Y197.394
G01 X391.593 Y198.918
G01 X388.706 Y201.397
G01 X385.553 Y204.532
G01 X382.322 Y208.090
G01 X379.247 Y211.708
G01 X376.511 Y215.051
G01 X374.289 Y217.769
G01 X372.616 Y219.612
G01 X371.674 Y220.181
G01 X371.442 Y219.349
G01 X371.880 Y216.880
G01 X372.987 Y212.678
G01 X374.610 Y206.756
G01 X376.665 Y199.124
G01 X378.812 Y190.765
G01 X378.987 Y189.962
G01 X381.154 Y180.931
G01 X381.460 Y179.385
G01 X383.549 Y169.580
G01 X383.845 Y167.841
G01 X385.806 Y157.166
G01 X386.048 Y155.453
G01 X387.780 Y143.857
G01 X387.908 Y142.674
G01 X389.281 Y130.182
G01 X389.296 Y129.972
G01 X390.142 Y117.591
G01 X390.374 Y106.033
G01 X389.962 Y95.561
G01 X388.915 Y86.494
G01 X387.290 Y78.992
G01 X385.118 Y73.351
G01 X382.496 Y69.481
G01 X379.555 Y67.512
G01 X376.330 Y67.297
G01 X373.014 Y68.663
G01 X369.629 Y71.355
G01 X366.312 Y75.063
G01 X363.090 Y79.465
G01 X360.014 Y84.175
G01 X357.142 Y88.750
G01 X354.414 Y94.413
G01 X351.872 Y99.212
G01 X349.423 Y102.838
G01 X347.010 Y105.071
G01 X344.514 Y105.697
G01 X341.854 Y104.580
G01 X338.937 Y101.786
G01 X335.676 Y97.321
G01 X331.988 Y91.303
G01 X327.868 Y83.979
G01 X323.249 Y75.663
G01 X318.184 Y66.669
G01 X312.642 Y57.275
G01 X306.755 Y47.970
G01 X300.641 Y39.197
G01 X294.372 Y31.178
G01 X288.145 Y24.351
G01 X282.039 Y18.910
G01 X276.266 Y15.114
G01 X270.893 Y13.094
G01 X266.115 Y12.897
G01 X262.009 Y14.556
G01 X258.629 Y17.910
G01 X255.968 Y22.803
G01 X254.059 Y28.962
G01 X252.836 Y36.169
G01 X252.197 Y44.012
G01 X251.970 Y52.235
G01 X252.022 Y60.361
G01 X252.175 Y68.213
G01 X252.177 Y75.339
G01 X251.814 Y81.460
G01 X250.910 Y86.428
G01 X249.258 Y90.052
G01 X246.697 Y92.285
G01 X243.132 Y93.075
G01 X238.444 Y92.498
G01 X232.692 Y90.713
G01 X225.802 Y87.846
G01 X217.980 Y84.163
G01 X209.292 Y79.929
G01 X199.996 Y75.472
G01 X190.249 Y71.036
G01 X180.414 Y66.983
G01 X170.639 Y63.509
G01 X161.319 Y60.913
G01 X152.732 Y59.383
G01 X145.029 Y59.051
G01 X138.573 Y60.015
G01 X133.356 Y62.260
G01 X129.626 Y65.763
G01 X127.334 Y70.482
G01 X126.499 Y76.214
G01 X126.982 Y82.806
G01 X128.649 Y90.017
G01 X131.266 Y97.655
G01 X134.532 Y105.427
G01 X138.220 Y113.214
G01 X141.871 Y120.640
G01 X145.266 Y127.689
G01 X148.001 Y134.088
G01 X149.797 Y139.760
G01 X150.355 Y144.663
G01 X149.521 Y148.742
G01 X147.102 Y152.071
G01 X143.040 Y154.672
G01 X137.331 Y156.715
G01 X130.111 Y158.280
G01 X121.437 Y159.539
G01 X111.689 Y160.671
G01 X101.009 Y161.829
G01 X89.831 Y163.151
G01 X78.443 Y164.797
G01 X67.363 Y166.910
G01 X56.766 Y169.516
G01 X47.113 Y172.738
G01 X38.843 Y176.525
G01 X32.007 Y180.925
G01 X26.925 Y185.815
G01 X23.632 Y191.219
G01 X22.267 Y196.976
G01 X22.682 Y203.006
G01 X24.792 Y209.191
G01 X28.374 Y215.470
G01 X33.119 Y221.655
G01 X38.769 Y227.747
G01 X44.902 Y233.627
G01 X51.162 Y239.320
G01 X57.071 Y244.759
G01 X62.400 Y250.008
G01 X70.970 Y255.021
G01 X78.252 Y259.756
G01 X83.993 Y264.335
G01 X88.016 Y268.832
G01 X90.299 Y273.359
G01 X90.819 Y278.003
G01 X89.682 Y282.855
G01 X87.090 Y287.962
G01 X83.232 Y293.408
G01 X78.476 Y299.144
G01 X73.097 Y305.235
G01 X67.527 Y311.553
G01 X62.142 Y318.114
G01 X57.368 Y324.746
G01 X53.463 Y331.395
G01 X50.772 Y337.882
G01 X49.592 Y344.040
G01 X50.047 Y349.800
G01 X52.240 Y354.986
G01 X56.277 Y359.544
G01 X61.976 Y363.306
G01 X69.322 Y366.304
G01 X77.971 Y368.512
G01 X87.826 Y369.926
G01 X98.404 Y370.656
G01 X109.474 Y370.821
G01 X120.612 Y370.523
G01 X131.523 Y369.990
G01 X141.806 Y369.362
G01 X151.220 Y368.894
G01 X159.478 Y368.791
G01 X166.367 Y369.215
G01 X171.805 Y370.384
G01 X175.707 Y372.392
G01 X178.131 Y375.360
G01 X179.134 Y379.333
G01 X178.887 Y384.339
G01 X177.619 Y390.277
G01 X175.539 Y397.075
G01 X172.988 Y404.522
G01 X170.253 Y412.485
G01 X167.665 Y420.596
G01 X165.485 Y428.752
G01 X163.981 Y436.548
G01 X163.413 Y443.758
G01 X163.912 Y450.118
G01 X165.629 Y455.397
G01 X168.626 Y459.394
G01 X172.902 Y461.964
G01 X178.378 Y463.085
G01 X184.916 Y462.690
G01 X192.425 Y460.856
G01 X200.603 Y457.733
G01 X209.339 Y453.452
G01 X218.291 Y448.306
G01 X227.303 Y442.517
G01 X236.011 Y436.526
G01 X244.375 Y430.487
G01 X252.037 Y424.913
G01 X259.008 Y419.986
G01 X265.111 Y416.064
G01 X270.260 Y413.424
G01 X274.544 Y412.128
G01 X277.961 Y412.360
G01 X280.595 Y414.174
G01 X282.571 Y417.513
G01 X284.045 Y422.243
G01 X285.178 Y428.160
G01 X286.117 Y435.058
G01 X287.058 Y442.541
G01 X288.151 Y450.375
G01 X289.515 Y458.107
G01 X291.302 Y465.401
G01 X293.510 Y471.874
G01 X296.281 Y477.209
G01 X299.534 Y481.101
G01 X303.283 Y483.293
G01 X307.494 Y483.681
G01 X312.036 Y482.129
G01 X316.836 Y478.683
G01 X321.764 Y473.459
G01 X326.723 Y466.587
G01 X331.558 Y458.330
G01 X336.238 Y448.992
G01 X340.616 Y438.917
G01 X344.676 Y428.467
G01 X348.342 Y418.096
G01 X351.621 Y408.109
G01 X354.536 Y399.014
G01 X357.155 Y390.973
G01 X359.464 Y382.834
G01 X361.558 Y376.315
G01 X363.532 Y371.516
G01 X365.436 Y368.490
G01 X367.402 Y367.180
G01 X369.484 Y367.459
G01 X371.785 Y369.147
G01 X374.289 Y371.914
G01 X377.027 Y375.476
G01 X379.971 Y379.466
G01 X383.113 Y383.501
G01 X386.291 Y387.181
G01 X389.518 Y390.177
G01 X392.575 Y392.106
G01 X395.381 Y392.717
G01 X397.810 Y391.830
G01 X399.707 Y389.202
G01 X400.975 Y384.880
G01 X401.510 Y378.825
G01 X401.224 Y371.081
G01 X400.117 Y361.968
G01 X398.196 Y351.593
G01 X395.499 Y340.362
G01 X392.261 Y328.953
G01 X392.112 Y328.497
G01 X388.687 Y317.948
G01 X388.126 Y316.442
G01 X384.679 Y306.825
G01 X383.736 Y304.528
G01 X380.327 Y295.818
G01 X379.148 Y293.179
G01 X375.781 Y285.294
G01 X374.477 Y282.601
G01 X371.171 Y275.455
G01 X370.021 Y273.238
G01 X366.755 Y266.711
G01 X365.910 Y265.183
G01 X362.646 Y259.163
G01 X362.387 Y258.722
G01 X359.558 Y253.842
G01 X357.150 Y249.995
G01 X363.638 Y244.412
G01 X364.425 Y243.672
G01 X371.266 Y237.302
G01 X371.376 Y237.190
G01 X377.250 Y231.243
G01 X381.858 Y226.136
G01 X385.175 Y221.972
G01 X387.108 Y218.973
G01 X387.785 Y217.135
G01 X387.279 Y216.530
G01 X385.722 Y217.110
G01 X383.345 Y218.785
G01 X380.361 Y221.335
G01 X377.006 Y224.579
G01 X373.568 Y228.210
G01 X370.252 Y231.943
G01 X367.327 Y235.454
G01 X364.921 Y238.452
G01 X363.257 Y240.561
G01 X362.410 Y241.582
G01 X362.433 Y241.218
G01 X363.298 Y239.324
G01 X365.025 Y235.786
G01 X367.495 Y230.514
G01 X370.473 Y223.889
G01 X370.610 Y223.555
G01 X373.652 Y216.452
G01 X374.166 Y215.108
G01 X377.257 Y207.399
G01 X378.021 Y205.225
G01 X381.139 Y196.778
G01 X381.927 Y194.308
G01 X385.055 Y185.005
G01 X385.773 Y182.503
G01 X388.847 Y172.255
G01 X389.343 Y170.301
G01 X392.228 Y159.110
G01 X392.484 Y157.917
G01 X395.042 Y145.831
G01 X395.042 Y145.828
G01 X396.971 Y134.337
G01 X398.102 Y123.921
G01 X398.501 Y114.692
G01 X398.155 Y107.014
G01 X397.060 Y101.001
G01 X395.337 Y96.794
G01 X393.068 Y94.333
G01 X390.369 Y93.605
G01 X387.376 Y94.454
G01 X384.192 Y96.582
G01 X380.926 Y99.771
G01 X377.694 Y103.686
G01 X374.588 Y107.877
G01 X371.640 Y112.077
G01 X368.877 Y115.807
G01 X366.320 Y118.719
G01 X363.928 Y120.509
G01 X361.646 Y120.906
G01 X359.412 Y119.692
G01 X357.139 Y116.789
G01 X354.767 Y113.621
G01 X352.202 Y108.777
G01 X349.409 Y102.345
G01 X346.263 Y94.512
G01 X342.744 Y85.607
G01 X338.851 Y75.969
G01 X334.514 Y65.842
G01 X329.839 Y55.796
G01 X324.843 Y46.075
G01 X319.620 Y37.173
G01 X314.231 Y29.333
G01 X308.864 Y22.931
G01 X303.610 Y18.168
G01 X298.587 Y15.199
G01 X293.914 Y14.103
G01 X289.733 Y14.934
G01 X286.050 Y17.529
G01 X282.969 Y21.744
G01 X280.495 Y27.404
G01 X278.559 Y34.156
G01 X277.166 Y41.638
G01 X276.152 Y49.574
G01 X275.428 Y57.522
G01 X274.830 Y65.185
G01 X274.203 Y72.139
G01 X273.343 Y78.204
G01 X272.045 Y82.999
G01 X270.162 Y86.438
G01 X267.578 Y88.403
G01 X264.081 Y88.839
G01 X259.686 Y87.814
G01 X254.273 Y85.380
G01 X247.940 Y81.838
G01 X240.658 Y77.328
G01 X232.598 Y72.174
G01 X223.931 Y66.669
G01 X214.829 Y61.173
G01 X205.542 Y55.978
G01 X196.274 Y51.362
G01 X187.351 Y47.652
G01 X178.966 Y45.061
G01 X171.399 Y43.718
G01 X164.839 Y43.793
G01 X159.459 Y45.305
G01 X155.330 Y48.203
G01 X152.574 Y52.442
G01 X151.155 Y57.915
G01 X150.971 Y64.362
G01 X151.910 Y71.615
G01 X153.801 Y79.404
G01 X156.358 Y87.414
G01 X159.333 Y95.487
G01 X162.378 Y103.243
G01 X165.259 Y110.613
G01 X167.539 Y117.252
G01 X169.006 Y123.123
G01 X169.374 Y128.072
G01 X168.450 Y132.107
G01 X166.013 Y135.160
G01 X162.068 Y137.389
G01 X156.544 Y138.809
G01 X149.489 Y139.601
G01 X141.138 Y139.945
G01 X131.533 Y139.980
G01 X121.069 Y139.930
G01 X110.085 Y140.005
G01 X98.789 Y140.364
G01 X87.694 Y141.152
G01 X77.062 Y142.503
G01 X67.317 Y144.517
G01 X58.693 Y147.259
G01 X51.556 Y150.704
G01 X46.004 Y154.897
G01 X42.221 Y159.707
G01 X40.282 Y165.104
G01 X40.090 Y170.954
G01 X41.588 Y177.156
G01 X44.556 Y183.545
G01 X48.735 Y190.062
G01 X53.852 Y196.549
G01 X59.470 Y202.860
G01 X65.268 Y209.011
G01 X70.841 Y214.848
G01 X75.764 Y220.442
G01 X79.745 Y225.739
G01 X82.495 Y230.814
G01 X83.741 Y235.676
G01 X83.274 Y240.445
G01 X81.069 Y245.177
G01 X77.100 Y250.010
G01 X75.794 Y254.906
G01 X72.929 Y259.936
G01 X68.828 Y265.100
G01 X63.678 Y270.532
G01 X57.904 Y276.200
G01 X51.909 Y282.101
G01 X46.026 Y288.226
G01 X40.677 Y294.496
G01 X36.192 Y300.864
G01 X32.905 Y307.184
G01 X31.099 Y313.410
G01 X31.009 Y319.318
G01 X32.682 Y324.936
G01 X36.187 Y330.030
G01 X41.532 Y334.586
G01 X48.550 Y338.481
G01 X57.039 Y341.777
G01 X66.693 Y344.375
G01 X77.345 Y346.362
G01 X88.508 Y347.805
G01 X99.808 Y348.800
G01 X110.952 Y349.489
G01 X121.495 Y350.033
G01 X131.210 Y350.616
G01 X139.699 Y351.396
G01 X146.870 Y352.566
G01 X152.459 Y354.296
G01 X156.499 Y356.705
G01 X158.915 Y359.881
G01 X159.781 Y363.961
G01 X159.318 Y368.857
G01 X157.679 Y374.662
G01 X155.179 Y381.165
G01 X152.047 Y388.362
G01 X148.648 Y396.023
G01 X145.330 Y403.905
G01 X142.398 Y411.845
G01 X140.172 Y419.534
G01 X138.842 Y426.811
G01 X138.676 Y433.321
G01 X139.816 Y438.945
G01 X142.340 Y443.404
G01 X146.283 Y446.650
G01 X151.553 Y448.532
G01 X158.125 Y449.044
G01 X165.744 Y448.210
G01 X174.256 Y446.133
G01 X183.375 Y442.972
G01 X192.902 Y438.962
G01 X202.518 Y434.307
G01 X211.938 Y429.330
G01 X220.965 Y424.324
G01 X229.311 Y419.668
G01 X236.868 Y415.580
G01 X243.480 Y412.344
G01 X249.064 Y410.247
G01 X253.613 Y409.434
G01 X257.152 Y410.040
G01 X259.733 Y412.133
G01 X261.495 Y415.702
G01 X262.588 Y420.586
G01 X263.215 Y426.681
G01 X263.521 Y433.728
G01 X263.764 Y441.481
G01 X264.085 Y449.579
G01 X264.695 Y457.631
G01 X265.741 Y465.376
G01 X267.323 Y472.326
G01 X269.532 Y478.266
G01 X272.408 Y482.799
G01 X275.962 Y485.800
G01 X280.134 Y487.017
G01 X284.895 Y486.388
G01 X290.067 Y483.893
G01 X295.627 Y479.611
G01 X301.373 Y473.676
G01 X307.195 Y466.342
G01 X312.960 Y457.901
G01 X318.550 Y448.602
G01 X323.818 Y438.942
G01 X328.782 Y429.170
G01 X333.293 Y419.796
G01 X337.353 Y411.176
G01 X341.013 Y403.583
G01 X344.256 Y397.358
G01 X347.166 Y392.682
G01 X349.828 Y389.697
G01 X352.318 Y388.444
G01 X354.712 Y388.903
G01 X357.158 Y390.971
G01 X359.647 Y392.907
G01 X362.244 Y396.019
G01 X364.989 Y399.900
G01 X367.938 Y404.255
G01 X371.027 Y408.722
G01 X374.259 Y412.859
G01 X377.575 Y416.272
G01 X380.860 Y418.695
G01 X384.056 Y419.780
G01 X386.996 Y419.287
G01 X389.606 Y417.010
G01 X391.802 Y413.002
G01 X393.416 Y407.111
G01 X394.437 Y399.534
G01 X394.736 Y390.300
G01 X394.378 Y379.842
G01 X393.297 Y368.229
G01 X391.592 Y356.003
G01 X389.462 Y344.096
G01 X389.310 Y343.404
G01 X386.965 Y332.390
G01 X386.575 Y330.875
G01 X384.128 Y320.777
G01 X383.542 Y318.751
G01 X381.011 Y309.506
G01 X380.339 Y307.416
G01 X377.780 Y298.952
G01 X377.171 Y297.206
G01 X374.621 Y289.418
G01 X374.219 Y288.335
G01 X371.649 Y281.095
G01 X371.643 Y281.078
G01 X369.552 Y275.424
G01 X368.126 Y271.549
G01 X367.420 Y269.327
G01 X367.519 Y268.717
G01 X368.403 Y269.513
G01 X370.046 Y271.465
G01 X372.331 Y274.319
G01 X375.162 Y277.744
G01 X378.337 Y281.411
G01 X381.656 Y284.986
G01 X384.880 Y288.164
G01 X387.797 Y290.676
G01 X390.148 Y292.240
G01 X391.728 Y292.716
G01 X392.325 Y291.936
G01 X391.824 Y289.883
G01 X390.077 Y286.580
G01 X387.006 Y282.027
G01 X382.687 Y276.460
G01 X377.116 Y269.971
G01 X370.527 Y262.915
G01 X370.512 Y262.900
G01 X364.230 Y256.581
G01 X362.922 Y255.383
G01 X357.150 Y250.004
G01 X360.270 Y245.182
G01 X363.865 Y239.409
G01 X364.883 Y237.607
G01 X368.582 Y231.283
G01 X369.907 Y228.755
G01 X373.743 Y221.750
G01 X375.240 Y218.666
G01 X379.189 Y210.850
G01 X380.564 Y207.764
G01 X384.573 Y199.047
G01 X385.697 Y196.263
G01 X389.735 Y186.565
G01 X390.437 Y184.645
G01 X394.362 Y173.988
G01 X394.651 Y173.093
G01 X398.119 Y162.124
G01 X400.808 Y151.913
G01 X402.604 Y142.919
G01 X403.508 Y135.261
G01 X403.519 Y129.156
G01 X402.708 Y124.794
G01 X401.169 Y122.086
G01 X399.034 Y121.053
G01 X396.418 Y121.513
G01 X393.477 Y123.280
G01 X390.341 Y126.074
G01 X387.168 Y129.582
G01 X384.046 Y133.457
G01 X381.095 Y137.306
G01 X378.363 Y140.766
G01 X375.937 Y143.394
G01 X373.780 Y144.986
G01 X371.871 Y145.214
G01 X370.175 Y143.839
G01 X368.628 Y140.707
G01 X367.134 Y135.858
G01 X365.586 Y129.222
G01 X363.911 Y120.993
G01 X361.976 Y111.312
G01 X359.756 Y100.485
G01 X357.137 Y88.747
G01 X354.126 Y78.103
G01 X350.758 Y67.319
G01 X347.035 Y56.939
G01 X342.950 Y47.185
G01 X338.634 Y38.496
G01 X334.132 Y31.165
G01 X329.571 Y25.510
G01 X325.036 Y21.611
G01 X320.638 Y19.637
G01 X316.499 Y19.553
G01 X312.688 Y21.389
G01 X309.293 Y24.878
G01 X306.312 Y29.863
G01 X303.793 Y36.059
G01 X301.691 Y43.110
G01 X299.964 Y50.615
G01 X298.528 Y58.297
G01 X297.253 Y65.660
G01 X295.979 Y72.405
G01 X294.636 Y78.230
G01 X292.969 Y82.860
G01 X290.899 Y86.024
G01 X288.221 Y87.664
G01 X284.881 Y87.732
G01 X280.759 Y86.213
G01 X275.787 Y83.257
G01 X270.016 Y79.018
G01 X263.395 Y73.708
G01 X256.097 Y67.702
G01 X248.137 Y61.209
G01 X239.762 Y54.668
G01 X231.118 Y48.357
G01 X222.476 Y42.644
G01 X213.998 Y37.807
G01 X205.976 Y34.118
G01 X198.595 Y31.798
G01 X192.088 Y30.951
G01 X186.502 Y31.619
G01 X182.113 Y33.887
G01 X178.907 Y37.581
G01 X176.906 Y42.683
G01 X176.058 Y48.914
G01 X176.278 Y56.065
G01 X177.374 Y63.840
G01 X179.161 Y72.057
G01 X181.395 Y80.292
G01 X183.774 Y88.366
G01 X186.000 Y95.913
G01 X187.815 Y102.823
G01 X188.890 Y108.807
G01 X189.024 Y113.884
G01 X187.952 Y117.813
G01 X185.517 Y120.685
G01 X181.659 Y122.540
G01 X176.348 Y123.418
G01 X169.529 Y123.472
G01 X161.486 Y122.942
G01 X152.242 Y121.982
G01 X142.153 Y120.828
G01 X131.373 Y119.681
G01 X120.359 Y118.759
G01 X109.381 Y118.281
G01 X98.835 Y118.397
G01 X89.010 Y119.245
G01 X80.278 Y120.888
G01 X72.840 Y123.436
G01 X66.960 Y126.826
G01 X62.727 Y131.062
G01 X60.251 Y136.070
G01 X59.517 Y141.686
G01 X60.442 Y147.860
G01 X62.783 Y154.374
G01 X66.428 Y161.136
G01 X70.934 Y167.935
G01 X76.049 Y174.699
G01 X81.376 Y181.251
G01 X86.547 Y187.554
G01 X91.113 Y193.451
G01 X94.882 Y199.038
G01 X97.374 Y204.200
G01 X98.412 Y209.036
G01 X97.803 Y213.555
G01 X95.453 Y217.878
G01 X91.361 Y222.094
G01 X85.531 Y226.247
G01 X78.152 Y230.510
G01 X69.502 Y234.942
G01 X59.707 Y239.632
G01 X49.322 Y244.635
G01 X38.525 Y250.015
G01 X32.199 Y255.679
G01 X26.274 Y261.570
G01 X21.201 Y267.599
G01 X17.288 Y273.789
G01 X14.874 Y279.944
G01 X14.143 Y286.073
G01 X15.250 Y291.983
G01 X18.223 Y297.652
G01 X23.067 Y302.936
G01 X29.621 Y307.770
G01 X37.798 Y312.094
G01 X47.235 Y315.885
G01 X57.733 Y319.154
G01 X68.796 Y321.907
G01 X80.165 Y324.234
G01 X91.359 Y326.216
G01 X102.125 Y327.978
G01 X111.937 Y329.668
G01 X120.708 Y331.433
G01 X128.029 Y333.386
G01 X133.785 Y335.748
G01 X137.894 Y338.574
G01 X140.334 Y342.046
G01 X141.134 Y346.192
G01 X140.471 Y351.053
G01 X138.524 Y356.648
G01 X135.599 Y362.894
G01 X132.003 Y369.726
G01 X128.015 Y377.008
G01 X124.040 Y384.607
G01 X120.417 Y392.252
G01 X117.457 Y399.808
G01 X115.465 Y406.957
G01 X114.631 Y413.608
G01 X115.196 Y419.411
G01 X117.212 Y424.339
G01 X120.781 Y428.114
G01 X125.840 Y430.737
G01 X132.265 Y432.105
G01 X139.952 Y432.252
G01 X148.680 Y431.253
G01 X158.091 Y429.234
G01 X168.042 Y426.361
G01 X178.140 Y422.885
G01 X188.173 Y418.995
G01 X197.736 Y415.074
G01 X206.741 Y411.300
G01 X214.833 Y408.060
G01 X221.929 Y405.563
G01 X227.898 Y404.022
G01 X232.678 Y403.702
G01 X236.303 Y404.670
G01 X238.828 Y407.028
G01 X240.390 Y410.713
G01 X241.104 Y415.736
G01 X241.184 Y421.949
G01 X240.873 Y429.068
G01 X240.361 Y436.902
G01 X239.919 Y445.090
G01 X239.735 Y453.391
G01 X239.988 Y461.388
G01 X240.822 Y468.783
G01 X242.425 Y475.173
G01 X244.786 Y480.391
G01 X248.004 Y484.066
G01 X252.048 Y486.091
G01 X256.826 Y486.351
G01 X262.285 Y484.804
G01 X268.276 Y481.530
G01 X274.695 Y476.558
G01 X281.340 Y470.206
G01 X288.023 Y462.729
G01 X294.668 Y454.376
G01 X301.064 Y445.594
G01 X307.158 Y436.644
G01 X312.772 Y427.980
G01 X317.917 Y419.957
G01 X322.502 Y412.976
G01 X326.595 Y407.208
G01 X330.174 Y402.962
G01 X333.346 Y400.315
G01 X336.144 Y399.422
G01 X338.700 Y400.188
G01 X341.111 Y402.594
G01 X343.465 Y406.429
G01 X345.864 Y411.432
G01 X348.379 Y417.263
G01 X351.084 Y423.646
G01 X354.006 Y430.072
G01 X357.154 Y436.337
G01 X360.471 Y440.340
G01 X363.901 Y443.344
G01 X367.363 Y445.007
G01 X370.811 Y445.128
G01 X374.060 Y443.435
G01 X377.118 Y439.907
G01 X379.796 Y434.461
G01 X382.061 Y427.234
G01 X383.793 Y418.331
G01 X384.988 Y407.918
G01 X385.605 Y396.360
G01 X385.649 Y384.037
G01 X385.132 Y371.205
G01 X384.227 Y358.997
G01 X384.155 Y358.358
G01 X383.005 Y347.044
G01 X382.834 Y345.842
G01 X381.479 Y335.379
G01 X381.250 Y334.039
G01 X379.766 Y324.374
G01 X379.549 Y323.253
G01 X377.983 Y314.294
G01 X377.892 Y313.862
G01 X376.407 Y305.923
G01 X375.249 Y299.768
G01 X374.539 Y295.308
G01 X374.352 Y292.611
G01 X374.789 Y291.551
G01 X375.831 Y291.982
G01 X377.521 Y293.697
G01 X379.744 Y296.352
G01 X382.414 Y299.603
G01 X385.443 Y303.224
G01 X388.589 Y306.729
G01 X391.722 Y309.873
G01 X394.587 Y312.331
G01 X397.012 Y313.778
G01 X398.738 Y314.068
G01 X399.667 Y313.035
G01 X399.584 Y310.619
G01 X398.367 Y306.749
G01 X396.010 Y301.571
G01 X392.399 Y295.116
G01 X387.676 Y287.721
G01 X381.873 Y279.465
G01 X375.999 Y271.724
G01 X375.150 Y270.701
G01 X369.558 Y263.790
G01 X367.762 Y261.783
G01 X362.531 Y255.703
G01 X359.861 Y252.926
G01 X357.150 Y250.002
G01 X361.354 Y244.532
G01 X364.569 Y239.767
G01 X368.999 Y233.453
G01 X371.179 Y229.962
G01 X375.808 Y222.795
G01 X377.671 Y219.557
G01 X382.482 Y211.450
G01 X383.882 Y208.809
G01 X388.783 Y199.723
G01 X389.565 Y198.107
G01 X394.370 Y188.098
G01 X394.462 Y187.885
G01 X398.538 Y178.271
G01 X401.624 Y169.752
G01 X403.716 Y162.400
G01 X404.768 Y156.537
G01 X404.845 Y152.190
G01 X404.020 Y149.470
G01 X402.425 Y148.279
G01 X400.196 Y148.546
G01 X397.497 Y150.090
G01 X394.512 Y152.638
G01 X391.392 Y155.887
G01 X388.291 Y159.539
G01 X385.345 Y163.176
G01 X382.659 Y166.501
G01 X380.354 Y169.039
G01 X378.438 Y170.550
G01 X376.907 Y170.740
G01 X375.758 Y169.344
G01 X374.934 Y166.264
G01 X374.370 Y161.403
G01 X373.926 Y154.794
G01 X373.525 Y146.467
G01 X373.073 Y136.677
G01 X372.414 Y125.644
G01 X372.414 Y125.642
G01 X371.479 Y113.828
G01 X371.467 Y113.728
G01 X370.157 Y101.144
G01 X368.444 Y88.442
G01 X366.265 Y75.873
G01 X363.628 Y63.926
G01 X360.566 Y53.037
G01 X357.120 Y43.394
G01 X353.409 Y36.917
G01 X349.518 Y32.155
G01 X345.573 Y29.333
G01 X341.629 Y28.424
G01 X337.827 Y29.417
G01 X334.242 Y32.172
G01 X330.912 Y36.412
G01 X327.891 Y42.006
G01 X325.214 Y48.479
G01 X322.842 Y55.546
G01 X320.745 Y62.743
G01 X318.832 Y69.772
G01 X317.015 Y76.251
G01 X315.180 Y81.760
G01 X313.211 Y86.065
G01 X310.955 Y88.949
G01 X308.296 Y90.308
G01 X305.128 Y89.953
G01 X301.346 Y87.992
G01 X296.898 Y84.491
G01 X291.725 Y79.584
G01 X285.857 Y73.582
G01 X279.310 Y66.653
G01 X272.245 Y59.293
G01 X264.664 Y51.716
G01 X256.874 Y44.390
G01 X248.899 Y37.553
G01 X241.002 Y31.635
G01 X233.464 Y26.887
G01 X226.364 Y23.505
G01 X219.947 Y21.694
G01 X214.350 Y21.515
G01 X209.732 Y23.019
G01 X206.115 Y26.136
G01 X203.612 Y30.728
G01 X202.112 Y36.633
G01 X201.579 Y43.552
G01 X201.888 Y51.317
G01 X202.878 Y59.491
G01 X204.312 Y67.868
G01 X205.920 Y76.048
G01 X207.524 Y83.843
G01 X208.747 Y90.886
G01 X209.405 Y97.019
G01 X209.191 Y102.076
G01 X207.974 Y105.956
G01 X205.506 Y108.611
G01 X201.773 Y110.105
G01 X196.628 Y110.486
G01 X190.170 Y109.890
G01 X182.444 Y108.555
G01 X173.647 Y106.640
G01 X163.894 Y104.406
G01 X153.589 Y102.099
G01 X142.859 Y99.981
G01 X132.177 Y98.244
G01 X121.772 Y97.168
G01 X111.974 Y96.843
G01 X103.225 Y97.442
G01 X95.620 Y99.035
G01 X89.479 Y101.649
G01 X84.862 Y105.246
G01 X81.936 Y109.783
G01 X80.687 Y115.194
G01 X81.016 Y121.240
G01 X82.777 Y127.866
G01 X85.764 Y134.817
G01 X89.704 Y141.972
G01 X94.237 Y149.077
G01 X99.082 Y156.092
G01 X103.771 Y162.760
G01 X108.067 Y169.090
G01 X111.468 Y174.909
G01 X113.776 Y180.234
G01 X114.652 Y185.050
G01 X113.971 Y189.381
G01 X111.526 Y193.320
G01 X107.407 Y196.926
G01 X101.536 Y200.336
G01 X94.101 Y203.628
G01 X85.253 Y206.964
G01 X75.384 Y210.399
G01 X64.669 Y214.104
G01 X53.623 Y218.104
G01 X42.491 Y222.488
G01 X31.833 Y227.247
G01 X21.900 Y232.444
G01 X13.078 Y238.022
G01 X5.701 Y243.887

