;  Created by Sandify
;  https://sandify.org
;  Version: 0.2.6
;
;  Machine type: Rectangular
;    Min X (mm): 0
;    Max X (mm): 500
;    Min Y (mm): 0
;    Max Y (mm): 500
;  Content type: shape
;  Layer:
;    Shape: FileImport
;    Name: KeysleyDown 6-10-2018.thr
;    From file:: KeysleyDown 6-10-2018.thr
;    Aspect Ratio: true
;    Comments: 
;    Visible: true
;    Initial width: 10
;    Initial height: 10
;    X offset: 0
;    Y offset: 0
;    Rotate (degrees): 0
;    Reverse path: false
;    Fine tuning:
;      Connect to next layer: line
;      Draw portion of path (%): 100
;      Backtrack at end (%): 0
;      Rotate starting point (%): 0
;  Reverse export path: false
;
; File name: 'KeysleyDown (C C)'
; File type: gcode
;

G01 X250.000 Y250.000
G01 X249.997 Y249.949
G01 X250.000 Y249.898
G01 X250.007 Y249.847
G01 X250.019 Y249.796
G01 X250.037 Y249.747
G01 X250.059 Y249.698
G01 X250.086 Y249.652
G01 X250.117 Y249.608
G01 X250.154 Y249.566
G01 X250.194 Y249.526
G01 X250.239 Y249.490
G01 X250.288 Y249.457
G01 X250.340 Y249.428
G01 X250.396 Y249.403
G01 X250.455 Y249.381
G01 X250.517 Y249.365
G01 X250.582 Y249.353
G01 X250.649 Y249.346
G01 X250.718 Y249.344
G01 X250.789 Y249.347
G01 X250.861 Y249.356
G01 X250.934 Y249.371
G01 X251.008 Y249.391
G01 X251.081 Y249.417
G01 X251.155 Y249.448
G01 X251.228 Y249.486
G01 X251.300 Y249.529
G01 X251.370 Y249.579
G01 X251.426 Y249.623
G01 X251.587 Y249.663
G01 X251.747 Y249.717
G01 X251.906 Y249.787
G01 X252.061 Y249.872
G01 X252.213 Y249.971
G01 X252.359 Y250.085
G01 X252.499 Y250.213
G01 X252.632 Y250.355
G01 X252.756 Y250.511
G01 X252.871 Y250.679
G01 X252.981 Y250.861
G01 X253.079 Y251.056
G01 X253.165 Y251.262
G01 X253.238 Y251.479
G01 X253.297 Y251.706
G01 X253.341 Y251.942
G01 X253.369 Y252.187
G01 X253.382 Y252.439
G01 X253.377 Y252.697
G01 X253.364 Y252.875
G01 X253.337 Y253.148
G01 X253.291 Y253.425
G01 X253.226 Y253.705
G01 X253.141 Y253.987
G01 X253.036 Y254.269
G01 X252.910 Y254.549
G01 X252.764 Y254.828
G01 X252.598 Y255.102
G01 X252.411 Y255.372
G01 X252.366 Y255.432
G01 X252.151 Y255.687
G01 X251.917 Y255.934
G01 X251.664 Y256.171
G01 X251.393 Y256.397
G01 X251.103 Y256.611
G01 X250.795 Y256.811
G01 X250.470 Y256.997
G01 X250.129 Y257.167
G01 X249.772 Y257.320
G01 X249.592 Y257.389
G01 X249.212 Y257.527
G01 X248.818 Y257.645
G01 X248.411 Y257.743
G01 X247.991 Y257.818
G01 X247.560 Y257.871
G01 X247.119 Y257.899
G01 X246.670 Y257.903
G01 X246.213 Y257.882
G01 X245.751 Y257.834
G01 X245.646 Y257.820
G01 X245.181 Y257.736
G01 X244.713 Y257.626
G01 X244.245 Y257.488
G01 X243.778 Y257.322
G01 X243.314 Y257.128
G01 X242.854 Y256.905
G01 X242.400 Y256.655
G01 X241.954 Y256.376
G01 X241.517 Y256.069
G01 X241.401 Y255.982
G01 X240.981 Y255.638
G01 X240.575 Y255.267
G01 X240.184 Y254.870
G01 X239.810 Y254.447
G01 X239.571 Y254.152
G01 X239.221 Y253.690
G01 X238.891 Y253.203
G01 X238.583 Y252.693
G01 X238.299 Y252.160
G01 X238.140 Y251.829
G01 X237.890 Y251.263
G01 X237.667 Y250.677
G01 X237.473 Y250.072
G01 X237.309 Y249.449
G01 X237.232 Y249.100
G01 X237.123 Y248.454
G01 X237.048 Y247.796
G01 X237.007 Y247.126
G01 X237.001 Y246.448
G01 X237.013 Y246.047
G01 X237.076 Y245.361
G01 X237.174 Y244.673
G01 X237.310 Y243.983
G01 X237.482 Y243.293
G01 X237.610 Y242.860
G01 X237.839 Y242.173
G01 X238.106 Y241.491
G01 X238.411 Y240.817
G01 X238.754 Y240.153
G01 X238.988 Y239.741
G01 X239.387 Y239.092
G01 X239.823 Y238.458
G01 X240.296 Y237.840
G01 X240.806 Y237.242
G01 X241.122 Y236.900
G01 X241.687 Y236.335
G01 X242.287 Y235.794
G01 X242.919 Y235.279
G01 X243.584 Y234.793
G01 X243.966 Y234.535
G01 X244.681 Y234.103
G01 X245.423 Y233.704
G01 X246.192 Y233.340
G01 X246.985 Y233.013
G01 X247.469 Y232.836
G01 X248.300 Y232.582
G01 X249.149 Y232.368
G01 X250.015 Y232.197
G01 X250.897 Y232.068
G01 X251.461 Y232.009
G01 X252.362 Y231.947
G01 X253.273 Y231.931
G01 X254.191 Y231.961
G01 X255.114 Y232.038
G01 X255.699 Y232.111
G01 X256.629 Y232.254
G01 X257.558 Y232.446
G01 X258.485 Y232.687
G01 X259.405 Y232.977
G01 X259.956 Y233.175
G01 X260.859 Y233.547
G01 X261.750 Y233.968
G01 X262.626 Y234.436
G01 X263.484 Y234.953
G01 X263.973 Y235.275
G01 X264.793 Y235.870
G01 X265.587 Y236.510
G01 X266.353 Y237.194
G01 X267.090 Y237.922
G01 X267.532 Y238.395
G01 X268.206 Y239.196
G01 X268.842 Y240.034
G01 X269.440 Y240.909
G01 X269.997 Y241.819
G01 X270.336 Y242.429
G01 X270.832 Y243.389
G01 X271.282 Y244.379
G01 X271.685 Y245.398
G01 X272.038 Y246.443
G01 X272.241 Y247.135
G01 X272.522 Y248.217
G01 X272.750 Y249.319
G01 X272.924 Y250.440
G01 X273.042 Y251.575
G01 X273.087 Y252.286
G01 X273.113 Y253.441
G01 X273.082 Y254.604
G01 X272.991 Y255.772
G01 X272.841 Y256.942
G01 X272.720 Y257.656
G01 X272.457 Y258.816
G01 X272.135 Y259.970
G01 X271.753 Y261.112
G01 X271.313 Y262.241
G01 X270.998 Y262.958
G01 X270.466 Y264.061
G01 X269.875 Y265.143
G01 X269.227 Y266.200
G01 X268.523 Y267.230
G01 X268.032 Y267.889
G01 X267.241 Y268.871
G01 X266.398 Y269.819
G01 X265.502 Y270.729
G01 X264.557 Y271.599
G01 X263.923 Y272.135
G01 X262.905 Y272.942
G01 X261.841 Y273.703
G01 X260.734 Y274.413
G01 X259.585 Y275.072
G01 X258.845 Y275.457
G01 X257.629 Y276.010
G01 X256.380 Y276.505
G01 X255.101 Y276.940
G01 X253.794 Y277.312
G01 X252.939 Y277.519
G01 X251.594 Y277.785
G01 X250.230 Y277.986
G01 X248.850 Y278.119
G01 X247.458 Y278.184
G01 X246.543 Y278.189
G01 X245.136 Y278.150
G01 X243.724 Y278.041
G01 X242.311 Y277.860
G01 X240.901 Y277.608
G01 X240.007 Y277.410
G01 X238.606 Y277.046
G01 X237.218 Y276.611
G01 X235.845 Y276.104
G01 X234.491 Y275.526
G01 X233.663 Y275.132
G01 X232.355 Y274.431
G01 X231.076 Y273.662
G01 X229.831 Y272.826
G01 X228.622 Y271.925
G01 X227.876 Y271.320
G01 X226.734 Y270.315
G01 X225.639 Y269.249
G01 X224.592 Y268.124
G01 X223.597 Y266.943
G01 X222.990 Y266.160
G01 X222.082 Y264.894
G01 X221.233 Y263.578
G01 X220.447 Y262.214
G01 X219.726 Y260.806
G01 X219.308 Y259.902
G01 X218.686 Y258.431
G01 X218.135 Y256.922
G01 X217.657 Y255.379
G01 X217.255 Y253.807
G01 X217.047 Y252.834
G01 X216.791 Y251.219
G01 X216.614 Y249.586
G01 X216.518 Y247.939
G01 X216.503 Y246.281
G01 X216.536 Y245.246
G01 X216.650 Y243.579
G01 X216.848 Y241.912
G01 X217.129 Y240.249
G01 X217.495 Y238.594
G01 X217.766 Y237.564
G01 X218.262 Y235.929
G01 X218.840 Y234.313
G01 X219.502 Y232.720
G01 X220.244 Y231.155
G01 X220.744 Y230.202
G01 X221.612 Y228.686
G01 X222.558 Y227.208
G01 X223.581 Y225.771
G01 X224.680 Y224.381
G01 X225.376 Y223.567
G01 X226.602 Y222.271
G01 X227.895 Y221.031
G01 X229.254 Y219.852
G01 X230.676 Y218.737
G01 X231.582 Y218.083
G01 X233.099 Y217.078
G01 X234.670 Y216.146
G01 X236.292 Y215.288
G01 X237.961 Y214.509
G01 X239.026 Y214.063
G01 X240.761 Y213.405
G01 X242.535 Y212.831
G01 X244.343 Y212.344
G01 X246.181 Y211.945
G01 X247.326 Y211.743
G01 X249.203 Y211.490
G01 X251.098 Y211.329
G01 X253.008 Y211.262
G01 X254.926 Y211.289
G01 X256.091 Y211.352
G01 X258.011 Y211.549
G01 X259.926 Y211.842
G01 X261.832 Y212.230
G01 X263.723 Y212.714
G01 X264.884 Y213.061
G01 X266.742 Y213.698
G01 X268.573 Y214.429
G01 X270.372 Y215.253
G01 X272.135 Y216.168
G01 X273.226 Y216.791
G01 X274.927 Y217.843
G01 X276.580 Y218.981
G01 X278.182 Y220.205
G01 X279.727 Y221.512
G01 X280.661 Y222.368
G01 X282.110 Y223.800
G01 X283.492 Y225.307
G01 X284.804 Y226.888
G01 X286.040 Y228.537
G01 X286.761 Y229.583
G01 X287.854 Y231.345
G01 X288.863 Y233.164
G01 X289.784 Y235.038
G01 X290.614 Y236.962
G01 X291.087 Y238.191
G01 X291.764 Y240.187
G01 X292.343 Y242.220
G01 X292.824 Y244.288
G01 X293.203 Y246.383
G01 X293.391 Y247.730
G01 X293.612 Y249.861
G01 X293.728 Y252.009
G01 X293.737 Y254.167
G01 X293.640 Y256.331
G01 X293.523 Y257.705
G01 X293.256 Y259.869
G01 X292.881 Y262.025
G01 X292.399 Y264.168
G01 X291.809 Y266.292
G01 X291.387 Y267.602
G01 X290.615 Y269.680
G01 X289.737 Y271.724
G01 X288.757 Y273.729
G01 X287.675 Y275.691
G01 X286.937 Y276.910
G01 X285.685 Y278.781
G01 X284.339 Y280.594
G01 X282.900 Y282.344
G01 X281.372 Y284.027
G01 X280.344 Y285.070
G01 X278.689 Y286.648
G01 X276.953 Y288.148
G01 X275.138 Y289.566
G01 X273.249 Y290.897
G01 X272.010 Y291.698
G01 X270.010 Y292.884
G01 X267.947 Y293.974
G01 X265.825 Y294.965
G01 X263.649 Y295.853
G01 X262.261 Y296.356
G01 X260.004 Y297.055
G01 X257.708 Y297.643
G01 X255.378 Y298.120
G01 X253.020 Y298.482
G01 X251.512 Y298.652
G01 X249.120 Y298.823
G01 X246.715 Y298.877
G01 X244.303 Y298.812
G01 X241.889 Y298.628
G01 X240.344 Y298.447
G01 X237.938 Y298.077
G01 X235.545 Y297.587
G01 X233.171 Y296.978
G01 X230.822 Y296.250
G01 X229.342 Y295.725
G01 X227.042 Y294.815
G01 X224.782 Y293.790
G01 X222.567 Y292.650
G01 X220.403 Y291.398
G01 X219.090 Y290.565
G01 X217.032 Y289.124
G01 X215.042 Y287.577
G01 X213.124 Y285.930
G01 X211.284 Y284.184
G01 X210.166 Y283.035
G01 X208.468 Y281.135
G01 X206.861 Y279.147
G01 X205.349 Y277.076
G01 X203.936 Y274.927
G01 X203.094 Y273.525
G01 X201.843 Y271.262
G01 X200.701 Y268.934
G01 X199.672 Y266.544
G01 X198.760 Y264.099
G01 X198.247 Y262.537
G01 X197.513 Y260.017
G01 X196.902 Y257.455
G01 X196.417 Y254.857
G01 X196.059 Y252.230
G01 X195.903 Y250.604
G01 X195.782 Y247.943
G01 X195.792 Y245.272
G01 X195.934 Y242.596
G01 X196.208 Y239.923
G01 X196.446 Y238.264
G01 X196.935 Y235.609
G01 X197.556 Y232.974
G01 X198.308 Y230.366
G01 X199.190 Y227.791
G01 X199.808 Y226.197
G01 X200.889 Y223.683
G01 X202.096 Y221.219
G01 X203.426 Y218.810
G01 X204.878 Y216.462
G01 X205.842 Y215.035
G01 X207.476 Y212.792
G01 X209.224 Y210.626
G01 X211.083 Y208.543
G01 X213.048 Y206.547
G01 X214.302 Y205.371
G01 X216.443 Y203.545
G01 X218.677 Y201.823
G01 X221.000 Y200.209
G01 X223.406 Y198.706
G01 X224.933 Y197.835
G01 X227.461 Y196.524
G01 X230.059 Y195.335
G01 X232.719 Y194.272
G01 X235.435 Y193.340
G01 X237.151 Y192.826
G01 X239.942 Y192.094
G01 X242.774 Y191.498
G01 X245.641 Y191.041
G01 X248.535 Y190.725
G01 X250.335 Y190.601
G01 X253.258 Y190.532
G01 X256.188 Y190.608
G01 X259.119 Y190.828
G01 X262.043 Y191.192
G01 X263.844 Y191.490
G01 X266.740 Y192.095
G01 X269.610 Y192.843
G01 X272.447 Y193.733
G01 X275.244 Y194.765
G01 X276.967 Y195.480
G01 X279.689 Y196.727
G01 X282.353 Y198.110
G01 X284.952 Y199.627
G01 X287.481 Y201.274
G01 X289.016 Y202.363
G01 X291.419 Y204.211
G01 X293.734 Y206.180
G01 X295.956 Y208.265
G01 X298.078 Y210.464
G01 X299.342 Y211.883
G01 X301.132 Y214.364
G01 X302.799 Y216.928
G01 X302.881 Y217.062
G01 X304.424 Y219.702
G01 X305.836 Y222.414
G01 X306.289 Y223.359
G01 X307.503 Y226.163
G01 X308.385 Y228.479
G01 X309.370 Y231.369
G01 X310.213 Y234.305
G01 X310.246 Y234.433
G01 X311.004 Y237.394
G01 X311.314 Y238.820
G01 X311.975 Y241.817
G01 X312.301 Y243.638
G01 X312.263 Y246.717
G01 X312.227 Y247.550
G01 X312.278 Y248.346
G01 X312.317 Y248.974
G01 X312.300 Y249.915
G01 X314.325 Y250.086
G01 X317.449 Y250.286
G01 X320.574 Y250.412
G01 X323.699 Y250.460
G01 X326.824 Y250.433
G01 X329.949 Y250.331
G01 X333.075 Y250.153
G01 X336.175 Y249.900
G01 X339.274 Y249.566
G01 X342.396 Y249.163
G01 X345.466 Y248.686
G01 X348.557 Y248.131
G01 X351.619 Y247.504
G01 X354.651 Y246.801
G01 X357.677 Y246.029
G01 X360.695 Y245.186
G01 X363.680 Y244.259
G01 X366.631 Y243.268
G01 X369.571 Y242.210
G01 X372.475 Y241.073
G01 X375.366 Y239.866
G01 X378.218 Y238.589
G01 X381.032 Y237.255
G01 X383.827 Y235.834
G01 X386.583 Y234.367
G01 X389.294 Y232.814
G01 X391.963 Y231.215
G01 X394.610 Y229.539
G01 X397.211 Y227.803
G01 X399.765 Y226.006
G01 X402.269 Y224.135
G01 X404.726 Y222.219
G01 X407.157 Y220.238
G01 X409.512 Y218.203
G01 X411.838 Y216.104
G01 X414.115 Y213.962
G01 X416.333 Y211.745
G01 X418.474 Y209.492
G01 X420.586 Y207.194
G01 X422.641 Y204.838
G01 X424.636 Y202.427
G01 X426.571 Y199.960
G01 X428.426 Y197.462
G01 X430.248 Y194.922
G01 X431.982 Y192.336
G01 X433.683 Y189.708
G01 X435.295 Y187.037
G01 X436.871 Y184.326
G01 X438.356 Y181.573
G01 X439.780 Y178.791
G01 X441.121 Y175.990
G01 X442.415 Y173.134
G01 X443.623 Y170.261
G01 X444.793 Y167.354
G01 X445.867 Y164.413
G01 X446.855 Y161.461
G01 X447.803 Y158.478
G01 X448.663 Y155.486
G01 X449.450 Y152.456
G01 X450.172 Y149.410
G01 X450.807 Y146.360
G01 X451.366 Y143.276
G01 X451.871 Y140.199
G01 X452.278 Y137.104
G01 X452.640 Y133.987
G01 X452.895 Y130.886
G01 X453.105 Y127.766
G01 X453.216 Y124.634
G01 X453.241 Y121.511
G01 X453.213 Y118.407
G01 X453.108 Y115.281
G01 X452.957 Y112.676
G01 X452.921 Y113.203
G01 X452.651 Y116.313
G01 X452.318 Y119.417
G01 X451.889 Y122.507
G01 X451.659 Y123.974
G01 X451.621 Y125.619
G01 X451.477 Y128.746
G01 X451.256 Y131.848
G01 X450.960 Y134.976
G01 X450.586 Y138.074
G01 X450.147 Y141.163
G01 X449.620 Y144.252
G01 X449.018 Y147.308
G01 X448.350 Y150.350
G01 X447.596 Y153.388
G01 X446.776 Y156.408
G01 X445.892 Y159.409
G01 X444.912 Y162.382
G01 X443.883 Y165.304
G01 X442.752 Y168.242
G01 X441.574 Y171.127
G01 X440.333 Y173.988
G01 X438.999 Y176.812
G01 X437.604 Y179.608
G01 X436.147 Y182.376
G01 X434.623 Y185.095
G01 X433.016 Y187.791
G01 X431.367 Y190.428
G01 X429.636 Y193.040
G01 X427.840 Y195.599
G01 X426.012 Y198.115
G01 X424.098 Y200.585
G01 X422.128 Y203.018
G01 X420.099 Y205.394
G01 X418.011 Y207.715
G01 X415.869 Y209.996
G01 X413.667 Y212.203
G01 X411.414 Y214.369
G01 X409.110 Y216.493
G01 X406.749 Y218.542
G01 X404.337 Y220.532
G01 X401.899 Y222.460
G01 X399.388 Y224.347
G01 X396.852 Y226.157
G01 X394.268 Y227.907
G01 X391.636 Y229.584
G01 X388.959 Y231.202
G01 X386.239 Y232.762
G01 X383.499 Y234.247
G01 X380.717 Y235.674
G01 X377.893 Y237.018
G01 X375.054 Y238.304
G01 X372.175 Y239.509
G01 X369.260 Y240.660
G01 X366.331 Y241.720
G01 X363.366 Y242.716
G01 X360.368 Y243.651
G01 X357.384 Y244.491
G01 X354.343 Y245.274
G01 X351.295 Y245.970
G01 X348.241 Y246.603
G01 X345.158 Y247.158
G01 X342.069 Y247.628
G01 X338.978 Y248.037
G01 X335.884 Y248.354
G01 X332.763 Y248.605
G01 X329.641 Y248.777
G01 X326.517 Y248.878
G01 X323.392 Y248.895
G01 X320.265 Y248.836
G01 X317.138 Y248.707
G01 X314.032 Y248.498
G01 X312.278 Y248.346
G01 X312.227 Y246.988
G01 X312.216 Y246.771
G01 X315.106 Y247.012
G01 X318.217 Y247.197
G01 X321.349 Y247.305
G01 X324.477 Y247.336
G01 X327.603 Y247.286
G01 X330.725 Y247.161
G01 X333.845 Y246.958
G01 X336.937 Y246.681
G01 X340.050 Y246.328
G01 X343.135 Y245.894
G01 X346.240 Y245.390
G01 X349.289 Y244.797
G01 X352.358 Y244.143
G01 X355.393 Y243.398
G01 X358.397 Y242.589
G01 X361.391 Y241.702
G01 X364.376 Y240.743
G01 X367.325 Y239.713
G01 X370.235 Y238.597
G01 X373.135 Y237.426
G01 X375.994 Y236.179
G01 X378.837 Y234.849
G01 X381.616 Y233.467
G01 X384.400 Y231.997
G01 X387.117 Y230.473
G01 X389.813 Y228.875
G01 X392.440 Y227.223
G01 X395.045 Y225.496
G01 X397.600 Y223.696
G01 X400.133 Y221.848
G01 X402.591 Y219.932
G01 X405.022 Y217.952
G01 X407.377 Y215.920
G01 X409.704 Y213.824
G01 X411.977 Y211.671
G01 X414.198 Y209.477
G01 X416.336 Y207.216
G01 X418.444 Y204.909
G01 X420.490 Y202.529
G01 X422.480 Y200.111
G01 X424.391 Y197.663
G01 X426.264 Y195.154
G01 X428.051 Y192.600
G01 X429.775 Y189.993
G01 X431.463 Y187.345
G01 X433.068 Y184.673
G01 X434.607 Y181.951
G01 X436.063 Y179.208
G01 X437.474 Y176.409
G01 X438.792 Y173.572
G01 X440.055 Y170.728
G01 X441.241 Y167.821
G01 X442.371 Y164.908
G01 X443.406 Y161.964
G01 X444.378 Y158.999
G01 X445.276 Y155.994
G01 X446.086 Y152.981
G01 X446.832 Y149.952
G01 X447.513 Y146.906
G01 X448.097 Y143.838
G01 X448.614 Y140.758
G01 X449.067 Y137.666
G01 X449.420 Y134.556
G01 X449.449 Y134.406
G01 X448.666 Y137.262
G01 X447.772 Y140.266
G01 X446.773 Y143.227
G01 X446.477 Y144.099
G01 X446.049 Y146.269
G01 X445.380 Y149.309
G01 X444.646 Y152.333
G01 X443.834 Y155.371
G01 X442.939 Y158.351
G01 X441.957 Y161.323
G01 X440.933 Y164.262
G01 X439.823 Y167.190
G01 X438.619 Y170.084
G01 X437.374 Y172.944
G01 X436.037 Y175.768
G01 X434.638 Y178.564
G01 X433.170 Y181.314
G01 X431.619 Y184.041
G01 X430.024 Y186.712
G01 X428.347 Y189.358
G01 X426.605 Y191.953
G01 X424.800 Y194.496
G01 X422.937 Y197.004
G01 X421.013 Y199.459
G01 X419.004 Y201.867
G01 X416.960 Y204.213
G01 X414.839 Y206.527
G01 X412.684 Y208.779
G01 X410.449 Y210.980
G01 X408.179 Y213.104
G01 X405.859 Y215.186
G01 X403.462 Y217.217
G01 X401.035 Y219.170
G01 X398.561 Y221.080
G01 X396.033 Y222.904
G01 X393.459 Y224.686
G01 X390.836 Y226.396
G01 X388.190 Y228.031
G01 X385.475 Y229.614
G01 X382.738 Y231.110
G01 X379.959 Y232.552
G01 X377.161 Y233.911
G01 X374.324 Y235.216
G01 X371.444 Y236.432
G01 X368.527 Y237.586
G01 X365.595 Y238.663
G01 X362.652 Y239.668
G01 X359.672 Y240.594
G01 X356.658 Y241.453
G01 X353.634 Y242.227
G01 X350.577 Y242.932
G01 X347.537 Y243.557
G01 X344.441 Y244.103
G01 X341.364 Y244.579
G01 X338.257 Y244.967
G01 X335.145 Y245.290
G01 X332.028 Y245.520
G01 X328.932 Y245.681
G01 X325.807 Y245.761
G01 X322.676 Y245.761
G01 X319.541 Y245.686
G01 X316.425 Y245.532
G01 X313.301 Y245.303
G01 X312.114 Y245.185
G01 X311.971 Y243.603
G01 X312.301 Y243.638
G01 X315.416 Y243.895
G01 X318.520 Y244.082
G01 X321.640 Y244.187
G01 X324.776 Y244.211
G01 X327.906 Y244.149
G01 X331.030 Y244.021
G01 X334.147 Y243.807
G01 X337.234 Y243.510
G01 X340.340 Y243.143
G01 X343.440 Y242.691
G01 X346.507 Y242.160
G01 X349.592 Y241.548
G01 X352.619 Y240.868
G01 X355.662 Y240.096
G01 X358.671 Y239.266
G01 X361.669 Y238.349
G01 X364.630 Y237.356
G01 X367.552 Y236.283
G01 X370.463 Y235.149
G01 X373.333 Y233.931
G01 X376.187 Y232.647
G01 X379.000 Y231.287
G01 X381.770 Y229.861
G01 X384.519 Y228.352
G01 X387.226 Y226.789
G01 X389.884 Y225.143
G01 X392.496 Y223.442
G01 X395.084 Y221.667
G01 X397.600 Y219.840
G01 X400.089 Y217.938
G01 X402.523 Y215.963
G01 X404.886 Y213.953
G01 X407.216 Y211.866
G01 X409.493 Y209.723
G01 X411.715 Y207.524
G01 X413.880 Y205.269
G01 X415.988 Y202.959
G01 X418.037 Y200.594
G01 X420.008 Y198.199
G01 X421.937 Y195.727
G01 X423.810 Y193.218
G01 X425.596 Y190.665
G01 X427.318 Y188.061
G01 X428.975 Y185.406
G01 X430.573 Y182.720
G01 X432.111 Y180.002
G01 X433.550 Y177.228
G01 X434.959 Y174.434
G01 X436.267 Y171.585
G01 X437.498 Y168.739
G01 X438.673 Y165.821
G01 X439.769 Y162.908
G01 X440.794 Y159.954
G01 X441.722 Y156.971
G01 X442.585 Y153.969
G01 X442.810 Y153.134
G01 X441.876 Y155.184
G01 X440.484 Y157.972
G01 X439.035 Y160.738
G01 X438.587 Y161.548
G01 X437.837 Y163.613
G01 X436.720 Y166.536
G01 X435.507 Y169.426
G01 X434.224 Y172.272
G01 X432.878 Y175.092
G01 X431.471 Y177.884
G01 X429.988 Y180.611
G01 X428.421 Y183.318
G01 X426.795 Y185.993
G01 X425.073 Y188.609
G01 X423.317 Y191.184
G01 X421.503 Y193.725
G01 X419.597 Y196.204
G01 X417.636 Y198.647
G01 X415.609 Y201.020
G01 X413.528 Y203.356
G01 X411.384 Y205.621
G01 X409.188 Y207.847
G01 X406.933 Y210.002
G01 X404.623 Y212.102
G01 X402.261 Y214.147
G01 X399.846 Y216.136
G01 X397.377 Y218.054
G01 X394.856 Y219.903
G01 X392.312 Y221.691
G01 X389.693 Y223.415
G01 X387.050 Y225.067
G01 X384.361 Y226.651
G01 X381.627 Y228.169
G01 X378.848 Y229.621
G01 X376.050 Y230.993
G01 X373.209 Y232.290
G01 X370.326 Y233.514
G01 X367.428 Y234.665
G01 X364.491 Y235.746
G01 X361.540 Y236.747
G01 X358.551 Y237.664
G01 X355.552 Y238.517
G01 X352.516 Y239.283
G01 X349.471 Y239.973
G01 X346.392 Y240.595
G01 X343.329 Y241.120
G01 X340.233 Y241.579
G01 X337.129 Y241.956
G01 X334.018 Y242.243
G01 X330.899 Y242.458
G01 X327.773 Y242.592
G01 X324.664 Y242.647
G01 X321.545 Y242.615
G01 X318.416 Y242.509
G01 X315.300 Y242.321
G01 X312.170 Y242.058
G01 X311.787 Y242.019
G01 X311.559 Y240.422
G01 X312.665 Y240.538
G01 X315.784 Y240.793
G01 X318.911 Y240.973
G01 X322.023 Y241.070
G01 X325.147 Y241.079
G01 X328.286 Y241.016
G01 X331.389 Y240.866
G01 X334.508 Y240.636
G01 X337.618 Y240.327
G01 X340.719 Y239.938
G01 X343.810 Y239.462
G01 X346.892 Y238.910
G01 X349.940 Y238.278
G01 X353.002 Y237.563
G01 X356.003 Y236.771
G01 X359.016 Y235.896
G01 X361.994 Y234.953
G01 X364.931 Y233.926
G01 X367.854 Y232.819
G01 X370.763 Y231.642
G01 X373.628 Y230.384
G01 X376.454 Y229.066
G01 X379.234 Y227.662
G01 X381.995 Y226.191
G01 X384.709 Y224.643
G01 X387.378 Y223.029
G01 X390.023 Y221.345
G01 X392.592 Y219.584
G01 X395.138 Y217.764
G01 X397.636 Y215.890
G01 X400.077 Y213.932
G01 X402.466 Y211.919
G01 X404.803 Y209.852
G01 X407.083 Y207.714
G01 X409.308 Y205.523
G01 X411.476 Y203.277
G01 X413.582 Y200.960
G01 X415.635 Y198.607
G01 X417.623 Y196.184
G01 X419.531 Y193.733
G01 X421.396 Y191.205
G01 X423.179 Y188.650
G01 X424.899 Y186.046
G01 X426.553 Y183.392
G01 X428.148 Y180.706
G01 X429.645 Y177.964
G01 X431.081 Y175.193
G01 X432.456 Y172.394
G01 X433.761 Y169.550
G01 X433.812 Y169.418
G01 X432.131 Y171.886
G01 X430.306 Y174.435
G01 X428.531 Y176.747
G01 X428.421 Y176.939
G01 X426.933 Y179.667
G01 X425.356 Y182.357
G01 X423.695 Y185.025
G01 X421.992 Y187.635
G01 X420.195 Y190.186
G01 X418.341 Y192.704
G01 X416.425 Y195.170
G01 X414.448 Y197.584
G01 X412.388 Y199.953
G01 X410.292 Y202.261
G01 X408.110 Y204.507
G01 X405.897 Y206.693
G01 X403.604 Y208.832
G01 X401.253 Y210.901
G01 X398.871 Y212.896
G01 X396.413 Y214.843
G01 X393.930 Y216.731
G01 X391.392 Y218.537
G01 X388.779 Y220.281
G01 X386.141 Y221.955
G01 X383.457 Y223.563
G01 X380.748 Y225.090
G01 X377.993 Y226.543
G01 X375.171 Y227.938
G01 X372.352 Y229.242
G01 X369.468 Y230.492
G01 X366.589 Y231.644
G01 X363.644 Y232.724
G01 X360.685 Y233.729
G01 X357.713 Y234.660
G01 X354.702 Y235.506
G01 X351.678 Y236.276
G01 X348.617 Y236.961
G01 X345.545 Y237.571
G01 X342.486 Y238.091
G01 X339.393 Y238.535
G01 X336.289 Y238.898
G01 X333.174 Y239.180
G01 X330.048 Y239.375
G01 X326.936 Y239.491
G01 X323.810 Y239.519
G01 X320.670 Y239.474
G01 X317.563 Y239.335
G01 X314.439 Y239.127
G01 X311.340 Y238.822
G01 X311.289 Y238.824
G01 X310.974 Y237.217
G01 X312.435 Y237.366
G01 X315.545 Y237.642
G01 X318.654 Y237.829
G01 X321.768 Y237.935
G01 X324.889 Y237.964
G01 X328.017 Y237.901
G01 X331.155 Y237.746
G01 X334.256 Y237.519
G01 X337.369 Y237.210
G01 X340.469 Y236.812
G01 X343.557 Y236.333
G01 X346.634 Y235.775
G01 X349.697 Y235.130
G01 X352.723 Y234.406
G01 X355.736 Y233.602
G01 X358.734 Y232.714
G01 X361.719 Y231.746
G01 X364.662 Y230.700
G01 X367.565 Y229.582
G01 X370.449 Y228.373
G01 X373.316 Y227.094
G01 X376.112 Y225.738
G01 X378.889 Y224.307
G01 X381.644 Y222.799
G01 X384.329 Y221.234
G01 X386.990 Y219.588
G01 X389.599 Y217.864
G01 X392.158 Y216.075
G01 X394.666 Y214.220
G01 X397.145 Y212.293
G01 X399.546 Y210.304
G01 X401.895 Y208.263
G01 X404.211 Y206.147
G01 X406.444 Y203.969
G01 X408.620 Y201.738
G01 X410.759 Y199.432
G01 X412.821 Y197.096
G01 X414.818 Y194.693
G01 X416.754 Y192.237
G01 X418.599 Y189.722
G01 X420.410 Y187.165
G01 X422.133 Y184.567
G01 X422.787 Y183.546
G01 X421.461 Y184.980
G01 X419.305 Y187.207
G01 X417.074 Y189.399
G01 X416.577 Y189.862
G01 X415.096 Y191.811
G01 X413.139 Y194.256
G01 X411.122 Y196.649
G01 X409.069 Y198.983
G01 X406.929 Y201.257
G01 X404.709 Y203.486
G01 X402.452 Y205.640
G01 X400.137 Y207.727
G01 X397.769 Y209.762
G01 X395.346 Y211.730
G01 X392.869 Y213.632
G01 X390.336 Y215.455
G01 X387.752 Y217.214
G01 X385.119 Y218.910
G01 X382.436 Y220.529
G01 X379.730 Y222.083
G01 X376.975 Y223.552
G01 X374.174 Y224.950
G01 X371.350 Y226.264
G01 X368.485 Y227.513
G01 X365.574 Y228.675
G01 X362.647 Y229.762
G01 X359.702 Y230.767
G01 X356.717 Y231.697
G01 X353.714 Y232.532
G01 X350.675 Y233.303
G01 X347.619 Y233.980
G01 X344.549 Y234.571
G01 X341.467 Y235.083
G01 X338.396 Y235.512
G01 X335.285 Y235.855
G01 X332.161 Y236.120
G01 X329.046 Y236.296
G01 X325.914 Y236.385
G01 X322.788 Y236.389
G01 X319.669 Y236.315
G01 X316.548 Y236.145
G01 X313.451 Y235.894
G01 X310.613 Y235.599
G01 X310.546 Y235.321
G01 X310.205 Y233.980
G01 X311.937 Y234.181
G01 X315.047 Y234.470
G01 X318.175 Y234.679
G01 X321.298 Y234.799
G01 X324.420 Y234.832
G01 X327.546 Y234.784
G01 X330.677 Y234.646
G01 X333.790 Y234.427
G01 X336.886 Y234.121
G01 X339.989 Y233.721
G01 X343.080 Y233.249
G01 X346.154 Y232.686
G01 X349.211 Y232.033
G01 X352.255 Y231.302
G01 X355.257 Y230.492
G01 X358.243 Y229.591
G01 X361.213 Y228.616
G01 X364.164 Y227.551
G01 X367.071 Y226.407
G01 X369.936 Y225.193
G01 X372.779 Y223.887
G01 X375.602 Y222.511
G01 X378.353 Y221.061
G01 X381.078 Y219.522
G01 X383.758 Y217.924
G01 X386.384 Y216.240
G01 X388.985 Y214.488
G01 X391.536 Y212.673
G01 X394.006 Y210.786
G01 X396.448 Y208.829
G01 X398.834 Y206.806
G01 X401.163 Y204.717
G01 X403.410 Y202.568
G01 X405.620 Y200.346
G01 X407.774 Y198.072
G01 X409.847 Y195.755
G01 X409.901 Y195.683
G01 X407.520 Y197.544
G01 X405.004 Y199.413
G01 X402.779 Y200.983
G01 X402.505 Y201.273
G01 X400.248 Y203.431
G01 X397.929 Y205.508
G01 X395.557 Y207.535
G01 X393.106 Y209.505
G01 X390.621 Y211.391
G01 X388.084 Y213.214
G01 X385.493 Y214.961
G01 X382.849 Y216.635
G01 X380.183 Y218.244
G01 X377.461 Y219.758
G01 X374.696 Y221.216
G01 X371.880 Y222.584
G01 X369.041 Y223.872
G01 X366.159 Y225.089
G01 X363.231 Y226.225
G01 X360.309 Y227.276
G01 X357.343 Y228.245
G01 X354.332 Y229.127
G01 X351.306 Y229.932
G01 X348.262 Y230.647
G01 X345.202 Y231.280
G01 X342.123 Y231.818
G01 X339.053 Y232.276
G01 X335.942 Y232.654
G01 X332.836 Y232.936
G01 X329.711 Y233.138
G01 X326.589 Y233.246
G01 X323.470 Y233.273
G01 X320.348 Y233.205
G01 X317.223 Y233.060
G01 X314.112 Y232.817
G01 X310.988 Y232.498
G01 X309.771 Y232.342
G01 X309.261 Y230.699
G01 X309.401 Y230.726
G01 X312.505 Y231.098
G01 X315.610 Y231.385
G01 X318.749 Y231.574
G01 X321.853 Y231.687
G01 X324.977 Y231.711
G01 X328.121 Y231.638
G01 X331.240 Y231.478
G01 X334.339 Y231.241
G01 X337.440 Y230.909
G01 X340.546 Y230.487
G01 X343.633 Y229.978
G01 X346.702 Y229.383
G01 X349.752 Y228.701
G01 X352.783 Y227.936
G01 X355.771 Y227.084
G01 X358.763 Y226.139
G01 X361.712 Y225.117
G01 X364.643 Y224.019
G01 X367.526 Y222.834
G01 X370.387 Y221.563
G01 X373.199 Y220.209
G01 X375.967 Y218.792
G01 X378.706 Y217.279
G01 X381.396 Y215.698
G01 X384.061 Y214.041
G01 X386.646 Y212.306
G01 X389.205 Y210.504
G01 X391.705 Y208.613
G01 X394.155 Y206.674
G01 X395.218 Y205.784
G01 X393.705 Y206.653
G01 X390.942 Y208.147
G01 X388.177 Y209.554
G01 X387.129 Y210.069
G01 X385.501 Y211.189
G01 X382.900 Y212.924
G01 X380.268 Y214.569
G01 X377.558 Y216.141
G01 X374.820 Y217.628
G01 X372.034 Y219.040
G01 X369.200 Y220.380
G01 X366.342 Y221.633
G01 X363.437 Y222.809
G01 X360.509 Y223.897
G01 X357.558 Y224.889
G01 X354.563 Y225.808
G01 X351.549 Y226.645
G01 X348.512 Y227.385
G01 X345.458 Y228.046
G01 X342.405 Y228.602
G01 X339.308 Y229.083
G01 X336.217 Y229.480
G01 X333.101 Y229.782
G01 X329.985 Y229.988
G01 X326.869 Y230.113
G01 X323.725 Y230.154
G01 X320.621 Y230.085
G01 X317.483 Y229.946
G01 X314.377 Y229.707
G01 X311.273 Y229.378
G01 X308.695 Y229.042
G01 X308.517 Y228.549
G01 X308.072 Y227.372
G01 X309.912 Y227.636
G01 X313.023 Y228.007
G01 X316.127 Y228.287
G01 X319.257 Y228.473
G01 X322.369 Y228.573
G01 X325.495 Y228.580
G01 X328.611 Y228.492
G01 X331.749 Y228.318
G01 X334.856 Y228.047
G01 X337.966 Y227.692
G01 X341.051 Y227.249
G01 X344.136 Y226.708
G01 X347.201 Y226.084
G01 X350.218 Y225.373
G01 X353.238 Y224.565
G01 X356.235 Y223.669
G01 X359.212 Y222.688
G01 X362.143 Y221.633
G01 X365.048 Y220.481
G01 X367.929 Y219.239
G01 X370.765 Y217.931
G01 X373.547 Y216.530
G01 X376.304 Y215.050
G01 X378.541 Y213.766
G01 X378.002 Y213.973
G01 X375.081 Y215.038
G01 X372.112 Y216.026
G01 X369.338 Y216.875
G01 X369.131 Y216.971
G01 X366.296 Y218.257
G01 X363.410 Y219.459
G01 X360.499 Y220.574
G01 X357.542 Y221.615
G01 X354.559 Y222.559
G01 X351.552 Y223.413
G01 X348.521 Y224.175
G01 X345.469 Y224.853
G01 X342.414 Y225.430
G01 X339.313 Y225.929
G01 X336.236 Y226.332
G01 X333.106 Y226.645
G01 X329.996 Y226.862
G01 X326.879 Y226.986
G01 X323.753 Y227.019
G01 X320.638 Y226.962
G01 X317.504 Y226.813
G01 X314.395 Y226.570
G01 X311.281 Y226.241
G01 X308.197 Y225.808
G01 X307.387 Y225.686
G01 X306.632 Y223.976
G01 X307.077 Y224.047
G01 X310.152 Y224.522
G01 X313.273 Y224.885
G01 X316.382 Y225.168
G01 X319.486 Y225.361
G01 X322.611 Y225.448
G01 X325.745 Y225.448
G01 X328.865 Y225.357
G01 X331.971 Y225.167
G01 X335.097 Y224.888
G01 X338.190 Y224.511
G01 X341.281 Y224.042
G01 X344.369 Y223.480
G01 X347.406 Y222.826
G01 X350.444 Y222.087
G01 X353.454 Y221.250
G01 X356.442 Y220.328
G01 X359.403 Y219.314
G01 X359.427 Y219.307
G01 X356.412 Y219.854
G01 X353.329 Y220.348
G01 X350.219 Y220.751
G01 X348.704 Y220.915
G01 X347.146 Y221.289
G01 X344.080 Y221.940
G01 X341.013 Y222.507
G01 X337.938 Y222.965
G01 X334.835 Y223.342
G01 X331.722 Y223.618
G01 X328.598 Y223.800
G01 X325.462 Y223.894
G01 X322.354 Y223.879
G01 X319.226 Y223.780
G01 X316.117 Y223.580
G01 X312.995 Y223.287
G01 X309.905 Y222.898
G01 X306.809 Y222.421
G01 X305.803 Y222.244
G01 X304.895 Y220.489
G01 X305.022 Y220.513
G01 X308.111 Y221.045
G01 X311.189 Y221.502
G01 X314.310 Y221.853
G01 X317.409 Y222.113
G01 X320.545 Y222.268
G01 X323.652 Y222.339
G01 X326.780 Y222.298
G01 X329.893 Y222.173
G01 X333.014 Y221.949
G01 X336.121 Y221.627
G01 X336.853 Y221.530
G01 X334.462 Y221.394
G01 X331.334 Y221.224
G01 X328.212 Y221.045
G01 X325.097 Y220.867
G01 X323.418 Y220.764
G01 X321.984 Y220.750
G01 X318.849 Y220.634
G01 X315.749 Y220.412
G01 X312.630 Y220.104
G01 X309.531 Y219.696
G01 X306.461 Y219.180
G01 X303.892 Y218.694
G01 X303.848 Y218.669
G01 X303.790 Y218.667
G01 X303.749 Y218.647
G01 X304.454 Y219.992
G01 X305.927 Y222.668
G01 X305.959 Y222.730
G01 X306.632 Y223.976
G01 X307.254 Y225.566
G01 X308.361 Y228.413
G01 X308.385 Y228.479
G01 X309.261 Y230.699
G01 X309.437 Y231.415
G01 X310.230 Y234.366
G01 X310.246 Y234.433
G01 X310.974 Y237.217
G01 X311.025 Y237.461
G01 X311.494 Y240.481
G01 X311.503 Y240.550
G01 X311.967 Y243.571
G01 X311.971 Y243.603
G01 X311.974 Y243.634
G01 X312.163 Y246.685
G01 X312.165 Y246.755
G01 X312.278 Y248.346
G01 X312.318 Y249.074
G01 X312.299 Y249.647
G01 X312.275 Y250.065
G01 X312.274 Y250.270
G01 X312.248 Y250.469
G01 X312.247 Y250.594
G01 X312.247 Y250.637
G01 X312.246 Y250.675
G01 X314.444 Y250.853
G01 X317.567 Y251.030
G01 X320.691 Y251.141
G01 X323.816 Y251.169
G01 X326.942 Y251.127
G01 X330.044 Y251.012
G01 X333.171 Y250.818
G01 X336.273 Y250.556
G01 X339.400 Y250.209
G01 X342.475 Y249.791
G01 X345.572 Y249.306
G01 X348.642 Y248.741
G01 X351.707 Y248.102
G01 X354.743 Y247.396
G01 X357.772 Y246.608
G01 X360.769 Y245.760
G01 X363.758 Y244.836
G01 X366.712 Y243.837
G01 X369.657 Y242.769
G01 X372.565 Y241.633
G01 X375.460 Y240.426
G01 X378.292 Y239.152
G01 X381.109 Y237.803
G01 X383.911 Y236.394
G01 X386.670 Y234.911
G01 X389.386 Y233.368
G01 X392.060 Y231.766
G01 X394.686 Y230.088
G01 X397.294 Y228.362
G01 X399.853 Y226.560
G01 X402.366 Y224.714
G01 X404.827 Y222.791
G01 X407.266 Y220.820
G01 X409.628 Y218.794
G01 X411.963 Y216.703
G01 X414.219 Y214.558
G01 X416.445 Y212.350
G01 X418.618 Y210.099
G01 X420.739 Y207.808
G01 X422.778 Y205.466
G01 X424.782 Y203.062
G01 X426.731 Y200.620
G01 X428.619 Y198.123
G01 X430.450 Y195.589
G01 X432.195 Y193.009
G01 X433.905 Y190.388
G01 X435.550 Y187.715
G01 X437.112 Y185.018
G01 X438.615 Y182.290
G01 X440.073 Y179.504
G01 X441.447 Y176.699
G01 X442.736 Y173.876
G01 X443.979 Y170.998
G01 X445.160 Y168.095
G01 X446.254 Y165.178
G01 X447.285 Y162.238
G01 X448.244 Y159.258
G01 X449.140 Y156.259
G01 X449.948 Y153.251
G01 X450.682 Y150.207
G01 X451.362 Y147.167
G01 X451.967 Y144.093
G01 X452.484 Y141.018
G01 X452.937 Y137.931
G01 X453.313 Y134.813
G01 X453.613 Y131.720
G01 X453.837 Y128.600
G01 X453.995 Y125.473
G01 X454.067 Y122.356
G01 X454.074 Y119.235
G01 X454.003 Y116.093
G01 X453.920 Y114.155
G01 X453.953 Y115.336
G01 X454.057 Y118.468
G01 X454.150 Y121.593
G01 X454.232 Y124.711
G01 X454.317 Y127.843
G01 X454.412 Y130.955
G01 X454.420 Y131.416
G01 X454.187 Y134.075
G01 X453.864 Y137.179
G01 X453.442 Y140.266
G01 X452.956 Y143.341
G01 X452.392 Y146.437
G01 X451.754 Y149.498
G01 X451.040 Y152.524
G01 X450.272 Y155.554
G01 X449.408 Y158.557
G01 X448.480 Y161.541
G01 X447.488 Y164.504
G01 X446.432 Y167.445
G01 X445.282 Y170.353
G01 X444.070 Y173.237
G01 X442.795 Y176.095
G01 X441.451 Y178.906
G01 X440.046 Y181.690
G01 X438.580 Y184.444
G01 X437.031 Y187.176
G01 X435.439 Y189.850
G01 X433.764 Y192.498
G01 X432.024 Y195.094
G01 X430.228 Y197.655
G01 X428.368 Y200.162
G01 X426.453 Y202.633
G01 X424.482 Y205.065
G01 X422.451 Y207.440
G01 X420.362 Y209.759
G01 X418.244 Y212.031
G01 X416.045 Y214.251
G01 X413.795 Y216.429
G01 X411.490 Y218.547
G01 X409.133 Y220.605
G01 X406.748 Y222.599
G01 X404.291 Y224.553
G01 X401.808 Y226.441
G01 X399.277 Y228.269
G01 X396.698 Y230.036
G01 X394.073 Y231.741
G01 X391.425 Y233.369
G01 X388.736 Y234.950
G01 X385.977 Y236.458
G01 X383.228 Y237.915
G01 X380.411 Y239.288
G01 X377.579 Y240.598
G01 X374.708 Y241.837
G01 X371.825 Y243.017
G01 X368.905 Y244.126
G01 X365.949 Y245.155
G01 X362.983 Y246.116
G01 X359.984 Y247.012
G01 X356.978 Y247.832
G01 X353.940 Y248.580
G01 X350.872 Y249.258
G01 X347.825 Y249.857
G01 X344.749 Y250.392
G01 X341.646 Y250.847
G01 X338.542 Y251.226
G01 X335.436 Y251.533
G01 X332.331 Y251.765
G01 X329.202 Y251.928
G01 X326.073 Y252.012
G01 X322.947 Y252.017
G01 X319.823 Y251.951
G01 X316.700 Y251.811
G01 X313.605 Y251.593
G01 X312.158 Y251.470
G01 X312.001 Y253.024
G01 X312.101 Y253.035
G01 X315.217 Y253.299
G01 X318.336 Y253.491
G01 X321.459 Y253.600
G01 X324.586 Y253.646
G01 X327.716 Y253.612
G01 X330.824 Y253.497
G01 X333.960 Y253.313
G01 X337.072 Y253.052
G01 X340.184 Y252.719
G01 X343.271 Y252.317
G01 X346.358 Y251.835
G01 X349.442 Y251.277
G01 X352.498 Y250.650
G01 X355.550 Y249.941
G01 X358.572 Y249.168
G01 X361.562 Y248.320
G01 X364.546 Y247.404
G01 X367.520 Y246.408
G01 X370.460 Y245.353
G01 X373.365 Y244.227
G01 X376.257 Y243.016
G01 X379.112 Y241.757
G01 X381.928 Y240.424
G01 X384.728 Y239.014
G01 X387.487 Y237.543
G01 X390.204 Y236.009
G01 X392.877 Y234.414
G01 X395.530 Y232.739
G01 X398.138 Y231.015
G01 X400.700 Y229.230
G01 X403.215 Y227.383
G01 X405.680 Y225.474
G01 X408.120 Y223.499
G01 X410.483 Y221.466
G01 X412.822 Y219.385
G01 X415.110 Y217.259
G01 X417.340 Y215.056
G01 X419.494 Y212.816
G01 X421.620 Y210.529
G01 X423.687 Y208.184
G01 X425.696 Y205.781
G01 X427.649 Y203.338
G01 X429.546 Y200.858
G01 X431.358 Y198.329
G01 X433.136 Y195.757
G01 X434.850 Y193.131
G01 X436.481 Y190.479
G01 X438.077 Y187.786
G01 X439.583 Y185.050
G01 X441.028 Y182.284
G01 X442.412 Y179.489
G01 X443.728 Y176.647
G01 X444.981 Y173.777
G01 X446.148 Y170.891
G01 X447.275 Y167.971
G01 X448.308 Y165.018
G01 X449.277 Y162.044
G01 X450.159 Y159.059
G01 X451.000 Y156.045
G01 X451.744 Y153.004
G01 X452.433 Y149.967
G01 X453.025 Y146.906
G01 X453.573 Y143.821
G01 X454.024 Y140.714
G01 X454.398 Y137.630
G01 X454.717 Y134.504
G01 X454.961 Y131.403
G01 X455.106 Y128.288
G01 X455.207 Y125.156
G01 X455.222 Y122.033
G01 X455.137 Y118.901
G01 X455.000 Y115.790
G01 X454.799 Y112.680
G01 X454.498 Y109.566
G01 X454.134 Y106.457
G01 X453.997 Y105.483
G01 X454.386 Y107.558
G01 X454.880 Y110.657
G01 X455.275 Y113.755
G01 X455.585 Y116.871
G01 X455.816 Y119.970
G01 X455.973 Y123.104
G01 X456.053 Y126.217
G01 X456.046 Y129.341
G01 X455.951 Y132.474
G01 X455.779 Y135.581
G01 X455.531 Y138.714
G01 X455.205 Y141.819
G01 X454.781 Y144.904
G01 X454.302 Y147.999
G01 X453.725 Y151.071
G01 X453.654 Y151.383
G01 X453.019 Y154.110
G01 X452.257 Y157.153
G01 X451.421 Y160.157
G01 X450.522 Y163.143
G01 X449.527 Y166.097
G01 X448.477 Y169.050
G01 X447.356 Y171.960
G01 X446.172 Y174.845
G01 X444.902 Y177.714
G01 X443.593 Y180.546
G01 X442.193 Y183.339
G01 X440.731 Y186.103
G01 X439.210 Y188.836
G01 X437.622 Y191.518
G01 X435.980 Y194.185
G01 X434.269 Y196.781
G01 X432.481 Y199.367
G01 X430.654 Y201.892
G01 X428.771 Y204.379
G01 X426.803 Y206.816
G01 X424.803 Y209.207
G01 X422.750 Y211.559
G01 X420.614 Y213.856
G01 X418.449 Y216.106
G01 X416.229 Y218.296
G01 X413.954 Y220.426
G01 X411.629 Y222.511
G01 X409.254 Y224.551
G01 X406.826 Y226.513
G01 X404.350 Y228.428
G01 X401.852 Y230.293
G01 X399.278 Y232.082
G01 X396.685 Y233.820
G01 X394.047 Y235.495
G01 X391.363 Y237.106
G01 X388.661 Y238.652
G01 X385.917 Y240.134
G01 X383.132 Y241.553
G01 X380.307 Y242.897
G01 X377.442 Y244.177
G01 X374.565 Y245.394
G01 X371.676 Y246.548
G01 X368.726 Y247.618
G01 X365.792 Y248.627
G01 X362.799 Y249.565
G01 X359.799 Y250.433
G01 X356.768 Y251.232
G01 X353.732 Y251.955
G01 X350.691 Y252.613
G01 X347.623 Y253.188
G01 X344.528 Y253.692
G01 X341.432 Y254.130
G01 X338.336 Y254.486
G01 X335.216 Y254.781
G01 X332.098 Y254.993
G01 X328.984 Y255.129
G01 X325.848 Y255.192
G01 X322.740 Y255.191
G01 X319.613 Y255.108
G01 X316.491 Y254.952
G01 X313.374 Y254.720
G01 X312.104 Y254.607
G01 X311.969 Y256.164
G01 X312.268 Y256.187
G01 X315.385 Y256.424
G01 X318.508 Y256.593
G01 X321.614 Y256.682
G01 X324.749 Y256.711
G01 X327.866 Y256.661
G01 X330.987 Y256.537
G01 X334.111 Y256.341
G01 X337.239 Y256.076
G01 X340.343 Y255.739
G01 X343.423 Y255.325
G01 X346.528 Y254.854
G01 X349.582 Y254.299
G01 X352.659 Y253.671
G01 X355.708 Y252.986
G01 X358.727 Y252.223
G01 X361.741 Y251.390
G01 X364.724 Y250.486
G01 X367.699 Y249.510
G01 X370.640 Y248.473
G01 X373.572 Y247.360
G01 X376.468 Y246.197
G01 X379.326 Y244.946
G01 X382.172 Y243.643
G01 X384.979 Y242.276
G01 X387.745 Y240.832
G01 X390.496 Y239.336
G01 X393.204 Y237.775
G01 X395.869 Y236.151
G01 X398.489 Y234.462
G01 X401.090 Y232.722
G01 X403.643 Y230.903
G01 X406.151 Y229.051
G01 X408.608 Y227.121
G01 X411.018 Y225.144
G01 X413.403 Y223.117
G01 X415.737 Y221.028
G01 X417.992 Y218.882
G01 X420.224 Y216.704
G01 X422.398 Y214.450
G01 X424.522 Y212.170
G01 X426.585 Y209.814
G01 X428.622 Y207.430
G01 X430.576 Y204.994
G01 X432.474 Y202.519
G01 X434.311 Y199.989
G01 X436.095 Y197.441
G01 X437.817 Y194.840
G01 X439.500 Y192.177
G01 X441.105 Y189.508
G01 X442.644 Y186.788
G01 X444.124 Y184.037
G01 X445.543 Y181.256
G01 X446.871 Y178.435
G01 X448.161 Y175.579
G01 X449.389 Y172.697
G01 X450.532 Y169.798
G01 X451.612 Y166.877
G01 X452.652 Y163.923
G01 X452.801 Y163.381
G01 X452.285 Y165.888
G01 X451.585 Y168.932
G01 X450.795 Y171.967
G01 X449.993 Y174.982
G01 X449.682 Y176.009
G01 X448.848 Y177.874
G01 X447.526 Y180.714
G01 X446.135 Y183.506
G01 X444.691 Y186.289
G01 X443.179 Y189.021
G01 X441.608 Y191.722
G01 X439.973 Y194.372
G01 X438.284 Y197.006
G01 X436.533 Y199.587
G01 X434.699 Y202.138
G01 X432.829 Y204.627
G01 X430.903 Y207.078
G01 X428.925 Y209.508
G01 X426.885 Y211.862
G01 X424.795 Y214.192
G01 X422.648 Y216.463
G01 X420.448 Y218.691
G01 X418.194 Y220.858
G01 X415.914 Y222.976
G01 X413.556 Y225.037
G01 X411.176 Y227.063
G01 X408.743 Y229.011
G01 X406.263 Y230.911
G01 X403.737 Y232.762
G01 X401.187 Y234.547
G01 X398.568 Y236.284
G01 X395.927 Y237.940
G01 X393.270 Y239.557
G01 X390.543 Y241.097
G01 X387.801 Y242.585
G01 X385.017 Y244.007
G01 X382.194 Y245.363
G01 X379.357 Y246.654
G01 X376.482 Y247.880
G01 X373.571 Y249.041
G01 X370.650 Y250.138
G01 X367.694 Y251.158
G01 X364.730 Y252.127
G01 X361.734 Y253.011
G01 X358.707 Y253.832
G01 X355.675 Y254.593
G01 X352.640 Y255.274
G01 X349.576 Y255.896
G01 X346.510 Y256.441
G01 X343.420 Y256.911
G01 X340.304 Y257.316
G01 X337.216 Y257.646
G01 X334.103 Y257.916
G01 X330.971 Y258.103
G01 X327.842 Y258.222
G01 X324.719 Y258.271
G01 X321.601 Y258.252
G01 X318.491 Y258.157
G01 X315.363 Y257.990
G01 X312.244 Y257.754
G01 X311.796 Y257.711
G01 X311.582 Y259.266
G01 X312.680 Y259.360
G01 X315.806 Y259.585
G01 X318.940 Y259.739
G01 X322.059 Y259.820
G01 X325.185 Y259.833
G01 X328.293 Y259.770
G01 X331.430 Y259.649
G01 X334.549 Y259.444
G01 X337.646 Y259.178
G01 X340.746 Y258.834
G01 X343.848 Y258.426
G01 X346.949 Y257.952
G01 X350.027 Y257.399
G01 X353.078 Y256.776
G01 X356.125 Y256.092
G01 X359.170 Y255.336
G01 X362.184 Y254.517
G01 X365.168 Y253.622
G01 X368.145 Y252.663
G01 X371.089 Y251.640
G01 X374.024 Y250.538
G01 X376.924 Y249.383
G01 X379.787 Y248.162
G01 X382.638 Y246.875
G01 X385.451 Y245.520
G01 X388.250 Y244.113
G01 X391.008 Y242.638
G01 X393.725 Y241.098
G01 X396.398 Y239.491
G01 X399.054 Y237.831
G01 X401.665 Y236.105
G01 X404.231 Y234.329
G01 X406.752 Y232.503
G01 X409.249 Y230.610
G01 X411.672 Y228.656
G01 X414.074 Y226.668
G01 X416.423 Y224.599
G01 X418.748 Y222.497
G01 X420.996 Y220.337
G01 X423.217 Y218.129
G01 X425.358 Y215.864
G01 X427.471 Y213.552
G01 X429.530 Y211.198
G01 X431.534 Y208.803
G01 X433.479 Y206.350
G01 X435.373 Y203.877
G01 X437.201 Y201.329
G01 X438.977 Y198.764
G01 X440.696 Y196.163
G01 X442.351 Y193.508
G01 X443.947 Y190.820
G01 X445.484 Y188.100
G01 X446.961 Y185.350
G01 X447.524 Y184.266
G01 X446.815 Y186.029
G01 X445.641 Y188.932
G01 X444.485 Y191.823
G01 X443.306 Y194.736
G01 X443.095 Y195.277
G01 X441.745 Y197.416
G01 X440.014 Y200.030
G01 X438.221 Y202.589
G01 X436.394 Y205.105
G01 X434.488 Y207.589
G01 X432.526 Y210.034
G01 X430.533 Y212.433
G01 X428.482 Y214.774
G01 X426.357 Y217.095
G01 X424.199 Y219.351
G01 X421.987 Y221.546
G01 X419.726 Y223.713
G01 X417.412 Y225.817
G01 X415.073 Y227.871
G01 X412.661 Y229.881
G01 X410.222 Y231.824
G01 X407.737 Y233.718
G01 X405.203 Y235.546
G01 X402.649 Y237.322
G01 X400.051 Y239.048
G01 X397.408 Y240.722
G01 X394.721 Y242.314
G01 X391.993 Y243.868
G01 X389.247 Y245.353
G01 X386.462 Y246.771
G01 X383.662 Y248.134
G01 X380.824 Y249.430
G01 X377.948 Y250.658
G01 X375.037 Y251.818
G01 X372.115 Y252.924
G01 X369.184 Y253.963
G01 X366.195 Y254.934
G01 X363.224 Y255.841
G01 X360.198 Y256.680
G01 X357.167 Y257.443
G01 X354.131 Y258.153
G01 X351.069 Y258.789
G01 X348.005 Y259.352
G01 X344.915 Y259.853
G01 X341.827 Y260.276
G01 X338.714 Y260.638
G01 X335.606 Y260.926
G01 X332.500 Y261.150
G01 X329.374 Y261.302
G01 X326.256 Y261.380
G01 X323.118 Y261.391
G01 X319.988 Y261.333
G01 X316.868 Y261.206
G01 X313.756 Y261.012
G01 X311.330 Y260.808
G01 X311.206 Y261.488
G01 X311.038 Y262.350
G01 X313.270 Y262.538
G01 X316.387 Y262.750
G01 X319.516 Y262.883
G01 X322.630 Y262.949
G01 X325.751 Y262.952
G01 X328.881 Y262.879
G01 X331.991 Y262.739
G01 X335.131 Y262.539
G01 X338.228 Y262.257
G01 X341.326 Y261.916
G01 X344.428 Y261.495
G01 X347.529 Y261.023
G01 X350.606 Y260.475
G01 X353.658 Y259.850
G01 X356.707 Y259.172
G01 X359.753 Y258.417
G01 X362.745 Y257.592
G01 X365.755 Y256.714
G01 X368.736 Y255.756
G01 X371.683 Y254.741
G01 X374.621 Y253.657
G01 X377.525 Y252.518
G01 X380.393 Y251.309
G01 X383.250 Y250.032
G01 X386.069 Y248.699
G01 X388.874 Y247.297
G01 X391.639 Y245.840
G01 X394.364 Y244.329
G01 X397.071 Y242.749
G01 X399.711 Y241.103
G01 X402.358 Y239.416
G01 X404.935 Y237.663
G01 X407.490 Y235.842
G01 X409.976 Y233.988
G01 X412.438 Y232.066
G01 X414.876 Y230.076
G01 X417.242 Y228.057
G01 X419.581 Y225.971
G01 X421.870 Y223.838
G01 X424.109 Y221.660
G01 X426.295 Y219.436
G01 X428.427 Y217.152
G01 X430.508 Y214.843
G01 X432.557 Y212.469
G01 X434.527 Y210.060
G01 X436.462 Y207.586
G01 X438.310 Y205.161
G01 X438.246 Y205.216
G01 X436.721 Y207.940
G01 X435.166 Y210.657
G01 X433.630 Y213.357
G01 X433.175 Y214.152
G01 X431.716 Y215.832
G01 X429.624 Y218.156
G01 X427.504 Y220.432
G01 X425.307 Y222.669
G01 X423.081 Y224.839
G01 X420.781 Y226.984
G01 X418.454 Y229.062
G01 X416.102 Y231.090
G01 X413.677 Y233.072
G01 X411.204 Y235.004
G01 X408.709 Y236.883
G01 X406.166 Y238.696
G01 X403.604 Y240.455
G01 X400.972 Y242.164
G01 X398.321 Y243.817
G01 X395.627 Y245.403
G01 X392.917 Y246.933
G01 X390.141 Y248.408
G01 X387.375 Y249.813
G01 X384.545 Y251.163
G01 X381.702 Y252.442
G01 X378.823 Y253.678
G01 X375.932 Y254.831
G01 X373.007 Y255.939
G01 X370.048 Y256.963
G01 X367.082 Y257.932
G01 X364.083 Y258.841
G01 X361.079 Y259.682
G01 X358.046 Y260.452
G01 X355.009 Y261.156
G01 X351.944 Y261.800
G01 X348.879 Y262.369
G01 X345.788 Y262.878
G01 X342.699 Y263.313
G01 X339.611 Y263.685
G01 X336.501 Y263.990
G01 X333.370 Y264.229
G01 X330.245 Y264.390
G01 X327.125 Y264.492
G01 X324.014 Y264.522
G01 X320.886 Y264.483
G01 X317.765 Y264.383
G01 X314.632 Y264.205
G01 X311.534 Y263.970
G01 X310.706 Y263.890
G01 X310.334 Y265.428
G01 X311.040 Y265.491
G01 X314.148 Y265.735
G01 X317.268 Y265.916
G01 X320.397 Y266.034
G01 X323.512 Y266.079
G01 X326.634 Y266.065
G01 X329.766 Y265.974
G01 X332.878 Y265.822
G01 X335.997 Y265.599
G01 X339.119 Y265.311
G01 X342.221 Y264.953
G01 X345.324 Y264.528
G01 X348.403 Y264.042
G01 X351.484 Y263.478
G01 X354.536 Y262.864
G01 X357.589 Y262.170
G01 X360.612 Y261.416
G01 X363.632 Y260.592
G01 X366.622 Y259.707
G01 X369.604 Y258.764
G01 X372.555 Y257.748
G01 X375.498 Y256.675
G01 X378.406 Y255.530
G01 X381.279 Y254.326
G01 X384.140 Y253.064
G01 X386.964 Y251.745
G01 X389.775 Y250.355
G01 X392.546 Y248.908
G01 X395.277 Y247.405
G01 X397.991 Y245.832
G01 X400.664 Y244.218
G01 X403.293 Y242.535
G01 X405.879 Y240.799
G01 X408.444 Y239.009
G01 X410.963 Y237.151
G01 X413.436 Y235.258
G01 X415.886 Y233.296
G01 X418.289 Y231.301
G01 X420.617 Y229.244
G01 X422.945 Y227.133
G01 X425.197 Y224.979
G01 X427.399 Y222.779
G01 X427.747 Y222.416
G01 X426.169 Y224.534
G01 X424.319 Y227.040
G01 X422.441 Y229.547
G01 X422.072 Y230.044
G01 X420.193 Y231.692
G01 X417.813 Y233.729
G01 X415.408 Y235.697
G01 X412.930 Y237.616
G01 X410.432 Y239.499
G01 X407.886 Y241.314
G01 X405.321 Y243.074
G01 X402.686 Y244.782
G01 X400.032 Y246.420
G01 X397.362 Y248.016
G01 X394.624 Y249.558
G01 X391.871 Y251.027
G01 X389.104 Y252.440
G01 X386.272 Y253.795
G01 X383.428 Y255.091
G01 X380.572 Y256.330
G01 X377.679 Y257.509
G01 X374.753 Y258.614
G01 X371.817 Y259.673
G01 X368.848 Y260.658
G01 X365.849 Y261.570
G01 X362.842 Y262.433
G01 X359.832 Y263.226
G01 X356.792 Y263.955
G01 X353.749 Y264.625
G01 X350.681 Y265.221
G01 X347.587 Y265.753
G01 X344.517 Y266.228
G01 X341.400 Y266.626
G01 X338.311 Y266.960
G01 X335.200 Y267.230
G01 X332.068 Y267.436
G01 X328.944 Y267.566
G01 X325.826 Y267.637
G01 X322.715 Y267.644
G01 X319.589 Y267.579
G01 X316.448 Y267.445
G01 X313.344 Y267.248
G01 X310.226 Y266.982
G01 X309.922 Y266.955
G01 X309.469 Y268.483
G01 X310.666 Y268.589
G01 X313.799 Y268.847
G01 X316.896 Y269.029
G01 X320.029 Y269.151
G01 X323.146 Y269.203
G01 X326.272 Y269.195
G01 X329.406 Y269.116
G01 X332.521 Y268.977
G01 X335.643 Y268.769
G01 X338.746 Y268.484
G01 X341.850 Y268.145
G01 X344.956 Y267.745
G01 X348.041 Y267.268
G01 X351.126 Y266.729
G01 X354.185 Y266.123
G01 X357.242 Y265.456
G01 X360.271 Y264.724
G01 X363.297 Y263.930
G01 X366.293 Y263.072
G01 X369.282 Y262.154
G01 X372.241 Y261.172
G01 X375.192 Y260.117
G01 X378.108 Y259.013
G01 X381.016 Y257.836
G01 X383.887 Y256.611
G01 X386.722 Y255.313
G01 X389.544 Y253.970
G01 X392.327 Y252.554
G01 X395.096 Y251.080
G01 X397.824 Y249.548
G01 X400.511 Y247.974
G01 X403.156 Y246.330
G01 X405.782 Y244.630
G01 X408.365 Y242.875
G01 X410.927 Y241.066
G01 X413.444 Y239.204
G01 X415.914 Y237.290
G01 X416.149 Y237.088
G01 X414.241 Y239.134
G01 X412.097 Y241.407
G01 X410.023 Y243.634
G01 X409.950 Y243.669
G01 X407.384 Y245.441
G01 X404.774 Y247.158
G01 X402.120 Y248.820
G01 X399.449 Y250.410
G01 X396.737 Y251.958
G01 X393.984 Y253.448
G01 X391.191 Y254.879
G01 X388.384 Y256.251
G01 X385.564 Y257.564
G01 X382.707 Y258.830
G01 X379.814 Y260.021
G01 X376.911 Y261.151
G01 X373.974 Y262.219
G01 X371.003 Y263.235
G01 X368.025 Y264.188
G01 X365.042 Y265.068
G01 X362.028 Y265.895
G01 X358.985 Y266.654
G01 X355.939 Y267.351
G01 X352.890 Y267.984
G01 X349.816 Y268.549
G01 X346.740 Y269.061
G01 X343.642 Y269.494
G01 X340.545 Y269.872
G01 X337.426 Y270.179
G01 X334.310 Y270.430
G01 X331.201 Y270.608
G01 X328.072 Y270.722
G01 X324.950 Y270.771
G01 X321.835 Y270.761
G01 X318.706 Y270.678
G01 X315.587 Y270.529
G01 X312.455 Y270.312
G01 X309.357 Y270.043
G01 X308.974 Y270.005
G01 X308.415 Y271.511
G01 X309.545 Y271.624
G01 X312.660 Y271.894
G01 X315.786 Y272.103
G01 X318.899 Y272.241
G01 X322.020 Y272.321
G01 X325.152 Y272.332
G01 X328.265 Y272.280
G01 X331.387 Y272.160
G01 X334.514 Y271.980
G01 X337.620 Y271.734
G01 X340.731 Y271.420
G01 X343.843 Y271.048
G01 X346.934 Y270.604
G01 X350.025 Y270.103
G01 X353.089 Y269.542
G01 X356.155 Y268.905
G01 X359.192 Y268.209
G01 X362.225 Y267.460
G01 X365.231 Y266.631
G01 X368.230 Y265.751
G01 X371.223 Y264.819
G01 X374.185 Y263.809
G01 X377.113 Y262.746
G01 X380.032 Y261.622
G01 X382.916 Y260.434
G01 X385.790 Y259.185
G01 X388.627 Y257.874
G01 X391.425 Y256.516
G01 X394.210 Y255.099
G01 X396.955 Y253.622
G01 X399.685 Y252.087
G01 X402.374 Y250.494
G01 X403.675 Y249.699
G01 X402.448 Y250.738
G01 X400.074 Y252.783
G01 X397.697 Y254.808
G01 X397.104 Y255.319
G01 X395.033 Y256.421
G01 X392.258 Y257.852
G01 X389.446 Y259.208
G01 X386.621 Y260.519
G01 X383.758 Y261.766
G01 X380.859 Y262.963
G01 X377.951 Y264.098
G01 X375.008 Y265.167
G01 X372.058 Y266.174
G01 X369.075 Y267.125
G01 X366.086 Y268.013
G01 X363.090 Y268.847
G01 X360.042 Y269.608
G01 X357.013 Y270.319
G01 X353.958 Y270.959
G01 X350.877 Y271.537
G01 X347.793 Y272.058
G01 X344.712 Y272.510
G01 X341.607 Y272.898
G01 X338.503 Y273.226
G01 X335.379 Y273.486
G01 X332.258 Y273.684
G01 X329.143 Y273.819
G01 X326.011 Y273.883
G01 X322.885 Y273.890
G01 X319.767 Y273.830
G01 X316.656 Y273.717
G01 X313.534 Y273.526
G01 X310.421 Y273.278
G01 X307.836 Y273.023
G01 X307.636 Y273.519
G01 X307.216 Y274.524
G01 X309.243 Y274.737
G01 X312.373 Y275.009
G01 X315.486 Y275.222
G01 X318.611 Y275.367
G01 X321.722 Y275.439
G01 X324.840 Y275.454
G01 X327.964 Y275.408
G01 X331.094 Y275.302
G01 X334.205 Y275.131
G01 X337.320 Y274.896
G01 X340.440 Y274.596
G01 X343.536 Y274.237
G01 X346.636 Y273.806
G01 X349.734 Y273.325
G01 X352.807 Y272.778
G01 X355.856 Y272.158
G01 X358.924 Y271.496
G01 X361.944 Y270.745
G01 X364.981 Y269.955
G01 X367.965 Y269.090
G01 X370.967 Y268.176
G01 X373.936 Y267.205
G01 X376.876 Y266.154
G01 X379.804 Y265.065
G01 X382.698 Y263.910
G01 X385.582 Y262.692
G01 X388.431 Y261.410
G01 X390.357 Y260.510
G01 X389.536 Y261.080
G01 X386.947 Y262.861
G01 X384.381 Y264.630
G01 X383.400 Y265.306
G01 X381.602 Y266.034
G01 X378.686 Y267.157
G01 X375.763 Y268.216
G01 X372.803 Y269.231
G01 X369.813 Y270.177
G01 X366.817 Y271.057
G01 X363.816 Y271.882
G01 X360.784 Y272.646
G01 X357.748 Y273.354
G01 X354.685 Y273.997
G01 X351.619 Y274.582
G01 X348.528 Y275.100
G01 X345.438 Y275.556
G01 X342.346 Y275.960
G01 X339.232 Y276.292
G01 X336.123 Y276.560
G01 X333.016 Y276.770
G01 X329.886 Y276.921
G01 X326.764 Y277.002
G01 X323.647 Y277.029
G01 X320.514 Y276.981
G01 X317.390 Y276.873
G01 X314.272 Y276.708
G01 X311.162 Y276.484
G01 X308.041 Y276.187
G01 X306.551 Y276.020
G01 X305.850 Y277.493
G01 X305.839 Y277.515
G01 X308.927 Y277.846
G01 X312.049 Y278.123
G01 X315.157 Y278.330
G01 X318.275 Y278.476
G01 X321.399 Y278.562
G01 X324.531 Y278.586
G01 X327.643 Y278.548
G01 X330.762 Y278.445
G01 X333.887 Y278.279
G01 X337.013 Y278.059
G01 X340.118 Y277.772
G01 X343.224 Y277.428
G01 X346.333 Y277.018
G01 X349.417 Y276.547
G01 X352.501 Y276.013
G01 X355.557 Y275.422
G01 X358.613 Y274.761
G01 X361.664 Y274.050
G01 X364.687 Y273.277
G01 X367.681 Y272.430
G01 X370.692 Y271.544
G01 X373.649 Y270.582
G01 X376.248 Y269.693
G01 X375.914 Y269.886
G01 X373.184 Y271.379
G01 X370.446 Y272.882
G01 X368.911 Y273.701
G01 X367.581 Y274.097
G01 X364.572 Y274.917
G01 X361.531 Y275.684
G01 X358.486 Y276.392
G01 X355.438 Y277.040
G01 X352.364 Y277.620
G01 X349.287 Y278.147
G01 X346.211 Y278.610
G01 X343.110 Y279.011
G01 X340.007 Y279.363
G01 X336.884 Y279.638
G01 X333.765 Y279.851
G01 X330.647 Y280.010
G01 X327.533 Y280.112
G01 X324.401 Y280.144
G01 X321.272 Y280.120
G01 X318.152 Y280.030
G01 X315.037 Y279.886
G01 X311.907 Y279.671
G01 X308.809 Y279.404
G01 X305.695 Y279.069
G01 X305.084 Y278.996
G01 X304.281 Y280.473
G01 X305.111 Y280.577
G01 X308.200 Y280.912
G01 X311.320 Y281.198
G01 X314.448 Y281.422
G01 X317.559 Y281.578
G01 X320.680 Y281.669
G01 X323.803 Y281.704
G01 X326.929 Y281.689
G01 X330.064 Y281.602
G01 X333.176 Y281.454
G01 X336.291 Y281.249
G01 X339.407 Y280.988
G01 X342.505 Y280.649
G01 X345.624 Y280.267
G01 X348.696 Y279.812
G01 X351.790 Y279.308
G01 X354.857 Y278.743
G01 X357.923 Y278.114
G01 X360.960 Y277.429
G01 X361.398 Y277.325
G01 X361.782 Y277.123
G01 X355.953 Y280.117
G01 X352.920 Y280.695
G01 X349.881 Y281.230
G01 X346.820 Y281.692
G01 X343.758 Y282.098
G01 X340.673 Y282.436
G01 X337.587 Y282.722
G01 X334.502 Y282.954
G01 X331.421 Y283.121
G01 X328.318 Y283.227
G01 X325.220 Y283.271
G01 X322.124 Y283.264
G01 X319.033 Y283.197
G01 X315.947 Y283.072
G01 X312.869 Y282.885
G01 X309.772 Y282.633
G01 X306.704 Y282.334
G01 X303.621 Y281.963
G01 X303.429 Y281.943
G01 X302.531 Y283.400
G01 X303.708 Y283.548
G01 X306.794 Y283.916
G01 X309.862 Y284.214
G01 X312.938 Y284.452
G01 X316.039 Y284.645
G01 X319.127 Y284.762
G01 X322.216 Y284.826
G01 X325.309 Y284.834
G01 X328.406 Y284.783
G01 X331.502 Y284.684
G01 X334.583 Y284.505
G01 X337.685 Y284.287
G01 X340.765 Y284.003
G01 X343.824 Y283.648
G01 X346.904 Y283.251
G01 X348.155 Y283.067
G01 X346.447 Y283.655
G01 X343.499 Y284.612
G01 X340.537 Y285.506
G01 X340.138 Y285.631
G01 X337.481 Y285.872
G01 X334.382 Y286.089
G01 X331.308 Y286.255
G01 X328.212 Y286.358
G01 X325.116 Y286.409
G01 X322.025 Y286.400
G01 X318.915 Y286.320
G01 X315.833 Y286.191
G01 X312.749 Y286.015
G01 X309.652 Y285.761
G01 X306.581 Y285.461
G01 X303.511 Y285.108
G01 X301.582 Y284.847
G01 X300.929 Y285.796
G01 X300.583 Y286.283
G01 X303.042 Y286.611
G01 X306.113 Y286.975
G01 X309.207 Y287.297
G01 X312.285 Y287.543
G01 X315.365 Y287.734
G01 X318.473 Y287.874
G01 X321.559 Y287.952
G01 X324.648 Y287.970
G01 X327.740 Y287.931
G01 X330.835 Y287.833
G01 X331.874 Y287.791
G01 X329.837 Y288.245
G01 X326.821 Y288.881
G01 X323.788 Y289.456
G01 X323.349 Y289.534
G01 X320.689 Y289.498
G01 X317.604 Y289.405
G01 X314.498 Y289.246
G01 X311.417 Y289.041
G01 X308.338 Y288.777
G01 X305.258 Y288.460
G01 X302.186 Y288.077
G01 X299.528 Y287.710
G01 X299.282 Y288.031
G01 X298.418 Y289.125
G01 X300.105 Y289.374
G01 X303.162 Y289.784
G01 X306.241 Y290.146
G01 X309.326 Y290.443
G01 X312.409 Y290.687
G01 X314.578 Y290.824
G01 X313.656 Y290.922
G01 X310.595 Y291.245
G01 X307.512 Y291.506
G01 X305.527 Y291.631
G01 X304.428 Y291.509
G01 X301.361 Y291.131
G01 X298.298 Y290.684
G01 X297.255 Y290.522
G01 X295.901 Y292.050
G01 X299.566 Y292.050
G01 X303.127 Y292.163
G01 X306.532 Y291.578
G01 X309.045 Y291.377
G01 X312.958 Y290.714
G01 X314.578 Y290.824
G01 X320.779 Y290.024
G01 X323.788 Y289.456
G01 X330.557 Y288.117
G01 X331.874 Y287.791
G01 X339.117 Y285.941
G01 X340.138 Y285.631
G01 X347.780 Y283.203
G01 X348.155 Y283.067
G01 X355.953 Y280.117
G01 X361.782 Y277.123
G01 X363.540 Y276.206
G01 X367.342 Y274.268
G01 X370.122 Y272.845
G01 X372.898 Y271.418
G01 X375.695 Y269.993
G01 X376.248 Y269.693
G01 X378.346 Y268.341
G01 X380.948 Y266.633
G01 X383.568 Y264.933
G01 X386.184 Y263.229
G01 X388.822 Y261.526
G01 X390.357 Y260.510
G01 X391.342 Y259.703
G01 X393.767 Y257.734
G01 X396.211 Y255.770
G01 X398.627 Y253.797
G01 X401.039 Y251.819
G01 X403.475 Y249.853
G01 X403.675 Y249.699
G01 X405.682 Y247.655
G01 X407.884 Y245.442
G01 X410.081 Y243.215
G01 X412.301 Y241.006
G01 X414.493 Y238.787
G01 X416.149 Y237.088
G01 X416.629 Y236.497
G01 X418.572 Y234.046
G01 X420.511 Y231.606
G01 X422.443 Y229.144
G01 X424.375 Y226.695
G01 X426.304 Y224.245
G01 X427.747 Y222.416
G01 X428.171 Y221.729
G01 X429.784 Y219.072
G01 X431.417 Y216.414
G01 X433.043 Y213.741
G01 X434.691 Y211.067
G01 X436.313 Y208.403
G01 X437.935 Y205.746
G01 X438.310 Y205.161
G01 X439.284 Y202.924
G01 X440.543 Y200.074
G01 X441.794 Y197.217
G01 X443.063 Y194.346
G01 X444.332 Y191.488
G01 X445.596 Y188.624
G01 X446.839 Y185.782
G01 X447.524 Y184.266
G01 X447.884 Y182.825
G01 X448.639 Y179.810
G01 X449.410 Y176.789
G01 X450.192 Y173.741
G01 X450.953 Y170.723
G01 X451.733 Y167.699
G01 X452.478 Y164.666
G01 X452.801 Y163.381
G01 X453.006 Y161.584
G01 X453.326 Y158.477
G01 X453.664 Y155.370
G01 X453.999 Y152.271
G01 X454.321 Y149.161
G01 X454.664 Y146.048
G01 X454.780 Y144.957
G01 X454.950 Y142.946
G01 X455.225 Y139.833
G01 X455.500 Y136.729
G01 X455.765 Y133.614
G01 X456.021 Y130.789
G01 X455.998 Y130.500
G01 X455.789 Y127.382
G01 X455.568 Y124.259
G01 X455.371 Y121.140
G01 X455.163 Y118.016
G01 X454.959 Y114.908
G01 X454.923 Y114.490
G01 X454.655 Y111.795
G01 X454.342 Y108.679
G01 X454.034 Y105.579
G01 X453.997 Y105.483
G01 X453.647 Y108.466
G01 X453.233 Y111.569
G01 X452.847 Y114.664
G01 X452.468 Y117.766
G01 X452.061 Y120.867
G01 X451.659 Y123.974
G01 X451.047 Y127.025
G01 X450.440 Y130.079
G01 X449.817 Y133.150
G01 X449.327 Y135.646
G01 X449.119 Y136.188
G01 X448.018 Y139.117
G01 X446.926 Y142.045
G01 X445.840 Y144.972
G01 X444.759 Y147.897
G01 X443.683 Y150.820
G01 X442.810 Y153.134
G01 X442.492 Y153.727
G01 X440.995 Y156.450
G01 X439.461 Y159.189
G01 X437.957 Y161.913
G01 X436.447 Y164.659
G01 X434.933 Y167.379
G01 X433.812 Y169.418
G01 X433.324 Y170.047
G01 X431.397 Y172.523
G01 X429.474 Y174.973
G01 X427.546 Y177.442
G01 X425.627 Y179.901
G01 X423.701 Y182.376
G01 X422.787 Y183.546
G01 X421.610 Y184.668
G01 X419.320 Y186.816
G01 X417.045 Y188.956
G01 X414.785 Y191.086
G01 X412.497 Y193.238
G01 X410.220 Y195.378
G01 X409.901 Y195.683
G01 X407.697 Y197.205
G01 X405.120 Y198.963
G01 X402.543 Y200.739
G01 X399.962 Y202.515
G01 X397.398 Y204.282
G01 X395.218 Y205.784
G01 X394.785 Y205.995
G01 X391.981 Y207.343
G01 X389.149 Y208.694
G01 X386.338 Y210.033
G01 X383.527 Y211.378
G01 X380.691 Y212.736
G01 X378.541 Y213.766
G01 X377.846 Y213.975
G01 X374.842 Y214.835
G01 X371.841 Y215.707
G01 X368.840 Y216.577
G01 X365.838 Y217.447
G01 X362.836 Y218.315
G01 X359.833 Y219.181
G01 X359.427 Y219.307
G01 X356.746 Y219.564
G01 X353.633 Y219.867
G01 X350.521 Y220.183
G01 X347.403 Y220.492
G01 X344.305 Y220.791
G01 X341.182 Y221.107
G01 X338.076 Y221.411
G01 X336.853 Y221.530
G01 X334.958 Y221.377
G01 X331.850 Y221.106
G01 X328.746 Y220.830
G01 X325.624 Y220.567
G01 X322.527 Y220.293
G01 X319.405 Y220.027
G01 X316.303 Y219.756
G01 X313.171 Y219.496
G01 X310.072 Y219.216
G01 X306.959 Y218.945
G01 X305.184 Y218.939
G01 X303.876 Y218.667
G01 X302.291 Y216.050
G01 X301.901 Y215.448
G01 X300.525 Y213.466
G01 X299.535 Y212.135
G01 X297.618 Y209.750
G01 X297.176 Y209.233
G01 X295.118 Y206.967
G01 X294.677 Y206.508
G01 X292.499 Y204.358
G01 X290.999 Y202.993
G01 X288.643 Y201.038
G01 X288.393 Y200.841
G01 X285.934 Y199.016
G01 X284.518 Y198.047
G01 X282.317 Y196.650
G01 X279.660 Y195.128
G01 X278.750 Y194.646
G01 X276.009 Y193.281
G01 X275.702 Y193.139
G01 X273.477 Y192.185
G01 X270.941 Y191.219
G01 X268.800 Y190.499
G01 X266.724 Y189.883
G01 X264.677 Y189.351
G01 X263.486 Y189.075
G01 X260.480 Y188.486
G01 X259.691 Y188.357
G01 X256.655 Y187.956
G01 X256.151 Y187.904
G01 X253.097 Y187.677
G01 X251.381 Y187.615
G01 X248.318 Y187.623
G01 X246.846 Y187.680
G01 X243.790 Y187.888
G01 X243.360 Y187.929
G01 X240.323 Y188.330
G01 X238.648 Y188.616
G01 X235.650 Y189.247
G01 X235.516 Y189.279
G01 X232.554 Y190.063
G01 X232.451 Y190.092
G01 X229.533 Y191.026
G01 X229.367 Y191.084
G01 X227.248 Y191.869
G01 X224.363 Y192.921
G01 X224.304 Y192.944
G01 X221.602 Y194.405
G01 X221.553 Y194.434
G01 X219.208 Y195.726
G01 X219.028 Y195.800
G01 X218.887 Y195.881
G01 X218.800 Y195.931
G01 X217.933 Y194.094
G01 X216.549 Y191.286
G01 X215.094 Y188.518
G01 X213.570 Y185.789
G01 X211.988 Y183.094
G01 X210.333 Y180.440
G01 X208.619 Y177.821
G01 X206.845 Y175.265
G01 X205.004 Y172.720
G01 X203.101 Y170.242
G01 X201.155 Y167.820
G01 X199.131 Y165.418
G01 X197.063 Y163.105
G01 X194.927 Y160.808
G01 X192.747 Y158.572
G01 X190.513 Y156.404
G01 X188.229 Y154.275
G01 X185.873 Y152.199
G01 X183.488 Y150.180
G01 X181.052 Y148.232
G01 X178.562 Y146.330
G01 X176.032 Y144.496
G01 X173.459 Y142.733
G01 X170.842 Y141.013
G01 X168.198 Y139.386
G01 X165.495 Y137.786
G01 X162.765 Y136.281
G01 X159.990 Y134.825
G01 X157.201 Y133.458
G01 X154.357 Y132.152
G01 X151.496 Y130.909
G01 X148.593 Y129.718
G01 X145.678 Y128.620
G01 X142.722 Y127.578
G01 X139.757 Y126.630
G01 X136.752 Y125.739
G01 X133.735 Y124.914
G01 X130.714 Y124.184
G01 X127.654 Y123.514
G01 X124.587 Y122.911
G01 X121.500 Y122.387
G01 X118.413 Y121.961
G01 X115.305 Y121.585
G01 X112.193 Y121.276
G01 X109.086 Y121.065
G01 X105.959 Y120.905
G01 X102.839 Y120.843
G01 X99.709 Y120.864
G01 X96.595 Y120.937
G01 X93.473 Y121.093
G01 X90.344 Y121.332
G01 X87.255 Y121.637
G01 X84.142 Y122.010
G01 X81.046 Y122.482
G01 X77.974 Y123.003
G01 X74.922 Y123.622
G01 X71.864 Y124.292
G01 X68.829 Y125.059
G01 X65.811 Y125.891
G01 X62.823 Y126.770
G01 X59.851 Y127.763
G01 X56.912 Y128.800
G01 X53.982 Y129.919
G01 X51.109 Y131.094
G01 X48.248 Y132.349
G01 X45.401 Y133.686
G01 X42.615 Y135.075
G01 X39.857 Y136.523
G01 X37.139 Y138.061
G01 X34.429 Y139.646
G01 X31.796 Y141.311
G01 X29.614 Y142.743
G01 X30.089 Y142.511
G01 X32.929 Y141.170
G01 X35.773 Y139.929
G01 X38.677 Y138.735
G01 X40.051 Y138.223
G01 X41.495 Y137.434
G01 X44.277 Y135.996
G01 X47.086 Y134.617
G01 X49.911 Y133.319
G01 X52.782 Y132.094
G01 X55.699 Y130.945
G01 X58.618 Y129.844
G01 X61.579 Y128.820
G01 X64.548 Y127.878
G01 X67.557 Y127.014
G01 X70.583 Y126.215
G01 X73.613 Y125.499
G01 X76.678 Y124.863
G01 X79.736 Y124.278
G01 X82.827 Y123.774
G01 X85.936 Y123.369
G01 X89.034 Y123.015
G01 X92.148 Y122.759
G01 X95.268 Y122.571
G01 X98.393 Y122.450
G01 X101.510 Y122.412
G01 X104.630 Y122.441
G01 X107.758 Y122.569
G01 X110.868 Y122.747
G01 X113.995 Y123.010
G01 X117.094 Y123.367
G01 X120.203 Y123.779
G01 X123.264 Y124.265
G01 X126.338 Y124.836
G01 X129.392 Y125.485
G01 X132.438 Y126.201
G01 X135.463 Y126.994
G01 X138.465 Y127.864
G01 X141.444 Y128.810
G01 X144.399 Y129.832
G01 X147.325 Y130.898
G01 X150.229 Y132.067
G01 X153.119 Y133.298
G01 X155.953 Y134.592
G01 X158.761 Y135.956
G01 X161.529 Y137.399
G01 X164.279 Y138.901
G01 X166.963 Y140.467
G01 X169.630 Y142.091
G01 X172.245 Y143.796
G01 X174.831 Y145.564
G01 X177.377 Y147.401
G01 X179.860 Y149.294
G01 X182.299 Y151.224
G01 X184.704 Y153.247
G01 X187.034 Y155.297
G01 X189.332 Y157.434
G01 X191.572 Y159.615
G01 X193.756 Y161.838
G01 X195.890 Y164.126
G01 X197.955 Y166.461
G01 X199.983 Y168.851
G01 X201.940 Y171.288
G01 X203.829 Y173.767
G01 X205.656 Y176.285
G01 X207.438 Y178.860
G01 X209.145 Y181.481
G01 X210.791 Y184.137
G01 X212.371 Y186.834
G01 X213.886 Y189.569
G01 X215.333 Y192.345
G01 X216.705 Y195.138
G01 X217.448 Y196.734
G01 X216.294 Y197.457
G01 X216.111 Y197.575
G01 X214.880 Y194.949
G01 X213.484 Y192.163
G01 X212.009 Y189.399
G01 X210.476 Y186.672
G01 X208.874 Y183.988
G01 X207.201 Y181.348
G01 X205.469 Y178.745
G01 X203.679 Y176.209
G01 X201.819 Y173.687
G01 X199.896 Y171.236
G01 X197.915 Y168.823
G01 X195.873 Y166.451
G01 X193.766 Y164.124
G01 X191.618 Y161.886
G01 X189.404 Y159.667
G01 X187.139 Y157.516
G01 X184.809 Y155.415
G01 X182.443 Y153.375
G01 X180.032 Y151.403
G01 X177.560 Y149.483
G01 X175.041 Y147.636
G01 X172.494 Y145.850
G01 X169.883 Y144.121
G01 X167.244 Y142.455
G01 X164.556 Y140.870
G01 X161.824 Y139.332
G01 X159.065 Y137.862
G01 X156.267 Y136.469
G01 X153.431 Y135.155
G01 X150.580 Y133.902
G01 X147.692 Y132.730
G01 X144.762 Y131.613
G01 X141.825 Y130.587
G01 X138.846 Y129.618
G01 X135.845 Y128.725
G01 X132.822 Y127.908
G01 X129.795 Y127.186
G01 X126.743 Y126.512
G01 X123.672 Y125.917
G01 X120.600 Y125.417
G01 X117.494 Y124.981
G01 X114.402 Y124.628
G01 X111.278 Y124.339
G01 X108.171 Y124.135
G01 X105.051 Y124.011
G01 X101.921 Y123.970
G01 X98.794 Y123.996
G01 X95.658 Y124.106
G01 X92.560 Y124.282
G01 X89.444 Y124.558
G01 X86.336 Y124.900
G01 X83.237 Y125.310
G01 X80.149 Y125.786
G01 X77.080 Y126.360
G01 X74.026 Y127.000
G01 X70.973 Y127.723
G01 X67.958 Y128.525
G01 X64.960 Y129.393
G01 X61.969 Y130.343
G01 X59.032 Y131.352
G01 X56.104 Y132.442
G01 X53.187 Y133.615
G01 X50.327 Y134.843
G01 X50.205 Y134.905
G01 X53.071 Y134.157
G01 X56.108 Y133.450
G01 X59.163 Y132.804
G01 X60.087 Y132.638
G01 X62.149 Y131.930
G01 X65.129 Y130.972
G01 X68.136 Y130.111
G01 X71.141 Y129.301
G01 X74.183 Y128.569
G01 X77.248 Y127.936
G01 X80.307 Y127.354
G01 X83.398 Y126.853
G01 X86.488 Y126.435
G01 X89.607 Y126.100
G01 X92.722 Y125.848
G01 X95.844 Y125.663
G01 X98.959 Y125.561
G01 X102.079 Y125.526
G01 X105.208 Y125.589
G01 X108.339 Y125.720
G01 X111.439 Y125.916
G01 X114.545 Y126.209
G01 X117.667 Y126.587
G01 X120.755 Y127.028
G01 X123.826 Y127.547
G01 X126.893 Y128.133
G01 X129.958 Y128.816
G01 X132.973 Y129.569
G01 X135.998 Y130.406
G01 X138.983 Y131.300
G01 X141.947 Y132.269
G01 X144.904 Y133.331
G01 X147.808 Y134.458
G01 X150.700 Y135.647
G01 X153.554 Y136.918
G01 X156.372 Y138.267
G01 X159.164 Y139.686
G01 X161.903 Y141.161
G01 X164.615 Y142.703
G01 X167.290 Y144.318
G01 X169.927 Y146.006
G01 X172.517 Y147.771
G01 X175.065 Y149.577
G01 X177.557 Y151.465
G01 X180.008 Y153.389
G01 X182.406 Y155.391
G01 X184.761 Y157.460
G01 X187.050 Y159.580
G01 X189.286 Y161.741
G01 X191.476 Y163.969
G01 X193.612 Y166.266
G01 X195.685 Y168.609
G01 X197.698 Y170.993
G01 X199.639 Y173.427
G01 X201.533 Y175.921
G01 X203.366 Y178.457
G01 X205.127 Y181.039
G01 X206.825 Y183.663
G01 X208.460 Y186.327
G01 X210.013 Y189.015
G01 X211.517 Y191.767
G01 X212.937 Y194.545
G01 X214.301 Y197.364
G01 X214.795 Y198.449
G01 X213.492 Y199.363
G01 X213.368 Y199.083
G01 X212.038 Y196.255
G01 X210.633 Y193.454
G01 X209.164 Y190.701
G01 X207.615 Y187.974
G01 X206.014 Y185.313
G01 X204.338 Y182.674
G01 X202.591 Y180.083
G01 X200.786 Y177.531
G01 X198.910 Y175.027
G01 X196.965 Y172.572
G01 X194.973 Y170.179
G01 X192.917 Y167.832
G01 X190.794 Y165.534
G01 X188.615 Y163.277
G01 X186.384 Y161.090
G01 X184.107 Y158.971
G01 X181.768 Y156.901
G01 X179.365 Y154.884
G01 X176.919 Y152.936
G01 X174.430 Y151.058
G01 X171.892 Y149.226
G01 X169.308 Y147.469
G01 X166.679 Y145.789
G01 X164.024 Y144.172
G01 X161.307 Y142.617
G01 X158.565 Y141.127
G01 X155.775 Y139.722
G01 X152.944 Y138.367
G01 X150.104 Y137.100
G01 X147.213 Y135.895
G01 X144.286 Y134.771
G01 X141.364 Y133.729
G01 X138.391 Y132.752
G01 X135.397 Y131.851
G01 X132.381 Y131.025
G01 X129.346 Y130.275
G01 X126.291 Y129.603
G01 X123.236 Y129.026
G01 X120.146 Y128.510
G01 X117.040 Y128.075
G01 X113.949 Y127.722
G01 X110.827 Y127.434
G01 X107.710 Y127.243
G01 X104.594 Y127.119
G01 X101.455 Y127.092
G01 X98.352 Y127.134
G01 X95.221 Y127.242
G01 X92.104 Y127.448
G01 X88.982 Y127.738
G01 X85.901 Y128.093
G01 X82.786 Y128.534
G01 X79.714 Y129.039
G01 X76.643 Y129.627
G01 X73.595 Y130.314
G01 X70.562 Y131.066
G01 X69.726 Y131.288
G01 X71.957 Y131.091
G01 X75.080 Y130.886
G01 X78.201 Y130.760
G01 X79.126 Y130.743
G01 X81.290 Y130.361
G01 X84.381 Y129.869
G01 X87.491 Y129.476
G01 X90.578 Y129.150
G01 X93.694 Y128.907
G01 X96.836 Y128.747
G01 X99.940 Y128.669
G01 X103.079 Y128.659
G01 X106.198 Y128.746
G01 X109.318 Y128.900
G01 X112.426 Y129.136
G01 X115.540 Y129.468
G01 X118.641 Y129.880
G01 X121.719 Y130.342
G01 X124.800 Y130.900
G01 X127.851 Y131.549
G01 X130.897 Y132.262
G01 X133.922 Y133.052
G01 X136.917 Y133.929
G01 X139.890 Y134.881
G01 X142.842 Y135.907
G01 X145.772 Y137.005
G01 X148.667 Y138.186
G01 X151.539 Y139.437
G01 X154.349 Y140.758
G01 X157.162 Y142.156
G01 X159.912 Y143.621
G01 X162.628 Y145.159
G01 X165.309 Y146.770
G01 X167.955 Y148.452
G01 X170.542 Y150.191
G01 X173.084 Y152.005
G01 X175.579 Y153.865
G01 X178.038 Y155.821
G01 X180.427 Y157.806
G01 X182.782 Y159.882
G01 X185.078 Y162.008
G01 X187.306 Y164.187
G01 X189.494 Y166.429
G01 X191.612 Y168.724
G01 X193.673 Y171.061
G01 X195.679 Y173.469
G01 X197.607 Y175.902
G01 X199.482 Y178.403
G01 X201.291 Y180.952
G01 X203.039 Y183.543
G01 X204.715 Y186.185
G01 X206.334 Y188.869
G01 X207.866 Y191.585
G01 X209.340 Y194.346
G01 X210.729 Y197.141
G01 X212.051 Y199.963
G01 X212.208 Y200.314
G01 X210.939 Y201.306
G01 X210.485 Y200.293
G01 X209.152 Y197.461
G01 X207.754 Y194.688
G01 X206.266 Y191.926
G01 X204.717 Y189.213
G01 X203.105 Y186.548
G01 X201.413 Y183.914
G01 X199.651 Y181.330
G01 X197.832 Y178.789
G01 X195.941 Y176.301
G01 X193.986 Y173.859
G01 X191.976 Y171.490
G01 X189.892 Y169.145
G01 X187.760 Y166.868
G01 X185.560 Y164.643
G01 X183.313 Y162.488
G01 X181.000 Y160.386
G01 X178.628 Y158.334
G01 X176.210 Y156.354
G01 X173.753 Y154.441
G01 X171.232 Y152.587
G01 X168.669 Y150.805
G01 X166.048 Y149.078
G01 X163.411 Y147.440
G01 X160.713 Y145.861
G01 X157.983 Y144.355
G01 X155.191 Y142.914
G01 X152.393 Y141.558
G01 X149.544 Y140.261
G01 X146.662 Y139.044
G01 X143.746 Y137.907
G01 X140.808 Y136.842
G01 X137.849 Y135.850
G01 X134.859 Y134.943
G01 X131.848 Y134.110
G01 X128.807 Y133.366
G01 X125.760 Y132.686
G01 X122.702 Y132.113
G01 X119.621 Y131.588
G01 X116.513 Y131.156
G01 X113.422 Y130.807
G01 X110.306 Y130.551
G01 X107.171 Y130.347
G01 X104.064 Y130.256
G01 X100.941 Y130.216
G01 X97.817 Y130.288
G01 X94.678 Y130.413
G01 X91.586 Y130.636
G01 X88.470 Y130.926
G01 X88.330 Y130.948
G01 X91.309 Y131.172
G01 X94.428 Y131.480
G01 X97.319 Y131.862
G01 X97.520 Y131.847
G01 X100.646 Y131.787
G01 X103.777 Y131.796
G01 X106.887 Y131.900
G01 X110.019 Y132.087
G01 X113.139 Y132.356
G01 X116.246 Y132.704
G01 X119.340 Y133.133
G01 X122.419 Y133.640
G01 X125.483 Y134.225
G01 X128.536 Y134.916
G01 X131.566 Y135.655
G01 X134.584 Y136.499
G01 X137.564 Y137.399
G01 X140.532 Y138.402
G01 X143.461 Y139.459
G01 X146.376 Y140.616
G01 X149.241 Y141.834
G01 X152.073 Y143.131
G01 X154.901 Y144.514
G01 X157.668 Y145.963
G01 X160.386 Y147.467
G01 X163.078 Y149.070
G01 X165.723 Y150.723
G01 X168.316 Y152.461
G01 X170.879 Y154.264
G01 X173.377 Y156.126
G01 X175.837 Y158.057
G01 X178.253 Y160.062
G01 X180.585 Y162.105
G01 X182.883 Y164.242
G01 X185.127 Y166.423
G01 X187.304 Y168.658
G01 X189.418 Y170.944
G01 X191.479 Y173.301
G01 X193.471 Y175.712
G01 X195.407 Y178.166
G01 X197.270 Y180.675
G01 X199.068 Y183.233
G01 X200.788 Y185.821
G01 X202.462 Y188.476
G01 X204.050 Y191.168
G01 X205.561 Y193.892
G01 X207.015 Y196.666
G01 X208.391 Y199.479
G01 X209.680 Y202.311
G01 X209.702 Y202.357
G01 X208.468 Y203.429
G01 X207.866 Y202.092
G01 X206.551 Y199.262
G01 X205.158 Y196.476
G01 X203.683 Y193.705
G01 X202.141 Y190.994
G01 X200.521 Y188.318
G01 X198.844 Y185.690
G01 X197.079 Y183.101
G01 X195.267 Y180.582
G01 X193.375 Y178.094
G01 X191.419 Y175.657
G01 X189.393 Y173.275
G01 X187.298 Y170.948
G01 X185.144 Y168.668
G01 X182.944 Y166.458
G01 X180.677 Y164.303
G01 X178.356 Y162.227
G01 X175.980 Y160.199
G01 X173.546 Y158.223
G01 X171.075 Y156.347
G01 X168.535 Y154.502
G01 X165.964 Y152.755
G01 X163.337 Y151.064
G01 X160.655 Y149.430
G01 X157.947 Y147.894
G01 X155.182 Y146.420
G01 X152.396 Y145.011
G01 X149.568 Y143.687
G01 X146.708 Y142.441
G01 X143.806 Y141.284
G01 X140.877 Y140.169
G01 X137.924 Y139.164
G01 X134.951 Y138.233
G01 X131.931 Y137.369
G01 X128.911 Y136.597
G01 X125.862 Y135.913
G01 X122.798 Y135.306
G01 X119.717 Y134.777
G01 X116.623 Y134.326
G01 X113.515 Y133.955
G01 X110.414 Y133.679
G01 X107.302 Y133.484
G01 X106.091 Y133.428
G01 X107.964 Y133.859
G01 X111.001 Y134.615
G01 X114.003 Y135.467
G01 X114.664 Y135.653
G01 X117.093 Y135.963
G01 X120.170 Y136.421
G01 X123.251 Y136.973
G01 X126.317 Y137.602
G01 X129.356 Y138.320
G01 X132.378 Y139.113
G01 X135.372 Y139.992
G01 X138.348 Y140.944
G01 X141.283 Y141.990
G01 X144.199 Y143.106
G01 X147.084 Y144.302
G01 X149.940 Y145.576
G01 X152.754 Y146.936
G01 X155.538 Y148.371
G01 X158.275 Y149.859
G01 X160.979 Y151.455
G01 X163.638 Y153.100
G01 X166.232 Y154.810
G01 X168.796 Y156.619
G01 X171.309 Y158.479
G01 X173.762 Y160.394
G01 X176.166 Y162.388
G01 X178.522 Y164.457
G01 X180.818 Y166.579
G01 X183.048 Y168.758
G01 X185.225 Y171.014
G01 X187.329 Y173.298
G01 X189.380 Y175.657
G01 X191.362 Y178.073
G01 X193.281 Y180.541
G01 X195.137 Y183.060
G01 X196.925 Y185.636
G01 X198.637 Y188.243
G01 X200.266 Y190.889
G01 X201.833 Y193.592
G01 X203.339 Y196.353
G01 X204.752 Y199.139
G01 X206.082 Y201.946
G01 X207.249 Y204.546
G01 X207.036 Y204.747
G01 X206.042 Y205.712
G01 X205.354 Y204.110
G01 X204.051 Y201.273
G01 X202.669 Y198.461
G01 X201.212 Y195.698
G01 X199.685 Y192.974
G01 X198.073 Y190.298
G01 X196.393 Y187.652
G01 X194.644 Y185.069
G01 X192.812 Y182.525
G01 X190.940 Y180.047
G01 X188.975 Y177.617
G01 X186.953 Y175.234
G01 X184.862 Y172.910
G01 X182.710 Y170.637
G01 X180.501 Y168.446
G01 X178.214 Y166.290
G01 X175.878 Y164.210
G01 X173.498 Y162.204
G01 X171.056 Y160.256
G01 X168.556 Y158.361
G01 X166.022 Y156.569
G01 X163.411 Y154.818
G01 X160.780 Y153.159
G01 X158.086 Y151.567
G01 X155.363 Y150.043
G01 X152.592 Y148.609
G01 X149.775 Y147.230
G01 X146.946 Y145.945
G01 X144.060 Y144.728
G01 X141.134 Y143.602
G01 X138.189 Y142.545
G01 X135.233 Y141.588
G01 X132.232 Y140.697
G01 X129.202 Y139.892
G01 X126.174 Y139.179
G01 X123.102 Y138.537
G01 X123.023 Y138.513
G01 X125.836 Y139.634
G01 X128.712 Y140.880
G01 X131.183 Y142.024
G01 X131.561 Y142.129
G01 X134.557 Y143.006
G01 X137.545 Y143.984
G01 X140.486 Y145.026
G01 X143.399 Y146.149
G01 X146.274 Y147.360
G01 X149.120 Y148.648
G01 X151.928 Y150.020
G01 X154.709 Y151.465
G01 X157.425 Y152.981
G01 X160.105 Y154.574
G01 X162.749 Y156.242
G01 X165.341 Y157.999
G01 X167.883 Y159.807
G01 X170.376 Y161.698
G01 X172.806 Y163.649
G01 X175.192 Y165.675
G01 X177.512 Y167.762
G01 X179.786 Y169.923
G01 X181.987 Y172.150
G01 X184.117 Y174.406
G01 X186.192 Y176.742
G01 X188.202 Y179.136
G01 X190.146 Y181.587
G01 X192.033 Y184.089
G01 X193.826 Y186.641
G01 X195.566 Y189.243
G01 X197.221 Y191.891
G01 X198.799 Y194.582
G01 X200.307 Y197.313
G01 X201.737 Y200.094
G01 X203.086 Y202.904
G01 X204.369 Y205.768
G01 X204.858 Y206.919
G01 X203.686 Y208.182
G01 X203.621 Y208.030
G01 X202.395 Y205.157
G01 X201.092 Y202.325
G01 X199.706 Y199.531
G01 X198.234 Y196.771
G01 X196.693 Y194.056
G01 X195.062 Y191.366
G01 X193.363 Y188.747
G01 X191.606 Y186.185
G01 X189.755 Y183.644
G01 X187.850 Y181.187
G01 X185.869 Y178.765
G01 X183.815 Y176.409
G01 X181.703 Y174.106
G01 X179.518 Y171.868
G01 X177.289 Y169.704
G01 X174.977 Y167.582
G01 X172.620 Y165.537
G01 X170.197 Y163.554
G01 X167.730 Y161.647
G01 X165.201 Y159.803
G01 X162.623 Y158.043
G01 X160.004 Y156.361
G01 X157.335 Y154.734
G01 X154.612 Y153.202
G01 X151.845 Y151.721
G01 X149.051 Y150.347
G01 X146.211 Y149.030
G01 X143.325 Y147.809
G01 X140.429 Y146.682
G01 X139.137 Y146.195
G01 X140.646 Y147.072
G01 X143.301 Y148.703
G01 X145.919 Y150.413
G01 X146.870 Y151.047
G01 X148.663 Y151.888
G01 X151.456 Y153.285
G01 X154.214 Y154.762
G01 X156.921 Y156.298
G01 X159.576 Y157.927
G01 X162.200 Y159.628
G01 X164.776 Y161.415
G01 X167.288 Y163.266
G01 X169.758 Y165.196
G01 X172.161 Y167.190
G01 X174.502 Y169.245
G01 X176.794 Y171.381
G01 X179.022 Y173.576
G01 X181.179 Y175.838
G01 X183.276 Y178.155
G01 X185.295 Y180.511
G01 X187.257 Y182.955
G01 X189.142 Y185.437
G01 X190.958 Y187.987
G01 X192.702 Y190.574
G01 X194.381 Y193.230
G01 X195.965 Y195.918
G01 X197.481 Y198.651
G01 X198.910 Y201.419
G01 X200.255 Y204.227
G01 X201.538 Y207.096
G01 X202.533 Y209.495
G01 X202.195 Y209.895
G01 X201.395 Y210.869
G01 X200.689 Y209.125
G01 X199.472 Y206.267
G01 X198.147 Y203.424
G01 X196.762 Y200.639
G01 X195.274 Y197.878
G01 X193.718 Y195.170
G01 X192.089 Y192.512
G01 X190.368 Y189.885
G01 X188.583 Y187.326
G01 X186.719 Y184.813
G01 X184.790 Y182.367
G01 X182.782 Y179.963
G01 X180.722 Y177.643
G01 X178.583 Y175.364
G01 X176.376 Y173.151
G01 X174.104 Y171.000
G01 X171.768 Y168.911
G01 X169.383 Y166.905
G01 X166.935 Y164.962
G01 X164.420 Y163.086
G01 X161.863 Y161.291
G01 X159.260 Y159.580
G01 X156.601 Y157.930
G01 X154.389 Y156.650
G01 X154.820 Y156.996
G01 X157.201 Y158.996
G01 X159.547 Y161.066
G01 X161.685 Y163.064
G01 X161.854 Y163.178
G01 X164.384 Y164.992
G01 X166.866 Y166.893
G01 X169.303 Y168.876
G01 X171.663 Y170.902
G01 X173.970 Y173.016
G01 X176.218 Y175.187
G01 X178.398 Y177.427
G01 X180.508 Y179.734
G01 X182.538 Y182.087
G01 X184.518 Y184.526
G01 X186.419 Y187.010
G01 X188.240 Y189.544
G01 X189.984 Y192.126
G01 X191.645 Y194.766
G01 X193.237 Y197.455
G01 X194.763 Y200.195
G01 X196.181 Y202.966
G01 X197.542 Y205.794
G01 X198.793 Y208.639
G01 X199.975 Y211.540
G01 X200.273 Y212.304
G01 X199.168 Y213.808
G01 X199.009 Y213.386
G01 X197.862 Y210.477
G01 X196.639 Y207.609
G01 X195.331 Y204.776
G01 X193.929 Y201.977
G01 X192.448 Y199.223
G01 X190.899 Y196.529
G01 X189.242 Y193.858
G01 X187.529 Y191.259
G01 X185.716 Y188.701
G01 X183.847 Y186.208
G01 X181.900 Y183.763
G01 X179.883 Y181.391
G01 X177.784 Y179.068
G01 X175.621 Y176.811
G01 X173.393 Y174.619
G01 X171.104 Y172.490
G01 X168.739 Y170.438
G01 X168.721 Y170.421
G01 X170.725 Y172.770
G01 X172.691 Y175.196
G01 X174.575 Y177.673
G01 X175.497 Y178.914
G01 X176.581 Y180.060
G01 X178.681 Y182.387
G01 X180.695 Y184.768
G01 X182.651 Y187.216
G01 X184.525 Y189.717
G01 X186.322 Y192.272
G01 X188.043 Y194.883
G01 X189.674 Y197.533
G01 X191.233 Y200.246
G01 X192.706 Y203.008
G01 X194.086 Y205.799
G01 X195.395 Y208.641
G01 X196.600 Y211.511
G01 X197.730 Y214.429
G01 X198.081 Y215.385
G01 X197.007 Y217.053
G01 X196.965 Y216.932
G01 X195.910 Y214.000
G01 X194.746 Y211.099
G01 X193.492 Y208.222
G01 X192.169 Y205.410
G01 X190.737 Y202.620
G01 X189.227 Y199.879
G01 X187.651 Y197.203
G01 X185.968 Y194.557
G01 X184.212 Y191.969
G01 X182.383 Y189.436
G01 X181.953 Y188.866
G01 X183.027 Y191.007
G01 X184.425 Y193.781
G01 X185.832 Y196.571
G01 X187.249 Y199.377
G01 X188.001 Y200.878
G01 X188.703 Y202.129
G01 X190.170 Y204.899
G01 X191.525 Y207.693
G01 X192.815 Y210.546
G01 X194.008 Y213.433
G01 X195.113 Y216.361
G01 X195.952 Y218.814
G01 X195.973 Y218.877
G01 X196.001 Y218.929
G01 X196.004 Y218.974
G01 X196.798 Y217.679
G01 X198.388 Y215.066
G01 X198.422 Y215.013
G01 X199.168 Y213.808
G01 X200.239 Y212.474
G01 X202.140 Y210.077
G01 X202.180 Y210.029
G01 X203.686 Y208.182
G01 X204.205 Y207.650
G01 X206.373 Y205.489
G01 X206.419 Y205.446
G01 X208.468 Y203.429
G01 X208.650 Y203.267
G01 X211.039 Y201.352
G01 X211.089 Y201.314
G01 X213.467 Y199.383
G01 X213.492 Y199.363
G01 X213.518 Y199.345
G01 X216.074 Y197.657
G01 X216.127 Y197.624
G01 X217.448 Y196.734
G01 X218.060 Y196.336
G01 X218.568 Y196.066
G01 X218.943 Y195.878
G01 X219.109 Y195.754
G01 X219.295 Y195.677
G01 X219.416 Y195.638
G01 X219.454 Y195.616
G01 X219.487 Y195.598
G01 X218.540 Y193.607
G01 X217.136 Y190.812
G01 X215.662 Y188.056
G01 X214.128 Y185.333
G01 X212.531 Y182.645
G01 X210.877 Y180.018
G01 X209.149 Y177.405
G01 X207.365 Y174.852
G01 X205.504 Y172.316
G01 X203.607 Y169.860
G01 X201.632 Y167.423
G01 X199.610 Y165.045
G01 X197.525 Y162.709
G01 X195.397 Y160.431
G01 X193.202 Y158.200
G01 X190.961 Y156.033
G01 X188.668 Y153.904
G01 X186.326 Y151.844
G01 X183.930 Y149.826
G01 X181.483 Y147.881
G01 X179.005 Y145.996
G01 X176.472 Y144.159
G01 X173.896 Y142.392
G01 X171.275 Y140.669
G01 X168.627 Y139.040
G01 X165.933 Y137.457
G01 X163.209 Y135.941
G01 X160.428 Y134.484
G01 X157.629 Y133.087
G01 X154.806 Y131.790
G01 X151.938 Y130.545
G01 X149.038 Y129.344
G01 X146.116 Y128.246
G01 X143.180 Y127.211
G01 X140.202 Y126.234
G01 X137.217 Y125.350
G01 X134.203 Y124.514
G01 X131.167 Y123.755
G01 X128.110 Y123.075
G01 X125.062 Y122.478
G01 X121.978 Y121.943
G01 X118.888 Y121.475
G01 X115.781 Y121.088
G01 X112.689 Y120.784
G01 X109.564 Y120.545
G01 X106.438 Y120.373
G01 X103.318 Y120.300
G01 X100.201 Y120.294
G01 X97.068 Y120.339
G01 X93.945 Y120.483
G01 X90.828 Y120.695
G01 X87.718 Y120.973
G01 X84.623 Y121.349
G01 X81.517 Y121.777
G01 X78.443 Y122.286
G01 X75.369 Y122.879
G01 X72.320 Y123.519
G01 X69.274 Y124.242
G01 X66.251 Y125.063
G01 X63.259 Y125.929
G01 X60.274 Y126.878
G01 X57.329 Y127.904
G01 X54.385 Y128.979
G01 X51.484 Y130.129
G01 X48.628 Y131.354
G01 X45.765 Y132.647
G01 X42.949 Y134.012
G01 X40.183 Y135.449
G01 X37.446 Y136.945
G01 X34.739 Y138.498
G01 X32.063 Y140.108
G01 X30.414 Y141.170
G01 X31.421 Y140.551
G01 X34.083 Y138.896
G01 X36.744 Y137.255
G01 X39.405 Y135.625
G01 X42.054 Y133.975
G01 X44.725 Y132.349
G01 X45.099 Y132.100
G01 X47.519 Y130.973
G01 X50.391 Y129.715
G01 X53.288 Y128.518
G01 X56.196 Y127.403
G01 X59.126 Y126.350
G01 X62.098 Y125.374
G01 X65.089 Y124.461
G01 X68.105 Y123.645
G01 X71.131 Y122.861
G01 X74.180 Y122.175
G01 X77.243 Y121.554
G01 X80.306 Y121.016
G01 X83.413 Y120.542
G01 X86.518 Y120.152
G01 X89.611 Y119.813
G01 X92.719 Y119.572
G01 X95.852 Y119.415
G01 X98.971 Y119.308
G01 X102.094 Y119.270
G01 X105.224 Y119.330
G01 X108.343 Y119.472
G01 X111.456 Y119.650
G01 X114.573 Y119.927
G01 X117.674 Y120.285
G01 X120.771 Y120.711
G01 X123.863 Y121.203
G01 X126.936 Y121.775
G01 X129.972 Y122.409
G01 X133.016 Y123.126
G01 X136.051 Y123.910
G01 X139.050 Y124.783
G01 X142.036 Y125.721
G01 X144.981 Y126.716
G01 X147.929 Y127.795
G01 X150.834 Y128.929
G01 X153.711 Y130.136
G01 X156.574 Y131.435
G01 X159.378 Y132.767
G01 X162.168 Y134.189
G01 X164.915 Y135.690
G01 X167.629 Y137.230
G01 X170.311 Y138.838
G01 X172.950 Y140.520
G01 X175.532 Y142.255
G01 X178.093 Y144.046
G01 X180.601 Y145.915
G01 X183.063 Y147.824
G01 X185.482 Y149.799
G01 X187.851 Y151.847
G01 X190.174 Y153.930
G01 X192.439 Y156.087
G01 X194.660 Y158.276
G01 X196.825 Y160.535
G01 X198.932 Y162.833
G01 X200.994 Y165.191
G01 X202.985 Y167.593
G01 X204.936 Y170.051
G01 X206.814 Y172.552
G01 X208.631 Y175.089
G01 X210.390 Y177.659
G01 X212.093 Y180.290
G01 X213.726 Y182.959
G01 X215.297 Y185.663
G01 X216.793 Y188.378
G01 X218.229 Y191.154
G01 X219.601 Y193.965
G01 X220.185 Y195.212
G01 X221.570 Y194.481
G01 X220.262 Y191.696
G01 X218.866 Y188.900
G01 X217.414 Y186.161
G01 X215.887 Y183.432
G01 X214.295 Y180.736
G01 X212.633 Y178.078
G01 X210.913 Y175.479
G01 X209.133 Y172.913
G01 X207.291 Y170.382
G01 X205.393 Y167.912
G01 X203.434 Y165.479
G01 X201.410 Y163.085
G01 X199.332 Y160.755
G01 X197.202 Y158.460
G01 X195.014 Y156.233
G01 X192.785 Y154.066
G01 X190.502 Y151.939
G01 X188.153 Y149.859
G01 X185.770 Y147.839
G01 X183.333 Y145.891
G01 X180.850 Y143.984
G01 X178.321 Y142.146
G01 X175.760 Y140.373
G01 X173.140 Y138.651
G01 X170.486 Y136.996
G01 X167.800 Y135.409
G01 X165.070 Y133.898
G01 X162.305 Y132.428
G01 X159.524 Y131.049
G01 X156.685 Y129.731
G01 X153.828 Y128.476
G01 X150.926 Y127.274
G01 X148.012 Y126.167
G01 X145.066 Y125.105
G01 X142.110 Y124.138
G01 X139.112 Y123.229
G01 X136.090 Y122.397
G01 X133.073 Y121.650
G01 X130.029 Y120.952
G01 X126.964 Y120.333
G01 X123.878 Y119.793
G01 X120.786 Y119.321
G01 X117.706 Y118.935
G01 X114.592 Y118.612
G01 X111.475 Y118.356
G01 X108.362 Y118.200
G01 X105.230 Y118.095
G01 X102.105 Y118.089
G01 X98.977 Y118.120
G01 X95.858 Y118.250
G01 X92.731 Y118.464
G01 X89.643 Y118.745
G01 X86.531 Y119.093
G01 X83.427 Y119.508
G01 X80.341 Y120.022
G01 X77.279 Y120.586
G01 X74.218 Y121.233
G01 X71.191 Y121.959
G01 X68.147 Y122.755
G01 X65.153 Y123.612
G01 X62.165 Y124.551
G01 X59.217 Y125.568
G01 X56.291 Y126.648
G01 X53.386 Y127.790
G01 X50.494 Y129.014
G01 X47.659 Y130.292
G01 X44.839 Y131.650
G01 X42.046 Y133.068
G01 X39.303 Y134.558
G01 X36.590 Y136.106
G01 X33.931 Y137.722
G01 X31.292 Y139.417
G01 X28.698 Y141.145
G01 X26.150 Y142.961
G01 X23.638 Y144.831
G01 X22.908 Y145.457
G01 X24.477 Y144.039
G01 X26.927 Y142.097
G01 X29.391 Y140.196
G01 X31.937 Y138.370
G01 X34.517 Y136.600
G01 X37.142 Y134.919
G01 X39.800 Y133.295
G01 X42.510 Y131.740
G01 X45.272 Y130.257
G01 X48.062 Y128.834
G01 X50.867 Y127.490
G01 X53.720 Y126.221
G01 X56.617 Y125.027
G01 X59.526 Y123.915
G01 X62.476 Y122.879
G01 X62.781 Y122.785
G01 X65.475 Y121.955
G01 X68.479 Y121.113
G01 X71.500 Y120.335
G01 X74.536 Y119.623
G01 X77.606 Y118.991
G01 X80.676 Y118.442
G01 X83.771 Y117.943
G01 X86.862 Y117.527
G01 X89.963 Y117.178
G01 X93.076 Y116.928
G01 X96.210 Y116.730
G01 X99.316 Y116.599
G01 X102.444 Y116.552
G01 X105.561 Y116.588
G01 X108.679 Y116.691
G01 X111.797 Y116.862
G01 X114.931 Y117.119
G01 X118.032 Y117.440
G01 X121.128 Y117.829
G01 X124.223 Y118.317
G01 X127.294 Y118.854
G01 X130.357 Y119.458
G01 X133.398 Y120.142
G01 X136.446 Y120.912
G01 X139.453 Y121.741
G01 X142.435 Y122.647
G01 X145.404 Y123.620
G01 X148.358 Y124.658
G01 X151.283 Y125.771
G01 X154.164 Y126.940
G01 X157.031 Y128.202
G01 X159.864 Y129.508
G01 X162.666 Y130.887
G01 X165.435 Y132.336
G01 X168.172 Y133.856
G01 X170.861 Y135.424
G01 X173.531 Y137.081
G01 X176.152 Y138.785
G01 X178.714 Y140.542
G01 X181.265 Y142.377
G01 X183.757 Y144.261
G01 X186.190 Y146.194
G01 X188.601 Y148.209
G01 X190.940 Y150.248
G01 X193.248 Y152.372
G01 X195.498 Y154.537
G01 X197.705 Y156.764
G01 X199.848 Y159.034
G01 X201.937 Y161.340
G01 X203.976 Y163.706
G01 X205.959 Y166.136
G01 X207.884 Y168.600
G01 X209.746 Y171.100
G01 X211.552 Y173.661
G01 X213.289 Y176.230
G01 X214.979 Y178.880
G01 X216.588 Y181.544
G01 X218.149 Y184.259
G01 X219.638 Y187.011
G01 X221.067 Y189.791
G01 X222.426 Y192.605
G01 X222.951 Y193.740
G01 X224.365 Y193.081
G01 X224.252 Y192.830
G01 X222.897 Y190.014
G01 X221.485 Y187.223
G01 X220.002 Y184.464
G01 X218.459 Y181.762
G01 X216.850 Y179.064
G01 X215.184 Y176.421
G01 X213.465 Y173.834
G01 X211.667 Y171.260
G01 X209.824 Y168.739
G01 X207.916 Y166.254
G01 X205.960 Y163.827
G01 X203.942 Y161.436
G01 X201.881 Y159.101
G01 X199.756 Y156.806
G01 X197.586 Y154.572
G01 X195.350 Y152.382
G01 X193.077 Y150.249
G01 X190.755 Y148.153
G01 X188.376 Y146.130
G01 X185.958 Y144.139
G01 X183.493 Y142.218
G01 X180.980 Y140.367
G01 X178.429 Y138.552
G01 X175.843 Y136.803
G01 X173.209 Y135.128
G01 X170.539 Y133.493
G01 X167.833 Y131.926
G01 X165.082 Y130.437
G01 X162.322 Y129.002
G01 X159.502 Y127.627
G01 X156.678 Y126.336
G01 X153.808 Y125.097
G01 X150.920 Y123.923
G01 X147.988 Y122.804
G01 X145.043 Y121.780
G01 X142.067 Y120.802
G01 X139.077 Y119.890
G01 X136.078 Y119.075
G01 X133.039 Y118.318
G01 X129.989 Y117.629
G01 X126.930 Y117.007
G01 X123.846 Y116.433
G01 X120.759 Y115.958
G01 X117.667 Y115.550
G01 X114.557 Y115.223
G01 X111.444 Y114.964
G01 X108.329 Y114.772
G01 X105.214 Y114.648
G01 X102.085 Y114.606
G01 X98.959 Y114.631
G01 X95.836 Y114.724
G01 X92.718 Y114.884
G01 X89.605 Y115.111
G01 X86.505 Y115.437
G01 X83.393 Y115.813
G01 X80.311 Y116.271
G01 X77.207 Y116.797
G01 X74.148 Y117.387
G01 X73.617 Y117.511
G01 X76.035 Y116.723
G01 X79.022 Y115.808
G01 X82.039 Y114.944
G01 X85.059 Y114.164
G01 X86.085 Y113.904
G01 X88.150 Y113.694
G01 X91.253 Y113.405
G01 X94.367 Y113.215
G01 X97.486 Y113.091
G01 X100.609 Y113.035
G01 X103.734 Y113.046
G01 X106.861 Y113.124
G01 X109.991 Y113.302
G01 X113.103 Y113.530
G01 X116.211 Y113.826
G01 X119.316 Y114.189
G01 X122.402 Y114.633
G01 X125.482 Y115.145
G01 X128.555 Y115.724
G01 X131.619 Y116.370
G01 X134.659 Y117.095
G01 X137.689 Y117.887
G01 X140.677 Y118.739
G01 X143.667 Y119.675
G01 X146.628 Y120.658
G01 X149.560 Y121.718
G01 X152.478 Y122.872
G01 X155.361 Y124.042
G01 X158.216 Y125.315
G01 X161.051 Y126.652
G01 X163.850 Y128.032
G01 X166.616 Y129.484
G01 X169.348 Y131.007
G01 X172.043 Y132.571
G01 X174.702 Y134.204
G01 X177.313 Y135.912
G01 X179.911 Y137.673
G01 X182.447 Y139.486
G01 X184.945 Y141.364
G01 X187.405 Y143.306
G01 X189.815 Y145.289
G01 X192.186 Y147.334
G01 X194.497 Y149.423
G01 X196.769 Y151.572
G01 X198.981 Y153.762
G01 X201.155 Y156.009
G01 X203.273 Y158.321
G01 X205.342 Y160.665
G01 X207.346 Y163.049
G01 X209.305 Y165.488
G01 X211.201 Y167.962
G01 X213.040 Y170.496
G01 X214.828 Y173.058
G01 X216.544 Y175.656
G01 X218.217 Y178.304
G01 X219.818 Y180.986
G01 X221.359 Y183.697
G01 X222.846 Y186.459
G01 X224.268 Y189.250
G01 X225.610 Y192.048
G01 X225.802 Y192.456
G01 X227.248 Y191.869
G01 X226.782 Y190.870
G01 X225.417 Y188.049
G01 X223.988 Y185.282
G01 X222.501 Y182.539
G01 X220.952 Y179.824
G01 X219.336 Y177.140
G01 X217.667 Y174.508
G01 X215.932 Y171.908
G01 X214.137 Y169.338
G01 X212.298 Y166.821
G01 X210.387 Y164.341
G01 X208.437 Y161.913
G01 X206.421 Y159.523
G01 X204.357 Y157.191
G01 X202.242 Y154.892
G01 X200.066 Y152.632
G01 X197.841 Y150.435
G01 X195.575 Y148.297
G01 X193.257 Y146.197
G01 X190.899 Y144.158
G01 X188.478 Y142.166
G01 X186.028 Y140.231
G01 X183.540 Y138.360
G01 X180.999 Y136.533
G01 X178.421 Y134.773
G01 X175.791 Y133.059
G01 X173.135 Y131.406
G01 X170.443 Y129.822
G01 X167.727 Y128.301
G01 X164.963 Y126.858
G01 X162.176 Y125.450
G01 X159.355 Y124.114
G01 X156.486 Y122.832
G01 X153.613 Y121.634
G01 X150.694 Y120.491
G01 X147.770 Y119.404
G01 X144.804 Y118.403
G01 X141.837 Y117.458
G01 X138.842 Y116.590
G01 X135.819 Y115.769
G01 X132.786 Y115.046
G01 X129.727 Y114.371
G01 X126.659 Y113.764
G01 X123.582 Y113.224
G01 X120.485 Y112.765
G01 X117.382 Y112.373
G01 X114.292 Y112.066
G01 X111.182 Y111.810
G01 X108.056 Y111.634
G01 X104.943 Y111.513
G01 X101.817 Y111.473
G01 X98.692 Y111.500
G01 X95.571 Y111.595
G01 X94.337 Y111.663
G01 X96.233 Y111.382
G01 X99.317 Y110.932
G01 X102.417 Y110.505
G01 X105.499 Y110.069
G01 X106.072 Y109.981
G01 X108.632 Y110.085
G01 X111.730 Y110.275
G01 X114.857 Y110.536
G01 X117.950 Y110.861
G01 X121.055 Y111.271
G01 X124.154 Y111.750
G01 X127.229 Y112.277
G01 X130.282 Y112.884
G01 X133.325 Y113.559
G01 X136.374 Y114.319
G01 X139.395 Y115.128
G01 X142.386 Y115.984
G01 X145.366 Y116.937
G01 X148.330 Y117.957
G01 X151.249 Y119.033
G01 X154.164 Y120.164
G01 X157.047 Y121.371
G01 X159.897 Y122.652
G01 X162.725 Y123.968
G01 X165.520 Y125.387
G01 X168.291 Y126.840
G01 X171.012 Y128.343
G01 X173.709 Y129.938
G01 X176.368 Y131.574
G01 X178.989 Y133.279
G01 X181.569 Y135.023
G01 X184.110 Y136.835
G01 X186.622 Y138.706
G01 X189.082 Y140.648
G01 X191.500 Y142.627
G01 X193.865 Y144.647
G01 X196.188 Y146.729
G01 X198.470 Y148.872
G01 X200.709 Y151.075
G01 X202.883 Y153.292
G01 X205.017 Y155.594
G01 X207.097 Y157.930
G01 X209.125 Y160.299
G01 X211.103 Y162.726
G01 X213.020 Y165.186
G01 X214.870 Y167.683
G01 X216.680 Y170.229
G01 X218.436 Y172.831
G01 X220.128 Y175.463
G01 X221.760 Y178.124
G01 X223.327 Y180.813
G01 X224.840 Y183.554
G01 X226.294 Y186.319
G01 X227.680 Y189.112
G01 X228.714 Y191.316
G01 X229.367 Y191.084
G01 X230.200 Y190.798
G01 X229.249 Y188.771
G01 X227.863 Y185.969
G01 X226.430 Y183.212
G01 X224.918 Y180.460
G01 X223.361 Y177.755
G01 X221.734 Y175.080
G01 X220.060 Y172.454
G01 X218.319 Y169.860
G01 X216.519 Y167.295
G01 X214.675 Y164.781
G01 X212.761 Y162.304
G01 X210.803 Y159.880
G01 X208.791 Y157.488
G01 X206.725 Y155.156
G01 X204.614 Y152.854
G01 X202.438 Y150.592
G01 X200.218 Y148.390
G01 X197.964 Y146.243
G01 X195.644 Y144.140
G01 X193.292 Y142.094
G01 X190.885 Y140.089
G01 X188.446 Y138.143
G01 X185.955 Y136.268
G01 X183.432 Y134.425
G01 X180.857 Y132.656
G01 X178.253 Y130.919
G01 X175.608 Y129.251
G01 X172.926 Y127.653
G01 X170.204 Y126.097
G01 X167.470 Y124.625
G01 X164.687 Y123.204
G01 X161.867 Y121.827
G01 X159.026 Y120.544
G01 X156.163 Y119.296
G01 X153.267 Y118.124
G01 X150.340 Y117.026
G01 X147.393 Y115.965
G01 X144.432 Y115.001
G01 X141.440 Y114.083
G01 X138.434 Y113.233
G01 X135.415 Y112.449
G01 X132.371 Y111.744
G01 X129.300 Y111.088
G01 X126.235 Y110.518
G01 X123.146 Y109.997
G01 X120.067 Y109.562
G01 X117.028 Y109.186
G01 X117.122 Y109.201
G01 X120.230 Y109.174
G01 X123.362 Y109.163
G01 X126.484 Y109.132
G01 X127.399 Y109.129
G01 X129.584 Y109.554
G01 X132.627 Y110.186
G01 X135.675 Y110.904
G01 X138.696 Y111.701
G01 X141.703 Y112.534
G01 X144.696 Y113.435
G01 X147.659 Y114.413
G01 X150.606 Y115.457
G01 X153.521 Y116.548
G01 X156.431 Y117.724
G01 X159.306 Y118.947
G01 X162.147 Y120.243
G01 X164.966 Y121.605
G01 X167.748 Y123.011
G01 X170.505 Y124.481
G01 X173.225 Y126.022
G01 X175.905 Y127.605
G01 X178.571 Y129.273
G01 X181.171 Y130.967
G01 X183.754 Y132.744
G01 X186.295 Y134.561
G01 X188.793 Y136.445
G01 X191.248 Y138.367
G01 X193.659 Y140.353
G01 X196.036 Y142.399
G01 X198.357 Y144.485
G01 X200.632 Y146.606
G01 X202.873 Y148.811
G01 X205.046 Y151.031
G01 X207.183 Y153.333
G01 X209.263 Y155.643
G01 X211.296 Y158.011
G01 X213.273 Y160.438
G01 X215.202 Y162.893
G01 X217.076 Y165.406
G01 X218.894 Y167.948
G01 X220.657 Y170.519
G01 X222.358 Y173.145
G01 X224.005 Y175.797
G01 X225.592 Y178.475
G01 X227.121 Y181.205
G01 X228.592 Y183.958
G01 X230.003 Y186.761
G01 X231.347 Y189.563
G01 X231.698 Y190.318
G01 X233.213 Y189.874
G01 X232.916 Y189.231
G01 X231.574 Y186.416
G01 X230.173 Y183.623
G01 X228.712 Y180.853
G01 X227.195 Y178.131
G01 X225.616 Y175.436
G01 X223.971 Y172.768
G01 X222.278 Y170.150
G01 X220.526 Y167.560
G01 X218.716 Y164.999
G01 X216.855 Y162.492
G01 X214.945 Y160.038
G01 X212.977 Y157.591
G01 X210.958 Y155.227
G01 X208.881 Y152.870
G01 X206.775 Y150.591
G01 X204.600 Y148.326
G01 X202.387 Y146.144
G01 X200.116 Y143.974
G01 X197.808 Y141.889
G01 X195.443 Y139.817
G01 X193.053 Y137.827
G01 X190.608 Y135.880
G01 X188.140 Y133.987
G01 X185.606 Y132.145
G01 X183.051 Y130.358
G01 X180.442 Y128.617
G01 X177.804 Y126.940
G01 X175.137 Y125.325
G01 X172.417 Y123.760
G01 X169.696 Y122.272
G01 X166.910 Y120.814
G01 X164.114 Y119.442
G01 X161.281 Y118.114
G01 X158.412 Y116.860
G01 X155.536 Y115.663
G01 X152.626 Y114.542
G01 X149.683 Y113.467
G01 X146.723 Y112.458
G01 X143.746 Y111.516
G01 X140.753 Y110.642
G01 X137.732 Y109.815
G01 X137.257 Y109.683
G01 X139.867 Y110.002
G01 X142.978 Y110.372
G01 X146.074 Y110.726
G01 X146.690 Y110.798
G01 X149.071 Y111.591
G01 X152.011 Y112.645
G01 X154.946 Y113.756
G01 X157.834 Y114.923
G01 X160.700 Y116.155
G01 X163.545 Y117.453
G01 X166.353 Y118.796
G01 X169.149 Y120.225
G01 X171.907 Y121.697
G01 X174.626 Y123.213
G01 X177.316 Y124.822
G01 X179.978 Y126.465
G01 X182.586 Y128.156
G01 X185.174 Y129.932
G01 X187.708 Y131.726
G01 X190.220 Y133.604
G01 X192.686 Y135.520
G01 X195.118 Y137.498
G01 X197.492 Y139.518
G01 X199.829 Y141.597
G01 X202.118 Y143.712
G01 X204.369 Y145.886
G01 X206.560 Y148.098
G01 X208.711 Y150.366
G01 X210.821 Y152.691
G01 X212.871 Y155.051
G01 X214.869 Y157.443
G01 X216.824 Y159.888
G01 X218.718 Y162.366
G01 X220.568 Y164.896
G01 X222.356 Y167.456
G01 X224.083 Y170.046
G01 X225.764 Y172.685
G01 X227.385 Y175.350
G01 X228.951 Y178.066
G01 X230.458 Y180.807
G01 X231.904 Y183.571
G01 X233.290 Y186.357
G01 X234.618 Y189.190
G01 X234.746 Y189.467
G01 X236.294 Y189.098
G01 X235.788 Y188.008
G01 X234.445 Y185.165
G01 X233.056 Y182.391
G01 X231.595 Y179.617
G01 X230.083 Y176.889
G01 X228.506 Y174.188
G01 X226.872 Y171.512
G01 X225.195 Y168.883
G01 X223.446 Y166.286
G01 X221.656 Y163.737
G01 X219.811 Y161.217
G01 X217.903 Y158.729
G01 X215.957 Y156.292
G01 X213.957 Y153.913
G01 X211.895 Y151.541
G01 X209.798 Y149.250
G01 X207.640 Y146.968
G01 X205.441 Y144.743
G01 X203.189 Y142.581
G01 X200.899 Y140.451
G01 X198.570 Y138.379
G01 X196.191 Y136.372
G01 X193.766 Y134.374
G01 X191.304 Y132.466
G01 X188.808 Y130.591
G01 X186.266 Y128.784
G01 X183.680 Y127.017
G01 X181.074 Y125.307
G01 X178.413 Y123.645
G01 X175.722 Y122.047
G01 X173.003 Y120.513
G01 X170.269 Y119.036
G01 X167.484 Y117.610
G01 X164.673 Y116.250
G01 X161.825 Y114.934
G01 X158.967 Y113.705
G01 X156.075 Y112.522
G01 X155.768 Y112.398
G01 X158.482 Y113.038
G01 X161.536 Y113.750
G01 X164.489 Y114.442
G01 X164.570 Y114.480
G01 X167.387 Y115.817
G01 X170.166 Y117.228
G01 X172.932 Y118.696
G01 X175.658 Y120.208
G01 X178.355 Y121.784
G01 X181.022 Y123.425
G01 X183.646 Y125.107
G01 X186.238 Y126.853
G01 X188.797 Y128.662
G01 X191.310 Y130.511
G01 X193.799 Y132.416
G01 X196.229 Y134.366
G01 X198.622 Y136.376
G01 X200.977 Y138.419
G01 X203.292 Y140.523
G01 X205.555 Y142.690
G01 X207.778 Y144.888
G01 X209.948 Y147.122
G01 X212.074 Y149.412
G01 X214.146 Y151.737
G01 X216.183 Y154.114
G01 X218.162 Y156.550
G01 X220.086 Y158.990
G01 X221.969 Y161.508
G01 X223.787 Y164.033
G01 X225.554 Y166.609
G01 X227.270 Y169.212
G01 X228.933 Y171.865
G01 X230.535 Y174.545
G01 X232.090 Y177.273
G01 X233.576 Y180.001
G01 X235.006 Y182.777
G01 X236.384 Y185.599
G01 X237.698 Y188.417
G01 X237.857 Y188.767
G01 X239.441 Y188.474
G01 X238.978 Y187.464
G01 X237.654 Y184.631
G01 X236.274 Y181.818
G01 X234.836 Y179.052
G01 X233.339 Y176.310
G01 X231.789 Y173.590
G01 X230.181 Y170.921
G01 X228.517 Y168.277
G01 X226.797 Y165.658
G01 X225.031 Y163.091
G01 X223.204 Y160.552
G01 X221.326 Y158.042
G01 X219.396 Y155.586
G01 X217.425 Y153.183
G01 X215.399 Y150.786
G01 X213.323 Y148.472
G01 X211.193 Y146.165
G01 X209.028 Y143.912
G01 X206.807 Y141.722
G01 X204.545 Y139.564
G01 X202.240 Y137.465
G01 X199.896 Y135.399
G01 X197.500 Y133.399
G01 X195.067 Y131.432
G01 X192.596 Y129.527
G01 X190.090 Y127.656
G01 X187.536 Y125.854
G01 X184.960 Y124.108
G01 X182.328 Y122.411
G01 X179.664 Y120.748
G01 X176.981 Y119.173
G01 X174.257 Y117.640
G01 X172.918 Y116.910
G01 X174.445 Y117.446
G01 X177.391 Y118.488
G01 X180.347 Y119.528
G01 X181.073 Y119.793
G01 X183.064 Y121.008
G01 X185.690 Y122.725
G01 X188.273 Y124.454
G01 X190.831 Y126.270
G01 X193.343 Y128.126
G01 X195.818 Y130.016
G01 X198.244 Y131.974
G01 X200.641 Y133.989
G01 X203.000 Y136.036
G01 X205.316 Y138.145
G01 X207.579 Y140.291
G01 X209.808 Y142.492
G01 X211.983 Y144.729
G01 X214.121 Y147.021
G01 X216.202 Y149.348
G01 X218.235 Y151.705
G01 X220.218 Y154.119
G01 X222.160 Y156.559
G01 X224.049 Y159.055
G01 X225.884 Y161.580
G01 X227.672 Y164.156
G01 X229.404 Y166.760
G01 X231.078 Y169.391
G01 X232.700 Y172.072
G01 X234.263 Y174.753
G01 X235.782 Y177.506
G01 X237.233 Y180.259
G01 X238.635 Y183.058
G01 X239.970 Y185.880
G01 X241.038 Y188.222
G01 X241.570 Y188.147
G01 X242.653 Y188.009
G01 X241.820 Y186.172
G01 X240.498 Y183.324
G01 X239.118 Y180.522
G01 X237.681 Y177.743
G01 X236.194 Y175.010
G01 X234.649 Y172.302
G01 X233.047 Y169.618
G01 X231.390 Y166.960
G01 X229.678 Y164.353
G01 X227.916 Y161.772
G01 X226.106 Y159.217
G01 X224.237 Y156.717
G01 X222.324 Y154.244
G01 X220.365 Y151.825
G01 X218.345 Y149.440
G01 X216.286 Y147.081
G01 X214.176 Y144.781
G01 X212.019 Y142.513
G01 X209.824 Y140.300
G01 X207.575 Y138.124
G01 X205.291 Y136.004
G01 X202.954 Y133.921
G01 X200.576 Y131.873
G01 X198.166 Y129.909
G01 X195.709 Y127.956
G01 X193.222 Y126.089
G01 X190.700 Y124.256
G01 X188.957 Y123.037
G01 X189.862 Y123.464
G01 X192.677 Y124.799
G01 X195.502 Y126.161
G01 X196.569 Y126.650
G01 X198.099 Y127.844
G01 X200.529 Y129.808
G01 X202.930 Y131.830
G01 X205.277 Y133.890
G01 X207.583 Y135.985
G01 X209.843 Y138.140
G01 X212.070 Y140.324
G01 X214.247 Y142.568
G01 X216.386 Y144.868
G01 X218.467 Y147.176
G01 X220.506 Y149.540
G01 X222.500 Y151.959
G01 X224.441 Y154.408
G01 X226.327 Y156.887
G01 X228.172 Y159.418
G01 X229.968 Y161.976
G01 X231.704 Y164.562
G01 X233.391 Y167.199
G01 X235.023 Y169.863
G01 X236.604 Y172.550
G01 X238.130 Y175.287
G01 X239.606 Y178.047
G01 X241.016 Y180.831
G01 X242.377 Y183.636
G01 X243.681 Y186.489
G01 X244.280 Y187.838
G01 X245.906 Y187.734
G01 X245.930 Y187.733
G01 X244.678 Y184.892
G01 X243.356 Y182.049
G01 X241.974 Y179.254
G01 X240.548 Y176.480
G01 X239.060 Y173.731
G01 X237.514 Y171.006
G01 X235.925 Y168.329
G01 X234.276 Y165.679
G01 X232.569 Y163.055
G01 X230.815 Y160.457
G01 X229.014 Y157.911
G01 X227.162 Y155.392
G01 X225.259 Y152.928
G01 X223.302 Y150.468
G01 X221.305 Y148.088
G01 X219.258 Y145.712
G01 X217.156 Y143.395
G01 X215.023 Y141.131
G01 X212.841 Y138.899
G01 X210.614 Y136.701
G01 X208.337 Y134.563
G01 X206.029 Y132.455
G01 X203.959 Y130.647
G01 X204.282 Y130.845
G01 X206.941 Y132.464
G01 X209.621 Y134.108
G01 X211.091 Y135.004
G01 X212.099 Y135.958
G01 X214.313 Y138.155
G01 X216.499 Y140.406
G01 X218.624 Y142.693
G01 X220.710 Y145.009
G01 X222.760 Y147.379
G01 X224.755 Y149.781
G01 X226.695 Y152.214
G01 X228.593 Y154.700
G01 X230.440 Y157.214
G01 X232.250 Y159.780
G01 X233.995 Y162.375
G01 X235.692 Y164.996
G01 X237.337 Y167.643
G01 X238.932 Y170.340
G01 X240.468 Y173.063
G01 X241.959 Y175.809
G01 X243.385 Y178.581
G01 X244.763 Y181.375
G01 X246.084 Y184.216
G01 X247.352 Y187.081
G01 X247.594 Y187.646
G01 X249.272 Y187.604
G01 X248.947 Y186.834
G01 X247.690 Y183.965
G01 X246.377 Y181.145
G01 X245.006 Y178.324
G01 X243.584 Y175.551
G01 X242.109 Y172.802
G01 X240.585 Y170.078
G01 X239.000 Y167.379
G01 X237.365 Y164.706
G01 X235.680 Y162.084
G01 X233.944 Y159.488
G01 X232.151 Y156.921
G01 X230.317 Y154.405
G01 X228.426 Y151.894
G01 X226.495 Y149.461
G01 X224.511 Y147.033
G01 X222.488 Y144.658
G01 X220.411 Y142.316
G01 X218.287 Y140.031
G01 X217.989 Y139.701
G01 X217.622 Y139.470
G01 X223.132 Y143.022
G01 X225.150 Y145.360
G01 X227.123 Y147.727
G01 X229.055 Y150.148
G01 X230.938 Y152.598
G01 X232.774 Y155.101
G01 X234.566 Y157.631
G01 X236.310 Y160.187
G01 X237.995 Y162.772
G01 X239.640 Y165.407
G01 X241.225 Y168.043
G01 X242.769 Y170.729
G01 X244.250 Y173.441
G01 X245.688 Y176.201
G01 X247.067 Y178.961
G01 X248.399 Y181.769
G01 X249.675 Y184.576
