;  Created by Sandify
;  https://sandify.org
;  Version: 0.2.6
;
;  Machine type: Rectangular
;    Min X (mm): 0
;    Max X (mm): 500
;    Min Y (mm): 0
;    Max Y (mm): 500
;  Content type: shape
;  Layer:
;    Shape: FileImport
;    Name: Muncombe Hill 7-14-2018.thr
;    From file:: Muncombe Hill 7-14-2018.thr
;    Aspect Ratio: true
;    Comments: 
;    Visible: true
;    Initial width: 10
;    Initial height: 10
;    X offset: 0
;    Y offset: 0
;    Rotate (degrees): 0
;    Reverse path: false
;    Fine tuning:
;      Connect to next layer: line
;      Draw portion of path (%): 100
;      Backtrack at end (%): 0
;      Rotate starting point (%): 0
;  Reverse export path: false
;
; File name: 'Muncombe Hill (C C)'
; File type: gcode
;

G01 X250.000 Y250.000
G01 X134.300 Y250.210
G01 X134.300 Y250.186
G01 X134.300 Y250.059
G01 X134.300 Y250.024
G01 X134.300 Y250.001
G01 X134.300 Y249.943
G01 X134.589 Y244.274
G01 X134.598 Y244.157
G01 X135.112 Y239.969
G01 X136.004 Y235.028
G01 X136.782 Y231.777
G01 X137.882 Y228.032
G01 X138.961 Y224.856
G01 X139.417 Y223.665
G01 X139.726 Y221.091
G01 X140.347 Y217.124
G01 X141.147 Y213.372
G01 X142.291 Y209.066
G01 X144.068 Y203.909
G01 X144.958 Y201.674
G01 X146.770 Y197.694
G01 X148.171 Y194.965
G01 X149.121 Y193.242
G01 X149.440 Y192.678
G01 X149.606 Y192.439
G01 X149.692 Y192.289
G01 X149.779 Y192.138
G01 X149.373 Y192.092
G01 X148.362 Y191.996
G01 X147.277 Y191.880
G01 X146.295 Y191.789
G01 X144.636 Y191.686
G01 X143.543 Y191.858
G01 X142.694 Y192.006
G01 X139.348 Y193.264
G01 X136.527 Y194.543
G01 X133.239 Y196.283
G01 X130.258 Y198.114
G01 X127.374 Y200.140
G01 X125.460 Y201.640
G01 X120.344 Y201.731
G01 X115.875 Y202.164
G01 X111.641 Y202.919
G01 X107.848 Y203.870
G01 X103.840 Y205.189
G01 X97.480 Y207.988
G01 X91.802 Y211.355
G01 X87.599 Y214.435
G01 X85.284 Y216.441
G01 X81.082 Y216.411
G01 X75.546 Y217.120
G01 X69.462 Y218.881
G01 X61.653 Y222.980
G01 X56.315 Y227.394
G01 X52.193 Y225.247
G01 X46.410 Y223.365
G01 X38.144 Y222.563
G01 X27.598 Y224.583
G01 X21.336 Y227.683
G01 X17.651 Y230.392
G01 X14.290 Y233.665
G01 X11.324 Y237.556
G01 X9.072 Y241.591
G01 X7.225 Y246.506
G01 X6.277 Y250.953
G01 X5.921 Y256.863
G01 X10.994 Y262.346
G01 X16.673 Y261.796
G01 X19.642 Y258.760
G01 X21.622 Y255.736
G01 X23.697 Y254.597
G01 X25.429 Y254.944
G01 X25.614 Y256.309
G01 X25.646 Y256.555
G01 X25.827 Y256.752
G01 X26.204 Y256.808
G01 X26.549 Y256.641
G01 X26.861 Y256.207
G01 X26.972 Y255.669
G01 X26.756 Y254.982
G01 X26.294 Y254.455
G01 X25.487 Y254.067
G01 X24.587 Y254.060
G01 X24.065 Y254.228
G01 X23.594 Y254.486
G01 X22.837 Y255.296
G01 X22.576 Y255.871
G01 X22.418 Y256.490
G01 X22.387 Y257.129
G01 X22.507 Y257.763
G01 X22.757 Y258.437
G01 X23.156 Y259.058
G01 X23.678 Y259.582
G01 X24.272 Y260.009
G01 X25.036 Y260.313
G01 X25.845 Y260.478
G01 X26.671 Y260.484
G01 X27.489 Y260.312
G01 X28.349 Y259.961
G01 X29.101 Y259.418
G01 X29.749 Y258.751
G01 X30.245 Y257.983
G01 X30.612 Y257.025
G01 X30.783 Y256.032
G01 X30.757 Y255.002
G01 X30.537 Y254.019
G01 X30.070 Y252.994
G01 X29.410 Y252.098
G01 X28.604 Y251.331
G01 X27.651 Y250.736
G01 X26.500 Y250.338
G01 X25.300 Y250.160
G01 X24.100 Y250.206
G01 X22.926 Y250.502
G01 X21.727 Y251.053
G01 X20.682 Y251.837
G01 X19.817 Y252.811
G01 X19.134 Y253.951
G01 X18.685 Y255.254
G01 X18.495 Y256.649
G01 X18.590 Y258.059
G01 X18.917 Y259.413
G01 X19.577 Y260.771
G01 X20.511 Y261.947
G01 X21.641 Y262.941
G01 X22.939 Y263.711
G01 X24.447 Y264.209
G01 X26.013 Y264.402
G01 X27.609 Y264.300
G01 X29.161 Y263.889
G01 X30.668 Y263.134
G01 X32.010 Y262.091
G01 X33.118 Y260.790
G01 X33.951 Y259.320
G01 X34.510 Y257.634
G01 X34.705 Y255.860
G01 X34.589 Y254.074
G01 X34.113 Y252.334
G01 X33.251 Y250.674
G01 X32.076 Y249.196
G01 X30.634 Y247.962
G01 X28.995 Y247.041
G01 X27.103 Y246.436
G01 X25.132 Y246.224
G01 X23.154 Y246.395
G01 X21.246 Y246.914
G01 X19.410 Y247.881
G01 X17.801 Y249.190
G01 X16.451 Y250.773
G01 X15.439 Y252.583
G01 X14.796 Y254.660
G01 X14.574 Y256.832
G01 X14.747 Y258.994
G01 X15.362 Y261.086
G01 X15.838 Y262.120
G01 X16.417 Y263.097
G01 X17.850 Y264.857
G01 X19.602 Y266.319
G01 X21.586 Y267.395
G01 X22.697 Y267.814
G01 X23.849 Y268.111
G01 X25.015 Y268.266
G01 X26.199 Y268.328
G01 X28.564 Y268.112
G01 X29.696 Y267.842
G01 X30.820 Y267.464
G01 X31.932 Y266.937
G01 X32.987 Y266.309
G01 X33.985 Y265.561
G01 X34.904 Y264.738
G01 X35.745 Y263.819
G01 X36.486 Y262.850
G01 X37.126 Y261.786
G01 X37.643 Y260.672
G01 X38.087 Y259.481
G01 X38.410 Y258.237
G01 X38.590 Y256.960
G01 X38.652 Y255.689
G01 X38.596 Y254.400
G01 X38.398 Y253.134
G01 X38.108 Y251.888
G01 X37.676 Y250.682
G01 X37.101 Y249.470
G01 X36.431 Y248.336
G01 X35.617 Y247.280
G01 X34.732 Y246.299
G01 X33.749 Y245.396
G01 X32.667 Y244.611
G01 X31.535 Y243.906
G01 X30.351 Y243.345
G01 X29.040 Y242.885
G01 X27.700 Y242.553
G01 X26.331 Y242.350
G01 X24.957 Y242.303
G01 X23.579 Y242.369
G01 X22.222 Y242.552
G01 X20.885 Y242.898
G01 X19.596 Y243.365
G01 X18.303 Y243.977
G01 X17.085 Y244.714
G01 X15.942 Y245.555
G01 X14.901 Y246.523
G01 X13.937 Y247.595
G01 X13.078 Y248.747
G01 X12.350 Y249.955
G01 X11.728 Y251.242
G01 X11.239 Y252.629
G01 X10.910 Y254.068
G01 X10.689 Y255.532
G01 X10.627 Y256.994
G01 X10.725 Y258.477
G01 X10.931 Y259.930
G01 X11.296 Y261.374
G01 X11.791 Y262.759
G01 X12.445 Y264.130
G01 X13.226 Y265.415
G01 X14.161 Y266.633
G01 X15.196 Y267.764
G01 X16.329 Y268.783
G01 X17.556 Y269.668
G01 X18.854 Y270.466
G01 X20.243 Y271.107
G01 X21.721 Y271.616
G01 X23.240 Y271.999
G01 X24.793 Y272.212
G01 X26.355 Y272.261
G01 X27.931 Y272.194
G01 X29.490 Y271.949
G01 X31.008 Y271.555
G01 X32.490 Y271.036
G01 X33.954 Y270.327
G01 X35.332 Y269.483
G01 X36.626 Y268.505
G01 X37.812 Y267.398
G01 X38.894 Y266.183
G01 X39.851 Y264.885
G01 X40.659 Y263.482
G01 X41.347 Y262.034
G01 X41.913 Y260.457
G01 X42.288 Y258.835
G01 X42.524 Y257.184
G01 X42.573 Y255.521
G01 X42.486 Y253.842
G01 X42.237 Y252.205
G01 X41.826 Y250.585
G01 X41.252 Y249.021
G01 X40.490 Y247.467
G01 X39.588 Y246.025
G01 X38.568 Y244.652
G01 X37.378 Y243.388
G01 X36.115 Y242.256
G01 X34.728 Y241.236
G01 X33.239 Y240.372
G01 X31.695 Y239.647
G01 X30.022 Y239.061
G01 X28.315 Y238.664
G01 X26.550 Y238.417
G01 X24.800 Y238.372
G01 X23.018 Y238.462
G01 X21.277 Y238.740
G01 X19.579 Y239.188
G01 X17.925 Y239.785
G01 X16.290 Y240.579
G01 X14.752 Y241.530
G01 X13.314 Y242.639
G01 X12.004 Y243.861
G01 X10.798 Y245.218
G01 X9.723 Y246.687
G01 X8.806 Y248.266
G01 X8.050 Y249.906
G01 X7.431 Y251.652
G01 X7.000 Y253.454
G01 X6.758 Y255.306
G01 X6.680 Y257.158
G01 X6.793 Y259.030
G01 X7.093 Y260.868
G01 X7.556 Y262.670
G01 X8.204 Y264.407
G01 X9.064 Y266.121
G01 X10.082 Y267.765
G01 X11.278 Y269.285
G01 X12.575 Y270.687
G01 X14.018 Y271.941
G01 X15.558 Y273.075
G01 X17.186 Y274.021
G01 X18.877 Y274.804
G01 X22.426 Y275.736
G01 X26.880 Y275.956
G01 X32.069 Y274.911
G01 X35.871 Y273.132
G01 X39.271 Y270.507
G01 X41.408 Y268.091
G01 X43.096 Y265.383
G01 X44.200 Y262.840
G01 X44.927 Y260.162
G01 X45.303 Y257.252
G01 X45.209 Y253.750
G01 X45.076 Y249.490
G01 X46.559 Y244.162
G01 X47.376 Y241.548
G01 X48.773 Y238.156
G01 X50.269 Y235.255
G01 X51.819 Y232.817
G01 X54.143 Y229.757
G01 X56.315 Y227.394
G01 X58.980 Y225.184
G01 X65.551 Y220.936
G01 X72.512 Y217.998
G01 X78.311 Y216.769
G01 X83.589 Y216.373
G01 X85.284 Y216.441
G01 X83.658 Y217.959
G01 X82.058 Y219.580
G01 X79.701 Y222.222
G01 X77.212 Y225.441
G01 X75.174 Y228.443
G01 X73.424 Y231.429
G01 X71.660 Y234.932
G01 X70.447 Y237.683
G01 X69.337 Y240.744
G01 X68.381 Y243.806
G01 X67.874 Y245.794
G01 X67.465 Y247.629
G01 X67.075 Y249.783
G01 X66.423 Y255.162
G01 X71.468 Y260.655
G01 X77.145 Y260.108
G01 X80.147 Y257.072
G01 X82.099 Y254.049
G01 X84.175 Y252.904
G01 X85.932 Y253.251
G01 X86.115 Y254.608
G01 X86.122 Y254.854
G01 X86.303 Y255.045
G01 X86.680 Y255.099
G01 X87.025 Y254.941
G01 X87.362 Y254.508
G01 X87.448 Y253.969
G01 X87.258 Y253.290
G01 X86.773 Y252.744
G01 X85.967 Y252.380
G01 X85.067 Y252.377
G01 X84.544 Y252.533
G01 X84.074 Y252.806
G01 X83.339 Y253.586
G01 X83.052 Y254.160
G01 X82.893 Y254.782
G01 X82.888 Y255.418
G01 X82.985 Y256.050
G01 X83.236 Y256.743
G01 X83.638 Y257.360
G01 X84.162 Y257.885
G01 X84.759 Y258.304
G01 X85.526 Y258.628
G01 X86.335 Y258.783
G01 X87.162 Y258.787
G01 X87.979 Y258.613
G01 X88.837 Y258.261
G01 X89.586 Y257.724
G01 X90.231 Y257.068
G01 X90.724 Y256.280
G01 X91.090 Y255.343
G01 X91.259 Y254.336
G01 X91.234 Y253.305
G01 X91.017 Y252.307
G01 X90.555 Y251.293
G01 X89.901 Y250.402
G01 X89.075 Y249.632
G01 X88.128 Y249.047
G01 X86.981 Y248.632
G01 X85.782 Y248.458
G01 X84.582 Y248.513
G01 X83.404 Y248.802
G01 X82.226 Y249.364
G01 X81.175 Y250.154
G01 X80.304 Y251.122
G01 X79.615 Y252.234
G01 X79.162 Y253.573
G01 X78.972 Y254.963
G01 X79.068 Y256.363
G01 X79.400 Y257.718
G01 X80.067 Y259.068
G01 X80.986 Y260.257
G01 X82.126 Y261.249
G01 X83.407 Y262.001
G01 X84.923 Y262.505
G01 X86.494 Y262.715
G01 X88.090 Y262.608
G01 X89.637 Y262.181
G01 X91.160 Y261.426
G01 X92.492 Y260.381
G01 X93.589 Y259.099
G01 X94.437 Y257.630
G01 X94.989 Y255.942
G01 X95.206 Y254.151
G01 X95.068 Y252.372
G01 X94.576 Y250.639
G01 X93.728 Y248.970
G01 X92.545 Y247.498
G01 X91.119 Y246.267
G01 X89.467 Y245.345
G01 X87.585 Y244.738
G01 X85.616 Y244.526
G01 X83.635 Y244.693
G01 X81.743 Y245.222
G01 X79.893 Y246.191
G01 X78.268 Y247.494
G01 X76.927 Y249.085
G01 X75.927 Y250.890
G01 X75.275 Y252.973
G01 X75.050 Y255.129
G01 X75.227 Y257.294
G01 X75.827 Y259.381
G01 X76.312 Y260.418
G01 X76.899 Y261.391
G01 X78.329 Y263.160
G01 X80.078 Y264.617
G01 X82.057 Y265.700
G01 X83.177 Y266.117
G01 X84.311 Y266.409
G01 X85.483 Y266.575
G01 X86.670 Y266.637
G01 X89.036 Y266.428
G01 X90.189 Y266.149
G01 X91.306 Y265.764
G01 X92.435 Y265.238
G01 X93.479 Y264.600
G01 X94.467 Y263.865
G01 X95.374 Y263.037
G01 X96.228 Y262.129
G01 X96.955 Y261.148
G01 X97.609 Y260.089
G01 X98.141 Y258.987
G01 X98.575 Y257.777
G01 X98.891 Y256.534
G01 X99.067 Y255.271
G01 X99.128 Y253.986
G01 X99.074 Y252.704
G01 X98.882 Y251.437
G01 X98.575 Y250.183
G01 X98.153 Y248.984
G01 X97.591 Y247.776
G01 X96.912 Y246.649
G01 X96.113 Y245.584
G01 X95.219 Y244.598
G01 X94.227 Y243.705
G01 X93.160 Y242.908
G01 X92.016 Y242.223
G01 X90.820 Y241.637
G01 X89.517 Y241.182
G01 X88.184 Y240.849
G01 X86.817 Y240.658
G01 X85.444 Y240.595
G01 X84.062 Y240.666
G01 X82.700 Y240.858
G01 X81.355 Y241.191
G01 X80.080 Y241.652
G01 X78.774 Y242.274
G01 X77.566 Y243.015
G01 X76.433 Y243.872
G01 X75.376 Y244.832
G01 X74.423 Y245.893
G01 X73.575 Y247.038
G01 X72.833 Y248.266
G01 X72.226 Y249.540
G01 X71.727 Y250.929
G01 X71.391 Y252.360
G01 X71.191 Y253.829
G01 X71.128 Y255.298
G01 X71.204 Y256.782
G01 X71.415 Y258.241
G01 X71.762 Y259.672
G01 X72.268 Y261.053
G01 X72.935 Y262.417
G01 X73.709 Y263.727
G01 X74.636 Y264.944
G01 X75.662 Y266.051
G01 X76.815 Y267.081
G01 X78.038 Y267.985
G01 X79.329 Y268.765
G01 X80.708 Y269.402
G01 X82.204 Y269.928
G01 X83.708 Y270.289
G01 X85.273 Y270.517
G01 X86.842 Y270.570
G01 X88.418 Y270.486
G01 X89.977 Y270.256
G01 X91.491 Y269.871
G01 X92.961 Y269.336
G01 X94.437 Y268.633
G01 X95.797 Y267.782
G01 X97.095 Y266.797
G01 X98.285 Y265.699
G01 X99.370 Y264.491
G01 X100.329 Y263.177
G01 X101.142 Y261.801
G01 X101.835 Y260.331
G01 X102.384 Y258.751
G01 X102.773 Y257.133
G01 X103.002 Y255.487
G01 X103.049 Y253.808
G01 X102.966 Y252.148
G01 X102.701 Y250.502
G01 X102.304 Y248.879
G01 X101.724 Y247.318
G01 X100.985 Y245.768
G01 X100.083 Y244.317
G01 X99.040 Y242.947
G01 X97.877 Y241.687
G01 X96.590 Y240.555
G01 X95.203 Y239.537
G01 X93.710 Y238.667
G01 X92.160 Y237.935
G01 X90.500 Y237.359
G01 X88.776 Y236.963
G01 X87.040 Y236.724
G01 X85.264 Y236.662
G01 X83.500 Y236.771
G01 X81.773 Y237.040
G01 X80.060 Y237.489
G01 X78.413 Y238.092
G01 X76.781 Y238.883
G01 X75.245 Y239.837
G01 X73.808 Y240.938
G01 X72.473 Y242.168
G01 X71.267 Y243.529
G01 X70.194 Y245.002
G01 X69.283 Y246.550
G01 X68.509 Y248.205
G01 X67.925 Y249.947
G01 X67.484 Y251.772
G01 X67.236 Y253.603
G01 X67.182 Y255.470
G01 X67.297 Y257.332
G01 X67.580 Y259.167
G01 X68.055 Y260.968
G01 X68.695 Y262.714
G01 X69.551 Y264.432
G01 X70.568 Y266.068
G01 X71.740 Y267.582
G01 X73.064 Y268.971
G01 X74.488 Y270.240
G01 X76.032 Y271.367
G01 X77.665 Y272.322
G01 X79.358 Y273.110
G01 X80.599 Y273.512
G01 X83.282 Y274.092
G01 X88.396 Y274.161
G01 X92.553 Y273.218
G01 X96.315 Y271.456
G01 X99.680 Y268.875
G01 X102.556 Y265.436
G01 X104.094 Y262.610
G01 X105.183 Y259.457
G01 X105.790 Y255.094
G01 X105.326 Y250.624
G01 X105.098 Y247.422
G01 X105.046 Y244.070
G01 X105.211 Y240.504
G01 X105.937 Y234.921
G01 X107.524 Y228.425
G01 X108.706 Y224.932
G01 X111.512 Y218.727
G01 X113.452 Y215.353
G01 X116.697 Y210.701
G01 X119.416 Y207.422
G01 X122.792 Y203.985
G01 X127.374 Y200.140
G01 X130.258 Y198.114
G01 X134.886 Y195.414
G01 X139.348 Y193.264
G01 X141.029 Y192.631
G01 X142.694 Y192.006
G01 X142.700 Y191.995
G01 X142.706 Y191.984
G01 X142.761 Y191.986
G01 X144.649 Y191.611
G01 X146.468 Y191.736
G01 X148.302 Y191.949
G01 X149.787 Y192.023
G01 X152.940 Y187.296
G01 X152.980 Y187.239
G01 X155.520 Y183.869
G01 X158.763 Y180.036
G01 X161.062 Y177.609
G01 X163.887 Y174.916
G01 X166.410 Y172.705
G01 X167.400 Y171.902
G01 X168.955 Y169.827
G01 X171.476 Y166.702
G01 X174.045 Y163.853
G01 X177.189 Y160.695
G01 X181.305 Y157.118
G01 X183.194 Y155.628
G01 X186.754 Y153.087
G01 X189.331 Y151.424
G01 X191.015 Y150.407
G01 X191.574 Y150.078
G01 X191.836 Y149.954
G01 X191.986 Y149.867
G01 X192.137 Y149.780
G01 X191.808 Y149.536
G01 X190.981 Y148.948
G01 X190.100 Y148.305
G01 X189.295 Y147.735
G01 X187.909 Y146.816
G01 X186.877 Y146.418
G01 X186.068 Y146.122
G01 X182.540 Y145.539
G01 X179.458 Y145.236
G01 X175.741 Y145.099
G01 X172.243 Y145.195
G01 X168.733 Y145.507
G01 X166.325 Y145.849
G01 X161.849 Y143.369
G01 X157.763 Y141.510
G01 X153.718 Y140.047
G01 X149.957 Y138.974
G01 X145.827 Y138.113
G01 X138.920 Y137.356
G01 X132.319 Y137.433
G01 X127.139 Y137.999
G01 X124.131 Y138.579
G01 X120.508 Y136.452
G01 X115.359 Y134.298
G01 X109.209 Y132.781
G01 X100.397 Y132.426
G01 X93.567 Y133.580
G01 X91.070 Y129.660
G01 X87.004 Y125.138
G01 X80.246 Y120.311
G01 X70.089 Y116.805
G01 X63.130 Y116.341
G01 X58.584 Y116.845
G01 X54.037 Y117.999
G01 X49.523 Y119.885
G01 X45.555 Y122.253
G01 X41.498 Y125.587
G01 X38.453 Y128.964
G01 X35.190 Y133.904
G01 X36.841 Y141.189
G01 X42.035 Y143.552
G01 X46.124 Y142.407
G01 X49.351 Y140.778
G01 X51.717 Y140.829
G01 X53.044 Y141.996
G01 X52.521 Y143.271
G01 X52.426 Y143.500
G01 X52.484 Y143.761
G01 X52.783 Y143.997
G01 X53.165 Y144.025
G01 X53.653 Y143.806
G01 X54.018 Y143.395
G01 X54.174 Y142.692
G01 X54.038 Y142.005
G01 X53.533 Y141.265
G01 X52.756 Y140.809
G01 X52.220 Y140.694
G01 X51.684 Y140.682
G01 X50.623 Y141.005
G01 X50.109 Y141.372
G01 X49.663 Y141.829
G01 X49.317 Y142.367
G01 X49.104 Y142.976
G01 X48.983 Y143.685
G01 X49.018 Y144.422
G01 X49.208 Y145.137
G01 X49.509 Y145.804
G01 X50.019 Y146.449
G01 X50.637 Y146.996
G01 X51.349 Y147.415
G01 X52.144 Y147.675
G01 X53.064 Y147.801
G01 X53.986 Y147.707
G01 X54.881 Y147.453
G01 X55.695 Y147.036
G01 X56.492 Y146.390
G01 X57.136 Y145.615
G01 X57.629 Y144.710
G01 X57.930 Y143.749
G01 X58.039 Y142.628
G01 X57.915 Y141.522
G01 X57.600 Y140.454
G01 X57.072 Y139.463
G01 X56.275 Y138.542
G01 X55.324 Y137.788
G01 X54.262 Y137.228
G01 X53.097 Y136.897
G01 X51.784 Y136.775
G01 X50.487 Y136.932
G01 X49.250 Y137.343
G01 X48.089 Y137.988
G01 X47.048 Y138.892
G01 X46.187 Y140.005
G01 X45.542 Y141.262
G01 X45.170 Y142.610
G01 X45.062 Y144.116
G01 X45.283 Y145.601
G01 X45.765 Y147.028
G01 X46.504 Y148.343
G01 X47.561 Y149.528
G01 X48.820 Y150.479
G01 X50.254 Y151.188
G01 X51.804 Y151.609
G01 X53.486 Y151.708
G01 X55.170 Y151.476
G01 X56.780 Y150.904
G01 X58.226 Y150.066
G01 X59.564 Y148.866
G01 X60.619 Y147.427
G01 X61.411 Y145.822
G01 X61.869 Y144.077
G01 X61.953 Y142.209
G01 X61.675 Y140.342
G01 X61.043 Y138.552
G01 X60.084 Y136.934
G01 X58.748 Y135.465
G01 X57.146 Y134.296
G01 X55.348 Y133.455
G01 X53.424 Y132.970
G01 X51.363 Y132.870
G01 X49.315 Y133.199
G01 X47.354 Y133.895
G01 X45.573 Y134.956
G01 X43.978 Y136.434
G01 X42.699 Y138.203
G01 X41.768 Y140.162
G01 X41.255 Y142.281
G01 X41.150 Y143.415
G01 X41.163 Y144.550
G01 X41.524 Y146.791
G01 X42.310 Y148.933
G01 X43.490 Y150.858
G01 X44.243 Y151.776
G01 X45.092 Y152.608
G01 X46.025 Y153.326
G01 X47.019 Y153.972
G01 X49.175 Y154.967
G01 X50.291 Y155.299
G01 X51.452 Y155.534
G01 X52.679 Y155.633
G01 X53.907 Y155.617
G01 X55.145 Y155.468
G01 X56.353 Y155.215
G01 X57.540 Y154.840
G01 X58.667 Y154.371
G01 X59.753 Y153.770
G01 X60.758 Y153.063
G01 X61.737 Y152.254
G01 X62.639 Y151.339
G01 X63.433 Y150.322
G01 X64.123 Y149.252
G01 X64.719 Y148.108
G01 X65.180 Y146.913
G01 X65.553 Y145.689
G01 X65.781 Y144.428
G01 X65.889 Y143.091
G01 X65.876 Y141.775
G01 X65.699 Y140.452
G01 X65.423 Y139.161
G01 X65.024 Y137.887
G01 X64.478 Y136.667
G01 X63.851 Y135.489
G01 X63.106 Y134.412
G01 X62.200 Y133.358
G01 X61.206 Y132.400
G01 X60.122 Y131.540
G01 X58.955 Y130.812
G01 X57.729 Y130.181
G01 X56.451 Y129.679
G01 X55.132 Y129.292
G01 X53.781 Y129.051
G01 X52.356 Y128.935
G01 X50.933 Y128.965
G01 X49.523 Y129.121
G01 X48.137 Y129.439
G01 X46.766 Y129.885
G01 X45.446 Y130.454
G01 X44.212 Y131.136
G01 X43.030 Y131.939
G01 X41.913 Y132.896
G01 X40.908 Y133.977
G01 X39.985 Y135.135
G01 X39.200 Y136.371
G01 X38.544 Y137.703
G01 X37.996 Y139.065
G01 X37.589 Y140.497
G01 X37.326 Y141.945
G01 X37.206 Y143.459
G01 X37.241 Y144.962
G01 X37.441 Y146.485
G01 X37.772 Y147.982
G01 X38.243 Y149.431
G01 X38.864 Y150.810
G01 X39.589 Y152.151
G01 X40.471 Y153.401
G01 X41.497 Y154.581
G01 X42.620 Y155.671
G01 X43.859 Y156.632
G01 X45.187 Y157.456
G01 X46.586 Y158.186
G01 X48.058 Y158.753
G01 X49.570 Y159.171
G01 X51.113 Y159.462
G01 X52.735 Y159.581
G01 X54.351 Y159.539
G01 X55.960 Y159.339
G01 X57.541 Y158.973
G01 X59.086 Y158.462
G01 X60.564 Y157.816
G01 X61.964 Y157.004
G01 X63.284 Y156.095
G01 X64.563 Y155.012
G01 X65.698 Y153.795
G01 X66.729 Y152.483
G01 X67.603 Y151.068
G01 X68.366 Y149.570
G01 X68.969 Y148.027
G01 X69.423 Y146.419
G01 X69.709 Y144.778
G01 X69.826 Y143.051
G01 X69.765 Y141.351
G01 X69.568 Y139.652
G01 X69.170 Y137.962
G01 X68.642 Y136.351
G01 X67.951 Y134.774
G01 X67.093 Y133.281
G01 X66.119 Y131.882
G01 X64.963 Y130.537
G01 X63.683 Y129.340
G01 X62.278 Y128.244
G01 X60.785 Y127.329
G01 X59.197 Y126.517
G01 X57.550 Y125.887
G01 X55.855 Y125.425
G01 X54.125 Y125.115
G01 X52.312 Y124.986
G01 X50.505 Y125.041
G01 X48.705 Y125.282
G01 X46.959 Y125.685
G01 X45.236 Y126.257
G01 X43.571 Y126.992
G01 X41.987 Y127.901
G01 X40.512 Y128.943
G01 X39.103 Y130.146
G01 X37.829 Y131.490
G01 X36.693 Y132.974
G01 X35.700 Y134.539
G01 X34.861 Y136.216
G01 X34.203 Y137.958
G01 X33.702 Y139.750
G01 X33.395 Y141.578
G01 X33.283 Y143.493
G01 X33.342 Y145.426
G01 X33.618 Y147.340
G01 X34.040 Y149.202
G01 X34.663 Y151.010
G01 X35.430 Y152.763
G01 X36.367 Y154.395
G01 X37.440 Y155.919
G01 X40.047 Y158.501
G01 X43.794 Y160.918
G01 X48.811 Y162.607
G01 X52.993 Y162.968
G01 X57.249 Y162.395
G01 X60.309 Y161.371
G01 X63.125 Y159.870
G01 X65.352 Y158.220
G01 X67.321 Y156.263
G01 X69.102 Y153.932
G01 X70.771 Y150.852
G01 X72.785 Y147.096
G01 X76.734 Y143.223
G01 X78.749 Y141.368
G01 X81.654 Y139.130
G01 X84.389 Y137.381
G01 X86.962 Y136.028
G01 X90.505 Y134.541
G01 X93.567 Y133.580
G01 X96.980 Y132.999
G01 X104.795 Y132.605
G01 X112.273 Y133.525
G01 X117.929 Y135.377
G01 X122.697 Y137.672
G01 X124.131 Y138.579
G01 X121.964 Y139.081
G01 X119.768 Y139.685
G01 X116.406 Y140.794
G01 X112.641 Y142.337
G01 X109.375 Y143.918
G01 X106.366 Y145.629
G01 X103.087 Y147.781
G01 X100.661 Y149.557
G01 X98.169 Y151.652
G01 X95.810 Y153.826
G01 X94.377 Y155.294
G01 X93.106 Y156.679
G01 X91.691 Y158.349
G01 X88.436 Y162.681
G01 X90.059 Y169.961
G01 X95.249 Y172.326
G01 X99.367 Y171.198
G01 X102.569 Y169.556
G01 X104.940 Y169.603
G01 X106.288 Y170.781
G01 X105.767 Y172.048
G01 X105.650 Y172.264
G01 X105.711 Y172.521
G01 X106.011 Y172.756
G01 X106.389 Y172.792
G01 X106.898 Y172.585
G01 X107.242 Y172.161
G01 X107.417 Y171.478
G01 X107.269 Y170.763
G01 X106.753 Y170.045
G01 X105.976 Y169.592
G01 X105.445 Y169.466
G01 X104.901 Y169.467
G01 X103.874 Y169.774
G01 X103.339 Y170.128
G01 X102.890 Y170.588
G01 X102.568 Y171.136
G01 X102.335 Y171.732
G01 X102.207 Y172.457
G01 X102.246 Y173.192
G01 X102.438 Y173.910
G01 X102.745 Y174.570
G01 X103.247 Y175.235
G01 X103.871 Y175.774
G01 X104.585 Y176.191
G01 X105.379 Y176.448
G01 X106.298 Y176.572
G01 X107.216 Y176.482
G01 X108.102 Y176.237
G01 X108.923 Y175.801
G01 X109.708 Y175.172
G01 X110.358 Y174.385
G01 X110.853 Y173.479
G01 X111.163 Y172.506
G01 X111.270 Y171.397
G01 X111.149 Y170.298
G01 X110.820 Y169.219
G01 X110.291 Y168.238
G01 X109.505 Y167.306
G01 X108.554 Y166.556
G01 X107.487 Y166.003
G01 X106.323 Y165.665
G01 X105.022 Y165.562
G01 X103.717 Y165.721
G01 X102.478 Y166.123
G01 X101.317 Y166.757
G01 X100.264 Y167.675
G01 X99.404 Y168.784
G01 X98.787 Y170.045
G01 X98.397 Y171.384
G01 X98.300 Y172.886
G01 X98.501 Y174.375
G01 X98.993 Y175.805
G01 X99.726 Y177.096
G01 X100.786 Y178.291
G01 X102.042 Y179.259
G01 X103.478 Y179.963
G01 X105.024 Y180.382
G01 X106.728 Y180.475
G01 X108.404 Y180.236
G01 X109.995 Y179.675
G01 X111.463 Y178.826
G01 X112.786 Y177.640
G01 X113.869 Y176.198
G01 X114.639 Y174.588
G01 X115.072 Y172.855
G01 X115.180 Y170.972
G01 X114.891 Y169.105
G01 X114.271 Y167.327
G01 X113.302 Y165.702
G01 X111.976 Y164.235
G01 X110.377 Y163.067
G01 X108.577 Y162.221
G01 X106.674 Y161.733
G01 X104.587 Y161.647
G01 X102.529 Y161.964
G01 X100.573 Y162.671
G01 X98.804 Y163.734
G01 X97.198 Y165.212
G01 X95.924 Y166.967
G01 X94.995 Y168.930
G01 X94.472 Y171.038
G01 X94.373 Y172.178
G01 X94.395 Y173.314
G01 X94.748 Y175.561
G01 X95.534 Y177.697
G01 X96.708 Y179.625
G01 X97.468 Y180.546
G01 X98.304 Y181.365
G01 X99.237 Y182.096
G01 X100.234 Y182.743
G01 X102.387 Y183.745
G01 X103.525 Y184.080
G01 X104.685 Y184.305
G01 X105.926 Y184.414
G01 X107.149 Y184.384
G01 X108.372 Y184.241
G01 X109.571 Y183.977
G01 X110.765 Y183.617
G01 X111.886 Y183.132
G01 X112.981 Y182.542
G01 X113.993 Y181.853
G01 X114.973 Y181.022
G01 X115.869 Y180.104
G01 X116.653 Y179.098
G01 X117.348 Y178.015
G01 X117.943 Y176.878
G01 X118.409 Y175.686
G01 X118.771 Y174.446
G01 X119.005 Y173.197
G01 X119.122 Y171.870
G01 X119.097 Y170.553
G01 X118.938 Y169.232
G01 X118.657 Y167.931
G01 X118.244 Y166.662
G01 X117.719 Y165.438
G01 X117.071 Y164.273
G01 X116.327 Y163.167
G01 X115.427 Y162.122
G01 X114.438 Y161.167
G01 X113.351 Y160.318
G01 X112.192 Y159.577
G01 X110.961 Y158.948
G01 X109.685 Y158.433
G01 X108.354 Y158.048
G01 X107.019 Y157.810
G01 X105.577 Y157.696
G01 X104.161 Y157.733
G01 X102.751 Y157.910
G01 X101.356 Y158.212
G01 X100.000 Y158.654
G01 X98.693 Y159.222
G01 X97.437 Y159.915
G01 X96.273 Y160.714
G01 X95.147 Y161.668
G01 X94.140 Y162.739
G01 X93.232 Y163.911
G01 X92.444 Y165.152
G01 X91.767 Y166.475
G01 X91.221 Y167.844
G01 X90.806 Y169.257
G01 X90.553 Y170.706
G01 X90.449 Y172.220
G01 X90.464 Y173.742
G01 X90.658 Y175.259
G01 X90.994 Y176.732
G01 X91.477 Y178.200
G01 X92.084 Y179.595
G01 X92.812 Y180.915
G01 X93.688 Y182.157
G01 X94.721 Y183.360
G01 X95.842 Y184.425
G01 X97.084 Y185.404
G01 X98.416 Y186.235
G01 X99.823 Y186.950
G01 X101.288 Y187.530
G01 X102.791 Y187.954
G01 X104.332 Y188.226
G01 X105.962 Y188.355
G01 X107.565 Y188.298
G01 X109.182 Y188.093
G01 X110.762 Y187.738
G01 X112.305 Y187.235
G01 X113.786 Y186.589
G01 X115.185 Y185.791
G01 X116.520 Y184.864
G01 X117.786 Y183.770
G01 X118.931 Y182.564
G01 X119.953 Y181.253
G01 X120.833 Y179.823
G01 X121.590 Y178.343
G01 X122.184 Y176.785
G01 X122.652 Y175.181
G01 X122.931 Y173.539
G01 X123.057 Y171.840
G01 X123.009 Y170.120
G01 X122.791 Y168.411
G01 X122.414 Y166.739
G01 X121.866 Y165.116
G01 X121.174 Y163.540
G01 X120.316 Y162.040
G01 X119.339 Y160.632
G01 X118.190 Y159.302
G01 X116.895 Y158.097
G01 X115.511 Y157.022
G01 X114.004 Y156.081
G01 X112.421 Y155.293
G01 X110.792 Y154.663
G01 X109.083 Y154.195
G01 X107.355 Y153.893
G01 X105.547 Y153.763
G01 X103.739 Y153.821
G01 X101.944 Y154.056
G01 X100.173 Y154.453
G01 X98.448 Y155.029
G01 X96.783 Y155.769
G01 X95.220 Y156.653
G01 X93.722 Y157.700
G01 X92.345 Y158.917
G01 X91.050 Y160.277
G01 X89.920 Y161.738
G01 X88.940 Y163.328
G01 X88.109 Y164.998
G01 X87.436 Y166.729
G01 X86.947 Y168.526
G01 X86.629 Y170.358
G01 X86.511 Y172.274
G01 X86.573 Y174.199
G01 X86.832 Y176.096
G01 X87.284 Y177.961
G01 X87.875 Y179.788
G01 X88.656 Y181.521
G01 X89.592 Y183.164
G01 X90.665 Y184.693
G01 X91.539 Y185.661
G01 X93.572 Y187.505
G01 X97.966 Y190.122
G01 X102.038 Y191.384
G01 X106.178 Y191.739
G01 X110.382 Y191.186
G01 X114.592 Y189.646
G01 X117.337 Y187.967
G01 X119.857 Y185.782
G01 X122.563 Y182.307
G01 X124.397 Y178.203
G01 X125.800 Y175.316
G01 X127.432 Y172.387
G01 X129.357 Y169.382
G01 X132.777 Y164.910
G01 X137.400 Y160.077
G01 X140.170 Y157.644
G01 X145.702 Y153.673
G01 X149.069 Y151.721
G01 X154.206 Y149.315
G01 X158.200 Y147.834
G01 X162.842 Y146.545
G01 X168.733 Y145.507
G01 X172.243 Y145.195
G01 X177.602 Y145.170
G01 X182.540 Y145.539
G01 X184.313 Y145.831
G01 X186.068 Y146.122
G01 X186.078 Y146.116
G01 X186.089 Y146.110
G01 X186.136 Y146.139
G01 X187.948 Y146.764
G01 X189.578 Y147.887
G01 X190.882 Y148.803
G01 X192.159 Y149.796
G01 X197.212 Y147.208
G01 X197.349 Y147.142
G01 X201.243 Y145.489
G01 X205.968 Y143.791
G01 X209.173 Y142.839
G01 X212.966 Y141.919
G01 X216.256 Y141.266
G01 X217.515 Y141.065
G01 X219.900 Y140.046
G01 X223.645 Y138.600
G01 X227.295 Y137.417
G01 X231.596 Y136.254
G01 X236.950 Y135.214
G01 X239.331 Y134.868
G01 X243.684 Y134.448
G01 X246.747 Y134.296
G01 X248.714 Y134.257
G01 X249.363 Y134.252
G01 X249.652 Y134.276
G01 X249.826 Y134.275
G01 X249.999 Y134.275
G01 X249.837 Y133.900
G01 X249.414 Y132.976
G01 X248.972 Y131.979
G01 X248.560 Y131.084
G01 X247.820 Y129.595
G01 X247.125 Y128.734
G01 X246.572 Y128.073
G01 X243.809 Y125.804
G01 X241.291 Y124.001
G01 X238.140 Y122.023
G01 X235.063 Y120.358
G01 X231.868 Y118.873
G01 X229.611 Y117.965
G01 X226.975 Y113.580
G01 X224.365 Y109.926
G01 X221.594 Y106.637
G01 X218.859 Y103.830
G01 X215.728 Y101.016
G01 X210.124 Y96.908
G01 X204.369 Y93.674
G01 X199.600 Y91.574
G01 X196.705 Y90.572
G01 X194.631 Y86.918
G01 X191.249 Y82.479
G01 X186.681 Y78.090
G01 X179.227 Y73.377
G01 X172.735 Y70.961
G01 X172.533 Y66.317
G01 X171.272 Y60.368
G01 X167.833 Y52.809
G01 X160.790 Y44.694
G01 X154.996 Y40.813
G01 X150.807 Y38.976
G01 X146.271 Y37.712
G01 X141.439 Y37.079
G01 X136.819 Y37.145
G01 X131.639 Y38.004
G01 X127.313 Y39.406
G01 X122.018 Y42.053
G01 X119.805 Y49.187
G01 X123.122 Y53.830
G01 X127.215 Y54.896
G01 X130.844 Y55.087
G01 X132.868 Y56.314
G01 X133.434 Y57.988
G01 X132.343 Y58.830
G01 X132.146 Y58.981
G01 X132.066 Y59.236
G01 X132.206 Y59.590
G01 X132.524 Y59.806
G01 X133.055 Y59.860
G01 X133.577 Y59.686
G01 X134.064 Y59.155
G01 X134.290 Y58.492
G01 X134.222 Y57.599
G01 X133.777 Y56.816
G01 X133.371 Y56.448
G01 X132.893 Y56.181
G01 X131.832 Y55.919
G01 X131.204 Y55.980
G01 X130.588 Y56.153
G01 X130.020 Y56.445
G01 X129.531 Y56.867
G01 X129.072 Y57.420
G01 X128.734 Y58.076
G01 X128.541 Y58.790
G01 X128.468 Y59.518
G01 X128.587 Y60.332
G01 X128.849 Y61.115
G01 X129.256 Y61.833
G01 X129.814 Y62.455
G01 X130.548 Y63.025
G01 X131.394 Y63.405
G01 X132.296 Y63.632
G01 X133.209 Y63.678
G01 X134.223 Y63.517
G01 X135.168 Y63.168
G01 X136.047 Y62.631
G01 X136.788 Y61.949
G01 X137.443 Y61.032
G01 X137.888 Y60.012
G01 X138.150 Y58.931
G01 X138.189 Y57.808
G01 X137.958 Y56.612
G01 X137.512 Y55.484
G01 X136.872 Y54.468
G01 X136.028 Y53.599
G01 X134.953 Y52.836
G01 X133.751 Y52.323
G01 X132.475 Y52.061
G01 X131.146 Y52.039
G01 X129.792 Y52.302
G01 X128.490 Y52.835
G01 X127.303 Y53.601
G01 X126.307 Y54.582
G01 X125.461 Y55.833
G01 X124.910 Y57.230
G01 X124.614 Y58.706
G01 X124.596 Y60.214
G01 X124.919 Y61.769
G01 X125.534 Y63.222
G01 X126.421 Y64.553
G01 X127.553 Y65.693
G01 X128.960 Y66.620
G01 X130.534 Y67.261
G01 X132.215 Y67.570
G01 X133.886 Y67.567
G01 X135.644 Y67.197
G01 X137.278 Y66.478
G01 X138.766 Y65.485
G01 X140.017 Y64.214
G01 X141.042 Y62.627
G01 X141.735 Y60.870
G01 X142.082 Y59.005
G01 X142.061 Y57.124
G01 X141.639 Y55.184
G01 X140.836 Y53.370
G01 X139.699 Y51.743
G01 X138.276 Y50.361
G01 X136.540 Y49.243
G01 X134.603 Y48.505
G01 X132.556 Y48.127
G01 X130.483 Y48.156
G01 X128.363 Y48.637
G01 X126.371 Y49.531
G01 X124.585 Y50.761
G01 X123.081 Y52.340
G01 X122.424 Y53.270
G01 X121.867 Y54.259
G01 X121.059 Y56.380
G01 X120.669 Y58.629
G01 X120.729 Y60.885
G01 X120.922 Y62.056
G01 X121.241 Y63.202
G01 X121.689 Y64.290
G01 X122.209 Y65.359
G01 X123.597 Y67.287
G01 X124.397 Y68.132
G01 X125.286 Y68.916
G01 X126.299 Y69.615
G01 X127.370 Y70.215
G01 X128.517 Y70.705
G01 X129.689 Y71.090
G01 X130.905 Y71.359
G01 X132.115 Y71.516
G01 X133.356 Y71.539
G01 X134.580 Y71.429
G01 X135.833 Y71.218
G01 X137.072 Y70.876
G01 X138.267 Y70.393
G01 X139.399 Y69.811
G01 X140.488 Y69.118
G01 X141.485 Y68.314
G01 X142.419 Y67.440
G01 X143.248 Y66.463
G01 X144.010 Y65.359
G01 X144.657 Y64.212
G01 X145.165 Y62.979
G01 X145.571 Y61.722
G01 X145.863 Y60.419
G01 X146.001 Y59.089
G01 X146.046 Y57.756
G01 X145.939 Y56.450
G01 X145.682 Y55.085
G01 X145.300 Y53.758
G01 X144.791 Y52.472
G01 X144.145 Y51.258
G01 X143.398 Y50.098
G01 X142.542 Y49.024
G01 X141.594 Y48.029
G01 X140.544 Y47.146
G01 X139.368 Y46.333
G01 X138.120 Y45.647
G01 X136.821 Y45.077
G01 X135.462 Y44.659
G01 X134.052 Y44.361
G01 X132.625 Y44.193
G01 X131.214 Y44.166
G01 X129.789 Y44.271
G01 X128.343 Y44.542
G01 X126.933 Y44.975
G01 X125.554 Y45.516
G01 X124.257 Y46.194
G01 X123.022 Y47.020
G01 X121.867 Y47.925
G01 X120.799 Y48.963
G01 X119.847 Y50.085
G01 X118.986 Y51.336
G01 X118.264 Y52.655
G01 X117.676 Y54.074
G01 X117.214 Y55.535
G01 X116.898 Y57.026
G01 X116.746 Y58.531
G01 X116.704 Y60.055
G01 X116.842 Y61.578
G01 X117.141 Y63.113
G01 X117.569 Y64.619
G01 X118.161 Y66.070
G01 X118.899 Y67.448
G01 X119.746 Y68.780
G01 X120.737 Y70.007
G01 X121.838 Y71.125
G01 X123.028 Y72.148
G01 X124.374 Y73.062
G01 X125.794 Y73.834
G01 X127.287 Y74.465
G01 X128.839 Y74.939
G01 X130.432 Y75.269
G01 X132.036 Y75.448
G01 X133.654 Y75.446
G01 X135.252 Y75.318
G01 X136.901 Y75.019
G01 X138.493 Y74.533
G01 X140.041 Y73.912
G01 X141.506 Y73.124
G01 X142.916 Y72.208
G01 X144.209 Y71.174
G01 X145.407 Y70.008
G01 X146.474 Y68.730
G01 X147.439 Y67.293
G01 X148.237 Y65.790
G01 X148.916 Y64.220
G01 X149.416 Y62.557
G01 X149.764 Y60.898
G01 X149.954 Y59.187
G01 X149.958 Y57.465
G01 X149.814 Y55.766
G01 X149.485 Y54.023
G01 X148.975 Y52.347
G01 X148.306 Y50.695
G01 X147.471 Y49.157
G01 X146.502 Y47.659
G01 X145.390 Y46.290
G01 X144.153 Y45.043
G01 X142.810 Y43.909
G01 X141.304 Y42.890
G01 X139.712 Y42.034
G01 X138.032 Y41.344
G01 X136.319 Y40.820
G01 X134.520 Y40.465
G01 X132.731 Y40.257
G01 X130.905 Y40.253
G01 X129.107 Y40.418
G01 X127.285 Y40.755
G01 X125.509 Y41.282
G01 X123.784 Y41.999
G01 X122.141 Y42.858
G01 X120.577 Y43.891
G01 X119.135 Y45.070
G01 X117.806 Y46.372
G01 X116.626 Y47.801
G01 X115.571 Y49.403
G01 X114.656 Y51.107
G01 X113.938 Y52.903
G01 X113.372 Y54.727
G01 X113.008 Y56.604
G01 X112.795 Y58.505
G01 X112.791 Y60.387
G01 X112.958 Y62.244
G01 X113.925 Y65.783
G01 X115.962 Y69.750
G01 X119.462 Y73.721
G01 X122.903 Y76.124
G01 X126.876 Y77.756
G01 X130.037 Y78.399
G01 X133.227 Y78.507
G01 X135.981 Y78.192
G01 X138.663 Y77.482
G01 X141.372 Y76.353
G01 X144.357 Y74.521
G01 X147.962 Y72.285
G01 X153.336 Y70.895
G01 X156.008 Y70.296
G01 X159.644 Y69.811
G01 X162.886 Y69.664
G01 X165.791 Y69.778
G01 X169.603 Y70.262
G01 X172.735 Y70.961
G01 X175.982 Y72.164
G01 X182.946 Y75.730
G01 X188.963 Y80.266
G01 X192.935 Y84.698
G01 X195.917 Y89.070
G01 X196.705 Y90.572
G01 X194.561 Y89.928
G01 X192.373 Y89.348
G01 X188.907 Y88.627
G01 X184.875 Y88.081
G01 X181.257 Y87.817
G01 X177.796 Y87.795
G01 X173.880 Y88.019
G01 X170.890 Y88.344
G01 X167.685 Y88.913
G01 X164.555 Y89.616
G01 X162.580 Y90.171
G01 X160.786 Y90.735
G01 X158.726 Y91.473
G01 X153.741 Y93.598
G01 X151.507 Y100.714
G01 X154.819 Y105.357
G01 X158.950 Y106.439
G01 X162.543 Y106.618
G01 X164.573 Y107.844
G01 X165.151 Y109.538
G01 X164.067 Y110.375
G01 X163.858 Y110.504
G01 X163.782 Y110.756
G01 X163.924 Y111.110
G01 X164.233 Y111.330
G01 X164.778 Y111.406
G01 X165.287 Y111.210
G01 X165.781 Y110.706
G01 X166.010 Y110.013
G01 X165.922 Y109.134
G01 X165.475 Y108.352
G01 X165.078 Y107.978
G01 X164.607 Y107.707
G01 X163.564 Y107.460
G01 X162.924 Y107.498
G01 X162.305 Y107.672
G01 X161.752 Y107.985
G01 X161.253 Y108.385
G01 X160.779 Y108.950
G01 X160.445 Y109.606
G01 X160.253 Y110.323
G01 X160.188 Y111.048
G01 X160.291 Y111.875
G01 X160.562 Y112.653
G01 X160.971 Y113.372
G01 X161.530 Y113.992
G01 X162.265 Y114.558
G01 X163.104 Y114.939
G01 X163.995 Y115.170
G01 X164.923 Y115.203
G01 X165.918 Y115.051
G01 X166.874 Y114.694
G01 X167.756 Y114.157
G01 X168.511 Y113.470
G01 X169.158 Y112.563
G01 X169.602 Y111.551
G01 X169.857 Y110.451
G01 X169.890 Y109.338
G01 X169.675 Y108.137
G01 X169.227 Y107.012
G01 X168.579 Y106.000
G01 X167.740 Y105.125
G01 X166.664 Y104.386
G01 X165.455 Y103.870
G01 X164.181 Y103.599
G01 X162.858 Y103.567
G01 X161.487 Y103.837
G01 X160.188 Y104.367
G01 X159.024 Y105.150
G01 X158.016 Y106.115
G01 X157.181 Y107.367
G01 X156.611 Y108.758
G01 X156.307 Y110.221
G01 X156.311 Y111.726
G01 X156.632 Y113.292
G01 X157.235 Y114.757
G01 X158.127 Y116.085
G01 X159.257 Y117.221
G01 X160.685 Y118.154
G01 X162.256 Y118.784
G01 X163.915 Y119.094
G01 X165.611 Y119.094
G01 X167.349 Y118.727
G01 X169.008 Y118.020
G01 X170.480 Y117.011
G01 X171.722 Y115.726
G01 X172.756 Y114.150
G01 X173.440 Y112.389
G01 X173.792 Y110.538
G01 X173.765 Y108.647
G01 X173.350 Y106.713
G01 X172.549 Y104.902
G01 X171.414 Y103.270
G01 X170.010 Y101.896
G01 X168.246 Y100.778
G01 X166.304 Y100.023
G01 X164.257 Y99.657
G01 X162.194 Y99.693
G01 X160.064 Y100.170
G01 X158.083 Y101.053
G01 X156.297 Y102.289
G01 X154.790 Y103.853
G01 X154.134 Y104.791
G01 X153.585 Y105.786
G01 X152.767 Y107.908
G01 X152.380 Y110.151
G01 X152.433 Y112.407
G01 X152.631 Y113.585
G01 X152.945 Y114.713
G01 X153.387 Y115.811
G01 X153.927 Y116.870
G01 X155.291 Y118.815
G01 X156.109 Y119.674
G01 X157.001 Y120.449
G01 X158.021 Y121.164
G01 X159.096 Y121.749
G01 X160.226 Y122.237
G01 X161.397 Y122.608
G01 X162.610 Y122.893
G01 X163.824 Y123.033
G01 X165.067 Y123.070
G01 X166.288 Y122.979
G01 X167.553 Y122.750
G01 X168.788 Y122.403
G01 X169.969 Y121.924
G01 X171.112 Y121.333
G01 X172.196 Y120.646
G01 X173.196 Y119.846
G01 X174.129 Y118.954
G01 X174.957 Y117.989
G01 X175.722 Y116.898
G01 X176.359 Y115.746
G01 X176.881 Y114.522
G01 X177.289 Y113.255
G01 X177.565 Y111.949
G01 X177.723 Y110.627
G01 X177.744 Y109.293
G01 X177.653 Y107.964
G01 X177.395 Y106.609
G01 X177.017 Y105.287
G01 X176.500 Y104.008
G01 X175.867 Y102.787
G01 X175.115 Y101.627
G01 X174.267 Y100.542
G01 X173.307 Y99.544
G01 X172.270 Y98.671
G01 X171.078 Y97.851
G01 X169.833 Y97.175
G01 X168.524 Y96.623
G01 X167.165 Y96.187
G01 X165.769 Y95.892
G01 X164.353 Y95.730
G01 X162.919 Y95.702
G01 X161.512 Y95.813
G01 X160.060 Y96.076
G01 X158.652 Y96.499
G01 X157.280 Y97.061
G01 X155.976 Y97.742
G01 X154.729 Y98.548
G01 X153.571 Y99.461
G01 X152.505 Y100.477
G01 X151.562 Y101.606
G01 X150.715 Y102.865
G01 X149.966 Y104.191
G01 X149.376 Y105.602
G01 X148.931 Y107.045
G01 X148.615 Y108.558
G01 X148.443 Y110.069
G01 X148.413 Y111.577
G01 X148.552 Y113.090
G01 X148.844 Y114.648
G01 X149.283 Y116.132
G01 X149.869 Y117.600
G01 X150.607 Y118.985
G01 X151.468 Y120.309
G01 X152.447 Y121.544
G01 X153.537 Y122.662
G01 X154.735 Y123.668
G01 X156.082 Y124.595
G01 X157.499 Y125.347
G01 X159.001 Y125.978
G01 X160.547 Y126.460
G01 X162.136 Y126.797
G01 X163.741 Y126.978
G01 X165.351 Y126.985
G01 X166.971 Y126.850
G01 X168.614 Y126.536
G01 X170.209 Y126.064
G01 X171.749 Y125.440
G01 X173.227 Y124.641
G01 X174.623 Y123.739
G01 X175.916 Y122.686
G01 X177.123 Y121.531
G01 X178.186 Y120.248
G01 X179.144 Y118.840
G01 X179.963 Y117.326
G01 X180.629 Y115.738
G01 X181.138 Y114.101
G01 X181.475 Y112.421
G01 X181.663 Y110.710
G01 X181.671 Y108.982
G01 X181.529 Y107.274
G01 X181.198 Y105.548
G01 X180.679 Y103.857
G01 X180.018 Y102.234
G01 X179.183 Y100.665
G01 X178.207 Y99.192
G01 X177.111 Y97.831
G01 X175.865 Y96.572
G01 X174.520 Y95.447
G01 X173.018 Y94.430
G01 X171.424 Y93.576
G01 X169.753 Y92.882
G01 X168.020 Y92.341
G01 X166.238 Y91.977
G01 X164.426 Y91.785
G01 X162.630 Y91.769
G01 X160.809 Y91.926
G01 X159.008 Y92.292
G01 X157.207 Y92.822
G01 X155.498 Y93.523
G01 X153.854 Y94.410
G01 X152.299 Y95.441
G01 X150.851 Y96.603
G01 X149.529 Y97.915
G01 X148.337 Y99.342
G01 X147.277 Y100.943
G01 X146.369 Y102.641
G01 X145.644 Y104.413
G01 X145.089 Y106.265
G01 X144.702 Y108.132
G01 X144.512 Y110.023
G01 X144.501 Y111.914
G01 X144.665 Y113.774
G01 X144.938 Y115.050
G01 X145.777 Y117.663
G01 X148.274 Y122.127
G01 X151.169 Y125.256
G01 X154.577 Y127.633
G01 X158.494 Y129.257
G01 X162.910 Y130.027
G01 X166.127 Y129.946
G01 X169.402 Y129.314
G01 X173.483 Y127.657
G01 X177.123 Y125.021
G01 X179.782 Y123.222
G01 X182.659 Y121.501
G01 X185.829 Y119.861
G01 X191.028 Y117.698
G01 X197.447 Y115.825
G01 X201.063 Y115.102
G01 X207.839 Y114.429
G01 X211.731 Y114.422
G01 X217.383 Y114.907
G01 X221.582 Y115.622
G01 X226.247 Y116.827
G01 X231.868 Y118.873
G01 X235.063 Y120.358
G01 X239.716 Y123.016
G01 X243.809 Y125.804
G01 X245.197 Y126.944
G01 X246.572 Y128.073
G01 X246.584 Y128.073
G01 X246.596 Y128.072
G01 X246.622 Y128.122
G01 X247.879 Y129.569
G01 X248.619 Y131.058
G01 X249.307 Y132.652
G01 X250.022 Y134.275
G01 X255.692 Y134.586
G01 X255.832 Y134.597
G01 X260.031 Y135.112
G01 X264.972 Y136.004
G01 X268.224 Y136.782
G01 X271.969 Y137.882
G01 X275.145 Y138.961
G01 X276.335 Y139.418
G01 X278.910 Y139.727
G01 X282.876 Y140.347
G01 X286.628 Y141.147
G01 X290.935 Y142.291
G01 X296.091 Y144.068
G01 X298.326 Y144.958
G01 X302.306 Y146.771
G01 X305.035 Y148.171
G01 X306.758 Y149.121
G01 X307.312 Y149.435
G01 X307.561 Y149.606
G01 X307.711 Y149.692
G01 X307.862 Y149.779
G01 X307.909 Y149.373
G01 X308.004 Y148.362
G01 X308.120 Y147.277
G01 X308.211 Y146.296
G01 X308.314 Y144.636
G01 X308.143 Y143.543
G01 X307.995 Y142.694
G01 X306.736 Y139.348
G01 X305.458 Y136.527
G01 X303.718 Y133.239
G01 X301.886 Y130.258
G01 X299.861 Y127.374
G01 X298.361 Y125.460
G01 X298.270 Y120.344
G01 X297.836 Y115.875
G01 X297.081 Y111.641
G01 X296.116 Y107.843
G01 X294.811 Y103.840
G01 X292.013 Y97.481
G01 X288.645 Y91.802
G01 X285.565 Y87.599
G01 X283.560 Y85.284
G01 X283.590 Y81.082
G01 X282.881 Y75.547
G01 X281.119 Y69.462
G01 X277.021 Y61.653
G01 X272.607 Y56.315
G01 X274.754 Y52.193
G01 X276.636 Y46.410
G01 X277.437 Y38.144
G01 X275.395 Y27.595
G01 X272.318 Y21.337
G01 X269.608 Y17.651
G01 X266.312 Y14.289
G01 X262.445 Y11.324
G01 X258.410 Y9.072
G01 X253.494 Y7.225
G01 X249.048 Y6.277
G01 X243.138 Y5.921
G01 X237.655 Y10.994
G01 X238.205 Y16.673
G01 X241.217 Y19.642
G01 X244.265 Y21.622
G01 X245.404 Y23.697
G01 X245.057 Y25.429
G01 X243.691 Y25.614
G01 X243.445 Y25.646
G01 X243.249 Y25.827
G01 X243.193 Y26.204
G01 X243.360 Y26.549
G01 X243.794 Y26.861
G01 X244.332 Y26.972
G01 X244.997 Y26.756
G01 X245.546 Y26.294
G01 X245.934 Y25.487
G01 X245.940 Y24.587
G01 X245.773 Y24.065
G01 X245.492 Y23.595
G01 X244.704 Y22.837
G01 X244.129 Y22.576
G01 X243.510 Y22.418
G01 X242.872 Y22.387
G01 X242.238 Y22.507
G01 X241.564 Y22.757
G01 X240.942 Y23.156
G01 X240.419 Y23.678
G01 X239.992 Y24.272
G01 X239.688 Y25.036
G01 X239.523 Y25.845
G01 X239.517 Y26.671
G01 X239.689 Y27.489
G01 X240.040 Y28.349
G01 X240.582 Y29.101
G01 X241.250 Y29.749
G01 X242.018 Y30.245
G01 X242.976 Y30.612
G01 X243.968 Y30.783
G01 X244.999 Y30.757
G01 X245.982 Y30.537
G01 X247.007 Y30.070
G01 X247.903 Y29.410
G01 X248.670 Y28.604
G01 X249.265 Y27.651
G01 X249.663 Y26.500
G01 X249.841 Y25.300
G01 X249.795 Y24.100
G01 X249.499 Y22.926
G01 X248.948 Y21.727
G01 X248.164 Y20.682
G01 X247.190 Y19.817
G01 X246.050 Y19.134
G01 X244.747 Y18.685
G01 X243.352 Y18.495
G01 X241.941 Y18.565
G01 X240.588 Y18.917
G01 X239.230 Y19.577
G01 X238.054 Y20.511
G01 X237.059 Y21.641
G01 X236.290 Y22.939
G01 X235.792 Y24.447
G01 X235.599 Y26.012
G01 X235.701 Y27.609
G01 X236.111 Y29.161
G01 X236.867 Y30.668
G01 X237.909 Y32.010
G01 X239.210 Y33.118
G01 X240.659 Y33.952
G01 X242.367 Y34.510
G01 X244.141 Y34.705
G01 X245.927 Y34.589
G01 X247.645 Y34.113
G01 X249.326 Y33.251
G01 X250.805 Y32.076
G01 X252.039 Y30.634
G01 X252.960 Y28.995
G01 X253.565 Y27.104
G01 X253.776 Y25.132
G01 X253.605 Y23.154
G01 X253.064 Y21.246
G01 X252.120 Y19.410
G01 X250.811 Y17.801
G01 X249.228 Y16.451
G01 X247.418 Y15.439
G01 X245.341 Y14.796
G01 X243.169 Y14.574
G01 X241.007 Y14.747
G01 X238.915 Y15.362
G01 X237.881 Y15.838
G01 X236.904 Y16.417
G01 X235.144 Y17.850
G01 X233.682 Y19.602
G01 X232.605 Y21.586
G01 X232.187 Y22.697
G01 X231.890 Y23.849
G01 X231.712 Y25.017
G01 X231.651 Y26.201
G01 X231.889 Y28.564
G01 X232.159 Y29.696
G01 X232.537 Y30.820
G01 X233.064 Y31.932
G01 X233.692 Y32.987
G01 X234.440 Y33.985
G01 X235.263 Y34.904
G01 X236.181 Y35.745
G01 X237.151 Y36.486
G01 X238.214 Y37.126
G01 X239.329 Y37.643
G01 X240.520 Y38.087
G01 X241.763 Y38.410
G01 X243.041 Y38.590
G01 X244.312 Y38.652
G01 X245.601 Y38.596
G01 X246.867 Y38.398
G01 X248.113 Y38.108
G01 X249.319 Y37.676
G01 X250.531 Y37.101
G01 X251.664 Y36.431
G01 X252.721 Y35.617
G01 X253.701 Y34.732
G01 X254.605 Y33.749
G01 X255.389 Y32.667
G01 X256.095 Y31.535
G01 X256.656 Y30.351
G01 X257.116 Y29.040
G01 X257.448 Y27.700
G01 X257.651 Y26.331
G01 X257.698 Y24.957
G01 X257.632 Y23.579
G01 X257.427 Y22.221
G01 X257.103 Y20.885
G01 X256.636 Y19.596
G01 X256.024 Y18.303
G01 X255.286 Y17.085
G01 X254.446 Y15.942
G01 X253.478 Y14.901
G01 X252.406 Y13.937
G01 X251.254 Y13.078
G01 X250.046 Y12.350
G01 X248.759 Y11.728
G01 X247.372 Y11.239
G01 X245.933 Y10.910
G01 X244.469 Y10.689
G01 X243.007 Y10.627
G01 X241.524 Y10.725
G01 X240.071 Y10.931
G01 X238.627 Y11.296
G01 X237.242 Y11.791
G01 X235.871 Y12.445
G01 X234.586 Y13.226
G01 X233.368 Y14.161
G01 X232.237 Y15.196
G01 X231.218 Y16.329
G01 X230.333 Y17.556
G01 X229.535 Y18.854
G01 X228.893 Y20.242
G01 X228.385 Y21.721
G01 X228.002 Y23.240
G01 X227.789 Y24.793
G01 X227.740 Y26.355
G01 X227.807 Y27.931
G01 X228.052 Y29.490
G01 X228.446 Y31.008
G01 X228.965 Y32.490
G01 X229.674 Y33.954
G01 X230.518 Y35.332
G01 X231.495 Y36.626
G01 X232.603 Y37.812
G01 X233.817 Y38.894
G01 X235.116 Y39.851
G01 X236.498 Y40.660
G01 X237.967 Y41.347
G01 X239.544 Y41.913
G01 X241.165 Y42.288
G01 X242.817 Y42.524
G01 X244.480 Y42.573
G01 X246.159 Y42.486
G01 X247.796 Y42.237
G01 X249.416 Y41.826
G01 X250.980 Y41.252
G01 X252.534 Y40.490
G01 X253.976 Y39.588
G01 X255.349 Y38.568
G01 X256.613 Y37.378
G01 X257.744 Y36.115
G01 X258.765 Y34.728
G01 X259.629 Y33.239
G01 X260.354 Y31.695
G01 X260.940 Y30.022
G01 X261.336 Y28.315
G01 X261.583 Y26.550
G01 X261.629 Y24.800
G01 X261.539 Y23.018
G01 X261.261 Y21.277
G01 X260.813 Y19.579
G01 X260.216 Y17.925
G01 X259.422 Y16.290
G01 X258.471 Y14.752
G01 X257.362 Y13.314
G01 X256.140 Y12.004
G01 X254.759 Y10.797
G01 X253.314 Y9.723
G01 X251.735 Y8.806
G01 X250.095 Y8.050
G01 X248.349 Y7.431
G01 X246.547 Y7.000
G01 X244.695 Y6.758
G01 X242.843 Y6.680
G01 X240.971 Y6.793
G01 X239.133 Y7.093
G01 X237.331 Y7.556
G01 X235.594 Y8.204
G01 X233.880 Y9.064
G01 X232.236 Y10.082
G01 X230.715 Y11.278
G01 X229.314 Y12.574
G01 X228.060 Y14.018
G01 X226.925 Y15.558
G01 X225.980 Y17.186
G01 X225.197 Y18.877
G01 X224.265 Y22.426
G01 X224.045 Y26.880
G01 X225.090 Y32.069
G01 X226.869 Y35.871
G01 X229.493 Y39.270
G01 X231.910 Y41.408
G01 X234.618 Y43.096
G01 X237.161 Y44.200
G01 X239.839 Y44.927
G01 X242.749 Y45.303
G01 X246.250 Y45.209
G01 X250.490 Y45.076
G01 X255.839 Y46.559
G01 X258.453 Y47.376
G01 X261.844 Y48.773
G01 X264.725 Y50.267
G01 X267.184 Y51.819
G01 X270.243 Y54.143
G01 X272.607 Y56.315
G01 X274.817 Y58.980
G01 X279.065 Y65.551
G01 X282.007 Y72.488
G01 X283.231 Y78.312
G01 X283.628 Y83.589
G01 X283.560 Y85.284
G01 X282.025 Y83.655
G01 X280.420 Y82.058
G01 X277.779 Y79.701
G01 X274.560 Y77.212
G01 X271.558 Y75.174
G01 X268.572 Y73.424
G01 X265.068 Y71.660
G01 X262.317 Y70.447
G01 X259.257 Y69.337
G01 X256.194 Y68.381
G01 X254.207 Y67.874
G01 X252.372 Y67.465
G01 X250.218 Y67.075
G01 X244.839 Y66.423
G01 X239.346 Y71.468
G01 X239.893 Y77.145
G01 X242.929 Y80.147
G01 X245.952 Y82.099
G01 X247.097 Y84.175
G01 X246.750 Y85.932
G01 X245.392 Y86.115
G01 X245.147 Y86.122
G01 X244.955 Y86.303
G01 X244.902 Y86.680
G01 X245.059 Y87.025
G01 X245.493 Y87.362
G01 X246.016 Y87.449
G01 X246.711 Y87.258
G01 X247.256 Y86.773
G01 X247.620 Y85.967
G01 X247.624 Y85.067
G01 X247.467 Y84.544
G01 X247.194 Y84.074
G01 X246.415 Y83.339
G01 X245.841 Y83.052
G01 X245.218 Y82.893
G01 X244.582 Y82.888
G01 X243.950 Y82.985
G01 X243.258 Y83.236
G01 X242.641 Y83.638
G01 X242.116 Y84.162
G01 X241.697 Y84.758
G01 X241.372 Y85.526
G01 X241.218 Y86.335
G01 X241.213 Y87.162
G01 X241.387 Y87.979
G01 X241.740 Y88.837
G01 X242.277 Y89.586
G01 X242.932 Y90.231
G01 X243.720 Y90.724
G01 X244.657 Y91.090
G01 X245.664 Y91.259
G01 X246.696 Y91.234
G01 X247.693 Y91.017
G01 X248.707 Y90.555
G01 X249.599 Y89.901
G01 X250.369 Y89.075
G01 X250.954 Y88.128
G01 X251.368 Y86.981
G01 X251.542 Y85.782
G01 X251.488 Y84.582
G01 X251.198 Y83.404
G01 X250.636 Y82.226
G01 X249.847 Y81.175
G01 X248.879 Y80.304
G01 X247.750 Y79.615
G01 X246.428 Y79.162
G01 X245.038 Y78.972
G01 X243.637 Y79.068
G01 X242.282 Y79.399
G01 X240.933 Y80.067
G01 X239.744 Y80.986
G01 X238.751 Y82.126
G01 X238.000 Y83.407
G01 X237.495 Y84.923
G01 X237.285 Y86.494
G01 X237.393 Y88.090
G01 X237.804 Y89.638
G01 X238.575 Y91.160
G01 X239.620 Y92.492
G01 X240.901 Y93.589
G01 X242.370 Y94.437
G01 X244.059 Y94.989
G01 X245.849 Y95.206
G01 X247.628 Y95.068
G01 X249.346 Y94.576
G01 X251.030 Y93.728
G01 X252.503 Y92.545
G01 X253.733 Y91.119
G01 X254.656 Y89.467
G01 X255.263 Y87.585
G01 X255.475 Y85.616
G01 X255.308 Y83.635
G01 X254.779 Y81.743
G01 X253.810 Y79.893
G01 X252.506 Y78.268
G01 X250.916 Y76.927
G01 X249.111 Y75.927
G01 X247.028 Y75.275
G01 X244.871 Y75.050
G01 X242.706 Y75.227
G01 X240.619 Y75.827
G01 X239.582 Y76.312
G01 X238.610 Y76.899
G01 X236.840 Y78.329
G01 X235.384 Y80.077
G01 X234.284 Y82.059
G01 X233.884 Y83.177
G01 X233.592 Y84.310
G01 X233.426 Y85.483
G01 X233.364 Y86.670
G01 X233.572 Y89.036
G01 X233.851 Y90.189
G01 X234.237 Y91.306
G01 X234.762 Y92.435
G01 X235.400 Y93.479
G01 X236.135 Y94.467
G01 X236.964 Y95.374
G01 X237.872 Y96.228
G01 X238.853 Y96.955
G01 X239.911 Y97.609
G01 X241.014 Y98.141
G01 X242.224 Y98.575
G01 X243.467 Y98.891
G01 X244.729 Y99.067
G01 X246.015 Y99.128
G01 X247.297 Y99.074
G01 X248.563 Y98.882
G01 X249.817 Y98.575
G01 X251.016 Y98.153
G01 X252.224 Y97.591
G01 X253.352 Y96.912
G01 X254.417 Y96.113
G01 X255.403 Y95.219
G01 X256.296 Y94.227
G01 X257.093 Y93.160
G01 X257.778 Y92.016
G01 X258.363 Y90.820
G01 X258.818 Y89.517
G01 X259.151 Y88.184
G01 X259.343 Y86.817
G01 X259.405 Y85.444
G01 X259.334 Y84.062
G01 X259.142 Y82.700
G01 X258.810 Y81.355
G01 X258.349 Y80.080
G01 X257.726 Y78.774
G01 X256.986 Y77.566
G01 X256.128 Y76.433
G01 X255.169 Y75.376
G01 X254.108 Y74.423
G01 X252.963 Y73.575
G01 X251.735 Y72.833
G01 X250.461 Y72.226
G01 X249.072 Y71.727
G01 X247.641 Y71.391
G01 X246.172 Y71.191
G01 X244.703 Y71.128
G01 X243.219 Y71.204
G01 X241.760 Y71.415
G01 X240.329 Y71.762
G01 X238.947 Y72.268
G01 X237.584 Y72.935
G01 X236.273 Y73.709
G01 X235.057 Y74.636
G01 X233.949 Y75.662
G01 X232.920 Y76.815
G01 X232.015 Y78.038
G01 X231.235 Y79.328
G01 X230.598 Y80.708
G01 X230.072 Y82.204
G01 X229.711 Y83.708
G01 X229.484 Y85.273
G01 X229.431 Y86.841
G01 X229.515 Y88.418
G01 X229.745 Y89.977
G01 X230.130 Y91.491
G01 X230.665 Y92.961
G01 X231.367 Y94.437
G01 X232.218 Y95.797
G01 X233.204 Y97.095
G01 X234.301 Y98.285
G01 X235.509 Y99.370
G01 X236.809 Y100.330
G01 X238.200 Y101.142
G01 X239.670 Y101.835
G01 X241.250 Y102.384
G01 X242.868 Y102.773
G01 X244.513 Y103.002
G01 X246.192 Y103.049
G01 X247.852 Y102.966
G01 X249.498 Y102.701
G01 X251.121 Y102.304
G01 X252.683 Y101.724
G01 X254.217 Y100.985
G01 X255.683 Y100.083
G01 X257.054 Y99.040
G01 X258.298 Y97.876
G01 X259.445 Y96.591
G01 X260.464 Y95.203
G01 X261.334 Y93.710
G01 X262.065 Y92.160
G01 X262.642 Y90.500
G01 X263.038 Y88.776
G01 X263.277 Y87.040
G01 X263.338 Y85.264
G01 X263.230 Y83.500
G01 X262.961 Y81.774
G01 X262.512 Y80.060
G01 X261.909 Y78.413
G01 X261.117 Y76.781
G01 X260.163 Y75.245
G01 X259.063 Y73.808
G01 X257.833 Y72.473
G01 X256.472 Y71.267
G01 X254.999 Y70.194
G01 X253.433 Y69.283
G01 X251.795 Y68.509
G01 X250.053 Y67.925
G01 X248.228 Y67.484
G01 X246.398 Y67.235
G01 X244.531 Y67.182
G01 X242.668 Y67.297
G01 X240.833 Y67.580
G01 X239.032 Y68.055
G01 X237.287 Y68.695
G01 X235.568 Y69.551
G01 X233.933 Y70.568
G01 X232.419 Y71.740
G01 X231.012 Y73.066
G01 X229.743 Y74.490
G01 X228.633 Y76.032
G01 X227.678 Y77.665
G01 X226.891 Y79.358
G01 X226.489 Y80.599
G01 X225.909 Y83.282
G01 X225.839 Y88.396
G01 X226.782 Y92.553
G01 X228.545 Y96.315
G01 X231.126 Y99.680
G01 X234.564 Y102.556
G01 X237.391 Y104.094
G01 X240.543 Y105.183
G01 X244.906 Y105.790
G01 X249.377 Y105.326
G01 X252.578 Y105.098
G01 X255.931 Y105.046
G01 X259.496 Y105.211
G01 X265.079 Y105.937
G01 X271.576 Y107.524
G01 X275.068 Y108.707
G01 X281.273 Y111.512
G01 X284.647 Y113.452
G01 X289.300 Y116.697
G01 X292.578 Y119.416
G01 X296.016 Y122.792
G01 X299.861 Y127.374
G01 X301.886 Y130.258
G01 X304.586 Y134.887
G01 X306.736 Y139.348
G01 X307.369 Y141.029
G01 X307.995 Y142.694
G01 X308.016 Y142.706
G01 X308.014 Y142.762
G01 X308.379 Y144.643
G01 X308.273 Y146.502
G01 X308.070 Y148.342
G01 X307.957 Y149.776
G01 X312.685 Y152.927
G01 X312.752 Y152.974
G01 X316.131 Y155.520
G01 X319.964 Y158.763
G01 X322.391 Y161.063
G01 X325.085 Y163.888
G01 X327.295 Y166.410
G01 X328.098 Y167.400
G01 X330.173 Y168.955
G01 X333.298 Y171.476
G01 X336.147 Y174.045
G01 X339.305 Y177.189
G01 X342.882 Y181.306
G01 X344.372 Y183.194
G01 X346.913 Y186.754
G01 X348.576 Y189.331
G01 X349.594 Y191.015
G01 X349.916 Y191.564
G01 X350.046 Y191.837
G01 X350.134 Y191.987
G01 X350.221 Y192.137
G01 X350.464 Y191.809
G01 X351.053 Y190.981
G01 X351.695 Y190.100
G01 X352.265 Y189.295
G01 X353.184 Y187.909
G01 X353.582 Y186.877
G01 X353.878 Y186.068
G01 X354.461 Y182.541
G01 X354.764 Y179.459
G01 X354.901 Y175.741
G01 X354.806 Y172.244
G01 X354.494 Y168.734
G01 X354.152 Y166.326
G01 X356.631 Y161.849
G01 X358.490 Y157.763
G01 X359.953 Y153.718
G01 X361.016 Y149.947
G01 X361.888 Y145.828
G01 X362.633 Y138.910
G01 X362.567 Y132.319
G01 X362.001 Y127.139
G01 X361.422 Y124.132
G01 X363.549 Y120.508
G01 X365.702 Y115.359
G01 X367.219 Y109.210
G01 X367.574 Y100.398
G01 X366.421 Y93.567
G01 X370.341 Y91.071
G01 X374.863 Y87.004
G01 X379.689 Y80.246
G01 X383.196 Y70.090
G01 X383.660 Y63.131
G01 X383.156 Y58.584
G01 X381.982 Y54.024
G01 X380.115 Y49.523
G01 X377.748 Y45.555
G01 X374.414 Y41.498
G01 X371.037 Y38.454
G01 X366.097 Y35.191
G01 X358.812 Y36.842
G01 X356.449 Y42.036
G01 X357.573 Y46.113
G01 X359.222 Y49.351
G01 X359.171 Y51.718
G01 X358.005 Y53.045
G01 X356.730 Y52.522
G01 X356.501 Y52.426
G01 X356.240 Y52.485
G01 X356.003 Y52.783
G01 X355.975 Y53.166
G01 X356.195 Y53.653
G01 X356.606 Y54.018
G01 X357.289 Y54.164
G01 X357.996 Y54.038
G01 X358.716 Y53.522
G01 X359.191 Y52.757
G01 X359.307 Y52.221
G01 X359.299 Y51.674
G01 X358.996 Y50.623
G01 X358.628 Y50.110
G01 X358.171 Y49.663
G01 X357.634 Y49.317
G01 X357.024 Y49.105
G01 X356.316 Y48.983
G01 X355.578 Y49.018
G01 X354.864 Y49.209
G01 X354.197 Y49.510
G01 X353.551 Y50.020
G01 X353.004 Y50.637
G01 X352.586 Y51.350
G01 X352.326 Y52.144
G01 X352.200 Y53.064
G01 X352.294 Y53.987
G01 X352.548 Y54.882
G01 X352.965 Y55.696
G01 X353.611 Y56.493
G01 X354.385 Y57.137
G01 X355.291 Y57.630
G01 X356.252 Y57.930
G01 X357.373 Y58.039
G01 X358.479 Y57.915
G01 X359.546 Y57.601
G01 X360.538 Y57.073
G01 X361.458 Y56.275
G01 X362.213 Y55.325
G01 X362.773 Y54.263
G01 X363.103 Y53.097
G01 X363.226 Y51.784
G01 X363.069 Y50.487
G01 X362.658 Y49.251
G01 X362.013 Y48.089
G01 X361.108 Y47.048
G01 X359.995 Y46.187
G01 X358.727 Y45.564
G01 X357.391 Y45.170
G01 X355.885 Y45.062
G01 X354.399 Y45.284
G01 X352.973 Y45.765
G01 X351.658 Y46.504
G01 X350.473 Y47.562
G01 X349.522 Y48.821
G01 X348.813 Y50.255
G01 X348.392 Y51.804
G01 X348.293 Y53.486
G01 X348.524 Y55.170
G01 X349.097 Y56.780
G01 X349.935 Y58.227
G01 X351.135 Y59.564
G01 X352.574 Y60.619
G01 X354.178 Y61.412
G01 X355.904 Y61.859
G01 X357.791 Y61.953
G01 X359.659 Y61.675
G01 X361.448 Y61.043
G01 X363.066 Y60.084
G01 X364.536 Y58.749
G01 X365.705 Y57.147
G01 X366.546 Y55.348
G01 X367.031 Y53.425
G01 X367.131 Y51.363
G01 X366.802 Y49.316
G01 X366.106 Y47.355
G01 X365.045 Y45.574
G01 X363.567 Y43.978
G01 X361.797 Y42.700
G01 X359.839 Y41.769
G01 X357.720 Y41.255
G01 X356.586 Y41.151
G01 X355.450 Y41.163
G01 X353.209 Y41.524
G01 X351.067 Y42.311
G01 X349.143 Y43.491
G01 X348.225 Y44.243
G01 X347.392 Y45.093
G01 X346.654 Y46.015
G01 X346.009 Y47.010
G01 X345.013 Y49.166
G01 X344.701 Y50.291
G01 X344.467 Y51.453
G01 X344.368 Y52.679
G01 X344.383 Y53.907
G01 X344.533 Y55.145
G01 X344.785 Y56.353
G01 X345.160 Y57.541
G01 X345.629 Y58.667
G01 X346.231 Y59.753
G01 X346.938 Y60.758
G01 X347.746 Y61.738
G01 X348.662 Y62.640
G01 X349.678 Y63.434
G01 X350.748 Y64.123
G01 X351.892 Y64.719
G01 X353.087 Y65.181
G01 X354.311 Y65.553
G01 X355.572 Y65.782
G01 X356.909 Y65.889
G01 X358.226 Y65.877
G01 X359.548 Y65.700
G01 X360.840 Y65.423
G01 X362.114 Y65.024
G01 X363.334 Y64.479
G01 X364.511 Y63.851
G01 X365.589 Y63.106
G01 X366.643 Y62.201
G01 X367.601 Y61.207
G01 X368.461 Y60.122
G01 X369.188 Y58.956
G01 X369.820 Y57.729
G01 X370.321 Y56.451
G01 X370.709 Y55.132
G01 X370.949 Y53.782
G01 X371.065 Y52.357
G01 X371.036 Y50.933
G01 X370.879 Y49.523
G01 X370.562 Y48.137
G01 X370.115 Y46.767
G01 X369.547 Y45.447
G01 X368.865 Y44.212
G01 X368.062 Y43.030
G01 X367.104 Y41.913
G01 X366.024 Y40.908
G01 X364.866 Y39.985
G01 X363.630 Y39.200
G01 X362.298 Y38.544
G01 X360.936 Y37.996
G01 X359.503 Y37.590
G01 X358.056 Y37.326
G01 X356.542 Y37.207
G01 X355.038 Y37.241
G01 X353.516 Y37.441
G01 X352.019 Y37.772
G01 X350.570 Y38.244
G01 X349.169 Y38.854
G01 X347.850 Y39.589
G01 X346.600 Y40.471
G01 X345.420 Y41.497
G01 X344.330 Y42.621
G01 X343.369 Y43.859
G01 X342.545 Y45.188
G01 X341.815 Y46.586
G01 X341.248 Y48.058
G01 X340.830 Y49.571
G01 X340.539 Y51.113
G01 X340.420 Y52.736
G01 X340.462 Y54.351
G01 X340.662 Y55.960
G01 X341.028 Y57.541
G01 X341.538 Y59.086
G01 X342.185 Y60.564
G01 X342.977 Y61.955
G01 X343.906 Y63.284
G01 X344.989 Y64.563
G01 X346.205 Y65.699
G01 X347.517 Y66.729
G01 X348.933 Y67.603
G01 X350.431 Y68.367
G01 X351.973 Y68.970
G01 X353.581 Y69.424
G01 X355.222 Y69.709
G01 X356.949 Y69.826
G01 X358.650 Y69.765
G01 X360.349 Y69.569
G01 X362.038 Y69.170
G01 X363.650 Y68.643
G01 X365.227 Y67.952
G01 X366.720 Y67.094
G01 X368.119 Y66.120
G01 X369.464 Y64.964
G01 X370.660 Y63.683
G01 X371.757 Y62.279
G01 X372.671 Y60.786
G01 X373.484 Y59.198
G01 X374.114 Y57.551
G01 X374.575 Y55.856
G01 X374.885 Y54.125
G01 X375.015 Y52.312
G01 X374.960 Y50.505
G01 X374.718 Y48.705
G01 X374.295 Y46.947
G01 X373.723 Y45.224
G01 X373.009 Y43.571
G01 X372.100 Y41.988
G01 X371.058 Y40.513
G01 X369.855 Y39.103
G01 X368.510 Y37.829
G01 X367.027 Y36.694
G01 X365.462 Y35.700
G01 X363.785 Y34.862
G01 X362.043 Y34.203
G01 X360.251 Y33.703
G01 X358.423 Y33.396
G01 X356.486 Y33.272
G01 X354.575 Y33.343
G01 X352.661 Y33.618
G01 X350.798 Y34.041
G01 X348.991 Y34.663
G01 X347.238 Y35.430
G01 X345.606 Y36.367
G01 X344.081 Y37.440
G01 X341.500 Y40.047
G01 X339.083 Y43.795
G01 X337.393 Y48.811
G01 X337.033 Y52.993
G01 X337.606 Y57.250
G01 X338.630 Y60.309
G01 X340.131 Y63.125
G01 X341.781 Y65.352
G01 X343.737 Y67.321
G01 X346.069 Y69.102
G01 X349.148 Y70.771
G01 X352.887 Y72.776
G01 X356.777 Y76.734
G01 X358.632 Y78.749
G01 X360.871 Y81.655
G01 X362.619 Y84.389
G01 X363.973 Y86.962
G01 X365.444 Y90.494
G01 X366.421 Y93.567
G01 X367.002 Y96.981
G01 X367.396 Y104.795
G01 X366.459 Y112.293
G01 X364.624 Y117.929
G01 X362.329 Y122.698
G01 X361.422 Y124.132
G01 X360.907 Y121.953
G01 X360.316 Y119.768
G01 X359.207 Y116.406
G01 X357.664 Y112.641
G01 X356.083 Y109.376
G01 X354.372 Y106.367
G01 X352.220 Y103.088
G01 X350.444 Y100.661
G01 X348.348 Y98.170
G01 X346.174 Y95.810
G01 X344.706 Y94.377
G01 X343.321 Y93.106
G01 X341.652 Y91.692
G01 X337.319 Y88.437
G01 X330.039 Y90.059
G01 X327.674 Y95.250
G01 X328.803 Y99.368
G01 X330.445 Y102.569
G01 X330.398 Y104.940
G01 X329.219 Y106.288
G01 X327.953 Y105.768
G01 X327.736 Y105.651
G01 X327.480 Y105.712
G01 X327.245 Y106.011
G01 X327.209 Y106.389
G01 X327.415 Y106.898
G01 X327.825 Y107.234
G01 X328.523 Y107.417
G01 X329.238 Y107.270
G01 X329.956 Y106.754
G01 X330.409 Y105.976
G01 X330.534 Y105.445
G01 X330.534 Y104.901
G01 X330.226 Y103.875
G01 X329.872 Y103.339
G01 X329.412 Y102.891
G01 X328.850 Y102.560
G01 X328.269 Y102.336
G01 X327.543 Y102.207
G01 X326.808 Y102.246
G01 X326.091 Y102.438
G01 X325.430 Y102.745
G01 X324.765 Y103.248
G01 X324.227 Y103.871
G01 X323.810 Y104.585
G01 X323.552 Y105.379
G01 X323.429 Y106.298
G01 X323.519 Y107.216
G01 X323.764 Y108.103
G01 X324.200 Y108.923
G01 X324.828 Y109.709
G01 X325.616 Y110.359
G01 X326.522 Y110.853
G01 X327.494 Y111.163
G01 X328.603 Y111.271
G01 X329.702 Y111.149
G01 X330.782 Y110.820
G01 X331.762 Y110.292
G01 X332.695 Y109.505
G01 X333.445 Y108.555
G01 X333.998 Y107.487
G01 X334.336 Y106.323
G01 X334.438 Y105.022
G01 X334.280 Y103.717
G01 X333.877 Y102.478
G01 X333.244 Y101.317
G01 X332.325 Y100.264
G01 X331.217 Y99.404
G01 X329.956 Y98.788
G01 X328.617 Y98.397
G01 X327.114 Y98.300
G01 X325.625 Y98.502
G01 X324.195 Y98.993
G01 X322.905 Y99.726
G01 X321.694 Y100.780
G01 X320.742 Y102.042
G01 X320.037 Y103.478
G01 X319.619 Y105.025
G01 X319.525 Y106.728
G01 X319.765 Y108.404
G01 X320.326 Y109.995
G01 X321.174 Y111.464
G01 X322.361 Y112.786
G01 X323.803 Y113.869
G01 X325.412 Y114.639
G01 X327.146 Y115.072
G01 X329.028 Y115.180
G01 X330.895 Y114.891
G01 X332.674 Y114.272
G01 X334.298 Y113.303
G01 X335.765 Y111.976
G01 X336.933 Y110.377
G01 X337.779 Y108.577
G01 X338.267 Y106.674
G01 X338.353 Y104.588
G01 X338.036 Y102.529
G01 X337.330 Y100.573
G01 X336.267 Y98.804
G01 X334.789 Y97.198
G01 X333.033 Y95.925
G01 X331.070 Y94.996
G01 X328.962 Y94.472
G01 X327.822 Y94.373
G01 X326.686 Y94.395
G01 X324.439 Y94.748
G01 X322.303 Y95.535
G01 X320.361 Y96.701
G01 X319.455 Y97.469
G01 X318.635 Y98.305
G01 X317.905 Y99.237
G01 X317.258 Y100.234
G01 X316.255 Y102.387
G01 X315.920 Y103.525
G01 X315.696 Y104.685
G01 X315.586 Y105.926
G01 X315.617 Y107.149
G01 X315.760 Y108.372
G01 X316.024 Y109.572
G01 X316.383 Y110.765
G01 X316.869 Y111.886
G01 X317.459 Y112.981
G01 X318.147 Y113.993
G01 X318.979 Y114.974
G01 X319.897 Y115.869
G01 X320.902 Y116.653
G01 X321.985 Y117.348
G01 X323.122 Y117.943
G01 X324.315 Y118.410
G01 X325.554 Y118.771
G01 X326.804 Y119.005
G01 X328.131 Y119.122
G01 X329.447 Y119.098
G01 X330.768 Y118.939
G01 X332.070 Y118.658
G01 X333.339 Y118.245
G01 X334.563 Y117.719
G01 X335.728 Y117.071
G01 X336.833 Y116.328
G01 X337.878 Y115.427
G01 X338.834 Y114.439
G01 X339.683 Y113.351
G01 X340.424 Y112.193
G01 X341.053 Y110.961
G01 X341.568 Y109.685
G01 X341.952 Y108.354
G01 X342.190 Y107.019
G01 X342.304 Y105.577
G01 X342.267 Y104.161
G01 X342.091 Y102.751
G01 X341.788 Y101.356
G01 X341.346 Y100.000
G01 X340.779 Y98.693
G01 X340.086 Y97.437
G01 X339.271 Y96.264
G01 X338.333 Y95.147
G01 X337.262 Y94.140
G01 X336.089 Y93.233
G01 X334.848 Y92.444
G01 X333.526 Y91.767
G01 X332.157 Y91.221
G01 X330.744 Y90.806
G01 X329.294 Y90.554
G01 X327.780 Y90.449
G01 X326.258 Y90.464
G01 X324.741 Y90.658
G01 X323.269 Y90.994
G01 X321.801 Y91.477
G01 X320.406 Y92.084
G01 X319.085 Y92.812
G01 X317.828 Y93.681
G01 X316.640 Y94.721
G01 X315.575 Y95.843
G01 X314.596 Y97.084
G01 X313.766 Y98.416
G01 X313.050 Y99.824
G01 X312.470 Y101.288
G01 X312.047 Y102.792
G01 X311.775 Y104.333
G01 X311.645 Y105.962
G01 X311.702 Y107.565
G01 X311.907 Y109.182
G01 X312.262 Y110.762
G01 X312.765 Y112.306
G01 X313.411 Y113.787
G01 X314.210 Y115.185
G01 X315.137 Y116.520
G01 X316.230 Y117.786
G01 X317.437 Y118.931
G01 X318.747 Y119.953
G01 X320.178 Y120.833
G01 X321.657 Y121.591
G01 X323.215 Y122.184
G01 X324.819 Y122.653
G01 X326.462 Y122.931
G01 X328.160 Y123.058
G01 X329.881 Y123.010
G01 X331.589 Y122.792
G01 X333.248 Y122.406
G01 X334.885 Y121.866
G01 X336.460 Y121.174
G01 X337.960 Y120.316
G01 X339.369 Y119.340
G01 X340.685 Y118.181
G01 X341.903 Y116.895
G01 X342.978 Y115.511
G01 X343.920 Y114.004
G01 X344.708 Y112.422
G01 X345.338 Y110.792
G01 X345.806 Y109.084
G01 X346.107 Y107.356
G01 X346.237 Y105.547
G01 X346.179 Y103.740
G01 X345.945 Y101.945
G01 X345.547 Y100.173
G01 X344.971 Y98.449
G01 X344.232 Y96.783
G01 X343.332 Y95.211
G01 X342.301 Y93.722
G01 X341.084 Y92.345
G01 X339.724 Y91.050
G01 X338.263 Y89.920
G01 X336.673 Y88.940
G01 X335.002 Y88.109
G01 X333.272 Y87.437
G01 X331.474 Y86.948
G01 X329.642 Y86.629
G01 X327.726 Y86.511
G01 X325.802 Y86.574
G01 X323.905 Y86.832
G01 X322.023 Y87.277
G01 X320.212 Y87.876
G01 X318.480 Y88.656
G01 X316.837 Y89.592
G01 X315.308 Y90.665
G01 X314.340 Y91.539
G01 X312.496 Y93.572
G01 X309.878 Y97.967
G01 X308.617 Y102.038
G01 X308.262 Y106.178
G01 X308.814 Y110.382
G01 X310.355 Y114.592
G01 X312.033 Y117.337
G01 X314.219 Y119.857
G01 X317.694 Y122.564
G01 X321.797 Y124.397
G01 X324.684 Y125.800
G01 X327.613 Y127.432
G01 X330.619 Y129.357
G01 X335.091 Y132.778
G01 X339.923 Y137.400
G01 X342.357 Y140.171
G01 X346.327 Y145.703
G01 X348.279 Y149.070
G01 X350.686 Y154.206
G01 X352.166 Y158.201
G01 X353.455 Y162.843
G01 X354.494 Y168.734
G01 X354.806 Y172.244
G01 X354.830 Y177.602
G01 X354.461 Y182.541
G01 X354.169 Y184.313
G01 X353.878 Y186.068
G01 X353.891 Y186.089
G01 X353.861 Y186.136
G01 X353.236 Y187.948
G01 X352.169 Y189.476
G01 X351.207 Y190.850
G01 X350.255 Y192.197
G01 X352.818 Y197.265
G01 X352.858 Y197.349
G01 X354.512 Y201.244
G01 X356.210 Y205.969
G01 X357.161 Y209.174
G01 X358.081 Y212.967
G01 X358.735 Y216.257
G01 X358.935 Y217.516
G01 X359.954 Y219.900
G01 X361.400 Y223.646
G01 X362.583 Y227.295
G01 X363.746 Y231.597
G01 X364.786 Y236.950
G01 X365.132 Y239.331
G01 X365.553 Y243.684
G01 X365.704 Y246.747
G01 X365.743 Y248.715
G01 X365.748 Y249.351
G01 X365.724 Y249.652
G01 X365.725 Y249.826
G01 X365.725 Y250.000
G01 X366.100 Y249.837
G01 X367.024 Y249.414
G01 X368.021 Y248.973
G01 X368.916 Y248.561
G01 X370.405 Y247.820
G01 X371.266 Y247.125
G01 X371.927 Y246.573
G01 X374.196 Y243.809
G01 X375.999 Y241.292
G01 X377.977 Y238.141
G01 X379.642 Y235.064
G01 X381.127 Y231.868
G01 X382.035 Y229.612
G01 X386.421 Y226.975
G01 X390.074 Y224.366
G01 X393.363 Y221.594
G01 X396.170 Y218.860
G01 X398.984 Y215.728
G01 X403.088 Y210.110
G01 X406.326 Y204.369
G01 X408.426 Y199.600
G01 X409.428 Y196.706
G01 X413.082 Y194.631
G01 X417.522 Y191.249
G01 X421.910 Y186.682
G01 X426.624 Y179.228
G01 X429.040 Y172.736
G01 X433.683 Y172.534
G01 X439.632 Y171.273
G01 X447.191 Y167.834
G01 X455.306 Y160.791
G01 X459.187 Y154.997
G01 X461.025 Y150.807
G01 X462.288 Y146.271
G01 X462.922 Y141.440
G01 X462.855 Y136.820
G01 X461.997 Y131.639
G01 X460.595 Y127.314
G01 X457.947 Y122.018
G01 X450.813 Y119.806
G01 X446.170 Y123.122
G01 X445.105 Y127.216
G01 X444.914 Y130.845
G01 X443.687 Y132.868
G01 X442.013 Y133.434
G01 X441.170 Y132.344
G01 X441.019 Y132.147
G01 X440.764 Y132.067
G01 X440.410 Y132.207
G01 X440.195 Y132.524
G01 X440.141 Y133.056
G01 X440.314 Y133.578
G01 X440.834 Y134.046
G01 X441.508 Y134.290
G01 X442.390 Y134.204
G01 X443.184 Y133.778
G01 X443.553 Y133.372
G01 X443.819 Y132.894
G01 X444.082 Y131.833
G01 X444.020 Y131.204
G01 X443.848 Y130.589
G01 X443.555 Y130.020
G01 X443.134 Y129.532
G01 X442.581 Y129.073
G01 X441.924 Y128.734
G01 X441.211 Y128.542
G01 X440.483 Y128.469
G01 X439.669 Y128.588
G01 X438.886 Y128.849
G01 X438.167 Y129.257
G01 X437.545 Y129.815
G01 X436.976 Y130.549
G01 X436.596 Y131.395
G01 X436.368 Y132.297
G01 X436.323 Y133.210
G01 X436.483 Y134.223
G01 X436.832 Y135.168
G01 X437.370 Y136.048
G01 X438.052 Y136.789
G01 X438.969 Y137.444
G01 X439.988 Y137.889
G01 X441.070 Y138.151
G01 X442.192 Y138.189
G01 X443.388 Y137.959
G01 X444.517 Y137.513
G01 X445.533 Y136.873
G01 X446.402 Y136.029
G01 X447.164 Y134.953
G01 X447.677 Y133.751
G01 X447.939 Y132.475
G01 X447.961 Y131.147
G01 X447.699 Y129.793
G01 X447.165 Y128.491
G01 X446.378 Y127.317
G01 X445.418 Y126.308
G01 X444.168 Y125.461
G01 X442.771 Y124.910
G01 X441.294 Y124.614
G01 X439.786 Y124.596
G01 X438.231 Y124.920
G01 X436.778 Y125.535
G01 X435.447 Y126.422
G01 X434.308 Y127.553
G01 X433.381 Y128.961
G01 X432.740 Y130.535
G01 X432.431 Y132.216
G01 X432.433 Y133.887
G01 X432.803 Y135.645
G01 X433.522 Y137.279
G01 X434.515 Y138.767
G01 X435.787 Y140.018
G01 X437.374 Y141.043
G01 X439.130 Y141.736
G01 X440.996 Y142.083
G01 X442.876 Y142.061
G01 X444.817 Y141.640
G01 X446.630 Y140.837
G01 X448.258 Y139.700
G01 X449.639 Y138.277
G01 X450.757 Y136.541
G01 X451.496 Y134.604
G01 X451.873 Y132.557
G01 X451.833 Y130.464
G01 X451.363 Y128.363
G01 X450.470 Y126.372
G01 X449.239 Y124.586
G01 X447.661 Y123.082
G01 X446.731 Y122.425
G01 X445.741 Y121.867
G01 X443.620 Y121.059
G01 X441.372 Y120.670
G01 X439.115 Y120.729
G01 X437.944 Y120.922
G01 X436.798 Y121.241
G01 X435.697 Y121.671
G01 X434.641 Y122.210
G01 X432.701 Y123.580
G01 X431.868 Y124.398
G01 X431.084 Y125.287
G01 X430.385 Y126.299
G01 X429.785 Y127.371
G01 X429.295 Y128.517
G01 X428.910 Y129.690
G01 X428.641 Y130.906
G01 X428.484 Y132.116
G01 X428.462 Y133.357
G01 X428.571 Y134.581
G01 X428.782 Y135.834
G01 X429.124 Y137.073
G01 X429.607 Y138.268
G01 X430.189 Y139.400
G01 X430.882 Y140.488
G01 X431.686 Y141.486
G01 X432.560 Y142.420
G01 X433.538 Y143.249
G01 X434.631 Y143.992
G01 X435.788 Y144.658
G01 X437.022 Y145.166
G01 X438.279 Y145.572
G01 X439.582 Y145.863
G01 X440.911 Y146.001
G01 X442.244 Y146.047
G01 X443.550 Y145.940
G01 X444.916 Y145.683
G01 X446.242 Y145.301
G01 X447.529 Y144.792
G01 X448.742 Y144.145
G01 X449.903 Y143.399
G01 X450.976 Y142.543
G01 X451.971 Y141.595
G01 X452.854 Y140.545
G01 X453.667 Y139.369
G01 X454.354 Y138.121
G01 X454.923 Y136.822
G01 X455.341 Y135.463
G01 X455.640 Y134.053
G01 X455.807 Y132.626
G01 X455.834 Y131.215
G01 X455.729 Y129.790
G01 X455.459 Y128.344
G01 X455.025 Y126.933
G01 X454.484 Y125.555
G01 X453.807 Y124.258
G01 X452.981 Y123.023
G01 X452.076 Y121.867
G01 X451.038 Y120.799
G01 X449.916 Y119.847
G01 X448.665 Y118.987
G01 X447.346 Y118.265
G01 X445.927 Y117.677
G01 X444.465 Y117.215
G01 X442.974 Y116.899
G01 X441.456 Y116.727
G01 X439.946 Y116.704
G01 X438.423 Y116.843
G01 X436.888 Y117.141
G01 X435.382 Y117.569
G01 X433.930 Y118.161
G01 X432.539 Y118.882
G01 X431.221 Y119.746
G01 X429.994 Y120.737
G01 X428.876 Y121.838
G01 X427.852 Y123.029
G01 X426.938 Y124.374
G01 X426.167 Y125.794
G01 X425.535 Y127.288
G01 X425.062 Y128.840
G01 X424.732 Y130.433
G01 X424.552 Y132.036
G01 X424.543 Y133.638
G01 X424.683 Y135.253
G01 X424.981 Y136.901
G01 X425.467 Y138.493
G01 X426.088 Y140.042
G01 X426.877 Y141.506
G01 X427.793 Y142.917
G01 X428.827 Y144.210
G01 X429.992 Y145.407
G01 X431.271 Y146.475
G01 X432.708 Y147.440
G01 X434.211 Y148.237
G01 X435.780 Y148.916
G01 X437.443 Y149.416
G01 X439.102 Y149.765
G01 X440.813 Y149.955
G01 X442.535 Y149.959
G01 X444.234 Y149.815
G01 X445.977 Y149.486
G01 X447.654 Y148.975
G01 X449.305 Y148.307
G01 X450.844 Y147.472
G01 X452.342 Y146.503
G01 X453.710 Y145.391
G01 X454.958 Y144.154
G01 X456.091 Y142.810
G01 X457.110 Y141.305
G01 X457.966 Y139.713
G01 X458.657 Y138.033
G01 X459.169 Y136.299
G01 X459.535 Y134.521
G01 X459.744 Y132.732
G01 X459.748 Y130.906
G01 X459.583 Y129.108
G01 X459.246 Y127.286
G01 X458.719 Y125.510
G01 X458.002 Y123.785
G01 X457.143 Y122.142
G01 X456.110 Y120.577
G01 X454.931 Y119.136
G01 X453.629 Y117.807
G01 X452.199 Y116.627
G01 X450.584 Y115.552
G01 X448.894 Y114.657
G01 X447.098 Y113.938
G01 X445.274 Y113.373
G01 X443.397 Y113.009
G01 X441.496 Y112.796
G01 X439.614 Y112.792
G01 X437.757 Y112.959
G01 X434.218 Y113.926
G01 X430.251 Y115.962
G01 X426.279 Y119.462
G01 X423.876 Y122.904
G01 X422.244 Y126.876
G01 X421.601 Y130.038
G01 X421.493 Y133.227
G01 X421.808 Y135.981
G01 X422.519 Y138.664
G01 X423.647 Y141.373
G01 X425.479 Y144.358
G01 X427.715 Y147.963
G01 X429.105 Y153.336
G01 X429.704 Y156.009
G01 X430.190 Y159.645
G01 X430.337 Y162.887
G01 X430.222 Y165.792
G01 X429.731 Y169.585
G01 X429.040 Y172.736
G01 X427.836 Y175.982
G01 X424.270 Y182.947
G01 X419.711 Y188.972
G01 X415.302 Y192.935
G01 X410.931 Y195.917
G01 X409.428 Y196.706
G01 X410.072 Y194.562
G01 X410.652 Y192.374
G01 X411.373 Y188.908
G01 X411.919 Y184.876
G01 X412.183 Y181.257
G01 X412.205 Y177.796
G01 X411.981 Y173.880
G01 X411.656 Y170.891
G01 X411.087 Y167.685
G01 X410.384 Y164.555
G01 X409.830 Y162.580
G01 X409.266 Y160.787
G01 X408.527 Y158.727
G01 X406.402 Y153.742
G01 X399.287 Y151.507
G01 X394.643 Y154.820
G01 X393.562 Y158.950
G01 X393.383 Y162.544
G01 X392.157 Y164.574
G01 X390.462 Y165.152
G01 X389.625 Y164.067
G01 X389.496 Y163.858
G01 X389.244 Y163.783
G01 X388.891 Y163.925
G01 X388.670 Y164.234
G01 X388.595 Y164.778
G01 X388.781 Y165.274
G01 X389.294 Y165.781
G01 X389.987 Y166.011
G01 X390.867 Y165.923
G01 X391.648 Y165.476
G01 X392.023 Y165.079
G01 X392.294 Y164.607
G01 X392.541 Y163.565
G01 X392.502 Y162.924
G01 X392.328 Y162.306
G01 X392.006 Y161.738
G01 X391.606 Y161.239
G01 X391.051 Y160.780
G01 X390.395 Y160.446
G01 X389.678 Y160.253
G01 X388.952 Y160.189
G01 X388.125 Y160.292
G01 X387.347 Y160.563
G01 X386.629 Y160.972
G01 X386.008 Y161.531
G01 X385.442 Y162.265
G01 X385.061 Y163.105
G01 X384.830 Y163.995
G01 X384.798 Y164.924
G01 X384.949 Y165.918
G01 X385.306 Y166.875
G01 X385.843 Y167.756
G01 X386.530 Y168.511
G01 X387.437 Y169.158
G01 X388.450 Y169.603
G01 X389.549 Y169.858
G01 X390.663 Y169.890
G01 X391.863 Y169.676
G01 X392.988 Y169.227
G01 X394.000 Y168.579
G01 X394.875 Y167.740
G01 X395.615 Y166.665
G01 X396.130 Y165.455
G01 X396.401 Y164.181
G01 X396.433 Y162.859
G01 X396.164 Y161.488
G01 X395.634 Y160.189
G01 X394.850 Y159.024
G01 X393.886 Y158.016
G01 X392.633 Y157.181
G01 X391.243 Y156.611
G01 X389.759 Y156.322
G01 X388.274 Y156.311
G01 X386.699 Y156.619
G01 X385.243 Y157.236
G01 X383.915 Y158.127
G01 X382.780 Y159.257
G01 X381.847 Y160.686
G01 X381.216 Y162.257
G01 X380.906 Y163.915
G01 X380.907 Y165.611
G01 X381.273 Y167.350
G01 X381.981 Y169.009
G01 X382.989 Y170.480
G01 X384.274 Y171.722
G01 X385.850 Y172.757
G01 X387.612 Y173.440
G01 X389.462 Y173.793
G01 X391.353 Y173.766
G01 X393.287 Y173.351
G01 X395.098 Y172.550
G01 X396.731 Y171.414
G01 X398.104 Y170.010
G01 X399.222 Y168.246
G01 X399.977 Y166.305
G01 X400.343 Y164.257
G01 X400.307 Y162.194
G01 X399.830 Y160.064
G01 X398.947 Y158.084
G01 X397.711 Y156.298
G01 X396.148 Y154.790
G01 X395.210 Y154.134
G01 X394.215 Y153.586
G01 X392.092 Y152.768
G01 X389.849 Y152.381
G01 X387.584 Y152.419
G01 X386.415 Y152.632
G01 X385.288 Y152.946
G01 X384.189 Y153.388
G01 X383.130 Y153.928
G01 X381.185 Y155.291
G01 X380.326 Y156.109
G01 X379.552 Y157.002
G01 X378.837 Y158.022
G01 X378.251 Y159.096
G01 X377.764 Y160.227
G01 X377.384 Y161.385
G01 X377.107 Y162.611
G01 X376.967 Y163.824
G01 X376.931 Y165.067
G01 X377.021 Y166.288
G01 X377.250 Y167.553
G01 X377.598 Y168.788
G01 X378.077 Y169.969
G01 X378.667 Y171.113
G01 X379.354 Y172.197
G01 X380.154 Y173.197
G01 X381.047 Y174.130
G01 X382.011 Y174.957
G01 X383.102 Y175.722
G01 X384.255 Y176.359
G01 X385.478 Y176.882
G01 X386.746 Y177.289
G01 X388.051 Y177.566
G01 X389.374 Y177.723
G01 X390.707 Y177.744
G01 X392.036 Y177.653
G01 X393.392 Y177.396
G01 X394.713 Y177.017
G01 X395.992 Y176.500
G01 X397.213 Y175.867
G01 X398.374 Y175.115
G01 X399.458 Y174.268
G01 X400.456 Y173.308
G01 X401.330 Y172.270
G01 X402.149 Y171.079
G01 X402.825 Y169.834
G01 X403.378 Y168.524
G01 X403.813 Y167.165
G01 X404.108 Y165.770
G01 X404.270 Y164.354
G01 X404.298 Y162.920
G01 X404.179 Y161.497
G01 X403.925 Y160.060
G01 X403.501 Y158.653
G01 X402.939 Y157.280
G01 X402.259 Y155.977
G01 X401.452 Y154.730
G01 X400.539 Y153.572
G01 X399.523 Y152.506
G01 X398.394 Y151.563
G01 X397.135 Y150.715
G01 X395.810 Y149.967
G01 X394.399 Y149.377
G01 X392.956 Y148.931
G01 X391.442 Y148.616
G01 X389.931 Y148.444
G01 X388.424 Y148.414
G01 X386.900 Y148.538
G01 X385.352 Y148.845
G01 X383.869 Y149.284
G01 X382.400 Y149.869
G01 X381.015 Y150.608
G01 X379.691 Y151.469
G01 X378.457 Y152.447
G01 X377.338 Y153.537
G01 X376.332 Y154.736
G01 X375.406 Y156.082
G01 X374.653 Y157.499
G01 X374.022 Y159.002
G01 X373.540 Y160.547
G01 X373.204 Y162.136
G01 X373.023 Y163.742
G01 X373.015 Y165.352
G01 X373.150 Y166.972
G01 X373.464 Y168.614
G01 X373.937 Y170.210
G01 X374.561 Y171.750
G01 X375.359 Y173.227
G01 X376.262 Y174.623
G01 X377.314 Y175.916
G01 X378.469 Y177.124
G01 X379.752 Y178.186
G01 X381.160 Y179.145
G01 X382.674 Y179.964
G01 X384.256 Y180.616
G01 X385.892 Y181.125
G01 X387.579 Y181.476
G01 X389.290 Y181.664
G01 X391.018 Y181.671
G01 X392.726 Y181.530
G01 X394.445 Y181.184
G01 X396.143 Y180.680
G01 X397.766 Y180.018
G01 X399.335 Y179.184
G01 X400.809 Y178.208
G01 X402.169 Y177.112
G01 X403.429 Y175.866
G01 X404.553 Y174.520
G01 X405.571 Y173.019
G01 X406.424 Y171.425
G01 X407.118 Y169.753
G01 X407.660 Y168.020
G01 X408.023 Y166.239
G01 X408.216 Y164.427
G01 X408.222 Y162.615
G01 X408.074 Y160.810
G01 X407.699 Y158.993
G01 X407.178 Y157.208
G01 X406.478 Y155.498
G01 X405.591 Y153.855
G01 X404.560 Y152.299
G01 X403.397 Y150.852
G01 X402.085 Y149.530
G01 X400.658 Y148.338
G01 X399.058 Y147.278
G01 X397.359 Y146.370
G01 X395.588 Y145.645
G01 X393.736 Y145.089
G01 X391.868 Y144.703
G01 X389.977 Y144.512
G01 X388.086 Y144.502
G01 X386.226 Y144.666
G01 X384.951 Y144.939
G01 X382.337 Y145.778
G01 X377.873 Y148.274
G01 X374.745 Y151.170
G01 X372.368 Y154.577
G01 X370.735 Y158.483
G01 X369.973 Y162.911
G01 X370.054 Y166.127
G01 X370.687 Y169.402
G01 X372.343 Y173.484
G01 X374.980 Y177.124
G01 X376.778 Y179.782
G01 X378.499 Y182.660
G01 X380.139 Y185.830
G01 X382.302 Y191.028
G01 X384.175 Y197.448
G01 X384.898 Y201.063
G01 X385.571 Y207.840
G01 X385.578 Y211.732
G01 X385.093 Y217.383
G01 X384.378 Y221.583
G01 X383.173 Y226.247
G01 X381.127 Y231.868
G01 X379.642 Y235.064
G01 X376.984 Y239.717
G01 X374.196 Y243.809
G01 X373.056 Y245.198
G01 X371.927 Y246.573
G01 X371.928 Y246.597
G01 X371.878 Y246.623
G01 X370.431 Y247.880
G01 X368.593 Y248.754
G01 X367.298 Y249.366
G01 X365.725 Y250.034
G01 X365.413 Y255.704
G01 X365.403 Y255.832
G01 X364.888 Y260.032
G01 X363.996 Y264.973
G01 X363.218 Y268.224
G01 X362.118 Y271.969
G01 X361.039 Y275.145
G01 X360.582 Y276.335
G01 X360.273 Y278.910
G01 X359.652 Y282.877
G01 X358.852 Y286.629
G01 X357.708 Y290.935
G01 X355.932 Y296.091
G01 X355.041 Y298.326
G01 X353.229 Y302.307
G01 X351.829 Y305.035
G01 X350.879 Y306.759
G01 X350.565 Y307.312
G01 X350.394 Y307.561
G01 X350.308 Y307.712
G01 X350.221 Y307.862
G01 X350.627 Y307.909
G01 X351.638 Y308.005
G01 X352.722 Y308.121
G01 X353.704 Y308.212
G01 X355.364 Y308.315
G01 X356.457 Y308.143
G01 X357.305 Y307.995
G01 X360.652 Y306.737
G01 X363.473 Y305.458
G01 X366.761 Y303.718
G01 X369.742 Y301.886
G01 X372.625 Y299.861
G01 X374.540 Y298.361
G01 X379.656 Y298.270
G01 X384.125 Y297.837
G01 X388.359 Y297.082
G01 X392.157 Y296.117
G01 X396.160 Y294.812
G01 X402.523 Y291.998
G01 X408.198 Y288.646
G01 X412.401 Y285.566
G01 X414.716 Y283.560
G01 X418.918 Y283.590
G01 X424.453 Y282.881
G01 X430.538 Y281.120
G01 X438.346 Y277.022
G01 X443.685 Y272.607
G01 X447.807 Y274.754
G01 X453.590 Y276.637
G01 X461.856 Y277.438
G01 X472.405 Y275.396
G01 X478.663 Y272.319
G01 X482.349 Y269.609
G01 X485.711 Y266.313
G01 X488.676 Y262.445
G01 X490.928 Y258.411
G01 X492.775 Y253.495
G01 X493.723 Y249.049
G01 X494.079 Y243.139
G01 X489.006 Y237.655
G01 X483.327 Y238.206
G01 X480.358 Y241.218
G01 X478.378 Y244.266
G01 X476.303 Y245.382
G01 X474.571 Y245.058
G01 X474.386 Y243.692
G01 X474.354 Y243.446
G01 X474.173 Y243.250
G01 X473.797 Y243.194
G01 X473.451 Y243.361
G01 X473.139 Y243.794
G01 X473.028 Y244.333
G01 X473.244 Y244.998
G01 X473.706 Y245.547
G01 X474.513 Y245.913
G01 X475.413 Y245.941
G01 X475.935 Y245.774
G01 X476.405 Y245.493
G01 X477.163 Y244.705
G01 X477.424 Y244.130
G01 X477.583 Y243.511
G01 X477.613 Y242.873
G01 X477.493 Y242.239
G01 X477.243 Y241.565
G01 X476.844 Y240.943
G01 X476.322 Y240.420
G01 X475.728 Y239.993
G01 X474.964 Y239.689
G01 X474.155 Y239.524
G01 X473.329 Y239.517
G01 X472.511 Y239.690
G01 X471.651 Y240.040
G01 X470.899 Y240.583
G01 X470.251 Y241.251
G01 X469.755 Y242.019
G01 X469.388 Y242.976
G01 X469.217 Y243.969
G01 X469.243 Y245.000
G01 X469.463 Y245.983
G01 X469.930 Y247.008
G01 X470.590 Y247.904
G01 X471.396 Y248.671
G01 X472.349 Y249.243
G01 X473.500 Y249.664
G01 X474.700 Y249.842
G01 X475.900 Y249.796
G01 X477.074 Y249.500
G01 X478.273 Y248.949
G01 X479.318 Y248.165
G01 X480.183 Y247.191
G01 X480.866 Y246.051
G01 X481.315 Y244.724
G01 X481.505 Y243.353
G01 X481.410 Y241.943
G01 X481.083 Y240.589
G01 X480.423 Y239.231
G01 X479.489 Y238.055
G01 X478.359 Y237.060
G01 X477.062 Y236.291
G01 X475.553 Y235.793
G01 X473.988 Y235.599
G01 X472.391 Y235.702
G01 X470.839 Y236.112
G01 X469.332 Y236.867
G01 X467.990 Y237.910
G01 X466.881 Y239.190
G01 X466.048 Y240.660
G01 X465.490 Y242.368
G01 X465.295 Y244.142
G01 X465.412 Y245.927
G01 X465.887 Y247.646
G01 X466.749 Y249.327
G01 X467.924 Y250.806
G01 X469.366 Y252.039
G01 X471.005 Y252.961
G01 X472.896 Y253.566
G01 X474.868 Y253.777
G01 X476.846 Y253.606
G01 X478.754 Y253.065
G01 X480.590 Y252.121
G01 X482.199 Y250.812
G01 X483.549 Y249.228
G01 X484.561 Y247.395
G01 X485.204 Y245.341
G01 X485.426 Y243.170
G01 X485.253 Y241.008
G01 X484.638 Y238.916
G01 X484.162 Y237.882
G01 X483.583 Y236.905
G01 X482.150 Y235.145
G01 X480.398 Y233.683
G01 X478.414 Y232.606
G01 X477.303 Y232.188
G01 X476.151 Y231.891
G01 X474.983 Y231.713
G01 X473.799 Y231.651
G01 X471.434 Y231.868
G01 X470.304 Y232.160
G01 X469.180 Y232.538
G01 X468.068 Y233.065
G01 X467.013 Y233.693
G01 X466.015 Y234.441
G01 X465.096 Y235.264
G01 X464.255 Y236.182
G01 X463.514 Y237.152
G01 X462.874 Y238.215
G01 X462.357 Y239.330
G01 X461.913 Y240.520
G01 X461.590 Y241.764
G01 X461.411 Y243.041
G01 X461.348 Y244.313
G01 X461.404 Y245.601
G01 X461.602 Y246.867
G01 X461.892 Y248.113
G01 X462.324 Y249.320
G01 X462.899 Y250.510
G01 X463.569 Y251.665
G01 X464.383 Y252.722
G01 X465.268 Y253.702
G01 X466.251 Y254.606
G01 X467.333 Y255.390
G01 X468.465 Y256.096
G01 X469.649 Y256.657
G01 X470.960 Y257.117
G01 X472.300 Y257.449
G01 X473.644 Y257.651
G01 X475.043 Y257.699
G01 X476.421 Y257.632
G01 X477.779 Y257.427
G01 X479.115 Y257.104
G01 X480.404 Y256.637
G01 X481.697 Y256.025
G01 X482.915 Y255.287
G01 X484.058 Y254.447
G01 X485.099 Y253.479
G01 X486.063 Y252.407
G01 X486.922 Y251.255
G01 X487.650 Y250.047
G01 X488.272 Y248.760
G01 X488.761 Y247.373
G01 X489.090 Y245.934
G01 X489.311 Y244.470
G01 X489.373 Y243.007
G01 X489.275 Y241.525
G01 X489.069 Y240.072
G01 X488.704 Y238.628
G01 X488.209 Y237.243
G01 X487.555 Y235.872
G01 X486.774 Y234.587
G01 X485.839 Y233.369
G01 X484.804 Y232.238
G01 X483.671 Y231.218
G01 X482.443 Y230.311
G01 X481.146 Y229.536
G01 X479.758 Y228.894
G01 X478.279 Y228.385
G01 X476.761 Y228.003
G01 X475.207 Y227.790
G01 X473.643 Y227.718
G01 X472.069 Y227.808
G01 X470.510 Y228.053
G01 X468.992 Y228.447
G01 X467.510 Y228.966
G01 X466.046 Y229.674
G01 X464.668 Y230.519
G01 X463.374 Y231.496
G01 X462.188 Y232.603
G01 X461.106 Y233.818
G01 X460.149 Y235.117
G01 X459.315 Y236.501
G01 X458.653 Y237.967
G01 X458.087 Y239.544
G01 X457.712 Y241.166
G01 X457.476 Y242.818
G01 X457.427 Y244.480
G01 X457.514 Y246.160
G01 X457.763 Y247.797
G01 X458.174 Y249.416
G01 X458.748 Y250.980
G01 X459.510 Y252.534
G01 X460.412 Y253.976
G01 X461.432 Y255.350
G01 X462.622 Y256.614
G01 X463.885 Y257.745
G01 X465.272 Y258.766
G01 X466.761 Y259.630
G01 X468.305 Y260.355
G01 X469.978 Y260.941
G01 X471.685 Y261.337
G01 X473.450 Y261.584
G01 X475.200 Y261.630
G01 X476.982 Y261.540
G01 X478.723 Y261.261
G01 X480.421 Y260.814
G01 X482.075 Y260.217
G01 X483.710 Y259.423
G01 X485.248 Y258.472
G01 X486.686 Y257.362
G01 X487.996 Y256.117
G01 X489.203 Y254.760
G01 X490.277 Y253.315
G01 X491.194 Y251.736
G01 X491.950 Y250.096
G01 X492.569 Y248.350
G01 X493.000 Y246.548
G01 X493.242 Y244.696
G01 X493.320 Y242.843
G01 X493.207 Y240.972
G01 X492.907 Y239.134
G01 X492.444 Y237.332
G01 X491.796 Y235.595
G01 X490.935 Y233.856
G01 X489.918 Y232.237
G01 X488.722 Y230.716
G01 X487.426 Y229.315
G01 X485.982 Y228.061
G01 X484.442 Y226.926
G01 X482.814 Y225.981
G01 X481.123 Y225.198
G01 X477.575 Y224.265
G01 X473.121 Y224.046
G01 X467.931 Y225.091
G01 X464.129 Y226.870
G01 X460.730 Y229.494
G01 X458.592 Y231.911
G01 X456.904 Y234.619
G01 X455.800 Y237.161
G01 X455.073 Y239.840
G01 X454.697 Y242.750
G01 X454.791 Y246.251
G01 X454.924 Y250.491
G01 X453.441 Y255.840
G01 X452.624 Y258.454
G01 X451.227 Y261.845
G01 X449.733 Y264.726
G01 X448.181 Y267.185
G01 X445.859 Y270.225
G01 X443.685 Y272.607
G01 X441.020 Y274.817
G01 X434.449 Y279.066
G01 X427.488 Y282.003
G01 X421.688 Y283.232
G01 X416.411 Y283.629
G01 X414.716 Y283.560
G01 X416.345 Y282.025
G01 X417.942 Y280.421
G01 X420.299 Y277.779
G01 X422.788 Y274.560
G01 X424.826 Y271.559
G01 X426.576 Y268.573
G01 X428.339 Y265.069
G01 X429.553 Y262.318
G01 X430.663 Y259.257
G01 X431.619 Y256.195
G01 X432.126 Y254.207
G01 X432.535 Y252.372
G01 X432.925 Y250.219
G01 X433.577 Y244.839
G01 X428.532 Y239.346
G01 X422.855 Y239.893
G01 X419.853 Y242.929
G01 X417.901 Y245.952
G01 X415.825 Y247.097
G01 X414.068 Y246.750
G01 X413.885 Y245.393
G01 X413.878 Y245.147
G01 X413.697 Y244.956
G01 X413.320 Y244.902
G01 X412.975 Y245.060
G01 X412.638 Y245.493
G01 X412.551 Y246.016
G01 X412.742 Y246.712
G01 X413.227 Y247.257
G01 X414.033 Y247.621
G01 X414.933 Y247.624
G01 X415.456 Y247.468
G01 X415.926 Y247.195
G01 X416.661 Y246.416
G01 X416.948 Y245.842
G01 X417.107 Y245.219
G01 X417.112 Y244.566
G01 X417.015 Y243.934
G01 X416.764 Y243.258
G01 X416.362 Y242.641
G01 X415.838 Y242.116
G01 X415.242 Y241.697
G01 X414.474 Y241.373
G01 X413.665 Y241.219
G01 X412.838 Y241.214
G01 X412.021 Y241.388
G01 X411.163 Y241.741
G01 X410.414 Y242.278
G01 X409.769 Y242.933
G01 X409.276 Y243.721
G01 X408.910 Y244.658
G01 X408.741 Y245.665
G01 X408.766 Y246.697
G01 X408.983 Y247.694
G01 X409.445 Y248.708
G01 X410.099 Y249.599
G01 X410.925 Y250.370
G01 X411.872 Y250.954
G01 X413.019 Y251.369
G01 X414.218 Y251.543
G01 X415.418 Y251.488
G01 X416.596 Y251.199
G01 X417.774 Y250.637
G01 X418.825 Y249.847
G01 X419.696 Y248.879
G01 X420.385 Y247.750
G01 X420.838 Y246.428
G01 X421.028 Y245.038
G01 X420.932 Y243.638
G01 X420.601 Y242.283
G01 X419.933 Y240.933
G01 X419.014 Y239.745
G01 X417.874 Y238.752
G01 X416.593 Y238.001
G01 X415.076 Y237.479
G01 X413.506 Y237.286
G01 X411.910 Y237.394
G01 X410.362 Y237.805
G01 X408.840 Y238.575
G01 X407.508 Y239.620
G01 X406.411 Y240.902
G01 X405.563 Y242.371
G01 X405.011 Y244.060
G01 X404.794 Y245.850
G01 X404.932 Y247.629
G01 X405.424 Y249.347
G01 X406.272 Y251.031
G01 X407.455 Y252.503
G01 X408.881 Y253.734
G01 X410.532 Y254.656
G01 X412.415 Y255.263
G01 X414.384 Y255.475
G01 X416.365 Y255.308
G01 X418.257 Y254.779
G01 X420.107 Y253.810
G01 X421.732 Y252.507
G01 X423.073 Y250.917
G01 X424.073 Y249.112
G01 X424.725 Y247.029
G01 X424.950 Y244.872
G01 X424.773 Y242.707
G01 X424.173 Y240.620
G01 X423.688 Y239.583
G01 X423.101 Y238.610
G01 X421.671 Y236.841
G01 X419.923 Y235.384
G01 X417.941 Y234.285
G01 X416.823 Y233.884
G01 X415.690 Y233.593
G01 X414.517 Y233.426
G01 X413.330 Y233.364
G01 X410.964 Y233.573
G01 X409.811 Y233.852
G01 X408.694 Y234.237
G01 X407.565 Y234.763
G01 X406.521 Y235.401
G01 X405.533 Y236.136
G01 X404.625 Y236.949
G01 X403.773 Y237.872
G01 X403.045 Y238.853
G01 X402.391 Y239.912
G01 X401.859 Y241.014
G01 X401.426 Y242.224
G01 X401.109 Y243.467
G01 X400.933 Y244.730
G01 X400.872 Y246.015
G01 X400.926 Y247.298
G01 X401.118 Y248.564
G01 X401.425 Y249.818
G01 X401.847 Y251.017
G01 X402.409 Y252.225
G01 X403.088 Y253.353
G01 X403.887 Y254.417
G01 X404.781 Y255.403
G01 X405.773 Y256.296
G01 X406.840 Y257.093
G01 X407.984 Y257.778
G01 X409.180 Y258.364
G01 X410.483 Y258.819
G01 X411.816 Y259.152
G01 X413.183 Y259.344
G01 X414.556 Y259.406
G01 X415.938 Y259.335
G01 X417.300 Y259.143
G01 X418.645 Y258.811
G01 X419.920 Y258.349
G01 X421.226 Y257.727
G01 X422.434 Y256.987
G01 X423.567 Y256.129
G01 X424.623 Y255.170
G01 X425.577 Y254.109
G01 X426.425 Y252.964
G01 X427.166 Y251.736
G01 X427.774 Y250.444
G01 X428.273 Y249.072
G01 X428.609 Y247.642
G01 X428.809 Y246.172
G01 X428.872 Y244.703
G01 X428.796 Y243.220
G01 X428.585 Y241.761
G01 X428.238 Y240.329
G01 X427.732 Y238.948
G01 X427.065 Y237.584
G01 X426.291 Y236.274
G01 X425.365 Y235.057
G01 X424.338 Y233.950
G01 X423.185 Y232.920
G01 X421.962 Y232.016
G01 X420.672 Y231.236
G01 X419.290 Y230.582
G01 X417.796 Y230.073
G01 X416.292 Y229.712
G01 X414.727 Y229.485
G01 X413.159 Y229.431
G01 X411.582 Y229.515
G01 X410.023 Y229.745
G01 X408.509 Y230.130
G01 X407.014 Y230.668
G01 X405.563 Y231.368
G01 X404.203 Y232.219
G01 X402.905 Y233.205
G01 X401.715 Y234.302
G01 X400.630 Y235.510
G01 X399.670 Y236.809
G01 X398.858 Y238.200
G01 X398.165 Y239.670
G01 X397.616 Y241.250
G01 X397.227 Y242.868
G01 X396.998 Y244.514
G01 X396.951 Y246.193
G01 X397.034 Y247.853
G01 X397.299 Y249.499
G01 X397.696 Y251.122
G01 X398.276 Y252.684
G01 X399.015 Y254.218
G01 X399.917 Y255.684
G01 X400.961 Y257.039
G01 X402.124 Y258.298
G01 X403.409 Y259.446
G01 X404.797 Y260.464
G01 X406.290 Y261.335
G01 X407.839 Y262.066
G01 X409.501 Y262.626
G01 X411.199 Y263.036
G01 X412.960 Y263.277
G01 X414.736 Y263.339
G01 X416.500 Y263.231
G01 X418.226 Y262.962
G01 X419.940 Y262.513
G01 X421.587 Y261.909
G01 X423.219 Y261.118
G01 X424.755 Y260.164
G01 X426.192 Y259.064
G01 X427.527 Y257.833
G01 X428.733 Y256.472
G01 X429.806 Y254.999
G01 X430.717 Y253.433
G01 X431.491 Y251.796
G01 X432.075 Y250.036
G01 X432.516 Y248.229
G01 X432.765 Y246.398
G01 X432.818 Y244.531
G01 X432.703 Y242.669
G01 X432.420 Y240.834
G01 X431.945 Y239.033
G01 X431.305 Y237.287
G01 X430.449 Y235.569
G01 X429.432 Y233.933
G01 X428.260 Y232.420
G01 X426.934 Y231.013
G01 X425.510 Y229.744
G01 X423.968 Y228.634
G01 X422.335 Y227.679
G01 X420.642 Y226.891
G01 X419.401 Y226.490
G01 X416.719 Y225.910
G01 X411.604 Y225.840
G01 X407.447 Y226.783
G01 X403.685 Y228.546
G01 X400.318 Y231.111
G01 X397.444 Y234.565
G01 X395.906 Y237.391
G01 X394.817 Y240.544
G01 X394.210 Y244.907
G01 X394.674 Y249.377
G01 X394.902 Y252.579
G01 X394.954 Y255.931
G01 X394.789 Y259.497
G01 X394.063 Y265.080
G01 X392.476 Y271.576
G01 X391.293 Y275.069
G01 X388.488 Y281.274
G01 X386.548 Y284.648
G01 X383.303 Y289.300
G01 X380.584 Y292.579
G01 X377.208 Y296.016
G01 X372.625 Y299.861
G01 X369.742 Y301.886
G01 X365.113 Y304.587
G01 X360.652 Y306.737
G01 X358.971 Y307.370
G01 X357.305 Y307.995
G01 X357.294 Y308.017
G01 X357.238 Y308.014
G01 X355.357 Y308.380
G01 X353.235 Y308.179
G01 X351.715 Y308.022
G01 X350.204 Y307.892
G01 X347.098 Y312.647
G01 X347.025 Y312.752
G01 X344.480 Y316.132
G01 X341.237 Y319.965
G01 X338.937 Y322.391
G01 X336.112 Y325.085
G01 X333.590 Y327.296
G01 X332.599 Y328.098
G01 X331.044 Y330.174
G01 X328.523 Y333.298
G01 X325.955 Y336.148
G01 X322.810 Y339.305
G01 X318.694 Y342.882
G01 X316.805 Y344.373
G01 X313.246 Y346.914
G01 X310.669 Y348.577
G01 X308.984 Y349.594
G01 X308.436 Y349.917
G01 X308.163 Y350.047
G01 X308.013 Y350.134
G01 X307.863 Y350.221
G01 X308.191 Y350.464
G01 X309.019 Y351.053
G01 X309.900 Y351.695
G01 X310.704 Y352.265
G01 X312.090 Y353.184
G01 X313.123 Y353.582
G01 X313.931 Y353.878
G01 X317.459 Y354.462
G01 X320.541 Y354.765
G01 X324.259 Y354.902
G01 X327.756 Y354.806
G01 X331.266 Y354.494
G01 X333.674 Y354.152
G01 X338.150 Y356.631
G01 X342.237 Y358.490
G01 X346.281 Y359.953
G01 X350.053 Y361.017
G01 X354.172 Y361.888
G01 X361.090 Y362.633
G01 X367.680 Y362.568
G01 X372.860 Y362.002
G01 X375.868 Y361.422
G01 X379.492 Y363.549
G01 X384.640 Y365.703
G01 X390.790 Y367.220
G01 X399.602 Y367.575
G01 X406.432 Y366.421
G01 X408.929 Y370.342
G01 X412.995 Y374.863
G01 X419.753 Y379.690
G01 X429.910 Y383.196
G01 X436.869 Y383.660
G01 X441.415 Y383.157
G01 X445.975 Y381.983
G01 X450.476 Y380.116
G01 X454.444 Y377.748
G01 X458.501 Y374.415
G01 X461.546 Y371.038
G01 X464.809 Y366.097
G01 X463.158 Y358.813
G01 X457.964 Y356.450
G01 X453.864 Y357.562
G01 X450.648 Y359.223
G01 X448.293 Y359.152
G01 X446.955 Y358.006
G01 X447.478 Y356.731
G01 X447.573 Y356.502
G01 X447.515 Y356.241
G01 X447.217 Y356.004
G01 X446.834 Y355.976
G01 X446.347 Y356.195
G01 X445.981 Y356.607
G01 X445.836 Y357.290
G01 X445.961 Y357.997
G01 X446.477 Y358.717
G01 X447.243 Y359.192
G01 X447.779 Y359.308
G01 X448.326 Y359.300
G01 X449.376 Y358.997
G01 X449.890 Y358.629
G01 X450.336 Y358.172
G01 X450.661 Y357.623
G01 X450.895 Y357.025
G01 X451.016 Y356.317
G01 X450.981 Y355.579
G01 X450.791 Y354.865
G01 X450.490 Y354.198
G01 X449.990 Y353.532
G01 X449.362 Y353.005
G01 X448.650 Y352.587
G01 X447.855 Y352.327
G01 X446.935 Y352.201
G01 X446.013 Y352.295
G01 X445.118 Y352.549
G01 X444.304 Y352.966
G01 X443.507 Y353.611
G01 X442.863 Y354.386
G01 X442.370 Y355.291
G01 X442.069 Y356.253
G01 X441.961 Y357.374
G01 X442.085 Y358.480
G01 X442.399 Y359.547
G01 X442.938 Y360.519
G01 X443.724 Y361.459
G01 X444.675 Y362.213
G01 X445.737 Y362.773
G01 X446.902 Y363.104
G01 X448.215 Y363.226
G01 X449.512 Y363.070
G01 X450.749 Y362.659
G01 X451.910 Y362.013
G01 X452.962 Y361.089
G01 X453.812 Y359.996
G01 X454.435 Y358.727
G01 X454.830 Y357.392
G01 X454.937 Y355.885
G01 X454.716 Y354.400
G01 X454.234 Y352.973
G01 X453.496 Y351.658
G01 X452.438 Y350.473
G01 X451.179 Y349.523
G01 X449.745 Y348.813
G01 X448.196 Y348.392
G01 X446.513 Y348.293
G01 X444.830 Y348.525
G01 X443.229 Y349.079
G01 X441.773 Y349.936
G01 X440.436 Y351.135
G01 X439.380 Y352.574
G01 X438.588 Y354.179
G01 X438.141 Y355.905
G01 X438.046 Y357.792
G01 X438.324 Y359.660
G01 X438.956 Y361.449
G01 X439.916 Y363.067
G01 X441.251 Y364.537
G01 X442.853 Y365.706
G01 X444.651 Y366.547
G01 X446.575 Y367.032
G01 X448.637 Y367.132
G01 X450.684 Y366.803
G01 X452.645 Y366.106
G01 X454.438 Y365.025
G01 X456.022 Y363.568
G01 X457.300 Y361.798
G01 X458.231 Y359.840
G01 X458.745 Y357.720
G01 X458.849 Y356.587
G01 X458.836 Y355.451
G01 X458.476 Y353.210
G01 X457.689 Y351.068
G01 X456.509 Y349.144
G01 X455.756 Y348.226
G01 X454.907 Y347.393
G01 X453.984 Y346.655
G01 X452.990 Y346.009
G01 X450.833 Y345.014
G01 X449.709 Y344.702
G01 X448.547 Y344.468
G01 X447.320 Y344.368
G01 X446.092 Y344.384
G01 X444.854 Y344.533
G01 X443.646 Y344.786
G01 X442.459 Y345.161
G01 X441.332 Y345.630
G01 X440.247 Y346.231
G01 X439.242 Y346.938
G01 X438.262 Y347.747
G01 X437.360 Y348.663
G01 X436.566 Y349.679
G01 X435.877 Y350.749
G01 X435.281 Y351.893
G01 X434.819 Y353.088
G01 X434.447 Y354.312
G01 X434.218 Y355.573
G01 X434.121 Y356.892
G01 X434.123 Y358.226
G01 X434.300 Y359.549
G01 X434.576 Y360.840
G01 X434.976 Y362.115
G01 X435.521 Y363.335
G01 X436.148 Y364.512
G01 X436.893 Y365.590
G01 X437.799 Y366.644
G01 X438.793 Y367.601
G01 X439.856 Y368.448
G01 X441.044 Y369.189
G01 X442.270 Y369.821
G01 X443.549 Y370.322
G01 X444.867 Y370.710
G01 X446.218 Y370.950
G01 X447.643 Y371.066
G01 X449.067 Y371.037
G01 X450.476 Y370.880
G01 X451.862 Y370.563
G01 X453.233 Y370.116
G01 X454.553 Y369.548
G01 X455.787 Y368.866
G01 X456.969 Y368.062
G01 X458.086 Y367.105
G01 X459.091 Y366.024
G01 X460.014 Y364.867
G01 X460.799 Y363.631
G01 X461.455 Y362.298
G01 X462.004 Y360.937
G01 X462.410 Y359.504
G01 X462.673 Y358.057
G01 X462.793 Y356.542
G01 X462.759 Y355.039
G01 X462.558 Y353.517
G01 X462.227 Y352.020
G01 X461.756 Y350.571
G01 X461.146 Y349.170
G01 X460.410 Y347.851
G01 X459.529 Y346.601
G01 X458.503 Y345.421
G01 X457.379 Y344.330
G01 X456.140 Y343.369
G01 X454.821 Y342.525
G01 X453.413 Y341.816
G01 X451.941 Y341.248
G01 X450.429 Y340.831
G01 X448.886 Y340.539
G01 X447.264 Y340.421
G01 X445.648 Y340.463
G01 X444.039 Y340.663
G01 X442.458 Y341.028
G01 X440.914 Y341.539
G01 X439.435 Y342.185
G01 X438.022 Y342.967
G01 X436.715 Y343.906
G01 X435.437 Y344.989
G01 X434.301 Y346.206
G01 X433.270 Y347.518
G01 X432.396 Y348.933
G01 X431.633 Y350.432
G01 X431.030 Y351.974
G01 X430.576 Y353.582
G01 X430.291 Y355.223
G01 X430.173 Y356.950
G01 X430.234 Y358.650
G01 X430.431 Y360.349
G01 X430.829 Y362.039
G01 X431.357 Y363.650
G01 X432.048 Y365.227
G01 X432.906 Y366.720
G01 X433.880 Y368.120
G01 X435.036 Y369.465
G01 X436.316 Y370.661
G01 X437.721 Y371.757
G01 X439.214 Y372.672
G01 X440.802 Y373.485
G01 X442.449 Y374.114
G01 X444.144 Y374.576
G01 X445.874 Y374.886
G01 X447.687 Y375.016
G01 X449.494 Y374.961
G01 X451.294 Y374.719
G01 X453.052 Y374.296
G01 X454.775 Y373.724
G01 X456.428 Y373.010
G01 X458.012 Y372.100
G01 X459.487 Y371.058
G01 X460.896 Y369.856
G01 X462.170 Y368.511
G01 X463.306 Y367.028
G01 X464.299 Y365.462
G01 X465.138 Y363.786
G01 X465.797 Y362.044
G01 X466.297 Y360.252
G01 X466.604 Y358.424
G01 X466.727 Y356.487
G01 X466.657 Y354.576
G01 X466.381 Y352.661
G01 X465.959 Y350.799
G01 X465.336 Y348.991
G01 X464.570 Y347.239
G01 X463.632 Y345.606
G01 X462.560 Y344.082
G01 X459.953 Y341.501
G01 X456.205 Y339.083
G01 X451.188 Y337.394
G01 X447.007 Y337.033
G01 X442.750 Y337.606
G01 X439.691 Y338.631
G01 X436.875 Y340.132
G01 X434.647 Y341.782
G01 X432.657 Y343.727
G01 X430.897 Y346.070
G01 X429.228 Y349.149
G01 X427.224 Y352.888
G01 X423.265 Y356.778
G01 X421.250 Y358.633
G01 X418.345 Y360.872
G01 X415.610 Y362.620
G01 X413.038 Y363.973
G01 X409.506 Y365.444
G01 X406.432 Y366.421
G01 X403.019 Y367.002
G01 X395.204 Y367.396
G01 X387.707 Y366.460
G01 X382.070 Y364.624
G01 X377.302 Y362.329
G01 X375.868 Y361.422
G01 X378.046 Y360.908
G01 X380.231 Y360.316
G01 X383.605 Y359.194
G01 X387.359 Y357.664
G01 X390.624 Y356.083
G01 X393.633 Y354.372
G01 X396.912 Y352.220
G01 X399.338 Y350.444
G01 X401.830 Y348.349
G01 X404.189 Y346.175
G01 X405.622 Y344.707
G01 X406.893 Y343.322
G01 X408.308 Y341.652
G01 X411.563 Y337.320
G01 X409.940 Y330.040
G01 X404.750 Y327.675
G01 X400.632 Y328.803
G01 X397.431 Y330.445
G01 X395.060 Y330.399
G01 X393.712 Y329.220
G01 X394.232 Y327.953
G01 X394.349 Y327.737
G01 X394.288 Y327.481
G01 X393.988 Y327.246
G01 X393.611 Y327.209
G01 X393.102 Y327.416
G01 X392.765 Y327.826
G01 X392.583 Y328.523
G01 X392.730 Y329.238
G01 X393.246 Y329.956
G01 X394.024 Y330.409
G01 X394.555 Y330.535
G01 X395.099 Y330.534
G01 X396.125 Y330.227
G01 X396.661 Y329.873
G01 X397.109 Y329.413
G01 X397.440 Y328.850
G01 X397.672 Y328.254
G01 X397.792 Y327.544
G01 X397.753 Y326.809
G01 X397.561 Y326.091
G01 X397.255 Y325.431
G01 X396.752 Y324.766
G01 X396.128 Y324.228
G01 X395.415 Y323.810
G01 X394.620 Y323.553
G01 X393.701 Y323.429
G01 X392.784 Y323.519
G01 X391.897 Y323.764
G01 X391.077 Y324.200
G01 X390.291 Y324.829
G01 X389.641 Y325.616
G01 X389.147 Y326.522
G01 X388.836 Y327.495
G01 X388.729 Y328.604
G01 X388.851 Y329.703
G01 X389.180 Y330.782
G01 X389.708 Y331.763
G01 X390.494 Y332.695
G01 X391.445 Y333.445
G01 X392.512 Y333.998
G01 X393.677 Y334.336
G01 X394.978 Y334.439
G01 X396.283 Y334.281
G01 X397.522 Y333.878
G01 X398.683 Y333.244
G01 X399.735 Y332.326
G01 X400.595 Y331.217
G01 X401.212 Y329.956
G01 X401.603 Y328.617
G01 X401.700 Y327.115
G01 X401.498 Y325.626
G01 X401.007 Y324.196
G01 X400.274 Y322.905
G01 X399.220 Y321.695
G01 X397.958 Y320.743
G01 X396.521 Y320.038
G01 X394.975 Y319.620
G01 X393.272 Y319.526
G01 X391.596 Y319.765
G01 X390.005 Y320.326
G01 X388.536 Y321.175
G01 X387.214 Y322.361
G01 X386.131 Y323.803
G01 X385.360 Y325.413
G01 X384.927 Y327.146
G01 X384.820 Y329.029
G01 X385.108 Y330.896
G01 X385.728 Y332.674
G01 X386.697 Y334.299
G01 X388.023 Y335.766
G01 X389.623 Y336.934
G01 X391.422 Y337.780
G01 X393.325 Y338.268
G01 X395.412 Y338.354
G01 X397.470 Y338.037
G01 X399.427 Y337.330
G01 X401.196 Y336.267
G01 X402.802 Y334.789
G01 X404.075 Y333.034
G01 X405.004 Y331.071
G01 X405.528 Y328.963
G01 X405.627 Y327.823
G01 X405.604 Y326.687
G01 X405.251 Y324.440
G01 X404.465 Y322.304
G01 X403.299 Y320.361
G01 X402.531 Y319.455
G01 X401.695 Y318.636
G01 X400.763 Y317.905
G01 X399.766 Y317.258
G01 X397.612 Y316.256
G01 X396.475 Y315.921
G01 X395.314 Y315.696
G01 X394.074 Y315.587
G01 X392.850 Y315.617
G01 X391.628 Y315.760
G01 X390.435 Y316.010
G01 X389.235 Y316.384
G01 X388.114 Y316.869
G01 X387.019 Y317.459
G01 X386.007 Y318.148
G01 X385.026 Y318.979
G01 X384.130 Y319.897
G01 X383.347 Y320.902
G01 X382.651 Y321.986
G01 X382.057 Y323.123
G01 X381.590 Y324.315
G01 X381.229 Y325.555
G01 X380.995 Y326.804
G01 X380.877 Y328.131
G01 X380.902 Y329.448
G01 X381.061 Y330.769
G01 X381.342 Y332.070
G01 X381.755 Y333.339
G01 X382.280 Y334.563
G01 X382.928 Y335.728
G01 X383.681 Y336.820
G01 X384.573 Y337.879
G01 X385.561 Y338.834
G01 X386.648 Y339.683
G01 X387.807 Y340.424
G01 X389.039 Y341.053
G01 X390.324 Y341.554
G01 X391.645 Y341.953
G01 X392.980 Y342.191
G01 X394.422 Y342.305
G01 X395.838 Y342.268
G01 X397.249 Y342.091
G01 X398.643 Y341.789
G01 X400.000 Y341.347
G01 X401.307 Y340.779
G01 X402.563 Y340.087
G01 X403.735 Y339.272
G01 X404.852 Y338.333
G01 X405.859 Y337.262
G01 X406.767 Y336.090
G01 X407.556 Y334.849
G01 X408.232 Y333.527
G01 X408.779 Y332.157
G01 X409.194 Y330.744
G01 X409.446 Y329.295
G01 X409.551 Y327.781
G01 X409.536 Y326.259
G01 X409.341 Y324.742
G01 X409.006 Y323.269
G01 X408.522 Y321.801
G01 X407.916 Y320.406
G01 X407.188 Y319.086
G01 X406.318 Y317.829
G01 X405.279 Y316.641
G01 X404.157 Y315.576
G01 X402.916 Y314.597
G01 X401.584 Y313.767
G01 X400.176 Y313.051
G01 X398.711 Y312.471
G01 X397.208 Y312.047
G01 X395.644 Y311.766
G01 X394.038 Y311.646
G01 X392.434 Y311.703
G01 X390.818 Y311.908
G01 X389.238 Y312.263
G01 X387.694 Y312.766
G01 X386.213 Y313.412
G01 X384.792 Y314.199
G01 X383.480 Y315.137
G01 X382.214 Y316.231
G01 X381.069 Y317.437
G01 X380.047 Y318.748
G01 X379.174 Y320.165
G01 X378.409 Y321.658
G01 X377.815 Y323.216
G01 X377.347 Y324.820
G01 X377.069 Y326.462
G01 X376.942 Y328.160
G01 X376.990 Y329.881
G01 X377.216 Y331.577
G01 X377.594 Y333.249
G01 X378.133 Y334.885
G01 X378.826 Y336.461
G01 X379.663 Y337.947
G01 X380.660 Y339.369
G01 X381.819 Y340.685
G01 X383.084 Y341.889
G01 X384.489 Y342.979
G01 X385.996 Y343.920
G01 X387.578 Y344.708
G01 X389.207 Y345.338
G01 X390.916 Y345.806
G01 X392.644 Y346.108
G01 X394.453 Y346.238
G01 X396.260 Y346.180
G01 X398.055 Y345.946
G01 X399.826 Y345.548
G01 X401.551 Y344.972
G01 X403.216 Y344.232
G01 X404.789 Y343.332
G01 X406.278 Y342.301
G01 X407.664 Y341.069
G01 X408.949 Y339.725
G01 X410.079 Y338.263
G01 X411.059 Y336.673
G01 X411.891 Y335.003
G01 X412.563 Y333.272
G01 X413.052 Y331.475
G01 X413.371 Y329.643
G01 X413.489 Y327.727
G01 X413.426 Y325.802
G01 X413.168 Y323.905
G01 X412.723 Y322.024
G01 X412.124 Y320.213
G01 X411.344 Y318.481
G01 X410.407 Y316.837
G01 X409.335 Y315.309
G01 X408.461 Y314.340
G01 X406.428 Y312.497
G01 X402.033 Y309.879
G01 X397.962 Y308.617
G01 X393.822 Y308.262
G01 X389.623 Y308.801
G01 X385.408 Y310.355
G01 X382.669 Y312.020
G01 X380.143 Y314.219
G01 X377.436 Y317.694
G01 X375.602 Y321.798
G01 X374.199 Y324.685
G01 X372.568 Y327.614
G01 X370.642 Y330.619
G01 X367.222 Y335.091
G01 X362.599 Y339.923
G01 X359.829 Y342.357
G01 X354.297 Y346.328
G01 X350.930 Y348.280
G01 X345.793 Y350.686
G01 X341.799 Y352.166
G01 X337.157 Y353.455
G01 X331.266 Y354.494
G01 X327.756 Y354.806
G01 X322.397 Y354.830
G01 X317.459 Y354.462
G01 X315.687 Y354.169
G01 X313.931 Y353.878
G01 X313.911 Y353.891
G01 X313.864 Y353.861
G01 X312.052 Y353.237
G01 X310.393 Y352.043
G01 X309.112 Y351.143
G01 X307.853 Y350.227
G01 X302.787 Y352.793
G01 X302.650 Y352.858
G01 X298.756 Y354.512
G01 X294.031 Y356.210
G01 X290.826 Y357.162
G01 X287.033 Y358.082
G01 X283.743 Y358.735
G01 X282.484 Y358.935
