;  Created by Sandify
;  https://sandify.org
;  Version: 0.2.6
;
;  Machine type: Rectangular
;    Min X (mm): 0
;    Max X (mm): 500
;    Min Y (mm): 0
;    Max Y (mm): 500
;  Content type: shape
;  Layer:
;    Shape: FileImport
;    Name: PolarValentine.thr
;    From file:: PolarValentine.thr
;    Aspect Ratio: true
;    Comments: 
;    Visible: true
;    Initial width: 10
;    Initial height: 10
;    X offset: 0
;    Y offset: 0
;    Rotate (degrees): 0
;    Reverse path: false
;    Fine tuning:
;      Connect to next layer: line
;      Draw portion of path (%): 100
;      Backtrack at end (%): 0
;      Rotate starting point (%): 0
;  Reverse export path: false
;
; File name: 'Polarvalentine (E) (C C)'
; File type: gcode
;

G01 X250.000 Y250.000
G01 X250.096 Y251.951
G01 X250.383 Y253.887
G01 X250.860 Y255.796
G01 X251.524 Y257.662
G01 X252.373 Y259.473
G01 X253.402 Y261.214
G01 X254.606 Y262.873
G01 X255.979 Y264.436
G01 X257.516 Y265.890
G01 X259.207 Y267.225
G01 X261.045 Y268.428
G01 X263.021 Y269.488
G01 X265.125 Y270.394
G01 X267.347 Y271.137
G01 X269.675 Y271.708
G01 X272.097 Y272.097
G01 X274.602 Y272.298
G01 X277.176 Y272.303
G01 X279.807 Y272.106
G01 X282.479 Y271.702
G01 X285.180 Y271.086
G01 X287.895 Y270.255
G01 X290.609 Y269.207
G01 X293.307 Y267.938
G01 X295.974 Y266.450
G01 X298.595 Y264.741
G01 X301.154 Y262.813
G01 X303.637 Y260.669
G01 X306.028 Y258.311
G01 X308.312 Y255.743
G01 X310.474 Y252.971
G01 X312.500 Y250.000
G01 X314.375 Y246.837
G01 X316.086 Y243.491
G01 X317.619 Y239.970
G01 X318.961 Y236.283
G01 X320.100 Y232.441
G01 X321.023 Y228.455
G01 X321.719 Y224.338
G01 X322.178 Y220.103
G01 X322.390 Y215.762
G01 X322.345 Y211.331
G01 X322.036 Y206.823
G01 X321.454 Y202.256
G01 X320.594 Y197.644
G01 X319.450 Y193.004
G01 X318.017 Y188.353
G01 X316.291 Y183.709
G01 X314.270 Y179.089
G01 X311.952 Y174.511
G01 X309.337 Y169.993
G01 X306.425 Y165.554
G01 X303.218 Y161.212
G01 X299.718 Y156.985
G01 X295.929 Y152.892
G01 X291.856 Y148.951
G01 X287.505 Y145.180
G01 X282.884 Y141.597
G01 X278.000 Y138.219
G01 X272.862 Y135.064
G01 X267.482 Y132.149
G01 X261.869 Y129.489
G01 X256.038 Y127.101
G01 X250.000 Y125.000
G01 X243.771 Y123.200
G01 X237.365 Y121.714
G01 X230.799 Y120.557
G01 X224.090 Y119.739
G01 X217.255 Y119.273
G01 X210.313 Y119.168
G01 X203.283 Y119.434
G01 X196.185 Y120.079
G01 X189.040 Y121.111
G01 X181.868 Y122.535
G01 X174.692 Y124.356
G01 X167.533 Y126.579
G01 X160.412 Y129.205
G01 X153.354 Y132.237
G01 X146.381 Y135.674
G01 X139.515 Y139.515
G01 X132.779 Y143.757
G01 X126.198 Y148.398
G01 X119.793 Y153.432
G01 X113.587 Y158.852
G01 X107.604 Y164.651
G01 X101.865 Y170.820
G01 X96.392 Y177.349
G01 X91.208 Y184.226
G01 X86.333 Y191.439
G01 X81.788 Y198.973
G01 X77.592 Y206.814
G01 X73.765 Y214.945
G01 X70.325 Y223.348
G01 X67.290 Y232.005
G01 X64.677 Y240.896
G01 X62.500 Y250.000
G01 X60.775 Y259.296
G01 X59.515 Y268.761
G01 X58.733 Y278.372
G01 X58.440 Y288.104
G01 X58.646 Y297.932
G01 X59.360 Y307.830
G01 X60.588 Y317.773
G01 X62.337 Y327.733
G01 X64.612 Y337.682
G01 X67.415 Y347.594
G01 X70.748 Y357.439
G01 X74.612 Y367.191
G01 X79.005 Y376.819
G01 X83.924 Y386.295
G01 X89.364 Y395.592
G01 X95.320 Y404.680
G01 X101.785 Y413.530
G01 X108.748 Y422.116
G01 X116.200 Y430.408
G01 X124.129 Y438.380
G01 X132.519 Y446.004
G01 X141.358 Y453.255
G01 X150.627 Y460.107
G01 X160.309 Y466.534
G01 X170.383 Y472.513
G01 X180.831 Y478.021
G01 X191.628 Y483.035
G01 X202.752 Y487.534
G01 X214.177 Y491.498
G01 X225.879 Y494.909
G01 X237.829 Y497.748
G01 X250.000 Y500.000
G01 X237.734 Y499.679
G01 X225.500 Y498.757
G01 X213.326 Y497.236
G01 X201.243 Y495.119
G01 X189.279 Y492.412
G01 X177.463 Y489.122
G01 X165.824 Y485.256
G01 X154.390 Y480.824
G01 X143.187 Y475.837
G01 X132.244 Y470.306
G01 X121.586 Y464.246
G01 X111.239 Y457.671
G01 X101.228 Y450.596
G01 X91.577 Y443.039
G01 X82.309 Y435.019
G01 X73.447 Y426.553
G01 X65.011 Y417.665
G01 X57.022 Y408.373
G01 X49.499 Y398.702
G01 X42.461 Y388.673
G01 X35.923 Y378.313
G01 X29.902 Y367.645
G01 X24.413 Y356.695
G01 X19.468 Y345.490
G01 X15.078 Y334.056
G01 X11.256 Y322.422
G01 X8.009 Y310.616
G01 X5.345 Y298.665
G01 X3.272 Y286.599
G01 X1.793 Y274.446
G01 X0.912 Y262.237
G01 X0.631 Y250.000
G01 X0.951 Y237.765
G01 X1.871 Y225.561
G01 X3.389 Y213.419
G01 X5.500 Y201.366
G01 X8.200 Y189.432
G01 X11.482 Y177.646
G01 X15.338 Y166.037
G01 X19.759 Y154.631
G01 X24.734 Y143.457
G01 X30.250 Y132.541
G01 X36.295 Y121.910
G01 X42.854 Y111.590
G01 X49.911 Y101.604
G01 X57.449 Y91.977
G01 X65.449 Y82.733
G01 X73.893 Y73.893
G01 X82.759 Y65.478
G01 X92.027 Y57.510
G01 X101.675 Y50.006
G01 X111.677 Y42.986
G01 X122.012 Y36.465
G01 X132.653 Y30.459
G01 X143.575 Y24.984
G01 X154.752 Y20.051
G01 X166.156 Y15.673
G01 X177.761 Y11.860
G01 X189.538 Y8.621
G01 X201.458 Y5.965
G01 X213.494 Y3.896
G01 X225.616 Y2.421
G01 X237.794 Y1.543
G01 X250.000 Y1.263
G01 X262.204 Y1.582
G01 X274.377 Y2.500
G01 X286.489 Y4.013
G01 X298.511 Y6.119
G01 X310.414 Y8.813
G01 X322.170 Y12.086
G01 X333.751 Y15.933
G01 X345.127 Y20.342
G01 X356.273 Y25.305
G01 X367.161 Y30.807
G01 X377.765 Y36.837
G01 X388.060 Y43.379
G01 X398.020 Y50.418
G01 X407.622 Y57.937
G01 X416.843 Y65.917
G01 X425.661 Y74.339
G01 X434.054 Y83.183
G01 X442.002 Y92.428
G01 X449.487 Y102.051
G01 X456.489 Y112.028
G01 X462.994 Y122.336
G01 X468.984 Y132.951
G01 X474.446 Y143.845
G01 X479.366 Y154.994
G01 X483.733 Y166.369
G01 X487.536 Y177.944
G01 X490.766 Y189.691
G01 X493.416 Y201.582
G01 X495.479 Y213.587
G01 X496.951 Y225.677
G01 X497.827 Y237.825
G01 X498.106 Y250.000
G01 X497.788 Y262.173
G01 X496.872 Y274.315
G01 X495.362 Y286.396
G01 X493.261 Y298.388
G01 X490.575 Y310.261
G01 X487.309 Y321.987
G01 X483.473 Y333.538
G01 X479.074 Y344.886
G01 X474.125 Y356.003
G01 X468.636 Y366.863
G01 X462.622 Y377.440
G01 X456.096 Y387.709
G01 X449.075 Y397.644
G01 X441.575 Y407.222
G01 X433.615 Y416.419
G01 X425.214 Y425.214
G01 X416.393 Y433.586
G01 X407.172 Y441.514
G01 X397.573 Y448.980
G01 X387.621 Y455.965
G01 X377.339 Y462.452
G01 X366.752 Y468.427
G01 X355.885 Y473.875
G01 X344.765 Y478.783
G01 X333.418 Y483.138
G01 X321.872 Y486.932
G01 X310.155 Y490.154
G01 X298.295 Y492.797
G01 X286.321 Y494.855
G01 X274.261 Y496.322
G01 X262.144 Y497.196
G01 X250.000 Y497.475
G01 X237.858 Y497.157
G01 X225.747 Y496.244
G01 X213.697 Y494.738
G01 X201.735 Y492.642
G01 X189.893 Y489.963
G01 X178.196 Y486.705
G01 X166.675 Y482.878
G01 X155.356 Y478.491
G01 X144.267 Y473.554
G01 X133.434 Y468.079
G01 X122.884 Y462.080
G01 X112.642 Y455.571
G01 X102.732 Y448.568
G01 X93.179 Y441.087
G01 X84.005 Y433.147
G01 X75.232 Y424.768
G01 X66.882 Y415.969
G01 X58.974 Y406.771
G01 X51.527 Y397.197
G01 X44.560 Y387.270
G01 X38.089 Y377.014
G01 X32.130 Y366.454
G01 X26.696 Y355.615
G01 X21.801 Y344.523
G01 X17.456 Y333.206
G01 X13.672 Y321.689
G01 X10.458 Y310.002
G01 X7.822 Y298.172
G01 X5.770 Y286.228
G01 X4.306 Y274.199
G01 X3.434 Y262.113
G01 X3.157 Y250.000
G01 X3.474 Y237.889
G01 X4.384 Y225.809
G01 X5.887 Y213.789
G01 X7.977 Y201.859
G01 X10.650 Y190.046
G01 X13.899 Y178.379
G01 X17.716 Y166.887
G01 X22.092 Y155.598
G01 X27.017 Y144.537
G01 X32.478 Y133.732
G01 X38.461 Y123.209
G01 X44.954 Y112.993
G01 X51.939 Y103.108
G01 X59.401 Y93.579
G01 X67.320 Y84.429
G01 X75.679 Y75.679
G01 X84.455 Y67.350
G01 X93.629 Y59.462
G01 X103.179 Y52.035
G01 X113.080 Y45.085
G01 X123.310 Y38.631
G01 X133.843 Y32.686
G01 X144.655 Y27.266
G01 X155.718 Y22.384
G01 X167.007 Y18.050
G01 X178.494 Y14.276
G01 X190.151 Y11.071
G01 X201.951 Y8.441
G01 X213.864 Y6.394
G01 X225.863 Y4.934
G01 X237.918 Y4.065
G01 X250.000 Y3.788
G01 X262.080 Y4.104
G01 X274.129 Y5.013
G01 X286.118 Y6.511
G01 X298.018 Y8.596
G01 X309.801 Y11.262
G01 X321.437 Y14.503
G01 X332.900 Y18.310
G01 X344.161 Y22.675
G01 X355.193 Y27.587
G01 X365.971 Y33.034
G01 X376.467 Y39.003
G01 X386.657 Y45.479
G01 X396.516 Y52.447
G01 X406.020 Y59.889
G01 X415.147 Y67.788
G01 X423.875 Y76.125
G01 X432.183 Y84.879
G01 X440.050 Y94.030
G01 X447.458 Y103.555
G01 X454.390 Y113.431
G01 X460.828 Y123.635
G01 X466.757 Y134.141
G01 X472.163 Y144.925
G01 X477.033 Y155.960
G01 X481.355 Y167.220
G01 X485.119 Y178.677
G01 X488.317 Y190.305
G01 X490.939 Y202.074
G01 X492.981 Y213.957
G01 X494.438 Y225.925
G01 X495.305 Y237.949
G01 X495.581 Y250.000
G01 X495.265 Y262.049
G01 X494.359 Y274.067
G01 X492.864 Y286.026
G01 X490.785 Y297.895
G01 X488.125 Y309.647
G01 X484.893 Y321.254
G01 X481.095 Y332.687
G01 X476.741 Y343.919
G01 X471.842 Y354.923
G01 X466.409 Y365.673
G01 X460.456 Y376.142
G01 X453.996 Y386.306
G01 X447.046 Y396.140
G01 X439.623 Y405.620
G01 X431.744 Y414.723
G01 X423.429 Y423.429
G01 X414.697 Y431.715
G01 X405.570 Y439.562
G01 X396.069 Y446.951
G01 X386.218 Y453.865
G01 X376.041 Y460.286
G01 X365.561 Y466.200
G01 X354.805 Y471.592
G01 X343.799 Y476.450
G01 X332.568 Y480.761
G01 X321.139 Y484.515
G01 X309.542 Y487.704
G01 X297.803 Y490.320
G01 X285.950 Y492.357
G01 X274.013 Y493.809
G01 X262.020 Y494.674
G01 X250.000 Y494.949
G01 X237.982 Y494.635
G01 X225.995 Y493.731
G01 X214.067 Y492.240
G01 X202.228 Y490.165
G01 X190.506 Y487.513
G01 X178.929 Y484.289
G01 X167.526 Y480.501
G01 X156.322 Y476.158
G01 X145.347 Y471.271
G01 X134.625 Y465.852
G01 X124.182 Y459.914
G01 X114.045 Y453.471
G01 X104.237 Y446.539
G01 X94.781 Y439.135
G01 X85.701 Y431.276
G01 X77.018 Y422.982
G01 X68.753 Y414.273
G01 X60.926 Y405.169
G01 X53.556 Y395.693
G01 X46.660 Y385.867
G01 X40.255 Y375.716
G01 X34.357 Y365.264
G01 X28.978 Y354.535
G01 X24.134 Y343.557
G01 X19.834 Y332.355
G01 X16.089 Y320.956
G01 X12.908 Y309.388
G01 X10.299 Y297.680
G01 X8.268 Y285.858
G01 X6.819 Y273.951
G01 X5.956 Y261.989
G01 X5.682 Y250.000
G01 X5.996 Y238.013
G01 X6.898 Y226.056
G01 X8.385 Y214.160
G01 X10.454 Y202.351
G01 X13.099 Y190.659
G01 X16.315 Y179.113
G01 X20.094 Y167.738
G01 X24.425 Y156.564
G01 X29.299 Y145.616
G01 X34.705 Y134.922
G01 X40.627 Y124.507
G01 X47.054 Y114.396
G01 X53.968 Y104.613
G01 X61.353 Y95.181
G01 X69.191 Y86.125
G01 X77.464 Y77.464
G01 X86.151 Y69.221
G01 X95.231 Y61.414
G01 X104.683 Y54.063
G01 X114.483 Y47.185
G01 X124.608 Y40.797
G01 X135.034 Y34.913
G01 X145.735 Y29.549
G01 X156.685 Y24.717
G01 X167.858 Y20.428
G01 X179.227 Y16.693
G01 X190.765 Y13.520
G01 X202.444 Y10.918
G01 X214.235 Y8.892
G01 X226.111 Y7.447
G01 X238.042 Y6.587
G01 X250.000 Y6.313
G01 X261.956 Y6.626
G01 X273.882 Y7.526
G01 X285.748 Y9.009
G01 X297.526 Y11.073
G01 X309.187 Y13.712
G01 X320.704 Y16.919
G01 X332.049 Y20.688
G01 X343.195 Y25.009
G01 X354.114 Y29.870
G01 X364.780 Y35.261
G01 X375.169 Y41.169
G01 X385.254 Y47.579
G01 X395.011 Y54.475
G01 X404.418 Y61.841
G01 X413.451 Y69.659
G01 X422.089 Y77.911
G01 X430.312 Y86.575
G01 X438.098 Y95.632
G01 X445.430 Y105.059
G01 X452.290 Y114.834
G01 X458.662 Y124.933
G01 X464.530 Y135.331
G01 X469.880 Y146.004
G01 X474.700 Y156.926
G01 X478.978 Y168.071
G01 X482.703 Y179.410
G01 X485.867 Y190.918
G01 X488.463 Y202.567
G01 X490.483 Y214.328
G01 X491.924 Y226.173
G01 X492.782 Y238.073
G01 X493.056 Y250.000
G01 X492.743 Y261.925
G01 X491.846 Y273.820
G01 X490.366 Y285.655
G01 X488.308 Y297.402
G01 X485.676 Y309.034
G01 X482.476 Y320.521
G01 X478.717 Y331.836
G01 X474.408 Y342.953
G01 X469.559 Y353.844
G01 X464.182 Y364.483
G01 X458.290 Y374.844
G01 X451.896 Y384.903
G01 X445.018 Y394.635
G01 X437.671 Y404.018
G01 X429.873 Y413.027
G01 X421.643 Y421.643
G01 X413.001 Y429.844
G01 X403.968 Y437.610
G01 X394.565 Y444.923
G01 X384.815 Y451.765
G01 X374.743 Y458.120
G01 X364.371 Y463.973
G01 X353.726 Y469.309
G01 X342.832 Y474.117
G01 X331.717 Y478.383
G01 X320.406 Y482.099
G01 X308.928 Y485.255
G01 X297.310 Y487.844
G01 X285.580 Y489.859
G01 X273.766 Y491.296
G01 X261.896 Y492.152
G01 X250.000 Y492.424
G01 X238.106 Y492.113
G01 X226.242 Y491.218
G01 X214.438 Y489.742
G01 X202.721 Y487.689
G01 X191.120 Y485.063
G01 X179.662 Y481.872
G01 X168.376 Y478.123
G01 X157.289 Y473.825
G01 X146.426 Y468.988
G01 X135.815 Y463.625
G01 X125.481 Y457.748
G01 X115.448 Y451.372
G01 X105.741 Y444.511
G01 X96.383 Y437.183
G01 X87.397 Y429.405
G01 X78.803 Y421.197
G01 X70.624 Y412.577
G01 X62.878 Y403.567
G01 X55.584 Y394.189
G01 X48.760 Y384.464
G01 X42.421 Y374.418
G01 X36.584 Y364.073
G01 X31.261 Y353.456
G01 X26.467 Y342.591
G01 X22.211 Y331.504
G01 X18.505 Y320.223
G01 X15.358 Y308.775
G01 X12.776 Y297.187
G01 X10.766 Y285.487
G01 X9.332 Y273.704
G01 X8.479 Y261.865
G01 X8.207 Y250.000
G01 X8.518 Y238.137
G01 X9.411 Y226.304
G01 X10.883 Y214.530
G01 X12.930 Y202.844
G01 X15.549 Y191.273
G01 X18.732 Y179.846
G01 X22.471 Y168.589
G01 X26.758 Y157.530
G01 X31.582 Y146.696
G01 X36.932 Y136.113
G01 X42.793 Y125.805
G01 X49.153 Y115.799
G01 X55.996 Y106.117
G01 X63.305 Y96.783
G01 X71.063 Y87.821
G01 X79.250 Y79.250
G01 X87.847 Y71.092
G01 X96.833 Y63.366
G01 X106.187 Y56.091
G01 X115.886 Y49.285
G01 X125.907 Y42.963
G01 X136.224 Y37.140
G01 X146.814 Y31.832
G01 X157.651 Y27.050
G01 X168.709 Y22.806
G01 X179.960 Y19.109
G01 X191.379 Y15.970
G01 X202.936 Y13.395
G01 X214.606 Y11.390
G01 X226.358 Y9.960
G01 X238.166 Y9.109
G01 X250.000 Y8.838
G01 X261.832 Y9.149
G01 X273.634 Y10.039
G01 X285.377 Y11.507
G01 X297.033 Y13.550
G01 X308.574 Y16.161
G01 X319.971 Y19.336
G01 X331.198 Y23.066
G01 X342.228 Y27.342
G01 X353.034 Y32.153
G01 X363.590 Y37.488
G01 X373.870 Y43.335
G01 X383.851 Y49.678
G01 X393.507 Y56.503
G01 X402.816 Y63.793
G01 X411.756 Y71.530
G01 X420.304 Y79.696
G01 X428.440 Y88.271
G01 X436.146 Y97.234
G01 X443.402 Y106.563
G01 X450.190 Y116.237
G01 X456.496 Y126.231
G01 X462.303 Y136.522
G01 X467.597 Y147.084
G01 X472.367 Y157.893
G01 X476.600 Y168.921
G01 X480.286 Y180.143
G01 X483.418 Y191.532
G01 X485.986 Y203.059
G01 X487.985 Y214.698
G01 X489.411 Y226.420
G01 X490.260 Y238.197
G01 X490.530 Y250.000
G01 X490.221 Y261.801
G01 X489.333 Y273.572
G01 X487.868 Y285.284
G01 X485.831 Y296.910
G01 X483.226 Y308.420
G01 X480.060 Y319.788
G01 X476.340 Y330.986
G01 X472.075 Y341.987
G01 X467.276 Y352.764
G01 X461.955 Y363.292
G01 X456.124 Y373.546
G01 X449.797 Y383.500
G01 X442.990 Y393.131
G01 X435.719 Y402.416
G01 X428.002 Y411.332
G01 X419.857 Y419.857
G01 X411.305 Y427.973
G01 X402.366 Y435.658
G01 X393.060 Y442.895
G01 X383.412 Y449.666
G01 X373.444 Y455.954
G01 X363.181 Y461.746
G01 X352.646 Y467.027
G01 X341.866 Y471.784
G01 X330.866 Y476.005
G01 X319.673 Y479.682
G01 X308.315 Y482.805
G01 X296.817 Y485.367
G01 X285.209 Y487.361
G01 X273.518 Y488.783
G01 X261.772 Y489.630
G01 X250.000 Y489.899
G01 X238.230 Y489.590
G01 X226.490 Y488.705
G01 X214.808 Y487.244
G01 X203.213 Y485.212
G01 X191.733 Y482.614
G01 X180.395 Y479.456
G01 X169.227 Y475.745
G01 X158.255 Y471.492
G01 X147.506 Y466.706
G01 X137.005 Y461.398
G01 X126.779 Y455.582
G01 X116.851 Y449.272
G01 X107.245 Y442.483
G01 X97.985 Y435.231
G01 X89.092 Y427.534
G01 X80.589 Y419.411
G01 X72.495 Y410.881
G01 X64.830 Y401.965
G01 X57.612 Y392.684
G01 X50.859 Y383.062
G01 X44.587 Y373.120
G01 X38.811 Y362.883
G01 X33.544 Y352.376
G01 X28.800 Y341.624
G01 X24.589 Y330.653
G01 X20.922 Y319.490
G01 X17.807 Y308.161
G01 X15.252 Y296.694
G01 X13.263 Y285.117
G01 X11.845 Y273.456
G01 X11.001 Y261.741
G01 X10.732 Y250.000
G01 X11.040 Y238.261
G01 X11.924 Y226.552
G01 X13.381 Y214.901
G01 X15.407 Y203.337
G01 X17.999 Y191.887
G01 X21.148 Y180.579
G01 X24.849 Y169.440
G01 X29.091 Y158.497
G01 X33.865 Y147.776
G01 X39.159 Y137.303
G01 X44.959 Y127.103
G01 X51.253 Y117.202
G01 X58.024 Y107.621
G01 X65.257 Y98.385
G01 X72.934 Y89.516
G01 X81.035 Y81.035
G01 X89.543 Y72.963
G01 X98.435 Y65.318
G01 X107.692 Y58.119
G01 X117.289 Y51.384
G01 X127.205 Y45.129
G01 X137.415 Y39.368
G01 X147.894 Y34.115
G01 X158.617 Y29.383
G01 X169.559 Y25.183
G01 X180.693 Y21.526
G01 X191.992 Y18.420
G01 X203.429 Y15.872
G01 X214.976 Y13.888
G01 X226.606 Y12.473
G01 X238.290 Y11.631
G01 X250.000 Y11.364
G01 X261.708 Y11.671
G01 X273.387 Y12.552
G01 X285.007 Y14.005
G01 X296.540 Y16.026
G01 X307.960 Y18.611
G01 X319.238 Y21.753
G01 X330.348 Y25.443
G01 X341.262 Y29.675
G01 X351.954 Y34.436
G01 X362.399 Y39.716
G01 X372.572 Y45.501
G01 X382.448 Y51.778
G01 X392.003 Y58.531
G01 X401.214 Y65.745
G01 X410.060 Y73.401
G01 X418.518 Y81.482
G01 X426.569 Y89.967
G01 X434.194 Y98.836
G01 X441.373 Y108.068
G01 X448.091 Y117.640
G01 X454.330 Y127.529
G01 X460.076 Y137.712
G01 X465.315 Y148.164
G01 X470.034 Y158.859
G01 X474.222 Y169.772
G01 X477.870 Y180.876
G01 X480.968 Y192.146
G01 X483.509 Y203.552
G01 X485.488 Y215.069
G01 X486.898 Y226.668
G01 X487.738 Y238.321
G01 X488.005 Y250.000
G01 X487.699 Y261.677
G01 X486.820 Y273.325
G01 X485.370 Y284.914
G01 X483.354 Y296.417
G01 X480.777 Y307.807
G01 X477.643 Y319.055
G01 X473.962 Y330.135
G01 X469.742 Y341.020
G01 X464.994 Y351.684
G01 X459.728 Y362.102
G01 X453.958 Y372.247
G01 X447.697 Y382.097
G01 X440.961 Y391.627
G01 X433.767 Y400.814
G01 X426.131 Y409.636
G01 X418.072 Y418.072
G01 X409.609 Y426.102
G01 X400.764 Y433.706
G01 X391.556 Y440.866
G01 X382.009 Y447.566
G01 X372.146 Y453.788
G01 X361.990 Y459.519
G01 X351.566 Y464.744
G01 X340.899 Y469.451
G01 X330.015 Y473.628
G01 X318.940 Y477.266
G01 X307.701 Y480.356
G01 X296.325 Y482.890
G01 X284.839 Y484.863
G01 X273.271 Y486.270
G01 X261.648 Y487.108
G01 X250.000 Y487.374
G01 X238.354 Y487.068
G01 X226.737 Y486.191
G01 X215.179 Y484.746
G01 X203.706 Y482.735
G01 X192.347 Y480.164
G01 X181.128 Y477.039
G01 X170.078 Y473.368
G01 X159.221 Y469.159
G01 X148.586 Y464.423
G01 X138.196 Y459.171
G01 X128.077 Y453.416
G01 X118.254 Y447.172
G01 X108.749 Y440.454
G01 X99.587 Y433.279
G01 X90.788 Y425.663
G01 X82.375 Y417.625
G01 X74.366 Y409.185
G01 X66.782 Y400.363
G01 X59.641 Y391.180
G01 X52.959 Y381.659
G01 X46.753 Y371.821
G01 X41.038 Y361.693
G01 X35.827 Y351.296
G01 X31.133 Y340.658
G01 X26.967 Y329.803
G01 X23.338 Y318.757
G01 X20.257 Y307.548
G01 X17.729 Y296.202
G01 X15.761 Y284.746
G01 X14.358 Y273.209
G01 X13.523 Y261.617
G01 X13.258 Y250.000
G01 X13.562 Y238.385
G01 X14.437 Y226.799
G01 X15.878 Y215.271
G01 X17.884 Y203.829
G01 X20.448 Y192.500
G01 X23.565 Y181.312
G01 X27.227 Y170.290
G01 X31.424 Y159.463
G01 X36.148 Y148.855
G01 X41.386 Y138.493
G01 X47.125 Y128.402
G01 X53.353 Y118.604
G01 X60.053 Y109.125
G01 X67.209 Y99.987
G01 X74.805 Y91.212
G01 X82.821 Y82.821
G01 X91.239 Y74.834
G01 X100.037 Y67.270
G01 X109.196 Y60.148
G01 X118.692 Y53.484
G01 X128.503 Y47.295
G01 X138.605 Y41.595
G01 X148.974 Y36.398
G01 X159.584 Y31.716
G01 X170.410 Y27.561
G01 X181.426 Y23.942
G01 X192.606 Y20.869
G01 X203.922 Y18.348
G01 X215.347 Y16.386
G01 X226.853 Y14.987
G01 X238.414 Y14.154
G01 X250.000 Y13.889
G01 X261.584 Y14.193
G01 X273.139 Y15.065
G01 X284.636 Y16.503
G01 X296.048 Y18.503
G01 X307.346 Y21.061
G01 X318.505 Y24.169
G01 X329.497 Y27.821
G01 X340.295 Y32.008
G01 X350.875 Y36.719
G01 X361.209 Y41.943
G01 X371.274 Y47.667
G01 X381.045 Y53.878
G01 X390.498 Y60.560
G01 X399.612 Y67.697
G01 X408.364 Y75.272
G01 X416.733 Y83.267
G01 X424.698 Y91.663
G01 X432.242 Y100.438
G01 X439.345 Y109.572
G01 X445.991 Y119.043
G01 X452.164 Y128.828
G01 X457.849 Y138.903
G01 X463.032 Y149.243
G01 X467.701 Y159.825
G01 X471.845 Y170.623
G01 X475.453 Y181.609
G01 X478.518 Y192.759
G01 X481.033 Y204.045
G01 X482.990 Y215.439
G01 X484.385 Y226.915
G01 X485.216 Y238.445
G01 X485.480 Y250.000
G01 X485.176 Y261.553
G01 X484.307 Y273.077
G01 X482.873 Y284.543
G01 X480.878 Y295.924
G01 X478.327 Y307.193
G01 X475.227 Y318.322
G01 X471.585 Y329.284
G01 X467.409 Y340.054
G01 X462.711 Y350.605
G01 X457.501 Y360.911
G01 X451.792 Y370.949
G01 X445.597 Y380.694
G01 X438.933 Y390.122
G01 X431.815 Y399.212
G01 X424.260 Y407.940
G01 X416.286 Y416.286
G01 X407.913 Y424.231
G01 X399.162 Y431.754
G01 X390.052 Y438.838
G01 X380.606 Y445.466
G01 X370.848 Y451.622
G01 X360.800 Y457.292
G01 X350.487 Y462.461
G01 X339.933 Y467.118
G01 X329.165 Y471.250
G01 X318.207 Y474.849
G01 X307.087 Y477.906
G01 X295.832 Y480.413
G01 X284.468 Y482.365
G01 X273.023 Y483.757
G01 X261.524 Y484.585
G01 X250.000 Y484.848
G01 X238.477 Y484.546
G01 X226.985 Y483.678
G01 X215.549 Y482.248
G01 X204.199 Y480.259
G01 X192.960 Y477.715
G01 X181.861 Y474.623
G01 X170.928 Y470.990
G01 X160.188 Y466.826
G01 X149.665 Y462.140
G01 X139.386 Y456.944
G01 X129.375 Y451.250
G01 X119.657 Y445.073
G01 X110.254 Y438.426
G01 X101.189 Y431.327
G01 X92.484 Y423.792
G01 X84.160 Y415.840
G01 X76.237 Y407.489
G01 X68.734 Y398.761
G01 X61.669 Y389.676
G01 X55.059 Y380.256
G01 X48.919 Y370.523
G01 X43.265 Y360.502
G01 X38.110 Y350.217
G01 X33.466 Y339.691
G01 X29.344 Y328.952
G01 X25.755 Y318.024
G01 X22.706 Y306.934
G01 X20.206 Y295.709
G01 X18.259 Y284.375
G01 X16.871 Y272.961
G01 X16.045 Y261.493
G01 X15.783 Y250.000
G01 X16.085 Y238.508
G01 X16.950 Y227.047
G01 X18.376 Y215.642
G01 X20.361 Y204.322
G01 X22.898 Y193.114
G01 X25.981 Y182.045
G01 X29.604 Y171.141
G01 X33.757 Y160.429
G01 X38.431 Y149.935
G01 X43.613 Y139.684
G01 X49.291 Y129.700
G01 X55.452 Y120.007
G01 X62.081 Y110.630
G01 X69.161 Y101.589
G01 X76.676 Y92.908
G01 X84.607 Y84.607
G01 X92.935 Y76.705
G01 X101.639 Y69.222
G01 X110.700 Y62.176
G01 X120.095 Y55.584
G01 X129.801 Y49.461
G01 X139.795 Y43.822
G01 X150.053 Y38.680
G01 X160.550 Y34.049
G01 X171.261 Y29.939
G01 X182.159 Y26.359
G01 X193.219 Y23.319
G01 X204.414 Y20.825
G01 X215.717 Y18.884
G01 X227.101 Y17.500
G01 X238.538 Y16.676
G01 X250.000 Y16.414
G01 X261.461 Y16.715
G01 X272.892 Y17.578
G01 X284.265 Y19.001
G01 X295.555 Y20.980
G01 X306.733 Y23.510
G01 X317.772 Y26.586
G01 X328.646 Y30.199
G01 X339.329 Y34.341
G01 X349.795 Y39.001
G01 X360.019 Y44.170
G01 X369.976 Y49.833
G01 X379.642 Y55.977
G01 X388.994 Y62.588
G01 X398.010 Y69.649
G01 X406.668 Y77.144
G01 X414.947 Y85.053
G01 X422.827 Y93.359
G01 X430.290 Y102.040
G01 X437.317 Y111.076
G01 X443.891 Y120.446
G01 X449.998 Y130.126
G01 X455.622 Y140.093
G01 X460.749 Y150.323
G01 X465.368 Y160.792
G01 X469.467 Y171.473
G01 X473.037 Y182.343
G01 X476.069 Y193.373
G01 X478.556 Y204.537
G01 X480.492 Y215.810
G01 X481.872 Y227.163
G01 X482.694 Y238.568
G01 X482.955 Y250.000
G01 X482.654 Y261.430
G01 X481.794 Y272.830
G01 X480.375 Y284.173
G01 X478.401 Y295.432
G01 X475.878 Y306.579
G01 X472.810 Y317.589
G01 X469.207 Y328.433
G01 X465.076 Y339.087
G01 X460.428 Y349.525
G01 X455.274 Y359.721
G01 X449.626 Y369.651
G01 X443.498 Y379.291
G01 X436.905 Y388.618
G01 X429.863 Y397.610
G01 X422.389 Y406.244
G01 X414.501 Y414.501
G01 X406.217 Y422.359
G01 X397.560 Y429.802
G01 X388.548 Y436.810
G01 X379.203 Y443.367
G01 X369.550 Y449.456
G01 X359.609 Y455.065
G01 X349.407 Y460.178
G01 X338.967 Y464.784
G01 X328.314 Y468.873
G01 X317.474 Y472.433
G01 X306.474 Y475.456
G01 X295.339 Y477.937
G01 X284.098 Y479.867
G01 X272.776 Y481.244
G01 X261.401 Y482.063
G01 X250.000 Y482.323
G01 X238.601 Y482.024
G01 X227.232 Y481.165
G01 X215.920 Y479.750
G01 X204.691 Y477.782
G01 X193.574 Y475.265
G01 X182.594 Y472.206
G01 X171.779 Y468.613
G01 X161.154 Y464.493
G01 X150.745 Y459.857
G01 X140.577 Y454.717
G01 X130.674 Y449.084
G01 X121.060 Y442.973
G01 X111.758 Y436.398
G01 X102.791 Y429.375
G01 X94.180 Y421.921
G01 X85.946 Y414.054
G01 X78.108 Y405.794
G01 X70.686 Y397.159
G01 X63.697 Y388.171
G01 X57.158 Y378.853
G01 X51.085 Y369.225
G01 X45.492 Y359.312
G01 X40.392 Y349.137
G01 X35.799 Y338.725
G01 X31.722 Y328.101
G01 X28.171 Y317.291
G01 X25.156 Y306.321
G01 X22.683 Y295.216
G01 X20.757 Y284.005
G01 X19.384 Y272.714
G01 X18.567 Y261.370
G01 X18.308 Y250.000
G01 X18.607 Y238.632
G01 X19.463 Y227.294
G01 X20.874 Y216.012
G01 X22.837 Y204.815
G01 X25.347 Y193.727
G01 X28.398 Y182.778
G01 X31.982 Y171.992
G01 X36.090 Y161.396
G01 X40.713 Y151.015
G01 X45.840 Y140.874
G01 X51.457 Y130.998
G01 X57.552 Y121.410
G01 X64.109 Y112.134
G01 X71.113 Y103.191
G01 X78.547 Y94.604
G01 X86.392 Y86.392
G01 X94.630 Y78.576
G01 X103.241 Y71.174
G01 X112.205 Y64.204
G01 X121.498 Y57.683
G01 X131.100 Y51.627
G01 X140.986 Y46.049
G01 X151.133 Y40.963
G01 X161.517 Y36.382
G01 X172.112 Y32.316
G01 X182.892 Y28.776
G01 X193.833 Y25.768
G01 X204.907 Y23.302
G01 X216.088 Y21.382
G01 X227.348 Y20.013
G01 X238.661 Y19.198
G01 X250.000 Y18.939
G01 X261.337 Y19.237
G01 X272.644 Y20.091
G01 X283.895 Y21.499
G01 X295.062 Y23.457
G01 X306.119 Y25.960
G01 X317.039 Y29.002
G01 X327.795 Y32.576
G01 X338.363 Y36.674
G01 X348.715 Y41.284
G01 X358.828 Y46.397
G01 X368.677 Y51.999
G01 X378.239 Y58.077
G01 X387.490 Y64.616
G01 X396.408 Y71.601
G01 X404.972 Y79.015
G01 X413.161 Y86.839
G01 X420.956 Y95.054
G01 X428.338 Y103.642
G01 X435.289 Y112.581
G01 X441.792 Y121.849
G01 X447.832 Y131.424
G01 X453.394 Y141.283
G01 X458.466 Y151.403
G01 X463.035 Y161.758
G01 X467.089 Y172.324
G01 X470.620 Y183.076
G01 X473.619 Y193.986
G01 X476.079 Y205.030
G01 X477.994 Y216.180
G01 X479.359 Y227.410
G01 X480.171 Y238.692
G01 X480.429 Y250.000
G01 X480.132 Y261.306
G01 X479.280 Y272.582
G01 X477.877 Y283.802
G01 X475.924 Y294.939
G01 X473.428 Y305.966
G01 X470.394 Y316.856
G01 X466.829 Y327.583
G01 X462.743 Y338.121
G01 X458.145 Y348.445
G01 X453.047 Y358.531
G01 X447.460 Y368.353
G01 X441.398 Y377.888
G01 X434.877 Y387.114
G01 X427.911 Y396.008
G01 X420.518 Y404.548
G01 X412.715 Y412.715
G01 X404.522 Y420.488
G01 X395.958 Y427.850
G01 X387.043 Y434.781
G01 X377.800 Y441.267
G01 X368.251 Y447.290
G01 X358.419 Y452.838
G01 X348.327 Y457.895
G01 X338.000 Y462.451
G01 X327.463 Y466.495
G01 X316.741 Y470.016
G01 X305.860 Y473.007
G01 X294.847 Y475.460
G01 X283.727 Y477.369
G01 X272.528 Y478.731
G01 X261.277 Y479.541
G01 X250.000 Y479.798
G01 X238.725 Y479.501
G01 X227.480 Y478.652
G01 X216.290 Y477.252
G01 X205.184 Y475.305
G01 X194.188 Y472.816
G01 X183.328 Y469.790
G01 X172.630 Y466.235
G01 X162.121 Y462.160
G01 X151.825 Y457.574
G01 X141.767 Y452.490
G01 X131.972 Y446.918
G01 X122.463 Y440.873
G01 X113.262 Y434.369
G01 X104.393 Y427.423
G01 X95.876 Y420.050
G01 X87.731 Y412.269
G01 X79.979 Y404.098
G01 X72.638 Y395.557
G01 X65.726 Y386.667
G01 X59.258 Y377.450
G01 X53.251 Y367.927
G01 X47.719 Y358.121
G01 X42.675 Y348.057
G01 X38.132 Y337.759
G01 X34.099 Y327.250
G01 X30.588 Y316.558
G01 X27.605 Y305.707
G01 X25.159 Y294.724
G01 X23.255 Y283.634
G01 X21.898 Y272.466
G01 X21.090 Y261.246
G01 X20.833 Y250.000
G01 X21.129 Y238.756
G01 X21.976 Y227.542
G01 X23.372 Y216.383
G01 X25.314 Y205.307
G01 X27.797 Y194.341
G01 X30.814 Y183.511
G01 X34.360 Y172.843
G01 X38.423 Y162.362
G01 X42.996 Y152.095
G01 X48.067 Y142.065
G01 X53.623 Y132.296
G01 X59.652 Y122.813
G01 X66.138 Y113.638
G01 X73.065 Y104.793
G01 X80.418 Y96.300
G01 X88.178 Y88.178
G01 X96.326 Y80.447
G01 X104.843 Y73.126
G01 X113.709 Y66.233
G01 X122.901 Y59.783
G01 X132.398 Y53.793
G01 X142.176 Y48.276
G01 X152.213 Y43.246
G01 X162.483 Y38.715
G01 X172.962 Y34.694
G01 X183.625 Y31.192
G01 X194.446 Y28.218
G01 X205.400 Y25.778
G01 X216.458 Y23.880
G01 X227.596 Y22.526
G01 X238.785 Y21.720
G01 X250.000 Y21.465
G01 X261.213 Y21.760
G01 X272.397 Y22.604
G01 X283.524 Y23.997
G01 X294.570 Y25.933
G01 X305.506 Y28.409
G01 X316.306 Y31.419
G01 X326.945 Y34.954
G01 X337.396 Y39.007
G01 X347.636 Y43.567
G01 X357.638 Y48.624
G01 X367.379 Y54.165
G01 X376.836 Y60.177
G01 X385.986 Y66.645
G01 X394.806 Y73.553
G01 X403.276 Y80.886
G01 X411.376 Y88.624
G01 X419.085 Y96.750
G01 X426.386 Y105.244
G01 X433.260 Y114.085
G01 X439.692 Y123.252
G01 X445.666 Y132.722
G01 X451.167 Y142.474
G01 X456.183 Y152.483
G01 X460.702 Y162.725
G01 X464.712 Y173.175
G01 X468.204 Y183.809
G01 X471.170 Y194.600
G01 X473.602 Y205.523
G01 X475.496 Y216.551
G01 X476.846 Y227.658
G01 X477.649 Y238.816
G01 X477.904 Y250.000
G01 X477.610 Y261.182
G01 X476.767 Y272.335
G01 X475.379 Y283.432
G01 X473.448 Y294.446
G01 X470.978 Y305.352
G01 X467.977 Y316.123
G01 X464.452 Y326.732
G01 X460.410 Y337.155
G01 X455.862 Y347.366
G01 X450.819 Y357.340
G01 X445.294 Y367.055
G01 X439.298 Y376.485
G01 X432.848 Y385.609
G01 X425.959 Y394.406
G01 X418.646 Y402.852
G01 X410.929 Y410.929
G01 X402.826 Y418.617
G01 X394.356 Y425.898
G01 X385.539 Y432.753
G01 X376.397 Y439.167
G01 X366.953 Y445.124
G01 X357.229 Y450.611
G01 X347.248 Y455.613
G01 X337.034 Y460.118
G01 X326.612 Y464.117
G01 X316.008 Y467.600
G01 X305.247 Y470.557
G01 X294.354 Y472.983
G01 X283.357 Y474.871
G01 X272.280 Y476.218
G01 X261.153 Y477.019
G01 X250.000 Y477.273
G01 X238.849 Y476.979
G01 X227.727 Y476.139
G01 X216.661 Y474.754
G01 X205.677 Y472.828
G01 X194.801 Y470.366
G01 X184.061 Y467.373
G01 X173.481 Y463.857
G01 X163.087 Y459.827
G01 X152.904 Y455.292
G01 X142.957 Y450.263
G01 X133.270 Y444.752
G01 X123.866 Y438.774
G01 X114.767 Y432.341
G01 X105.995 Y425.471
G01 X97.572 Y418.179
G01 X89.517 Y410.483
G01 X81.851 Y402.402
G01 X74.590 Y393.955
G01 X67.754 Y385.163
G01 X61.358 Y376.047
G01 X55.417 Y366.629
G01 X49.946 Y356.931
G01 X44.958 Y346.978
G01 X40.465 Y336.792
G01 X36.477 Y326.400
G01 X33.004 Y315.825
G01 X30.055 Y305.093
G01 X27.636 Y294.231
G01 X25.753 Y283.264
G01 X24.411 Y272.219
G01 X23.612 Y261.122
G01 X23.359 Y250.000
G01 X23.651 Y238.880
G01 X24.489 Y227.789
G01 X25.870 Y216.753
G01 X27.791 Y205.800
G01 X30.246 Y194.955
G01 X33.231 Y184.244
G01 X36.737 Y173.693
G01 X40.756 Y163.328
G01 X45.279 Y153.174
G01 X50.294 Y143.255
G01 X55.789 Y133.595
G01 X61.751 Y124.216
G01 X68.166 Y115.143
G01 X75.017 Y106.395
G01 X82.289 Y97.996
G01 X89.964 Y89.964
G01 X98.022 Y82.318
G01 X106.445 Y75.078
G01 X115.213 Y68.261
G01 X124.304 Y61.883
G01 X133.696 Y55.959
G01 X143.367 Y50.503
G01 X153.292 Y45.529
G01 X163.449 Y41.048
G01 X173.813 Y37.072
G01 X184.358 Y33.609
G01 X195.060 Y30.667
G01 X205.892 Y28.255
G01 X216.829 Y26.378
G01 X227.843 Y25.039
G01 X238.909 Y24.242
G01 X250.000 Y23.990
G01 X261.089 Y24.282
G01 X272.149 Y25.117
G01 X283.154 Y26.495
G01 X294.077 Y28.410
G01 X304.892 Y30.859
G01 X315.573 Y33.835
G01 X326.094 Y37.332
G01 X336.430 Y41.340
G01 X346.556 Y45.850
G01 X356.447 Y50.851
G01 X366.081 Y56.331
G01 X375.433 Y62.276
G01 X384.481 Y68.673
G01 X393.204 Y75.505
G01 X401.580 Y82.757
G01 X409.590 Y90.410
G01 X417.214 Y98.446
G01 X424.434 Y106.846
G01 X431.232 Y115.589
G01 X437.592 Y124.655
G01 X443.500 Y134.021
G01 X448.940 Y143.664
G01 X453.901 Y153.562
G01 X458.369 Y163.691
G01 X462.334 Y174.026
G01 X465.787 Y184.542
G01 X468.720 Y195.213
G01 X471.126 Y206.015
G01 X472.998 Y216.921
G01 X474.333 Y227.905
G01 X475.127 Y238.940
G01 X475.379 Y250.000
G01 X475.088 Y261.058
G01 X474.254 Y272.087
G01 X472.881 Y283.061
G01 X470.971 Y293.954
G01 X468.529 Y304.739
G01 X465.561 Y315.390
G01 X462.074 Y325.881
G01 X458.077 Y336.188
G01 X453.580 Y346.286
G01 X448.592 Y356.150
G01 X443.128 Y365.756
G01 X437.199 Y375.082
G01 X430.820 Y384.105
G01 X424.007 Y392.804
G01 X416.775 Y401.156
G01 X409.144 Y409.144
G01 X401.130 Y416.746
G01 X392.754 Y423.946
G01 X384.035 Y430.725
G01 X374.995 Y437.068
G01 X365.655 Y442.958
G01 X356.038 Y448.384
G01 X346.168 Y453.330
G01 X336.068 Y457.785
G01 X325.762 Y461.740
G01 X315.275 Y465.183
G01 X304.633 Y468.108
G01 X293.861 Y470.506
G01 X282.986 Y472.373
G01 X272.033 Y473.705
G01 X261.029 Y474.496
G01 X250.000 Y474.747
G01 X238.973 Y474.457
G01 X227.975 Y473.626
G01 X217.031 Y472.256
G01 X206.169 Y470.352
G01 X195.415 Y467.916
G01 X184.794 Y464.957
G01 X174.331 Y461.480
G01 X164.053 Y457.494
G01 X153.984 Y453.009
G01 X144.148 Y448.036
G01 X134.568 Y442.586
G01 X125.269 Y436.674
G01 X116.271 Y430.313
G01 X107.597 Y423.519
G01 X99.268 Y416.308
G01 X91.303 Y408.697
G01 X83.722 Y400.706
G01 X76.542 Y392.353
G01 X69.782 Y383.659
G01 X63.457 Y374.644
G01 X57.583 Y365.330
G01 X52.173 Y355.741
G01 X47.241 Y345.898
G01 X42.798 Y335.826
G01 X38.855 Y325.549
G01 X35.421 Y315.092
G01 X32.505 Y304.480
G01 X30.113 Y293.738
G01 X28.251 Y282.893
G01 X26.924 Y271.971
G01 X26.134 Y260.998
G01 X25.884 Y250.000
G01 X26.174 Y239.004
G01 X27.002 Y228.037
G01 X28.368 Y217.124
G01 X30.268 Y206.293
G01 X32.696 Y195.568
G01 X35.647 Y184.977
G01 X39.115 Y174.544
G01 X43.089 Y164.295
G01 X47.562 Y154.254
G01 X52.521 Y144.445
G01 X57.955 Y134.893
G01 X63.851 Y125.619
G01 X70.194 Y116.647
G01 X76.969 Y107.997
G01 X84.160 Y99.692
G01 X91.749 Y91.749
G01 X99.718 Y84.189
G01 X108.047 Y77.030
G01 X116.717 Y70.289
G01 X125.707 Y63.982
G01 X134.994 Y58.125
G01 X144.557 Y52.730
G01 X154.372 Y47.812
G01 X164.416 Y43.381
G01 X174.664 Y39.449
G01 X185.091 Y36.025
G01 X195.674 Y33.117
G01 X206.385 Y30.732
G01 X217.199 Y28.875
G01 X228.091 Y27.552
G01 X239.033 Y26.765
G01 X250.000 Y26.515
G01 X260.965 Y26.804
G01 X271.901 Y27.631
G01 X282.783 Y28.993
G01 X293.584 Y30.887
G01 X304.278 Y33.308
G01 X314.840 Y36.252
G01 X325.243 Y39.709
G01 X335.464 Y43.673
G01 X345.476 Y48.133
G01 X355.257 Y53.078
G01 X364.783 Y58.497
G01 X374.030 Y64.376
G01 X382.977 Y70.701
G01 X391.602 Y77.457
G01 X399.885 Y84.628
G01 X407.804 Y92.196
G01 X415.343 Y100.142
G01 X422.482 Y108.448
G01 X429.204 Y117.094
G01 X435.493 Y126.058
G01 X441.334 Y135.319
G01 X446.713 Y144.855
G01 X451.618 Y154.642
G01 X456.036 Y164.657
G01 X459.956 Y174.876
G01 X463.371 Y185.275
G01 X466.271 Y195.827
G01 X468.649 Y206.508
G01 X470.500 Y217.292
G01 X471.820 Y228.153
G01 X472.605 Y239.064
G01 X472.854 Y250.000
G01 X472.565 Y260.934
G01 X471.741 Y271.840
G01 X470.383 Y282.691
G01 X468.494 Y293.461
G01 X466.079 Y304.125
G01 X463.144 Y314.657
G01 X459.696 Y325.031
G01 X455.744 Y335.222
G01 X451.297 Y345.206
G01 X446.365 Y354.959
G01 X440.962 Y364.458
G01 X435.099 Y373.679
G01 X428.792 Y382.601
G01 X422.055 Y391.202
G01 X414.904 Y399.461
G01 X407.358 Y407.358
G01 X399.434 Y414.875
G01 X391.152 Y421.994
G01 X382.530 Y428.697
G01 X373.592 Y434.968
G01 X364.357 Y440.792
G01 X354.848 Y446.156
G01 X345.088 Y451.047
G01 X335.101 Y455.452
G01 X324.911 Y459.362
G01 X314.542 Y462.767
G01 X304.020 Y465.658
G01 X293.369 Y468.030
G01 X282.615 Y469.876
G01 X271.785 Y471.191
G01 X260.905 Y471.974
G01 X250.000 Y472.222
G01 X239.097 Y471.935
G01 X228.222 Y471.113
G01 X217.402 Y469.758
G01 X206.662 Y467.875
G01 X196.028 Y465.467
G01 X185.527 Y462.540
G01 X175.182 Y459.102
G01 X165.020 Y455.161
G01 X155.064 Y450.726
G01 X145.338 Y445.809
G01 X135.867 Y440.420
G01 X126.671 Y434.574
G01 X117.775 Y428.285
G01 X109.199 Y421.567
G01 X100.963 Y414.437
G01 X93.088 Y406.912
G01 X85.593 Y399.010
G01 X78.494 Y390.751
G01 X71.811 Y382.154
G01 X65.557 Y373.241
G01 X59.749 Y364.032
G01 X54.400 Y354.550
G01 X49.524 Y344.818
G01 X45.131 Y334.860
G01 X41.232 Y324.698
G01 X37.837 Y314.359
G01 X34.954 Y303.866
G01 X32.590 Y293.246
G01 X30.749 Y282.523
G01 X29.437 Y271.724
G01 X28.656 Y260.874
G01 X28.409 Y250.000
G01 X28.696 Y239.128
G01 X29.515 Y228.284
G01 X30.866 Y217.495
G01 X32.744 Y206.785
G01 X35.146 Y196.182
G01 X38.064 Y185.710
G01 X41.492 Y175.395
G01 X45.423 Y165.261
G01 X49.845 Y155.334
G01 X54.748 Y145.636
G01 X60.121 Y136.191
G01 X65.951 Y127.022
G01 X72.223 Y118.151
G01 X78.921 Y109.599
G01 X86.031 Y101.387
G01 X93.535 Y93.535
G01 X101.414 Y86.060
G01 X109.649 Y78.982
G01 X118.222 Y72.318
G01 X127.110 Y66.082
G01 X136.292 Y60.290
G01 X145.747 Y54.957
G01 X155.452 Y50.094
G01 X165.382 Y45.714
G01 X175.514 Y41.827
G01 X185.824 Y38.442
G01 X196.287 Y35.567
G01 X206.878 Y33.209
G01 X217.570 Y31.373
G01 X228.338 Y30.065
G01 X239.157 Y29.287
G01 X250.000 Y29.040
G01 X260.841 Y29.326
G01 X271.654 Y30.144
G01 X282.413 Y31.491
G01 X293.092 Y33.363
G01 X303.665 Y35.758
G01 X314.107 Y38.668
G01 X324.393 Y42.087
G01 X334.497 Y46.006
G01 X344.396 Y50.415
G01 X354.067 Y55.305
G01 X363.484 Y60.663
G01 X372.627 Y66.476
G01 X381.473 Y72.730
G01 X390.000 Y79.409
G01 X398.189 Y86.499
G01 X406.019 Y93.981
G01 X413.472 Y101.838
G01 X420.530 Y110.050
G01 X427.175 Y118.598
G01 X433.393 Y127.461
G01 X439.168 Y136.617
G01 X444.486 Y146.045
G01 X449.335 Y155.722
G01 X453.703 Y165.624
G01 X457.579 Y175.727
G01 X460.954 Y186.008
G01 X463.821 Y196.441
G01 X466.172 Y207.001
G01 X468.002 Y217.662
G01 X469.307 Y228.400
G01 X470.083 Y239.188
G01 X470.328 Y250.000
G01 X470.043 Y260.810
G01 X469.228 Y271.592
G01 X467.885 Y282.320
G01 X466.017 Y292.969
G01 X463.630 Y303.511
G01 X460.728 Y313.924
G01 X457.319 Y324.180
G01 X453.411 Y334.256
G01 X449.014 Y344.127
G01 X444.138 Y353.769
G01 X438.796 Y363.160
G01 X432.999 Y372.276
G01 X426.763 Y381.097
G01 X420.103 Y389.600
G01 X413.033 Y397.765
G01 X405.572 Y405.572
G01 X397.738 Y413.004
G01 X389.550 Y420.042
G01 X381.026 Y426.668
G01 X372.189 Y432.868
G01 X363.058 Y438.627
G01 X353.657 Y443.929
G01 X344.008 Y448.764
G01 X334.135 Y453.119
G01 X324.060 Y456.984
G01 X313.809 Y460.350
G01 X303.406 Y463.209
G01 X292.876 Y465.553
G01 X282.245 Y467.378
G01 X271.538 Y468.678
G01 X260.781 Y469.452
G01 X250.000 Y469.697
G01 X239.221 Y469.413
G01 X228.470 Y468.600
G01 X217.772 Y467.261
G01 X207.155 Y465.398
G01 X196.642 Y463.017
G01 X186.260 Y460.124
G01 X176.033 Y456.724
G01 X165.986 Y452.828
G01 X156.143 Y448.443
G01 X146.529 Y443.581
G01 X137.165 Y438.254
G01 X128.074 Y432.475
G01 X119.279 Y426.256
G01 X110.801 Y419.615
G01 X102.659 Y412.565
G01 X94.874 Y405.126
G01 X87.464 Y397.314
G01 X80.446 Y389.149
G01 X73.839 Y380.650
G01 X67.657 Y371.838
G01 X61.915 Y362.734
G01 X56.627 Y353.360
G01 X51.806 Y343.739
G01 X47.464 Y333.893
G01 X43.610 Y323.848
G01 X40.254 Y313.626
G01 X37.404 Y303.253
G01 X35.066 Y292.753
G01 X33.247 Y282.152
G01 X31.950 Y271.476
G01 X31.179 Y260.750
G01 X30.934 Y250.000
G01 X31.218 Y239.252
G01 X32.028 Y228.532
G01 X33.364 Y217.865
G01 X35.221 Y207.278
G01 X37.595 Y196.795
G01 X40.481 Y186.443
G01 X43.870 Y176.246
G01 X47.756 Y166.228
G01 X52.128 Y156.413
G01 X56.975 Y146.826
G01 X62.287 Y137.489
G01 X68.050 Y128.425
G01 X74.251 Y119.656
G01 X80.873 Y111.201
G01 X87.902 Y103.083
G01 X95.320 Y95.320
G01 X103.110 Y87.932
G01 X111.251 Y80.934
G01 X119.726 Y74.346
G01 X128.513 Y68.182
G01 X137.591 Y62.456
G01 X146.938 Y57.184
G01 X156.531 Y52.377
G01 X166.348 Y48.047
G01 X176.365 Y44.204
G01 X186.557 Y40.858
G01 X196.901 Y38.016
G01 X207.370 Y35.685
G01 X217.940 Y33.871
G01 X228.586 Y32.578
G01 X239.281 Y31.809
G01 X250.000 Y31.566
G01 X260.717 Y31.848
G01 X271.406 Y32.657
G01 X282.042 Y33.988
G01 X292.599 Y35.840
G01 X303.051 Y38.208
G01 X313.374 Y41.085
G01 X323.542 Y44.464
G01 X333.531 Y48.339
G01 X343.317 Y52.698
G01 X352.876 Y57.532
G01 X362.186 Y62.829
G01 X371.224 Y68.575
G01 X379.968 Y74.758
G01 X388.398 Y81.361
G01 X396.493 Y88.370
G01 X404.233 Y95.767
G01 X411.601 Y103.534
G01 X418.578 Y111.652
G01 X425.147 Y120.102
G01 X431.293 Y128.864
G01 X437.002 Y137.915
G01 X442.259 Y147.235
G01 X447.052 Y156.801
G01 X451.370 Y166.590
G01 X455.201 Y176.578
G01 X458.538 Y186.741
G01 X461.371 Y197.054
G01 X463.695 Y207.493
G01 X465.504 Y218.033
G01 X466.794 Y228.648
G01 X467.560 Y239.312
G01 X467.803 Y250.000
G01 X467.521 Y260.686
G01 X466.715 Y271.345
G01 X465.387 Y281.950
G01 X463.541 Y292.476
G01 X461.180 Y302.898
G01 X458.311 Y313.191
G01 X454.941 Y323.329
G01 X451.078 Y333.289
G01 X446.731 Y343.047
G01 X441.911 Y352.579
G01 X436.630 Y361.862
G01 X430.900 Y370.873
G01 X424.735 Y379.592
G01 X418.151 Y387.998
G01 X411.162 Y396.069
G01 X403.787 Y403.787
G01 X396.042 Y411.133
G01 X387.947 Y418.090
G01 X379.522 Y424.640
G01 X370.786 Y430.769
G01 X361.760 Y436.461
G01 X352.467 Y441.702
G01 X342.929 Y446.481
G01 X333.168 Y450.786
G01 X323.209 Y454.607
G01 X313.076 Y457.934
G01 X302.792 Y460.759
G01 X292.383 Y463.076
G01 X281.874 Y464.880
G01 X271.290 Y466.165
G01 X260.657 Y466.930
G01 X250.000 Y467.172
G01 X239.345 Y466.890
G01 X228.717 Y466.087
G01 X218.143 Y464.763
G01 X207.647 Y462.921
G01 X197.256 Y460.568
G01 X186.993 Y457.707
G01 X176.884 Y454.347
G01 X166.952 Y450.495
G01 X157.223 Y446.160
G01 X147.719 Y441.354
G01 X138.463 Y436.088
G01 X129.477 Y430.375
G01 X120.784 Y424.228
G01 X112.403 Y417.663
G01 X104.355 Y410.694
G01 X96.660 Y403.340
G01 X89.335 Y395.618
G01 X82.398 Y387.547
G01 X75.867 Y379.146
G01 X69.756 Y370.435
G01 X64.081 Y361.436
G01 X58.854 Y352.169
G01 X54.089 Y342.659
G01 X49.797 Y332.927
G01 X45.988 Y322.997
G01 X42.670 Y312.893
G01 X39.853 Y302.639
G01 X37.543 Y292.260
G01 X35.745 Y281.782
G01 X34.463 Y271.229
G01 X33.701 Y260.626
G01 X33.460 Y250.000
G01 X33.740 Y239.376
G01 X34.542 Y228.779
G01 X35.862 Y218.236
G01 X37.698 Y207.770
G01 X40.045 Y197.409
G01 X42.897 Y187.176
G01 X46.248 Y177.096
G01 X50.089 Y167.194
G01 X54.410 Y157.493
G01 X59.202 Y148.017
G01 X64.453 Y138.788
G01 X70.150 Y129.828
G01 X76.279 Y121.160
G01 X82.826 Y112.803
G01 X89.773 Y104.779
G01 X97.106 Y97.106
G01 X104.806 Y89.803
G01 X112.854 Y82.887
G01 X121.230 Y76.374
G01 X129.916 Y70.281
G01 X138.889 Y64.622
G01 X148.128 Y59.411
G01 X157.611 Y54.660
G01 X167.315 Y50.380
G01 X177.216 Y46.582
G01 X187.291 Y43.275
G01 X197.514 Y40.466
G01 X207.863 Y38.162
G01 X218.311 Y36.369
G01 X228.833 Y35.091
G01 X239.405 Y34.331
G01 X250.000 Y34.091
G01 X260.593 Y34.371
G01 X271.159 Y35.170
G01 X281.672 Y36.486
G01 X292.106 Y38.317
G01 X302.438 Y40.657
G01 X312.641 Y43.501
G01 X322.691 Y46.842
G01 X332.564 Y50.672
G01 X342.237 Y54.981
G01 X351.686 Y59.759
G01 X360.888 Y64.995
G01 X369.821 Y70.675
G01 X378.464 Y76.786
G01 X386.796 Y83.314
G01 X394.797 Y90.241
G01 X402.448 Y97.552
G01 X409.730 Y105.230
G01 X416.625 Y113.254
G01 X423.119 Y121.606
G01 X429.194 Y130.267
G01 X434.836 Y139.214
G01 X440.032 Y148.426
G01 X444.769 Y157.881
G01 X449.037 Y167.556
G01 X452.824 Y177.429
G01 X456.121 Y187.474
G01 X458.922 Y197.668
G01 X461.219 Y207.986
G01 X463.006 Y218.404
G01 X464.280 Y228.895
G01 X465.038 Y239.436
G01 X465.278 Y250.000
G01 X464.999 Y260.562
G01 X464.202 Y271.097
G01 X462.889 Y281.579
G01 X461.064 Y291.983
G01 X458.730 Y302.284
G01 X455.895 Y312.457
G01 X452.563 Y322.478
G01 X448.745 Y332.323
G01 X444.448 Y341.967
G01 X439.684 Y351.388
G01 X434.464 Y360.563
G01 X428.800 Y369.470
G01 X422.707 Y378.088
G01 X416.198 Y386.396
G01 X409.291 Y394.373
G01 X402.001 Y402.001
G01 X394.346 Y409.262
G01 X386.345 Y416.137
G01 X378.018 Y422.612
G01 X369.383 Y428.669
G01 X360.462 Y434.295
G01 X351.277 Y439.475
G01 X341.849 Y444.199
G01 X332.202 Y448.453
G01 X322.359 Y452.229
G01 X312.343 Y455.517
G01 X302.179 Y458.309
G01 X291.891 Y460.599
G01 X281.504 Y462.382
G01 X271.043 Y463.652
G01 X260.533 Y464.408
G01 X250.000 Y464.646
G01 X239.469 Y464.368
G01 X228.965 Y463.574
G01 X218.514 Y462.265
G01 X208.140 Y460.445
G01 X197.869 Y458.118
G01 X187.726 Y455.291
G01 X177.734 Y451.969
G01 X167.919 Y448.162
G01 X158.303 Y443.878
G01 X148.909 Y439.127
G01 X139.761 Y433.922
G01 X130.880 Y428.275
G01 X122.288 Y422.200
G01 X114.005 Y415.710
G01 X106.051 Y408.823
G01 X98.445 Y401.555
G01 X91.206 Y393.923
G01 X84.351 Y385.945
G01 X77.895 Y377.641
G01 X71.856 Y369.032
G01 X66.247 Y360.137
G01 X61.081 Y350.979
G01 X56.372 Y341.579
G01 X52.130 Y331.960
G01 X48.365 Y322.146
G01 X45.087 Y312.160
G01 X42.303 Y302.025
G01 X40.020 Y291.768
G01 X38.243 Y281.411
G01 X36.976 Y270.981
G01 X36.223 Y260.502
G01 X35.985 Y250.000
G01 X36.262 Y239.500
G01 X37.055 Y229.027
G01 X38.360 Y218.606
G01 X40.174 Y208.263
G01 X42.494 Y198.023
G01 X45.314 Y187.909
G01 X48.625 Y177.947
G01 X52.422 Y168.160
G01 X56.693 Y158.573
G01 X61.429 Y149.207
G01 X66.619 Y140.086
G01 X72.250 Y131.231
G01 X78.307 Y122.664
G01 X84.778 Y114.405
G01 X91.645 Y106.475
G01 X98.892 Y98.892
G01 X106.501 Y91.674
G01 X114.456 Y84.839
G01 X122.735 Y78.402
G01 X131.319 Y72.381
G01 X140.187 Y66.788
G01 X149.319 Y61.638
G01 X158.691 Y56.943
G01 X168.281 Y52.713
G01 X178.067 Y48.960
G01 X188.024 Y45.691
G01 X198.128 Y42.915
G01 X208.355 Y40.639
G01 X218.681 Y38.867
G01 X229.081 Y37.604
G01 X239.529 Y36.853
G01 X250.000 Y36.616
G01 X260.469 Y36.893
G01 X270.911 Y37.683
G01 X281.301 Y38.984
G01 X291.614 Y40.794
G01 X301.824 Y43.107
G01 X311.908 Y45.918
G01 X321.840 Y49.220
G01 X331.598 Y53.005
G01 X341.157 Y57.264
G01 X350.495 Y61.986
G01 X359.590 Y67.161
G01 X368.418 Y72.775
G01 X376.960 Y78.814
G01 X385.194 Y85.266
G01 X393.101 Y92.112
G01 X400.662 Y99.338
G01 X407.858 Y106.925
G01 X414.673 Y114.856
G01 X421.090 Y123.111
G01 X427.094 Y131.670
G01 X432.670 Y140.512
G01 X437.805 Y149.616
G01 X442.487 Y158.961
G01 X446.704 Y168.523
G01 X450.446 Y178.279
G01 X453.705 Y188.207
G01 X456.472 Y198.281
G01 X458.742 Y208.479
G01 X460.508 Y218.774
G01 X461.767 Y229.143
G01 X462.516 Y239.560
G01 X462.753 Y250.000
G01 X462.477 Y260.438
G01 X461.689 Y270.850
G01 X460.391 Y281.209
G01 X458.587 Y291.491
G01 X456.281 Y301.671
G01 X453.478 Y311.724
G01 X450.186 Y321.628
G01 X446.412 Y331.356
G01 X442.165 Y340.888
G01 X437.457 Y350.198
G01 X432.298 Y359.265
G01 X426.700 Y368.067
G01 X420.678 Y376.584
G01 X414.246 Y384.794
G01 X407.420 Y392.677
G01 X400.216 Y400.216
G01 X392.651 Y407.391
G01 X384.743 Y414.185
G01 X376.513 Y420.583
G01 X367.980 Y426.569
G01 X359.164 Y432.129
G01 X350.086 Y437.248
G01 X340.769 Y441.916
G01 X331.236 Y446.120
G01 X321.508 Y449.851
G01 X311.610 Y453.101
G01 X301.565 Y455.860
G01 X291.398 Y458.123
G01 X281.133 Y459.884
G01 X270.795 Y461.139
G01 X260.409 Y461.885
G01 X250.000 Y462.121
G01 X239.593 Y461.846
G01 X229.212 Y461.061
G01 X218.884 Y459.767
G01 X208.633 Y457.968
G01 X198.483 Y455.669
G01 X188.459 Y452.874
G01 X178.585 Y449.591
G01 X168.885 Y445.829
G01 X159.382 Y441.595
G01 X150.100 Y436.900
G01 X141.059 Y431.756
G01 X132.283 Y426.175
G01 X123.792 Y420.171
G01 X115.607 Y413.758
G01 X107.747 Y406.952
G01 X100.231 Y399.769
G01 X93.077 Y392.227
G01 X86.303 Y384.343
G01 X79.924 Y376.137
G01 X73.956 Y367.629
G01 X68.413 Y358.839
G01 X63.309 Y349.789
G01 X58.655 Y340.499
G01 X54.463 Y330.994
G01 X50.743 Y321.295
G01 X47.504 Y311.427
G01 X44.753 Y301.412
G01 X42.496 Y291.275
G01 X40.741 Y281.041
G01 X39.489 Y270.734
G01 X38.745 Y260.378
G01 X38.510 Y250.000
G01 X38.785 Y239.624
G01 X39.568 Y229.274
G01 X40.858 Y218.977
G01 X42.651 Y208.756
G01 X44.944 Y198.636
G01 X47.730 Y188.642
G01 X51.003 Y178.798
G01 X54.755 Y169.127
G01 X58.976 Y159.652
G01 X63.657 Y150.397
G01 X68.785 Y141.384
G01 X74.349 Y132.634
G01 X80.336 Y124.168
G01 X86.730 Y116.007
G01 X93.516 Y108.171
G01 X100.677 Y100.677
G01 X108.197 Y93.545
G01 X116.058 Y86.791
G01 X124.239 Y80.431
G01 X132.722 Y74.481
G01 X141.485 Y68.954
G01 X150.509 Y63.865
G01 X159.770 Y59.226
G01 X169.248 Y55.046
G01 X178.917 Y51.337
G01 X188.757 Y48.108
G01 X198.742 Y45.365
G01 X208.848 Y43.116
G01 X219.052 Y41.365
G01 X229.328 Y40.117
G01 X239.653 Y39.376
G01 X250.000 Y39.141
G01 X260.345 Y39.415
G01 X270.664 Y40.196
G01 X280.931 Y41.482
G01 X291.121 Y43.270
G01 X301.210 Y45.556
G01 X311.175 Y48.334
G01 X320.990 Y51.597
G01 X330.632 Y55.338
G01 X340.078 Y59.547
G01 X349.305 Y64.213
G01 X358.291 Y69.327
G01 X367.015 Y74.874
G01 X375.456 Y80.843
G01 X383.592 Y87.218
G01 X391.405 Y93.983
G01 X398.876 Y101.124
G01 X405.987 Y108.621
G01 X412.721 Y116.458
G01 X419.062 Y124.615
G01 X424.994 Y133.072
G01 X430.504 Y141.810
G01 X435.578 Y150.807
G01 X440.204 Y160.040
G01 X444.370 Y169.489
G01 X448.068 Y179.130
G01 X451.288 Y188.940
G01 X454.023 Y198.895
G01 X456.265 Y208.971
G01 X458.010 Y219.145
G01 X459.254 Y229.390
G01 X459.994 Y239.684
G01 X460.227 Y250.000
G01 X459.954 Y260.314
G01 X459.176 Y270.602
G01 X457.893 Y280.838
G01 X456.110 Y290.998
G01 X453.831 Y301.057
G01 X451.062 Y310.991
G01 X447.808 Y320.777
G01 X444.079 Y330.390
G01 X439.883 Y339.808
G01 X435.230 Y349.007
G01 X430.132 Y357.967
G01 X424.601 Y366.664
G01 X418.650 Y375.079
G01 X412.294 Y383.192
G01 X405.549 Y390.981
G01 X398.430 Y398.430
G01 X390.955 Y405.520
G01 X383.141 Y412.233
G01 X375.009 Y418.555
G01 X366.577 Y424.470
G01 X357.865 Y429.963
G01 X348.896 Y435.021
G01 X339.690 Y439.633
G01 X330.269 Y443.787
G01 X320.657 Y447.474
G01 X310.877 Y450.684
G01 X300.952 Y453.410
G01 X290.906 Y455.646
G01 X280.763 Y457.386
G01 X270.548 Y458.626
G01 X260.285 Y459.363
G01 X250.000 Y459.596
G01 X239.717 Y459.324
G01 X229.460 Y458.547
G01 X219.255 Y457.269
G01 X209.125 Y455.491
G01 X199.096 Y453.219
G01 X189.192 Y450.458
G01 X179.436 Y447.214
G01 X169.851 Y443.496
G01 X160.462 Y439.312
G01 X151.290 Y434.673
G01 X142.358 Y429.590
G01 X133.686 Y424.076
G01 X125.297 Y418.143
G01 X117.209 Y411.806
G01 X109.443 Y405.081
G01 X102.016 Y397.984
G01 X94.948 Y390.531
G01 X88.255 Y382.741
G01 X81.952 Y374.633
G01 X76.055 Y366.226
G01 X70.579 Y357.541
G01 X65.536 Y348.598
G01 X60.938 Y339.420
G01 X56.796 Y330.028
G01 X53.121 Y320.445
G01 X49.920 Y310.694
G01 X47.202 Y300.798
G01 X44.973 Y290.782
G01 X43.239 Y280.670
G01 X42.002 Y270.486
G01 X41.267 Y260.254
G01 X41.035 Y250.000
G01 X41.307 Y239.748
G01 X42.081 Y229.522
G01 X43.356 Y219.347
G01 X45.128 Y209.248
G01 X47.393 Y199.250
G01 X50.147 Y189.375
G01 X53.381 Y179.648
G01 X57.088 Y170.093
G01 X61.259 Y160.732
G01 X65.884 Y151.588
G01 X70.951 Y142.682
G01 X76.449 Y134.037
G01 X82.364 Y125.673
G01 X88.682 Y117.609
G01 X95.387 Y109.867
G01 X102.463 Y102.463
G01 X109.893 Y95.416
G01 X117.660 Y88.743
G01 X125.743 Y82.459
G01 X134.125 Y76.580
G01 X142.784 Y71.120
G01 X151.699 Y66.092
G01 X160.850 Y61.508
G01 X170.214 Y57.379
G01 X179.768 Y53.715
G01 X189.490 Y50.524
G01 X199.355 Y47.814
G01 X209.341 Y45.592
G01 X219.422 Y43.863
G01 X229.576 Y42.631
G01 X239.777 Y41.898
G01 X250.000 Y41.667
G01 X260.221 Y41.937
G01 X270.416 Y42.709
G01 X280.560 Y43.980
G01 X290.628 Y45.747
G01 X300.597 Y48.006
G01 X310.442 Y50.751
G01 X320.139 Y53.975
G01 X329.665 Y57.671
G01 X338.998 Y61.829
G01 X348.115 Y66.440
G01 X356.993 Y71.493
G01 X365.612 Y76.974
G01 X373.951 Y82.871
G01 X381.990 Y89.170
G01 X389.709 Y95.854
G01 X397.091 Y102.909
G01 X404.116 Y110.317
G01 X410.769 Y118.060
G01 X417.034 Y126.119
G01 X422.895 Y134.475
G01 X428.338 Y143.108
G01 X433.351 Y151.997
G01 X437.921 Y161.120
G01 X442.037 Y170.455
G01 X445.691 Y179.981
G01 X448.872 Y189.673
G01 X451.573 Y199.509
G01 X453.788 Y209.464
G01 X455.513 Y219.515
G01 X456.741 Y229.638
G01 X457.472 Y239.808
G01 X457.702 Y250.000
G01 X457.432 Y260.190
G01 X456.663 Y270.354
G01 X455.395 Y280.468
G01 X453.634 Y290.505
G01 X451.382 Y300.444
G01 X448.645 Y310.258
G01 X445.431 Y319.926
G01 X441.746 Y329.424
G01 X437.600 Y338.728
G01 X433.003 Y347.817
G01 X427.966 Y356.669
G01 X422.501 Y365.262
G01 X416.622 Y373.575
G01 X410.342 Y381.590
G01 X403.678 Y389.285
G01 X396.644 Y396.644
G01 X389.259 Y403.649
G01 X381.539 Y410.281
G01 X373.505 Y416.527
G01 X365.174 Y422.370
G01 X356.567 Y427.797
G01 X347.705 Y432.794
G01 X338.610 Y437.350
G01 X329.303 Y441.454
G01 X319.807 Y445.096
G01 X310.144 Y448.268
G01 X300.338 Y450.961
G01 X290.413 Y453.169
G01 X280.392 Y454.888
G01 X270.300 Y456.113
G01 X260.161 Y456.841
G01 X250.000 Y457.071
G01 X239.840 Y456.802
G01 X229.707 Y456.034
G01 X219.625 Y454.771
G01 X209.618 Y453.015
G01 X199.710 Y450.769
G01 X189.925 Y448.041
G01 X180.287 Y444.836
G01 X170.818 Y441.163
G01 X161.542 Y437.029
G01 X152.481 Y432.446
G01 X143.656 Y427.424
G01 X135.089 Y421.976
G01 X126.801 Y416.115
G01 X118.811 Y409.854
G01 X111.139 Y403.210
G01 X103.802 Y396.198
G01 X96.819 Y388.835
G01 X90.207 Y381.139
G01 X83.980 Y373.129
G01 X78.155 Y364.823
G01 X72.745 Y356.243
G01 X67.763 Y347.408
G01 X63.220 Y338.340
G01 X59.129 Y329.061
G01 X55.498 Y319.594
G01 X52.337 Y309.961
G01 X49.652 Y300.185
G01 X47.450 Y290.290
G01 X45.736 Y280.300
G01 X44.515 Y270.238
G01 X43.790 Y260.130
G01 X43.561 Y250.000
G01 X43.829 Y239.871
G01 X44.594 Y229.769
G01 X45.854 Y219.718
G01 X47.605 Y209.741
G01 X49.843 Y199.863
G01 X52.563 Y190.108
G01 X55.758 Y180.499
G01 X59.421 Y171.059
G01 X63.542 Y161.812
G01 X68.111 Y152.778
G01 X73.117 Y143.981
G01 X78.549 Y135.440
G01 X84.392 Y127.177
G01 X90.634 Y119.211
G01 X97.258 Y111.563
G01 X104.249 Y104.249
G01 X111.589 Y97.287
G01 X119.262 Y90.695
G01 X127.247 Y84.487
G01 X135.528 Y78.680
G01 X144.082 Y73.286
G01 X152.890 Y68.319
G01 X161.930 Y63.791
G01 X171.180 Y59.712
G01 X180.619 Y56.093
G01 X190.223 Y52.941
G01 X199.969 Y50.264
G01 X209.833 Y48.069
G01 X219.793 Y46.361
G01 X229.823 Y45.144
G01 X239.901 Y44.420
G01 X250.000 Y44.192
G01 X260.098 Y44.460
G01 X270.169 Y45.222
G01 X280.190 Y46.478
G01 X290.136 Y48.224
G01 X299.983 Y50.455
G01 X309.709 Y53.167
G01 X319.288 Y56.353
G01 X328.699 Y60.004
G01 X337.918 Y64.112
G01 X346.924 Y68.667
G01 X355.695 Y73.659
G01 X364.209 Y79.074
G01 X372.447 Y84.899
G01 X380.388 Y91.122
G01 X388.014 Y97.726
G01 X395.305 Y104.695
G01 X402.245 Y112.013
G01 X408.817 Y119.662
G01 X415.006 Y127.624
G01 X420.795 Y135.878
G01 X426.172 Y144.406
G01 X431.124 Y153.187
G01 X435.638 Y162.200
G01 X439.704 Y171.422
G01 X443.313 Y180.832
G01 X446.455 Y190.406
G01 X449.124 Y200.122
G01 X451.312 Y209.957
G01 X453.015 Y219.886
G01 X454.228 Y229.885
G01 X454.949 Y239.931
G01 X455.177 Y250.000
G01 X454.910 Y260.067
G01 X454.150 Y270.107
G01 X452.897 Y280.097
G01 X451.157 Y290.013
G01 X448.932 Y299.830
G01 X446.229 Y309.525
G01 X443.053 Y319.075
G01 X439.413 Y328.457
G01 X435.317 Y337.648
G01 X430.776 Y346.627
G01 X425.800 Y355.370
G01 X420.401 Y363.859
G01 X414.594 Y372.071
G01 X408.390 Y379.988
G01 X401.807 Y387.590
G01 X394.859 Y394.859
G01 X387.563 Y401.777
G01 X379.937 Y408.329
G01 X372.000 Y414.498
G01 X363.771 Y420.270
G01 X355.269 Y425.631
G01 X346.515 Y430.567
G01 X337.530 Y435.067
G01 X328.337 Y439.121
G01 X318.956 Y442.719
G01 X309.411 Y445.851
G01 X299.724 Y448.511
G01 X289.920 Y450.693
G01 X280.022 Y452.390
G01 X270.053 Y453.600
G01 X260.038 Y454.319
G01 X250.000 Y454.545
G01 X239.964 Y454.279
G01 X229.955 Y453.521
G01 X219.996 Y452.273
G01 X210.111 Y450.538
G01 X200.323 Y448.320
G01 X190.658 Y445.625
G01 X181.137 Y442.459
G01 X171.784 Y438.830
G01 X162.621 Y434.746
G01 X153.671 Y430.219
G01 X144.954 Y425.258
G01 X136.492 Y419.876
G01 X128.305 Y414.086
G01 X120.413 Y407.902
G01 X112.834 Y401.339
G01 X105.588 Y394.412
G01 X98.690 Y387.139
G01 X92.159 Y379.537
G01 X86.009 Y371.624
G01 X80.255 Y363.420
G01 X74.911 Y354.944
G01 X69.990 Y346.217
G01 X65.503 Y337.260
G01 X61.462 Y328.095
G01 X57.876 Y318.743
G01 X54.753 Y309.228
G01 X52.101 Y299.571
G01 X49.927 Y289.797
G01 X48.234 Y279.929
G01 X47.028 Y269.991
G01 X46.312 Y260.007
G01 X46.086 Y250.000
G01 X46.351 Y239.995
G01 X47.107 Y230.017
G01 X48.351 Y220.088
G01 X50.081 Y210.234
G01 X52.293 Y200.477
G01 X54.980 Y190.841
G01 X58.136 Y181.350
G01 X61.754 Y172.026
G01 X65.824 Y162.891
G01 X70.338 Y153.969
G01 X75.283 Y145.279
G01 X80.648 Y136.843
G01 X86.421 Y128.681
G01 X92.586 Y120.813
G01 X99.129 Y113.258
G01 X106.034 Y106.034
G01 X113.285 Y99.158
G01 X120.864 Y92.647
G01 X128.752 Y86.516
G01 X136.931 Y80.780
G01 X145.380 Y75.452
G01 X154.080 Y70.547
G01 X163.009 Y66.074
G01 X172.147 Y62.045
G01 X181.470 Y58.470
G01 X190.956 Y55.357
G01 X200.582 Y52.714
G01 X210.326 Y50.546
G01 X220.164 Y48.859
G01 X230.071 Y47.657
G01 X240.024 Y46.942
G01 X250.000 Y46.717
G01 X259.974 Y46.982
G01 X269.921 Y47.735
G01 X279.819 Y48.976
G01 X289.643 Y50.701
G01 X299.370 Y52.905
G01 X308.976 Y55.584
G01 X318.437 Y58.730
G01 X327.733 Y62.337
G01 X336.839 Y66.395
G01 X345.734 Y70.895
G01 X354.397 Y75.825
G01 X362.806 Y81.173
G01 X370.943 Y86.928
G01 X378.786 Y93.074
G01 X386.318 Y99.597
G01 X393.519 Y106.481
G01 X400.374 Y113.709
G01 X406.865 Y121.264
G01 X412.977 Y129.128
G01 X418.695 Y137.281
G01 X424.006 Y145.705
G01 X428.897 Y154.378
G01 X433.355 Y163.279
G01 X437.371 Y172.388
G01 X440.935 Y181.682
G01 X444.039 Y191.139
G01 X446.674 Y200.736
G01 X448.835 Y210.449
G01 X450.517 Y220.256
G01 X451.715 Y230.133
G01 X452.427 Y240.055
G01 X452.652 Y250.000
G01 X452.388 Y259.943
G01 X451.636 Y269.859
G01 X450.400 Y279.726
G01 X448.680 Y289.520
G01 X446.483 Y299.216
G01 X443.812 Y308.792
G01 X440.675 Y318.225
G01 X437.080 Y327.491
G01 X433.034 Y336.569
G01 X428.549 Y345.436
G01 X423.634 Y354.072
G01 X418.302 Y362.456
G01 X412.565 Y370.567
G01 X406.438 Y378.386
G01 X399.936 Y385.894
G01 X393.073 Y393.073
G01 X385.867 Y399.906
G01 X378.335 Y406.377
G01 X370.496 Y412.470
G01 X362.368 Y418.171
G01 X353.971 Y423.465
G01 X345.325 Y428.340
G01 X336.451 Y432.785
G01 X327.370 Y436.788
G01 X318.105 Y440.341
G01 X308.678 Y443.435
G01 X299.111 Y446.062
G01 X289.428 Y448.216
G01 X279.651 Y449.892
G01 X269.805 Y451.087
G01 X259.914 Y451.797
G01 X250.000 Y452.020
G01 X240.088 Y451.757
G01 X230.202 Y451.008
G01 X220.366 Y449.775
G01 X210.603 Y448.061
G01 X200.937 Y445.870
G01 X191.391 Y443.208
G01 X181.988 Y440.081
G01 X172.751 Y436.497
G01 X163.701 Y432.464
G01 X154.861 Y427.992
G01 X146.252 Y423.092
G01 X137.895 Y417.777
G01 X129.809 Y412.058
G01 X122.015 Y405.950
G01 X114.530 Y399.468
G01 X107.373 Y392.627
G01 X100.561 Y385.443
G01 X94.111 Y377.935
G01 X88.037 Y370.120
G01 X82.354 Y362.017
G01 X77.077 Y353.646
G01 X72.217 Y345.027
G01 X67.786 Y336.181
G01 X63.795 Y327.129
G01 X60.253 Y317.892
G01 X57.170 Y308.494
G01 X54.551 Y298.957
G01 X52.403 Y289.304
G01 X50.732 Y279.559
G01 X49.542 Y269.743
G01 X48.834 Y259.883
G01 X48.611 Y250.000
G01 X48.873 Y240.119
G01 X49.620 Y230.264
G01 X50.849 Y220.459
G01 X52.558 Y210.726
G01 X54.742 Y201.090
G01 X57.396 Y191.574
G01 X60.514 Y182.201
G01 X64.087 Y172.992
G01 X68.107 Y163.971
G01 X72.565 Y155.159
G01 X77.449 Y146.577
G01 X82.748 Y138.246
G01 X88.449 Y130.186
G01 X94.538 Y122.415
G01 X101.000 Y114.954
G01 X107.820 Y107.820
G01 X114.981 Y101.029
G01 X122.466 Y94.599
G01 X130.256 Y88.544
G01 X138.334 Y82.879
G01 X146.678 Y77.618
G01 X155.271 Y72.774
G01 X164.089 Y68.357
G01 X173.113 Y64.378
G01 X182.320 Y60.848
G01 X191.689 Y57.774
G01 X201.196 Y55.163
G01 X210.819 Y53.023
G01 X220.534 Y51.357
G01 X230.318 Y50.170
G01 X240.148 Y49.465
G01 X250.000 Y49.242
G01 X259.850 Y49.504
G01 X269.674 Y50.248
G01 X279.449 Y51.474
G01 X289.150 Y53.177
G01 X298.756 Y55.355
G01 X308.242 Y58.000
G01 X317.587 Y61.108
G01 X326.766 Y64.670
G01 X335.759 Y68.678
G01 X344.543 Y73.122
G01 X353.098 Y77.991
G01 X361.403 Y83.273
G01 X369.438 Y88.956
G01 X377.184 Y95.026
G01 X384.622 Y101.468
G01 X391.734 Y108.266
G01 X398.503 Y115.405
G01 X404.913 Y122.866
G01 X410.949 Y130.632
G01 X416.596 Y138.684
G01 X421.840 Y147.003
G01 X426.670 Y155.568
G01 X431.073 Y164.359
G01 X435.038 Y173.355
G01 X438.558 Y182.533
G01 X441.622 Y191.872
G01 X444.224 Y201.349
G01 X446.358 Y210.942
G01 X448.019 Y220.627
G01 X449.202 Y230.380
G01 X449.905 Y240.179
G01 X450.126 Y250.000
G01 X449.865 Y259.819
G01 X449.123 Y269.612
G01 X447.902 Y279.356
G01 X446.203 Y289.027
G01 X444.033 Y298.603
G01 X441.396 Y308.059
G01 X438.298 Y317.374
G01 X434.747 Y326.525
G01 X430.751 Y335.489
G01 X426.322 Y344.246
G01 X421.468 Y352.774
G01 X416.202 Y361.053
G01 X410.537 Y369.062
G01 X404.486 Y376.784
G01 X398.065 Y384.198
G01 X391.287 Y391.287
G01 X384.171 Y398.035
G01 X376.733 Y404.425
G01 X368.992 Y410.442
G01 X360.965 Y416.071
G01 X352.672 Y421.299
G01 X344.134 Y426.113
G01 X335.371 Y430.502
G01 X326.404 Y434.455
G01 X317.254 Y437.963
G01 X307.945 Y441.018
G01 X298.497 Y443.612
G01 X288.935 Y445.739
G01 X279.281 Y447.394
G01 X269.558 Y448.574
G01 X259.790 Y449.274
G01 X250.000 Y449.495
G01 X240.212 Y449.235
G01 X230.450 Y448.495
G01 X220.737 Y447.277
G01 X211.096 Y445.584
G01 X201.551 Y443.421
G01 X192.124 Y440.791
G01 X182.839 Y437.703
G01 X173.717 Y434.163
G01 X164.781 Y430.181
G01 X156.052 Y425.765
G01 X147.551 Y420.926
G01 X139.298 Y415.677
G01 X131.314 Y410.030
G01 X123.617 Y403.998
G01 X116.226 Y397.597
G01 X109.159 Y390.841
G01 X102.432 Y383.747
G01 X96.063 Y376.333
G01 X90.065 Y368.616
G01 X84.454 Y360.614
G01 X79.243 Y352.348
G01 X74.444 Y343.837
G01 X70.069 Y335.101
G01 X66.128 Y326.162
G01 X62.631 Y317.042
G01 X59.586 Y307.761
G01 X57.000 Y298.344
G01 X54.880 Y288.812
G01 X53.230 Y279.188
G01 X52.055 Y269.496
G01 X51.356 Y259.759
G01 X51.136 Y250.000
G01 X51.396 Y240.243
G01 X52.133 Y230.512
G01 X53.347 Y220.829
G01 X55.035 Y211.219
G01 X57.192 Y201.704
G01 X59.813 Y192.307
G01 X62.891 Y183.051
G01 X66.420 Y173.959
G01 X70.390 Y165.051
G01 X74.792 Y156.349
G01 X79.615 Y147.875
G01 X84.848 Y139.649
G01 X90.477 Y131.690
G01 X96.490 Y124.017
G01 X102.871 Y116.650
G01 X109.605 Y109.605
G01 X116.677 Y102.900
G01 X124.068 Y96.551
G01 X131.760 Y90.572
G01 X139.736 Y84.979
G01 X147.977 Y79.784
G01 X156.461 Y75.001
G01 X165.169 Y70.640
G01 X174.079 Y66.711
G01 X183.171 Y63.226
G01 X192.422 Y60.190
G01 X201.810 Y57.613
G01 X211.311 Y55.499
G01 X220.905 Y53.855
G01 X230.566 Y52.683
G01 X240.272 Y51.987
G01 X250.000 Y51.768
G01 X259.726 Y52.026
G01 X269.426 Y52.761
G01 X279.078 Y53.972
G01 X288.658 Y55.654
G01 X298.143 Y57.804
G01 X307.509 Y60.417
G01 X316.736 Y63.486
G01 X325.800 Y67.003
G01 X334.679 Y70.961
G01 X343.353 Y75.349
G01 X351.800 Y80.157
G01 X360.000 Y85.373
G01 X367.934 Y90.984
G01 X375.582 Y96.978
G01 X382.926 Y103.339
G01 X389.948 Y110.052
G01 X396.632 Y117.101
G01 X402.961 Y124.468
G01 X408.921 Y132.136
G01 X414.496 Y140.087
G01 X419.674 Y148.301
G01 X424.443 Y156.759
G01 X428.790 Y165.439
G01 X432.705 Y174.321
G01 X436.180 Y183.384
G01 X439.206 Y192.605
G01 X441.775 Y201.963
G01 X443.882 Y211.435
G01 X445.521 Y220.997
G01 X446.689 Y230.628
G01 X447.383 Y240.303
G01 X447.601 Y250.000
G01 X447.343 Y259.695
G01 X446.610 Y269.364
G01 X445.404 Y278.985
G01 X443.727 Y288.535
G01 X441.583 Y297.989
G01 X438.979 Y307.326
G01 X435.920 Y316.523
G01 X432.414 Y325.558
G01 X428.469 Y334.409
G01 X424.095 Y343.055
G01 X419.302 Y351.476
G01 X414.102 Y359.650
G01 X408.509 Y367.558
G01 X402.534 Y375.182
G01 X396.193 Y382.502
G01 X389.502 Y389.502
G01 X382.475 Y396.164
G01 X375.131 Y402.473
G01 X367.487 Y408.414
G01 X359.562 Y413.971
G01 X351.374 Y419.133
G01 X342.944 Y423.886
G01 X334.291 Y428.219
G01 X325.437 Y432.122
G01 X316.404 Y435.586
G01 X307.212 Y438.602
G01 X297.884 Y441.162
G01 X288.442 Y443.262
G01 X278.910 Y444.896
G01 X269.310 Y446.061
G01 X259.666 Y446.752
G01 X250.000 Y446.970
G01 X240.336 Y446.713
G01 X230.697 Y445.982
G01 X221.107 Y444.779
G01 X211.589 Y443.108
G01 X202.164 Y440.971
G01 X192.857 Y438.375
G01 X183.689 Y435.326
G01 X174.683 Y431.830
G01 X165.861 Y427.898
G01 X157.242 Y423.538
G01 X148.849 Y418.760
G01 X140.701 Y413.577
G01 X132.818 Y408.002
G01 X125.219 Y402.046
G01 X117.922 Y395.726
G01 X110.945 Y389.055
G01 X104.304 Y382.052
G01 X98.015 Y374.731
G01 X92.094 Y367.111
G01 X86.554 Y359.211
G01 X81.409 Y351.050
G01 X76.671 Y342.646
G01 X72.352 Y334.021
G01 X68.461 Y325.196
G01 X65.009 Y316.191
G01 X62.003 Y307.028
G01 X59.450 Y297.730
G01 X57.357 Y288.319
G01 X55.728 Y278.818
G01 X54.568 Y269.248
G01 X53.878 Y259.635
G01 X53.662 Y250.000
G01 X53.918 Y240.367
G01 X54.646 Y230.759
G01 X55.845 Y221.200
G01 X57.512 Y211.712
G01 X59.641 Y202.318
G01 X62.229 Y193.040
G01 X65.269 Y183.902
G01 X68.753 Y174.925
G01 X72.673 Y166.130
G01 X77.019 Y157.540
G01 X81.781 Y149.173
G01 X86.947 Y141.052
G01 X92.506 Y133.194
G01 X98.442 Y125.619
G01 X104.742 Y118.346
G01 X111.391 Y111.391
G01 X118.372 Y104.771
G01 X125.670 Y98.503
G01 X133.265 Y92.601
G01 X141.139 Y87.079
G01 X149.275 Y81.950
G01 X157.651 Y77.228
G01 X166.249 Y72.922
G01 X175.046 Y69.044
G01 X184.022 Y65.603
G01 X193.155 Y62.607
G01 X202.423 Y60.062
G01 X211.804 Y57.976
G01 X221.275 Y56.353
G01 X230.813 Y55.196
G01 X240.396 Y54.509
G01 X250.000 Y54.293
G01 X259.602 Y54.548
G01 X269.179 Y55.275
G01 X278.708 Y56.470
G01 X288.165 Y58.131
G01 X297.529 Y60.254
G01 X306.776 Y62.833
G01 X315.885 Y65.863
G01 X324.833 Y69.336
G01 X333.600 Y73.243
G01 X342.163 Y77.576
G01 X350.502 Y82.323
G01 X358.597 Y87.472
G01 X366.430 Y93.013
G01 X373.980 Y98.930
G01 X381.230 Y105.210
G01 X388.163 Y111.837
G01 X394.761 Y118.796
G01 X401.009 Y126.070
G01 X406.892 Y133.641
G01 X412.396 Y141.490
G01 X417.508 Y149.599
G01 X422.215 Y157.949
G01 X426.507 Y166.518
G01 X430.372 Y175.287
G01 X433.802 Y184.234
G01 X436.789 Y193.338
G01 X439.325 Y202.576
G01 X441.405 Y211.927
G01 X443.023 Y221.368
G01 X444.176 Y230.875
G01 X444.860 Y240.427
G01 X445.076 Y250.000
G01 X444.821 Y259.571
G01 X444.097 Y269.117
G01 X442.906 Y278.615
G01 X441.250 Y288.042
G01 X439.134 Y297.376
G01 X436.563 Y306.593
G01 X433.542 Y315.673
G01 X430.081 Y324.592
G01 X426.186 Y333.330
G01 X421.867 Y341.865
G01 X417.136 Y350.177
G01 X412.003 Y358.247
G01 X406.480 Y366.054
G01 X400.582 Y373.580
G01 X394.322 Y380.806
G01 X387.716 Y387.716
G01 X380.780 Y394.293
G01 X373.529 Y400.521
G01 X365.983 Y406.385
G01 X358.159 Y411.871
G01 X350.076 Y416.967
G01 X341.753 Y421.659
G01 X333.212 Y425.936
G01 X324.471 Y429.789
G01 X315.553 Y433.208
G01 X306.479 Y436.185
G01 X297.270 Y438.713
G01 X287.950 Y440.786
G01 X278.540 Y442.398
G01 X269.063 Y443.547
G01 X259.542 Y444.230
G01 X250.000 Y444.444
G01 X240.460 Y444.191
G01 X230.945 Y443.469
G01 X221.478 Y442.281
G01 X212.081 Y440.631
G01 X202.778 Y438.522
G01 X193.590 Y435.958
G01 X184.540 Y432.948
G01 X175.650 Y429.497
G01 X166.940 Y425.615
G01 X158.433 Y421.311
G01 X150.147 Y416.594
G01 X142.104 Y411.478
G01 X134.322 Y405.973
G01 X126.821 Y400.094
G01 X119.618 Y393.855
G01 X112.730 Y387.270
G01 X106.175 Y380.356
G01 X99.967 Y373.129
G01 X94.122 Y365.607
G01 X88.653 Y357.808
G01 X83.575 Y349.751
G01 X78.898 Y341.456
G01 X74.634 Y332.942
G01 X70.794 Y324.229
G01 X67.386 Y315.340
G01 X64.419 Y306.295
G01 X61.900 Y297.117
G01 X59.834 Y287.826
G01 X58.226 Y278.447
G01 X57.081 Y269.001
G01 X56.401 Y259.511
G01 X56.187 Y250.000
G01 X56.440 Y240.491
G01 X57.159 Y231.007
G01 X58.343 Y221.570
G01 X59.988 Y212.204
G01 X62.091 Y202.931
G01 X64.646 Y193.773
G01 X67.646 Y184.753
G01 X71.086 Y175.891
G01 X74.956 Y167.210
G01 X79.246 Y158.730
G01 X83.947 Y150.472
G01 X89.047 Y142.455
G01 X94.534 Y134.698
G01 X100.394 Y127.221
G01 X106.613 Y120.042
G01 X113.177 Y113.177
G01 X120.068 Y106.642
G01 X127.272 Y100.455
G01 X134.769 Y94.629
G01 X142.542 Y89.178
G01 X150.573 Y84.116
G01 X158.842 Y79.455
G01 X167.328 Y75.205
G01 X176.012 Y71.377
G01 X184.872 Y67.981
G01 X193.888 Y65.023
G01 X203.037 Y62.512
G01 X212.297 Y60.453
G01 X221.646 Y58.851
G01 X231.061 Y57.709
G01 X240.520 Y57.031
G01 X250.000 Y56.818
G01 X259.478 Y57.071
G01 X268.931 Y57.788
G01 X278.337 Y58.968
G01 X287.673 Y60.608
G01 X296.915 Y62.703
G01 X306.043 Y65.250
G01 X315.034 Y68.241
G01 X323.867 Y71.669
G01 X332.520 Y75.526
G01 X340.972 Y79.803
G01 X349.204 Y84.489
G01 X357.195 Y89.572
G01 X364.925 Y95.041
G01 X372.378 Y100.882
G01 X379.534 Y107.081
G01 X386.377 Y113.623
G01 X392.890 Y120.492
G01 X399.057 Y127.672
G01 X404.864 Y135.145
G01 X410.297 Y142.893
G01 X415.342 Y150.898
G01 X419.988 Y159.139
G01 X424.224 Y167.598
G01 X428.039 Y176.254
G01 X431.425 Y185.085
G01 X434.373 Y194.071
G01 X436.876 Y203.190
G01 X438.928 Y212.420
G01 X440.525 Y221.738
G01 X441.663 Y231.123
G01 X442.338 Y240.551
G01 X442.551 Y250.000
G01 X442.299 Y259.447
G01 X441.584 Y268.869
G01 X440.408 Y278.244
G01 X438.773 Y287.549
G01 X436.684 Y296.762
G01 X434.146 Y305.860
G01 X431.165 Y314.822
G01 X427.748 Y323.625
G01 X423.903 Y332.250
G01 X419.640 Y340.675
G01 X414.970 Y348.879
G01 X409.903 Y356.844
G01 X404.452 Y364.549
G01 X398.630 Y371.978
G01 X392.451 Y379.110
G01 X385.931 Y385.931
G01 X379.084 Y392.422
G01 X371.927 Y398.569
G01 X364.479 Y404.357
G01 X356.756 Y409.772
G01 X348.778 Y414.801
G01 X340.563 Y419.432
G01 X332.132 Y423.653
G01 X323.505 Y427.456
G01 X314.702 Y430.830
G01 X305.746 Y433.768
G01 X296.657 Y436.263
G01 X287.457 Y438.309
G01 X278.169 Y439.901
G01 X268.815 Y441.034
G01 X259.418 Y441.708
G01 X250.000 Y441.919
G01 X240.584 Y441.668
G01 X231.192 Y440.956
G01 X221.848 Y439.783
G01 X212.574 Y438.154
G01 X203.391 Y436.072
G01 X194.323 Y433.542
G01 X185.391 Y430.570
G01 X176.616 Y427.164
G01 X168.020 Y423.332
G01 X159.623 Y419.084
G01 X151.445 Y414.428
G01 X143.507 Y409.378
G01 X135.827 Y403.945
G01 X128.423 Y398.142
G01 X121.314 Y391.983
G01 X114.516 Y385.484
G01 X108.046 Y378.660
G01 X101.919 Y371.527
G01 X96.150 Y364.103
G01 X90.753 Y356.405
G01 X85.741 Y348.453
G01 X81.125 Y340.265
G01 X76.917 Y331.862
G01 X73.127 Y323.263
G01 X69.764 Y314.489
G01 X66.836 Y305.562
G01 X64.349 Y296.503
G01 X62.310 Y287.334
G01 X60.724 Y278.076
G01 X59.594 Y268.753
G01 X58.923 Y259.387
G01 X58.712 Y250.000
G01 X58.962 Y240.615
G01 X59.672 Y231.254
G01 X60.841 Y221.941
G01 X62.465 Y212.697
G01 X64.540 Y203.545
G01 X67.062 Y194.506
G01 X70.024 Y185.604
G01 X73.419 Y176.858
G01 X77.238 Y168.290
G01 X81.473 Y159.921
G01 X86.113 Y151.770
G01 X91.147 Y143.858
G01 X96.562 Y136.203
G01 X102.346 Y128.823
G01 X108.484 Y121.738
G01 X114.962 Y114.962
G01 X121.764 Y108.514
G01 X128.874 Y102.407
G01 X136.273 Y96.657
G01 X143.945 Y91.278
G01 X151.871 Y86.282
G01 X160.032 Y81.682
G01 X168.408 Y77.488
G01 X176.978 Y73.710
G01 X185.723 Y70.358
G01 X194.621 Y67.440
G01 X203.650 Y64.961
G01 X212.789 Y62.929
G01 X222.016 Y61.348
G01 X231.309 Y60.222
G01 X240.644 Y59.553
G01 X250.000 Y59.343
G01 X259.354 Y59.593
G01 X268.684 Y60.301
G01 X277.966 Y61.466
G01 X287.180 Y63.084
G01 X296.302 Y65.153
G01 X305.310 Y67.666
G01 X314.184 Y70.618
G01 X322.901 Y74.002
G01 X331.440 Y77.809
G01 X339.782 Y82.030
G01 X347.905 Y86.655
G01 X355.792 Y91.672
G01 X363.421 Y97.069
G01 X370.776 Y102.834
G01 X377.838 Y108.952
G01 X384.591 Y115.409
G01 X391.019 Y122.188
G01 X397.105 Y129.274
G01 X402.836 Y136.649
G01 X408.197 Y144.296
G01 X413.176 Y152.196
G01 X417.761 Y160.330
G01 X421.941 Y168.678
G01 X425.706 Y177.220
G01 X429.047 Y185.936
G01 X431.956 Y194.804
G01 X434.426 Y203.804
G01 X436.451 Y212.913
G01 X438.027 Y222.109
G01 X439.149 Y231.370
G01 X439.816 Y240.675
G01 X440.025 Y250.000
G01 X439.777 Y259.323
G01 X439.071 Y268.622
G01 X437.910 Y277.874
G01 X436.297 Y287.057
G01 X434.235 Y296.148
G01 X431.730 Y305.127
G01 X428.787 Y313.971
G01 X425.415 Y322.659
G01 X421.620 Y331.170
G01 X417.413 Y339.484
G01 X412.804 Y347.581
G01 X407.803 Y355.441
G01 X402.424 Y363.045
G01 X396.678 Y370.376
G01 X390.580 Y377.414
G01 X384.145 Y384.145
G01 X377.388 Y390.551
G01 X370.325 Y396.617
G01 X362.975 Y402.329
G01 X355.353 Y407.672
G01 X347.480 Y412.635
G01 X339.373 Y417.205
G01 X331.052 Y421.371
G01 X322.538 Y425.123
G01 X313.851 Y428.453
G01 X305.013 Y431.352
G01 X296.043 Y433.814
G01 X286.964 Y435.832
G01 X277.799 Y437.403
G01 X268.568 Y438.521
G01 X259.294 Y439.186
G01 X250.000 Y439.394
G01 X240.708 Y439.146
G01 X231.440 Y438.443
G01 X222.219 Y437.285
G01 X213.066 Y435.677
G01 X204.005 Y433.622
G01 X195.056 Y431.125
G01 X186.242 Y428.193
G01 X177.582 Y424.831
G01 X169.100 Y421.050
G01 X160.813 Y416.857
G01 X152.744 Y412.262
G01 X144.910 Y407.278
G01 X137.331 Y401.917
G01 X130.025 Y396.190
G01 X123.010 Y390.112
G01 X116.301 Y383.699
G01 X109.917 Y376.964
G01 X103.871 Y369.925
G01 X98.178 Y362.599
G01 X92.853 Y355.002
G01 X87.907 Y347.155
G01 X83.352 Y339.075
G01 X79.200 Y330.782
G01 X75.460 Y322.297
G01 X72.142 Y313.639
G01 X69.252 Y304.829
G01 X66.799 Y295.890
G01 X64.787 Y286.841
G01 X63.222 Y277.706
G01 X62.107 Y268.506
G01 X61.445 Y259.263
G01 X61.237 Y250.000
G01 X61.484 Y240.739
G01 X62.186 Y231.502
G01 X63.339 Y222.311
G01 X64.942 Y213.190
G01 X66.990 Y204.158
G01 X69.479 Y195.239
G01 X72.402 Y186.454
G01 X75.752 Y177.824
G01 X79.521 Y169.369
G01 X83.700 Y161.111
G01 X88.279 Y153.068
G01 X93.246 Y145.261
G01 X98.590 Y137.707
G01 X104.298 Y130.425
G01 X110.355 Y123.434
G01 X116.748 Y116.748
G01 X123.460 Y110.385
G01 X130.476 Y104.359
G01 X137.778 Y98.686
G01 X145.348 Y93.378
G01 X153.170 Y88.448
G01 X161.223 Y83.909
G01 X169.488 Y79.771
G01 X177.945 Y76.044
G01 X186.574 Y72.736
G01 X195.354 Y69.856
G01 X204.264 Y67.411
G01 X213.282 Y65.406
G01 X222.387 Y63.846
G01 X231.556 Y62.735
G01 X240.768 Y62.076
G01 X250.000 Y61.869
G01 X259.230 Y62.115
G01 X268.436 Y62.814
G01 X277.596 Y63.963
G01 X286.687 Y65.561
G01 X295.688 Y67.602
G01 X304.577 Y70.083
G01 X313.333 Y72.996
G01 X321.934 Y76.335
G01 X330.361 Y80.092
G01 X338.591 Y84.257
G01 X346.607 Y88.821
G01 X354.389 Y93.771
G01 X361.917 Y99.098
G01 X369.174 Y104.786
G01 X376.143 Y110.823
G01 X382.806 Y117.194
G01 X389.148 Y123.884
G01 X395.153 Y130.876
G01 X400.807 Y138.154
G01 X406.097 Y145.699
G01 X411.010 Y153.494
G01 X415.534 Y161.520
G01 X419.659 Y169.758
G01 X423.373 Y178.186
G01 X426.670 Y186.787
G01 X429.540 Y195.537
G01 X431.977 Y204.417
G01 X433.975 Y213.405
G01 X435.529 Y222.479
G01 X436.636 Y231.618
G01 X437.294 Y240.799
G01 X437.500 Y250.000
G01 X437.254 Y259.199
G01 X436.558 Y268.374
G01 X435.412 Y277.503
G01 X433.820 Y286.564
G01 X431.785 Y295.535
G01 X429.313 Y304.394
G01 X426.409 Y313.120
G01 X423.082 Y321.693
G01 X419.337 Y330.091
G01 X415.186 Y338.294
G01 X410.638 Y346.283
G01 X405.704 Y354.038
G01 X400.395 Y361.541
G01 X394.726 Y368.774
G01 X388.709 Y375.719
G01 X382.359 Y382.359
G01 X375.692 Y388.680
G01 X368.723 Y394.665
G01 X361.470 Y400.300
G01 X353.950 Y405.572
G01 X346.181 Y410.469
G01 X338.182 Y414.977
G01 X329.973 Y419.088
G01 X321.572 Y422.790
G01 X313.001 Y426.075
G01 X304.279 Y428.935
G01 X295.429 Y431.364
G01 X286.472 Y433.355
G01 X277.428 Y434.905
G01 X268.320 Y436.008
G01 X259.170 Y436.663
G01 X250.000 Y436.869
G01 X240.832 Y436.624
G01 X231.688 Y435.930
G01 X222.589 Y434.788
G01 X213.559 Y433.201
G01 X204.619 Y431.173
G01 X195.789 Y428.709
G01 X187.092 Y425.815
G01 X178.549 Y422.498
G01 X170.179 Y418.767
G01 X162.004 Y414.629
G01 X154.042 Y410.096
G01 X146.313 Y405.179
G01 X138.835 Y399.888
G01 X131.627 Y394.238
G01 X124.705 Y388.241
G01 X118.087 Y381.913
G01 X111.788 Y375.268
G01 X105.823 Y368.323
G01 X100.207 Y361.094
G01 X94.952 Y353.599
G01 X90.073 Y345.857
G01 X85.579 Y337.885
G01 X81.483 Y329.703
G01 X77.793 Y321.330
G01 X74.519 Y312.788
G01 X71.669 Y304.096
G01 X69.248 Y295.276
G01 X67.264 Y286.349
G01 X65.720 Y277.335
G01 X64.620 Y268.258
G01 X63.967 Y259.139
G01 X63.763 Y250.000
G01 X64.007 Y240.863
G01 X64.699 Y231.749
G01 X65.837 Y222.682
G01 X67.419 Y213.682
G01 X69.440 Y204.772
G01 X71.895 Y195.973
G01 X74.779 Y187.305
G01 X78.085 Y178.790
G01 X81.804 Y170.449
G01 X85.927 Y162.301
G01 X90.445 Y154.366
G01 X95.346 Y146.664
G01 X100.619 Y139.211
G01 X106.250 Y132.027
G01 X112.226 Y125.129
G01 X118.533 Y118.533
G01 X125.156 Y112.256
G01 X132.078 Y106.311
G01 X139.282 Y100.714
G01 X146.751 Y95.477
G01 X154.468 Y90.614
G01 X162.413 Y86.136
G01 X170.567 Y82.054
G01 X178.911 Y78.377
G01 X187.425 Y75.114
G01 X196.087 Y72.273
G01 X204.877 Y69.861
G01 X213.775 Y67.883
G01 X222.757 Y66.344
G01 X231.804 Y65.248
G01 X240.892 Y64.598
G01 X250.000 Y64.394
G01 X259.106 Y64.637
G01 X268.189 Y65.327
G01 X277.225 Y66.461
G01 X286.195 Y68.038
G01 X295.075 Y70.052
G01 X303.844 Y72.499
G01 X312.482 Y75.374
G01 X320.968 Y78.668
G01 X329.281 Y82.375
G01 X337.401 Y86.484
G01 X345.309 Y90.987
G01 X352.986 Y95.871
G01 X360.413 Y101.126
G01 X367.572 Y106.738
G01 X374.447 Y112.694
G01 X381.020 Y118.980
G01 X387.277 Y125.580
G01 X393.201 Y132.478
G01 X398.779 Y139.658
G01 X403.998 Y147.102
G01 X408.844 Y154.792
G01 X413.307 Y162.711
G01 X417.376 Y170.837
G01 X421.040 Y179.153
G01 X424.292 Y187.637
G01 X427.123 Y196.270
G01 X429.527 Y205.031
G01 X431.498 Y213.898
G01 X433.031 Y222.850
G01 X434.123 Y231.865
G01 X434.772 Y240.923
G01 X434.975 Y250.000
G01 X434.732 Y259.075
G01 X434.045 Y268.127
G01 X432.914 Y277.133
G01 X431.343 Y286.071
G01 X429.336 Y294.921
G01 X426.897 Y303.661
G01 X424.032 Y312.270
G01 X420.749 Y320.726
G01 X417.055 Y329.011
G01 X412.959 Y337.103
G01 X408.472 Y344.984
G01 X403.604 Y352.635
G01 X398.367 Y360.037
G01 X392.774 Y367.172
G01 X386.838 Y374.023
G01 X380.574 Y380.574
G01 X373.996 Y386.809
G01 X367.121 Y392.713
G01 X359.966 Y398.272
G01 X352.547 Y403.473
G01 X344.883 Y408.303
G01 X336.992 Y412.750
G01 X328.893 Y416.805
G01 X320.606 Y420.457
G01 X312.150 Y423.697
G01 X303.546 Y426.519
G01 X294.816 Y428.915
G01 X285.979 Y430.879
G01 X277.057 Y432.407
G01 X268.073 Y433.495
G01 X259.046 Y434.141
G01 X250.000 Y434.343
G01 X240.956 Y434.102
G01 X231.935 Y433.417
G01 X222.960 Y432.290
G01 X214.052 Y430.724
G01 X205.232 Y428.723
G01 X196.522 Y426.292
G01 X187.943 Y423.437
G01 X179.515 Y420.165
G01 X171.259 Y416.484
G01 X163.194 Y412.402
G01 X155.340 Y407.930
G01 X147.716 Y403.079
G01 X140.340 Y397.860
G01 X133.229 Y392.286
G01 X126.401 Y386.370
G01 X119.873 Y380.127
G01 X113.659 Y373.572
G01 X107.775 Y366.721
G01 X102.235 Y359.590
G01 X97.052 Y352.197
G01 X92.239 Y344.558
G01 X87.806 Y336.694
G01 X83.766 Y328.623
G01 X80.126 Y320.364
G01 X76.897 Y311.937
G01 X74.085 Y303.363
G01 X71.698 Y294.662
G01 X69.740 Y285.856
G01 X68.218 Y276.965
G01 X67.133 Y268.011
G01 X66.489 Y259.015
G01 X66.288 Y250.000
G01 X66.529 Y240.987
G01 X67.212 Y231.997
G01 X68.335 Y223.053
G01 X69.895 Y214.175
G01 X71.889 Y205.386
G01 X74.312 Y196.706
G01 X77.157 Y188.156
G01 X80.418 Y179.757
G01 X84.087 Y171.529
G01 X88.154 Y163.492
G01 X92.611 Y155.665
G01 X97.446 Y148.067
G01 X102.647 Y140.716
G01 X108.202 Y133.629
G01 X114.098 Y126.825
G01 X120.319 Y120.319
G01 X126.852 Y114.127
G01 X133.680 Y108.263
G01 X140.786 Y102.742
G01 X148.154 Y97.577
G01 X155.766 Y92.780
G01 X163.603 Y88.363
G01 X171.647 Y84.336
G01 X179.878 Y80.710
G01 X188.275 Y77.491
G01 X196.820 Y74.689
G01 X205.491 Y72.310
G01 X214.267 Y70.360
G01 X223.128 Y68.842
G01 X232.051 Y67.762
G01 X241.016 Y67.120
G01 X250.000 Y66.919
G01 X258.982 Y67.159
G01 X267.941 Y67.840
G01 X276.855 Y68.959
G01 X285.702 Y70.514
G01 X294.461 Y72.502
G01 X303.111 Y74.916
G01 X311.632 Y77.751
G01 X320.002 Y81.001
G01 X328.201 Y84.657
G01 X336.211 Y88.711
G01 X344.011 Y93.152
G01 X351.583 Y97.971
G01 X358.908 Y103.154
G01 X365.970 Y108.690
G01 X372.751 Y114.565
G01 X379.234 Y120.766
G01 X385.405 Y127.276
G01 X391.249 Y134.080
G01 X396.751 Y141.162
G01 X401.898 Y148.505
G01 X406.678 Y156.091
G01 X411.080 Y163.901
G01 X415.093 Y171.917
G01 X418.707 Y180.119
G01 X421.914 Y188.488
G01 X424.707 Y197.003
G01 X427.077 Y205.644
G01 X429.021 Y214.390
G01 X430.533 Y223.220
G01 X431.610 Y232.113
G01 X432.249 Y241.047
G01 X432.449 Y250.000
G01 X432.210 Y258.951
G01 X431.532 Y267.879
G01 X430.416 Y276.762
G01 X428.866 Y285.579
G01 X426.886 Y294.308
G01 X424.480 Y302.928
G01 X421.654 Y311.419
G01 X418.416 Y319.760
G01 X414.772 Y327.931
G01 X410.732 Y335.913
G01 X406.306 Y343.686
G01 X401.504 Y351.232
G01 X396.339 Y358.532
G01 X390.822 Y365.570
G01 X384.967 Y372.327
G01 X378.788 Y378.788
G01 X372.300 Y384.938
G01 X365.519 Y390.761
G01 X358.462 Y396.244
G01 X351.144 Y401.373
G01 X343.585 Y406.137
G01 X335.801 Y410.523
G01 X327.813 Y414.522
G01 X319.639 Y418.124
G01 X311.299 Y421.320
G01 X302.813 Y424.102
G01 X294.202 Y426.465
G01 X285.486 Y428.402
G01 X276.687 Y429.909
G01 X267.825 Y430.982
G01 X258.922 Y431.619
G01 X250.000 Y431.818
G01 X241.080 Y431.579
G01 X232.183 Y430.903
G01 X223.330 Y429.792
G01 X214.544 Y428.247
G01 X205.846 Y426.274
G01 X197.255 Y423.876
G01 X188.794 Y421.060
G01 X180.482 Y417.832
G01 X172.339 Y414.201
G01 X164.385 Y410.175
G01 X156.638 Y405.765
G01 X149.119 Y400.979
G01 X141.844 Y395.832
G01 X134.831 Y390.334
G01 X128.097 Y384.499
G01 X121.658 Y378.342
G01 X115.530 Y371.876
G01 X109.727 Y365.119
G01 X104.263 Y358.086
G01 X99.152 Y350.794
G01 X94.405 Y343.260
G01 X90.033 Y335.504
G01 X86.049 Y327.543
G01 X82.459 Y319.398
G01 X79.275 Y311.087
G01 X76.502 Y302.630
G01 X74.147 Y294.049
G01 X72.217 Y285.363
G01 X70.716 Y276.594
G01 X69.646 Y267.763
G01 X69.012 Y258.891
G01 X68.813 Y250.000
G01 X69.051 Y241.111
G01 X69.725 Y232.244
G01 X70.833 Y223.423
G01 X72.372 Y214.668
G01 X74.339 Y205.999
G01 X76.728 Y197.439
G01 X79.535 Y189.007
G01 X82.751 Y180.723
G01 X86.370 Y172.609
G01 X90.381 Y164.682
G01 X94.777 Y156.963
G01 X99.545 Y149.469
G01 X104.675 Y142.220
G01 X110.154 Y135.231
G01 X115.969 Y128.521
G01 X122.105 Y122.105
G01 X128.548 Y115.998
G01 X135.282 Y110.215
G01 X142.290 Y104.770
G01 X149.557 Y99.677
G01 X157.064 Y94.946
G01 X164.794 Y90.590
G01 X172.727 Y86.619
G01 X180.844 Y83.043
G01 X189.126 Y79.869
G01 X197.553 Y77.106
G01 X206.105 Y74.760
G01 X214.760 Y72.836
G01 X223.498 Y71.340
G01 X232.299 Y70.275
G01 X241.140 Y69.642
G01 X250.000 Y69.444
G01 X258.858 Y69.682
G01 X267.694 Y70.353
G01 X276.484 Y71.457
G01 X285.209 Y72.991
G01 X293.847 Y74.951
G01 X302.378 Y77.332
G01 X310.781 Y80.129
G01 X319.035 Y83.334
G01 X327.122 Y86.940
G01 X335.020 Y90.938
G01 X342.713 Y95.318
G01 X350.180 Y100.070
G01 X357.404 Y105.182
G01 X364.368 Y110.642
G01 X371.055 Y116.436
G01 X377.449 Y122.551
G01 X383.534 Y128.972
G01 X389.297 Y135.682
G01 X394.723 Y142.666
G01 X399.798 Y149.908
G01 X404.512 Y157.389
G01 X408.853 Y165.091
G01 X412.810 Y172.997
G01 X416.374 Y181.086
G01 X419.537 Y189.339
G01 X422.290 Y197.736
G01 X424.628 Y206.258
G01 X426.544 Y214.883
G01 X428.035 Y223.591
G01 X429.097 Y232.360
G01 X429.727 Y241.171
G01 X429.924 Y250.000
G01 X429.688 Y258.827
G01 X429.019 Y267.632
G01 X427.918 Y276.392
G01 X426.390 Y285.086
G01 X424.436 Y293.694
G01 X422.063 Y302.195
G01 X419.277 Y310.568
G01 X416.083 Y318.794
G01 X412.489 Y326.852
G01 X408.505 Y334.723
G01 X404.140 Y342.388
G01 X399.405 Y349.829
G01 X394.311 Y357.028
G01 X388.870 Y363.968
G01 X383.096 Y370.631
G01 X377.002 Y377.002
G01 X370.605 Y383.067
G01 X363.917 Y388.809
G01 X356.957 Y394.215
G01 X349.741 Y399.273
G01 X342.287 Y403.971
G01 X334.611 Y408.296
G01 X326.734 Y412.239
G01 X318.673 Y415.791
G01 X310.448 Y418.942
G01 X302.080 Y421.686
G01 X293.589 Y424.015
G01 X284.994 Y425.925
G01 X276.316 Y427.411
G01 X267.578 Y428.469
G01 X258.798 Y429.097
G01 X250.000 Y429.293
G01 X241.203 Y429.057
G01 X232.430 Y428.390
G01 X223.701 Y427.294
G01 X215.037 Y425.770
G01 X206.459 Y423.824
G01 X197.988 Y421.459
G01 X189.645 Y418.682
G01 X181.448 Y415.499
G01 X173.418 Y411.918
G01 X165.575 Y407.948
G01 X157.937 Y403.599
G01 X150.522 Y398.880
G01 X143.348 Y393.803
G01 X136.433 Y388.382
G01 X129.793 Y382.628
G01 X123.444 Y376.556
G01 X117.401 Y370.181
G01 X111.679 Y363.517
G01 X106.292 Y356.581
G01 X101.251 Y349.391
G01 X96.571 Y341.962
G01 X92.261 Y334.314
G01 X88.331 Y326.464
G01 X84.792 Y318.431
G01 X81.652 Y310.236
G01 X78.918 Y301.897
G01 X76.597 Y293.435
G01 X74.694 Y284.871
G01 X73.214 Y276.224
G01 X72.159 Y267.516
G01 X71.534 Y258.767
G01 X71.338 Y250.000
G01 X71.573 Y241.234
G01 X72.238 Y232.492
G01 X73.331 Y223.794
G01 X74.849 Y215.160
G01 X76.788 Y206.613
G01 X79.145 Y198.172
G01 X81.912 Y189.857
G01 X85.084 Y181.690
G01 X88.652 Y173.688
G01 X92.609 Y165.872
G01 X96.943 Y158.261
G01 X101.645 Y150.872
G01 X106.704 Y143.724
G01 X112.106 Y136.833
G01 X117.840 Y130.217
G01 X123.890 Y123.890
G01 X130.243 Y117.869
G01 X136.884 Y112.167
G01 X143.795 Y106.799
G01 X150.960 Y101.776
G01 X158.363 Y97.112
G01 X165.984 Y92.817
G01 X173.806 Y88.902
G01 X181.810 Y85.376
G01 X189.977 Y82.247
G01 X198.286 Y79.522
G01 X206.718 Y77.209
G01 X215.253 Y75.313
G01 X223.869 Y73.838
G01 X232.546 Y72.788
G01 X241.263 Y72.164
G01 X250.000 Y71.970
G01 X258.735 Y72.204
G01 X267.446 Y72.866
G01 X276.114 Y73.955
G01 X284.717 Y75.468
G01 X293.234 Y77.401
G01 X301.645 Y79.749
G01 X309.930 Y82.507
G01 X318.069 Y85.667
G01 X326.042 Y89.223
G01 X333.830 Y93.165
G01 X341.414 Y97.484
G01 X348.777 Y102.170
G01 X355.900 Y107.211
G01 X362.766 Y112.594
G01 X369.359 Y118.308
G01 X375.663 Y124.337
G01 X381.663 Y130.667
G01 X387.345 Y137.284
G01 X392.694 Y144.171
G01 X397.699 Y151.311
G01 X402.346 Y158.687
G01 X406.626 Y166.282
G01 X410.527 Y174.076
G01 X414.041 Y182.052
G01 X417.159 Y190.190
G01 X419.874 Y198.469
G01 X422.178 Y206.872
G01 X424.068 Y215.376
G01 X425.537 Y223.961
G01 X426.584 Y232.608
G01 X427.205 Y241.294
G01 X427.399 Y250.000
G01 X427.166 Y258.704
G01 X426.505 Y267.384
G01 X425.420 Y276.021
G01 X423.913 Y284.593
G01 X421.987 Y293.080
G01 X419.647 Y301.462
G01 X416.899 Y309.717
G01 X413.749 Y317.827
G01 X410.206 Y325.772
G01 X406.278 Y333.532
G01 X401.974 Y341.090
G01 X397.305 Y348.426
G01 X392.282 Y355.524
G01 X386.918 Y362.366
G01 X381.225 Y368.935
G01 X375.217 Y375.217
G01 X368.909 Y381.195
G01 X362.315 Y386.857
G01 X355.453 Y392.187
G01 X348.338 Y397.174
G01 X340.988 Y401.805
G01 X333.421 Y406.069
G01 X325.654 Y409.957
G01 X317.706 Y413.458
G01 X309.598 Y416.565
G01 X301.347 Y419.269
G01 X292.975 Y421.566
G01 X284.501 Y423.449
G01 X275.946 Y424.913
G01 X267.330 Y425.956
G01 X258.675 Y426.574
G01 X250.000 Y426.768
G01 X241.327 Y426.535
G01 X232.678 Y425.877
G01 X224.071 Y424.796
G01 X215.530 Y423.294
G01 X207.073 Y421.374
G01 X198.721 Y419.043
G01 X190.495 Y416.305
G01 X182.414 Y413.166
G01 X174.498 Y409.636
G01 X166.765 Y405.721
G01 X159.235 Y401.433
G01 X151.925 Y396.780
G01 X144.852 Y391.775
G01 X138.035 Y386.430
G01 X131.489 Y380.757
G01 X125.230 Y374.770
G01 X119.272 Y368.485
G01 X113.631 Y361.915
G01 X108.320 Y355.077
G01 X103.351 Y347.988
G01 X98.737 Y340.664
G01 X94.488 Y333.123
G01 X90.614 Y325.384
G01 X87.125 Y317.465
G01 X84.030 Y309.385
G01 X81.335 Y301.164
G01 X79.047 Y292.822
G01 X77.171 Y284.378
G01 X75.712 Y275.853
G01 X74.673 Y267.268
G01 X74.056 Y258.644
G01 X73.864 Y250.000
G01 X74.096 Y241.358
G01 X74.751 Y232.739
G01 X75.829 Y224.164
G01 X77.325 Y215.653
G01 X79.238 Y207.226
G01 X81.561 Y198.905
G01 X84.290 Y190.708
G01 X87.417 Y182.656
G01 X90.935 Y174.768
G01 X94.836 Y167.063
G01 X99.109 Y159.559
G01 X103.745 Y152.275
G01 X108.732 Y145.228
G01 X114.058 Y138.435
G01 X119.711 Y131.913
G01 X125.676 Y125.676
G01 X131.939 Y119.740
G01 X138.486 Y114.119
G01 X145.299 Y108.827
G01 X152.363 Y103.876
G01 X159.661 Y99.278
G01 X167.174 Y95.044
G01 X174.886 Y91.185
G01 X182.777 Y87.709
G01 X190.828 Y84.624
G01 X199.019 Y81.939
G01 X207.332 Y79.659
G01 X215.745 Y77.790
G01 X224.239 Y76.336
G01 X232.794 Y75.301
G01 X241.387 Y74.687
G01 X250.000 Y74.495
G01 X258.611 Y74.726
G01 X267.199 Y75.379
G01 X275.743 Y76.453
G01 X284.224 Y77.945
G01 X292.620 Y79.850
G01 X300.912 Y82.165
G01 X309.079 Y84.884
G01 X317.102 Y88.000
G01 X324.962 Y91.506
G01 X332.640 Y95.392
G01 X340.116 Y99.650
G01 X347.374 Y104.270
G01 X354.395 Y109.239
G01 X361.164 Y114.546
G01 X367.663 Y120.179
G01 X373.878 Y126.122
G01 X379.792 Y132.363
G01 X385.393 Y138.886
G01 X390.666 Y145.675
G01 X395.599 Y152.714
G01 X400.180 Y159.985
G01 X404.399 Y167.472
G01 X408.244 Y175.156
G01 X411.708 Y183.018
G01 X414.781 Y191.040
G01 X417.457 Y199.202
G01 X419.729 Y207.485
G01 X421.591 Y215.868
G01 X423.040 Y224.332
G01 X424.071 Y232.856
G01 X424.683 Y241.418
G01 X424.874 Y250.000
G01 X424.643 Y258.580
G01 X423.992 Y267.137
G01 X422.922 Y275.651
G01 X421.436 Y284.101
G01 X419.537 Y292.467
G01 X417.230 Y300.729
G01 X414.521 Y308.867
G01 X411.416 Y316.861
G01 X407.923 Y324.692
G01 X404.051 Y332.342
G01 X399.808 Y339.792
G01 X395.205 Y347.023
G01 X390.254 Y354.019
G01 X384.966 Y360.764
G01 X379.354 Y367.239
G01 X373.431 Y373.431
G01 X367.213 Y379.324
G01 X360.713 Y384.905
G01 X353.949 Y390.159
G01 X346.935 Y395.074
G01 X339.690 Y399.639
G01 X332.230 Y403.842
G01 X324.574 Y407.674
G01 X316.740 Y411.125
G01 X308.747 Y414.187
G01 X300.614 Y416.853
G01 X292.361 Y419.116
G01 X284.008 Y420.972
G01 X275.575 Y422.415
G01 X267.083 Y423.443
G01 X258.551 Y424.052
G01 X250.000 Y424.242
G01 X241.451 Y424.013
G01 X232.925 Y423.364
G01 X224.442 Y422.298
G01 X216.022 Y420.817
G01 X207.687 Y418.925
G01 X199.454 Y416.626
G01 X191.346 Y413.927
G01 X183.381 Y410.833
G01 X175.578 Y407.353
G01 X167.956 Y403.494
G01 X160.533 Y399.267
G01 X153.328 Y394.680
G01 X146.357 Y389.747
G01 X139.637 Y384.478
G01 X133.185 Y378.886
G01 X127.015 Y372.985
G01 X121.143 Y366.789
G01 X115.583 Y360.313
G01 X110.348 Y353.573
G01 X105.451 Y346.585
G01 X100.903 Y339.366
G01 X96.715 Y331.933
G01 X92.897 Y324.304
G01 X89.458 Y316.498
G01 X86.407 Y308.534
G01 X83.751 Y300.431
G01 X81.496 Y292.208
G01 X79.647 Y283.885
G01 X78.209 Y275.483
G01 X77.186 Y267.021
G01 X76.578 Y258.520
G01 X76.389 Y250.000
G01 X76.618 Y241.482
G01 X77.264 Y232.987
G01 X78.327 Y224.535
G01 X79.802 Y216.146
G01 X81.687 Y207.840
G01 X83.978 Y199.638
G01 X86.668 Y191.559
G01 X89.750 Y183.622
G01 X93.218 Y175.848
G01 X97.063 Y168.253
G01 X101.275 Y160.858
G01 X105.844 Y153.678
G01 X110.760 Y146.733
G01 X116.010 Y140.037
G01 X121.582 Y133.609
G01 X127.462 Y127.462
G01 X133.635 Y121.611
G01 X140.088 Y116.071
G01 X146.803 Y110.855
G01 X153.766 Y105.976
G01 X160.959 Y101.444
G01 X168.365 Y97.271
G01 X175.966 Y93.468
G01 X183.743 Y90.042
G01 X191.678 Y87.002
G01 X199.752 Y84.355
G01 X207.945 Y82.109
G01 X216.238 Y80.267
G01 X224.610 Y78.834
G01 X233.041 Y77.814
G01 X241.511 Y77.209
G01 X250.000 Y77.020
G01 X258.487 Y77.248
G01 X266.951 Y77.892
G01 X275.373 Y78.951
G01 X283.731 Y80.421
G01 X292.007 Y82.300
G01 X300.179 Y84.582
G01 X308.229 Y87.262
G01 X316.136 Y90.333
G01 X323.882 Y93.789
G01 X331.449 Y97.619
G01 X338.818 Y101.816
G01 X345.971 Y106.369
G01 X352.891 Y111.267
G01 X359.562 Y116.498
G01 X365.967 Y122.050
G01 X372.092 Y127.908
G01 X377.921 Y134.059
G01 X383.441 Y140.488
G01 X388.638 Y147.179
G01 X393.499 Y154.117
G01 X398.014 Y161.284
G01 X402.172 Y168.662
G01 X405.962 Y176.236
G01 X409.375 Y183.985
G01 X412.404 Y191.891
G01 X415.040 Y199.936
G01 X417.279 Y208.099
G01 X419.114 Y216.361
G01 X420.542 Y224.703
G01 X421.558 Y233.103
G01 X422.161 Y241.542
G01 X422.348 Y250.000
G01 X422.121 Y258.456
G01 X421.479 Y266.889
G01 X420.425 Y275.280
G01 X418.959 Y283.608
G01 X417.088 Y291.853
G01 X414.814 Y299.996
G01 X412.144 Y308.016
G01 X409.083 Y315.895
G01 X405.641 Y323.613
G01 X401.824 Y331.152
G01 X397.642 Y338.493
G01 X393.106 Y345.620
G01 X388.226 Y352.515
G01 X383.014 Y359.162
G01 X377.483 Y365.543
G01 X371.646 Y371.646
G01 X365.517 Y377.453
G01 X359.111 Y382.953
G01 X352.445 Y388.131
G01 X345.532 Y392.974
G01 X338.392 Y397.473
G01 X331.040 Y401.615
G01 X323.494 Y405.391
G01 X315.774 Y408.792
G01 X307.896 Y411.809
G01 X299.881 Y414.436
G01 X291.748 Y416.667
G01 X283.516 Y418.495
G01 X275.205 Y419.917
G01 X266.835 Y420.930
G01 X258.427 Y421.530
G01 X250.000 Y421.717
G01 X241.575 Y421.491
G01 X233.173 Y420.851
G01 X224.813 Y419.800
G01 X216.515 Y418.340
G01 X208.300 Y416.475
G01 X200.187 Y414.210
G01 X192.197 Y411.549
G01 X184.347 Y408.500
G01 X176.657 Y405.070
G01 X169.146 Y401.267
G01 X161.831 Y397.101
G01 X154.731 Y392.581
G01 X147.861 Y387.719
G01 X141.239 Y382.526
G01 X134.881 Y377.015
G01 X128.801 Y371.199
G01 X123.014 Y365.093
G01 X117.535 Y358.711
G01 X112.377 Y352.069
G01 X107.550 Y345.182
G01 X103.069 Y338.067
G01 X98.942 Y330.742
G01 X95.180 Y323.225
G01 X91.791 Y315.532
G01 X88.785 Y307.684
G01 X86.168 Y299.698
G01 X83.946 Y291.594
G01 X82.124 Y283.393
G01 X80.707 Y275.112
G01 X79.699 Y266.773
G01 X79.101 Y258.396
G01 X78.914 Y250.000
G01 X79.140 Y241.606
G01 X79.777 Y233.235
G01 X80.824 Y224.905
G01 X82.279 Y216.638
G01 X84.137 Y208.453
G01 X86.394 Y200.371
G01 X89.045 Y192.409
G01 X92.083 Y184.589
G01 X95.501 Y176.927
G01 X99.290 Y169.444
G01 X103.441 Y162.156
G01 X107.944 Y155.081
G01 X112.789 Y148.237
G01 X117.962 Y141.639
G01 X123.453 Y135.304
G01 X129.247 Y129.247
G01 X135.331 Y123.482
G01 X141.690 Y118.023
G01 X148.308 Y112.884
G01 X155.169 Y108.075
G01 X162.257 Y103.610
G01 X169.555 Y99.499
G01 X177.045 Y95.750
G01 X184.709 Y92.375
G01 X192.529 Y89.380
G01 X200.485 Y86.772
G01 X208.559 Y84.558
G01 X216.731 Y82.743
G01 X224.980 Y81.332
G01 X233.289 Y80.327
G01 X241.635 Y79.731
G01 X250.000 Y79.545
G01 X258.363 Y79.770
G01 X266.704 Y80.406
G01 X275.002 Y81.449
G01 X283.239 Y82.898
G01 X291.393 Y84.749
G01 X299.446 Y86.998
G01 X307.378 Y89.640
G01 X315.170 Y92.666
G01 X322.803 Y96.071
G01 X330.259 Y99.847
G01 X337.520 Y103.982
G01 X344.568 Y108.469
G01 X351.387 Y113.296
G01 X357.960 Y118.450
G01 X364.272 Y123.921
G01 X370.306 Y129.694
G01 X376.050 Y135.755
G01 X381.489 Y142.090
G01 X386.609 Y148.684
G01 X391.400 Y155.520
G01 X395.848 Y162.582
G01 X399.945 Y169.853
G01 X403.679 Y177.315
G01 X407.042 Y184.951
G01 X410.026 Y192.742
G01 X412.624 Y200.669
G01 X414.830 Y208.712
G01 X416.638 Y216.854
G01 X418.044 Y225.073
G01 X419.045 Y233.351
G01 X419.638 Y241.666
G01 X419.823 Y250.000
G01 X419.599 Y258.332
G01 X418.966 Y266.642
G01 X417.927 Y274.910
G01 X416.483 Y283.115
G01 X414.638 Y291.240
G01 X412.397 Y299.263
G01 X409.766 Y307.165
G01 X406.750 Y314.928
G01 X403.358 Y322.533
G01 X399.597 Y329.961
G01 X395.476 Y337.195
G01 X391.006 Y344.217
G01 X386.197 Y351.011
G01 X381.062 Y357.559
G01 X375.611 Y363.848
G01 X369.860 Y369.860
G01 X363.821 Y375.582
G01 X357.509 Y381.001
G01 X350.940 Y386.102
G01 X344.130 Y390.875
G01 X337.094 Y395.307
G01 X329.850 Y399.388
G01 X322.415 Y403.108
G01 X314.807 Y406.459
G01 X307.046 Y409.432
G01 X299.148 Y412.020
G01 X291.134 Y414.217
G01 X283.023 Y416.018
G01 X274.834 Y417.419
G01 X266.588 Y418.416
G01 X258.303 Y419.008
G01 X250.000 Y419.192
G01 X241.699 Y418.968
G01 X233.420 Y418.338
G01 X225.183 Y417.302
G01 X217.008 Y415.864
G01 X208.914 Y414.026
G01 X200.921 Y411.793
G01 X193.047 Y409.172
G01 X185.313 Y406.167
G01 X177.737 Y402.787
G01 X170.336 Y399.040
G01 X163.130 Y394.935
G01 X156.134 Y390.481
G01 X149.365 Y385.690
G01 X142.841 Y380.574
G01 X136.576 Y375.144
G01 X130.586 Y369.414
G01 X124.886 Y363.397
G01 X119.487 Y357.109
G01 X114.405 Y350.564
G01 X109.650 Y343.779
G01 X105.235 Y336.769
G01 X101.169 Y329.552
G01 X97.463 Y322.145
G01 X94.124 Y314.566
G01 X91.163 Y306.833
G01 X88.584 Y298.965
G01 X86.395 Y290.981
G01 X84.601 Y282.900
G01 X83.205 Y274.742
G01 X82.212 Y266.526
G01 X81.623 Y258.272
G01 X81.439 Y250.000
G01 X81.662 Y241.730
G01 X82.290 Y233.482
G01 X83.322 Y225.276
G01 X84.756 Y217.131
G01 X86.587 Y209.067
G01 X88.811 Y201.104
G01 X91.423 Y193.260
G01 X94.416 Y185.555
G01 X97.784 Y178.007
G01 X101.517 Y170.634
G01 X105.607 Y163.454
G01 X110.044 Y156.484
G01 X114.817 Y149.741
G01 X119.914 Y143.242
G01 X125.324 Y137.000
G01 X131.033 Y131.033
G01 X137.027 Y125.353
G01 X143.292 Y119.975
G01 X149.812 Y114.912
G01 X156.572 Y110.175
G01 X163.556 Y105.776
G01 X170.746 Y101.726
G01 X178.125 Y98.033
G01 X185.676 Y94.708
G01 X193.380 Y91.757
G01 X201.218 Y89.188
G01 X209.173 Y87.008
G01 X217.223 Y85.220
G01 X225.351 Y83.830
G01 X233.536 Y82.840
G01 X241.759 Y82.253
G01 X250.000 Y82.071
G01 X258.239 Y82.293
G01 X266.456 Y82.919
G01 X274.632 Y83.947
G01 X282.746 Y85.375
G01 X290.780 Y87.199
G01 X298.713 Y89.415
G01 X306.527 Y92.017
G01 X314.203 Y94.999
G01 X321.723 Y98.354
G01 X329.068 Y102.074
G01 X336.221 Y106.148
G01 X343.165 Y110.569
G01 X349.883 Y115.324
G01 X356.358 Y120.402
G01 X362.576 Y125.792
G01 X368.521 Y131.479
G01 X374.179 Y137.451
G01 X379.537 Y143.692
G01 X384.581 Y150.188
G01 X389.300 Y156.923
G01 X393.682 Y163.880
G01 X397.718 Y171.043
G01 X401.396 Y178.395
G01 X404.709 Y185.917
G01 X407.648 Y193.592
G01 X410.207 Y201.402
G01 X412.380 Y209.326
G01 X414.161 Y217.346
G01 X415.546 Y225.444
G01 X416.532 Y233.598
G01 X417.116 Y241.790
G01 X417.298 Y250.000
G01 X417.077 Y258.208
G01 X416.453 Y266.394
G01 X415.429 Y274.539
G01 X414.006 Y282.623
G01 X412.189 Y290.626
G01 X409.981 Y298.530
G01 X407.388 Y306.314
G01 X404.417 Y313.962
G01 X401.075 Y321.453
G01 X397.370 Y328.771
G01 X393.310 Y335.897
G01 X388.906 Y342.814
G01 X384.169 Y349.507
G01 X379.110 Y355.957
G01 X373.740 Y362.152
G01 X368.074 Y368.074
G01 X362.125 Y373.711
G01 X355.907 Y379.049
G01 X349.436 Y384.074
G01 X342.727 Y388.775
G01 X335.795 Y393.141
G01 X328.659 Y397.161
G01 X321.335 Y400.825
G01 X313.841 Y404.126
G01 X306.195 Y407.054
G01 X298.415 Y409.603
G01 X290.521 Y411.768
G01 X282.530 Y413.542
G01 X274.464 Y414.921
G01 X266.340 Y415.903
G01 X258.179 Y416.486
G01 X250.000 Y416.667
G01 X241.823 Y416.446
G01 X233.668 Y415.825
G01 X225.554 Y414.804
G01 X217.500 Y413.387
G01 X209.527 Y411.576
G01 X201.654 Y409.377
G01 X193.898 Y406.794
G01 X186.280 Y403.834
G01 X178.817 Y400.504
G01 X171.527 Y396.813
G01 X164.428 Y392.769
G01 X157.536 Y388.381
G01 X150.870 Y383.662
G01 X144.443 Y378.622
G01 X138.272 Y373.273
G01 X132.372 Y367.628
G01 X126.757 Y361.701
G01 X121.439 Y355.507
G01 X116.433 Y349.060
G01 X111.750 Y342.376
G01 X107.401 Y335.471
G01 X103.396 Y328.362
G01 X99.745 Y321.065
G01 X96.458 Y313.599
G01 X93.540 Y305.982
G01 X91.001 Y298.232
G01 X88.845 Y290.367
G01 X87.078 Y282.407
G01 X85.703 Y274.371
G01 X84.725 Y266.278
G01 X84.145 Y258.148
G01 X83.965 Y250.000
G01 X84.184 Y241.854
G01 X84.803 Y233.730
G01 X85.820 Y225.646
G01 X87.232 Y217.624
G01 X89.036 Y209.681
G01 X91.227 Y201.837
G01 X93.800 Y194.111
G01 X96.749 Y186.521
G01 X100.066 Y179.087
G01 X103.744 Y171.824
G01 X107.773 Y164.752
G01 X112.143 Y157.887
G01 X116.845 Y151.246
G01 X121.866 Y144.844
G01 X127.195 Y138.696
G01 X132.818 Y132.818
G01 X138.723 Y127.224
G01 X144.894 Y121.927
G01 X151.316 Y116.940
G01 X157.975 Y112.275
G01 X164.854 Y107.942
G01 X171.936 Y103.953
G01 X179.205 Y100.316
G01 X186.642 Y97.041
G01 X194.231 Y94.135
G01 X201.951 Y91.605
G01 X209.786 Y89.457
G01 X217.716 Y87.697
G01 X225.722 Y86.328
G01 X233.784 Y85.353
G01 X241.883 Y84.775
G01 X250.000 Y84.596
G01 X258.115 Y84.815
G01 X266.209 Y85.432
G01 X274.261 Y86.445
G01 X282.253 Y87.852
G01 X290.166 Y89.649
G01 X297.980 Y91.831
G01 X305.676 Y94.395
G01 X313.237 Y97.332
G01 X320.643 Y100.637
G01 X327.878 Y104.301
G01 X334.923 Y108.314
G01 X341.762 Y112.668
G01 X348.378 Y117.352
G01 X354.756 Y122.354
G01 X360.880 Y127.663
G01 X366.735 Y133.265
G01 X372.308 Y139.147
G01 X377.585 Y145.294
G01 X382.553 Y151.692
G01 X387.200 Y158.326
G01 X391.516 Y165.178
G01 X395.491 Y172.234
G01 X399.113 Y179.475
G01 X402.376 Y186.884
G01 X405.271 Y194.443
G01 X407.791 Y202.135
G01 X409.930 Y209.940
G01 X411.684 Y217.839
G01 X413.048 Y225.814
G01 X414.019 Y233.846
G01 X414.594 Y241.914
G01 X414.773 Y250.000
G01 X414.555 Y258.084
G01 X413.940 Y266.147
G01 X412.931 Y274.168
G01 X411.529 Y282.130
G01 X409.739 Y290.013
G01 X407.564 Y297.797
G01 X405.011 Y305.464
G01 X402.084 Y312.995
G01 X398.792 Y320.374
G01 X395.143 Y327.580
G01 X391.144 Y334.599
G01 X386.807 Y341.411
G01 X382.141 Y348.002
G01 X377.158 Y354.355
G01 X371.869 Y360.456
G01 X366.289 Y366.289
G01 X360.429 Y371.840
G01 X354.305 Y377.097
G01 X347.932 Y382.046
G01 X341.324 Y386.675
G01 X334.497 Y390.975
G01 X327.469 Y394.934
G01 X320.255 Y398.543
G01 X312.875 Y401.793
G01 X305.344 Y404.676
G01 X297.682 Y407.187
G01 X289.907 Y409.318
G01 X282.038 Y411.065
G01 X274.093 Y412.423
G01 X266.093 Y413.390
G01 X258.055 Y413.963
G01 X250.000 Y414.141
G01 X241.947 Y413.924
G01 X233.915 Y413.312
G01 X225.924 Y412.306
G01 X217.993 Y410.910
G01 X210.141 Y409.127
G01 X202.387 Y406.960
G01 X194.749 Y404.416
G01 X187.246 Y401.501
G01 X179.896 Y398.222
G01 X172.717 Y394.586
G01 X165.726 Y390.603
G01 X158.939 Y386.282
G01 X152.374 Y381.634
G01 X146.045 Y376.670
G01 X139.968 Y371.401
G01 X134.158 Y365.842
G01 X128.628 Y360.005
G01 X123.391 Y353.905
G01 X118.461 Y347.556
G01 X113.849 Y340.973
G01 X109.567 Y334.173
G01 X105.623 Y327.171
G01 X102.028 Y319.985
G01 X98.791 Y312.633
G01 X95.918 Y305.131
G01 X93.417 Y297.499
G01 X91.294 Y289.754
G01 X89.554 Y281.915
G01 X88.201 Y274.001
G01 X87.238 Y266.031
G01 X86.667 Y258.024
G01 X86.490 Y250.000
G01 X86.707 Y241.978
G01 X87.317 Y233.977
G01 X88.318 Y226.017
G01 X89.709 Y218.116
G01 X91.486 Y210.294
G01 X93.644 Y202.570
G01 X96.178 Y194.962
G01 X99.082 Y187.488
G01 X102.349 Y180.166
G01 X105.971 Y173.015
G01 X109.939 Y166.051
G01 X114.243 Y159.290
G01 X118.873 Y152.750
G01 X123.818 Y146.446
G01 X129.066 Y140.392
G01 X134.604 Y134.604
G01 X140.419 Y129.096
G01 X146.496 Y123.879
G01 X152.820 Y118.969
G01 X159.378 Y114.374
G01 X166.152 Y110.108
G01 X173.126 Y106.180
G01 X180.284 Y102.599
G01 X187.609 Y99.374
G01 X195.081 Y96.512
G01 X202.684 Y94.021
G01 X210.400 Y91.907
G01 X218.209 Y90.173
G01 X226.092 Y88.826
G01 X234.031 Y87.866
G01 X242.007 Y87.298
G01 X250.000 Y87.121
G01 X257.991 Y87.337
G01 X265.961 Y87.945
G01 X273.891 Y88.943
G01 X281.761 Y90.328
G01 X289.552 Y92.098
G01 X297.247 Y94.248
G01 X304.826 Y96.772
G01 X312.271 Y99.665
G01 X319.564 Y102.920
G01 X326.688 Y106.528
G01 X333.625 Y110.480
G01 X340.359 Y114.768
G01 X346.874 Y119.381
G01 X353.154 Y124.306
G01 X359.184 Y129.534
G01 X364.949 Y135.051
G01 X370.437 Y140.843
G01 X375.632 Y146.896
G01 X380.524 Y153.197
G01 X385.101 Y159.729
G01 X389.350 Y166.477
G01 X393.263 Y173.424
G01 X396.830 Y180.554
G01 X400.043 Y187.850
G01 X402.893 Y195.294
G01 X405.374 Y202.868
G01 X407.481 Y210.553
G01 X409.207 Y218.332
G01 X410.550 Y226.185
G01 X411.505 Y234.093
G01 X412.072 Y242.038
G01 X412.247 Y250.000
G01 X412.032 Y257.960
G01 X411.427 Y265.899
G01 X410.433 Y273.798
G01 X409.053 Y281.638
G01 X407.289 Y289.399
G01 X405.148 Y297.064
G01 X402.633 Y304.613
G01 X399.751 Y312.029
G01 X396.509 Y319.294
G01 X392.916 Y326.390
G01 X388.978 Y333.300
G01 X384.707 Y340.008
G01 X380.112 Y346.498
G01 X375.205 Y352.753
G01 X369.998 Y358.760
G01 X364.503 Y364.503
G01 X358.734 Y369.969
G01 X352.703 Y375.144
G01 X346.427 Y380.017
G01 X339.921 Y384.576
G01 X333.199 Y388.809
G01 X326.278 Y392.707
G01 X319.176 Y396.260
G01 X311.908 Y399.460
G01 X304.493 Y402.299
G01 X296.949 Y404.770
G01 X289.293 Y406.868
G01 X281.545 Y408.588
G01 X273.723 Y409.925
G01 X265.845 Y410.877
G01 X257.931 Y411.441
G01 X250.000 Y411.616
G01 X242.071 Y411.402
