;  Created by Sandify
;  https://sandify.org
;  Version: 0.2.6
;
;  Machine type: Rectangular
;    Min X (mm): 0
;    Max X (mm): 500
;    Min Y (mm): 0
;    Max Y (mm): 500
;  Content type: shape
;  Layer:
;    Shape: FileImport
;    Name: StarryNight.thr
;    From file:: StarryNight.thr
;    Aspect Ratio: true
;    Comments: 
;    Visible: true
;    Initial width: 10
;    Initial height: 10
;    X offset: 0
;    Y offset: 0
;    Rotate (degrees): 0
;    Reverse path: false
;    Fine tuning:
;      Connect to next layer: line
;      Draw portion of path (%): 100
;      Backtrack at end (%): 0
;      Rotate starting point (%): 0
;  Reverse export path: false
;
; File name: 'StarryNight (C SW)'
; File type: gcode
;

G01 X250.000 Y250.000
G01 X250.203 Y264.424
G01 X250.649 Y270.665
G01 X250.353 Y276.323
G01 X251.097 Y280.805
G01 X250.653 Y278.142
G01 X252.038 Y278.143
G01 X253.425 Y278.076
G01 X254.809 Y277.940
G01 X256.189 Y277.736
G01 X257.345 Y277.511
G01 X259.183 Y278.668
G01 X260.618 Y279.444
G01 X259.686 Y281.648
G01 X258.563 Y283.827
G01 X257.795 Y285.120
G01 X256.203 Y286.286
G01 X254.515 Y287.377
G01 X253.030 Y288.230
G01 X251.150 Y288.315
G01 X249.269 Y288.308
G01 X247.673 Y288.229
G01 X245.924 Y286.940
G01 X244.297 Y285.574
G01 X243.951 Y285.260
G01 X243.058 Y281.699
G01 X243.208 Y276.777
G01 X243.952 Y273.793
G01 X245.262 Y273.396
G01 X246.517 Y272.930
G01 X247.716 Y272.398
G01 X248.853 Y271.805
G01 X249.927 Y271.157
G01 X250.649 Y270.665
G01 X251.498 Y268.569
G01 X251.693 Y267.996
G01 X252.610 Y268.143
G01 X253.546 Y268.242
G01 X254.497 Y268.293
G01 X255.462 Y268.294
G01 X256.438 Y268.244
G01 X257.422 Y268.142
G01 X258.390 Y267.990
G01 X260.652 Y270.190
G01 X262.110 Y271.413
G01 X266.132 Y275.737
G01 X266.181 Y278.873
G01 X266.122 Y280.190
G01 X266.073 Y284.017
G01 X265.985 Y285.272
G01 X265.016 Y287.991
G01 X263.817 Y290.695
G01 X263.006 Y292.269
G01 X261.036 Y293.326
G01 X258.993 Y294.290
G01 X258.538 Y294.488
G01 X256.423 Y295.408
G01 X254.238 Y296.227
G01 X253.625 Y296.434
G01 X251.352 Y296.922
G01 X249.041 Y297.297
G01 X246.696 Y297.559
G01 X246.039 Y297.611
G01 X243.851 Y296.279
G01 X241.784 Y294.849
G01 X240.530 Y293.890
G01 X239.037 Y290.949
G01 X237.808 Y287.974
G01 X236.961 Y285.400
G01 X236.438 Y281.900
G01 X236.224 Y278.440
G01 X236.220 Y278.103
G01 X236.462 Y274.490
G01 X237.022 Y270.975
G01 X237.401 Y269.332
G01 X240.234 Y263.488
G01 X240.381 Y263.221
G01 X241.382 Y263.157
G01 X242.352 Y263.028
G01 X243.289 Y262.836
G01 X244.187 Y262.586
G01 X245.045 Y262.279
G01 X245.857 Y261.920
G01 X246.622 Y261.513
G01 X247.227 Y261.135
G01 X247.771 Y261.286
G01 X248.323 Y261.411
G01 X248.882 Y261.508
G01 X249.447 Y261.578
G01 X250.016 Y261.621
G01 X250.587 Y261.635
G01 X251.160 Y261.621
G01 X251.733 Y261.579
G01 X252.305 Y261.509
G01 X252.874 Y261.410
G01 X253.439 Y261.283
G01 X253.999 Y261.128
G01 X254.551 Y260.946
G01 X255.095 Y260.736
G01 X255.630 Y260.498
G01 X255.857 Y260.388
G01 X256.848 Y260.862
G01 X257.898 Y261.263
G01 X259.004 Y261.585
G01 X260.158 Y261.824
G01 X261.356 Y261.976
G01 X262.258 Y262.030
G01 X266.105 Y264.323
G01 X266.284 Y264.418
G01 X270.734 Y269.917
G01 X271.384 Y272.661
G01 X271.785 Y275.284
G01 X274.021 Y280.502
G01 X274.002 Y283.763
G01 X273.722 Y287.058
G01 X273.086 Y290.292
G01 X272.188 Y293.548
G01 X271.778 Y294.786
G01 X270.155 Y297.208
G01 X268.360 Y299.558
G01 X266.138 Y301.133
G01 X263.805 Y302.606
G01 X262.110 Y303.573
G01 X259.558 Y304.628
G01 X256.932 Y305.559
G01 X254.237 Y306.363
G01 X252.287 Y306.854
G01 X249.495 Y306.775
G01 X246.717 Y306.558
G01 X244.399 Y306.272
G01 X241.831 Y304.687
G01 X239.403 Y302.989
G01 X239.192 Y302.831
G01 X237.076 Y300.429
G01 X235.467 Y298.364
G01 X233.741 Y295.820
G01 X232.228 Y293.227
G01 X231.149 Y291.081
G01 X229.724 Y289.015
G01 X228.455 Y286.909
G01 X227.881 Y285.851
G01 X227.842 Y282.258
G01 X228.098 Y278.753
G01 X228.329 Y277.069
G01 X228.268 Y274.570
G01 X228.397 Y272.133
G01 X228.709 Y269.772
G01 X229.198 Y267.498
G01 X229.523 Y266.344
G01 X230.518 Y264.041
G01 X231.686 Y261.879
G01 X232.647 Y260.388
G01 X239.796 Y255.621
G01 X242.141 Y254.846
G01 X244.381 Y253.858
G01 X245.000 Y253.537
G01 X245.227 Y253.741
G01 X245.462 Y253.931
G01 X245.704 Y254.107
G01 X245.952 Y254.269
G01 X246.206 Y254.417
G01 X246.465 Y254.550
G01 X246.727 Y254.668
G01 X246.992 Y254.772
G01 X247.260 Y254.861
G01 X247.528 Y254.936
G01 X247.798 Y254.996
G01 X248.067 Y255.041
G01 X248.336 Y255.073
G01 X248.603 Y255.090
G01 X248.868 Y255.093
G01 X249.129 Y255.083
G01 X249.387 Y255.060
G01 X249.640 Y255.023
G01 X249.888 Y254.974
G01 X250.131 Y254.913
G01 X250.367 Y254.841
G01 X250.597 Y254.757
G01 X250.819 Y254.662
G01 X251.033 Y254.557
G01 X251.240 Y254.443
G01 X251.437 Y254.319
G01 X251.625 Y254.187
G01 X251.804 Y254.047
G01 X251.973 Y253.900
G01 X252.132 Y253.746
G01 X252.281 Y253.586
G01 X252.419 Y253.420
G01 X252.547 Y253.250
G01 X252.664 Y253.075
G01 X252.770 Y252.897
G01 X252.865 Y252.716
G01 X252.948 Y252.533
G01 X253.021 Y252.348
G01 X253.023 Y252.344
G01 X253.935 Y252.753
G01 X254.892 Y253.076
G01 X255.889 Y253.311
G01 X256.919 Y253.455
G01 X257.974 Y253.504
G01 X259.050 Y253.458
G01 X260.137 Y253.313
G01 X260.484 Y253.246
G01 X265.981 Y255.181
G01 X269.289 Y257.317
G01 X272.417 Y259.788
G01 X273.425 Y260.692
G01 X275.097 Y262.979
G01 X276.595 Y265.453
G01 X277.295 Y266.798
G01 X278.268 Y269.372
G01 X279.050 Y272.078
G01 X279.630 Y274.904
G01 X279.818 Y276.173
G01 X280.023 Y279.082
G01 X280.011 Y282.071
G01 X279.774 Y285.125
G01 X279.307 Y288.229
G01 X279.221 Y288.678
G01 X279.190 Y292.859
G01 X279.076 Y294.641
G01 X277.890 Y297.797
G01 X276.463 Y300.939
G01 X276.102 Y301.654
G01 X274.042 Y304.008
G01 X271.812 Y306.282
G01 X270.888 Y307.152
G01 X268.549 Y309.685
G01 X266.010 Y312.122
G01 X263.452 Y314.308
G01 X260.229 Y314.570
G01 X257.013 Y314.670
G01 X253.813 Y314.612
G01 X253.329 Y314.589
G01 X250.154 Y313.973
G01 X247.048 Y313.203
G01 X244.253 Y312.361
G01 X241.305 Y311.261
G01 X238.452 Y310.024
G01 X236.515 Y309.081
G01 X233.979 Y307.114
G01 X231.602 Y305.044
G01 X231.003 Y304.483
G01 X228.753 Y302.495
G01 X226.652 Y300.419
G01 X226.392 Y300.146
G01 X224.991 Y296.989
G01 X224.163 Y294.781
G01 X222.534 Y292.626
G01 X221.054 Y290.420
G01 X220.443 Y289.426
G01 X219.785 Y286.432
G01 X219.347 Y283.471
G01 X219.244 Y282.437
G01 X219.120 Y279.521
G01 X219.204 Y276.675
G01 X219.490 Y273.911
G01 X219.840 Y271.861
G01 X220.346 Y269.349
G01 X221.022 Y266.941
G01 X221.488 Y265.598
G01 X222.664 Y263.255
G01 X223.998 Y261.068
G01 X224.894 Y259.798
G01 X226.290 Y257.936
G01 X227.804 Y256.237
G01 X229.423 Y254.706
G01 X230.101 Y254.139
G01 X231.387 Y252.928
G01 X232.740 Y251.852
G01 X234.151 Y250.918
G01 X235.327 Y250.266
G01 X236.143 Y249.570
G01 X236.990 Y248.956
G01 X237.862 Y248.423
G01 X238.753 Y247.974
G01 X239.656 Y247.607
G01 X240.567 Y247.324
G01 X241.479 Y247.124
G01 X242.386 Y247.006
G01 X242.615 Y246.989
G01 X242.862 Y246.673
G01 X243.122 Y246.373
G01 X243.394 Y246.091
G01 X243.677 Y245.826
G01 X243.970 Y245.580
G01 X244.272 Y245.352
G01 X244.581 Y245.143
G01 X244.897 Y244.954
G01 X245.218 Y244.783
G01 X245.543 Y244.631
G01 X245.872 Y244.499
G01 X246.203 Y244.385
G01 X246.535 Y244.291
G01 X246.866 Y244.216
G01 X247.197 Y244.159
G01 X247.526 Y244.120
G01 X247.851 Y244.100
G01 X248.173 Y244.097
G01 X248.490 Y244.111
G01 X248.801 Y244.141
G01 X249.105 Y244.188
G01 X249.401 Y244.250
G01 X249.690 Y244.327
G01 X249.969 Y244.419
G01 X250.054 Y244.450
G01 X250.339 Y244.250
G01 X250.643 Y244.065
G01 X250.967 Y243.896
G01 X251.308 Y243.745
G01 X251.666 Y243.613
G01 X252.041 Y243.503
G01 X252.430 Y243.413
G01 X252.832 Y243.347
G01 X253.247 Y243.305
G01 X253.673 Y243.288
G01 X254.107 Y243.298
G01 X254.550 Y243.334
G01 X254.998 Y243.397
G01 X255.451 Y243.490
G01 X255.906 Y243.611
G01 X256.363 Y243.761
G01 X256.610 Y243.855
G01 X257.730 Y243.490
G01 X258.900 Y243.223
G01 X260.113 Y243.056
G01 X261.361 Y242.993
G01 X262.638 Y243.038
G01 X263.935 Y243.192
G01 X264.347 Y243.263
G01 X265.678 Y243.557
G01 X267.013 Y243.966
G01 X268.342 Y244.492
G01 X269.659 Y245.134
G01 X270.307 Y245.498
G01 X271.569 Y246.317
G01 X272.797 Y247.251
G01 X273.983 Y248.296
G01 X274.017 Y248.328
G01 X275.107 Y249.488
G01 X276.139 Y250.750
G01 X277.104 Y252.112
G01 X277.895 Y253.392
G01 X279.386 Y255.047
G01 X280.778 Y256.856
G01 X282.060 Y258.813
G01 X282.202 Y259.051
G01 X283.101 Y261.083
G01 X283.875 Y263.224
G01 X284.437 Y265.157
G01 X284.828 Y267.416
G01 X285.077 Y269.749
G01 X285.178 Y272.147
G01 X285.178 Y272.158
G01 X285.635 Y274.970
G01 X285.897 Y277.877
G01 X285.917 Y278.258
G01 X286.063 Y281.356
G01 X285.987 Y284.534
G01 X285.683 Y287.776
G01 X285.145 Y291.068
G01 X285.023 Y291.659
G01 X284.754 Y295.717
G01 X284.435 Y298.216
G01 X283.017 Y301.387
G01 X281.369 Y304.532
G01 X280.713 Y305.664
G01 X278.699 Y308.646
G01 X276.545 Y311.463
G01 X274.296 Y314.823
G01 X271.779 Y318.104
G01 X270.592 Y319.514
G01 X267.255 Y320.847
G01 X263.836 Y322.019
G01 X261.216 Y322.791
G01 X257.746 Y324.359
G01 X254.964 Y325.462
G01 X251.246 Y325.049
G01 X247.580 Y324.455
G01 X243.976 Y323.683
G01 X243.951 Y323.677
G01 X240.629 Y321.121
G01 X237.543 Y318.422
G01 X237.109 Y318.014
G01 X233.849 Y317.042
G01 X230.653 Y315.915
G01 X229.217 Y315.350
G01 X226.577 Y312.798
G01 X224.904 Y311.015
G01 X222.379 Y308.776
G01 X220.013 Y306.439
G01 X219.549 Y305.950
G01 X217.349 Y303.554
G01 X215.522 Y301.348
G01 X214.644 Y297.447
G01 X214.063 Y293.588
G01 X214.032 Y293.313
G01 X212.917 Y290.442
G01 X212.104 Y287.941
G01 X212.239 Y284.265
G01 X212.640 Y280.697
G01 X213.136 Y277.971
G01 X213.134 Y275.221
G01 X213.310 Y272.541
G01 X213.586 Y270.372
G01 X214.220 Y267.772
G01 X215.016 Y265.284
G01 X215.521 Y263.967
G01 X216.302 Y261.761
G01 X217.213 Y259.667
G01 X218.245 Y257.691
G01 X219.388 Y255.841
G01 X220.277 Y254.586
G01 X221.082 Y253.018
G01 X221.967 Y251.541
G01 X222.925 Y250.158
G01 X223.949 Y248.872
G01 X224.161 Y248.626
G01 X225.070 Y247.443
G01 X226.031 Y246.346
G01 X227.037 Y245.336
G01 X228.083 Y244.416
G01 X229.161 Y243.587
G01 X230.267 Y242.850
G01 X230.561 Y242.671
G01 X231.622 Y242.021
G01 X232.700 Y241.457
G01 X233.786 Y240.978
G01 X234.877 Y240.584
G01 X235.965 Y240.275
G01 X237.046 Y240.049
G01 X238.114 Y239.904
G01 X239.164 Y239.839
G01 X239.935 Y239.842
G01 X240.381 Y239.288
G01 X240.857 Y238.753
G01 X241.362 Y238.240
G01 X241.896 Y237.749
G01 X242.457 Y237.282
G01 X243.045 Y236.841
G01 X243.657 Y236.428
G01 X244.294 Y236.043
G01 X244.954 Y235.688
G01 X245.634 Y235.364
G01 X246.334 Y235.073
G01 X247.053 Y234.816
G01 X247.674 Y234.625
G01 X248.408 Y234.304
G01 X249.168 Y234.019
G01 X249.953 Y233.771
G01 X250.759 Y233.562
G01 X251.587 Y233.394
G01 X252.432 Y233.268
G01 X253.294 Y233.185
G01 X254.169 Y233.147
G01 X254.518 Y233.145
G01 X255.488 Y232.927
G01 X256.489 Y232.764
G01 X257.520 Y232.660
G01 X258.575 Y232.616
G01 X259.653 Y232.636
G01 X260.749 Y232.720
G01 X261.665 Y232.839
G01 X262.788 Y233.042
G01 X263.918 Y233.314
G01 X265.052 Y233.657
G01 X266.184 Y234.072
G01 X267.312 Y234.559
G01 X268.061 Y234.926
G01 X269.672 Y235.157
G01 X271.302 Y235.511
G01 X272.942 Y235.991
G01 X274.584 Y236.598
G01 X275.207 Y236.862
G01 X276.492 Y237.806
G01 X277.745 Y238.844
G01 X278.957 Y239.977
G01 X280.124 Y241.203
G01 X280.873 Y242.072
G01 X281.985 Y243.440
G01 X283.034 Y244.899
G01 X283.984 Y246.392
G01 X285.048 Y248.011
G01 X286.033 Y249.726
G01 X286.827 Y251.309
G01 X287.634 Y253.192
G01 X288.342 Y255.157
G01 X288.946 Y257.199
G01 X289.355 Y258.905
G01 X289.804 Y261.085
G01 X290.132 Y263.331
G01 X290.334 Y265.634
G01 X290.380 Y266.642
G01 X290.778 Y269.198
G01 X290.993 Y271.416
G01 X292.684 Y269.697
G01 X294.303 Y267.862
G01 X295.289 Y266.641
G01 X298.751 Y265.243
G01 X300.509 Y264.411
G01 X305.455 Y262.916
G01 X305.858 Y262.774
G01 X309.724 Y262.775
G01 X306.770 Y261.882
G01 X302.451 Y258.316
G01 X300.804 Y257.114
G01 X297.829 Y257.411
G01 X296.111 Y259.482
G01 X294.859 Y260.841
G01 X294.825 Y258.530
G01 X294.674 Y256.248
G01 X294.408 Y254.001
G01 X294.267 Y253.096
G01 X292.651 Y250.885
G01 X291.140 Y249.075
G01 X290.616 Y247.089
G01 X289.997 Y245.151
G01 X289.287 Y243.267
G01 X288.909 Y242.369
G01 X287.240 Y240.778
G01 X285.778 Y239.542
G01 X284.923 Y237.903
G01 X283.994 Y236.322
G01 X282.995 Y234.802
G01 X282.658 Y234.326
G01 X281.398 Y232.987
G01 X280.085 Y231.734
G01 X278.776 Y230.609
G01 X276.890 Y229.893
G01 X275.004 Y229.315
G01 X273.129 Y228.871
G01 X272.835 Y228.813
G01 X271.466 Y228.028
G01 X270.075 Y227.324
G01 X268.668 Y226.704
G01 X267.249 Y226.166
G01 X266.275 Y225.846
G01 X264.971 Y225.241
G01 X263.647 Y224.704
G01 X262.307 Y224.238
G01 X260.954 Y223.841
G01 X259.592 Y223.515
G01 X259.284 Y223.452
G01 X257.804 Y223.590
G01 X256.361 Y223.809
G01 X254.958 Y224.105
G01 X253.599 Y224.473
G01 X253.476 Y224.511
G01 X252.192 Y224.700
G01 X250.936 Y224.954
G01 X249.710 Y225.269
G01 X248.517 Y225.643
G01 X247.360 Y226.074
G01 X246.241 Y226.559
G01 X245.291 Y227.028
G01 X244.178 Y227.319
G01 X243.082 Y227.663
G01 X242.005 Y228.061
G01 X240.951 Y228.510
G01 X239.922 Y229.010
G01 X238.920 Y229.559
G01 X238.897 Y229.573
G01 X238.018 Y230.323
G01 X237.186 Y231.110
G01 X236.806 Y231.498
G01 X236.468 Y228.906
G01 X236.356 Y226.241
G01 X236.361 Y225.690
G01 X236.870 Y223.645
G01 X237.549 Y221.595
G01 X237.994 Y220.472
G01 X239.373 Y219.677
G01 X240.801 Y218.947
G01 X242.275 Y218.285
G01 X242.760 Y218.086
G01 X244.307 Y217.611
G01 X245.883 Y217.212
G01 X247.485 Y216.889
G01 X249.108 Y216.645
G01 X250.750 Y216.482
G01 X251.246 Y216.448
G01 X252.915 Y216.271
G01 X254.604 Y216.178
G01 X256.310 Y216.169
G01 X258.027 Y216.248
G01 X258.836 Y216.315
G01 X260.645 Y216.260
G01 X262.480 Y216.304
G01 X264.336 Y216.447
G01 X266.207 Y216.693
G01 X266.577 Y216.753
G01 X268.373 Y217.278
G01 X270.157 Y217.900
G01 X271.778 Y218.555
G01 X273.597 Y219.267
G01 X275.399 Y220.083
G01 X277.176 Y221.003
G01 X277.296 Y221.069
G01 X278.987 Y222.151
G01 X280.636 Y223.330
G01 X282.239 Y224.604
G01 X282.647 Y224.950
G01 X284.275 Y226.279
G01 X285.850 Y227.708
G01 X286.525 Y228.369
G01 X286.062 Y226.179
G01 X285.471 Y223.982
G01 X284.749 Y221.788
G01 X284.136 Y220.182
G01 X283.151 Y218.043
G01 X282.037 Y215.930
G01 X281.304 Y214.675
G01 X279.077 Y213.750
G01 X276.835 Y212.958
G01 X274.587 Y212.297
G01 X274.012 Y212.149
G01 X272.030 Y211.186
G01 X270.011 Y210.325
G01 X267.961 Y209.569
G01 X266.724 Y209.167
G01 X264.874 Y207.903
G01 X262.940 Y206.722
G01 X262.259 Y206.338
G01 X260.008 Y206.202
G01 X257.773 Y206.179
G01 X255.560 Y206.270
G01 X253.375 Y206.472
G01 X253.328 Y206.477
G01 X251.177 Y206.799
G01 X249.065 Y207.226
G01 X248.419 Y207.379
G01 X246.355 Y207.801
G01 X244.328 Y208.322
G01 X243.057 Y208.705
G01 X241.023 Y209.024
G01 X239.004 Y209.443
G01 X238.893 Y209.469
G01 X237.055 Y210.483
G01 X235.324 Y211.556
G01 X236.390 Y208.315
G01 X237.740 Y205.093
G01 X237.852 Y204.856
G01 X239.490 Y203.062
G01 X241.334 Y199.874
G01 X243.210 Y197.109
G01 X245.769 Y196.278
G01 X248.271 Y195.602
G01 X250.937 Y195.865
G01 X253.574 Y196.257
G01 X256.174 Y196.777
G01 X256.899 Y196.947
G01 X259.436 Y197.672
G01 X261.918 Y198.518
G01 X264.340 Y199.481
G01 X265.891 Y200.173
G01 X268.255 Y201.176
G01 X270.560 Y202.292
G01 X271.527 Y202.803
G01 X273.843 Y203.865
G01 X276.106 Y205.042
G01 X276.575 Y205.304
G01 X278.942 Y206.352
G01 X281.002 Y207.384
G01 X282.840 Y209.224
G01 X284.143 Y210.647
G01 X282.839 Y208.168
G01 X281.373 Y205.723
G01 X279.974 Y203.647
G01 X278.042 Y201.579
G01 X275.978 Y199.591
G01 X273.786 Y197.690
G01 X272.845 Y196.934
G01 X270.336 Y195.549
G01 X267.746 Y194.283
G01 X266.803 Y193.861
G01 X264.227 Y192.296
G01 X261.749 Y190.958
G01 X258.977 Y189.514
G01 X256.091 Y188.202
G01 X256.006 Y188.166
G01 X253.037 Y186.418
G01 X251.839 Y185.776
G01 X250.797 Y181.455
G01 X248.942 Y174.282
G01 X249.786 Y166.875
G01 X253.628 Y166.504
G01 X254.467 Y174.282
G01 X257.748 Y176.985
G01 X260.184 Y178.875
G01 X263.181 Y181.023
G01 X266.180 Y183.078
G01 X269.776 Y182.827
G01 X270.013 Y182.818
G01 X272.882 Y183.978
G01 X276.720 Y183.624
G01 X280.342 Y183.494
G01 X285.424 Y181.473
G01 X287.325 Y180.828
G01 X293.105 Y178.661
G01 X296.464 Y176.269
G01 X299.114 Y164.936
G01 X300.921 Y150.871
G01 X301.042 Y149.297
G01 X299.847 Y138.389
G01 X299.346 Y135.343
G01 X294.716 Y130.233
G01 X292.382 Y127.870
G01 X286.401 Y125.723
G01 X286.363 Y125.710
G01 X280.104 Y129.555
G01 X279.145 Y131.481
G01 X279.139 Y129.318
G01 X282.755 Y126.184
G01 X286.352 Y126.436
G01 X287.558 Y130.042
G01 X285.403 Y134.374
G01 X282.031 Y137.262
G01 X276.014 Y138.957
G01 X272.881 Y136.789
G01 X272.893 Y130.269
G01 X273.131 Y123.548
G01 X277.214 Y120.172
G01 X282.998 Y119.198
G01 X287.081 Y119.932
G01 X290.204 Y121.859
G01 X291.653 Y126.431
G01 X294.305 Y134.132
G01 X291.900 Y141.108
G01 X289.013 Y144.961
G01 X282.441 Y147.504
G01 X281.065 Y148.105
G01 X275.740 Y147.847
G01 X275.533 Y147.843
G01 X270.723 Y145.537
G01 X270.002 Y145.217
G01 X267.118 Y139.670
G01 X265.431 Y131.248
G01 X267.348 Y121.138
G01 X270.242 Y112.937
G01 X277.224 Y110.048
G01 X284.483 Y109.827
G01 X284.678 Y109.826
G01 X291.748 Y110.916
G01 X293.576 Y111.257
G01 X298.872 Y114.866
G01 X301.757 Y122.100
G01 X301.525 Y130.511
G01 X302.244 Y134.847
G01 X296.468 Y150.269
G01 X294.062 Y151.233
G01 X287.082 Y155.328
G01 X281.803 Y155.375
G01 X278.421 Y155.559
G01 X273.493 Y155.326
G01 X270.005 Y155.315
G01 X265.720 Y152.051
G01 X263.505 Y150.512
G01 X259.279 Y142.165
G01 X258.688 Y141.121
G01 X257.251 Y126.663
G01 X259.171 Y116.565
G01 X263.022 Y107.644
G01 X267.840 Y104.767
G01 X275.636 Y101.820
G01 X279.141 Y100.667
G01 X286.789 Y100.837
G01 X288.043 Y100.902
G01 X295.530 Y102.244
G01 X297.189 Y102.594
G01 X303.701 Y106.857
G01 X304.156 Y107.173
G01 X309.922 Y112.699
G01 X310.172 Y112.953
G01 X309.942 Y127.393
G01 X309.533 Y142.006
G01 X309.454 Y143.038
G01 X309.215 Y146.174
G01 X305.126 Y154.348
G01 X299.113 Y162.777
G01 X294.297 Y163.509
G01 X290.926 Y165.433
G01 X285.581 Y166.224
G01 X280.416 Y167.330
G01 X280.351 Y167.346
G01 X276.016 Y166.876
G01 X271.759 Y166.264
G01 X270.726 Y166.149
G01 X267.155 Y162.331
G01 X263.257 Y158.669
G01 X260.132 Y156.045
G01 X255.708 Y152.270
G01 X252.438 Y149.780
G01 X252.431 Y146.654
G01 X250.755 Y136.052
G01 X250.509 Y129.551
G01 X250.028 Y125.225
G01 X250.753 Y120.652
G01 X245.065 Y135.998
G01 X244.973 Y136.286
G01 X242.328 Y147.863
G01 X246.657 Y153.633
G01 X251.319 Y158.476
G01 X253.159 Y160.606
G01 X257.247 Y164.351
G01 X260.373 Y167.600
G01 X264.192 Y169.405
G01 X267.861 Y171.383
G01 X268.801 Y171.932
G01 X272.732 Y172.526
G01 X276.651 Y173.319
G01 X277.934 Y173.623
G01 X282.143 Y173.913
G01 X286.390 Y174.434
G01 X287.322 Y174.579
G01 X293.454 Y172.061
G01 X293.815 Y171.930
G01 X300.598 Y169.386
G01 X303.205 Y168.565
G01 X306.571 Y164.945
G01 X312.584 Y158.447
G01 X314.516 Y145.925
G01 X314.265 Y138.464
G01 X314.261 Y131.731
G01 X313.141 Y146.273
G01 X312.345 Y151.941
G01 X310.910 Y161.087
G01 X305.842 Y172.898
G01 X299.601 Y181.312
G01 X292.306 Y186.804
G01 X285.814 Y190.366
G01 X285.634 Y190.476
G01 X282.128 Y192.119
G01 X277.670 Y194.740
G01 X280.500 Y195.894
G01 X282.434 Y196.779
G01 X285.052 Y198.368
G01 X285.660 Y198.763
G01 X286.166 Y199.949
G01 X287.640 Y202.571
G01 X287.924 Y205.032
G01 X288.704 Y208.430
G01 X288.768 Y208.761
G01 X289.059 Y212.339
G01 X289.096 Y215.841
G01 X289.016 Y217.662
G01 X289.726 Y216.953
G01 X290.611 Y212.697
G01 X290.939 Y210.447
G01 X291.484 Y205.785
G01 X291.663 Y200.980
G01 X291.658 Y200.332
G01 X294.303 Y194.071
G01 X297.874 Y191.878
G01 X300.549 Y189.029
G01 X304.807 Y187.236
G01 X310.091 Y187.645
G01 X312.589 Y187.962
G01 X315.319 Y191.323
G01 X317.871 Y194.800
G01 X320.239 Y198.387
G01 X320.860 Y199.394
G01 X322.014 Y203.731
G01 X322.916 Y208.057
G01 X323.529 Y212.039
G01 X325.180 Y215.749
G01 X326.645 Y219.529
G01 X327.652 Y222.508
G01 X331.192 Y225.666
G01 X334.605 Y229.107
G01 X335.688 Y230.291
G01 X334.454 Y226.157
G01 X334.214 Y225.430
G01 X332.517 Y223.970
G01 X328.626 Y223.964
G01 X325.707 Y226.401
G01 X325.715 Y230.418
G01 X325.712 Y230.532
G01 X326.089 Y234.371
G01 X326.198 Y236.128
G01 X331.800 Y237.832
G01 X337.873 Y235.884
G01 X340.548 Y232.231
G01 X340.561 Y227.563
G01 X340.536 Y226.644
G01 X339.566 Y222.141
G01 X338.372 Y217.677
G01 X338.360 Y217.638
G01 X333.743 Y215.687
G01 X326.677 Y215.944
G01 X319.638 Y222.018
G01 X317.195 Y226.157
G01 X317.529 Y229.710
G01 X317.677 Y233.237
G01 X317.685 Y234.667
G01 X318.558 Y237.971
G01 X319.270 Y241.324
G01 X319.386 Y241.966
G01 X325.229 Y243.910
G01 X329.843 Y245.862
G01 X336.651 Y245.857
G01 X342.982 Y242.941
G01 X347.718 Y237.735
G01 X347.841 Y237.589
G01 X348.532 Y232.552
G01 X348.961 Y227.418
G01 X349.064 Y225.182
G01 X348.326 Y221.046
G01 X346.739 Y216.273
G01 X345.889 Y213.997
G01 X341.269 Y211.070
G01 X335.540 Y208.440
G01 X335.433 Y208.396
G01 X329.394 Y206.394
G01 X327.893 Y205.971
G01 X322.312 Y208.398
G01 X313.554 Y212.044
G01 X309.664 Y217.639
G01 X308.664 Y221.815
G01 X307.403 Y225.811
G01 X306.028 Y229.314
G01 X306.265 Y232.312
G01 X306.344 Y235.283
G01 X306.268 Y238.218
G01 X306.042 Y241.110
G01 X305.785 Y243.184
G01 X309.531 Y245.677
G01 X311.380 Y247.072
G01 X315.487 Y250.093
G01 X317.697 Y251.938
G01 X325.459 Y253.158
G01 X336.888 Y253.889
G01 X347.339 Y251.453
G01 X350.117 Y246.578
G01 X350.744 Y245.375
G01 X353.829 Y240.110
G01 X356.108 Y235.645
G01 X357.385 Y230.064
G01 X357.800 Y227.859
G01 X357.402 Y222.386
G01 X356.833 Y217.645
G01 X354.997 Y212.485
G01 X354.637 Y211.558
G01 X351.486 Y207.179
G01 X345.164 Y204.748
G01 X338.962 Y202.210
G01 X338.593 Y202.075
G01 X332.582 Y199.940
G01 X330.817 Y199.402
G01 X324.246 Y201.104
G01 X316.734 Y201.193
G01 X314.535 Y201.339
G01 X307.233 Y207.185
G01 X303.107 Y213.263
G01 X301.267 Y218.137
G01 X299.458 Y222.018
G01 X299.133 Y225.302
G01 X298.609 Y228.485
G01 X297.895 Y231.555
G01 X297.267 Y233.695
G01 X297.696 Y236.125
G01 X298.002 Y238.558
G01 X298.184 Y240.987
G01 X298.245 Y243.407
G01 X298.242 Y243.910
G01 X300.342 Y246.142
G01 X302.334 Y248.566
G01 X304.066 Y250.969
G01 X309.674 Y253.886
G01 X315.067 Y257.457
G01 X316.482 Y258.511
G01 X326.439 Y261.672
G01 X337.136 Y261.182
G01 X347.339 Y260.694
G01 X353.679 Y256.263
G01 X353.922 Y256.079
G01 X358.572 Y251.014
G01 X359.024 Y250.483
G01 X362.298 Y244.981
G01 X363.650 Y242.457
G01 X364.744 Y236.704
G01 X365.351 Y232.475
G01 X365.154 Y226.674
G01 X365.107 Y225.914
G01 X364.228 Y220.180
G01 X363.890 Y218.373
G01 X362.921 Y212.584
G01 X362.667 Y211.311
G01 X359.551 Y206.262
G01 X358.047 Y204.016
G01 X354.416 Y199.373
G01 X353.420 Y198.183
G01 X347.522 Y194.993
G01 X347.097 Y194.782
G01 X340.062 Y194.289
G01 X334.567 Y191.764
G01 X334.217 Y191.617
G01 X328.141 Y190.155
G01 X321.569 Y190.887
G01 X311.370 Y194.045
G01 X305.294 Y197.206
G01 X300.194 Y204.014
G01 X294.847 Y212.281
G01 X293.480 Y216.933
G01 X292.411 Y219.826
G01 X292.102 Y223.056
G01 X291.582 Y226.181
G01 X290.861 Y229.187
G01 X290.462 Y230.536
G01 X290.858 Y232.760
G01 X291.134 Y234.976
G01 X291.195 Y235.642
G01 X291.985 Y237.641
G01 X292.678 Y239.683
G01 X293.272 Y241.763
G01 X293.764 Y243.876
G01 X293.869 Y244.400
G01 X295.243 Y246.469
G01 X296.518 Y248.660
G01 X297.683 Y250.968
G01 X298.732 Y253.386
G01 X299.462 Y255.344
G01 X301.385 Y258.119
G01 X303.149 Y261.095
G01 X303.840 Y262.403
G01 X310.387 Y265.318
G01 X317.199 Y268.969
G01 X321.835 Y268.482
G01 X330.085 Y268.965
G01 X337.620 Y268.971
G01 X345.647 Y266.293
G01 X348.950 Y264.280
G01 X345.051 Y268.518
G01 X342.131 Y271.361
G01 X338.135 Y275.049
G01 X335.523 Y277.219
G01 X332.305 Y280.718
G01 X330.422 Y282.591
G01 X327.359 Y285.865
G01 X324.173 Y288.917
G01 X323.335 Y289.666
G01 X321.521 Y293.351
G01 X319.522 Y296.953
G01 X317.341 Y300.463
G01 X315.539 Y303.099
G01 X314.057 Y297.715
G01 X312.592 Y294.546
G01 X309.671 Y296.256
G01 X308.704 Y298.700
G01 X308.943 Y303.995
G01 X308.946 Y304.566
G01 X311.629 Y307.004
G01 X315.045 Y307.248
G01 X318.708 Y305.781
G01 X321.146 Y303.096
G01 X320.643 Y298.696
G01 X317.974 Y293.821
G01 X314.564 Y289.427
G01 X310.897 Y288.693
G01 X307.566 Y290.674
G01 X306.737 Y291.127
G01 X304.580 Y293.805
G01 X303.077 Y295.522
G01 X302.172 Y299.390
G01 X301.011 Y303.275
G01 X300.654 Y304.322
G01 X301.383 Y307.247
G01 X304.561 Y313.110
G01 X311.386 Y315.542
G01 X315.883 Y313.762
G01 X318.945 Y312.377
G01 X322.973 Y309.779
G01 X326.507 Y307.240
G01 X328.144 Y302.689
G01 X328.939 Y300.156
G01 X329.840 Y295.389
G01 X330.467 Y290.657
G01 X330.649 Y288.692
G01 X326.272 Y286.255
G01 X321.135 Y280.632
G01 X314.440 Y281.584
G01 X314.073 Y281.619
G01 X308.709 Y282.595
G01 X305.884 Y284.719
G01 X302.995 Y286.646
G01 X301.634 Y287.475
G01 X300.128 Y290.281
G01 X298.471 Y293.029
G01 X297.472 Y294.547
G01 X296.268 Y297.899
G01 X294.848 Y301.238
G01 X293.209 Y304.549
G01 X293.079 Y304.793
G01 X295.345 Y313.897
G01 X295.525 Y314.808
G01 X297.964 Y319.203
G01 X303.983 Y320.256
G01 X305.275 Y320.423
G01 X310.650 Y320.667
G01 X316.571 Y320.272
G01 X319.432 Y319.938
G01 X324.555 Y318.067
G01 X326.515 Y317.261
G01 X329.125 Y312.950
G01 X331.499 Y308.547
G01 X332.850 Y305.776
G01 X334.166 Y300.846
G01 X335.047 Y296.752
G01 X335.557 Y291.703
G01 X335.781 Y286.719
G01 X335.785 Y286.495
G01 X331.375 Y280.632
G01 X322.611 Y275.998
G01 X312.844 Y273.800
G01 X308.499 Y275.503
G01 X306.998 Y276.004
G01 X304.450 Y278.148
G01 X301.831 Y280.105
G01 X299.185 Y281.855
G01 X297.894 Y284.468
G01 X296.464 Y287.031
G01 X295.284 Y288.941
G01 X294.345 Y292.089
G01 X293.202 Y295.237
G01 X291.856 Y298.371
G01 X290.303 Y301.480
G01 X289.681 Y302.614
G01 X288.590 Y306.762
G01 X287.721 Y309.441
G01 X290.159 Y319.450
G01 X293.817 Y325.305
G01 X299.189 Y326.292
G01 X304.833 Y326.521
G01 X305.277 Y326.523
G01 X311.826 Y327.296
G01 X315.037 Y327.502
G01 X320.922 Y326.549
G01 X323.339 Y326.048
G01 X328.122 Y323.429
G01 X332.822 Y320.521
G01 X334.072 Y319.689
G01 X336.496 Y315.296
G01 X338.367 Y310.136
G01 X339.943 Y304.953
G01 X340.181 Y304.073
G01 X341.114 Y298.721
G01 X341.742 Y293.409
G01 X341.887 Y291.623
G01 X339.440 Y285.334
G01 X337.729 Y281.609
G01 X333.831 Y275.760
G01 X326.013 Y269.403
G01 X314.564 Y269.170
G01 X307.083 Y270.046
G01 X305.535 Y270.142
G01 X301.748 Y271.697
G01 X297.949 Y272.932
G01 X297.468 Y273.066
G01 X295.137 Y274.741
G01 X292.759 Y276.245
G01 X292.352 Y276.483
G01 X291.388 Y278.798
G01 X290.298 Y281.082
G01 X289.082 Y283.327
G01 X288.208 Y284.791
G01 X287.880 Y288.056
G01 X287.320 Y291.368
G01 X286.523 Y294.714
G01 X285.766 Y297.237
G01 X284.718 Y300.858
G01 X283.398 Y304.486
G01 X281.802 Y308.102
G01 X281.623 Y308.472
G01 X280.530 Y313.742
G01 X279.918 Y316.039
G01 X280.887 Y320.916
G01 X279.918 Y326.777
G01 X283.813 Y328.230
G01 X289.502 Y330.324
G01 X291.372 Y330.911
G01 X296.903 Y331.585
G01 X297.719 Y331.654
G01 X302.591 Y331.892
G01 X307.727 Y331.900
G01 X313.434 Y331.219
G01 X315.287 Y330.922
G01 X316.502 Y329.699
G01 X320.434 Y326.451
G01 X323.583 Y323.602
G01 X325.320 Y318.284
G01 X326.717 Y312.977
G01 X326.745 Y312.855
G01 X328.455 Y309.682
G01 X331.002 Y305.564
G01 X333.335 Y301.340
G01 X334.302 Y299.431
G01 X335.111 Y294.444
G01 X335.283 Y293.088
G01 X337.278 Y288.844
G01 X337.972 Y287.228
G01 X340.931 Y283.320
G01 X343.714 Y279.210
G01 X345.535 Y276.247
G01 X350.352 Y272.339
G01 X350.912 Y271.849
G01 X353.931 Y267.214
G01 X356.734 Y262.334
G01 X356.997 Y261.842
G01 X360.931 Y256.791
G01 X364.619 Y251.381
G01 X364.795 Y251.105
G01 X368.472 Y246.460
G01 X369.207 Y245.972
G01 X372.306 Y239.842
G01 X372.852 Y238.656
G01 X373.767 Y232.412
G01 X374.361 Y226.051
G01 X374.556 Y222.294
G01 X372.336 Y216.411
G01 X371.641 Y214.735
G01 X370.660 Y208.877
G01 X368.254 Y203.102
G01 X367.367 Y201.155
G01 X362.924 Y196.359
G01 X360.220 Y193.682
G01 X354.471 Y189.981
G01 X350.958 Y187.953
G01 X344.427 Y185.376
G01 X339.501 Y183.755
G01 X333.591 Y183.969
G01 X328.955 Y183.972
G01 X320.414 Y185.670
G01 X313.590 Y185.904
G01 X313.341 Y185.923
G01 X311.134 Y183.984
G01 X316.269 Y179.578
G01 X325.036 Y176.659
G01 X329.674 Y176.166
G01 X337.737 Y173.964
G01 X343.344 Y173.480
G01 X352.473 Y174.088
G01 X353.584 Y174.210
G01 X360.308 Y177.321
G01 X362.585 Y178.490
G01 X367.737 Y181.777
G01 X372.357 Y186.907
G01 X373.509 Y188.272
G01 X377.938 Y193.726
G01 X378.655 Y194.667
G01 X381.763 Y200.842
G01 X382.094 Y201.546
G01 X385.516 Y207.710
G01 X386.512 Y209.653
G01 X387.365 Y216.634
G01 X387.747 Y221.449
G01 X389.233 Y228.204
G01 X389.712 Y230.799
G01 X388.479 Y237.854
G01 X387.998 Y240.134
G01 X386.602 Y246.955
G01 X385.545 Y251.196
G01 X384.423 Y257.794
G01 X383.583 Y261.762
G01 X380.789 Y268.019
G01 X379.635 Y270.366
G01 X376.048 Y276.197
G01 X374.004 Y279.221
G01 X369.648 Y284.472
G01 X369.082 Y285.111
G01 X365.799 Y290.418
G01 X365.401 Y291.020
G01 X362.186 Y296.195
G01 X359.052 Y300.732
G01 X354.612 Y305.064
G01 X353.853 Y305.758
G01 X351.224 Y310.927
G01 X348.338 Y315.971
G01 X347.966 Y316.581
G01 X345.674 Y322.132
G01 X344.033 Y325.672
G01 X342.564 Y332.290
G01 X340.666 Y338.942
G01 X340.103 Y340.668
G01 X338.617 Y347.291
G01 X337.646 Y354.677
G01 X336.654 Y362.052
G01 X331.246 Y362.783
G01 X328.542 Y358.846
G01 X330.523 Y353.203
G01 X330.514 Y349.023
G01 X330.507 Y342.131
G01 X331.015 Y336.240
G01 X333.287 Y331.316
G01 X335.372 Y325.534
G01 X335.808 Y324.177
G01 X338.452 Y319.180
G01 X339.357 Y317.315
G01 X341.017 Y311.807
G01 X341.809 Y308.708
G01 X344.696 Y304.199
G01 X347.362 Y299.549
G01 X347.462 Y299.363
G01 X352.109 Y295.567
G01 X353.105 Y294.693
G01 X356.887 Y290.225
G01 X358.763 Y287.817
G01 X361.442 Y282.715
G01 X361.712 Y282.163
G01 X365.143 Y279.453
G01 X368.224 Y274.130
G01 X370.304 Y270.122
G01 X372.479 Y264.351
G01 X373.266 Y262.010
G01 X375.463 Y256.848
G01 X375.952 Y256.104
G01 X378.407 Y249.915
G01 X378.916 Y248.495
G01 X379.334 Y242.132
G01 X379.406 Y239.889
G01 X380.761 Y233.295
G01 X381.369 Y229.557
G01 X381.219 Y222.927
G01 X381.125 Y221.204
G01 X381.059 Y214.396
G01 X380.848 Y210.258
G01 X378.720 Y203.893
G01 X378.376 Y202.954
G01 X375.235 Y196.998
G01 X374.838 Y196.294
G01 X370.543 Y190.972
G01 X369.767 Y190.068
G01 X364.716 Y185.972
G01 X358.394 Y182.319
G01 X355.924 Y181.029
G01 X350.239 Y177.987
G01 X342.767 Y176.509
G01 X333.946 Y176.881
G01 X332.730 Y178.838
G01 X340.453 Y179.613
G01 X341.074 Y179.700
G01 X347.458 Y181.932
G01 X352.911 Y185.396
G01 X356.204 Y187.706
G01 X361.503 Y191.001
G01 X365.787 Y195.831
G01 X367.249 Y197.601
G01 X371.594 Y202.672
G01 X372.761 Y204.132
G01 X374.603 Y210.294
G01 X375.205 Y212.586
G01 X376.772 Y218.804
G01 X377.367 Y221.575
G01 X377.213 Y228.099
G01 X376.787 Y233.943
G01 X375.877 Y240.303
G01 X375.420 Y242.834
G01 X372.953 Y249.018
G01 X371.296 Y252.672
G01 X369.642 Y258.523
G01 X367.710 Y264.217
G01 X367.191 Y265.599
G01 X363.656 Y270.848
G01 X361.250 Y274.076
G01 X357.166 Y278.762
G01 X355.090 Y280.940
G01 X351.678 Y285.443
G01 X351.154 Y286.092
G01 X347.953 Y289.787
G01 X345.151 Y294.205
G01 X342.153 Y298.445
G01 X341.823 Y298.886
G01 X338.137 Y302.572
G01 X335.278 Y306.718
G01 X333.220 Y309.452
G01 X331.267 Y314.306
G01 X329.787 Y317.563
G01 X327.214 Y322.180
G01 X324.378 Y326.705
G01 X321.678 Y330.585
G01 X320.682 Y334.024
G01 X320.253 Y342.359
G01 X320.206 Y342.876
G01 X321.676 Y348.044
G01 X323.156 Y352.219
G01 X319.763 Y358.342
G01 X319.459 Y358.852
G01 X314.901 Y363.647
G01 X310.038 Y368.254
G01 X308.874 Y369.288
G01 X304.120 Y374.730
G01 X300.732 Y378.256
G01 X295.140 Y382.833
G01 X291.157 Y385.800
G01 X285.006 Y389.902
G01 X283.402 Y390.895
G01 X276.695 Y393.694
G01 X274.437 Y394.549
G01 X269.146 Y398.445
G01 X270.542 Y397.400
G01 X266.904 Y393.734
G01 X262.423 Y395.169
G01 X261.196 Y402.114
G01 X266.501 Y404.547
G01 X271.382 Y403.316
G01 X274.242 Y400.054
G01 X274.437 Y394.549
G01 X271.798 Y389.254
G01 X265.884 Y388.643
G01 X259.564 Y388.445
G01 X256.514 Y391.901
G01 X254.674 Y400.878
G01 X259.361 Y408.824
G01 X265.483 Y411.685
G01 X273.302 Y410.068
G01 X274.236 Y409.848
G01 X279.537 Y405.367
G01 X282.183 Y399.040
G01 X280.143 Y389.659
G01 X275.457 Y385.377
G01 X269.962 Y382.732
G01 X263.288 Y382.197
G01 X260.797 Y381.909
G01 X255.704 Y385.180
G01 X249.031 Y390.041
G01 X248.366 Y390.490
G01 X245.710 Y394.761
G01 X247.348 Y403.927
G01 X252.024 Y414.938
G01 X260.186 Y416.589
G01 X268.507 Y417.325
G01 X269.550 Y417.387
G01 X277.774 Y416.429
G01 X279.530 Y416.172
G01 X284.217 Y410.876
G01 X288.088 Y403.727
G01 X288.912 Y395.590
G01 X287.272 Y388.342
G01 X283.411 Y384.564
G01 X277.297 Y380.909
G01 X270.292 Y378.612
G01 X267.725 Y377.650
G01 X261.480 Y378.815
G01 X258.346 Y379.281
G01 X252.038 Y382.495
G01 X250.196 Y383.350
G01 X243.478 Y390.073
G01 X238.586 Y395.979
G01 X238.382 Y403.737
G01 X240.821 Y412.491
G01 X245.302 Y416.984
G01 X252.035 Y421.463
G01 X259.970 Y422.687
G01 X267.715 Y424.327
G01 X274.030 Y423.317
G01 X281.978 Y420.248
G01 X289.506 Y415.182
G01 X290.133 Y414.732
G01 X294.825 Y408.223
G01 X297.053 Y398.026
G01 X295.223 Y388.846
G01 X290.132 Y382.323
G01 X283.816 Y377.440
G01 X276.954 Y376.283
G01 X271.182 Y374.993
G01 X264.890 Y374.765
G01 X260.181 Y374.384
G01 X254.115 Y376.248
G01 X251.216 Y377.019
G01 X244.809 Y381.298
G01 X243.478 Y382.114
G01 X236.218 Y389.588
G01 X236.138 Y389.664
G01 X231.249 Y395.774
G01 X229.214 Y402.313
G01 X230.029 Y410.059
G01 X233.899 Y418.206
G01 X240.619 Y422.495
G01 X247.139 Y427.377
G01 X255.918 Y429.504
G01 X256.518 Y429.632
G01 X265.066 Y429.218
G01 X269.749 Y428.209
G01 X274.440 Y427.576
G01 X273.628 Y432.477
G01 X268.741 Y433.696
G01 X261.612 Y435.337
G01 X252.493 Y434.861
G01 X250.807 Y434.723
G01 X242.653 Y432.077
G01 X237.767 Y429.008
G01 X231.455 Y423.914
G01 X224.321 Y419.643
G01 X221.058 Y416.377
G01 X219.643 Y407.399
G01 X217.802 Y400.673
G01 X214.128 Y400.072
G01 X207.209 Y403.938
G01 X209.650 Y408.004
G01 X211.089 Y413.509
G01 X214.544 Y419.226
G01 X218.828 Y425.554
G01 X226.565 Y432.476
G01 X232.669 Y436.973
G01 X241.790 Y439.313
G01 X242.243 Y439.416
G01 X251.426 Y440.845
G01 X260.794 Y440.643
G01 X260.987 Y440.634
G01 X268.119 Y439.611
G01 X272.415 Y437.993
G01 X273.217 Y443.084
G01 X267.111 Y445.126
G01 X259.781 Y447.158
G01 X253.467 Y449.595
G01 X244.698 Y449.805
G01 X242.043 Y448.165
G01 X233.084 Y445.921
G01 X224.726 Y446.330
G01 X225.340 Y450.414
G01 X232.480 Y454.099
G01 X238.992 Y454.304
G01 X247.955 Y455.915
G01 X258.068 Y455.934
G01 X258.545 Y455.923
G01 X266.290 Y452.245
G01 X272.402 Y449.597
G01 X277.302 Y455.519
G01 X269.142 Y459.377
G01 X259.764 Y462.251
G01 X249.373 Y464.074
G01 X238.916 Y462.891
G01 X234.516 Y462.236
G01 X226.778 Y460.196
G01 X219.644 Y455.116
G01 X219.026 Y450.825
G01 X218.817 Y446.947
G01 X223.059 Y438.409
G01 X232.195 Y441.016
G01 X234.215 Y441.526
G01 X239.545 Y442.967
G01 X246.956 Y444.776
G01 X255.669 Y444.267
G01 X263.741 Y441.658
G01 X269.057 Y441.529
G01 X275.827 Y439.195
G01 X279.992 Y438.276
G01 X289.656 Y438.776
G01 X294.230 Y438.839
G01 X295.924 Y441.495
G01 X298.641 Y438.784
G01 X298.335 Y436.514
G01 X296.382 Y435.850
G01 X293.473 Y437.553
G01 X292.562 Y438.761
G01 X292.643 Y442.073
G01 X294.448 Y444.588
G01 X297.765 Y445.294
G01 X301.107 Y445.040
G01 X303.525 Y442.523
G01 X304.651 Y437.602
G01 X303.366 Y434.773
G01 X301.054 Y432.363
G01 X295.983 Y431.697
G01 X294.345 Y431.074
G01 X290.232 Y432.160
G01 X287.414 Y434.979
G01 X287.118 Y438.556
G01 X287.008 Y445.198
G01 X289.714 Y448.389
G01 X292.444 Y450.839
G01 X296.688 Y451.512
G01 X301.563 Y451.456
G01 X307.013 Y447.693
G01 X309.128 Y441.505
G01 X309.115 Y435.456
G01 X307.408 Y430.726
G01 X304.917 Y426.923
G01 X300.184 Y425.465
G01 X292.966 Y425.595
G01 X287.573 Y426.393
G01 X284.425 Y431.769
G01 X281.149 Y439.912
G01 X280.882 Y447.677
G01 X282.724 Y453.334
G01 X291.787 Y454.908
G01 X300.053 Y455.183
G01 X309.511 Y455.429
G01 X313.592 Y445.045
G01 X314.765 Y439.408
G01 X314.241 Y430.191
G01 X310.825 Y423.232
G01 X305.836 Y420.332
G01 X296.520 Y419.559
G01 X290.737 Y419.421
G01 X282.713 Y423.003
G01 X282.462 Y423.108
G01 X278.508 Y428.614
G01 X276.415 Y435.074
G01 X276.154 Y443.616
G01 X277.302 Y455.519
G01 X281.901 Y458.018
G01 X286.872 Y461.662
G01 X291.920 Y462.836
G01 X301.695 Y463.583
G01 X309.732 Y462.541
G01 X315.016 Y458.943
G01 X319.479 Y455.339
G01 X319.457 Y450.246
G01 X319.165 Y444.307
G01 X320.759 Y436.476
G01 X320.498 Y432.480
G01 X319.697 Y422.259
G01 X317.987 Y418.420
G01 X311.619 Y414.567
G01 X308.287 Y413.231
G01 X302.714 Y411.516
G01 X301.256 Y410.856
G01 X305.098 Y403.140
G01 X303.776 Y399.417
G01 X304.309 Y389.206
G01 X301.782 Y384.153
G01 X300.999 Y380.568
G01 X300.067 Y375.911
G01 X302.841 Y375.939
G01 X308.426 Y377.776
G01 X309.218 Y384.271
G01 X308.826 Y389.070
G01 X308.551 Y395.296
G01 X306.169 Y408.199
G01 X306.701 Y410.716
G01 X310.547 Y410.724
G01 X311.086 Y399.556
G01 X311.214 Y394.113
G01 X311.482 Y382.561
G01 X312.933 Y380.159
G01 X313.738 Y388.404
G01 X313.865 Y396.511
G01 X315.315 Y406.193
G01 X316.476 Y417.517
G01 X318.649 Y426.119
G01 X322.352 Y433.286
G01 X326.339 Y441.925
G01 X330.860 Y449.620
G01 X334.568 Y456.397
G01 X337.442 Y463.108
G01 X341.713 Y470.621
G01 X346.154 Y472.894
G01 X350.713 Y475.179
G01 X352.331 Y472.909
G01 X349.766 Y466.466
G01 X343.739 Y458.689
G01 X340.780 Y452.645
G01 X337.173 Y441.656
G01 X332.883 Y437.880
G01 X329.259 Y431.035
G01 X327.113 Y425.943
G01 X324.429 Y416.277
G01 X321.078 Y409.176
G01 X319.065 Y399.106
G01 X320.139 Y390.797
G01 X318.929 Y380.460
G01 X320.271 Y370.798
G01 X322.960 Y371.065
G01 X325.236 Y377.247
G01 X325.373 Y386.097
G01 X325.379 Y394.552
G01 X326.172 Y400.188
G01 X329.800 Y408.914
G01 X331.940 Y418.564
G01 X335.148 Y423.397
G01 X340.112 Y431.847
G01 X342.802 Y441.249
G01 X345.350 Y447.153
G01 X348.980 Y455.339
G01 X351.649 Y458.685
G01 X354.601 Y464.199
G01 X356.482 Y465.531
G01 X361.394 Y466.301
G01 X360.167 Y462.404
G01 X355.734 Y456.477
G01 X353.727 Y452.308
G01 X350.487 Y444.501
G01 X348.605 Y440.577
G01 X346.052 Y431.444
G01 X343.227 Y426.321
G01 X341.325 Y419.714
G01 X335.814 Y413.526
G01 X332.986 Y407.867
G01 X331.515 Y402.762
G01 X329.359 Y392.520
G01 X330.035 Y386.606
G01 X329.503 Y376.903
G01 X331.792 Y372.324
G01 X333.260 Y368.957
G01 X336.081 Y369.899
G01 X337.172 Y373.939
G01 X335.831 Y382.832
G01 X337.308 Y393.473
G01 X340.526 Y401.546
G01 X343.084 Y409.355
G01 X345.230 Y416.489
G01 X349.550 Y421.328
G01 X352.375 Y428.069
G01 X356.547 Y437.490
G01 X358.440 Y441.533
G01 X361.794 Y448.940
G01 X365.838 Y455.127
G01 X369.326 Y462.144
G01 X371.485 Y463.478
G01 X373.229 Y454.986
G01 X370.264 Y450.963
G01 X368.247 Y448.266
G01 X364.349 Y438.971
G01 X360.039 Y433.045
G01 X355.192 Y427.263
G01 X351.023 Y417.025
G01 X349.008 Y410.846
G01 X346.843 Y405.305
G01 X341.478 Y391.447
G01 X340.252 Y386.183
G01 X340.003 Y373.943
G01 X342.012 Y371.395
G01 X343.626 Y376.495
G01 X347.448 Y396.147
G01 X347.958 Y399.787
G01 X354.001 Y414.685
G01 X360.486 Y424.220
G01 X365.460 Y431.782
G01 X371.505 Y439.995
G01 X379.485 Y446.917
G01 X383.605 Y453.184
G01 X389.866 Y451.457
G01 X393.099 Y448.435
G01 X387.050 Y447.782
G01 X380.558 Y439.991
G01 X374.522 Y434.151
G01 X369.548 Y427.675
G01 X364.577 Y420.323
G01 X358.110 Y412.317
G01 X354.210 Y400.004
G01 X351.411 Y396.317
G01 X351.403 Y386.602
G01 X351.200 Y379.465
G01 X351.404 Y371.036
G01 X352.055 Y362.813
G01 X353.626 Y353.822
G01 X354.423 Y346.818
G01 X356.805 Y340.552
G01 X360.726 Y334.900
G01 X361.133 Y334.278
G01 X363.939 Y332.123
G01 X361.032 Y329.742
G01 X359.330 Y330.256
G01 X356.695 Y332.794
G01 X358.966 Y337.421
G01 X360.861 Y339.014
G01 X364.761 Y338.832
G01 X367.918 Y337.397
G01 X370.385 Y333.572
G01 X370.376 Y328.802
G01 X366.978 Y325.911
G01 X364.338 Y325.062
G01 X360.089 Y323.779
G01 X354.572 Y324.722
G01 X352.108 Y327.354
G01 X351.170 Y332.708
G01 X351.252 Y337.811
G01 X353.214 Y341.300
G01 X355.611 Y343.684
G01 X358.812 Y345.383
G01 X362.399 Y346.322
G01 X367.574 Y346.059
G01 X371.048 Y344.106
G01 X373.856 Y341.224
G01 X376.240 Y335.778
G01 X376.416 Y330.926
G01 X375.394 Y326.333
G01 X373.438 Y323.277
G01 X370.297 Y320.731
G01 X366.380 Y319.103
G01 X362.809 Y318.687
G01 X356.533 Y318.951
G01 X354.149 Y319.798
G01 X351.591 Y321.144
G01 X350.154 Y322.431
G01 X347.770 Y326.513
G01 X346.583 Y330.255
G01 X345.646 Y335.514
G01 X345.313 Y340.886
G01 X346.933 Y345.821
G01 X348.617 Y348.701
G01 X351.847 Y351.162
G01 X356.608 Y353.629
G01 X361.369 Y354.654
G01 X369.100 Y354.317
G01 X375.132 Y351.505
G01 X378.440 Y348.276
G01 X381.344 Y344.788
G01 X383.200 Y341.897
G01 X384.913 Y335.361
G01 X384.668 Y331.868
G01 X384.481 Y327.522
G01 X383.038 Y320.897
G01 X380.079 Y318.687
G01 X377.939 Y315.541
G01 X373.443 Y312.911
G01 X368.482 Y311.732
G01 X363.797 Y311.390
G01 X359.718 Y311.030
G01 X356.263 Y311.298
G01 X355.116 Y311.381
G01 X357.278 Y308.360
G01 X358.748 Y305.628
G01 X361.330 Y302.470
G01 X363.799 Y300.251
G01 X368.569 Y301.636
G01 X373.724 Y302.430
G01 X378.149 Y304.034
G01 X381.500 Y306.503
G01 X384.969 Y310.051
G01 X387.363 Y315.547
G01 X390.359 Y319.615
G01 X392.234 Y324.415
G01 X393.368 Y331.674
G01 X391.346 Y339.828
G01 X387.964 Y347.500
G01 X386.748 Y350.025
G01 X383.630 Y353.909
G01 X377.212 Y359.345
G01 X374.427 Y361.537
G01 X369.384 Y363.316
G01 X360.519 Y362.353
G01 X353.700 Y361.098
G01 X349.086 Y358.349
G01 X343.508 Y353.116
G01 X342.539 Y351.700
G01 X341.942 Y358.019
G01 X343.508 Y363.004
G01 X350.049 Y364.563
G01 X358.992 Y365.835
G01 X368.949 Y367.396
G01 X377.211 Y366.839
G01 X383.891 Y363.423
G01 X388.860 Y357.731
G01 X393.281 Y351.475
G01 X396.686 Y346.760
G01 X398.826 Y339.520
G01 X399.958 Y330.976
G01 X398.040 Y320.790
G01 X397.532 Y318.597
G01 X396.258 Y313.191
G01 X393.408 Y308.484
G01 X387.027 Y302.805
G01 X379.912 Y300.961
G01 X373.220 Y297.824
G01 X365.687 Y296.613
G01 X368.390 Y293.273
G01 X371.519 Y289.573
G01 X373.749 Y285.896
G01 X381.605 Y287.434
G01 X387.295 Y288.994
G01 X394.416 Y293.414
G01 X399.948 Y298.103
G01 X405.212 Y304.944
G01 X408.206 Y312.626
G01 X408.287 Y321.832
G01 X408.216 Y324.432
G01 X407.455 Y333.745
G01 X406.782 Y339.087
G01 X404.078 Y346.777
G01 X400.167 Y354.935
G01 X399.828 Y355.596
G01 X394.670 Y362.979
G01 X393.274 Y364.851
G01 X389.154 Y369.541
G01 X381.457 Y374.646
G01 X380.756 Y375.083
G01 X372.371 Y376.358
G01 X365.121 Y374.952
G01 X359.148 Y373.106
G01 X354.868 Y371.668
G01 X353.169 Y372.818
G01 X351.200 Y379.465
G01 X356.729 Y381.775
G01 X361.706 Y383.767
G01 X368.380 Y384.898
G01 X374.644 Y385.045
G01 X381.462 Y383.483
G01 X386.305 Y381.071
G01 X392.285 Y377.083
G01 X398.406 Y369.995
G01 X398.541 Y369.831
G01 X404.241 Y362.398
G01 X404.635 Y361.855
G01 X407.206 Y352.464
G01 X410.199 Y343.549
G01 X410.345 Y343.073
G01 X412.035 Y333.707
G01 X412.469 Y330.683
G01 X413.005 Y321.204
G01 X413.044 Y319.593
G01 X412.386 Y310.075
G01 X412.193 Y308.219
G01 X408.774 Y298.528
G01 X404.936 Y291.702
G01 X399.684 Y288.576
G01 X392.713 Y283.314
G01 X386.166 Y281.886
G01 X379.491 Y281.322
G01 X378.355 Y280.911
G01 X376.781 Y280.613
G01 X379.610 Y275.913
G01 X382.750 Y271.781
G01 X389.019 Y272.638
G01 X396.818 Y272.779
G01 X405.088 Y275.064
G01 X411.477 Y284.302
G01 X412.198 Y285.441
G01 X415.353 Y294.734
G01 X415.600 Y295.550
G01 X417.730 Y303.234
G01 X418.642 Y312.788
G01 X418.877 Y317.183
G01 X418.719 Y326.911
G01 X418.164 Y335.110
G01 X415.336 Y344.142
G01 X415.311 Y344.218
G01 X412.900 Y353.594
G01 X409.545 Y362.823
G01 X409.477 Y362.994
G01 X408.027 Y374.048
G01 X407.926 Y374.662
G01 X400.649 Y381.415
G01 X398.107 Y383.621
G01 X391.858 Y389.168
G01 X383.041 Y392.019
G01 X376.490 Y394.577
G01 X369.094 Y395.014
G01 X362.833 Y395.153
G01 X357.864 Y392.725
G01 X353.602 Y391.596
G01 X354.596 Y396.583
G01 X356.299 Y400.556
G01 X358.574 Y402.835
G01 X365.979 Y402.699
G01 X374.351 Y402.407
G01 X380.045 Y401.982
G01 X386.453 Y399.419
G01 X393.703 Y396.585
G01 X400.952 Y390.324
G01 X408.060 Y383.626
G01 X412.471 Y375.504
G01 X413.327 Y367.968
G01 X416.490 Y358.234
G01 X418.025 Y352.746
G01 X419.827 Y342.719
G01 X420.286 Y339.504
G01 X421.776 Y329.788
G01 X421.993 Y327.992
G01 X422.413 Y318.193
G01 X422.424 Y317.319
G01 X422.230 Y307.676
G01 X422.154 Y306.215
G01 X421.867 Y299.668
G01 X419.993 Y290.204
G01 X419.158 Y286.732
G01 X415.309 Y277.616
G01 X410.347 Y271.637
G01 X403.076 Y267.515
G01 X397.967 Y265.239
G01 X391.010 Y266.092
G01 X385.872 Y266.952
G01 X385.035 Y266.587
G01 X386.393 Y262.615
G01 X388.481 Y256.323
G01 X394.407 Y256.420
G01 X401.389 Y256.411
G01 X409.212 Y261.119
G01 X414.734 Y265.103
G01 X423.372 Y274.523
G01 X423.698 Y274.908
G01 X425.374 Y284.003
G01 X426.567 Y293.321
G01 X426.632 Y293.979
G01 X426.626 Y301.656
G01 X428.537 Y311.875
G01 X428.821 Y313.764
G01 X428.121 Y322.869
G01 X426.925 Y332.735
G01 X426.628 Y334.674
G01 X426.667 Y345.624
G01 X426.643 Y346.483
G01 X423.453 Y356.110
G01 X422.002 Y360.012
G01 X420.423 Y366.124
G01 X417.024 Y374.675
G01 X413.978 Y385.424
G01 X413.326 Y387.463
G01 X409.067 Y392.445
G01 X404.643 Y398.141
G01 X398.809 Y403.965
G01 X390.443 Y407.671
G01 X384.894 Y410.097
G01 X378.201 Y413.063
G01 X370.663 Y414.085
G01 X364.676 Y413.216
G01 X358.760 Y413.116
G01 X365.691 Y417.780
G01 X369.673 Y424.599
G01 X373.367 Y427.730
G01 X382.466 Y424.333
G01 X389.298 Y422.762
G01 X394.555 Y419.901
G01 X400.815 Y413.792
G01 X407.911 Y408.236
G01 X411.629 Y402.403
G01 X415.452 Y397.419
G01 X419.866 Y387.035
G01 X422.649 Y375.812
G01 X422.985 Y374.235
G01 X426.628 Y364.419
G01 X426.644 Y354.028
G01 X429.961 Y347.340
G01 X431.250 Y338.950
G01 X432.236 Y330.689
G01 X431.819 Y321.029
G01 X432.850 Y311.273
G01 X432.943 Y310.062
G01 X430.681 Y302.666
G01 X429.363 Y292.856
G01 X429.242 Y292.124
G01 X431.075 Y283.275
G01 X431.656 Y279.898
G01 X428.261 Y272.495
G01 X424.984 Y266.661
G01 X422.425 Y262.111
G01 X417.602 Y259.114
G01 X410.043 Y255.848
G01 X401.663 Y251.869
G01 X396.263 Y251.861
G01 X389.871 Y252.857
G01 X389.873 Y249.304
G01 X392.570 Y246.025
G01 X396.821 Y246.024
G01 X406.346 Y245.031
G01 X413.192 Y246.740
G01 X419.024 Y250.579
G01 X428.170 Y259.365
G01 X430.536 Y261.865
G01 X434.200 Y268.728
G01 X436.242 Y276.726
G01 X436.859 Y286.249
G01 X436.929 Y288.365
G01 X436.511 Y297.925
G01 X436.240 Y301.388
G01 X437.649 Y311.834
G01 X437.838 Y313.716
G01 X437.656 Y324.108
G01 X437.606 Y325.155
G01 X437.153 Y332.240
G01 X436.508 Y343.130
G01 X436.483 Y343.423
G01 X433.961 Y352.111
G01 X431.685 Y361.699
G01 X431.001 Y370.151
G01 X430.074 Y376.777
G01 X427.343 Y386.596
G01 X423.949 Y398.132
G01 X423.910 Y398.253
G01 X420.030 Y404.887
G01 X414.575 Y415.405
G01 X414.326 Y415.854
G01 X408.333 Y426.326
G01 X406.332 Y429.555
G01 X398.809 Y430.458
G01 X389.469 Y437.132
G01 X387.838 Y438.228
G01 X389.435 Y444.172
G01 X394.922 Y442.558
G01 X402.231 Y439.150
G01 X410.896 Y430.966
G01 X414.103 Y427.724
G01 X422.281 Y419.119
G01 X422.558 Y418.812
G01 X426.303 Y406.303
G01 X426.439 Y405.790
G01 X431.439 Y397.572
G01 X435.711 Y386.471
G01 X437.154 Y382.267
G01 X438.766 Y372.443
G01 X442.787 Y362.011
G01 X443.538 Y359.870
G01 X442.643 Y348.907
G01 X445.943 Y338.737
G01 X446.510 Y336.797
G01 X444.924 Y325.610
G01 X446.318 Y315.262
G01 X446.757 Y310.762
G01 X446.772 Y300.336
G01 X446.738 Y299.111
G01 X445.504 Y288.723
G01 X445.382 Y287.905
G01 X445.292 Y278.027
G01 X445.147 Y274.665
G01 X440.618 Y264.637
G01 X438.758 Y260.946
G01 X433.369 Y251.621
G01 X431.899 Y249.295
G01 X425.057 Y242.911
G01 X418.199 Y239.934
G01 X412.031 Y238.334
G01 X402.672 Y238.563
G01 X392.722 Y239.265
G01 X392.990 Y235.484
G01 X393.078 Y230.876
G01 X392.986 Y227.310
G01 X399.954 Y226.235
G01 X404.519 Y224.402
G01 X414.330 Y227.600
G01 X428.019 Y230.577
G01 X433.046 Y234.224
G01 X438.097 Y243.059
G01 X439.450 Y245.647
G01 X441.720 Y248.625
G01 X444.913 Y252.130
G01 X446.865 Y261.829
G01 X446.979 Y262.491
G01 X450.442 Y266.862
G01 X451.894 Y277.014
G01 X452.045 Y278.354
G01 X455.048 Y289.119
G01 X455.722 Y291.922
G01 X454.141 Y302.150
G01 X453.420 Y305.953
G01 X455.271 Y314.697
G01 X454.101 Y322.066
G01 X454.014 Y333.507
G01 X453.874 Y336.780
G01 X451.654 Y347.786
G01 X451.591 Y348.058
G01 X450.157 Y359.818
G01 X449.983 Y360.952
G01 X448.355 Y371.292
G01 X445.830 Y383.376
G01 X444.229 Y389.698
G01 X440.330 Y397.510
G01 X436.651 Y405.792
G01 X441.927 Y400.260
G01 X449.342 Y390.854
G01 X450.205 Y389.696
G01 X454.307 Y378.129
G01 X455.943 Y372.896
G01 X458.941 Y363.231
G01 X461.013 Y351.291
G01 X462.424 Y339.424
G01 X463.187 Y327.666
G01 X463.299 Y323.782
G01 X462.940 Y317.888
G01 X462.916 Y306.851
G01 X464.756 Y296.187
G01 X465.500 Y290.647
G01 X462.449 Y279.362
G01 X459.253 Y269.670
G01 X457.377 Y259.263
G01 X456.686 Y256.063
G01 X454.223 Y245.964
G01 X451.273 Y236.121
G01 X450.431 Y233.614
G01 X447.855 Y228.453
G01 X439.025 Y224.407
G01 X431.665 Y221.098
G01 X425.967 Y219.889
G01 X419.025 Y218.286
G01 X411.929 Y218.577
G01 X405.148 Y218.441
G01 X400.352 Y219.448
G01 X395.835 Y220.442
G01 X393.118 Y221.007
G01 X392.850 Y218.300
G01 X391.801 Y216.518
G01 X391.818 Y215.944
G01 X396.471 Y213.710
G01 X402.240 Y211.633
G01 X408.761 Y209.888
G01 X414.553 Y210.189
G01 X433.054 Y213.031
G01 X438.754 Y215.813
G01 X446.460 Y219.750
G01 X452.575 Y225.723
G01 X457.255 Y234.620
G01 X460.596 Y244.737
G01 X461.488 Y247.785
G01 X465.236 Y256.206
G01 X468.099 Y267.027
G01 X468.732 Y269.789
G01 X471.935 Y281.120
G01 X472.488 Y283.359
G01 X472.334 Y294.586
G01 X472.014 Y300.679
G01 X472.289 Y312.362
G01 X472.238 Y316.591
G01 X472.102 Y328.619
G01 X471.765 Y335.078
G01 X468.734 Y346.065
G01 X475.435 Y336.076
G01 X479.483 Y329.457
G01 X480.894 Y323.383
G01 X481.167 Y311.159
G01 X481.140 Y308.386
G01 X481.358 Y302.545
G01 X481.840 Y292.481
G01 X482.300 Y282.411
G01 X480.658 Y274.921
G01 X480.456 Y263.506
G01 X480.191 Y258.550
G01 X475.820 Y247.299
G01 X475.524 Y246.600
G01 X472.433 Y235.709
G01 X472.254 Y235.137
G01 X468.736 Y225.537
G01 X462.186 Y218.067
G01 X458.684 Y213.367
G01 X450.961 Y207.529
G01 X440.663 Y203.084
G01 X432.949 Y201.670
G01 X419.623 Y201.211
G01 X410.032 Y202.615
G01 X396.470 Y205.177
G01 X392.953 Y208.696
G01 X391.781 Y208.696
G01 X389.198 Y204.246
G01 X388.508 Y201.211
G01 X392.718 Y197.698
G01 X399.276 Y194.888
G01 X405.576 Y193.479
G01 X417.049 Y193.252
G01 X432.714 Y189.962
G01 X447.444 Y192.309
G01 X453.302 Y194.658
G01 X461.258 Y200.742
G01 X465.702 Y206.348
G01 X470.362 Y212.678
G01 X476.377 Y223.005
G01 X477.867 Y225.784
G01 X482.449 Y236.786
G01 X485.099 Y244.033
G01 X487.211 Y255.510
G01 X488.102 Y267.248
G01 X488.376 Y275.393
G01 X489.403 Y283.060
G01 X491.460 Y271.337
G01 X492.444 Y264.035
G01 X492.429 Y252.118
G01 X492.227 Y246.663
G01 X491.772 Y234.782
G01 X491.751 Y234.464
G01 X490.563 Y223.900
G01 X487.011 Y212.441
G01 X486.348 Y210.505
G01 X480.940 Y204.393
G01 X472.748 Y195.472
G01 X465.470 Y190.535
G01 X458.184 Y187.722
G01 X446.687 Y183.733
G01 X435.176 Y182.558
G01 X428.610 Y182.327
G01 X417.370 Y185.204
G01 X403.641 Y186.688
G01 X397.807 Y187.443
G01 X390.974 Y190.734
G01 X388.237 Y192.030
G01 X385.120 Y193.258
G01 X383.046 Y194.520
G01 X381.242 Y192.525
G01 X382.019 Y188.657
G01 X385.057 Y186.949
G01 X391.064 Y176.206
G01 X395.996 Y167.283
G01 X408.195 Y157.656
G01 X411.247 Y157.188
G01 X417.809 Y155.323
G01 X420.399 Y159.532
G01 X414.308 Y162.829
G01 X408.895 Y164.475
G01 X403.974 Y159.996
G01 X404.685 Y157.661
G01 X407.960 Y152.266
G01 X416.174 Y150.374
G01 X426.502 Y151.556
G01 X427.902 Y157.908
G01 X424.378 Y161.888
G01 X413.348 Y169.176
G01 X408.421 Y170.110
G01 X402.797 Y167.757
G01 X399.968 Y162.358
G01 X401.139 Y155.312
G01 X403.500 Y146.158
G01 X409.378 Y144.513
G01 X418.054 Y143.329
G01 X431.431 Y144.748
G01 X432.831 Y152.721
G01 X432.181 Y164.258
G01 X432.141 Y164.702
G01 X431.674 Y165.651
G01 X422.740 Y171.055
G01 X412.889 Y176.206
G01 X404.900 Y175.752
G01 X400.220 Y173.395
G01 X396.215 Y167.062
G01 X395.524 Y159.537
G01 X395.816 Y149.111
G01 X395.765 Y145.678
G01 X403.264 Y140.520
G01 X409.374 Y138.640
G01 X427.915 Y136.520
G01 X435.889 Y136.981
G01 X439.167 Y145.679
G01 X441.058 Y156.012
G01 X438.470 Y165.184
G01 X432.367 Y174.573
G01 X422.754 Y178.084
G01 X421.806 Y178.800
G01 X414.526 Y180.444
G01 X400.676 Y182.083
G01 X392.221 Y178.796
G01 X388.056 Y172.185
G01 X387.293 Y171.049
G01 X385.662 Y164.232
G01 X386.309 Y154.149
G01 X386.377 Y150.613
G01 X387.313 Y146.376
G01 X391.752 Y137.933
G01 X394.818 Y134.398
G01 X405.139 Y130.668
G01 X412.188 Y128.543
G01 X421.109 Y127.825
G01 X434.702 Y127.831
G01 X441.979 Y130.420
G01 X447.159 Y137.696
G01 X447.402 Y150.053
G01 X447.385 Y151.326
G01 X446.494 Y163.547
G01 X446.447 Y163.993
G01 X444.575 Y169.159
G01 X440.813 Y178.553
G01 X449.022 Y180.677
G01 X453.964 Y181.372
G01 X455.372 Y175.039
G01 X455.359 Y167.530
G01 X456.067 Y155.325
G01 X456.772 Y143.800
G01 X456.066 Y138.181
G01 X454.900 Y131.598
G01 X447.849 Y124.306
G01 X442.234 Y122.904
G01 X431.886 Y121.498
G01 X419.455 Y120.785
G01 X407.258 Y122.422
G01 X398.338 Y125.012
G01 X390.119 Y129.472
G01 X385.655 Y133.713
G01 X381.448 Y139.109
G01 X379.078 Y148.267
G01 X378.384 Y154.138
G01 X379.378 Y162.945
G01 X379.559 Y165.418
G01 X379.562 Y173.621
G01 X380.738 Y177.850
G01 X382.373 Y182.313
G01 X378.150 Y186.320
G01 X377.690 Y185.126
G01 X374.872 Y179.499
G01 X372.294 Y175.981
G01 X369.927 Y171.518
G01 X364.553 Y170.960
G01 X361.225 Y168.311
G01 X354.117 Y167.364
G01 X347.456 Y167.132
G01 X342.961 Y166.173
G01 X340.118 Y160.479
G01 X341.076 Y156.921
G01 X343.917 Y151.704
G01 X343.921 Y147.905
G01 X342.494 Y145.773
G01 X339.163 Y146.480
G01 X337.752 Y150.757
G01 X340.355 Y155.735
G01 X345.800 Y157.167
G01 X349.606 Y155.030
G01 X351.266 Y151.456
G01 X351.733 Y144.584
G01 X347.707 Y138.268
G01 X346.997 Y137.225
G01 X342.257 Y138.882
G01 X335.143 Y141.492
G01 X329.918 Y149.088
G01 X331.520 Y156.849
G01 X332.049 Y160.253
G01 X335.613 Y161.199
G01 X339.035 Y166.289
G01 X339.415 Y166.890
G01 X346.289 Y164.042
G01 X350.793 Y162.614
G01 X354.100 Y155.978
G01 X358.381 Y149.804
G01 X355.984 Y141.905
G01 X355.526 Y140.566
G01 X350.779 Y136.046
G01 X347.472 Y133.433
G01 X341.775 Y132.968
G01 X335.597 Y134.389
G01 X330.212 Y136.693
G01 X324.958 Y143.144
G01 X325.192 Y149.832
G01 X326.146 Y157.254
G01 X328.985 Y162.889
G01 X330.927 Y167.277
G01 X332.597 Y168.945
G01 X325.433 Y170.144
G01 X318.753 Y173.239
G01 X314.215 Y176.832
G01 X310.389 Y178.030
G01 X312.295 Y172.542
G01 X313.498 Y167.509
G01 X313.731 Y165.611
G01 X315.409 Y166.556
G01 X319.466 Y167.044
G01 X322.810 Y166.316
G01 X323.037 Y165.851
G01 X319.262 Y161.805
G01 X317.562 Y160.109
G01 X316.595 Y159.639
G01 X315.652 Y157.476
G01 X318.744 Y157.248
G01 X320.426 Y157.479
G01 X318.022 Y151.992
G01 X317.562 Y143.853
G01 X317.564 Y143.380
G01 X318.992 Y134.543
G01 X320.184 Y132.867
G01 X325.196 Y130.252
G01 X330.925 Y126.891
G01 X339.040 Y123.554
G01 X347.409 Y125.163
G01 X347.651 Y125.217
G01 X354.573 Y127.848
G01 X359.584 Y129.773
G01 X363.398 Y134.062
G01 X365.548 Y140.051
G01 X365.542 Y147.206
G01 X365.064 Y153.186
G01 X361.255 Y162.728
G01 X359.348 Y164.876
G01 X362.446 Y165.845
G01 X366.034 Y166.552
G01 X367.947 Y167.041
G01 X371.280 Y160.590
G01 X374.151 Y149.588
G01 X374.148 Y143.146
G01 X372.955 Y136.217
G01 X369.848 Y129.292
G01 X366.994 Y125.698
G01 X359.580 Y124.510
G01 X354.085 Y120.685
G01 X346.344 Y118.614
G01 X337.787 Y118.752
G01 X331.181 Y120.579
G01 X336.075 Y115.481
G01 X333.152 Y113.158
G01 X331.691 Y110.134
G01 X327.608 Y103.768
G01 X324.685 Y98.314
G01 X322.300 Y93.520
G01 X321.684 Y88.493
G01 X320.257 Y81.918
G01 X313.082 Y89.233
G01 X311.829 Y91.213
G01 X311.211 Y93.817
G01 X314.237 Y95.497
G01 X318.415 Y97.383
G01 X322.800 Y102.179
G01 X325.421 Y105.527
G01 X326.981 Y111.278
G01 X328.238 Y116.108
G01 X328.579 Y121.350
G01 X325.153 Y122.356
G01 X322.209 Y112.322
G01 X321.103 Y109.127
G01 X314.933 Y104.918
G01 X309.244 Y100.162
G01 X302.742 Y98.360
G01 X301.988 Y95.618
G01 X308.639 Y88.517
G01 X315.004 Y82.764
G01 X318.184 Y74.425
G01 X327.705 Y70.933
G01 X339.541 Y68.594
G01 X344.063 Y67.911
G01 X358.042 Y63.860
G01 X361.294 Y63.073
G01 X377.418 Y58.086
G01 X381.582 Y57.014
G01 X379.393 Y52.514
G01 X375.597 Y54.492
G01 X374.070 Y59.518
G01 X376.807 Y64.258
G01 X380.616 Y66.856
G01 X384.889 Y65.315
G01 X387.627 Y61.804
G01 X389.764 Y54.649
G01 X387.470 Y46.417
G01 X383.648 Y45.350
G01 X373.921 Y44.585
G01 X371.012 Y46.427
G01 X366.134 Y52.662
G01 X366.148 Y62.424
G01 X366.291 Y67.295
G01 X371.763 Y75.235
G01 X381.067 Y75.832
G01 X390.213 Y75.086
G01 X392.802 Y70.499
G01 X396.621 Y59.836
G01 X397.280 Y53.554
G01 X405.148 Y57.679
G01 X406.399 Y58.921
G01 X402.931 Y66.887
G01 X399.104 Y71.867
G01 X396.418 Y75.325
G01 X390.373 Y79.824
G01 X384.253 Y81.556
G01 X377.635 Y82.704
G01 X370.805 Y81.754
G01 X367.666 Y80.212
G01 X362.480 Y74.948
G01 X359.689 Y71.862
G01 X358.735 Y66.119
G01 X357.979 Y57.376
G01 X359.202 Y51.535
G01 X363.536 Y43.561
G01 X367.844 Y39.433
G01 X373.117 Y36.766
G01 X372.168 Y32.829
G01 X366.890 Y30.708
G01 X362.186 Y30.031
G01 X357.481 Y32.146
G01 X347.977 Y43.931
G01 X345.347 Y50.543
G01 X343.977 Y56.404
G01 X343.354 Y67.181
G01 X345.663 Y74.733
G01 X349.037 Y80.746
G01 X352.886 Y86.592
G01 X358.590 Y90.598
G01 X368.601 Y93.048
G01 X370.299 Y93.523
G01 X382.142 Y92.293
G01 X387.378 Y90.146
G01 X393.533 Y86.752
G01 X398.615 Y82.902
G01 X404.465 Y74.425
G01 X409.689 Y66.572
G01 X411.702 Y65.343
G01 X412.165 Y65.783
G01 X407.386 Y75.656
G01 X402.150 Y87.208
G01 X393.841 Y93.075
G01 X385.547 Y98.146
G01 X375.215 Y102.607
G01 X362.594 Y103.458
G01 X361.832 Y103.539
G01 X354.291 Y102.617
G01 X347.356 Y98.452
G01 X343.819 Y88.295
G01 X339.816 Y79.822
G01 X337.664 Y69.958
G01 X337.806 Y63.015
G01 X339.808 Y56.087
G01 X343.188 Y43.009
G01 X346.444 Y33.292
G01 X349.974 Y30.055
G01 X352.581 Y26.518
G01 X341.803 Y30.987
G01 X336.109 Y35.919
G01 X331.484 Y46.239
G01 X329.181 Y59.176
G01 X328.117 Y69.341
G01 X328.263 Y77.361
G01 X328.579 Y85.367
G01 X332.565 Y94.766
G01 X336.882 Y102.165
G01 X342.581 Y108.018
G01 X349.822 Y112.198
G01 X350.275 Y112.476
G01 X360.868 Y112.650
G01 X363.056 Y112.773
G01 X375.265 Y112.317
G01 X377.213 Y112.325
G01 X382.295 Y108.310
G01 X391.692 Y103.237
G01 X400.002 Y97.372
G01 X404.777 Y91.375
G01 X414.622 Y77.979
G01 X416.547 Y74.392
G01 X421.109 Y72.945
G01 X423.521 Y74.287
G01 X425.273 Y79.029
G01 X423.430 Y81.940
G01 X416.838 Y89.906
G01 X413.748 Y93.185
G01 X408.999 Y99.400
G01 X405.394 Y103.374
G01 X402.767 Y106.055
G01 X397.388 Y111.429
G01 X393.303 Y114.349
G01 X388.824 Y116.787
G01 X381.384 Y120.112
G01 X375.439 Y121.674
G01 X369.783 Y122.659
G01 X367.737 Y122.937
G01 X372.618 Y125.386
G01 X374.285 Y128.011
G01 X375.341 Y131.921
G01 X381.486 Y127.145
G01 X384.426 Y123.920
G01 X388.033 Y121.776
G01 X393.559 Y119.030
G01 X398.748 Y114.704
G01 X406.188 Y111.576
G01 X410.491 Y106.785
G01 X417.374 Y100.793
G01 X419.958 Y97.756
G01 X422.852 Y93.945
G01 X425.870 Y91.730
G01 X427.609 Y90.486
G01 X429.628 Y89.256
G01 X432.830 Y89.135
G01 X436.466 Y89.313
G01 X435.355 Y92.167
G01 X431.714 Y97.696
G01 X427.963 Y101.083
G01 X420.454 Y106.640
G01 X414.293 Y111.822
G01 X410.479 Y114.590
G01 X404.186 Y119.266
G01 X404.319 Y119.153
G01 X409.432 Y117.858
G01 X416.331 Y115.392
G01 X423.278 Y115.219
G01 X431.115 Y114.905
G01 X449.818 Y115.693
G01 X449.900 Y115.699
G01 X457.810 Y122.655
G01 X461.660 Y134.181
G01 X461.875 Y134.891
G01 X463.192 Y147.102
G01 X462.639 Y159.951
G01 X462.549 Y161.143
G01 X463.719 Y170.074
G01 X467.792 Y180.049
G01 X476.522 Y189.331
G01 X481.918 Y195.655
G01 X479.327 Y184.239
G01 X476.540 Y174.153
G01 X474.027 Y162.551
G01 X470.917 Y151.013
G01 X470.494 Y149.603
G01 X465.819 Y138.639
G01 X460.597 Y127.892
G01 X457.810 Y122.655
G01 X450.247 Y113.338
G01 X446.979 Y109.591
G01 X441.632 Y98.689
G01 X436.466 Y89.313
G01 X427.194 Y81.463
G01 X426.634 Y81.014
G01 X423.282 Y69.797
G01 X414.232 Y61.511
G01 X404.785 Y53.680
G01 X402.888 Y52.199
G01 X391.655 Y46.862
G01 X390.199 Y46.220
G01 X380.862 Y38.242
G01 X374.290 Y33.085
G01 X362.820 Y28.576
G01 X351.208 Y24.668
G01 X349.894 Y24.265
G01 X342.174 Y22.353
G01 X334.172 Y27.542
G01 X327.271 Y37.274
G01 X321.004 Y46.772
G01 X316.469 Y61.448
G01 X312.384 Y75.490
G01 X305.472 Y85.000
G01 X295.963 Y92.781
G01 X287.996 Y96.019
G01 X280.048 Y96.113
G01 X279.097 Y96.152
G01 X271.986 Y96.997
G01 X264.164 Y99.173
G01 X262.819 Y99.595
G01 X257.214 Y103.553
G01 X251.193 Y111.630
G01 X247.499 Y118.899
G01 X244.493 Y127.098
G01 X239.486 Y138.313
G01 X238.580 Y140.670
G01 X238.495 Y148.601
G01 X239.876 Y154.284
G01 X242.285 Y158.675
G01 X242.887 Y165.398
G01 X243.230 Y171.090
G01 X244.353 Y179.275
G01 X243.574 Y186.072
G01 X242.200 Y192.350
G01 X240.168 Y197.039
G01 X240.046 Y197.358
G01 X237.839 Y199.422
G01 X235.809 Y201.573
G01 X233.960 Y203.797
G01 X233.423 Y204.501
G01 X232.285 Y207.920
G01 X231.439 Y211.335
G01 X230.883 Y214.725
G01 X230.827 Y215.208
G01 X231.862 Y220.600
G01 X232.467 Y222.902
G01 X232.372 Y225.482
G01 X232.484 Y228.002
G01 X232.799 Y230.448
G01 X232.827 Y230.612
G01 X232.326 Y231.917
G01 X231.910 Y233.223
G01 X231.578 Y234.526
G01 X231.330 Y235.820
G01 X231.269 Y236.227
G01 X230.290 Y236.948
G01 X229.339 Y237.731
G01 X228.417 Y238.578
G01 X227.529 Y239.485
G01 X226.680 Y240.453
G01 X226.677 Y240.456
G01 X225.697 Y241.421
G01 X224.757 Y242.460
G01 X223.861 Y243.571
G01 X223.015 Y244.752
G01 X222.223 Y246.001
G01 X221.504 Y247.290
G01 X220.197 Y248.636
G01 X218.956 Y250.104
G01 X217.791 Y251.691
G01 X216.710 Y253.392
G01 X215.720 Y255.203
G01 X214.832 Y257.118
G01 X214.051 Y259.133
G01 X213.729 Y260.096
G01 X211.905 Y262.648
G01 X210.250 Y265.402
G01 X208.779 Y268.346
G01 X207.507 Y271.469
G01 X207.080 Y272.694
G01 X206.458 Y275.833
G01 X206.045 Y279.085
G01 X205.850 Y282.438
G01 X205.882 Y285.876
G01 X206.149 Y289.387
G01 X206.267 Y290.382
G01 X206.856 Y293.951
G01 X207.694 Y297.556
G01 X208.338 Y299.795
G01 X207.259 Y306.500
G01 X206.748 Y313.420
G01 X206.820 Y320.515
G01 X207.492 Y327.743
G01 X207.932 Y330.664
G01 X208.384 Y340.354
G01 X209.693 Y350.175
G01 X209.734 Y350.401
G01 X210.892 Y363.315
G01 X211.974 Y370.151
G01 X207.412 Y382.262
G01 X204.410 Y391.197
G01 X200.161 Y399.986
G01 X199.711 Y406.178
G01 X200.781 Y410.524
G01 X202.457 Y415.637
G01 X205.556 Y421.045
G01 X208.478 Y425.659
G01 X211.934 Y428.230
G01 X214.938 Y429.202
G01 X218.806 Y431.057
G01 X221.144 Y433.571
G01 X223.550 Y434.337
G01 X224.993 Y437.464
G01 X226.337 Y442.652
G01 X226.496 Y447.733
G01 X226.494 Y451.005
G01 X226.439 Y453.415
G01 X223.723 Y454.468
G01 X221.707 Y453.694
G01 X221.495 Y450.509
G01 X221.594 Y446.432
G01 X220.937 Y442.670
G01 X219.823 Y440.981
G01 X215.422 Y437.869
G01 X213.184 Y436.679
G01 X208.228 Y435.915
G01 X205.383 Y434.790
G01 X203.046 Y431.603
G01 X201.541 Y426.597
G01 X201.053 Y424.204
G01 X200.479 Y423.314
G01 X200.323 Y427.894
G01 X199.869 Y432.904
G01 X199.705 Y435.244
G01 X201.158 Y439.920
G01 X205.113 Y442.999
G01 X208.182 Y443.713
G01 X212.800 Y446.052
G01 X214.810 Y447.515
G01 X216.299 Y451.501
G01 X216.352 Y454.576
G01 X216.133 Y455.528
G01 X215.854 Y460.498
G01 X217.641 Y463.360
G01 X220.203 Y465.474
G01 X227.729 Y467.337
G01 X237.377 Y468.085
G01 X245.152 Y469.196
G01 X251.993 Y469.341
G01 X262.738 Y468.716
G01 X264.247 Y468.586
G01 X273.052 Y464.440
G01 X277.701 Y461.746
G01 X287.238 Y467.866
G01 X298.722 Y469.558
G01 X298.725 Y469.558
G01 X309.968 Y468.831
G01 X309.971 Y468.831
G01 X320.028 Y463.768
G01 X324.148 Y461.504
G01 X325.852 Y451.710
G01 X329.211 Y462.251
G01 X330.585 Y467.795
G01 X332.725 Y472.894
G01 X338.114 Y476.247
G01 X327.269 Y481.384
G01 X324.569 Y482.562
G01 X312.803 Y484.947
G01 X312.271 Y485.041
G01 X306.896 Y486.400
G01 X296.738 Y488.412
G01 X285.037 Y490.783
G01 X273.215 Y492.580
G01 X268.001 Y493.185
G01 X256.058 Y494.263
G01 X247.794 Y494.665
G01 X235.775 Y494.557
G01 X232.539 Y494.427
G01 X220.740 Y491.844
G01 X219.261 Y491.476
G01 X208.417 Y489.492
G01 X203.501 Y486.777
G01 X210.645 Y483.583
G01 X220.739 Y482.844
G01 X232.295 Y482.733
G01 X235.744 Y482.589
G01 X244.862 Y483.343
G01 X256.332 Y483.817
G01 X262.566 Y483.838
G01 X270.706 Y482.605
G01 X282.022 Y480.787
G01 X288.902 Y479.400
G01 X297.766 Y479.405
G01 X309.386 Y478.402
G01 X310.455 Y478.281
G01 X321.593 Y475.069
G01 X328.165 Y472.892
G01 X323.450 Y468.431
G01 X316.754 Y472.894
G01 X306.105 Y472.897
G01 X294.809 Y473.928
G01 X288.217 Y474.267
G01 X277.207 Y474.533
G01 X266.141 Y475.376
G01 X260.946 Y475.585
G01 X249.864 Y475.831
G01 X246.158 Y475.792
G01 X238.330 Y476.775
G01 X231.387 Y475.609
G01 X220.235 Y475.210
G01 X216.982 Y474.990
G01 X208.853 Y471.078
G01 X208.551 Y466.086
G01 X208.228 Y456.263
G01 X205.750 Y451.268
G01 X200.754 Y449.409
G01 X197.637 Y445.018
G01 X196.539 Y437.528
G01 X190.724 Y424.878
G01 X189.582 Y422.050
G01 X191.077 Y411.513
G01 X191.077 Y408.262
G01 X186.293 Y406.668
G01 X178.669 Y404.751
G01 X173.159 Y405.166
G01 X168.698 Y406.237
G01 X163.187 Y408.566
G01 X156.401 Y413.015
G01 X153.855 Y414.313
G01 X150.475 Y414.717
G01 X151.093 Y410.702
G01 X147.698 Y409.424
G01 X144.112 Y410.911
G01 X143.042 Y415.585
G01 X144.529 Y420.870
G01 X148.561 Y423.004
G01 X154.287 Y423.215
G01 X158.103 Y420.882
G01 X158.954 Y416.851
G01 X159.400 Y412.156
G01 X159.100 Y407.039
G01 X157.501 Y404.939
G01 X155.898 Y402.827
G01 X152.025 Y401.744
G01 X147.921 Y401.402
G01 X143.648 Y401.741
G01 X138.349 Y404.845
G01 X134.316 Y407.630
G01 X133.462 Y412.169
G01 X133.977 Y417.277
G01 X135.164 Y421.654
G01 X136.761 Y425.694
G01 X139.522 Y429.061
G01 X142.197 Y430.655
G01 X145.984 Y430.990
G01 X149.002 Y431.576
G01 X155.220 Y430.899
G01 X158.669 Y428.463
G01 X162.617 Y425.527
G01 X163.536 Y423.331
G01 X165.059 Y420.151
G01 X165.804 Y416.693
G01 X166.822 Y413.257
G01 X167.153 Y410.223
G01 X165.936 Y407.409
G01 X164.626 Y403.849
G01 X162.703 Y401.758
G01 X160.108 Y397.871
G01 X156.411 Y393.593
G01 X151.782 Y393.931
G01 X146.487 Y392.835
G01 X142.200 Y393.431
G01 X136.298 Y395.776
G01 X133.774 Y397.546
G01 X130.130 Y401.422
G01 X127.183 Y405.816
G01 X125.754 Y410.283
G01 X125.086 Y415.751
G01 X125.586 Y421.747
G01 X127.101 Y426.136
G01 X128.377 Y429.924
G01 X130.566 Y433.208
G01 X133.091 Y436.012
G01 X136.806 Y438.616
G01 X141.517 Y439.552
G01 X147.334 Y440.723
G01 X152.489 Y439.790
G01 X157.051 Y439.118
G01 X161.032 Y436.739
G01 X165.266 Y434.800
G01 X168.479 Y429.973
G01 X170.591 Y425.825
G01 X172.671 Y418.338
G01 X174.018 Y411.852
G01 X173.500 Y405.139
G01 X172.655 Y400.206
G01 X169.277 Y395.880
G01 X163.059 Y390.382
G01 X161.565 Y388.973
G01 X154.280 Y385.276
G01 X153.852 Y385.044
G01 X146.546 Y385.716
G01 X138.700 Y387.209
G01 X133.284 Y390.038
G01 X125.309 Y398.033
G01 X121.517 Y407.521
G01 X118.261 Y419.563
G01 X119.616 Y428.781
G01 X121.923 Y439.473
G01 X126.389 Y445.026
G01 X136.266 Y448.818
G01 X143.427 Y449.748
G01 X154.922 Y448.948
G01 X164.813 Y444.869
G01 X171.301 Y437.965
G01 X174.550 Y433.493
G01 X180.364 Y424.439
G01 X181.737 Y418.066
G01 X184.032 Y411.442
G01 X185.281 Y406.415
G01 X185.644 Y401.280
G01 X188.493 Y405.476
G01 X191.077 Y411.513
G01 X189.582 Y422.050
G01 X185.388 Y433.640
G01 X178.473 Y444.729
G01 X175.095 Y448.272
G01 X164.942 Y454.761
G01 X151.023 Y458.720
G01 X150.062 Y458.956
G01 X138.692 Y458.272
G01 X131.926 Y456.934
G01 X123.678 Y453.418
G01 X119.472 Y453.008
G01 X118.258 Y458.963
G01 X124.493 Y461.139
G01 X133.431 Y463.016
G01 X144.913 Y464.518
G01 X151.425 Y464.647
G01 X157.501 Y463.280
G01 X167.516 Y460.034
G01 X173.473 Y455.167
G01 X182.276 Y449.203
G01 X188.761 Y441.496
G01 X190.892 Y438.133
G01 X192.384 Y449.679
G01 X196.998 Y454.570
G01 X201.615 Y459.177
G01 X203.926 Y467.320
G01 X204.878 Y476.295
G01 X207.054 Y479.975
G01 X196.046 Y484.857
G01 X197.407 Y489.212
G01 X188.463 Y486.345
G01 X197.264 Y476.851
G01 X196.999 Y466.661
G01 X192.660 Y461.360
G01 X189.394 Y453.752
G01 X186.146 Y452.391
G01 X188.995 Y465.299
G01 X190.343 Y470.860
G01 X185.866 Y478.339
G01 X177.732 Y485.276
G01 X176.637 Y476.437
G01 X180.703 Y472.902
G01 X182.738 Y467.198
G01 X182.073 Y462.849
G01 X179.761 Y457.008
G01 X175.421 Y463.261
G01 X172.421 Y472.911
G01 X168.907 Y477.929
G01 X165.492 Y479.431
G01 X163.886 Y476.160
G01 X167.004 Y465.441
G01 X167.265 Y463.934
G01 X157.369 Y468.962
G01 X152.184 Y472.908
G01 X145.553 Y472.891
G01 X141.206 Y469.910
G01 X131.255 Y463.037
G01 X123.868 Y457.438
G01 X113.059 Y452.154
G01 X111.684 Y451.434
G01 X116.886 Y448.288
G01 X117.722 Y439.255
G01 X115.124 Y431.185
G01 X112.648 Y424.759
G01 X113.071 Y414.490
G01 X116.213 Y403.274
G01 X122.099 Y392.055
G01 X113.209 Y400.531
G01 X110.884 Y408.610
G01 X107.462 Y423.121
G01 X108.007 Y436.120
G01 X109.089 Y443.908
G01 X105.827 Y449.108
G01 X95.921 Y442.181
G01 X95.839 Y442.121
G01 X93.527 Y439.659
G01 X91.460 Y432.406
G01 X101.723 Y435.015
G01 X99.794 Y421.462
G01 X102.522 Y411.154
G01 X106.670 Y402.591
G01 X109.780 Y397.584
G01 X114.420 Y391.195
G01 X120.654 Y386.604
G01 X127.983 Y382.638
G01 X137.488 Y382.631
G01 X142.825 Y381.638
G01 X147.110 Y380.777
G01 X151.577 Y380.275
G01 X155.057 Y380.707
G01 X158.477 Y382.577
G01 X162.007 Y385.274
G01 X163.901 Y387.845
G01 X168.142 Y390.347
G01 X172.310 Y393.465
G01 X175.347 Y395.659
G01 X178.578 Y399.988
G01 X182.751 Y398.426
G01 X186.921 Y399.649
G01 X194.731 Y399.911
G01 X202.868 Y400.167
G01 X202.919 Y400.168
G01 X208.489 Y399.053
G01 X216.673 Y397.287
G01 X220.028 Y396.414
G01 X226.144 Y393.075
G01 X232.667 Y389.049
G01 X239.838 Y385.372
G01 X240.914 Y384.769
G01 X247.557 Y384.033
G01 X249.851 Y383.700
G01 X256.315 Y381.545
G01 X259.376 Y380.388
G01 X264.675 Y380.025
G01 X269.959 Y379.875
G01 X274.340 Y380.220
G01 X279.342 Y380.671
G01 X284.051 Y381.281
G01 X288.154 Y382.491
G01 X293.296 Y383.741
G01 X295.433 Y384.799
G01 X299.073 Y385.407
G01 X300.570 Y386.296
G01 X295.870 Y384.625
G01 X290.856 Y383.121
G01 X284.572 Y381.662
G01 X280.843 Y380.094
G01 X274.553 Y380.205
G01 X269.708 Y379.711
G01 X263.644 Y380.112
G01 X257.488 Y380.110
G01 X251.785 Y381.388
G01 X257.344 Y377.839
G01 X261.047 Y372.980
G01 X266.890 Y371.018
G01 X267.747 Y370.702
G01 X272.596 Y370.423
G01 X278.901 Y370.939
G01 X280.148 Y371.001
G01 X284.703 Y371.699
G01 X289.547 Y372.999
G01 X293.321 Y373.100
G01 X299.086 Y371.699
G01 X306.557 Y372.518
G01 X306.929 Y372.547
G01 X313.478 Y373.406
G01 X318.910 Y375.843
G01 X323.461 Y378.395
G01 X325.882 Y380.982
G01 X319.187 Y376.831
G01 X310.783 Y374.561
G01 X305.924 Y372.267
G01 X298.623 Y371.772
G01 X296.528 Y371.549
G01 X289.570 Y370.821
G01 X285.984 Y370.283
G01 X279.705 Y370.550
G01 X277.441 Y370.567
G01 X271.315 Y370.769
G01 X266.603 Y370.714
G01 X262.611 Y370.844
G01 X268.302 Y368.630
G01 X272.014 Y366.997
G01 X277.718 Y366.138
G01 X283.370 Y364.590
G01 X283.417 Y364.576
G01 X289.424 Y364.029
G01 X290.690 Y363.874
G01 X297.272 Y364.262
G01 X299.094 Y364.303
G01 X304.933 Y365.281
G01 X308.917 Y366.135
G01 X314.626 Y369.721
G01 X309.213 Y366.573
G01 X303.372 Y366.012
G01 X295.617 Y363.518
G01 X295.384 Y363.433
G01 X290.548 Y362.729
G01 X284.731 Y363.806
G01 X281.418 Y364.285
G01 X275.549 Y364.683
G01 X274.868 Y364.710
G01 X269.246 Y366.014
G01 X268.599 Y366.145
G01 X270.736 Y362.302
G01 X276.208 Y361.093
G01 X280.278 Y360.009
G01 X285.803 Y358.886
G01 X287.687 Y358.438
G01 X293.394 Y358.871
G01 X299.861 Y359.187
G01 X305.366 Y359.162
G01 X311.635 Y360.297
G01 X319.180 Y362.713
G01 X328.779 Y365.278
G01 X335.339 Y366.143
G01 X343.477 Y366.287
G01 X353.070 Y366.064
G01 X354.161 Y365.997
G01 X362.038 Y363.080
G01 X365.543 Y361.616
G01 X374.479 Y358.962
G01 X376.431 Y358.301
G01 X384.775 Y356.581
G01 X394.274 Y353.699
G01 X402.191 Y354.122
G01 X408.382 Y353.543
G01 X394.274 Y353.656
G01 X386.507 Y355.706
G01 X378.698 Y357.635
G01 X372.245 Y359.887
G01 X364.481 Y361.992
G01 X355.949 Y364.346
G01 X347.469 Y366.140
G01 X345.403 Y366.495
G01 X336.393 Y366.740
G01 X329.205 Y366.501
G01 X323.070 Y363.278
G01 X313.924 Y360.669
G01 X312.996 Y360.361
G01 X309.059 Y359.487
G01 X305.115 Y355.354
G01 X298.123 Y354.132
G01 X295.372 Y353.518
G01 X289.858 Y354.621
G01 X289.182 Y354.736
G01 X284.270 Y355.498
G01 X278.981 Y356.791
G01 X274.005 Y357.759
G01 X268.942 Y360.286
G01 X267.302 Y361.035
G01 X261.975 Y363.084
G01 X261.432 Y363.275
G01 X256.585 Y370.070
G01 X251.466 Y373.341
G01 X246.162 Y374.916
G01 X241.394 Y378.813
G01 X235.181 Y382.096
G01 X228.878 Y386.146
G01 X222.386 Y388.779
G01 X216.363 Y391.044
G01 X208.868 Y393.626
G01 X202.815 Y394.701
G01 X194.821 Y394.705
G01 X194.802 Y394.705
G01 X186.794 Y394.042
G01 X182.885 Y393.561
G01 X176.799 Y391.879
G01 X172.384 Y387.622
G01 X166.908 Y383.357
G01 X162.949 Y379.393
G01 X158.532 Y375.289
G01 X153.515 Y373.473
G01 X143.336 Y373.495
G01 X142.829 Y373.478
G01 X127.666 Y377.710
G01 X124.808 Y378.357
G01 X118.722 Y382.752
G01 X108.266 Y390.291
G01 X103.387 Y396.872
G01 X96.339 Y408.559
G01 X93.167 Y418.783
G01 X85.369 Y431.714
G01 X81.732 Y427.318
G01 X83.417 Y418.791
G01 X88.301 Y407.102
G01 X93.397 Y400.035
G01 X99.739 Y391.756
G01 X106.547 Y382.010
G01 X113.845 Y379.093
G01 X129.688 Y373.478
G01 X140.389 Y366.179
G01 X149.666 Y367.389
G01 X152.567 Y367.641
G01 X159.687 Y370.636
G01 X160.112 Y370.801
G01 X165.459 Y375.688
G01 X171.669 Y379.784
G01 X174.949 Y381.777
G01 X181.799 Y384.722
G01 X184.213 Y385.665
G01 X191.478 Y387.486
G01 X193.215 Y387.863
G01 X200.153 Y390.190
G01 X201.023 Y390.456
G01 X208.804 Y389.871
G01 X211.507 Y389.564
G01 X218.231 Y386.040
G01 X224.638 Y381.934
G01 X231.855 Y377.994
G01 X235.043 Y376.041
G01 X241.504 Y372.884
G01 X245.099 Y370.901
G01 X251.004 Y367.141
G01 X251.955 Y366.484
G01 X257.426 Y362.572
G01 X258.092 Y362.058
G01 X263.250 Y358.813
G01 X267.651 Y355.686
G01 X262.702 Y358.636
G01 X257.506 Y361.349
G01 X252.701 Y363.543
G01 X247.019 Y367.794
G01 X244.608 Y369.428
G01 X238.277 Y374.079
G01 X235.298 Y376.045
G01 X228.419 Y379.446
G01 X226.707 Y380.208
G01 X219.604 Y382.138
G01 X218.376 Y382.426
G01 X210.682 Y384.951
G01 X208.329 Y385.617
G01 X202.442 Y385.125
G01 X195.966 Y382.392
G01 X192.389 Y380.718
G01 X198.529 Y380.947
G01 X205.765 Y381.097
G01 X211.279 Y380.945
G01 X217.641 Y378.978
G01 X225.271 Y374.076
G01 X228.670 Y371.619
G01 X235.008 Y369.765
G01 X235.289 Y369.674
G01 X241.530 Y365.458
G01 X243.134 Y364.269
G01 X248.785 Y361.191
G01 X250.976 Y359.871
G01 X256.306 Y358.645
G01 X259.072 Y357.894
G01 X264.197 Y356.137
G01 X269.172 Y354.140
G01 X273.777 Y352.016
G01 X278.977 Y351.508
G01 X284.184 Y350.733
G01 X285.300 Y350.532
G01 X290.945 Y350.530
G01 X296.672 Y350.212
G01 X300.007 Y349.881
G01 X306.328 Y349.933
G01 X308.156 Y349.877
G01 X313.085 Y352.667
G01 X317.232 Y356.505
G01 X322.450 Y358.962
G01 X329.067 Y362.340
G01 X338.017 Y362.855
G01 X343.194 Y362.874
G01 X348.102 Y362.877
G01 X353.798 Y361.826
G01 X358.041 Y360.757
G01 X349.351 Y362.390
G01 X348.012 Y362.591
G01 X340.780 Y362.103
G01 X336.723 Y361.239
G01 X332.303 Y360.085
G01 X327.853 Y357.864
G01 X325.445 Y356.604
G01 X321.114 Y353.528
G01 X318.601 Y352.063
G01 X314.558 Y349.579
G01 X308.583 Y346.482
G01 X303.373 Y343.199
G01 X304.126 Y343.342
G01 X298.529 Y344.041
G01 X292.996 Y344.419
G01 X292.870 Y344.424
G01 X287.923 Y345.752
G01 X282.950 Y346.824
G01 X280.835 Y347.201
G01 X275.803 Y347.742
G01 X271.889 Y347.985
G01 X267.148 Y349.483
G01 X266.492 Y349.670
G01 X261.700 Y351.385
G01 X258.777 Y352.299
G01 X253.790 Y353.809
G01 X253.068 Y354.005
G01 X252.602 Y353.717
G01 X255.885 Y352.081
G01 X260.257 Y348.568
G01 X262.132 Y347.347
G01 X264.320 Y346.190
G01 X268.499 Y344.914
G01 X273.170 Y344.039
G01 X273.900 Y343.880
G01 X277.302 Y343.469
G01 X277.908 Y342.481
G01 X282.906 Y342.386
G01 X284.375 Y342.307
G01 X288.550 Y342.054
G01 X292.263 Y340.906
G01 X297.382 Y340.070
G01 X297.728 Y340.003
G01 X302.270 Y339.997
G01 X309.090 Y341.325
G01 X312.668 Y343.640
G01 X315.163 Y345.272
G01 X318.550 Y347.211
G01 X325.852 Y349.513
G01 X320.928 Y347.754
G01 X316.637 Y345.896
G01 X313.508 Y341.707
G01 X307.969 Y340.442
G01 X303.482 Y338.202
G01 X298.324 Y337.520
G01 X292.689 Y337.168
G01 X291.198 Y337.015
G01 X286.108 Y337.074
G01 X284.386 Y337.028
G01 X279.857 Y337.971
G01 X275.326 Y338.679
G01 X270.999 Y340.052
G01 X269.965 Y340.345
G01 X265.634 Y341.959
G01 X262.131 Y343.088
G01 X257.696 Y345.397
G01 X253.551 Y347.285
G01 X249.657 Y350.574
G01 X247.007 Y348.379
G01 X251.790 Y345.859
G01 X255.890 Y343.389
G01 X260.233 Y340.926
G01 X264.349 Y338.266
G01 X266.342 Y336.851
G01 X270.441 Y335.350
G01 X274.283 Y333.725
G01 X278.668 Y333.322
G01 X283.071 Y332.688
G01 X287.376 Y331.845
G01 X292.594 Y332.322
G01 X296.103 Y332.462
G01 X302.344 Y333.700
G01 X302.502 Y333.726
G01 X309.966 Y335.950
G01 X313.710 Y336.835
G01 X317.301 Y339.962
G01 X311.536 Y336.217
G01 X304.677 Y333.878
G01 X298.086 Y332.333
G01 X296.880 Y331.994
G01 X291.754 Y332.138
G01 X286.730 Y331.981
G01 X281.928 Y331.547
G01 X277.404 Y331.573
G01 X275.998 Y331.530
G01 X271.922 Y332.541
G01 X267.810 Y333.348
G01 X266.494 Y333.563
G01 X263.062 Y335.736
G01 X258.962 Y337.473
G01 X257.766 Y337.933
G01 X253.525 Y340.337
G01 X249.066 Y342.532
G01 X248.878 Y342.618
G01 X244.055 Y347.013
G01 X238.799 Y351.147
G01 X237.458 Y352.108
G01 X231.375 Y357.663
G01 X225.474 Y362.303
G01 X218.829 Y365.271
G01 X214.378 Y366.971
G01 X208.149 Y366.566
G01 X202.384 Y365.900
G01 X196.440 Y364.093
G01 X192.370 Y362.666
G01 X188.380 Y361.992
G01 X181.809 Y360.699
G01 X175.220 Y359.027
G01 X168.634 Y356.970
G01 X162.073 Y354.526
G01 X160.030 Y353.681
G01 X152.947 Y351.338
G01 X150.020 Y350.237
G01 X136.767 Y352.893
G01 X131.110 Y353.683
G01 X118.328 Y362.327
G01 X108.621 Y365.168
G01 X100.622 Y369.267
G01 X93.493 Y373.556
G01 X84.540 Y384.015
G01 X93.820 Y389.732
G01 X93.860 Y389.755
G01 X97.777 Y386.222
G01 X100.634 Y381.078
G01 X106.328 Y377.179
G01 X111.868 Y373.364
G01 X118.138 Y369.939
G01 X126.255 Y365.137
G01 X133.979 Y362.273
G01 X146.576 Y360.261
G01 X154.602 Y361.413
G01 X161.330 Y364.480
G01 X164.329 Y365.712
G01 X170.004 Y369.936
G01 X171.770 Y371.165
G01 X177.607 Y375.207
G01 X179.778 Y376.604
G01 X185.492 Y381.081
G01 X188.204 Y383.049
G01 X195.002 Y385.441
G01 X200.058 Y386.980
G01 X195.328 Y384.757
G01 X190.001 Y381.097
G01 X187.082 Y378.080
G01 X181.737 Y373.888
G01 X189.277 Y373.894
G01 X196.173 Y374.996
G01 X198.793 Y375.317
G01 X204.006 Y375.140
G01 X211.187 Y374.096
G01 X215.854 Y373.180
G01 X222.812 Y370.830
G01 X223.753 Y370.474
G01 X230.736 Y365.389
G01 X232.011 Y364.369
G01 X237.964 Y362.130
G01 X242.303 Y360.232
G01 X247.813 Y355.992
G01 X248.768 Y355.193
G01 X253.766 Y350.715
G01 X255.583 Y348.918
G01 X260.117 Y345.568
G01 X264.337 Y342.019
G01 X265.822 Y340.655
G01 X270.425 Y340.543
G01 X274.255 Y340.273
G01 X278.837 Y339.539
G01 X282.163 Y338.858
G01 X277.742 Y340.259
G01 X273.262 Y341.440
G01 X268.732 Y342.399
G01 X268.516 Y342.439
G01 X264.101 Y344.197
G01 X259.559 Y345.741
G01 X257.377 Y346.393
G01 X252.749 Y350.682
G01 X248.761 Y353.943
G01 X243.480 Y356.749
G01 X240.681 Y358.074
G01 X235.113 Y359.517
G01 X235.112 Y359.518
G01 X228.950 Y362.984
G01 X225.063 Y364.900
G01 X218.408 Y367.434
G01 X215.181 Y368.490
G01 X208.319 Y369.768
G01 X201.364 Y370.640
G01 X194.522 Y370.236
G01 X193.102 Y370.104
G01 X186.497 Y368.627
G01 X185.917 Y368.480
G01 X179.171 Y366.857
G01 X172.433 Y364.854
G01 X169.390 Y363.822
G01 X165.811 Y362.202
G01 X159.743 Y358.736
G01 X156.100 Y356.455
G01 X156.112 Y356.099
G01 X164.005 Y357.365
G01 X168.858 Y357.894
G01 X173.684 Y362.581
G01 X174.252 Y363.103
G01 X181.691 Y363.691
G01 X189.001 Y363.830
G01 X189.505 Y363.823
G01 X196.685 Y361.676
G01 X203.642 Y360.779
G01 X210.380 Y359.477
G01 X213.206 Y358.797
G01 X219.424 Y357.534
G01 X223.620 Y356.455
G01 X230.053 Y351.621
G01 X231.163 Y350.703
G01 X235.654 Y346.742
G01 X240.499 Y342.262
G01 X245.219 Y339.230
G01 X246.790 Y338.117
G01 X251.085 Y335.623
G01 X253.070 Y334.344
G01 X256.665 Y333.459
G01 X260.657 Y332.300
G01 X262.050 Y331.843
G01 X265.817 Y329.969
G01 X268.876 Y328.256
G01 X272.891 Y327.910
G01 X275.877 Y327.520
G01 X280.501 Y328.343
G01 X282.524 Y328.613
G01 X278.006 Y328.374
G01 X273.591 Y327.885
G01 X272.465 Y327.718
G01 X268.510 Y327.521
G01 X264.521 Y327.467
G01 X260.582 Y327.211
G01 X258.455 Y326.987
G01 X254.703 Y327.909
G01 X250.882 Y328.647
G01 X247.505 Y329.136
G01 X243.354 Y332.276
G01 X239.960 Y334.531
G01 X234.787 Y340.082
G01 X234.574 Y340.292
G01 X230.802 Y343.168
G01 X225.670 Y344.378
G01 X222.548 Y344.962
G01 X220.027 Y342.989
G01 X224.699 Y340.116
G01 X226.680 Y339.564
G01 X232.054 Y336.040
G01 X234.577 Y334.174
G01 X239.676 Y327.680
G01 X239.784 Y327.530
G01 X243.720 Y326.481
G01 X247.528 Y325.236
G01 X249.118 Y324.645
G01 X252.782 Y324.598
G01 X255.228 Y324.467
G01 X251.567 Y324.592
G01 X247.906 Y324.537
G01 X246.429 Y324.464
G01 X242.762 Y324.385
G01 X239.093 Y324.125
G01 X235.433 Y323.683
G01 X231.790 Y323.061
G01 X231.705 Y323.044
G01 X228.172 Y321.962
G01 X224.701 Y320.711
G01 X224.699 Y320.710
G01 X221.328 Y319.221
G01 X218.041 Y317.571
G01 X217.164 Y317.096
G01 X214.034 Y315.183
G01 X212.856 Y314.407
G01 X209.941 Y312.195
G01 X207.642 Y310.281
G01 X206.206 Y309.028
G01 X203.951 Y306.090
G01 X201.893 Y303.099
G01 X197.715 Y302.305
G01 X197.226 Y302.195
G01 X193.277 Y300.844
G01 X192.568 Y300.573
G01 X194.649 Y303.787
G01 X196.908 Y306.917
G01 X197.416 Y307.576
G01 X200.330 Y310.056
G01 X203.360 Y312.389
G01 X204.948 Y313.520
G01 X207.377 Y316.817
G01 X209.073 Y318.913
G01 X212.406 Y321.023
G01 X215.848 Y322.972
G01 X219.390 Y324.753
G01 X223.025 Y326.362
G01 X223.262 Y326.459
G01 X227.197 Y327.168
G01 X229.903 Y327.538
G01 X233.883 Y327.702
G01 X234.578 Y327.709
G01 X229.608 Y331.560
G01 X224.226 Y335.098
G01 X223.984 Y335.243
G01 X218.996 Y336.190
G01 X215.365 Y336.687
G01 X211.187 Y334.807
G01 X207.111 Y332.727
G01 X205.496 Y331.831
G01 X202.602 Y327.797
G01 X201.714 Y326.453
G01 X198.402 Y323.448
G01 X195.269 Y320.304
G01 X192.937 Y317.745
G01 X189.707 Y314.837
G01 X188.584 Y313.755
G01 X185.561 Y310.635
G01 X183.508 Y308.328
G01 X176.860 Y308.064
G01 X170.087 Y307.281
G01 X170.014 Y307.270
G01 X160.345 Y307.757
G01 X158.624 Y307.758
G01 X154.493 Y310.999
G01 X150.790 Y311.783
G01 X146.837 Y312.512
G01 X142.802 Y312.922
G01 X132.026 Y313.546
G01 X126.017 Y312.509
G01 X118.714 Y313.416
G01 X110.629 Y311.286
G01 X105.398 Y311.851
G01 X99.165 Y312.705
G01 X97.188 Y320.043
G01 X99.986 Y326.293
G01 X108.796 Y326.405
G01 X116.464 Y324.166
G01 X126.108 Y326.058
G01 X130.446 Y324.138
G01 X139.396 Y325.471
G01 X151.954 Y322.223
G01 X157.014 Y319.143
G01 X163.138 Y315.184
G01 X170.479 Y316.016
G01 X177.682 Y316.293
G01 X180.256 Y316.259
G01 X184.464 Y318.687
G01 X187.455 Y320.239
G01 X189.981 Y324.459
G01 X192.773 Y328.597
G01 X195.828 Y332.638
G01 X197.184 Y334.296
G01 X200.431 Y336.994
G01 X205.315 Y338.225
G01 X209.077 Y338.992
G01 X214.132 Y339.303
G01 X216.285 Y339.351
G01 X219.350 Y338.439
G01 X224.388 Y337.573
G01 X224.581 Y337.534
G01 X228.179 Y335.381
G01 X231.425 Y333.022
G01 X235.023 Y331.053
G01 X236.650 Y329.968
G01 X233.228 Y335.725
G01 X226.558 Y344.923
G01 X222.593 Y348.716
G01 X215.944 Y352.802
G01 X211.429 Y355.202
G01 X205.028 Y356.219
G01 X198.438 Y356.854
G01 X195.576 Y357.005
G01 X188.724 Y357.917
G01 X182.866 Y355.783
G01 X177.071 Y353.332
G01 X176.834 Y353.224
G01 X170.462 Y351.286
G01 X170.344 Y351.246
G01 X164.211 Y348.902
G01 X159.168 Y345.469
G01 X157.190 Y343.123
G01 X153.411 Y341.140
G01 X145.129 Y339.700
G01 X135.928 Y340.240
G01 X128.544 Y344.396
G01 X119.344 Y351.420
G01 X116.493 Y356.770
G01 X112.280 Y360.388
G01 X104.743 Y361.225
G01 X99.632 Y364.377
G01 X91.486 Y364.385
G01 X85.170 Y366.726
G01 X83.169 Y361.481
G01 X86.049 Y359.130
G01 X95.648 Y356.230
G01 X103.967 Y352.605
G01 X113.359 Y345.925
G01 X119.225 Y345.486
G01 X129.810 Y339.745
G01 X139.315 Y336.540
G01 X151.009 Y335.546
G01 X154.396 Y335.074
G01 X159.977 Y338.394
G01 X161.818 Y339.404
G01 X166.552 Y343.354
G01 X170.136 Y346.095
G01 X175.668 Y348.939
G01 X181.285 Y351.473
G01 X186.970 Y353.697
G01 X188.163 Y354.122
G01 X194.912 Y354.073
G01 X197.351 Y353.952
G01 X203.945 Y353.206
G01 X205.358 Y352.991
G01 X211.801 Y351.507
G01 X217.988 Y349.647
G01 X218.287 Y349.545
G01 X223.952 Y348.184
G01 X226.580 Y347.425
G01 X232.245 Y343.925
G01 X233.931 Y342.769
G01 X238.993 Y339.454
G01 X243.691 Y335.876
G01 X244.919 Y334.848
G01 X240.518 Y336.722
G01 X235.922 Y338.363
G01 X231.143 Y339.756
G01 X226.195 Y340.888
G01 X221.091 Y341.745
G01 X215.847 Y342.316
G01 X210.769 Y342.581
G01 X205.155 Y342.860
G01 X202.375 Y342.876
G01 X197.186 Y341.624
G01 X192.006 Y340.084
G01 X191.677 Y339.976
G01 X188.898 Y334.831
G01 X187.616 Y332.179
G01 X184.092 Y328.503
G01 X182.709 Y326.953
G01 X180.096 Y323.488
G01 X172.642 Y323.716
G01 X165.007 Y323.381
G01 X160.422 Y322.911
G01 X149.737 Y327.828
G01 X132.489 Y332.970
G01 X114.145 Y337.094
G01 X99.966 Y337.381
G01 X91.868 Y335.360
G01 X82.625 Y331.013
G01 X81.746 Y336.801
G01 X90.032 Y342.736
G01 X93.322 Y344.896
G01 X105.761 Y342.591
G01 X120.458 Y340.459
G01 X140.076 Y335.079
G01 X142.848 Y334.158
G01 X156.912 Y330.804
G01 X166.221 Y327.827
G01 X171.651 Y330.296
G01 X177.118 Y332.424
G01 X181.555 Y333.897
G01 X185.326 Y337.735
G01 X189.310 Y341.404
G01 X189.354 Y341.442
G01 X193.729 Y344.618
G01 X198.270 Y347.584
G01 X198.621 Y347.801
G01 X204.805 Y347.353
G01 X210.819 Y346.542
G01 X216.640 Y345.381
G01 X218.129 Y345.023
G01 X214.347 Y347.005
G01 X208.361 Y348.129
G01 X202.182 Y348.892
G01 X195.919 Y349.275
G01 X189.513 Y349.123
G01 X182.995 Y348.576
G01 X176.390 Y347.622
G01 X171.431 Y346.642
G01 X164.301 Y346.185
G01 X156.373 Y347.465
G01 X151.833 Y344.484
G01 X139.575 Y346.303
G01 X131.415 Y346.955
G01 X113.132 Y352.092
G01 X98.307 Y351.961
G01 X91.990 Y351.543
G01 X87.627 Y345.351
G01 X85.976 Y335.995
G01 X85.968 Y327.280
G01 X82.336 Y322.331
G01 X81.464 Y318.566
G01 X82.604 Y308.705
G01 X83.196 Y304.959
G01 X88.987 Y302.641
G01 X105.173 Y302.650
G01 X117.607 Y305.627
G01 X121.951 Y306.414
G01 X135.032 Y307.545
G01 X135.564 Y307.567
G01 X144.823 Y305.828
G01 X163.338 Y301.603
G01 X166.186 Y300.787
G01 X174.814 Y300.763
G01 X177.256 Y300.624
G01 X182.401 Y302.147
G01 X186.457 Y303.086
G01 X189.413 Y305.887
G01 X192.490 Y308.527
G01 X195.679 Y310.999
G01 X195.728 Y311.035
G01 X198.306 Y314.224
G01 X201.067 Y317.305
G01 X204.007 Y320.268
G01 X204.975 Y321.180
G01 X208.290 Y323.712
G01 X211.747 Y326.089
G01 X212.209 Y326.388
G01 X216.103 Y327.921
G01 X220.055 Y329.257
G01 X222.049 Y329.849
G01 X217.996 Y328.797
G01 X214.393 Y327.678
G01 X210.847 Y325.408
G01 X207.438 Y322.978
G01 X205.848 Y321.754
G01 X202.736 Y318.982
G01 X199.789 Y316.078
G01 X198.048 Y314.216
G01 X195.315 Y311.192
G01 X192.827 Y308.152
G01 X190.774 Y304.601
G01 X188.931 Y300.991
G01 X188.487 Y300.047
G01 X183.647 Y298.776
G01 X178.790 Y297.146
G01 X173.938 Y295.152
G01 X172.004 Y294.252
G01 X160.273 Y295.240
G01 X148.280 Y295.170
G01 X147.410 Y295.124
G01 X136.717 Y299.747
G01 X126.580 Y303.522
G01 X115.079 Y300.799
G01 X114.443 Y300.619
G01 X99.008 Y298.083
G01 X97.364 Y297.732
G01 X89.561 Y299.749
G01 X86.664 Y299.165
G01 X94.774 Y296.268
G01 X119.207 Y296.085
G01 X120.792 Y295.994
G01 X129.467 Y294.543
G01 X143.641 Y289.910
G01 X163.608 Y287.300
G01 X170.640 Y288.990
G01 X177.617 Y290.086
G01 X182.134 Y290.486
G01 X186.085 Y292.515
G01 X190.068 Y294.256
G01 X194.001 Y295.692
G01 X197.637 Y297.189
G01 X201.282 Y298.441
G01 X201.797 Y298.599
G01 X204.873 Y300.200
G01 X207.010 Y301.194
G01 X204.771 Y298.784
G01 X202.664 Y296.279
G01 X202.663 Y296.278
G01 X200.284 Y294.046
G01 X198.010 Y291.691
G01 X197.181 Y290.772
G01 X191.994 Y290.395
G01 X188.489 Y289.912
G01 X184.123 Y288.289
G01 X181.841 Y287.305
G01 X175.412 Y286.186
G01 X173.738 Y285.808
G01 X173.305 Y281.517
G01 X173.106 Y277.270
G01 X173.135 Y273.081
G01 X173.355 Y269.349
G01 X170.661 Y268.199
G01 X170.917 Y271.486
G01 X170.487 Y275.574
G01 X170.361 Y280.001
G01 X170.424 Y283.268
G01 X165.369 Y282.619
G01 X163.699 Y280.478
G01 X163.794 Y278.117
G01 X163.921 Y274.509
G01 X163.473 Y271.467
G01 X160.881 Y271.920
G01 X160.082 Y273.841
G01 X160.654 Y276.524
G01 X160.419 Y280.482
G01 X160.538 Y282.624
G01 X155.903 Y280.608
G01 X155.884 Y279.897
G01 X155.336 Y277.311
G01 X155.364 Y273.971
G01 X150.880 Y272.538
G01 X151.062 Y273.969
G01 X151.587 Y277.563
G01 X150.681 Y281.517
G01 X147.289 Y280.079
G01 X147.100 Y277.746
G01 X147.081 Y272.399
G01 X147.101 Y271.640
G01 X144.230 Y270.559
G01 X141.354 Y271.096
G01 X141.269 Y276.652
G01 X140.824 Y282.516
G01 X140.812 Y282.771
G01 X134.974 Y285.315
G01 X129.478 Y287.597
G01 X119.360 Y289.909
G01 X107.793 Y289.906
G01 X93.315 Y289.039
G01 X86.370 Y289.901
G01 X80.983 Y300.118
G01 X80.162 Y301.846
G01 X83.450 Y309.923
G01 X87.120 Y317.803
G01 X91.161 Y325.467
G01 X94.824 Y331.712
G01 X112.500 Y331.261
G01 X125.466 Y329.924
G01 X137.458 Y330.288
G01 X139.703 Y330.247
G01 X146.887 Y333.054
G01 X154.074 Y335.356
G01 X159.767 Y336.830
G01 X166.266 Y338.892
G01 X168.396 Y339.476
G01 X172.605 Y341.902
G01 X176.706 Y343.718
G01 X181.723 Y344.950
G01 X186.495 Y345.275
G01 X190.815 Y346.466
G01 X186.349 Y343.157
G01 X182.646 Y340.140
G01 X178.413 Y336.596
G01 X178.302 Y336.498
G01 X174.913 Y334.512
G01 X170.441 Y332.969
G01 X164.453 Y331.566
G01 X161.393 Y330.628
G01 X157.880 Y329.337
G01 X155.768 Y327.802
G01 X150.241 Y324.988
G01 X143.812 Y321.947
G01 X138.283 Y318.938
G01 X125.231 Y319.510
G01 X115.951 Y319.512
G01 X106.706 Y320.279
G01 X102.072 Y317.500
G01 X94.470 Y315.022
G01 X97.717 Y305.188
G01 X90.174 Y306.443
G01 X84.158 Y301.316
G01 X83.897 Y292.589
G01 X84.052 Y284.761
G01 X79.108 Y288.840
G01 X78.584 Y297.915
G01 X78.546 Y307.133
G01 X78.659 Y310.625
G01 X81.059 Y319.280
G01 X83.577 Y326.946
G01 X83.417 Y337.185
G01 X83.661 Y344.332
G01 X85.518 Y354.264
G01 X87.955 Y364.237
G01 X88.318 Y365.544
G01 X87.762 Y378.420
G01 X87.782 Y383.362
G01 X88.095 Y396.995
G01 X88.276 Y399.812
G01 X83.417 Y418.791
G01 X76.917 Y430.395
G01 X75.308 Y422.775
G01 X76.674 Y407.021
G01 X76.406 Y392.398
G01 X76.973 Y380.171
G01 X75.669 Y368.218
G01 X75.111 Y356.459
G01 X75.103 Y350.670
G01 X75.286 Y339.452
G01 X75.772 Y332.211
G01 X73.775 Y322.808
G01 X73.310 Y320.200
G01 X71.730 Y310.881
G01 X70.636 Y301.578
G01 X70.608 Y301.271
G01 X73.923 Y291.096
G01 X75.607 Y286.639
G01 X76.934 Y277.573
G01 X77.317 Y275.460
G01 X78.624 Y266.727
G01 X80.366 Y258.184
G01 X82.528 Y249.853
G01 X82.651 Y249.428
G01 X82.150 Y241.179
G01 X82.058 Y232.879
G01 X82.377 Y224.550
G01 X82.869 Y218.495
G01 X81.879 Y209.676
G01 X81.358 Y200.685
G01 X81.327 Y199.571
G01 X80.723 Y190.196
G01 X80.640 Y180.642
G01 X80.882 Y174.209
G01 X78.161 Y162.624
G01 X76.186 Y150.597
G01 X76.005 Y149.168
G01 X75.473 Y137.071
G01 X75.723 Y124.687
G01 X75.783 Y123.584
G01 X75.299 Y109.647
G01 X75.322 Y106.442
G01 X71.268 Y87.780
G01 X70.628 Y83.960
G01 X65.987 Y90.642
G01 X63.330 Y102.438
G01 X67.114 Y110.444
G01 X67.543 Y123.799
G01 X68.219 Y133.377
G01 X70.244 Y146.761
G01 X70.620 Y148.714
G01 X70.628 Y155.859
G01 X70.620 Y162.747
G01 X74.103 Y174.878
G01 X75.111 Y177.882
G01 X76.886 Y186.117
G01 X76.901 Y193.458
G01 X76.741 Y202.677
G01 X76.886 Y208.366
G01 X76.997 Y217.278
G01 X77.108 Y219.713
G01 X75.796 Y228.229
G01 X75.333 Y232.172
G01 X75.097 Y240.786
G01 X75.286 Y249.381
G01 X75.777 Y256.655
G01 X73.676 Y265.427
G01 X73.327 Y267.117
G01 X69.253 Y276.517
G01 X67.334 Y281.578
G01 X64.598 Y291.512
G01 X62.407 Y301.788
G01 X60.789 Y312.376
G01 X59.887 Y321.533
G01 X59.496 Y332.565
G01 X59.740 Y343.804
G01 X59.890 Y346.446
G01 X61.058 Y357.822
G01 X62.363 Y366.383
G01 X61.408 Y380.208
G01 X61.308 Y391.661
G01 X61.302 Y402.712
G01 X53.850 Y394.155
G01 X53.441 Y380.102
G01 X53.485 Y376.343
G01 X53.473 Y371.734
G01 X53.139 Y358.954
G01 X53.572 Y346.443
G01 X53.835 Y342.898
G01 X53.484 Y332.549
G01 X52.820 Y321.662
G01 X52.743 Y310.912
G01 X52.778 Y309.408
G01 X54.560 Y298.736
G01 X58.443 Y287.893
G01 X59.527 Y285.208
G01 X62.634 Y275.200
G01 X62.745 Y274.878
G01 X64.996 Y265.390
G01 X65.222 Y264.550
G01 X65.267 Y255.450
G01 X65.758 Y246.390
G01 X65.940 Y244.252
G01 X65.357 Y235.140
G01 X65.220 Y228.952
G01 X65.226 Y223.600
G01 X65.325 Y214.291
G01 X65.895 Y204.928
G01 X65.942 Y204.388
G01 X67.077 Y195.014
G01 X68.692 Y185.642
G01 X70.620 Y176.973
G01 X64.993 Y163.871
G01 X61.661 Y154.539
G01 X59.460 Y141.358
G01 X58.545 Y133.192
G01 X58.339 Y119.746
G01 X58.545 Y113.255
G01 X57.416 Y109.225
G01 X54.960 Y106.529
G01 X50.480 Y109.892
G01 X50.258 Y122.670
G01 X50.198 Y136.017
G01 X50.257 Y137.900
G01 X52.052 Y147.092
G01 X56.292 Y158.281
G01 X58.098 Y168.159
G01 X58.528 Y177.115
G01 X57.410 Y186.067
G01 X55.857 Y195.970
G01 X54.950 Y204.224
G01 X54.530 Y214.141
G01 X54.502 Y216.780
G01 X54.729 Y226.607
G01 X55.191 Y233.574
G01 X55.845 Y240.748
G01 X54.951 Y249.255
G01 X53.431 Y258.905
G01 X52.393 Y268.701
G01 X52.268 Y270.335
G01 X49.804 Y277.494
G01 X48.342 Y287.857
G01 X47.422 Y298.428
G01 X47.061 Y309.179
G01 X47.137 Y316.390
G01 X44.262 Y321.779
G01 X43.191 Y333.748
G01 X42.839 Y342.931
G01 X42.477 Y354.056
G01 X41.460 Y367.710
G01 X41.405 Y369.097
G01 X34.466 Y359.401
G01 X33.511 Y357.983
G01 X30.664 Y350.826
G01 X31.524 Y337.717
G01 X31.720 Y335.765
G01 X34.710 Y322.612
G01 X36.019 Y317.832
G01 X38.887 Y306.722
G01 X38.663 Y295.795
G01 X38.996 Y284.985
G01 X39.876 Y274.318
G01 X40.325 Y270.504
G01 X40.949 Y260.125
G01 X41.045 Y259.029
G01 X43.792 Y248.782
G01 X44.269 Y247.198
G01 X45.460 Y237.157
G01 X46.428 Y231.071
G01 X45.525 Y220.808
G01 X45.143 Y210.412
G01 X45.294 Y199.909
G01 X45.707 Y192.708
G01 X45.289 Y181.591
G01 X45.479 Y170.299
G01 X45.700 Y166.184
G01 X45.689 Y158.290
G01 X44.260 Y152.205
G01 X42.121 Y142.510
G01 X42.123 Y134.262
G01 X42.476 Y125.655
G01 X37.738 Y136.583
G01 X33.569 Y147.674
G01 X31.360 Y154.343
G01 X29.945 Y164.036
G01 X31.704 Y176.851
G01 X34.177 Y189.282
G01 X34.225 Y189.488
G01 X33.532 Y200.608
G01 X33.508 Y201.311
G01 X33.373 Y212.339
G01 X33.528 Y218.165
G01 X33.496 Y228.948
G01 X33.522 Y230.002
G01 X33.160 Y240.663
G01 X33.157 Y241.122
G01 X30.608 Y251.792
G01 X29.934 Y255.102
G01 X28.281 Y266.051
G01 X27.178 Y277.174
G01 X26.637 Y288.444
G01 X26.671 Y299.831
G01 X27.061 Y308.158
G01 X25.638 Y319.989
G01 X23.830 Y327.869
G01 X18.465 Y330.027
G01 X16.940 Y317.951
G01 X16.320 Y310.660
G01 X15.255 Y304.217
G01 X14.531 Y296.674
G01 X14.263 Y284.807
G01 X14.516 Y274.456
G01 X12.732 Y265.130
G01 X18.110 Y254.008
G01 X21.446 Y242.728
G01 X23.850 Y235.729
G01 X24.968 Y224.666
G01 X26.627 Y213.679
G01 X26.722 Y213.138
G01 X27.418 Y206.334
G01 X27.066 Y194.781
G01 X27.071 Y192.003
G01 X24.731 Y179.425
G01 X24.207 Y175.871
G01 X20.607 Y168.696
G01 X17.957 Y180.368
G01 X15.969 Y191.632
G01 X15.601 Y203.623
G01 X15.612 Y207.417
G01 X14.369 Y219.043
G01 X13.812 Y227.847
G01 X11.022 Y239.375
G01 X10.220 Y243.256
G01 X8.075 Y250.431
G01 X6.657 Y261.197
G01 X4.167 Y249.237
G01 X2.269 Y237.058
G01 X1.118 Y226.381
G01 X8.440 Y218.537
G01 X9.820 Y206.640
G01 X9.865 Y206.323
G01 X8.239 Y193.647
G01 X7.754 Y188.217
G01 X11.078 Y176.405
G01 X13.809 Y168.063
G01 X18.114 Y156.572
G01 X18.519 Y155.573
G01 X28.833 Y146.849
G01 X28.857 Y146.829
G01 X31.739 Y142.157
G01 X29.749 Y131.722
G01 X35.818 Y121.058
G01 X39.217 Y115.573
G01 X50.480 Y109.892
G01 X53.866 Y97.368
G01 X55.076 Y93.460
G01 X67.163 Y87.785
G01 X68.304 Y87.293
G01 X76.658 Y78.723
G01 X77.132 Y78.262
G01 X92.776 Y77.670
G01 X108.046 Y78.181
G01 X111.112 Y78.417
G01 X108.872 Y76.113
G01 X107.099 Y75.075
G01 X103.247 Y76.783
G01 X103.248 Y78.391
G01 X102.594 Y82.400
G01 X103.054 Y84.830
G01 X104.754 Y88.408
G01 X108.036 Y89.334
G01 X111.690 Y89.728
G01 X115.716 Y88.675
G01 X117.578 Y87.272
G01 X119.745 Y81.848
G01 X118.804 Y74.991
G01 X118.622 Y72.539
G01 X117.396 Y70.771
G01 X114.889 Y68.523
G01 X111.219 Y66.369
G01 X108.134 Y66.177
G01 X104.282 Y67.005
G01 X101.196 Y69.182
G01 X94.905 Y73.016
G01 X93.231 Y76.951
G01 X92.097 Y82.321
G01 X92.386 Y84.561
G01 X94.444 Y90.563
G01 X95.093 Y93.185
G01 X96.118 Y95.619
G01 X100.910 Y97.983
G01 X102.881 Y98.818
G01 X105.505 Y99.480
G01 X110.740 Y99.937
G01 X114.029 Y99.939
G01 X117.408 Y99.668
G01 X120.881 Y97.690
G01 X122.563 Y96.183
G01 X124.156 Y95.166
G01 X126.598 Y91.024
G01 X127.718 Y86.712
G01 X128.755 Y82.965
G01 X128.939 Y79.878
G01 X128.829 Y77.139
G01 X128.366 Y73.868
G01 X127.070 Y72.181
G01 X125.560 Y67.667
G01 X123.878 Y64.487
G01 X121.435 Y61.947
G01 X118.990 Y60.169
G01 X115.431 Y58.474
G01 X110.948 Y56.323
G01 X106.528 Y55.675
G01 X101.515 Y55.154
G01 X96.731 Y59.953
G01 X90.111 Y64.761
G01 X86.668 Y68.798
G01 X83.374 Y74.363
G01 X81.274 Y86.353
G01 X81.119 Y89.802
G01 X85.177 Y97.611
G01 X88.172 Y101.518
G01 X92.518 Y104.807
G01 X98.224 Y106.171
G01 X103.907 Y107.366
G01 X111.555 Y108.413
G01 X117.860 Y108.577
G01 X123.568 Y105.870
G01 X126.108 Y104.829
G01 X131.355 Y100.606
G01 X132.558 Y98.076
G01 X134.501 Y91.615
G01 X135.697 Y87.560
G01 X135.853 Y80.502
G01 X135.564 Y76.010
G01 X134.814 Y72.558
G01 X134.060 Y70.455
G01 X133.155 Y65.959
G01 X129.573 Y59.054
G01 X127.007 Y55.589
G01 X124.614 Y53.940
G01 X116.369 Y51.698
G01 X113.958 Y50.797
G01 X111.573 Y50.192
G01 X108.901 Y49.435
G01 X112.137 Y46.562
G01 X116.108 Y44.643
G01 X118.736 Y45.830
G01 X124.979 Y48.481
G01 X130.039 Y50.634
G01 X132.895 Y52.800
G01 X136.741 Y57.351
G01 X139.378 Y64.564
G01 X140.817 Y74.637
G01 X140.818 Y85.934
G01 X139.624 Y95.287
G01 X138.432 Y100.333
G01 X135.781 Y105.616
G01 X127.207 Y109.534
G01 X118.747 Y113.950
G01 X117.786 Y114.488
G01 X111.066 Y114.492
G01 X108.671 Y114.018
G01 X92.849 Y111.382
G01 X83.001 Y104.908
G01 X77.716 Y103.462
G01 X79.644 Y116.190
G01 X80.104 Y129.546
G01 X81.448 Y142.523
G01 X83.639 Y155.067
G01 X86.280 Y165.862
G01 X86.578 Y175.913
G01 X87.457 Y185.729
G01 X87.880 Y188.974
G01 X87.485 Y197.775
G01 X87.558 Y206.466
G01 X87.681 Y209.275
G01 X86.801 Y217.473
G01 X86.333 Y225.659
G01 X86.275 Y227.975
G01 X86.525 Y236.132
G01 X87.000 Y242.445
G01 X85.478 Y250.456
G01 X84.352 Y258.598
G01 X84.093 Y261.063
G01 X82.942 Y269.410
G01 X82.215 Y277.897
G01 X82.137 Y279.296
G01 X85.924 Y279.176
G01 X88.792 Y281.335
G01 X87.891 Y274.332
G01 X90.527 Y265.984
G01 X90.939 Y264.817
G01 X92.629 Y256.896
G01 X93.443 Y253.677
G01 X93.353 Y245.988
G01 X93.454 Y242.006
G01 X94.051 Y234.336
G01 X94.536 Y230.162
G01 X94.345 Y222.444
G01 X94.291 Y214.476
G01 X94.338 Y212.563
G01 X93.459 Y204.661
G01 X93.262 Y196.137
G01 X93.269 Y195.154
G01 X92.563 Y186.529
G01 X91.665 Y178.451
G01 X91.647 Y169.478
G01 X91.483 Y161.037
G01 X90.341 Y149.790
G01 X90.224 Y147.922
G01 X88.787 Y142.893
G01 X88.596 Y136.441
G01 X93.085 Y138.233
G01 X93.811 Y142.912
G01 X93.264 Y145.596
G01 X91.952 Y155.577
G01 X91.483 Y161.037
G01 X91.647 Y169.478
G01 X95.238 Y174.492
G01 X97.939 Y181.689
G01 X98.127 Y188.507
G01 X97.470 Y196.793
G01 X97.387 Y198.557
G01 X96.494 Y203.050
G01 X97.030 Y211.310
G01 X97.047 Y211.495
G01 X96.867 Y217.230
G01 X96.673 Y219.920
G01 X97.936 Y227.295
G01 X96.382 Y234.722
G01 X96.329 Y235.013
G01 X97.213 Y240.221
G01 X97.211 Y246.681
G01 X96.526 Y254.201
G01 X96.513 Y254.403
G01 X95.327 Y262.053
G01 X95.056 Y264.277
G01 X94.534 Y270.022
G01 X94.875 Y277.774
G01 X95.247 Y282.238
G01 X97.211 Y284.565
G01 X99.558 Y285.286
G01 X103.499 Y285.647
G01 X109.422 Y287.620
G01 X110.141 Y285.828
G01 X104.936 Y282.223
G01 X102.251 Y278.642
G01 X102.069 Y273.430
G01 X101.884 Y266.431
G01 X101.711 Y261.050
G01 X101.696 Y257.627
G01 X102.235 Y254.225
G01 X102.600 Y249.909
G01 X102.246 Y246.317
G01 X101.115 Y238.962
G01 X100.450 Y232.677
G01 X100.089 Y230.886
G01 X100.406 Y223.411
G01 X101.097 Y215.921
G01 X101.176 Y215.261
G01 X100.349 Y207.225
G01 X100.085 Y202.866
G01 X100.099 Y198.736
G01 X100.999 Y191.019
G01 X100.272 Y182.054
G01 X100.272 Y182.052
G01 X98.843 Y173.973
G01 X96.851 Y167.144
G01 X93.992 Y157.980
G01 X92.915 Y151.336
G01 X94.537 Y152.420
G01 X96.506 Y162.112
G01 X99.559 Y167.869
G01 X101.170 Y172.173
G01 X102.610 Y175.942
G01 X102.770 Y184.863
G01 X102.950 Y187.964
G01 X103.137 Y196.221
G01 X102.780 Y203.049
G01 X102.608 Y209.332
G01 X103.311 Y215.790
G01 X103.139 Y220.472
G01 X103.512 Y224.595
G01 X103.314 Y231.921
G01 X103.322 Y233.753
G01 X103.620 Y241.026
G01 X104.031 Y245.968
G01 X104.194 Y253.131
G01 X104.222 Y253.686
G01 X103.762 Y260.896
G01 X103.670 Y264.280
G01 X103.785 Y271.556
G01 X103.863 Y273.251
G01 X107.974 Y278.462
G01 X110.851 Y282.417
G01 X113.913 Y284.022
G01 X117.312 Y284.203
G01 X122.873 Y283.136
G01 X125.388 Y282.774
G01 X137.734 Y282.499
G01 X147.403 Y281.758
G01 X155.887 Y281.751
G01 X165.008 Y282.164
G01 X173.646 Y281.966
G01 X180.134 Y283.368
