;  Created by Sandify
;  https://sandify.org
;  Version: 0.2.6
;
;  Machine type: Rectangular
;    Min X (mm): 0
;    Max X (mm): 500
;    Min Y (mm): 0
;    Max Y (mm): 500
;  Content type: shape
;  Layer:
;    Shape: FileImport
;    Name: SquareErase.thr
;    From file:: SquareErase.thr
;    Aspect Ratio: true
;    Comments: 
;    Visible: true
;    Initial width: 10
;    Initial height: 10
;    X offset: 0
;    Y offset: 0
;    Rotate (degrees): 0
;    Reverse path: false
;    Fine tuning:
;      Connect to next layer: line
;      Draw portion of path (%): 100
;      Backtrack at end (%): 0
;      Rotate starting point (%): 0
;  Reverse export path: false
;
; File name: 'spiralsquareeraser'
; File type: gcode
;

G01 X250.000 Y250.000
G01 X250.000 Y250.008
G01 X250.002 Y250.015
G01 X250.003 Y250.023
G01 X250.006 Y250.030
G01 X250.009 Y250.038
G01 X250.014 Y250.045
G01 X250.018 Y250.051
G01 X250.024 Y250.057
G01 X250.030 Y250.063
G01 X250.037 Y250.069
G01 X250.044 Y250.073
G01 X250.052 Y250.078
G01 X250.060 Y250.081
G01 X250.069 Y250.084
G01 X250.078 Y250.086
G01 X250.088 Y250.088
G01 X250.098 Y250.089
G01 X250.108 Y250.089
G01 X250.119 Y250.088
G01 X250.129 Y250.086
G01 X250.140 Y250.084
G01 X250.151 Y250.081
G01 X250.162 Y250.076
G01 X250.172 Y250.071
G01 X250.183 Y250.065
G01 X250.193 Y250.059
G01 X250.203 Y250.051
G01 X250.213 Y250.042
G01 X250.223 Y250.033
G01 X250.232 Y250.023
G01 X250.241 Y250.012
G01 X250.249 Y250.000
G01 X250.250 Y249.998
G01 X250.263 Y249.985
G01 X250.275 Y249.970
G01 X250.287 Y249.955
G01 X250.298 Y249.938
G01 X250.307 Y249.920
G01 X250.316 Y249.901
G01 X250.324 Y249.881
G01 X250.330 Y249.860
G01 X250.335 Y249.838
G01 X250.338 Y249.815
G01 X250.340 Y249.792
G01 X250.341 Y249.768
G01 X250.340 Y249.743
G01 X250.337 Y249.718
G01 X250.333 Y249.693
G01 X250.327 Y249.667
G01 X250.319 Y249.642
G01 X250.310 Y249.616
G01 X250.298 Y249.590
G01 X250.285 Y249.565
G01 X250.271 Y249.540
G01 X250.254 Y249.515
G01 X250.241 Y249.498
G01 X250.219 Y249.481
G01 X250.195 Y249.466
G01 X250.170 Y249.452
G01 X250.144 Y249.439
G01 X250.118 Y249.427
G01 X250.090 Y249.416
G01 X250.062 Y249.407
G01 X250.033 Y249.399
G01 X250.004 Y249.392
G01 X249.974 Y249.387
G01 X249.943 Y249.384
G01 X249.912 Y249.382
G01 X249.881 Y249.381
G01 X249.849 Y249.383
G01 X249.818 Y249.385
G01 X249.786 Y249.390
G01 X249.754 Y249.396
G01 X249.722 Y249.403
G01 X249.691 Y249.413
G01 X249.659 Y249.424
G01 X249.629 Y249.437
G01 X249.598 Y249.451
G01 X249.568 Y249.467
G01 X249.539 Y249.485
G01 X249.510 Y249.504
G01 X249.492 Y249.518
G01 X249.468 Y249.543
G01 X249.447 Y249.570
G01 X249.426 Y249.597
G01 X249.407 Y249.626
G01 X249.390 Y249.656
G01 X249.373 Y249.686
G01 X249.359 Y249.717
G01 X249.346 Y249.749
G01 X249.334 Y249.781
G01 X249.324 Y249.814
G01 X249.316 Y249.848
G01 X249.309 Y249.881
G01 X249.304 Y249.915
G01 X249.301 Y249.950
G01 X249.299 Y249.984
G01 X249.299 Y250.018
G01 X249.301 Y250.053
G01 X249.304 Y250.087
G01 X249.310 Y250.121
G01 X249.316 Y250.155
G01 X249.325 Y250.188
G01 X249.335 Y250.221
G01 X249.346 Y250.253
G01 X249.360 Y250.285
G01 X249.374 Y250.316
G01 X249.391 Y250.347
G01 X249.408 Y250.376
G01 X249.428 Y250.405
G01 X249.448 Y250.432
G01 X249.470 Y250.459
G01 X249.493 Y250.484
G01 X249.517 Y250.509
G01 X249.526 Y250.517
G01 X249.549 Y250.544
G01 X249.573 Y250.570
G01 X249.598 Y250.595
G01 X249.625 Y250.618
G01 X249.653 Y250.641
G01 X249.682 Y250.662
G01 X249.713 Y250.682
G01 X249.745 Y250.701
G01 X249.778 Y250.718
G01 X249.812 Y250.733
G01 X249.847 Y250.747
G01 X249.883 Y250.759
G01 X249.920 Y250.769
G01 X249.958 Y250.778
G01 X249.996 Y250.785
G01 X250.035 Y250.790
G01 X250.074 Y250.792
G01 X250.113 Y250.793
G01 X250.153 Y250.792
G01 X250.193 Y250.789
G01 X250.233 Y250.784
G01 X250.273 Y250.777
G01 X250.313 Y250.768
G01 X250.353 Y250.757
G01 X250.392 Y250.743
G01 X250.431 Y250.728
G01 X250.469 Y250.711
G01 X250.507 Y250.691
G01 X250.544 Y250.670
G01 X250.580 Y250.647
G01 X250.615 Y250.621
G01 X250.648 Y250.594
G01 X250.681 Y250.565
G01 X250.713 Y250.534
G01 X250.743 Y250.502
G01 X250.771 Y250.468
G01 X250.775 Y250.462
G01 X250.807 Y250.429
G01 X250.837 Y250.394
G01 X250.866 Y250.356
G01 X250.893 Y250.317
G01 X250.918 Y250.276
G01 X250.941 Y250.234
G01 X250.962 Y250.189
G01 X250.982 Y250.143
G01 X250.999 Y250.096
G01 X251.013 Y250.048
G01 X251.026 Y249.998
G01 X251.035 Y249.947
G01 X251.043 Y249.895
G01 X251.047 Y249.842
G01 X251.049 Y249.789
G01 X251.049 Y249.735
G01 X251.045 Y249.681
G01 X251.039 Y249.626
G01 X251.029 Y249.571
G01 X251.017 Y249.516
G01 X251.002 Y249.462
G01 X250.984 Y249.407
G01 X250.963 Y249.354
G01 X250.939 Y249.300
G01 X250.912 Y249.248
G01 X250.883 Y249.197
G01 X250.850 Y249.146
G01 X250.815 Y249.097
G01 X250.776 Y249.050
G01 X250.735 Y249.004
G01 X250.697 Y248.964
G01 X250.648 Y248.927
G01 X250.597 Y248.892
G01 X250.544 Y248.859
G01 X250.489 Y248.829
G01 X250.433 Y248.802
G01 X250.375 Y248.777
G01 X250.316 Y248.755
G01 X250.256 Y248.736
G01 X250.194 Y248.719
G01 X250.132 Y248.706
G01 X250.068 Y248.696
G01 X250.004 Y248.689
G01 X249.940 Y248.685
G01 X249.875 Y248.684
G01 X249.810 Y248.687
G01 X249.744 Y248.693
G01 X249.679 Y248.702
G01 X249.614 Y248.714
G01 X249.550 Y248.730
G01 X249.486 Y248.748
G01 X249.423 Y248.770
G01 X249.361 Y248.795
G01 X249.300 Y248.824
G01 X249.240 Y248.855
G01 X249.182 Y248.890
G01 X249.125 Y248.927
G01 X249.070 Y248.967
G01 X249.017 Y249.011
G01 X248.966 Y249.056
G01 X248.950 Y249.071
G01 X248.906 Y249.124
G01 X248.864 Y249.179
G01 X248.825 Y249.235
G01 X248.789 Y249.294
G01 X248.756 Y249.354
G01 X248.726 Y249.416
G01 X248.698 Y249.479
G01 X248.674 Y249.544
G01 X248.654 Y249.609
G01 X248.636 Y249.676
G01 X248.622 Y249.743
G01 X248.611 Y249.811
G01 X248.603 Y249.880
G01 X248.599 Y249.948
G01 X248.598 Y250.017
G01 X248.601 Y250.086
G01 X248.607 Y250.154
G01 X248.616 Y250.223
G01 X248.628 Y250.290
G01 X248.644 Y250.357
G01 X248.663 Y250.423
G01 X248.686 Y250.488
G01 X248.711 Y250.552
G01 X248.740 Y250.615
G01 X248.772 Y250.676
G01 X248.806 Y250.735
G01 X248.844 Y250.793
G01 X248.884 Y250.849
G01 X248.927 Y250.903
G01 X248.973 Y250.954
G01 X249.021 Y251.003
G01 X249.071 Y251.050
G01 X249.090 Y251.066
G01 X249.139 Y251.114
G01 X249.192 Y251.160
G01 X249.247 Y251.203
G01 X249.304 Y251.244
G01 X249.363 Y251.282
G01 X249.424 Y251.317
G01 X249.488 Y251.349
G01 X249.553 Y251.378
G01 X249.619 Y251.404
G01 X249.687 Y251.427
G01 X249.757 Y251.446
G01 X249.827 Y251.462
G01 X249.899 Y251.474
G01 X249.971 Y251.483
G01 X250.044 Y251.489
G01 X250.118 Y251.491
G01 X250.191 Y251.489
G01 X250.265 Y251.483
G01 X250.339 Y251.474
G01 X250.412 Y251.462
G01 X250.486 Y251.445
G01 X250.558 Y251.425
G01 X250.630 Y251.401
G01 X250.700 Y251.374
G01 X250.770 Y251.343
G01 X250.838 Y251.308
G01 X250.904 Y251.270
G01 X250.969 Y251.229
G01 X251.032 Y251.184
G01 X251.093 Y251.136
G01 X251.152 Y251.085
G01 X251.208 Y251.031
G01 X251.262 Y250.974
G01 X251.313 Y250.915
G01 X251.333 Y250.890
G01 X251.359 Y250.814
G01 X251.381 Y250.738
G01 X251.399 Y250.661
G01 X251.412 Y250.585
G01 X251.422 Y250.508
G01 X251.427 Y250.433
G01 X251.429 Y250.358
G01 X251.427 Y250.283
G01 X251.421 Y250.210
G01 X251.411 Y250.139
G01 X251.397 Y250.068
G01 X251.381 Y250.000
G01 X251.360 Y249.933
G01 X251.337 Y249.868
G01 X251.311 Y249.805
G01 X251.281 Y249.745
G01 X251.249 Y249.687
G01 X251.224 Y249.645
G01 X251.251 Y249.569
G01 X251.274 Y249.490
G01 X251.291 Y249.408
G01 X251.304 Y249.323
G01 X251.312 Y249.235
G01 X251.313 Y249.145
G01 X251.309 Y249.053
G01 X251.299 Y248.959
G01 X251.283 Y248.864
G01 X251.261 Y248.769
G01 X251.232 Y248.672
G01 X251.197 Y248.576
G01 X251.155 Y248.480
G01 X251.115 Y248.399
G01 X251.019 Y248.371
G01 X250.924 Y248.348
G01 X250.829 Y248.331
G01 X250.735 Y248.319
G01 X250.641 Y248.312
G01 X250.548 Y248.310
G01 X250.457 Y248.313
G01 X250.368 Y248.321
G01 X250.280 Y248.334
G01 X250.195 Y248.351
G01 X250.111 Y248.372
G01 X250.031 Y248.397
G01 X249.953 Y248.427
G01 X249.878 Y248.460
G01 X249.806 Y248.496
G01 X249.746 Y248.531
G01 X249.665 Y248.504
G01 X249.581 Y248.482
G01 X249.494 Y248.464
G01 X249.404 Y248.451
G01 X249.311 Y248.444
G01 X249.217 Y248.441
G01 X249.120 Y248.445
G01 X249.022 Y248.454
G01 X248.923 Y248.470
G01 X248.824 Y248.491
G01 X248.723 Y248.518
G01 X248.623 Y248.552
G01 X248.523 Y248.592
G01 X248.424 Y248.639
G01 X248.377 Y248.663
G01 X248.345 Y248.767
G01 X248.319 Y248.872
G01 X248.299 Y248.976
G01 X248.285 Y249.079
G01 X248.276 Y249.181
G01 X248.274 Y249.281
G01 X248.278 Y249.380
G01 X248.286 Y249.476
G01 X248.300 Y249.571
G01 X248.319 Y249.662
G01 X248.343 Y249.751
G01 X248.372 Y249.836
G01 X248.404 Y249.918
G01 X248.441 Y249.997
G01 X248.482 Y250.072
G01 X248.526 Y250.142
G01 X248.534 Y250.155
G01 X248.505 Y250.232
G01 X248.480 Y250.313
G01 X248.460 Y250.397
G01 X248.444 Y250.484
G01 X248.433 Y250.573
G01 X248.427 Y250.664
G01 X248.426 Y250.758
G01 X248.431 Y250.853
G01 X248.442 Y250.949
G01 X248.458 Y251.046
G01 X248.480 Y251.144
G01 X248.508 Y251.242
G01 X248.542 Y251.340
G01 X248.582 Y251.438
G01 X248.629 Y251.534
G01 X248.681 Y251.630
G01 X248.691 Y251.647
G01 X248.793 Y251.681
G01 X248.896 Y251.710
G01 X248.998 Y251.732
G01 X249.100 Y251.749
G01 X249.201 Y251.760
G01 X249.301 Y251.766
G01 X249.399 Y251.765
G01 X249.496 Y251.760
G01 X249.591 Y251.749
G01 X249.683 Y251.734
G01 X249.773 Y251.714
G01 X249.860 Y251.689
G01 X249.944 Y251.659
G01 X250.025 Y251.626
G01 X250.103 Y251.589
G01 X250.177 Y251.548
G01 X250.247 Y251.504
G01 X250.305 Y251.463
G01 X250.390 Y251.495
G01 X250.478 Y251.524
G01 X250.570 Y251.546
G01 X250.665 Y251.564
G01 X250.764 Y251.575
G01 X250.865 Y251.581
G01 X250.968 Y251.580
G01 X251.073 Y251.573
G01 X251.180 Y251.560
G01 X251.288 Y251.539
G01 X251.397 Y251.512
G01 X251.506 Y251.478
G01 X251.615 Y251.436
G01 X251.724 Y251.387
G01 X251.831 Y251.331
G01 X251.920 Y251.279
G01 X251.954 Y251.167
G01 X251.981 Y251.055
G01 X252.002 Y250.943
G01 X252.017 Y250.832
G01 X252.026 Y250.722
G01 X252.029 Y250.612
G01 X252.027 Y250.504
G01 X252.019 Y250.398
G01 X252.005 Y250.294
G01 X251.986 Y250.192
G01 X251.962 Y250.093
G01 X251.933 Y249.997
G01 X251.899 Y249.904
G01 X251.861 Y249.814
G01 X251.819 Y249.727
G01 X251.773 Y249.644
G01 X251.723 Y249.566
G01 X251.707 Y249.542
G01 X251.741 Y249.440
G01 X251.768 Y249.333
G01 X251.790 Y249.223
G01 X251.804 Y249.109
G01 X251.812 Y248.992
G01 X251.812 Y248.872
G01 X251.805 Y248.749
G01 X251.790 Y248.625
G01 X251.767 Y248.499
G01 X251.736 Y248.372
G01 X251.697 Y248.245
G01 X251.649 Y248.117
G01 X251.593 Y247.991
G01 X251.528 Y247.865
G01 X251.493 Y247.805
G01 X251.362 Y247.770
G01 X251.231 Y247.743
G01 X251.100 Y247.723
G01 X250.971 Y247.710
G01 X250.843 Y247.705
G01 X250.717 Y247.707
G01 X250.593 Y247.715
G01 X250.471 Y247.730
G01 X250.353 Y247.751
G01 X250.238 Y247.778
G01 X250.126 Y247.811
G01 X250.018 Y247.850
G01 X249.914 Y247.893
G01 X249.815 Y247.942
G01 X249.720 Y247.995
G01 X249.635 Y248.049
G01 X249.527 Y248.016
G01 X249.414 Y247.989
G01 X249.298 Y247.968
G01 X249.179 Y247.954
G01 X249.057 Y247.947
G01 X248.932 Y247.947
G01 X248.805 Y247.954
G01 X248.676 Y247.970
G01 X248.545 Y247.993
G01 X248.414 Y248.023
G01 X248.283 Y248.063
G01 X248.151 Y248.110
G01 X248.021 Y248.165
G01 X247.891 Y248.229
G01 X247.776 Y248.294
G01 X247.737 Y248.435
G01 X247.707 Y248.575
G01 X247.685 Y248.714
G01 X247.671 Y248.852
G01 X247.665 Y248.989
G01 X247.667 Y249.123
G01 X247.676 Y249.254
G01 X247.692 Y249.382
G01 X247.715 Y249.507
G01 X247.745 Y249.628
G01 X247.781 Y249.745
G01 X247.823 Y249.858
G01 X247.870 Y249.966
G01 X247.923 Y250.069
G01 X247.980 Y250.166
G01 X248.042 Y250.258
G01 X248.054 Y250.275
G01 X248.019 Y250.380
G01 X247.989 Y250.489
G01 X247.966 Y250.601
G01 X247.949 Y250.718
G01 X247.938 Y250.837
G01 X247.935 Y250.959
G01 X247.939 Y251.083
G01 X247.949 Y251.210
G01 X247.968 Y251.337
G01 X247.994 Y251.466
G01 X248.028 Y251.595
G01 X248.070 Y251.725
G01 X248.120 Y251.854
G01 X248.178 Y251.982
G01 X248.244 Y252.109
G01 X248.319 Y252.234
G01 X248.332 Y252.255
G01 X248.471 Y252.295
G01 X248.609 Y252.328
G01 X248.747 Y252.352
G01 X248.884 Y252.368
G01 X249.019 Y252.377
G01 X249.153 Y252.378
G01 X249.284 Y252.372
G01 X249.413 Y252.359
G01 X249.538 Y252.339
G01 X249.660 Y252.313
G01 X249.779 Y252.280
G01 X249.893 Y252.241
G01 X250.003 Y252.197
G01 X250.109 Y252.148
G01 X250.209 Y252.093
G01 X250.305 Y252.034
G01 X250.395 Y251.971
G01 X250.434 Y251.941
G01 X250.546 Y251.980
G01 X250.662 Y252.012
G01 X250.783 Y252.037
G01 X250.908 Y252.055
G01 X251.037 Y252.065
G01 X251.169 Y252.068
G01 X251.303 Y252.063
G01 X251.440 Y252.049
G01 X251.578 Y252.026
G01 X251.718 Y251.995
G01 X251.858 Y251.955
G01 X251.998 Y251.906
G01 X252.138 Y251.848
G01 X252.277 Y251.781
G01 X252.414 Y251.704
G01 X252.536 Y251.627
G01 X252.574 Y251.479
G01 X252.605 Y251.331
G01 X252.627 Y251.183
G01 X252.641 Y251.037
G01 X252.647 Y250.892
G01 X252.645 Y250.749
G01 X252.636 Y250.609
G01 X252.619 Y250.471
G01 X252.595 Y250.336
G01 X252.565 Y250.205
G01 X252.528 Y250.077
G01 X252.485 Y249.954
G01 X252.436 Y249.835
G01 X252.381 Y249.721
G01 X252.321 Y249.612
G01 X252.256 Y249.508
G01 X252.187 Y249.409
G01 X252.184 Y249.405
G01 X252.222 Y249.275
G01 X252.253 Y249.141
G01 X252.276 Y249.002
G01 X252.290 Y248.858
G01 X252.296 Y248.711
G01 X252.293 Y248.561
G01 X252.280 Y248.407
G01 X252.257 Y248.252
G01 X252.225 Y248.095
G01 X252.183 Y247.938
G01 X252.130 Y247.780
G01 X252.067 Y247.622
G01 X251.994 Y247.465
G01 X251.910 Y247.310
G01 X251.832 Y247.182
G01 X251.663 Y247.144
G01 X251.496 Y247.115
G01 X251.329 Y247.095
G01 X251.165 Y247.084
G01 X251.002 Y247.083
G01 X250.843 Y247.090
G01 X250.686 Y247.106
G01 X250.533 Y247.130
G01 X250.384 Y247.162
G01 X250.240 Y247.202
G01 X250.100 Y247.249
G01 X249.966 Y247.302
G01 X249.837 Y247.362
G01 X249.714 Y247.428
G01 X249.597 Y247.500
G01 X249.489 Y247.574
G01 X249.354 Y247.537
G01 X249.213 Y247.507
G01 X249.068 Y247.485
G01 X248.920 Y247.472
G01 X248.767 Y247.467
G01 X248.612 Y247.472
G01 X248.454 Y247.485
G01 X248.294 Y247.508
G01 X248.133 Y247.541
G01 X247.971 Y247.584
G01 X247.809 Y247.637
G01 X247.648 Y247.700
G01 X247.487 Y247.773
G01 X247.328 Y247.857
G01 X247.171 Y247.951
G01 X247.147 Y247.966
G01 X247.131 Y248.160
G01 X247.127 Y248.351
G01 X247.135 Y248.537
G01 X247.154 Y248.719
G01 X247.183 Y248.895
G01 X247.223 Y249.065
G01 X247.272 Y249.229
G01 X247.331 Y249.385
G01 X247.398 Y249.533
G01 X247.436 Y249.608
G01 X247.420 Y249.734
G01 X247.410 Y249.861
G01 X247.406 Y249.988
G01 X247.409 Y250.116
G01 X247.417 Y250.243
G01 X247.432 Y250.369
G01 X247.453 Y250.495
G01 X247.481 Y250.619
G01 X247.514 Y250.742
G01 X247.553 Y250.863
G01 X247.598 Y250.982
G01 X247.649 Y251.099
G01 X247.706 Y251.213
G01 X247.726 Y251.249
G01 X247.708 Y251.409
G01 X247.701 Y251.574
G01 X247.704 Y251.743
G01 X247.719 Y251.915
G01 X247.746 Y252.090
G01 X247.784 Y252.267
G01 X247.834 Y252.445
G01 X247.897 Y252.623
G01 X247.972 Y252.800
G01 X248.015 Y252.890
G01 X248.207 Y252.907
G01 X248.395 Y252.912
G01 X248.580 Y252.906
G01 X248.760 Y252.889
G01 X248.935 Y252.862
G01 X249.104 Y252.824
G01 X249.267 Y252.777
G01 X249.423 Y252.721
G01 X249.571 Y252.657
G01 X249.712 Y252.585
G01 X249.736 Y252.572
G01 X249.862 Y252.588
G01 X249.989 Y252.599
G01 X250.117 Y252.604
G01 X250.245 Y252.602
G01 X250.374 Y252.594
G01 X250.502 Y252.579
G01 X250.629 Y252.558
G01 X250.756 Y252.531
G01 X250.882 Y252.498
G01 X251.006 Y252.458
G01 X251.128 Y252.412
G01 X251.249 Y252.360
G01 X251.366 Y252.302
G01 X251.456 Y252.253
G01 X251.631 Y252.270
G01 X251.811 Y252.276
G01 X251.995 Y252.269
G01 X252.183 Y252.250
G01 X252.373 Y252.217
G01 X252.565 Y252.171
G01 X252.759 Y252.111
G01 X252.952 Y252.038
G01 X253.145 Y251.950
G01 X253.177 Y251.934
G01 X253.191 Y251.734
G01 X253.194 Y251.537
G01 X253.185 Y251.345
G01 X253.165 Y251.157
G01 X253.135 Y250.974
G01 X253.094 Y250.797
G01 X253.044 Y250.627
G01 X252.985 Y250.463
G01 X252.917 Y250.307
G01 X252.841 Y250.159
G01 X252.827 Y250.134
G01 X252.842 Y249.995
G01 X252.851 Y249.855
G01 X252.852 Y249.714
G01 X252.846 Y249.573
G01 X252.833 Y249.431
G01 X252.814 Y249.290
G01 X252.787 Y249.149
G01 X252.753 Y249.010
G01 X252.712 Y248.871
G01 X252.664 Y248.734
G01 X252.609 Y248.600
G01 X252.548 Y248.467
G01 X252.479 Y248.337
G01 X252.477 Y248.334
G01 X252.492 Y248.141
G01 X252.493 Y247.942
G01 X252.481 Y247.739
G01 X252.454 Y247.532
G01 X252.413 Y247.322
G01 X252.357 Y247.111
G01 X252.286 Y246.899
G01 X252.200 Y246.687
G01 X252.128 Y246.535
G01 X251.906 Y246.524
G01 X251.689 Y246.526
G01 X251.476 Y246.541
G01 X251.270 Y246.568
G01 X251.069 Y246.606
G01 X250.876 Y246.656
G01 X250.690 Y246.717
G01 X250.512 Y246.787
G01 X250.342 Y246.867
G01 X250.249 Y246.917
G01 X250.098 Y246.904
G01 X249.946 Y246.898
G01 X249.793 Y246.899
G01 X249.641 Y246.908
G01 X249.489 Y246.925
G01 X249.338 Y246.949
G01 X249.188 Y246.981
G01 X249.039 Y247.020
G01 X248.892 Y247.066
G01 X248.748 Y247.119
G01 X248.606 Y247.180
G01 X248.467 Y247.248
G01 X248.371 Y247.299
G01 X248.176 Y247.286
G01 X247.976 Y247.286
G01 X247.771 Y247.299
G01 X247.563 Y247.325
G01 X247.352 Y247.366
G01 X247.140 Y247.422
G01 X246.927 Y247.492
G01 X246.714 Y247.577
G01 X246.502 Y247.676
G01 X246.493 Y247.681
G01 X246.482 Y247.915
G01 X246.485 Y248.143
G01 X246.502 Y248.366
G01 X246.533 Y248.583
G01 X246.575 Y248.793
G01 X246.630 Y248.996
G01 X246.696 Y249.189
G01 X246.773 Y249.374
G01 X246.860 Y249.550
G01 X246.909 Y249.637
G01 X246.895 Y249.790
G01 X246.888 Y249.942
G01 X246.889 Y250.095
G01 X246.897 Y250.248
G01 X246.913 Y250.399
G01 X246.936 Y250.551
G01 X246.967 Y250.700
G01 X247.004 Y250.848
G01 X247.050 Y250.994
G01 X247.102 Y251.138
G01 X247.161 Y251.279
G01 X247.227 Y251.417
G01 X247.300 Y251.551
G01 X247.325 Y251.594
G01 X247.310 Y251.787
G01 X247.309 Y251.985
G01 X247.320 Y252.187
G01 X247.345 Y252.393
G01 X247.384 Y252.602
G01 X247.438 Y252.812
G01 X247.505 Y253.023
G01 X247.588 Y253.234
G01 X247.685 Y253.444
G01 X247.741 Y253.550
G01 X247.972 Y253.562
G01 X248.198 Y253.559
G01 X248.420 Y253.544
G01 X248.635 Y253.515
G01 X248.844 Y253.474
G01 X249.045 Y253.421
G01 X249.238 Y253.357
G01 X249.423 Y253.283
G01 X249.598 Y253.199
G01 X249.764 Y253.106
G01 X249.775 Y253.099
G01 X249.927 Y253.114
G01 X250.080 Y253.121
G01 X250.233 Y253.120
G01 X250.387 Y253.112
G01 X250.541 Y253.097
G01 X250.693 Y253.074
G01 X250.845 Y253.043
G01 X250.996 Y253.005
G01 X251.145 Y252.959
G01 X251.292 Y252.906
G01 X251.436 Y252.846
G01 X251.577 Y252.778
G01 X251.716 Y252.703
G01 X251.808 Y252.648
G01 X252.016 Y252.662
G01 X252.229 Y252.661
G01 X252.447 Y252.646
G01 X252.669 Y252.615
G01 X252.893 Y252.569
G01 X253.118 Y252.507
G01 X253.345 Y252.429
G01 X253.571 Y252.334
G01 X253.795 Y252.223
G01 X253.842 Y252.197
G01 X253.851 Y251.958
G01 X253.845 Y251.723
G01 X253.826 Y251.494
G01 X253.794 Y251.270
G01 X253.749 Y251.054
G01 X253.693 Y250.845
G01 X253.625 Y250.644
G01 X253.547 Y250.452
G01 X253.458 Y250.269
G01 X253.361 Y250.096
G01 X253.355 Y250.086
G01 X253.367 Y249.921
G01 X253.371 Y249.755
G01 X253.367 Y249.589
G01 X253.354 Y249.422
G01 X253.333 Y249.255
G01 X253.304 Y249.090
G01 X253.267 Y248.925
G01 X253.221 Y248.762
G01 X253.167 Y248.600
G01 X253.105 Y248.441
G01 X253.035 Y248.285
G01 X252.958 Y248.132
G01 X252.872 Y247.982
G01 X252.868 Y247.975
G01 X252.877 Y247.749
G01 X252.871 Y247.517
G01 X252.849 Y247.280
G01 X252.811 Y247.040
G01 X252.755 Y246.798
G01 X252.682 Y246.554
G01 X252.592 Y246.310
G01 X252.484 Y246.066
G01 X252.380 Y245.864
G01 X252.119 Y245.860
G01 X251.864 Y245.871
G01 X251.615 Y245.897
G01 X251.373 Y245.938
G01 X251.139 Y245.992
G01 X250.913 Y246.058
G01 X250.697 Y246.137
G01 X250.491 Y246.228
G01 X250.296 Y246.329
G01 X250.192 Y246.389
G01 X250.015 Y246.379
G01 X249.837 Y246.379
G01 X249.659 Y246.386
G01 X249.482 Y246.403
G01 X249.305 Y246.428
G01 X249.129 Y246.462
G01 X248.955 Y246.505
G01 X248.784 Y246.556
G01 X248.614 Y246.615
G01 X248.448 Y246.683
G01 X248.285 Y246.759
G01 X248.126 Y246.843
G01 X248.005 Y246.914
G01 X247.777 Y246.906
G01 X247.544 Y246.914
G01 X247.306 Y246.937
G01 X247.065 Y246.976
G01 X246.822 Y247.031
G01 X246.577 Y247.104
G01 X246.332 Y247.193
G01 X246.087 Y247.300
G01 X245.845 Y247.424
G01 X245.817 Y247.440
G01 X245.813 Y247.712
G01 X245.827 Y247.979
G01 X245.856 Y248.238
G01 X245.900 Y248.490
G01 X245.958 Y248.733
G01 X246.030 Y248.966
G01 X246.115 Y249.190
G01 X246.212 Y249.402
G01 X246.320 Y249.603
G01 X246.381 Y249.704
G01 X246.371 Y249.882
G01 X246.369 Y250.060
G01 X246.376 Y250.238
G01 X246.392 Y250.415
G01 X246.417 Y250.592
G01 X246.450 Y250.767
G01 X246.492 Y250.940
G01 X246.542 Y251.112
G01 X246.600 Y251.280
G01 X246.667 Y251.445
G01 X246.742 Y251.607
G01 X246.825 Y251.765
G01 X246.915 Y251.919
G01 X246.946 Y251.968
G01 X246.937 Y252.193
G01 X246.943 Y252.424
G01 X246.964 Y252.660
G01 X247.002 Y252.899
G01 X247.056 Y253.141
G01 X247.127 Y253.384
G01 X247.215 Y253.627
G01 X247.319 Y253.870
G01 X247.442 Y254.111
G01 X247.510 Y254.232
G01 X247.780 Y254.235
G01 X248.045 Y254.223
G01 X248.302 Y254.195
G01 X248.552 Y254.152
G01 X248.794 Y254.095
G01 X249.027 Y254.025
G01 X249.249 Y253.942
G01 X249.461 Y253.847
G01 X249.662 Y253.742
G01 X249.850 Y253.627
G01 X250.028 Y253.637
G01 X250.207 Y253.639
G01 X250.386 Y253.632
G01 X250.565 Y253.616
G01 X250.743 Y253.591
G01 X250.920 Y253.557
G01 X251.096 Y253.515
G01 X251.270 Y253.464
G01 X251.441 Y253.405
G01 X251.610 Y253.336
G01 X251.775 Y253.260
G01 X251.937 Y253.175
G01 X252.094 Y253.083
G01 X252.190 Y253.022
G01 X252.430 Y253.029
G01 X252.676 Y253.019
G01 X252.927 Y252.993
G01 X253.182 Y252.949
G01 X253.439 Y252.887
G01 X253.698 Y252.806
G01 X253.956 Y252.707
G01 X254.213 Y252.589
G01 X254.468 Y252.452
G01 X254.529 Y252.416
G01 X254.507 Y252.127
G01 X254.467 Y251.846
G01 X254.411 Y251.574
G01 X254.339 Y251.313
G01 X254.252 Y251.062
G01 X254.152 Y250.823
G01 X254.044 Y250.605
G01 X254.035 Y250.403
G01 X254.015 Y250.203
G01 X253.986 Y250.005
G01 X253.948 Y249.811
G01 X253.899 Y249.621
G01 X253.842 Y249.435
G01 X253.776 Y249.254
G01 X253.702 Y249.078
G01 X253.619 Y248.907
G01 X253.559 Y248.794
G01 X253.551 Y248.599
G01 X253.533 Y248.402
G01 X253.503 Y248.203
G01 X253.463 Y248.003
G01 X253.411 Y247.803
G01 X253.348 Y247.604
G01 X253.274 Y247.405
G01 X253.187 Y247.208
G01 X253.090 Y247.013
G01 X253.073 Y246.983
G01 X253.051 Y246.696
G01 X253.007 Y246.405
G01 X252.941 Y246.110
G01 X252.854 Y245.814
G01 X252.744 Y245.516
G01 X252.612 Y245.221
G01 X252.588 Y245.172
G01 X252.277 Y245.201
G01 X251.975 Y245.249
G01 X251.683 Y245.315
G01 X251.402 Y245.398
G01 X251.134 Y245.496
G01 X250.879 Y245.609
G01 X250.721 Y245.690
G01 X250.504 Y245.703
G01 X250.289 Y245.727
G01 X250.078 Y245.762
G01 X249.872 Y245.806
G01 X249.670 Y245.861
G01 X249.472 Y245.926
G01 X249.281 Y246.000
G01 X249.095 Y246.082
G01 X248.916 Y246.173
G01 X248.854 Y246.208
G01 X248.651 Y246.218
G01 X248.447 Y246.240
G01 X248.242 Y246.272
G01 X248.036 Y246.316
G01 X247.830 Y246.371
G01 X247.625 Y246.438
G01 X247.422 Y246.516
G01 X247.220 Y246.606
G01 X247.021 Y246.707
G01 X246.987 Y246.725
G01 X246.701 Y246.750
G01 X246.410 Y246.795
G01 X246.116 Y246.861
G01 X245.820 Y246.948
G01 X245.524 Y247.058
G01 X245.229 Y247.189
G01 X245.120 Y247.243
G01 X245.153 Y247.567
G01 X245.205 Y247.881
G01 X245.276 Y248.184
G01 X245.365 Y248.475
G01 X245.471 Y248.752
G01 X245.592 Y249.016
G01 X245.671 Y249.166
G01 X245.685 Y249.386
G01 X245.709 Y249.603
G01 X245.745 Y249.816
G01 X245.791 Y250.025
G01 X245.847 Y250.229
G01 X245.912 Y250.427
G01 X245.987 Y250.620
G01 X246.071 Y250.806
G01 X246.164 Y250.985
G01 X246.223 Y251.088
G01 X246.233 Y251.288
G01 X246.254 Y251.490
G01 X246.286 Y251.693
G01 X246.329 Y251.896
G01 X246.383 Y252.100
G01 X246.448 Y252.302
G01 X246.524 Y252.503
G01 X246.612 Y252.702
G01 X246.711 Y252.898
G01 X246.774 Y253.011
G01 X246.798 Y253.296
G01 X246.844 Y253.586
G01 X246.910 Y253.879
G01 X246.998 Y254.174
G01 X247.107 Y254.469
G01 X247.238 Y254.763
G01 X247.325 Y254.933
G01 X247.646 Y254.900
G01 X247.958 Y254.848
G01 X248.258 Y254.777
G01 X248.547 Y254.689
G01 X248.822 Y254.585
G01 X249.084 Y254.465
G01 X249.303 Y254.347
G01 X249.522 Y254.333
G01 X249.737 Y254.308
G01 X249.950 Y254.273
G01 X250.158 Y254.227
G01 X250.361 Y254.171
G01 X250.560 Y254.105
G01 X250.752 Y254.030
G01 X250.939 Y253.947
G01 X251.120 Y253.854
G01 X251.280 Y253.762
G01 X251.485 Y253.750
G01 X251.692 Y253.728
G01 X251.901 Y253.694
G01 X252.110 Y253.648
G01 X252.319 Y253.591
G01 X252.527 Y253.521
G01 X252.735 Y253.440
G01 X252.940 Y253.347
G01 X253.142 Y253.242
G01 X253.258 Y253.176
G01 X253.561 Y253.146
G01 X253.869 Y253.094
G01 X254.181 Y253.019
G01 X254.493 Y252.920
G01 X254.806 Y252.798
G01 X255.117 Y252.652
G01 X255.235 Y252.590
G01 X255.198 Y252.261
G01 X255.141 Y251.942
G01 X255.065 Y251.635
G01 X254.973 Y251.339
G01 X254.864 Y251.057
G01 X254.739 Y250.789
G01 X254.614 Y250.558
G01 X254.595 Y250.328
G01 X254.565 Y250.101
G01 X254.524 Y249.878
G01 X254.473 Y249.659
G01 X254.410 Y249.445
G01 X254.338 Y249.237
G01 X254.256 Y249.034
G01 X254.164 Y248.837
G01 X254.063 Y248.647
G01 X253.993 Y248.526
G01 X253.976 Y248.306
G01 X253.948 Y248.084
G01 X253.907 Y247.861
G01 X253.854 Y247.637
G01 X253.788 Y247.413
G01 X253.709 Y247.191
G01 X253.618 Y246.970
G01 X253.513 Y246.751
G01 X253.396 Y246.535
G01 X253.371 Y246.494
G01 X253.335 Y246.172
G01 X253.275 Y245.846
G01 X253.190 Y245.518
G01 X253.081 Y245.188
G01 X252.947 Y244.858
G01 X252.787 Y244.530
G01 X252.750 Y244.461
G01 X252.399 Y244.507
G01 X252.060 Y244.573
G01 X251.732 Y244.659
G01 X251.419 Y244.763
G01 X251.119 Y244.885
G01 X250.836 Y245.024
G01 X250.664 Y245.119
G01 X250.419 Y245.143
G01 X250.179 Y245.178
G01 X249.942 Y245.225
G01 X249.711 Y245.284
G01 X249.486 Y245.353
G01 X249.266 Y245.434
G01 X249.053 Y245.524
G01 X248.848 Y245.624
G01 X248.650 Y245.734
G01 X248.578 Y245.777
G01 X248.351 Y245.797
G01 X248.122 Y245.829
G01 X247.893 Y245.873
G01 X247.663 Y245.930
G01 X247.434 Y246.000
G01 X247.207 Y246.082
G01 X246.981 Y246.178
G01 X246.758 Y246.286
G01 X246.539 Y246.407
G01 X246.491 Y246.435
G01 X246.171 Y246.473
G01 X245.846 Y246.535
G01 X245.519 Y246.620
G01 X245.190 Y246.730
G01 X244.861 Y246.864
G01 X244.535 Y247.022
G01 X244.405 Y247.093
G01 X244.455 Y247.456
G01 X244.526 Y247.807
G01 X244.618 Y248.145
G01 X244.729 Y248.468
G01 X244.859 Y248.776
G01 X245.005 Y249.067
G01 X245.100 Y249.233
G01 X245.124 Y249.480
G01 X245.161 Y249.723
G01 X245.209 Y249.961
G01 X245.268 Y250.194
G01 X245.339 Y250.421
G01 X245.421 Y250.641
G01 X245.513 Y250.855
G01 X245.615 Y251.061
G01 X245.726 Y251.259
G01 X245.796 Y251.372
G01 X245.815 Y251.597
G01 X245.847 Y251.823
G01 X245.891 Y252.050
G01 X245.947 Y252.277
G01 X246.016 Y252.503
G01 X246.097 Y252.728
G01 X246.191 Y252.951
G01 X246.297 Y253.171
G01 X246.416 Y253.388
G01 X246.491 Y253.512
G01 X246.530 Y253.832
G01 X246.592 Y254.156
G01 X246.678 Y254.483
G01 X246.788 Y254.811
G01 X246.923 Y255.139
G01 X247.082 Y255.465
G01 X247.186 Y255.652
G01 X247.546 Y255.602
G01 X247.895 Y255.531
G01 X248.230 Y255.439
G01 X248.551 Y255.328
G01 X248.857 Y255.200
G01 X249.146 Y255.054
G01 X249.379 Y254.918
G01 X249.625 Y254.894
G01 X249.867 Y254.857
G01 X250.104 Y254.808
G01 X250.337 Y254.748
G01 X250.563 Y254.677
G01 X250.784 Y254.595
G01 X250.998 Y254.503
G01 X251.205 Y254.401
G01 X251.404 Y254.290
G01 X251.572 Y254.185
G01 X251.802 Y254.164
G01 X252.034 Y254.130
G01 X252.266 Y254.083
G01 X252.499 Y254.024
G01 X252.731 Y253.951
G01 X252.962 Y253.865
G01 X253.192 Y253.766
G01 X253.418 Y253.654
G01 X253.641 Y253.528
G01 X253.765 Y253.451
G01 X254.103 Y253.406
G01 X254.446 Y253.336
G01 X254.791 Y253.240
G01 X255.137 Y253.118
G01 X255.481 Y252.969
G01 X255.824 Y252.794
G01 X255.958 Y252.717
G01 X255.903 Y252.349
G01 X255.826 Y251.994
G01 X255.729 Y251.651
G01 X255.613 Y251.323
G01 X255.479 Y251.011
G01 X255.328 Y250.715
G01 X255.185 Y250.472
G01 X255.155 Y250.215
G01 X255.113 Y249.962
G01 X255.058 Y249.714
G01 X254.991 Y249.471
G01 X254.913 Y249.234
G01 X254.824 Y249.003
G01 X254.723 Y248.779
G01 X254.613 Y248.563
G01 X254.493 Y248.354
G01 X254.412 Y248.226
G01 X254.385 Y247.981
G01 X254.345 Y247.735
G01 X254.291 Y247.488
G01 X254.223 Y247.241
G01 X254.141 Y246.995
G01 X254.045 Y246.750
G01 X253.935 Y246.507
G01 X253.810 Y246.268
G01 X253.672 Y246.032
G01 X253.639 Y245.980
G01 X253.586 Y245.625
G01 X253.507 Y245.266
G01 X253.400 Y244.904
G01 X253.267 Y244.542
G01 X253.106 Y244.181
G01 X252.917 Y243.823
G01 X252.865 Y243.735
G01 X252.476 Y243.799
G01 X252.099 Y243.886
G01 X251.738 Y243.995
G01 X251.392 Y244.124
G01 X251.063 Y244.271
G01 X250.752 Y244.437
G01 X250.568 Y244.548
G01 X250.296 Y244.584
G01 X250.030 Y244.632
G01 X249.769 Y244.694
G01 X249.514 Y244.768
G01 X249.266 Y244.854
G01 X249.025 Y244.952
G01 X248.792 Y245.060
G01 X248.567 Y245.180
G01 X248.351 Y245.309
G01 X248.270 Y245.362
G01 X248.019 Y245.393
G01 X247.766 Y245.437
G01 X247.514 Y245.495
G01 X247.261 Y245.567
G01 X247.010 Y245.652
G01 X246.761 Y245.753
G01 X246.514 Y245.867
G01 X246.271 Y245.995
G01 X246.032 Y246.137
G01 X245.972 Y246.176
G01 X245.618 Y246.231
G01 X245.260 Y246.311
G01 X244.900 Y246.418
G01 X244.539 Y246.552
G01 X244.180 Y246.713
G01 X243.824 Y246.902
G01 X243.675 Y246.989
G01 X243.765 Y247.399
G01 X243.879 Y247.793
G01 X244.017 Y248.169
G01 X244.176 Y248.526
G01 X244.355 Y248.863
G01 X244.359 Y248.869
G01 X244.413 Y249.162
G01 X244.483 Y249.448
G01 X244.567 Y249.725
G01 X244.664 Y249.992
G01 X244.775 Y250.249
G01 X244.897 Y250.495
G01 X245.031 Y250.729
G01 X245.043 Y250.748
G01 X245.085 Y250.990
G01 X245.139 Y251.231
G01 X245.205 Y251.468
G01 X245.283 Y251.701
G01 X245.371 Y251.931
G01 X245.471 Y252.156
G01 X245.582 Y252.376
G01 X245.704 Y252.590
G01 X245.727 Y252.627
G01 X245.774 Y252.894
G01 X245.837 Y253.161
G01 X245.916 Y253.429
G01 X246.012 Y253.697
G01 X246.125 Y253.964
G01 X246.254 Y254.228
G01 X246.400 Y254.489
G01 X246.411 Y254.507
G01 X246.490 Y254.881
G01 X246.597 Y255.258
G01 X246.734 Y255.636
G01 X246.899 Y256.012
G01 X247.094 Y256.385
G01 X247.095 Y256.386
G01 X247.501 Y256.295
G01 X247.892 Y256.180
G01 X248.265 Y256.042
G01 X248.619 Y255.883
G01 X248.953 Y255.705
G01 X249.015 Y255.668
G01 X249.306 Y255.613
G01 X249.590 Y255.542
G01 X249.865 Y255.458
G01 X250.130 Y255.360
G01 X250.386 Y255.250
G01 X250.631 Y255.127
G01 X250.865 Y254.994
G01 X250.935 Y254.950
G01 X251.179 Y254.906
G01 X251.421 Y254.851
G01 X251.659 Y254.783
G01 X251.895 Y254.703
G01 X252.127 Y254.612
G01 X252.355 Y254.509
G01 X252.577 Y254.395
G01 X252.794 Y254.270
G01 X252.855 Y254.232
G01 X253.130 Y254.182
G01 X253.407 Y254.114
G01 X253.684 Y254.029
G01 X253.961 Y253.926
G01 X254.237 Y253.806
G01 X254.510 Y253.668
G01 X254.776 Y253.515
G01 X255.170 Y253.427
G01 X255.566 Y253.308
G01 X255.963 Y253.159
G01 X256.357 Y252.978
G01 X256.696 Y252.797
G01 X256.599 Y252.383
G01 X256.477 Y251.986
G01 X256.334 Y251.606
G01 X256.169 Y251.246
G01 X255.985 Y250.906
G01 X255.943 Y250.836
G01 X255.881 Y250.535
G01 X255.805 Y250.242
G01 X255.713 Y249.957
G01 X255.609 Y249.682
G01 X255.491 Y249.418
G01 X255.361 Y249.164
G01 X255.219 Y248.921
G01 X255.191 Y248.876
G01 X255.140 Y248.619
G01 X255.078 Y248.365
G01 X255.002 Y248.114
G01 X254.914 Y247.866
G01 X254.814 Y247.622
G01 X254.702 Y247.383
G01 X254.578 Y247.149
G01 X254.442 Y246.922
G01 X254.438 Y246.915
G01 X254.380 Y246.625
G01 X254.304 Y246.333
G01 X254.209 Y246.041
G01 X254.096 Y245.750
G01 X253.965 Y245.460
G01 X253.815 Y245.174
G01 X253.685 Y244.955
G01 X253.588 Y244.544
G01 X253.460 Y244.132
G01 X253.299 Y243.719
G01 X253.105 Y243.309
G01 X252.933 Y242.994
G01 X252.497 Y243.102
G01 X252.080 Y243.236
G01 X251.681 Y243.393
G01 X251.304 Y243.573
G01 X250.948 Y243.773
G01 X250.932 Y243.782
G01 X250.616 Y243.851
G01 X250.308 Y243.936
G01 X250.009 Y244.036
G01 X249.722 Y244.150
G01 X249.446 Y244.278
G01 X249.181 Y244.419
G01 X248.932 Y244.570
G01 X248.666 Y244.625
G01 X248.403 Y244.693
G01 X248.143 Y244.775
G01 X247.887 Y244.868
G01 X247.637 Y244.975
G01 X247.391 Y245.093
G01 X247.151 Y245.224
G01 X246.932 Y245.358
G01 X246.638 Y245.420
G01 X246.344 Y245.499
G01 X246.049 Y245.597
G01 X245.755 Y245.713
G01 X245.464 Y245.847
G01 X245.175 Y246.000
G01 X244.931 Y246.146
G01 X244.523 Y246.245
G01 X244.114 Y246.375
G01 X243.704 Y246.537
G01 X243.297 Y246.731
G01 X242.931 Y246.934
G01 X243.046 Y247.381
G01 X243.187 Y247.809
G01 X243.352 Y248.217
G01 X243.541 Y248.604
G01 X243.751 Y248.967
G01 X243.755 Y248.974
G01 X243.826 Y249.294
G01 X243.914 Y249.606
G01 X244.017 Y249.907
G01 X244.134 Y250.196
G01 X244.265 Y250.474
G01 X244.409 Y250.740
G01 X244.566 Y250.993
G01 X244.579 Y251.014
G01 X244.635 Y251.278
G01 X244.704 Y251.540
G01 X244.785 Y251.798
G01 X244.879 Y252.052
G01 X244.986 Y252.301
G01 X245.104 Y252.545
G01 X245.235 Y252.782
G01 X245.377 Y253.013
G01 X245.403 Y253.053
G01 X245.465 Y253.344
G01 X245.545 Y253.636
G01 X245.643 Y253.928
G01 X245.758 Y254.219
G01 X245.892 Y254.507
G01 X246.045 Y254.793
G01 X246.215 Y255.074
G01 X246.227 Y255.093
G01 X246.329 Y255.502
G01 X246.461 Y255.912
G01 X246.626 Y256.322
G01 X246.822 Y256.729
G01 X247.051 Y257.132
G01 X247.052 Y257.133
G01 X247.495 Y257.017
G01 X247.920 Y256.875
G01 X248.325 Y256.709
G01 X248.708 Y256.521
G01 X249.069 Y256.311
G01 X249.130 Y256.272
G01 X249.449 Y256.199
G01 X249.758 Y256.111
G01 X250.057 Y256.007
G01 X250.345 Y255.889
G01 X250.622 Y255.758
G01 X250.887 Y255.614
G01 X251.139 Y255.457
G01 X251.209 Y255.411
G01 X251.475 Y255.353
G01 X251.739 Y255.282
G01 X251.999 Y255.198
G01 X252.255 Y255.102
G01 X252.506 Y254.992
G01 X252.752 Y254.871
G01 X252.992 Y254.737
G01 X253.226 Y254.591
G01 X253.288 Y254.550
G01 X253.587 Y254.483
G01 X253.888 Y254.398
G01 X254.189 Y254.294
G01 X254.489 Y254.171
G01 X254.787 Y254.029
G01 X255.081 Y253.867
G01 X255.366 Y253.689
G01 X255.795 Y253.578
G01 X256.224 Y253.433
G01 X256.653 Y253.254
G01 X257.078 Y253.041
G01 X257.445 Y252.828
G01 X257.322 Y252.377
G01 X257.174 Y251.945
G01 X257.001 Y251.534
G01 X256.806 Y251.145
G01 X256.590 Y250.778
G01 X256.547 Y250.711
G01 X256.467 Y250.382
G01 X256.372 Y250.063
G01 X256.260 Y249.755
G01 X256.135 Y249.457
G01 X255.995 Y249.172
G01 X255.843 Y248.898
G01 X255.678 Y248.638
G01 X255.648 Y248.593
G01 X255.583 Y248.315
G01 X255.505 Y248.039
G01 X255.413 Y247.767
G01 X255.307 Y247.499
G01 X255.188 Y247.236
G01 X255.056 Y246.979
G01 X254.911 Y246.728
G01 X254.754 Y246.484
G01 X254.749 Y246.476
G01 X254.675 Y246.162
G01 X254.581 Y245.847
G01 X254.467 Y245.531
G01 X254.333 Y245.218
G01 X254.178 Y244.907
G01 X254.004 Y244.599
G01 X253.850 Y244.359
G01 X253.729 Y243.915
G01 X253.574 Y243.471
G01 X253.383 Y243.027
G01 X253.157 Y242.587
G01 X252.952 Y242.242
G01 X252.480 Y242.377
G01 X252.028 Y242.539
G01 X251.598 Y242.726
G01 X251.192 Y242.937
G01 X250.811 Y243.170
G01 X250.797 Y243.179
G01 X250.453 Y243.266
G01 X250.120 Y243.371
G01 X249.798 Y243.491
G01 X249.489 Y243.627
G01 X249.192 Y243.778
G01 X248.908 Y243.941
G01 X248.642 Y244.116
G01 X248.354 Y244.186
G01 X248.069 Y244.271
G01 X247.789 Y244.369
G01 X247.514 Y244.481
G01 X247.244 Y244.606
G01 X246.981 Y244.745
G01 X246.725 Y244.896
G01 X246.487 Y245.053
G01 X246.169 Y245.131
G01 X245.851 Y245.229
G01 X245.534 Y245.347
G01 X245.219 Y245.484
G01 X244.906 Y245.641
G01 X244.598 Y245.818
G01 X244.331 Y245.990
G01 X243.891 Y246.114
G01 X243.449 Y246.271
G01 X243.009 Y246.463
G01 X242.572 Y246.689
G01 X242.176 Y246.927
G01 X242.318 Y247.410
G01 X242.488 Y247.872
G01 X242.685 Y248.310
G01 X242.905 Y248.724
G01 X243.148 Y249.112
G01 X243.153 Y249.120
G01 X243.242 Y249.467
G01 X243.350 Y249.803
G01 X243.473 Y250.127
G01 X243.612 Y250.438
G01 X243.766 Y250.736
G01 X243.933 Y251.021
G01 X244.113 Y251.290
G01 X244.129 Y251.312
G01 X244.200 Y251.599
G01 X244.285 Y251.882
G01 X244.383 Y252.160
G01 X244.496 Y252.433
G01 X244.621 Y252.701
G01 X244.760 Y252.962
G01 X244.911 Y253.215
G01 X245.074 Y253.462
G01 X245.105 Y253.505
G01 X245.184 Y253.819
G01 X245.282 Y254.135
G01 X245.399 Y254.449
G01 X245.536 Y254.762
G01 X245.693 Y255.072
G01 X245.870 Y255.377
G01 X246.067 Y255.677
G01 X246.081 Y255.697
G01 X246.207 Y256.139
G01 X246.367 Y256.581
G01 X246.562 Y257.022
G01 X246.792 Y257.458
G01 X247.057 Y257.889
G01 X247.536 Y257.746
G01 X247.994 Y257.575
G01 X248.429 Y257.379
G01 X248.840 Y257.158
G01 X249.225 Y256.916
G01 X249.287 Y256.874
G01 X249.631 Y256.782
G01 X249.965 Y256.674
G01 X250.287 Y256.549
G01 X250.597 Y256.410
G01 X250.894 Y256.255
G01 X251.178 Y256.088
G01 X251.447 Y255.908
G01 X251.516 Y255.858
G01 X251.804 Y255.784
G01 X252.089 Y255.697
G01 X252.369 Y255.596
G01 X252.645 Y255.480
G01 X252.914 Y255.351
G01 X253.178 Y255.209
G01 X253.434 Y255.054
G01 X253.683 Y254.886
G01 X253.745 Y254.842
G01 X254.069 Y254.758
G01 X254.393 Y254.654
G01 X254.717 Y254.529
G01 X255.039 Y254.384
G01 X255.357 Y254.218
G01 X255.671 Y254.030
G01 X255.975 Y253.826
G01 X256.436 Y253.689
G01 X256.897 Y253.515
G01 X257.356 Y253.305
G01 X257.810 Y253.058
G01 X258.204 Y252.810
G01 X258.035 Y252.318
G01 X257.838 Y251.850
G01 X257.615 Y251.407
G01 X257.368 Y250.990
G01 X257.324 Y250.922
G01 X257.205 Y250.549
G01 X257.069 Y250.191
G01 X256.914 Y249.847
G01 X256.744 Y249.519
G01 X256.558 Y249.208
G01 X256.443 Y249.034
G01 X256.349 Y248.726
G01 X256.241 Y248.426
G01 X256.118 Y248.133
G01 X255.982 Y247.849
G01 X255.832 Y247.573
G01 X255.670 Y247.307
G01 X255.563 Y247.145
G01 X255.471 Y246.844
G01 X255.363 Y246.545
G01 X255.239 Y246.249
G01 X255.099 Y245.957
G01 X254.942 Y245.669
G01 X254.769 Y245.388
G01 X254.682 Y245.257
G01 X254.615 Y244.842
G01 X254.517 Y244.423
G01 X254.390 Y244.001
G01 X254.231 Y243.579
G01 X254.041 Y243.159
G01 X253.820 Y242.742
G01 X253.567 Y242.331
G01 X253.283 Y241.928
G01 X252.968 Y241.535
G01 X252.921 Y241.481
G01 X252.409 Y241.664
G01 X251.921 Y241.876
G01 X251.460 Y242.116
G01 X251.027 Y242.380
G01 X251.003 Y242.396
G01 X250.615 Y242.524
G01 X250.242 Y242.671
G01 X249.885 Y242.837
G01 X249.545 Y243.020
G01 X249.222 Y243.218
G01 X249.085 Y243.311
G01 X248.767 Y243.412
G01 X248.457 Y243.528
G01 X248.155 Y243.658
G01 X247.862 Y243.803
G01 X247.579 Y243.961
G01 X247.306 Y244.131
G01 X247.167 Y244.225
G01 X246.860 Y244.322
G01 X246.556 Y244.435
G01 X246.255 Y244.565
G01 X245.959 Y244.710
G01 X245.668 Y244.872
G01 X245.383 Y245.050
G01 X245.249 Y245.140
G01 X244.886 Y245.258
G01 X244.523 Y245.400
G01 X244.163 Y245.567
G01 X243.805 Y245.758
G01 X243.453 Y245.974
G01 X243.332 Y246.055
G01 X242.844 Y246.228
G01 X242.357 Y246.439
G01 X241.875 Y246.689
G01 X241.414 Y246.970
G01 X241.605 Y247.493
G01 X241.827 Y247.991
G01 X242.076 Y248.460
G01 X242.351 Y248.900
G01 X242.363 Y248.917
G01 X242.495 Y249.310
G01 X242.647 Y249.686
G01 X242.818 Y250.046
G01 X243.005 Y250.389
G01 X243.208 Y250.713
G01 X243.313 Y250.865
G01 X243.416 Y251.182
G01 X243.533 Y251.492
G01 X243.665 Y251.793
G01 X243.811 Y252.085
G01 X243.970 Y252.367
G01 X244.142 Y252.638
G01 X244.263 Y252.812
G01 X244.360 Y253.116
G01 X244.474 Y253.418
G01 X244.603 Y253.716
G01 X244.749 Y254.009
G01 X244.911 Y254.297
G01 X245.088 Y254.579
G01 X245.213 Y254.760
G01 X245.332 Y255.121
G01 X245.475 Y255.481
G01 X245.643 Y255.840
G01 X245.835 Y256.194
G01 X246.052 Y256.544
G01 X246.163 Y256.707
G01 X246.339 Y257.196
G01 X246.555 Y257.684
G01 X246.810 Y258.166
G01 X247.104 Y258.642
G01 X247.112 Y258.654
G01 X247.631 Y258.461
G01 X248.124 Y258.238
G01 X248.589 Y257.988
G01 X249.025 Y257.713
G01 X249.089 Y257.669
G01 X249.478 Y257.535
G01 X249.852 Y257.382
G01 X250.209 Y257.211
G01 X250.549 Y257.023
G01 X250.872 Y256.819
G01 X251.065 Y256.684
G01 X251.382 Y256.579
G01 X251.692 Y256.459
G01 X251.993 Y256.324
G01 X252.285 Y256.176
G01 X252.567 Y256.015
G01 X252.840 Y255.840
G01 X253.041 Y255.698
G01 X253.350 Y255.597
G01 X253.656 Y255.479
G01 X253.959 Y255.344
G01 X254.256 Y255.193
G01 X254.549 Y255.025
G01 X254.835 Y254.841
G01 X255.018 Y254.713
G01 X255.390 Y254.586
G01 X255.762 Y254.434
G01 X256.131 Y254.256
G01 X256.497 Y254.053
G01 X256.857 Y253.823
G01 X256.994 Y253.728
G01 X257.503 Y253.538
G01 X258.010 Y253.306
G01 X258.511 Y253.034
G01 X258.970 Y252.742
G01 X258.768 Y252.216
G01 X258.537 Y251.717
G01 X258.279 Y251.246
G01 X257.996 Y250.805
G01 X257.949 Y250.737
G01 X257.807 Y250.339
G01 X257.645 Y249.957
G01 X257.465 Y249.591
G01 X257.268 Y249.243
G01 X257.055 Y248.913
G01 X256.927 Y248.733
G01 X256.814 Y248.404
G01 X256.685 Y248.084
G01 X256.542 Y247.772
G01 X256.384 Y247.470
G01 X256.212 Y247.178
G01 X256.027 Y246.897
G01 X255.906 Y246.728
G01 X255.796 Y246.406
G01 X255.668 Y246.088
G01 X255.523 Y245.773
G01 X255.361 Y245.464
G01 X255.181 Y245.160
G01 X254.985 Y244.863
G01 X254.884 Y244.723
G01 X254.748 Y244.337
G01 X254.584 Y243.952
G01 X254.395 Y243.570
G01 X254.178 Y243.192
G01 X253.935 Y242.820
G01 X253.863 Y242.718
G01 X253.661 Y242.196
G01 X253.417 Y241.676
G01 X253.131 Y241.162
G01 X252.841 Y240.714
G01 X252.295 Y240.931
G01 X251.777 Y241.178
G01 X251.289 Y241.454
G01 X250.832 Y241.755
G01 X250.809 Y241.772
G01 X250.395 Y241.924
G01 X249.998 Y242.098
G01 X249.620 Y242.290
G01 X249.260 Y242.499
G01 X248.919 Y242.726
G01 X248.776 Y242.830
G01 X248.437 Y242.951
G01 X248.107 Y243.087
G01 X247.787 Y243.239
G01 X247.477 Y243.406
G01 X247.178 Y243.586
G01 X246.890 Y243.780
G01 X246.743 Y243.888
G01 X246.416 Y244.004
G01 X246.093 Y244.137
G01 X245.774 Y244.287
G01 X245.461 Y244.455
G01 X245.154 Y244.640
G01 X244.854 Y244.841
G01 X244.710 Y244.946
G01 X244.324 Y245.087
G01 X243.939 Y245.253
G01 X243.557 Y245.446
G01 X243.180 Y245.665
G01 X242.809 Y245.910
G01 X242.678 Y246.004
G01 X242.159 Y246.208
G01 X241.644 Y246.454
G01 X241.134 Y246.741
G01 X240.645 Y247.063
G01 X240.871 Y247.619
G01 X241.128 Y248.145
G01 X241.414 Y248.641
G01 X241.727 Y249.104
G01 X241.740 Y249.123
G01 X241.897 Y249.540
G01 X242.075 Y249.940
G01 X242.272 Y250.321
G01 X242.486 Y250.682
G01 X242.717 Y251.024
G01 X242.836 Y251.183
G01 X242.958 Y251.521
G01 X243.096 Y251.850
G01 X243.250 Y252.169
G01 X243.418 Y252.478
G01 X243.600 Y252.775
G01 X243.795 Y253.060
G01 X243.931 Y253.243
G01 X244.047 Y253.567
G01 X244.181 Y253.887
G01 X244.332 Y254.203
G01 X244.500 Y254.513
G01 X244.684 Y254.817
G01 X244.886 Y255.114
G01 X245.027 Y255.303
G01 X245.168 Y255.688
G01 X245.336 Y256.070
G01 X245.530 Y256.450
G01 X245.750 Y256.825
G01 X245.997 Y257.193
G01 X246.122 Y257.364
G01 X246.330 Y257.884
G01 X246.581 Y258.400
G01 X246.874 Y258.910
G01 X247.208 Y259.411
G01 X247.218 Y259.424
G01 X247.769 Y259.196
G01 X248.291 Y258.937
G01 X248.782 Y258.650
G01 X249.241 Y258.338
G01 X249.305 Y258.291
G01 X249.719 Y258.132
G01 X250.115 Y257.953
G01 X250.494 Y257.755
G01 X250.853 Y257.539
G01 X251.193 Y257.308
G01 X251.392 Y257.157
G01 X251.730 Y257.032
G01 X252.058 Y256.891
G01 X252.378 Y256.735
G01 X252.686 Y256.565
G01 X252.984 Y256.380
G01 X253.271 Y256.182
G01 X253.479 Y256.024
G01 X253.807 Y255.903
G01 X254.132 Y255.765
G01 X254.453 Y255.609
G01 X254.767 Y255.435
G01 X255.076 Y255.243
G01 X255.377 Y255.034
G01 X255.566 Y254.891
G01 X255.962 Y254.741
G01 X256.355 Y254.563
G01 X256.746 Y254.359
G01 X257.131 Y254.126
G01 X257.509 Y253.866
G01 X257.653 Y253.758
G01 X258.193 Y253.535
G01 X258.728 Y253.268
G01 X259.256 Y252.956
G01 X259.741 Y252.624
G01 X259.504 Y252.066
G01 X259.236 Y251.538
G01 X258.940 Y251.041
G01 X258.619 Y250.577
G01 X258.569 Y250.511
G01 X258.401 Y250.088
G01 X258.213 Y249.682
G01 X258.006 Y249.296
G01 X257.781 Y248.929
G01 X257.539 Y248.582
G01 X257.397 Y248.397
G01 X257.263 Y248.048
G01 X257.113 Y247.709
G01 X256.947 Y247.380
G01 X256.766 Y247.061
G01 X256.571 Y246.754
G01 X256.361 Y246.459
G01 X256.226 Y246.283
G01 X256.096 Y245.943
G01 X255.947 Y245.606
G01 X255.780 Y245.274
G01 X255.594 Y244.948
G01 X255.390 Y244.629
G01 X255.168 Y244.318
G01 X255.054 Y244.170
G01 X254.893 Y243.761
G01 X254.704 Y243.355
G01 X254.487 Y242.952
G01 X254.241 Y242.556
G01 X253.967 Y242.167
G01 X253.883 Y242.056
G01 X253.647 Y241.504
G01 X253.367 Y240.957
G01 X253.042 Y240.417
G01 X252.711 Y239.942
G01 X252.133 Y240.196
G01 X251.586 Y240.481
G01 X251.073 Y240.795
G01 X250.594 Y241.135
G01 X250.571 Y241.153
G01 X250.134 Y241.332
G01 X249.715 Y241.533
G01 X249.316 Y241.753
G01 X248.938 Y241.991
G01 X248.581 Y242.246
G01 X248.432 Y242.363
G01 X248.073 Y242.505
G01 X247.725 Y242.664
G01 X247.387 Y242.839
G01 X247.062 Y243.029
G01 X246.748 Y243.233
G01 X246.447 Y243.452
G01 X246.292 Y243.574
G01 X245.947 Y243.710
G01 X245.605 Y243.864
G01 X245.270 Y244.037
G01 X244.941 Y244.228
G01 X244.619 Y244.437
G01 X244.306 Y244.664
G01 X244.152 Y244.785
G01 X243.744 Y244.949
G01 X243.338 Y245.141
G01 X242.937 Y245.362
G01 X242.541 Y245.610
G01 X242.154 Y245.886
G01 X242.013 Y245.995
G01 X241.465 Y246.233
G01 X240.923 Y246.515
G01 X240.388 Y246.841
G01 X239.873 Y247.206
G01 X240.057 Y247.775
G01 X240.271 Y248.319
G01 X240.513 Y248.837
G01 X240.783 Y249.327
G01 X241.077 Y249.788
G01 X241.393 Y250.218
G01 X241.729 Y250.616
G01 X242.016 Y250.917
G01 X242.122 Y251.299
G01 X242.245 Y251.674
G01 X242.386 Y252.039
G01 X242.545 Y252.394
G01 X242.719 Y252.739
G01 X242.910 Y253.072
G01 X243.115 Y253.394
G01 X243.335 Y253.702
G01 X243.569 Y253.998
G01 X243.815 Y254.279
G01 X244.073 Y254.546
G01 X244.159 Y254.629
G01 X244.265 Y255.022
G01 X244.397 Y255.415
G01 X244.553 Y255.807
G01 X244.735 Y256.197
G01 X244.942 Y256.582
G01 X245.174 Y256.962
G01 X245.432 Y257.334
G01 X245.715 Y257.698
G01 X246.022 Y258.051
G01 X246.302 Y258.340
G01 X246.565 Y258.901
G01 X246.875 Y259.456
G01 X247.231 Y260.000
G01 X247.373 Y260.196
G01 X247.939 Y260.011
G01 X248.480 Y259.795
G01 X248.995 Y259.551
G01 X249.482 Y259.281
G01 X249.940 Y258.987
G01 X250.368 Y258.671
G01 X250.765 Y258.335
G01 X251.127 Y257.985
G01 X251.510 Y257.876
G01 X251.884 Y257.750
G01 X252.249 Y257.606
G01 X252.605 Y257.445
G01 X252.951 Y257.268
G01 X253.286 Y257.074
G01 X253.608 Y256.865
G01 X253.918 Y256.642
G01 X254.215 Y256.405
G01 X254.499 Y256.155
G01 X254.768 Y255.893
G01 X254.882 Y255.773
G01 X255.284 Y255.660
G01 X255.687 Y255.522
G01 X256.088 Y255.357
G01 X256.487 Y255.166
G01 X256.881 Y254.948
G01 X257.269 Y254.704
G01 X257.650 Y254.434
G01 X258.021 Y254.137
G01 X258.381 Y253.814
G01 X258.636 Y253.562
G01 X259.216 Y253.282
G01 X259.789 Y252.953
G01 X260.351 Y252.576
G01 X260.513 Y252.456
G01 X260.318 Y251.882
G01 X260.092 Y251.333
G01 X259.838 Y250.811
G01 X259.557 Y250.317
G01 X259.253 Y249.853
G01 X258.927 Y249.419
G01 X258.581 Y249.017
G01 X258.232 Y248.660
G01 X258.115 Y248.267
G01 X257.979 Y247.882
G01 X257.824 Y247.506
G01 X257.652 Y247.140
G01 X257.464 Y246.784
G01 X257.258 Y246.441
G01 X257.038 Y246.110
G01 X256.802 Y245.792
G01 X256.552 Y245.487
G01 X256.289 Y245.197
G01 X256.013 Y244.922
G01 X255.951 Y244.864
G01 X255.828 Y244.449
G01 X255.678 Y244.033
G01 X255.502 Y243.619
G01 X255.297 Y243.209
G01 X255.066 Y242.803
G01 X254.807 Y242.405
G01 X254.521 Y242.014
G01 X254.209 Y241.634
G01 X253.869 Y241.266
G01 X253.670 Y241.068
G01 X253.378 Y240.476
G01 X253.035 Y239.893
G01 X252.643 Y239.321
G01 X252.530 Y239.170
G01 X251.937 Y239.380
G01 X251.371 Y239.621
G01 X250.833 Y239.892
G01 X250.325 Y240.189
G01 X249.849 Y240.511
G01 X249.404 Y240.856
G01 X248.994 Y241.220
G01 X248.693 Y241.521
G01 X248.301 Y241.704
G01 X247.924 Y241.905
G01 X247.562 Y242.123
G01 X247.216 Y242.357
G01 X246.888 Y242.605
G01 X246.775 Y242.697
G01 X246.419 Y242.861
G01 X246.071 Y243.043
G01 X245.733 Y243.242
G01 X245.405 Y243.457
G01 X245.088 Y243.688
G01 X244.856 Y243.872
G01 X244.439 Y244.000
G01 X244.023 Y244.154
G01 X243.608 Y244.335
G01 X243.197 Y244.543
G01 X242.792 Y244.777
G01 X242.393 Y245.039
G01 X242.003 Y245.327
G01 X241.624 Y245.642
G01 X241.256 Y245.983
G01 X241.019 Y246.224
G01 X240.433 Y246.519
G01 X239.855 Y246.863
G01 X239.289 Y247.256
G01 X239.101 Y247.399
G01 X239.318 Y247.999
G01 X239.566 Y248.572
G01 X239.844 Y249.114
G01 X240.149 Y249.627
G01 X240.480 Y250.107
G01 X240.833 Y250.553
G01 X241.206 Y250.966
G01 X241.523 Y251.276
G01 X241.709 Y251.668
G01 X241.913 Y252.044
G01 X242.133 Y252.405
G01 X242.369 Y252.749
G01 X242.620 Y253.076
G01 X242.735 Y253.214
G01 X242.900 Y253.568
G01 X243.083 Y253.912
G01 X243.283 Y254.247
G01 X243.498 Y254.572
G01 X243.730 Y254.886
G01 X243.946 Y255.153
G01 X244.120 Y255.524
G01 X244.317 Y255.890
G01 X244.536 Y256.251
G01 X244.776 Y256.603
G01 X245.038 Y256.947
G01 X245.157 Y257.091
G01 X245.333 Y257.610
G01 X245.549 Y258.128
G01 X245.805 Y258.642
G01 X246.101 Y259.150
G01 X246.437 Y259.650
G01 X246.812 Y260.137
G01 X247.228 Y260.610
G01 X247.580 Y260.968
G01 X248.176 Y260.749
G01 X248.744 Y260.499
G01 X249.284 Y260.220
G01 X249.793 Y259.913
G01 X250.271 Y259.582
G01 X250.715 Y259.229
G01 X251.126 Y258.857
G01 X251.495 Y258.473
G01 X251.885 Y258.285
G01 X252.261 Y258.078
G01 X252.620 Y257.855
G01 X252.963 Y257.617
G01 X253.290 Y257.364
G01 X253.453 Y257.226
G01 X253.808 Y257.056
G01 X254.155 Y256.869
G01 X254.492 Y256.664
G01 X254.819 Y256.443
G01 X255.135 Y256.206
G01 X255.411 Y255.979
G01 X255.789 Y255.797
G01 X256.162 Y255.593
G01 X256.528 Y255.365
G01 X256.887 Y255.115
G01 X257.237 Y254.843
G01 X257.369 Y254.732
G01 X257.904 Y254.543
G01 X258.437 Y254.314
G01 X258.967 Y254.042
G01 X259.489 Y253.729
G01 X260.001 Y253.374
G01 X260.500 Y252.977
G01 X260.984 Y252.539
G01 X261.285 Y252.237
G01 X261.055 Y251.632
G01 X260.794 Y251.056
G01 X260.503 Y250.509
G01 X260.186 Y249.993
G01 X259.844 Y249.510
G01 X259.480 Y249.060
G01 X259.097 Y248.645
G01 X258.717 Y248.283
G01 X258.518 Y247.883
G01 X258.301 Y247.499
G01 X258.067 Y247.131
G01 X257.817 Y246.779
G01 X257.552 Y246.445
G01 X257.433 Y246.306
G01 X257.253 Y245.941
G01 X257.054 Y245.584
G01 X256.838 Y245.237
G01 X256.605 Y244.900
G01 X256.355 Y244.575
G01 X256.150 Y244.329
G01 X255.957 Y243.940
G01 X255.740 Y243.556
G01 X255.500 Y243.179
G01 X255.237 Y242.811
G01 X254.950 Y242.452
G01 X254.866 Y242.353
G01 X254.665 Y241.806
G01 X254.423 Y241.260
G01 X254.137 Y240.720
G01 X253.809 Y240.188
G01 X253.439 Y239.666
G01 X253.026 Y239.158
G01 X252.571 Y238.666
G01 X252.298 Y238.399
G01 X251.675 Y238.644
G01 X251.082 Y238.922
G01 X250.521 Y239.229
G01 X249.992 Y239.565
G01 X249.497 Y239.925
G01 X249.038 Y240.308
G01 X248.615 Y240.711
G01 X248.307 Y241.040
G01 X247.898 Y241.249
G01 X247.504 Y241.477
G01 X247.128 Y241.722
G01 X246.769 Y241.983
G01 X246.429 Y242.259
G01 X246.312 Y242.361
G01 X245.940 Y242.549
G01 X245.578 Y242.755
G01 X245.227 Y242.978
G01 X244.886 Y243.219
G01 X244.558 Y243.476
G01 X244.317 Y243.682
G01 X243.926 Y243.880
G01 X243.541 Y244.101
G01 X243.163 Y244.346
G01 X242.794 Y244.613
G01 X242.435 Y244.904
G01 X242.321 Y245.002
G01 X241.777 Y245.206
G01 X241.236 Y245.451
G01 X240.699 Y245.738
G01 X240.170 Y246.067
G01 X239.652 Y246.438
G01 X239.147 Y246.851
G01 X238.659 Y247.304
G01 X238.331 Y247.644
G01 X238.583 Y248.273
G01 X238.868 Y248.871
G01 X239.183 Y249.437
G01 X239.526 Y249.970
G01 X239.895 Y250.467
G01 X240.286 Y250.928
G01 X240.698 Y251.352
G01 X241.047 Y251.671
G01 X241.259 Y252.080
G01 X241.489 Y252.472
G01 X241.736 Y252.847
G01 X241.999 Y253.203
G01 X242.277 Y253.541
G01 X242.405 Y253.684
G01 X242.594 Y254.053
G01 X242.801 Y254.412
G01 X243.025 Y254.760
G01 X243.266 Y255.097
G01 X243.523 Y255.422
G01 X243.763 Y255.697
G01 X243.962 Y256.085
G01 X244.184 Y256.467
G01 X244.430 Y256.841
G01 X244.698 Y257.207
G01 X244.989 Y257.562
G01 X245.121 Y257.711
G01 X245.327 Y258.255
G01 X245.575 Y258.797
G01 X245.866 Y259.334
G01 X246.199 Y259.863
G01 X246.575 Y260.380
G01 X246.992 Y260.884
G01 X247.450 Y261.371
G01 X247.837 Y261.737
G01 X248.477 Y261.372
G01 X249.075 Y260.974
G01 X249.631 Y260.545
G01 X249.868 Y260.342
G01 X250.366 Y260.071
G01 X250.837 Y259.777
G01 X251.280 Y259.462
G01 X251.694 Y259.127
G01 X251.899 Y258.946
G01 X252.306 Y258.731
G01 X252.697 Y258.498
G01 X253.070 Y258.247
G01 X253.426 Y257.981
G01 X253.763 Y257.700
G01 X253.929 Y257.550
G01 X254.300 Y257.356
G01 X254.661 Y257.145
G01 X255.012 Y256.915
G01 X255.351 Y256.668
G01 X255.678 Y256.405
G01 X255.960 Y256.154
G01 X256.355 Y255.948
G01 X256.743 Y255.717
G01 X257.123 Y255.462
G01 X257.494 Y255.183
G01 X257.855 Y254.881
G01 X257.991 Y254.759
G01 X258.551 Y254.539
G01 X259.109 Y254.276
G01 X259.660 Y253.969
G01 X260.202 Y253.617
G01 X260.732 Y253.222
G01 X261.247 Y252.783
G01 X261.743 Y252.301
G01 X262.053 Y251.967
G01 X261.760 Y251.331
G01 X261.435 Y250.728
G01 X261.080 Y250.161
G01 X260.697 Y249.630
G01 X260.290 Y249.137
G01 X259.862 Y248.683
G01 X259.544 Y248.383
G01 X259.358 Y247.938
G01 X259.151 Y247.507
G01 X258.925 Y247.091
G01 X258.680 Y246.691
G01 X258.418 Y246.309
G01 X258.139 Y245.943
G01 X257.846 Y245.597
G01 X257.537 Y245.269
G01 X257.216 Y244.961
G01 X257.034 Y244.799
G01 X256.864 Y244.384
G01 X256.671 Y243.972
G01 X256.453 Y243.567
G01 X256.211 Y243.168
G01 X255.945 Y242.778
G01 X255.656 Y242.397
G01 X255.344 Y242.028
G01 X255.009 Y241.672
G01 X254.652 Y241.329
G01 X254.525 Y241.216
G01 X254.260 Y240.627
G01 X253.947 Y240.044
G01 X253.588 Y239.471
G01 X253.181 Y238.909
G01 X252.727 Y238.363
G01 X252.228 Y237.836
G01 X252.015 Y237.632
G01 X251.362 Y237.942
G01 X250.743 Y238.285
G01 X250.162 Y238.659
G01 X249.619 Y239.061
G01 X249.116 Y239.488
G01 X248.654 Y239.937
G01 X248.403 Y240.209
G01 X247.947 Y240.405
G01 X247.506 Y240.621
G01 X247.082 Y240.858
G01 X246.675 Y241.114
G01 X246.286 Y241.387
G01 X245.915 Y241.677
G01 X245.564 Y241.982
G01 X245.233 Y242.301
G01 X244.922 Y242.633
G01 X244.790 Y242.786
G01 X244.371 Y242.961
G01 X243.958 Y243.161
G01 X243.550 Y243.384
G01 X243.150 Y243.631
G01 X242.759 Y243.902
G01 X242.378 Y244.195
G01 X242.008 Y244.512
G01 X241.652 Y244.851
G01 X241.310 Y245.212
G01 X241.178 Y245.362
G01 X240.593 Y245.630
G01 X240.015 Y245.945
G01 X239.446 Y246.306
G01 X238.889 Y246.713
G01 X238.348 Y247.167
G01 X237.825 Y247.666
G01 X237.565 Y247.939
G01 X237.883 Y248.599
G01 X238.235 Y249.222
G01 X238.618 Y249.807
G01 X239.029 Y250.353
G01 X239.465 Y250.857
G01 X239.923 Y251.320
G01 X240.210 Y251.580
G01 X240.408 Y252.035
G01 X240.627 Y252.475
G01 X240.866 Y252.898
G01 X241.123 Y253.304
G01 X241.398 Y253.692
G01 X241.690 Y254.061
G01 X241.997 Y254.410
G01 X242.317 Y254.739
G01 X242.651 Y255.047
G01 X242.855 Y255.220
G01 X243.031 Y255.636
G01 X243.231 Y256.047
G01 X243.455 Y256.452
G01 X243.703 Y256.849
G01 X243.973 Y257.237
G01 X244.267 Y257.615
G01 X244.584 Y257.981
G01 X244.923 Y258.335
G01 X245.284 Y258.674
G01 X245.500 Y258.861
G01 X245.772 Y259.446
G01 X246.092 Y260.025
G01 X246.458 Y260.594
G01 X246.871 Y261.151
G01 X247.331 Y261.692
G01 X247.836 Y262.213
G01 X248.145 Y262.502
G01 X248.800 Y262.181
G01 X249.418 Y261.827
G01 X250.000 Y261.442
G01 X250.541 Y261.030
G01 X251.043 Y260.593
G01 X251.503 Y260.135
G01 X251.813 Y259.788
G01 X252.267 Y259.586
G01 X252.706 Y259.364
G01 X253.128 Y259.121
G01 X253.534 Y258.861
G01 X253.921 Y258.582
G01 X254.290 Y258.287
G01 X254.639 Y257.977
G01 X254.968 Y257.653
G01 X255.277 Y257.316
G01 X255.480 Y257.074
G01 X255.902 Y256.891
G01 X256.318 Y256.684
G01 X256.729 Y256.452
G01 X257.131 Y256.196
G01 X257.525 Y255.915
G01 X257.907 Y255.611
G01 X258.278 Y255.283
G01 X258.636 Y254.933
G01 X258.979 Y254.559
G01 X259.148 Y254.360
G01 X259.749 Y254.072
G01 X260.343 Y253.735
G01 X260.926 Y253.350
G01 X261.496 Y252.916
G01 X262.048 Y252.434
G01 X262.580 Y251.904
G01 X262.815 Y251.646
G01 X262.482 Y250.984
G01 X262.115 Y250.358
G01 X261.718 Y249.771
G01 X261.294 Y249.224
G01 X260.845 Y248.718
G01 X260.375 Y248.254
G01 X260.032 Y247.952
G01 X259.819 Y247.488
G01 X259.584 Y247.040
G01 X259.330 Y246.609
G01 X259.057 Y246.196
G01 X258.765 Y245.801
G01 X258.457 Y245.425
G01 X258.134 Y245.070
G01 X257.796 Y244.735
G01 X257.445 Y244.421
G01 X257.249 Y244.259
G01 X257.054 Y243.826
G01 X256.834 Y243.399
G01 X256.589 Y242.978
G01 X256.319 Y242.566
G01 X256.025 Y242.164
G01 X255.706 Y241.773
G01 X255.363 Y241.395
G01 X254.996 Y241.031
G01 X254.606 Y240.683
G01 X254.465 Y240.565
G01 X254.164 Y239.954
G01 X253.813 Y239.351
G01 X253.413 Y238.759
G01 X252.963 Y238.182
G01 X252.465 Y237.622
G01 X251.919 Y237.085
G01 X251.682 Y236.871
G01 X251.003 Y237.223
G01 X250.362 Y237.608
G01 X249.762 Y238.025
G01 X249.204 Y238.469
G01 X248.688 Y238.939
G01 X248.217 Y239.430
G01 X247.963 Y239.725
G01 X247.489 Y239.948
G01 X247.032 Y240.193
G01 X246.593 Y240.459
G01 X246.173 Y240.743
G01 X245.772 Y241.046
G01 X245.392 Y241.365
G01 X245.032 Y241.700
G01 X244.695 Y242.049
G01 X244.379 Y242.411
G01 X244.244 Y242.578
G01 X243.809 Y242.779
G01 X243.380 Y243.004
G01 X242.958 Y243.255
G01 X242.545 Y243.530
G01 X242.143 Y243.830
G01 X241.752 Y244.154
G01 X241.374 Y244.501
G01 X241.010 Y244.872
G01 X240.663 Y245.265
G01 X240.525 Y245.432
G01 X239.919 Y245.736
G01 X239.321 Y246.089
G01 X238.734 Y246.490
G01 X238.161 Y246.941
G01 X237.607 Y247.439
G01 X237.074 Y247.984
G01 X236.806 Y248.286
G01 X237.166 Y248.969
G01 X237.560 Y249.614
G01 X237.986 Y250.217
G01 X238.439 Y250.777
G01 X238.918 Y251.294
G01 X239.419 Y251.765
G01 X239.731 Y252.029
G01 X239.957 Y252.502
G01 X240.204 Y252.958
G01 X240.471 Y253.395
G01 X240.758 Y253.814
G01 X241.062 Y254.213
G01 X241.384 Y254.591
G01 X241.720 Y254.948
G01 X242.070 Y255.283
G01 X242.434 Y255.596
G01 X242.655 Y255.772
G01 X242.857 Y256.204
G01 X243.083 Y256.630
G01 X243.334 Y257.049
G01 X243.610 Y257.459
G01 X243.910 Y257.858
G01 X244.234 Y258.246
G01 X244.581 Y258.621
G01 X244.952 Y258.981
G01 X245.345 Y259.326
G01 X245.580 Y259.515
G01 X245.889 Y260.122
G01 X246.247 Y260.721
G01 X246.654 Y261.308
G01 X247.111 Y261.880
G01 X247.615 Y262.434
G01 X248.168 Y262.965
G01 X248.504 Y263.258
G01 X249.183 Y262.895
G01 X249.823 Y262.498
G01 X250.421 Y262.071
G01 X250.978 Y261.616
G01 X251.491 Y261.137
G01 X251.959 Y260.636
G01 X252.270 Y260.262
G01 X252.742 Y260.032
G01 X253.197 Y259.781
G01 X253.634 Y259.510
G01 X254.052 Y259.220
G01 X254.450 Y258.912
G01 X254.829 Y258.587
G01 X255.186 Y258.247
G01 X255.521 Y257.892
G01 X255.834 Y257.525
G01 X256.037 Y257.266
G01 X256.474 Y257.058
G01 X256.906 Y256.824
G01 X257.330 Y256.564
G01 X257.745 Y256.279
G01 X258.150 Y255.969
G01 X258.542 Y255.634
G01 X258.921 Y255.275
G01 X259.285 Y254.892
G01 X259.633 Y254.485
G01 X259.803 Y254.270
G01 X260.426 Y253.945
G01 X261.039 Y253.568
G01 X261.640 Y253.141
G01 X262.224 Y252.663
G01 X262.788 Y252.134
G01 X263.329 Y251.557
G01 X263.569 Y251.274
G01 X263.193 Y250.588
G01 X262.783 Y249.942
G01 X262.343 Y249.338
G01 X261.875 Y248.776
G01 X261.382 Y248.259
G01 X260.869 Y247.787
G01 X260.501 Y247.486
G01 X260.259 Y247.004
G01 X259.996 Y246.541
G01 X259.712 Y246.096
G01 X259.408 Y245.670
G01 X259.087 Y245.264
G01 X258.748 Y244.880
G01 X258.394 Y244.517
G01 X258.026 Y244.177
G01 X257.644 Y243.859
G01 X257.433 Y243.697
G01 X257.213 Y243.249
G01 X256.966 Y242.807
G01 X256.692 Y242.374
G01 X256.393 Y241.950
G01 X256.068 Y241.537
G01 X255.718 Y241.138
G01 X255.343 Y240.752
G01 X254.944 Y240.382
G01 X254.521 Y240.030
G01 X254.365 Y239.909
G01 X254.026 Y239.277
G01 X253.635 Y238.655
G01 X253.193 Y238.047
G01 X252.699 Y237.456
G01 X252.155 Y236.886
G01 X251.561 Y236.340
G01 X251.297 Y236.120
G01 X250.595 Y236.515
G01 X249.935 Y236.944
G01 X249.319 Y237.405
G01 X248.747 Y237.894
G01 X248.221 Y238.407
G01 X247.743 Y238.942
G01 X247.488 Y239.261
G01 X246.997 Y239.513
G01 X246.525 Y239.788
G01 X246.073 Y240.083
G01 X245.641 Y240.398
G01 X245.230 Y240.731
G01 X244.842 Y241.081
G01 X244.476 Y241.447
G01 X244.134 Y241.826
G01 X243.815 Y242.219
G01 X243.678 Y242.401
G01 X243.227 Y242.628
G01 X242.784 Y242.881
G01 X242.350 Y243.160
G01 X241.926 Y243.464
G01 X241.513 Y243.794
G01 X241.114 Y244.149
G01 X240.729 Y244.528
G01 X240.360 Y244.931
G01 X240.009 Y245.357
G01 X239.868 Y245.542
G01 X239.241 Y245.884
G01 X238.625 Y246.277
G01 X238.022 Y246.721
G01 X237.436 Y247.215
G01 X236.871 Y247.759
G01 X236.331 Y248.352
G01 X236.058 Y248.683
G01 X236.487 Y249.390
G01 X236.950 Y250.052
G01 X237.445 Y250.667
G01 X237.967 Y251.233
G01 X238.514 Y251.750
G01 X238.915 Y252.087
G01 X239.195 Y252.589
G01 X239.498 Y253.069
G01 X239.821 Y253.525
G01 X240.163 Y253.957
G01 X240.523 Y254.364
G01 X240.898 Y254.746
G01 X241.288 Y255.101
G01 X241.691 Y255.430
G01 X241.772 Y255.492
G01 X242.006 Y255.922
G01 X242.263 Y256.343
G01 X242.542 Y256.752
G01 X242.843 Y257.150
G01 X243.165 Y257.533
G01 X243.507 Y257.903
G01 X243.870 Y258.257
G01 X244.251 Y258.594
G01 X244.628 Y258.897
G01 X244.924 Y259.423
G01 X245.259 Y259.941
G01 X245.632 Y260.449
G01 X246.044 Y260.943
G01 X246.495 Y261.421
G01 X246.983 Y261.881
G01 X247.485 Y262.301
G01 X248.002 Y262.992
G01 X248.581 Y263.660
G01 X248.914 Y264.003
G01 X249.615 Y263.572
G01 X250.272 Y263.106
G01 X250.882 Y262.609
G01 X251.444 Y262.086
G01 X251.957 Y261.539
G01 X252.335 Y261.081
G01 X252.835 Y260.797
G01 X253.313 Y260.491
G01 X253.768 Y260.164
G01 X254.198 Y259.818
G01 X254.604 Y259.455
G01 X254.985 Y259.076
G01 X255.340 Y258.683
G01 X255.668 Y258.277
G01 X255.757 Y258.158
G01 X256.191 Y257.918
G01 X256.615 Y257.654
G01 X257.027 Y257.367
G01 X257.428 Y257.058
G01 X257.814 Y256.728
G01 X258.187 Y256.376
G01 X258.543 Y256.005
G01 X258.882 Y255.613
G01 X259.179 Y255.236
G01 X259.717 Y254.927
G01 X260.245 Y254.578
G01 X260.762 Y254.188
G01 X261.265 Y253.759
G01 X261.751 Y253.289
G01 X262.217 Y252.782
G01 X262.601 Y252.313
G01 X263.307 Y251.773
G01 X263.990 Y251.169
G01 X264.312 Y250.852
G01 X263.866 Y250.144
G01 X263.386 Y249.482
G01 X262.876 Y248.867
G01 X262.338 Y248.301
G01 X261.778 Y247.784
G01 X261.323 Y247.414
G01 X261.026 Y246.906
G01 X260.706 Y246.420
G01 X260.366 Y245.958
G01 X260.007 Y245.521
G01 X259.630 Y245.109
G01 X259.237 Y244.723
G01 X258.829 Y244.364
G01 X258.409 Y244.032
G01 X258.334 Y243.976
G01 X258.081 Y243.533
G01 X257.804 Y243.100
G01 X257.503 Y242.679
G01 X257.180 Y242.271
G01 X256.835 Y241.877
G01 X256.469 Y241.498
G01 X256.081 Y241.136
G01 X255.674 Y240.791
G01 X255.346 Y240.538
G01 X255.023 Y239.991
G01 X254.660 Y239.455
G01 X254.255 Y238.930
G01 X253.810 Y238.421
G01 X253.325 Y237.929
G01 X252.801 Y237.458
G01 X252.357 Y237.100
G01 X251.802 Y236.388
G01 X251.183 Y235.701
G01 X250.863 Y235.381
G01 X250.139 Y235.847
G01 X249.464 Y236.348
G01 X248.838 Y236.880
G01 X248.263 Y237.439
G01 X247.740 Y238.022
G01 X247.409 Y238.436
G01 X246.891 Y238.745
G01 X246.398 Y239.077
G01 X245.929 Y239.430
G01 X245.486 Y239.803
G01 X245.069 Y240.192
G01 X244.680 Y240.598
G01 X244.318 Y241.018
G01 X243.985 Y241.451
G01 X243.956 Y241.491
G01 X243.509 Y241.752
G01 X243.074 Y242.037
G01 X242.651 Y242.344
G01 X242.242 Y242.673
G01 X241.847 Y243.025
G01 X241.468 Y243.397
G01 X241.107 Y243.791
G01 X240.763 Y244.203
G01 X240.502 Y244.547
G01 X239.959 Y244.873
G01 X239.426 Y245.240
G01 X238.905 Y245.646
G01 X238.399 Y246.093
G01 X237.912 Y246.579
G01 X237.444 Y247.104
G01 X237.049 Y247.602
G01 X236.345 Y248.160
G01 X235.666 Y248.780
G01 X235.322 Y249.130
G01 X235.798 Y249.856
G01 X236.308 Y250.534
G01 X236.849 Y251.161
G01 X237.418 Y251.736
G01 X238.011 Y252.259
G01 X238.444 Y252.598
G01 X238.757 Y253.114
G01 X239.092 Y253.607
G01 X239.448 Y254.074
G01 X239.823 Y254.514
G01 X240.215 Y254.928
G01 X240.623 Y255.315
G01 X241.045 Y255.674
G01 X241.480 Y256.004
G01 X241.567 Y256.066
G01 X241.829 Y256.509
G01 X242.114 Y256.941
G01 X242.422 Y257.360
G01 X242.752 Y257.766
G01 X243.104 Y258.157
G01 X243.477 Y258.533
G01 X243.870 Y258.891
G01 X244.283 Y259.231
G01 X244.690 Y259.534
G01 X245.019 Y260.076
G01 X245.389 Y260.608
G01 X245.800 Y261.126
G01 X246.251 Y261.630
G01 X246.741 Y262.115
G01 X247.270 Y262.580
G01 X247.812 Y263.002
G01 X248.380 Y263.708
G01 X249.013 Y264.387
G01 X249.374 Y264.736
G01 X250.094 Y264.257
G01 X250.766 Y263.744
G01 X251.388 Y263.200
G01 X251.959 Y262.630
G01 X252.477 Y262.037
G01 X252.855 Y261.546
G01 X253.369 Y261.229
G01 X253.860 Y260.890
G01 X254.325 Y260.530
G01 X254.764 Y260.152
G01 X255.177 Y259.755
G01 X255.562 Y259.344
G01 X255.920 Y258.918
G01 X256.250 Y258.480
G01 X256.337 Y258.355
G01 X256.783 Y258.087
G01 X257.218 Y257.794
G01 X257.640 Y257.478
G01 X258.049 Y257.140
G01 X258.443 Y256.779
G01 X258.820 Y256.396
G01 X259.181 Y255.993
G01 X259.522 Y255.570
G01 X259.818 Y255.165
G01 X260.371 Y254.822
G01 X260.912 Y254.436
G01 X261.440 Y254.009
G01 X261.952 Y253.540
G01 X262.444 Y253.030
G01 X262.914 Y252.480
G01 X263.300 Y251.975
G01 X264.020 Y251.383
G01 X264.713 Y250.725
G01 X265.041 Y250.380
G01 X264.547 Y249.653
G01 X264.019 Y248.976
G01 X263.461 Y248.349
G01 X262.876 Y247.775
G01 X262.269 Y247.254
G01 X261.782 Y246.885
G01 X261.452 Y246.363
G01 X261.099 Y245.865
G01 X260.725 Y245.393
G01 X260.332 Y244.948
G01 X259.921 Y244.530
G01 X259.495 Y244.140
G01 X259.055 Y243.778
G01 X258.602 Y243.445
G01 X258.524 Y243.391
G01 X258.242 Y242.936
G01 X257.936 Y242.493
G01 X257.605 Y242.062
G01 X257.252 Y241.646
G01 X256.876 Y241.246
G01 X256.478 Y240.863
G01 X256.059 Y240.498
G01 X255.620 Y240.152
G01 X255.265 Y239.897
G01 X254.908 Y239.337
G01 X254.508 Y238.788
G01 X254.065 Y238.254
G01 X253.581 Y237.736
G01 X253.055 Y237.239
G01 X252.489 Y236.765
G01 X252.007 Y236.403
G01 X251.400 Y235.678
G01 X250.727 Y234.981
G01 X250.378 Y234.656
G01 X249.637 Y235.171
G01 X248.948 Y235.720
G01 X248.311 Y236.300
G01 X247.729 Y236.907
G01 X247.202 Y237.537
G01 X246.872 Y237.983
G01 X246.341 Y238.326
G01 X245.836 Y238.691
G01 X245.358 Y239.078
G01 X244.907 Y239.484
G01 X244.485 Y239.908
G01 X244.092 Y240.347
G01 X243.729 Y240.800
G01 X243.396 Y241.265
G01 X243.366 Y241.310
G01 X242.908 Y241.599
G01 X242.463 Y241.912
G01 X242.031 Y242.249
G01 X241.615 Y242.609
G01 X241.214 Y242.992
G01 X240.831 Y243.395
G01 X240.467 Y243.820
G01 X240.122 Y244.265
G01 X239.860 Y244.637
G01 X239.303 Y244.998
G01 X238.758 Y245.401
G01 X238.228 Y245.846
G01 X237.715 Y246.332
G01 X237.222 Y246.859
G01 X236.752 Y247.425
G01 X236.354 Y247.964
G01 X235.637 Y248.573
G01 X234.949 Y249.248
G01 X234.601 Y249.627
G01 X235.125 Y250.370
G01 X235.685 Y251.061
G01 X236.274 Y251.698
G01 X236.891 Y252.279
G01 X237.530 Y252.805
G01 X237.997 Y253.144
G01 X238.343 Y253.673
G01 X238.712 Y254.176
G01 X239.101 Y254.652
G01 X239.510 Y255.100
G01 X239.936 Y255.519
G01 X240.377 Y255.909
G01 X240.832 Y256.269
G01 X241.299 Y256.599
G01 X241.393 Y256.661
G01 X241.683 Y257.115
G01 X241.998 Y257.557
G01 X242.336 Y257.985
G01 X242.696 Y258.398
G01 X243.079 Y258.795
G01 X243.483 Y259.174
G01 X243.908 Y259.534
G01 X244.353 Y259.875
G01 X244.789 Y260.178
G01 X245.154 Y260.733
G01 X245.561 Y261.276
G01 X246.010 Y261.805
G01 X246.501 Y262.315
G01 X247.032 Y262.805
G01 X247.603 Y263.272
G01 X248.185 Y263.694
G01 X248.806 Y264.413
G01 X249.493 Y265.101
G01 X249.883 Y265.453
G01 X250.620 Y264.925
G01 X251.305 Y264.363
G01 X251.937 Y263.771
G01 X252.513 Y263.153
G01 X253.034 Y262.513
G01 X253.410 Y261.987
G01 X253.937 Y261.637
G01 X254.438 Y261.263
G01 X254.912 Y260.870
G01 X255.358 Y260.457
G01 X255.775 Y260.027
G01 X256.164 Y259.582
G01 X256.523 Y259.123
G01 X256.852 Y258.652
G01 X256.937 Y258.522
G01 X257.394 Y258.224
G01 X257.838 Y257.901
G01 X258.269 Y257.555
G01 X258.685 Y257.186
G01 X259.084 Y256.793
G01 X259.465 Y256.379
G01 X259.827 Y255.944
G01 X260.170 Y255.488
G01 X260.463 Y255.056
G01 X261.029 Y254.676
G01 X261.581 Y254.253
G01 X262.118 Y253.787
G01 X262.636 Y253.277
G01 X263.132 Y252.726
G01 X263.604 Y252.134
G01 X263.990 Y251.590
G01 X264.722 Y250.945
G01 X265.423 Y250.232
G01 X265.753 Y249.858
G01 X265.187 Y249.116
G01 X264.587 Y248.430
G01 X263.958 Y247.800
G01 X263.304 Y247.229
G01 X262.628 Y246.715
G01 X262.571 Y246.676
G01 X262.180 Y246.130
G01 X261.766 Y245.615
G01 X261.332 Y245.131
G01 X260.879 Y244.679
G01 X260.409 Y244.260
G01 X259.925 Y243.873
G01 X259.429 Y243.520
G01 X259.389 Y243.494
G01 X259.067 Y243.034
G01 X258.722 Y242.591
G01 X258.355 Y242.165
G01 X257.968 Y241.757
G01 X257.561 Y241.368
G01 X257.135 Y241.000
G01 X256.690 Y240.652
G01 X256.229 Y240.326
G01 X256.207 Y240.312
G01 X255.848 Y239.803
G01 X255.453 Y239.307
G01 X255.024 Y238.826
G01 X254.560 Y238.362
G01 X254.063 Y237.917
G01 X253.533 Y237.493
G01 X253.025 Y237.130
G01 X252.495 Y236.429
G01 X251.902 Y235.750
G01 X251.249 Y235.098
G01 X250.536 Y234.477
G01 X249.843 Y233.948
G01 X249.089 Y234.536
G01 X248.392 Y235.159
G01 X247.753 Y235.811
G01 X247.175 Y236.489
G01 X246.657 Y237.188
G01 X246.654 Y237.193
G01 X246.101 Y237.598
G01 X245.579 Y238.026
G01 X245.089 Y238.474
G01 X244.632 Y238.942
G01 X244.210 Y239.426
G01 X243.821 Y239.924
G01 X243.468 Y240.434
G01 X243.465 Y240.438
G01 X243.003 Y240.769
G01 X242.557 Y241.122
G01 X242.129 Y241.497
G01 X241.720 Y241.892
G01 X241.331 Y242.307
G01 X240.963 Y242.740
G01 X240.616 Y243.192
G01 X240.292 Y243.659
G01 X240.276 Y243.684
G01 X239.770 Y244.047
G01 X239.277 Y244.446
G01 X238.798 Y244.879
G01 X238.337 Y245.346
G01 X237.895 Y245.845
G01 X237.475 Y246.377
G01 X237.087 Y246.929
G01 X236.393 Y247.462
G01 X235.721 Y248.056
G01 X235.076 Y248.710
G01 X234.463 Y249.423
G01 X233.898 Y250.174
G01 X234.496 Y250.930
G01 X235.129 Y251.627
G01 X235.791 Y252.265
G01 X236.479 Y252.842
G01 X237.188 Y253.357
G01 X237.207 Y253.370
G01 X237.615 Y253.921
G01 X238.047 Y254.441
G01 X238.499 Y254.928
G01 X238.969 Y255.381
G01 X239.456 Y255.801
G01 X239.957 Y256.186
G01 X240.470 Y256.536
G01 X240.515 Y256.565
G01 X240.848 Y257.024
G01 X241.202 Y257.465
G01 X241.577 Y257.889
G01 X241.973 Y258.294
G01 X242.389 Y258.680
G01 X242.823 Y259.044
G01 X243.274 Y259.387
G01 X243.742 Y259.707
G01 X243.824 Y259.760
G01 X244.191 Y260.264
G01 X244.592 Y260.754
G01 X245.028 Y261.229
G01 X245.497 Y261.687
G01 X245.999 Y262.125
G01 X246.534 Y262.542
G01 X247.101 Y262.934
G01 X247.133 Y262.956
G01 X247.676 Y263.651
G01 X248.279 Y264.323
G01 X248.943 Y264.967
G01 X249.667 Y265.579
G01 X250.442 Y266.151
G01 X251.191 Y265.549
G01 X251.882 Y264.914
G01 X252.514 Y264.249
G01 X253.085 Y263.560
G01 X253.595 Y262.850
G01 X253.643 Y262.778
G01 X254.192 Y262.365
G01 X254.708 Y261.929
G01 X255.193 Y261.473
G01 X255.644 Y260.999
G01 X256.061 Y260.508
G01 X256.444 Y260.004
G01 X256.793 Y259.487
G01 X256.844 Y259.405
G01 X257.304 Y259.066
G01 X257.747 Y258.705
G01 X258.172 Y258.322
G01 X258.578 Y257.918
G01 X258.964 Y257.494
G01 X259.329 Y257.051
G01 X259.673 Y256.591
G01 X259.994 Y256.114
G01 X260.045 Y256.032
G01 X260.555 Y255.653
G01 X261.052 Y255.239
G01 X261.533 Y254.789
G01 X261.996 Y254.304
G01 X262.438 Y253.785
G01 X262.858 Y253.232
G01 X263.246 Y252.659
G01 X263.954 Y252.095
G01 X264.637 Y251.468
G01 X265.290 Y250.778
G01 X265.910 Y250.028
G01 X266.447 Y249.286
G01 X265.828 Y248.532
G01 X265.176 Y247.837
G01 X264.496 Y247.203
G01 X263.791 Y246.629
G01 X263.066 Y246.118
G01 X263.009 Y246.081
G01 X262.581 Y245.526
G01 X262.130 Y245.003
G01 X261.659 Y244.513
G01 X261.169 Y244.058
G01 X260.663 Y243.637
G01 X260.143 Y243.251
G01 X259.612 Y242.900
G01 X259.572 Y242.876
G01 X259.219 Y242.408
G01 X258.843 Y241.958
G01 X258.444 Y241.527
G01 X258.025 Y241.115
G01 X257.586 Y240.724
G01 X257.128 Y240.355
G01 X256.652 Y240.008
G01 X256.159 Y239.685
G01 X256.135 Y239.670
G01 X255.741 Y239.153
G01 X255.312 Y238.650
G01 X254.846 Y238.164
G01 X254.346 Y237.696
G01 X253.811 Y237.250
G01 X253.243 Y236.827
G01 X252.697 Y236.465
G01 X252.118 Y235.753
G01 X251.476 Y235.067
G01 X250.771 Y234.411
G01 X250.006 Y233.789
G01 X249.260 Y233.259
G01 X248.494 Y233.901
G01 X247.789 Y234.576
G01 X247.147 Y235.280
G01 X246.568 Y236.009
G01 X246.054 Y236.757
G01 X246.051 Y236.761
G01 X245.488 Y237.204
G01 X244.959 Y237.669
G01 X244.465 Y238.155
G01 X244.005 Y238.659
G01 X243.582 Y239.179
G01 X243.195 Y239.713
G01 X242.845 Y240.259
G01 X242.842 Y240.263
G01 X242.372 Y240.625
G01 X241.920 Y241.010
G01 X241.487 Y241.416
G01 X241.075 Y241.843
G01 X240.684 Y242.290
G01 X240.316 Y242.755
G01 X239.971 Y243.238
G01 X239.650 Y243.737
G01 X239.633 Y243.766
G01 X239.118 Y244.163
G01 X238.618 Y244.597
G01 X238.136 Y245.065
G01 X237.672 Y245.569
G01 X237.229 Y246.106
G01 X236.810 Y246.676
G01 X236.424 Y247.268
G01 X235.719 Y247.849
G01 X235.040 Y248.493
G01 X234.392 Y249.198
G01 X233.778 Y249.963
G01 X233.215 Y250.770
G01 X233.866 Y251.536
G01 X234.551 Y252.240
G01 X235.265 Y252.881
G01 X236.003 Y253.457
G01 X236.761 Y253.969
G01 X236.782 Y253.982
G01 X237.228 Y254.542
G01 X237.697 Y255.068
G01 X238.186 Y255.559
G01 X238.693 Y256.015
G01 X239.216 Y256.435
G01 X239.753 Y256.818
G01 X240.300 Y257.165
G01 X240.349 Y257.193
G01 X240.712 Y257.660
G01 X241.097 Y258.107
G01 X241.504 Y258.536
G01 X241.932 Y258.944
G01 X242.379 Y259.331
G01 X242.845 Y259.695
G01 X243.329 Y260.036
G01 X243.828 Y260.353
G01 X243.916 Y260.405
G01 X244.316 Y260.917
G01 X244.753 Y261.414
G01 X245.224 Y261.893
G01 X245.730 Y262.354
G01 X246.271 Y262.792
G01 X246.844 Y263.207
G01 X247.449 Y263.596
G01 X247.483 Y263.617
G01 X248.074 Y264.322
G01 X248.728 Y265.001
G01 X249.444 Y265.649
G01 X250.221 Y266.261
G01 X251.050 Y266.829
G01 X251.809 Y266.173
G01 X252.507 Y265.485
G01 X253.141 Y264.769
G01 X253.712 Y264.030
G01 X254.218 Y263.271
G01 X254.264 Y263.196
G01 X254.821 Y262.745
G01 X255.344 Y262.272
G01 X255.832 Y261.778
G01 X256.285 Y261.267
G01 X256.703 Y260.740
G01 X257.084 Y260.200
G01 X257.428 Y259.648
G01 X257.477 Y259.564
G01 X257.945 Y259.194
G01 X258.393 Y258.800
G01 X258.823 Y258.385
G01 X259.232 Y257.949
G01 X259.619 Y257.493
G01 X259.984 Y257.018
G01 X260.325 Y256.525
G01 X260.642 Y256.016
G01 X260.691 Y255.932
G01 X261.209 Y255.518
G01 X261.712 Y255.067
G01 X262.197 Y254.581
G01 X262.662 Y254.058
G01 X263.104 Y253.501
G01 X263.522 Y252.910
G01 X263.905 Y252.299
G01 X264.622 Y251.686
G01 X265.311 Y251.007
G01 X265.967 Y250.265
G01 X266.585 Y249.461
G01 X267.119 Y248.667
G01 X266.446 Y247.903
G01 X265.741 Y247.202
G01 X265.008 Y246.565
G01 X264.252 Y245.993
G01 X263.477 Y245.486
G01 X263.420 Y245.452
G01 X262.954 Y244.889
G01 X262.464 Y244.360
G01 X261.955 Y243.867
G01 X261.428 Y243.410
G01 X260.885 Y242.989
G01 X260.329 Y242.606
G01 X259.762 Y242.260
G01 X259.722 Y242.237
G01 X259.337 Y241.763
G01 X258.929 Y241.308
G01 X258.499 Y240.873
G01 X258.047 Y240.459
G01 X257.575 Y240.068
G01 X257.084 Y239.700
G01 X256.576 Y239.356
G01 X256.050 Y239.037
G01 X256.024 Y239.023
G01 X255.596 Y238.498
G01 X255.131 Y237.990
G01 X254.629 Y237.501
G01 X254.091 Y237.032
G01 X253.518 Y236.587
G01 X252.911 Y236.168
G01 X252.326 Y235.808
G01 X251.698 Y235.088
G01 X251.005 Y234.397
G01 X250.247 Y233.740
G01 X249.428 Y233.121
G01 X248.628 Y232.593
G01 X247.854 Y233.289
G01 X247.144 Y234.018
G01 X246.501 Y234.775
G01 X245.924 Y235.555
G01 X245.416 Y236.353
G01 X245.413 Y236.357
G01 X244.843 Y236.838
G01 X244.309 Y237.342
G01 X243.812 Y237.866
G01 X243.352 Y238.408
G01 X242.931 Y238.965
G01 X242.547 Y239.535
G01 X242.202 Y240.115
G01 X242.199 Y240.121
G01 X241.722 Y240.515
G01 X241.266 Y240.931
G01 X240.830 Y241.370
G01 X240.417 Y241.829
G01 X240.026 Y242.308
G01 X239.660 Y242.806
G01 X239.318 Y243.322
G01 X239.002 Y243.853
G01 X238.984 Y243.885
G01 X238.463 Y244.318
G01 X237.958 Y244.787
G01 X237.473 Y245.292
G01 X237.008 Y245.833
G01 X236.567 Y246.408
G01 X236.152 Y247.016
G01 X235.769 Y247.649
G01 X235.057 Y248.280
G01 X234.374 Y248.974
G01 X233.724 Y249.732
G01 X233.113 Y250.551
G01 X232.554 Y251.413
G01 X233.282 Y252.184
G01 X234.041 Y252.888
G01 X234.828 Y253.522
G01 X235.637 Y254.086
G01 X236.036 Y254.335
G01 X236.549 Y254.911
G01 X237.085 Y255.448
G01 X237.640 Y255.945
G01 X238.211 Y256.400
G01 X238.797 Y256.814
G01 X239.395 Y257.186
G01 X239.518 Y257.257
G01 X239.930 Y257.730
G01 X240.362 Y258.180
G01 X240.814 Y258.606
G01 X241.284 Y259.008
G01 X241.772 Y259.385
G01 X242.276 Y259.735
G01 X242.794 Y260.059
G01 X243.000 Y260.179
G01 X243.416 Y260.658
G01 X243.863 Y261.122
G01 X244.339 Y261.567
G01 X244.844 Y261.991
G01 X245.378 Y262.393
G01 X245.939 Y262.772
G01 X246.482 Y263.100
G01 X247.031 Y263.710
G01 X247.632 Y264.297
G01 X248.283 Y264.857
G01 X248.983 Y265.386
G01 X249.732 Y265.881
G01 X249.964 Y266.022
G01 X250.786 Y266.766
G01 X251.681 Y267.465
G01 X251.705 Y267.483
G01 X252.469 Y266.752
G01 X253.165 Y265.989
G01 X253.792 Y265.201
G01 X254.351 Y264.390
G01 X254.626 Y263.940
G01 X255.198 Y263.423
G01 X255.731 Y262.883
G01 X256.224 Y262.324
G01 X256.676 Y261.748
G01 X257.086 Y261.158
G01 X257.456 Y260.557
G01 X257.546 Y260.398
G01 X258.018 Y259.980
G01 X258.468 Y259.540
G01 X258.894 Y259.081
G01 X259.296 Y258.603
G01 X259.672 Y258.107
G01 X260.022 Y257.595
G01 X260.345 Y257.069
G01 X260.466 Y256.856
G01 X260.950 Y256.428
G01 X261.417 Y255.969
G01 X261.865 Y255.480
G01 X262.293 Y254.961
G01 X262.697 Y254.413
G01 X263.077 Y253.837
G01 X263.386 Y253.313
G01 X264.005 Y252.745
G01 X264.599 Y252.124
G01 X265.165 Y251.451
G01 X265.699 Y250.727
G01 X266.197 Y249.954
G01 X266.306 Y249.771
G01 X267.060 Y248.921
G01 X267.766 Y247.999
G01 X267.017 Y247.232
G01 X266.237 Y246.534
G01 X265.431 Y245.905
G01 X264.604 Y245.346
G01 X264.163 Y245.082
G01 X263.629 Y244.504
G01 X263.073 Y243.966
G01 X262.497 Y243.470
G01 X261.905 Y243.015
G01 X261.300 Y242.602
G01 X260.682 Y242.232
G01 X260.560 Y242.164
G01 X260.127 Y241.685
G01 X259.672 Y241.230
G01 X259.197 Y240.799
G01 X258.703 Y240.393
G01 X258.191 Y240.014
G01 X257.663 Y239.662
G01 X257.121 Y239.337
G01 X256.957 Y239.246
G01 X256.515 Y238.756
G01 X256.041 Y238.284
G01 X255.536 Y237.832
G01 X255.001 Y237.401
G01 X254.437 Y236.995
G01 X253.845 Y236.613
G01 X253.354 Y236.328
G01 X252.771 Y235.706
G01 X252.135 Y235.109
G01 X251.447 Y234.542
G01 X250.708 Y234.007
G01 X249.920 Y233.509
G01 X249.751 Y233.411
G01 X248.887 Y232.657
G01 X247.949 Y231.952
G01 X247.173 Y232.725
G01 X246.467 Y233.530
G01 X245.833 Y234.361
G01 X245.272 Y235.213
G01 X245.035 Y235.616
G01 X244.451 Y236.166
G01 X243.909 Y236.738
G01 X243.409 Y237.329
G01 X242.952 Y237.936
G01 X242.539 Y238.558
G01 X242.169 Y239.190
G01 X242.120 Y239.280
G01 X241.639 Y239.723
G01 X241.182 Y240.187
G01 X240.751 Y240.671
G01 X240.346 Y241.174
G01 X239.967 Y241.694
G01 X239.617 Y242.230
G01 X239.295 Y242.780
G01 X239.206 Y242.944
G01 X238.718 Y243.392
G01 X238.249 Y243.870
G01 X237.800 Y244.379
G01 X237.373 Y244.918
G01 X236.969 Y245.485
G01 X236.592 Y246.080
G01 X236.291 Y246.608
G01 X235.676 Y247.193
G01 X235.085 Y247.831
G01 X234.525 Y248.521
G01 X233.997 Y249.260
G01 X233.505 Y250.047
G01 X233.377 Y250.272
G01 X232.634 Y251.138
G01 X231.937 Y252.078
G01 X231.919 Y252.104
G01 X232.703 Y252.879
G01 X233.518 Y253.582
G01 X234.359 Y254.213
G01 X235.220 Y254.770
G01 X235.645 Y255.014
G01 X236.199 Y255.595
G01 X236.775 Y256.133
G01 X237.369 Y256.629
G01 X237.980 Y257.081
G01 X238.604 Y257.490
G01 X239.239 Y257.855
G01 X239.370 Y257.925
G01 X239.814 Y258.401
G01 X240.280 Y258.854
G01 X240.765 Y259.281
G01 X241.269 Y259.681
G01 X241.790 Y260.055
G01 X242.326 Y260.401
G01 X242.876 Y260.719
G01 X243.095 Y260.835
G01 X243.545 Y261.319
G01 X244.026 Y261.784
G01 X244.537 Y262.229
G01 X245.078 Y262.652
G01 X245.647 Y263.051
G01 X246.243 Y263.424
G01 X246.820 Y263.746
G01 X247.413 Y264.360
G01 X248.058 Y264.948
G01 X248.756 Y265.506
G01 X249.503 Y266.031
G01 X250.299 Y266.518
G01 X250.545 Y266.656
G01 X251.427 Y267.399
G01 X252.382 Y268.094
G01 X252.408 Y268.111
G01 X253.175 Y267.323
G01 X253.871 Y266.505
G01 X254.494 Y265.663
G01 X255.045 Y264.800
G01 X255.313 Y264.325
G01 X255.889 Y263.765
G01 X256.424 Y263.185
G01 X256.916 Y262.586
G01 X257.365 Y261.971
G01 X257.770 Y261.343
G01 X258.132 Y260.704
G01 X258.219 Y260.538
G01 X258.695 Y260.086
G01 X259.146 Y259.613
G01 X259.573 Y259.120
G01 X259.973 Y258.608
G01 X260.346 Y258.079
G01 X260.691 Y257.534
G01 X261.007 Y256.975
G01 X261.124 Y256.752
G01 X261.612 Y256.290
G01 X262.081 Y255.796
G01 X262.528 Y255.271
G01 X262.953 Y254.716
G01 X263.354 Y254.132
G01 X263.727 Y253.520
G01 X264.030 Y252.965
G01 X264.652 Y252.353
G01 X265.247 Y251.686
G01 X265.810 Y250.966
G01 X266.338 Y250.195
G01 X266.828 Y249.375
G01 X266.935 Y249.179
G01 X267.687 Y248.269
G01 X268.388 Y247.286
G01 X267.581 Y246.516
G01 X266.745 Y245.818
G01 X265.884 Y245.194
G01 X265.004 Y244.643
G01 X264.540 Y244.386
G01 X263.964 Y243.805
G01 X263.366 Y243.267
G01 X262.750 Y242.772
G01 X262.118 Y242.321
G01 X261.474 Y241.914
G01 X260.819 Y241.551
G01 X260.692 Y241.486
G01 X260.224 Y241.004
G01 X259.735 Y240.548
G01 X259.226 Y240.118
G01 X258.698 Y239.714
G01 X258.153 Y239.339
G01 X257.592 Y238.992
G01 X257.017 Y238.675
G01 X256.844 Y238.587
G01 X256.367 Y238.094
G01 X255.858 Y237.621
G01 X255.317 Y237.170
G01 X254.746 Y236.742
G01 X254.146 Y236.340
G01 X253.518 Y235.966
G01 X252.996 Y235.687
G01 X252.368 Y235.062
G01 X251.687 Y234.466
G01 X250.952 Y233.902
G01 X250.166 Y233.374
G01 X249.330 Y232.885
G01 X249.148 Y232.787
G01 X248.224 Y232.037
G01 X247.225 Y231.338
G01 X246.446 Y232.169
G01 X245.742 Y233.030
G01 X245.114 Y233.916
G01 X244.562 Y234.821
G01 X244.331 Y235.247
G01 X243.745 Y235.839
G01 X243.203 Y236.453
G01 X242.705 Y237.084
G01 X242.253 Y237.732
G01 X241.846 Y238.391
G01 X241.486 Y239.061
G01 X241.438 Y239.157
G01 X240.955 Y239.634
G01 X240.497 Y240.132
G01 X240.067 Y240.651
G01 X239.665 Y241.187
G01 X239.291 Y241.741
G01 X238.947 Y242.309
G01 X238.632 Y242.892
G01 X238.545 Y243.066
G01 X238.055 Y243.549
G01 X237.585 Y244.062
G01 X237.138 Y244.607
G01 X236.714 Y245.181
G01 X236.316 Y245.784
G01 X235.946 Y246.415
G01 X235.652 Y246.976
G01 X235.034 Y247.606
G01 X234.445 Y248.289
G01 X233.888 Y249.025
G01 X233.367 Y249.811
G01 X232.885 Y250.646
G01 X232.759 Y250.886
G01 X232.019 Y251.812
G01 X231.330 Y252.812
G01 X231.312 Y252.841
G01 X232.154 Y253.616
G01 X233.025 Y254.317
G01 X233.920 Y254.941
G01 X234.834 Y255.488
G01 X235.284 Y255.726
G01 X235.880 Y256.308
G01 X236.497 Y256.846
G01 X237.132 Y257.339
G01 X237.783 Y257.787
G01 X238.445 Y258.189
G01 X239.117 Y258.544
G01 X239.255 Y258.612
G01 X239.734 Y259.090
G01 X240.234 Y259.543
G01 X240.753 Y259.968
G01 X241.290 Y260.366
G01 X241.844 Y260.735
G01 X242.413 Y261.075
G01 X242.996 Y261.384
G01 X243.227 Y261.497
G01 X243.711 Y261.983
G01 X244.227 Y262.449
G01 X244.774 Y262.892
G01 X245.351 Y263.311
G01 X245.956 Y263.705
G01 X246.589 Y264.070
G01 X247.199 Y264.383
G01 X247.836 Y264.999
G01 X248.527 Y265.586
G01 X249.271 Y266.140
G01 X250.066 Y266.657
G01 X250.910 Y267.135
G01 X251.170 Y267.268
G01 X252.112 Y268.007
G01 X253.129 Y268.694
G01 X253.156 Y268.711
G01 X253.923 Y267.865
G01 X254.616 Y266.991
G01 X255.233 Y266.094
G01 X255.773 Y265.178
G01 X256.033 Y264.677
G01 X256.611 Y264.076
G01 X257.144 Y263.454
G01 X257.633 Y262.814
G01 X258.077 Y262.159
G01 X258.475 Y261.492
G01 X258.828 Y260.816
G01 X258.910 Y260.644
G01 X259.388 Y260.157
G01 X259.840 Y259.650
G01 X260.264 Y259.122
G01 X260.661 Y258.576
G01 X261.029 Y258.014
G01 X261.367 Y257.436
G01 X261.675 Y256.844
G01 X261.787 Y256.610
G01 X262.277 Y256.113
G01 X262.745 Y255.584
G01 X263.191 Y255.023
G01 X263.612 Y254.431
G01 X264.006 Y253.811
G01 X264.371 Y253.162
G01 X264.664 Y252.577
G01 X265.288 Y251.918
G01 X265.880 Y251.205
G01 X266.439 Y250.438
G01 X266.959 Y249.620
G01 X267.437 Y248.751
G01 X267.541 Y248.543
G01 X268.288 Y247.573
G01 X268.980 Y246.526
G01 X268.096 Y245.761
G01 X267.185 Y245.073
G01 X266.251 Y244.465
G01 X265.300 Y243.935
G01 X265.226 Y243.897
G01 X264.579 Y243.309
G01 X263.912 Y242.768
G01 X263.227 Y242.277
G01 X262.529 Y241.835
G01 X261.820 Y241.442
G01 X261.471 Y241.268
G01 X260.950 Y240.783
G01 X260.408 Y240.327
G01 X259.849 Y239.902
G01 X259.273 Y239.509
G01 X258.682 Y239.147
G01 X258.078 Y238.818
G01 X257.717 Y238.640
G01 X257.214 Y238.169
G01 X256.684 Y237.721
G01 X256.127 Y237.297
G01 X255.544 Y236.898
G01 X254.937 Y236.526
G01 X254.307 Y236.182
G01 X253.962 Y236.011
G01 X253.358 Y235.456
G01 X252.709 Y234.927
G01 X252.016 Y234.428
G01 X251.280 Y233.962
G01 X250.504 Y233.531
G01 X250.208 Y233.382
G01 X249.365 Y232.648
G01 X248.451 Y231.959
G01 X247.467 Y231.319
G01 X246.453 Y230.753
G01 X245.681 Y231.662
G01 X244.989 Y232.600
G01 X244.378 Y233.559
G01 X243.848 Y234.535
G01 X243.834 Y234.564
G01 X243.241 Y235.228
G01 X242.697 Y235.912
G01 X242.204 Y236.613
G01 X241.762 Y237.328
G01 X241.371 Y238.053
G01 X241.214 Y238.376
G01 X240.727 Y238.908
G01 X240.271 Y239.460
G01 X239.846 Y240.029
G01 X239.454 Y240.615
G01 X239.095 Y241.215
G01 X238.768 Y241.827
G01 X238.594 Y242.188
G01 X238.126 Y242.696
G01 X237.681 Y243.232
G01 X237.260 Y243.794
G01 X236.864 Y244.381
G01 X236.496 Y244.992
G01 X236.156 Y245.626
G01 X235.975 Y245.999
G01 X235.426 Y246.606
G01 X234.903 Y247.257
G01 X234.410 Y247.952
G01 X233.950 Y248.689
G01 X233.526 Y249.465
G01 X233.355 Y249.811
G01 X232.631 Y250.655
G01 X231.951 Y251.571
G01 X231.321 Y252.554
G01 X230.745 Y253.603
G01 X230.736 Y253.622
G01 X231.655 Y254.391
G01 X232.602 Y255.079
G01 X233.571 Y255.685
G01 X234.556 Y256.208
G01 X234.604 Y256.232
G01 X235.273 Y256.821
G01 X235.961 Y257.359
G01 X236.665 Y257.847
G01 X237.383 Y258.284
G01 X238.111 Y258.670
G01 X238.473 Y258.841
G01 X239.007 Y259.323
G01 X239.560 Y259.775
G01 X240.131 Y260.194
G01 X240.717 Y260.581
G01 X241.318 Y260.936
G01 X241.930 Y261.257
G01 X242.342 Y261.451
G01 X242.852 Y261.915
G01 X243.390 Y262.355
G01 X243.953 Y262.772
G01 X244.542 Y263.162
G01 X245.154 Y263.526
G01 X245.789 Y263.860
G01 X246.211 Y264.061
G01 X246.823 Y264.607
G01 X247.480 Y265.126
G01 X248.181 Y265.615
G01 X248.924 Y266.071
G01 X249.707 Y266.490
G01 X250.080 Y266.670
G01 X250.938 Y267.394
G01 X251.867 Y268.072
G01 X252.865 Y268.699
G01 X253.929 Y269.270
G01 X253.949 Y269.280
G01 X254.709 Y268.356
G01 X255.388 Y267.406
G01 X255.986 Y266.435
G01 X256.502 Y265.449
G01 X256.547 Y265.354
G01 X257.131 Y264.680
G01 X257.664 Y263.987
G01 X258.147 Y263.278
G01 X258.580 Y262.556
G01 X258.961 Y261.824
G01 X259.146 Y261.427
G01 X259.626 Y260.886
G01 X260.075 Y260.325
G01 X260.493 Y259.747
G01 X260.878 Y259.153
G01 X261.230 Y258.544
G01 X261.549 Y257.924
G01 X261.745 Y257.501
G01 X262.210 Y256.979
G01 X262.652 Y256.430
G01 X263.069 Y255.854
G01 X263.460 Y255.252
G01 X263.823 Y254.626
G01 X264.157 Y253.977
G01 X264.343 Y253.575
G01 X264.895 Y252.945
G01 X265.418 Y252.268
G01 X265.909 Y251.548
G01 X266.366 Y250.785
G01 X266.786 Y249.980
G01 X266.942 Y249.649
G01 X267.673 Y248.764
G01 X268.356 Y247.807
G01 X268.987 Y246.780
G01 X269.541 Y245.722
G01 X268.597 Y244.961
G01 X267.627 Y244.282
G01 X266.638 Y243.685
G01 X265.633 Y243.171
G01 X265.557 Y243.135
G01 X264.866 Y242.549
G01 X264.155 Y242.013
G01 X263.428 Y241.529
G01 X262.688 Y241.096
G01 X261.939 Y240.715
G01 X261.573 Y240.548
G01 X261.016 Y240.064
G01 X260.438 Y239.612
G01 X259.843 Y239.192
G01 X259.233 Y238.805
G01 X258.608 Y238.452
G01 X257.970 Y238.133
G01 X257.590 Y237.961
G01 X257.052 Y237.493
G01 X256.487 Y237.048
G01 X255.895 Y236.628
G01 X255.278 Y236.236
G01 X254.636 Y235.873
G01 X253.971 Y235.540
G01 X253.606 Y235.374
G01 X252.961 Y234.822
G01 X252.270 Y234.298
G01 X251.534 Y233.806
G01 X250.756 Y233.350
G01 X249.937 Y232.932
G01 X249.622 Y232.787
G01 X248.724 Y232.058
G01 X247.752 Y231.378
G01 X246.712 Y230.751
G01 X245.639 Y230.200
G01 X244.872 Y231.170
G01 X244.189 Y232.166
G01 X243.591 Y233.181
G01 X243.078 Y234.211
G01 X243.064 Y234.242
G01 X242.474 Y234.950
G01 X241.936 Y235.678
G01 X241.451 Y236.421
G01 X241.019 Y237.177
G01 X240.641 Y237.942
G01 X240.490 Y238.283
G01 X240.005 Y238.851
G01 X239.552 Y239.439
G01 X239.133 Y240.044
G01 X238.749 Y240.664
G01 X238.398 Y241.298
G01 X238.083 Y241.943
G01 X237.915 Y242.324
G01 X237.449 Y242.867
G01 X237.007 Y243.438
G01 X236.592 Y244.034
G01 X236.204 Y244.656
G01 X235.844 Y245.302
G01 X235.516 Y245.970
G01 X235.340 Y246.365
G01 X234.794 Y247.013
G01 X234.277 Y247.706
G01 X233.792 Y248.443
G01 X233.342 Y249.222
G01 X232.931 Y250.041
G01 X232.766 Y250.407
G01 X232.047 Y251.307
G01 X231.376 Y252.279
G01 X230.759 Y253.320
G01 X230.201 Y254.426
G01 X230.191 Y254.448
G01 X231.171 Y255.210
G01 X232.176 Y255.888
G01 X233.201 Y256.480
G01 X234.239 Y256.986
G01 X234.290 Y257.009
G01 X235.003 Y257.594
G01 X235.735 Y258.127
G01 X236.482 Y258.606
G01 X237.240 Y259.032
G01 X238.008 Y259.405
G01 X238.389 Y259.570
G01 X238.959 Y260.050
G01 X239.548 Y260.497
G01 X240.154 Y260.910
G01 X240.775 Y261.290
G01 X241.409 Y261.635
G01 X242.055 Y261.945
G01 X242.488 Y262.132
G01 X243.033 Y262.593
G01 X243.605 Y263.030
G01 X244.204 Y263.440
G01 X244.827 Y263.824
G01 X245.474 Y264.178
G01 X246.144 Y264.501
G01 X246.587 Y264.693
G01 X247.241 Y265.236
G01 X247.940 Y265.750
G01 X248.683 Y266.231
G01 X249.468 Y266.676
G01 X250.294 Y267.082
G01 X250.686 Y267.254
G01 X251.600 Y267.973
G01 X252.587 Y268.641
G01 X253.643 Y269.254
G01 X254.765 Y269.806
G01 X254.785 Y269.815
G01 X255.538 Y268.832
G01 X256.207 Y267.823
G01 X256.791 Y266.797
G01 X257.289 Y265.757
G01 X257.332 Y265.659
G01 X257.912 Y264.940
G01 X258.439 Y264.204
G01 X258.913 Y263.452
G01 X259.335 Y262.689
G01 X259.703 Y261.917
G01 X259.879 Y261.502
G01 X260.357 Y260.924
G01 X260.801 Y260.328
G01 X261.213 Y259.714
G01 X261.590 Y259.085
G01 X261.933 Y258.442
G01 X262.240 Y257.788
G01 X262.426 Y257.346
G01 X262.889 Y256.789
G01 X263.327 Y256.204
G01 X263.738 Y255.593
G01 X264.120 Y254.956
G01 X264.474 Y254.294
G01 X264.795 Y253.611
G01 X264.973 Y253.189
G01 X265.521 Y252.517
G01 X266.038 Y251.798
G01 X266.521 Y251.035
G01 X266.966 Y250.229
G01 X267.371 Y249.381
G01 X267.521 Y249.032
G01 X268.245 Y248.091
G01 X268.917 Y247.076
G01 X269.532 Y245.991
G01 X270.068 Y244.876
G01 X269.063 Y244.122
G01 X268.035 Y243.454
G01 X266.989 Y242.872
G01 X265.931 Y242.376
G01 X265.853 Y242.343
G01 X265.116 Y241.761
G01 X264.361 Y241.233
G01 X263.592 Y240.758
G01 X262.810 Y240.337
G01 X262.022 Y239.969
G01 X261.639 Y239.811
G01 X261.044 Y239.330
G01 X260.431 Y238.883
G01 X259.800 Y238.470
G01 X259.154 Y238.092
G01 X258.495 Y237.750
G01 X257.824 Y237.443
G01 X257.425 Y237.279
G01 X256.852 Y236.813
G01 X256.251 Y236.374
G01 X255.624 Y235.962
G01 X254.971 Y235.578
G01 X254.294 Y235.226
G01 X253.595 Y234.905
G01 X253.210 Y234.747
G01 X252.523 Y234.198
G01 X251.790 Y233.682
G01 X251.012 Y233.200
G01 X250.191 Y232.757
G01 X249.329 Y232.354
G01 X248.996 Y232.214
G01 X248.040 Y231.493
G01 X247.012 Y230.825
G01 X245.914 Y230.215
G01 X244.781 Y229.682
G01 X244.023 Y230.713
G01 X243.353 Y231.767
G01 X242.771 Y232.839
G01 X242.278 Y233.922
G01 X242.265 Y233.954
G01 X241.680 Y234.708
G01 X241.150 Y235.480
G01 X240.676 Y236.267
G01 X240.256 Y237.064
G01 X239.892 Y237.868
G01 X239.748 Y238.227
G01 X239.267 Y238.832
G01 X238.821 Y239.455
G01 X238.410 Y240.096
G01 X238.034 Y240.751
G01 X237.695 Y241.419
G01 X237.392 Y242.098
G01 X237.232 Y242.499
G01 X236.770 Y243.077
G01 X236.334 Y243.683
G01 X235.925 Y244.315
G01 X235.547 Y244.971
G01 X235.199 Y245.652
G01 X234.883 Y246.354
G01 X234.715 Y246.771
G01 X234.174 Y247.461
G01 X233.664 Y248.195
G01 X233.189 Y248.974
G01 X232.752 Y249.796
G01 X232.357 Y250.657
G01 X232.199 Y251.043
G01 X231.487 Y252.000
G01 X230.829 Y253.029
G01 X230.229 Y254.127
G01 X229.692 Y255.291
G01 X229.682 Y255.316
G01 X230.740 Y256.063
G01 X231.821 Y256.720
G01 X232.917 Y257.286
G01 X233.679 Y257.623
G01 X234.466 Y258.207
G01 X235.270 Y258.733
G01 X236.087 Y259.200
G01 X236.914 Y259.608
G01 X237.676 Y259.931
G01 X238.306 Y260.410
G01 X238.952 Y260.852
G01 X239.613 Y261.256
G01 X240.288 Y261.621
G01 X240.972 Y261.948
G01 X241.665 Y262.236
G01 X241.673 Y262.239
G01 X242.253 Y262.683
G01 X242.856 Y263.101
G01 X243.481 Y263.489
G01 X244.128 Y263.848
G01 X244.794 Y264.175
G01 X245.478 Y264.470
G01 X245.670 Y264.546
G01 X246.316 Y265.038
G01 X247.001 Y265.501
G01 X247.722 Y265.933
G01 X248.478 Y266.330
G01 X249.267 Y266.691
G01 X249.667 Y266.854
G01 X250.516 Y267.562
G01 X251.433 Y268.226
G01 X252.416 Y268.841
G01 X253.463 Y269.401
G01 X254.570 Y269.902
G01 X255.663 Y270.316
G01 X256.400 Y269.254
G01 X257.048 Y268.170
G01 X257.605 Y267.071
G01 X257.955 Y266.265
G01 X258.532 Y265.473
G01 X259.052 Y264.664
G01 X259.513 Y263.842
G01 X259.916 Y263.011
G01 X260.246 Y262.215
G01 X260.722 Y261.578
G01 X261.161 Y260.923
G01 X261.562 Y260.255
G01 X261.924 Y259.573
G01 X262.247 Y258.881
G01 X262.532 Y258.180
G01 X262.538 Y258.164
G01 X262.983 Y257.574
G01 X263.399 Y256.959
G01 X263.787 Y256.322
G01 X264.144 Y255.663
G01 X264.470 Y254.984
G01 X264.763 Y254.288
G01 X264.830 Y254.114
G01 X265.324 Y253.451
G01 X265.789 Y252.749
G01 X266.221 Y252.011
G01 X266.618 Y251.236
G01 X266.977 Y250.427
G01 X267.121 Y250.063
G01 X267.835 Y249.190
G01 X268.503 Y248.246
G01 X269.119 Y247.236
G01 X269.679 Y246.161
G01 X270.178 Y245.025
G01 X270.559 Y243.987
G01 X269.476 Y243.250
G01 X268.371 Y242.605
G01 X267.253 Y242.050
G01 X266.455 Y241.712
G01 X265.643 Y241.133
G01 X264.815 Y240.613
G01 X263.975 Y240.153
G01 X263.126 Y239.751
G01 X262.351 Y239.438
G01 X261.696 Y238.959
G01 X261.025 Y238.518
G01 X260.339 Y238.117
G01 X259.640 Y237.755
G01 X258.931 Y237.433
G01 X258.247 Y237.163
G01 X257.640 Y236.716
G01 X257.009 Y236.298
G01 X256.356 Y235.909
G01 X255.681 Y235.553
G01 X254.987 Y235.228
G01 X254.274 Y234.937
G01 X254.143 Y234.888
G01 X253.465 Y234.393
G01 X252.749 Y233.928
G01 X251.995 Y233.497
G01 X251.205 Y233.102
G01 X250.382 Y232.746
G01 X250.039 Y232.613
G01 X249.151 Y231.902
G01 X248.194 Y231.237
G01 X247.170 Y230.625
G01 X246.082 Y230.070
G01 X244.933 Y229.577
G01 X243.883 Y229.201
G01 X243.143 Y230.311
G01 X242.496 Y231.441
G01 X241.944 Y232.586
G01 X241.625 Y233.358
G01 X241.045 Y234.188
G01 X240.525 Y235.033
G01 X240.065 Y235.891
G01 X239.667 Y236.756
G01 X239.368 Y237.516
G01 X238.890 Y238.181
G01 X238.451 Y238.864
G01 X238.052 Y239.560
G01 X237.693 Y240.269
G01 X237.374 Y240.988
G01 X237.111 Y241.673
G01 X236.667 Y242.286
G01 X236.252 Y242.923
G01 X235.868 Y243.582
G01 X235.516 Y244.261
G01 X235.196 Y244.960
G01 X234.910 Y245.676
G01 X234.853 Y245.831
G01 X234.364 Y246.511
G01 X233.906 Y247.230
G01 X233.481 Y247.985
G01 X233.093 Y248.776
G01 X232.743 Y249.600
G01 X232.596 Y249.988
G01 X231.984 Y250.873
G01 X231.418 Y251.817
G01 X230.903 Y252.819
G01 X230.444 Y253.876
G01 X230.339 Y254.145
G01 X229.647 Y255.347
G01 X229.210 Y256.224
G01 X230.330 Y256.958
G01 X231.469 Y257.597
G01 X232.622 Y258.142
G01 X233.421 Y258.463
G01 X234.255 Y259.038
G01 X235.104 Y259.552
G01 X235.965 Y260.004
G01 X236.833 Y260.396
G01 X237.632 Y260.702
G01 X238.299 Y261.175
G01 X238.983 Y261.608
G01 X239.681 Y262.001
G01 X240.390 Y262.354
G01 X241.109 Y262.666
G01 X241.835 Y262.938
G01 X241.843 Y262.941
G01 X242.458 Y263.380
G01 X243.096 Y263.789
G01 X243.756 Y264.167
G01 X244.436 Y264.514
G01 X245.136 Y264.829
G01 X245.853 Y265.109
G01 X246.054 Y265.180
G01 X246.739 Y265.665
G01 X247.463 Y266.119
G01 X248.223 Y266.538
G01 X249.018 Y266.921
G01 X249.847 Y267.265
G01 X250.265 Y267.419
G01 X251.161 Y268.029
G01 X252.117 Y268.590
G01 X253.131 Y269.100
G01 X254.200 Y269.554
G01 X254.476 Y269.658
G01 X255.696 Y270.347
G01 X256.582 Y270.778
G01 X257.305 Y269.654
G01 X257.935 Y268.512
G01 X258.471 Y267.357
G01 X258.801 Y266.513
G01 X259.369 Y265.674
G01 X259.877 Y264.820
G01 X260.324 Y263.954
G01 X260.710 Y263.082
G01 X261.021 Y262.249
G01 X261.490 Y261.574
G01 X261.920 Y260.882
G01 X262.309 Y260.177
G01 X262.659 Y259.460
G01 X262.968 Y258.733
G01 X263.237 Y257.999
G01 X263.241 Y257.984
G01 X263.679 Y257.358
G01 X264.087 Y256.709
G01 X264.465 Y256.037
G01 X264.810 Y255.343
G01 X265.122 Y254.631
G01 X265.399 Y253.901
G01 X265.461 Y253.720
G01 X265.948 Y253.018
G01 X266.403 Y252.277
G01 X266.822 Y251.499
G01 X267.204 Y250.684
G01 X267.545 Y249.836
G01 X267.681 Y249.455
G01 X268.294 Y248.536
G01 X268.857 Y247.555
G01 X269.366 Y246.515
G01 X269.817 Y245.420
G01 X269.901 Y245.191
G01 X270.591 Y243.941
G01 X271.011 Y243.059
G01 X269.866 Y242.337
G01 X268.702 Y241.710
G01 X267.527 Y241.178
G01 X266.693 Y240.859
G01 X265.834 Y240.290
G01 X264.961 Y239.783
G01 X264.076 Y239.337
G01 X263.185 Y238.954
G01 X262.375 Y238.659
G01 X261.682 Y238.188
G01 X260.973 Y237.758
G01 X260.250 Y237.368
G01 X259.516 Y237.020
G01 X258.773 Y236.713
G01 X258.057 Y236.458
G01 X257.415 Y236.019
G01 X256.749 Y235.610
G01 X256.061 Y235.233
G01 X255.352 Y234.889
G01 X254.624 Y234.579
G01 X253.878 Y234.305
G01 X253.739 Y234.258
G01 X253.022 Y233.772
G01 X252.267 Y233.318
G01 X251.473 Y232.901
G01 X250.645 Y232.522
G01 X249.782 Y232.184
G01 X249.421 Y232.058
G01 X248.488 Y231.449
G01 X247.494 Y230.890
G01 X246.441 Y230.386
G01 X245.333 Y229.940
G01 X245.103 Y229.858
G01 X243.841 Y229.175
G01 X242.944 Y228.758
G01 X242.221 Y229.930
G01 X241.595 Y231.120
G01 X241.065 Y232.321
G01 X240.765 Y233.129
G01 X240.196 Y234.006
G01 X239.689 Y234.897
G01 X239.246 Y235.799
G01 X238.866 Y236.706
G01 X238.585 Y237.501
G01 X238.116 Y238.205
G01 X237.687 Y238.925
G01 X237.301 Y239.658
G01 X236.956 Y240.402
G01 X236.653 Y241.155
G01 X236.406 Y241.872
G01 X235.970 Y242.521
G01 X235.565 Y243.192
G01 X235.193 Y243.886
G01 X234.853 Y244.599
G01 X234.549 Y245.331
G01 X234.280 Y246.081
G01 X234.226 Y246.244
G01 X233.746 Y246.963
G01 X233.299 Y247.721
G01 X232.889 Y248.516
G01 X232.516 Y249.345
G01 X232.185 Y250.208
G01 X232.047 Y250.615
G01 X231.447 Y251.550
G01 X230.898 Y252.544
G01 X230.403 Y253.597
G01 X229.966 Y254.703
G01 X229.867 Y254.987
G01 X229.197 Y256.251
G01 X228.778 Y257.172
G01 X229.959 Y257.889
G01 X231.157 Y258.507
G01 X232.366 Y259.028
G01 X233.203 Y259.330
G01 X234.083 Y259.893
G01 X234.978 Y260.392
G01 X235.882 Y260.828
G01 X236.792 Y261.201
G01 X237.627 Y261.488
G01 X238.333 Y261.952
G01 X239.054 Y262.374
G01 X239.787 Y262.754
G01 X240.532 Y263.093
G01 X241.285 Y263.389
G01 X242.044 Y263.644
G01 X242.052 Y263.647
G01 X242.702 Y264.077
G01 X243.375 Y264.476
G01 X244.070 Y264.843
G01 X244.784 Y265.176
G01 X245.517 Y265.475
G01 X246.267 Y265.739
G01 X246.477 Y265.805
G01 X247.201 Y266.280
G01 X247.964 Y266.722
G01 X248.764 Y267.128
G01 X249.598 Y267.494
G01 X250.465 Y267.819
G01 X250.902 Y267.963
G01 X251.848 Y268.559
G01 X252.855 Y269.104
G01 X253.919 Y269.594
G01 X255.039 Y270.023
G01 X255.327 Y270.121
G01 X256.610 Y270.787
G01 X257.539 Y271.200
G01 X258.245 Y270.015
G01 X258.853 Y268.813
G01 X259.365 Y267.602
G01 X259.675 Y266.722
G01 X260.231 Y265.835
G01 X260.724 Y264.936
G01 X261.153 Y264.026
G01 X261.520 Y263.112
G01 X261.811 Y262.244
G01 X262.271 Y261.530
G01 X262.689 Y260.801
G01 X263.065 Y260.059
G01 X263.400 Y259.306
G01 X263.693 Y258.545
G01 X263.943 Y257.778
G01 X263.947 Y257.765
G01 X264.376 Y257.104
G01 X264.774 Y256.419
G01 X265.139 Y255.712
G01 X265.470 Y254.984
G01 X265.766 Y254.238
G01 X266.026 Y253.475
G01 X266.083 Y253.287
G01 X266.560 Y252.546
G01 X267.002 Y251.765
G01 X267.406 Y250.947
G01 X267.771 Y250.094
G01 X268.092 Y249.207
G01 X268.219 Y248.809
G01 X268.817 Y247.839
G01 X269.363 Y246.807
G01 X269.850 Y245.716
G01 X270.276 Y244.571
G01 X270.355 Y244.331
G01 X271.022 Y243.017
G01 X271.423 Y242.092
G01 X270.299 Y241.353
G01 X269.156 Y240.704
G01 X268.000 Y240.146
G01 X266.836 Y239.678
G01 X265.672 Y239.300
G01 X265.111 Y239.148
G01 X264.279 Y238.644
G01 X263.435 Y238.194
G01 X262.581 Y237.799
G01 X261.722 Y237.459
G01 X260.903 Y237.186
G01 X260.197 Y236.751
G01 X259.474 Y236.353
G01 X258.737 Y235.995
G01 X257.988 Y235.675
G01 X257.228 Y235.395
G01 X256.696 Y235.224
G01 X256.008 Y234.798
G01 X255.295 Y234.405
G01 X254.557 Y234.045
G01 X253.797 Y233.720
G01 X253.015 Y233.432
G01 X252.488 Y233.262
G01 X251.701 Y232.781
G01 X250.873 Y232.338
G01 X250.005 Y231.935
G01 X249.100 Y231.576
G01 X248.280 Y231.300
G01 X247.252 Y230.613
G01 X246.152 Y229.984
G01 X244.985 Y229.417
G01 X243.753 Y228.919
G01 X242.461 Y228.495
G01 X241.968 Y228.357
G01 X241.228 Y229.506
G01 X240.580 Y230.674
G01 X240.025 Y231.854
G01 X239.563 Y233.041
G01 X239.191 Y234.227
G01 X239.058 Y234.743
G01 X238.554 Y235.590
G01 X238.106 Y236.449
G01 X237.715 Y237.316
G01 X237.379 Y238.189
G01 X237.118 Y239.000
G01 X236.684 Y239.716
G01 X236.290 Y240.447
G01 X235.935 Y241.192
G01 X235.621 Y241.949
G01 X235.346 Y242.716
G01 X235.177 Y243.257
G01 X234.757 Y243.950
G01 X234.368 Y244.668
G01 X234.014 Y245.409
G01 X233.695 Y246.172
G01 X233.412 Y246.956
G01 X233.237 Y247.515
G01 X232.763 Y248.303
G01 X232.328 Y249.133
G01 X231.932 Y250.001
G01 X231.581 Y250.906
G01 X231.297 Y251.772
G01 X230.620 Y252.801
G01 X230.000 Y253.901
G01 X229.444 Y255.068
G01 X228.956 Y256.298
G01 X228.541 Y257.588
G01 X228.387 Y258.158
G01 X229.544 Y258.891
G01 X230.719 Y259.531
G01 X231.906 Y260.078
G01 X233.098 Y260.532
G01 X234.290 Y260.895
G01 X234.847 Y261.034
G01 X235.696 Y261.531
G01 X236.557 Y261.971
G01 X237.426 Y262.356
G01 X238.300 Y262.684
G01 X239.154 Y262.952
G01 X239.870 Y263.378
G01 X240.603 Y263.766
G01 X241.348 Y264.114
G01 X242.105 Y264.423
