;  Created by Sandify
;  https://sandify.org
;  Version: 0.2.6
;
;  Machine type: Rectangular
;    Min X (mm): 0
;    Max X (mm): 500
;    Min Y (mm): 0
;    Max Y (mm): 500
;  Content type: shape
;  Layer:
;    Shape: FileImport
;    Name: snowflake.thr
;    From file:: snowflake.thr
;    Aspect Ratio: true
;    Comments: 
;    Visible: true
;    Initial width: 10
;    Initial height: 10
;    X offset: 0
;    Y offset: 0
;    Rotate (degrees): 0
;    Reverse path: false
;    Fine tuning:
;      Connect to next layer: line
;      Draw portion of path (%): 100
;      Backtrack at end (%): 0
;      Rotate starting point (%): 0
;  Reverse export path: false
;
; File name: 'Snowflake (C C)'
; File type: gcode
;

G01 X250.000 Y250.000
G01 X250.008 Y250.162
G01 X250.032 Y250.323
G01 X250.072 Y250.482
G01 X250.127 Y250.638
G01 X250.197 Y250.788
G01 X250.283 Y250.933
G01 X250.383 Y251.071
G01 X250.497 Y251.201
G01 X250.625 Y251.322
G01 X250.766 Y251.433
G01 X250.919 Y251.533
G01 X251.083 Y251.621
G01 X251.258 Y251.697
G01 X251.443 Y251.759
G01 X251.637 Y251.806
G01 X251.838 Y251.838
G01 X252.047 Y251.855
G01 X252.261 Y251.856
G01 X252.480 Y251.839
G01 X252.702 Y251.806
G01 X252.927 Y251.754
G01 X253.153 Y251.685
G01 X253.379 Y251.598
G01 X253.603 Y251.492
G01 X253.825 Y251.369
G01 X254.043 Y251.226
G01 X254.256 Y251.066
G01 X254.463 Y250.888
G01 X254.661 Y250.691
G01 X254.852 Y250.478
G01 X255.031 Y250.247
G01 X255.200 Y250.000
G01 X256.306 Y249.690
G01 X257.391 Y249.272
G01 X258.448 Y248.747
G01 X259.469 Y248.117
G01 X259.909 Y247.803
G01 X258.908 Y248.479
G01 X257.866 Y249.051
G01 X256.792 Y249.517
G01 X255.694 Y249.876
G01 X255.200 Y250.000
G01 X260.400 Y250.000
G01 X262.034 Y250.591
G01 X263.631 Y251.343
G01 X265.091 Y252.194
G01 X270.282 Y252.195
G01 X265.819 Y250.930
G01 X261.292 Y250.109
G01 X260.400 Y250.000
G01 X262.034 Y249.409
G01 X263.631 Y248.657
G01 X265.091 Y247.805
G01 X266.097 Y246.846
G01 X267.042 Y245.783
G01 X267.919 Y244.620
G01 X268.443 Y243.823
G01 X267.614 Y245.047
G01 X266.712 Y246.175
G01 X265.744 Y247.201
G01 X265.091 Y247.805
G01 X268.245 Y246.425
G01 X269.794 Y245.611
G01 X274.992 Y245.609
G01 X279.704 Y243.414
G01 X269.794 Y245.611
G01 X267.796 Y246.961
G01 X265.718 Y248.104
G01 X263.576 Y249.035
G01 X261.386 Y249.751
G01 X260.400 Y250.000
G01 X265.575 Y250.000
G01 X267.751 Y249.128
G01 X269.873 Y248.043
G01 X270.282 Y247.805
G01 X268.172 Y248.932
G01 X266.005 Y249.846
G01 X265.575 Y250.000
G01 X270.775 Y250.000
G01 X273.490 Y251.154
G01 X275.481 Y252.194
G01 X280.672 Y252.194
G01 X273.886 Y250.533
G01 X270.775 Y250.000
G01 X273.490 Y251.154
G01 X275.481 Y252.194
G01 X280.672 Y252.194
G01 X275.481 Y252.194
G01 X279.437 Y253.998
G01 X280.183 Y254.389
G01 X281.890 Y256.248
G01 X283.483 Y258.285
G01 X283.546 Y258.373
G01 X288.242 Y260.567
G01 X285.204 Y257.891
G01 X282.004 Y255.541
G01 X280.183 Y254.389
G01 X285.379 Y254.388
G01 X288.758 Y252.885
G01 X290.090 Y252.195
G01 X286.736 Y253.826
G01 X285.379 Y254.388
G01 X290.588 Y254.392
G01 X295.299 Y256.587
G01 X300.497 Y256.586
G01 X290.588 Y254.392
G01 X281.641 Y251.860
G01 X272.564 Y250.217
G01 X270.775 Y250.000
G01 X273.490 Y248.846
G01 X275.481 Y247.806
G01 X276.859 Y246.352
G01 X278.152 Y244.759
G01 X278.821 Y243.827
G01 X277.579 Y245.495
G01 X276.246 Y247.026
G01 X275.481 Y247.806
G01 X279.437 Y246.002
G01 X280.183 Y245.611
G01 X285.379 Y245.612
G01 X290.088 Y243.415
G01 X280.183 Y245.611
G01 X281.890 Y243.751
G01 X283.483 Y241.715
G01 X283.546 Y241.627
G01 X284.164 Y239.667
G01 X284.668 Y237.628
G01 X284.869 Y236.615
G01 X284.423 Y238.691
G01 X283.859 Y240.690
G01 X283.546 Y241.627
G01 X285.665 Y239.214
G01 X286.862 Y237.653
G01 X291.579 Y235.455
G01 X294.606 Y231.894
G01 X294.930 Y231.473
G01 X289.162 Y236.058
G01 X286.862 Y237.653
G01 X285.210 Y240.099
G01 X283.412 Y242.352
G01 X281.484 Y244.403
G01 X280.183 Y245.611
G01 X284.909 Y243.413
G01 X286.927 Y241.136
G01 X288.242 Y239.433
G01 X286.322 Y241.858
G01 X284.909 Y243.413
G01 X289.613 Y241.216
G01 X294.798 Y241.222
G01 X299.522 Y239.019
G01 X289.613 Y241.216
G01 X294.798 Y241.222
G01 X299.522 Y239.019
G01 X294.798 Y241.222
G01 X300.009 Y241.214
G01 X304.274 Y243.190
G01 X304.705 Y243.415
G01 X309.914 Y243.413
G01 X302.368 Y241.625
G01 X300.009 Y241.214
G01 X304.710 Y239.023
G01 X307.750 Y235.433
G01 X308.053 Y235.040
G01 X305.036 Y238.665
G01 X304.710 Y239.023
G01 X309.407 Y236.827
G01 X314.621 Y236.826
G01 X319.316 Y234.630
G01 X309.407 Y236.827
G01 X289.613 Y241.216
G01 X285.605 Y243.920
G01 X281.439 Y246.208
G01 X277.144 Y248.071
G01 X272.752 Y249.503
G01 X270.775 Y250.000
G01 X275.975 Y250.000
G01 X279.223 Y248.564
G01 X280.672 Y247.806
G01 X277.460 Y249.387
G01 X275.975 Y250.000
G01 X281.175 Y250.000
G01 X284.969 Y251.718
G01 X285.883 Y252.195
G01 X291.066 Y252.195
G01 X281.978 Y250.138
G01 X281.175 Y250.000
G01 X284.969 Y248.282
G01 X285.883 Y247.805
G01 X287.656 Y245.834
G01 X289.217 Y243.824
G01 X287.548 Y245.963
G01 X285.883 Y247.805
G01 X290.588 Y245.607
G01 X295.790 Y245.609
G01 X300.497 Y243.413
G01 X290.588 Y245.607
G01 X286.368 Y247.862
G01 X282.035 Y249.692
G01 X281.175 Y250.000
G01 X286.375 Y250.000
G01 X290.692 Y248.001
G01 X291.066 Y247.805
G01 X286.758 Y249.841
G01 X286.375 Y250.000
G01 X291.550 Y250.000
G01 X296.273 Y252.195
G01 X301.453 Y252.193
G01 X291.550 Y250.000
G01 X296.273 Y252.195
G01 X301.453 Y252.193
G01 X296.273 Y252.195
G01 X300.961 Y254.388
G01 X303.443 Y257.258
G01 X304.309 Y258.369
G01 X309.012 Y260.562
G01 X304.762 Y257.049
G01 X300.961 Y254.388
G01 X306.179 Y254.391
G01 X310.885 Y252.199
G01 X306.179 Y254.391
G01 X311.368 Y254.389
G01 X316.072 Y256.589
G01 X321.271 Y256.590
G01 X311.368 Y254.389
G01 X297.780 Y251.066
G01 X291.550 Y250.000
G01 X296.273 Y252.195
G01 X301.453 Y252.193
G01 X296.273 Y252.195
G01 X300.961 Y254.388
G01 X303.443 Y257.258
G01 X304.309 Y258.369
G01 X309.012 Y260.562
G01 X304.762 Y257.049
G01 X300.961 Y254.388
G01 X306.179 Y254.391
G01 X310.885 Y252.199
G01 X306.179 Y254.391
G01 X311.368 Y254.389
G01 X316.072 Y256.589
G01 X321.271 Y256.590
G01 X311.368 Y254.389
G01 X300.961 Y254.388
G01 X305.687 Y256.585
G01 X310.870 Y256.587
G01 X305.687 Y256.585
G01 X310.390 Y258.781
G01 X313.486 Y262.439
G01 X313.735 Y262.760
G01 X318.434 Y264.958
G01 X312.915 Y260.548
G01 X310.390 Y258.781
G01 X313.486 Y262.439
G01 X313.735 Y262.760
G01 X318.434 Y264.958
G01 X313.735 Y262.760
G01 X317.068 Y266.740
G01 X318.151 Y270.611
G01 X318.423 Y271.759
G01 X321.749 Y275.736
G01 X319.584 Y271.168
G01 X317.152 Y266.877
G01 X317.068 Y266.740
G01 X321.770 Y268.931
G01 X326.980 Y268.936
G01 X321.770 Y268.931
G01 X326.484 Y271.134
G01 X329.818 Y275.111
G01 X334.523 Y277.308
G01 X326.484 Y271.134
G01 X320.418 Y265.784
G01 X314.028 Y261.085
G01 X310.390 Y258.781
G01 X315.590 Y258.782
G01 X320.292 Y256.584
G01 X315.590 Y258.782
G01 X320.783 Y258.779
G01 X325.481 Y260.976
G01 X330.682 Y260.975
G01 X320.783 Y258.779
G01 X325.488 Y256.584
G01 X328.542 Y252.979
G01 X328.832 Y252.610
G01 X325.795 Y256.243
G01 X325.488 Y256.584
G01 X330.205 Y254.391
G01 X335.387 Y254.392
G01 X340.098 Y252.199
G01 X330.205 Y254.391
G01 X323.497 Y257.655
G01 X320.783 Y258.779
G01 X325.969 Y258.783
G01 X330.681 Y256.590
G01 X325.969 Y258.783
G01 X331.176 Y258.785
G01 X335.877 Y260.974
G01 X341.065 Y260.980
G01 X331.176 Y258.785
G01 X335.877 Y260.974
G01 X341.065 Y260.980
G01 X335.877 Y260.974
G01 X340.572 Y263.170
G01 X343.922 Y267.149
G01 X348.621 Y269.345
G01 X340.608 Y263.195
G01 X340.572 Y263.170
G01 X345.773 Y263.174
G01 X350.477 Y260.975
G01 X345.773 Y263.174
G01 X350.970 Y263.169
G01 X355.689 Y265.368
G01 X360.866 Y265.363
G01 X350.970 Y263.169
G01 X331.176 Y258.785
G01 X313.281 Y253.719
G01 X295.128 Y250.434
G01 X291.550 Y250.000
G01 X296.273 Y247.805
G01 X298.460 Y245.310
G01 X299.617 Y243.826
G01 X297.506 Y246.444
G01 X296.273 Y247.805
G01 X300.961 Y245.611
G01 X306.179 Y245.609
G01 X310.870 Y243.412
G01 X300.961 Y245.611
G01 X303.443 Y242.741
G01 X304.309 Y241.631
G01 X305.162 Y238.704
G01 X305.662 Y236.608
G01 X304.918 Y239.608
G01 X304.309 Y241.631
G01 X307.144 Y238.298
G01 X307.643 Y237.653
G01 X312.352 Y235.460
G01 X315.689 Y231.480
G01 X309.545 Y236.327
G01 X307.643 Y237.653
G01 X305.158 Y240.990
G01 X302.493 Y244.052
G01 X300.961 Y245.611
G01 X305.687 Y243.415
G01 X308.455 Y240.159
G01 X309.012 Y239.438
G01 X306.283 Y242.755
G01 X305.687 Y243.415
G01 X310.390 Y241.218
G01 X315.590 Y241.218
G01 X320.298 Y239.023
G01 X310.390 Y241.218
G01 X315.590 Y241.218
G01 X320.298 Y239.023
G01 X315.590 Y241.218
G01 X320.783 Y241.221
G01 X325.488 Y243.416
G01 X330.682 Y243.418
G01 X320.783 Y241.221
G01 X325.481 Y239.024
G01 X328.819 Y235.046
G01 X325.481 Y239.024
G01 X330.200 Y236.827
G01 X335.389 Y236.823
G01 X340.099 Y234.636
G01 X330.200 Y236.827
G01 X310.390 Y241.218
G01 X313.485 Y237.560
G01 X313.735 Y237.239
G01 X314.720 Y233.702
G01 X315.065 Y232.223
G01 X314.160 Y235.813
G01 X313.735 Y237.239
G01 X317.067 Y233.260
G01 X321.770 Y231.069
G01 X325.108 Y227.087
G01 X317.454 Y232.990
G01 X317.067 Y233.260
G01 X318.151 Y229.389
G01 X318.423 Y228.240
G01 X317.841 Y224.697
G01 X317.523 Y223.124
G01 X318.187 Y226.666
G01 X318.423 Y228.240
G01 X319.569 Y224.053
G01 X319.762 Y223.222
G01 X323.092 Y219.243
G01 X324.434 Y214.284
G01 X324.449 Y214.220
G01 X321.744 Y219.759
G01 X319.762 Y223.222
G01 X318.850 Y227.381
G01 X317.702 Y231.385
G01 X317.067 Y233.260
G01 X320.414 Y229.278
G01 X321.563 Y225.064
G01 X321.749 Y224.264
G01 X320.646 Y228.509
G01 X320.414 Y229.278
G01 X323.748 Y225.298
G01 X328.445 Y223.113
G01 X331.793 Y219.128
G01 X323.748 Y225.298
G01 X328.445 Y223.113
G01 X331.793 Y219.128
G01 X328.445 Y223.113
G01 X333.159 Y220.910
G01 X338.358 Y220.905
G01 X343.057 Y218.717
G01 X333.159 Y220.910
G01 X336.493 Y216.929
G01 X337.848 Y211.912
G01 X336.493 Y216.929
G01 X339.837 Y212.956
G01 X344.555 Y210.756
G01 X347.883 Y206.780
G01 X339.837 Y212.956
G01 X328.334 Y222.113
G01 X323.748 Y225.298
G01 X320.444 Y230.191
G01 X316.849 Y234.698
G01 X312.992 Y238.801
G01 X310.390 Y241.218
G01 X315.106 Y239.025
G01 X318.434 Y235.041
G01 X315.106 Y239.025
G01 X319.818 Y236.826
G01 X325.001 Y236.824
G01 X329.706 Y234.629
G01 X319.818 Y236.826
G01 X323.141 Y232.851
G01 X324.291 Y228.686
G01 X324.495 Y227.826
G01 X323.392 Y232.023
G01 X323.141 Y232.851
G01 X326.484 Y228.865
G01 X331.190 Y226.671
G01 X334.526 Y222.700
G01 X326.484 Y228.865
G01 X322.644 Y233.716
G01 X319.818 Y236.826
G01 X324.507 Y234.633
G01 X327.856 Y230.650
G01 X324.507 Y234.633
G01 X329.226 Y232.433
G01 X334.418 Y232.439
G01 X339.135 Y230.236
G01 X329.226 Y232.433
G01 X334.418 Y232.439
G01 X339.135 Y230.236
G01 X334.418 Y232.439
G01 X339.621 Y232.438
G01 X344.331 Y234.631
G01 X349.521 Y234.633
G01 X339.621 Y232.438
G01 X344.327 Y230.239
G01 X347.657 Y226.267
G01 X344.327 Y230.239
G01 X349.020 Y228.044
G01 X354.213 Y228.049
G01 X358.929 Y225.847
G01 X349.020 Y228.044
G01 X329.226 Y232.433
G01 X334.418 Y232.439
G01 X339.135 Y230.236
G01 X334.418 Y232.439
G01 X339.621 Y232.438
G01 X344.331 Y234.631
G01 X349.521 Y234.633
G01 X339.621 Y232.438
G01 X344.327 Y230.239
G01 X347.657 Y226.267
G01 X344.327 Y230.239
G01 X349.020 Y228.044
G01 X354.213 Y228.049
G01 X358.929 Y225.847
G01 X349.020 Y228.044
G01 X339.621 Y232.438
G01 X344.811 Y232.433
G01 X349.508 Y230.243
G01 X344.811 Y232.433
G01 X349.994 Y232.433
G01 X354.704 Y234.635
G01 X359.906 Y234.635
G01 X349.994 Y232.433
G01 X354.704 Y234.635
G01 X359.906 Y234.635
G01 X354.704 Y234.635
G01 X359.410 Y236.829
G01 X362.751 Y240.813
G01 X367.467 Y243.002
G01 X360.933 Y237.906
G01 X359.410 Y236.829
G01 X364.621 Y236.829
G01 X369.314 Y234.631
G01 X364.621 Y236.829
G01 X369.803 Y236.828
G01 X374.517 Y239.026
G01 X379.712 Y239.026
G01 X369.803 Y236.828
G01 X354.712 Y233.253
G01 X349.994 Y232.433
G01 X354.702 Y230.243
G01 X358.047 Y226.258
G01 X354.702 Y230.243
G01 X359.419 Y228.047
G01 X364.615 Y228.040
G01 X369.330 Y225.847
G01 X359.419 Y228.047
G01 X362.755 Y224.062
G01 X364.101 Y219.047
G01 X362.755 Y224.062
G01 X366.083 Y220.087
G01 X370.805 Y217.889
G01 X374.136 Y213.914
G01 X366.083 Y220.087
G01 X360.070 Y227.330
G01 X359.419 Y228.047
G01 X364.124 Y225.854
G01 X367.455 Y221.878
G01 X364.124 Y225.854
G01 X368.839 Y223.649
G01 X374.033 Y223.654
G01 X378.724 Y221.458
G01 X368.839 Y223.649
G01 X374.033 Y223.654
G01 X378.724 Y221.458
G01 X374.033 Y223.654
G01 X379.217 Y223.658
G01 X383.940 Y225.848
G01 X389.119 Y225.847
G01 X379.217 Y223.658
G01 X383.941 Y221.451
G01 X387.276 Y217.481
G01 X383.941 Y221.451
G01 X388.633 Y219.260
G01 X393.828 Y219.268
G01 X398.542 Y217.063
G01 X388.633 Y219.260
G01 X368.839 Y223.649
G01 X329.226 Y232.433
G01 X321.211 Y237.841
G01 X312.877 Y242.416
G01 X304.287 Y246.142
G01 X295.505 Y249.005
G01 X291.550 Y250.000
G01 X296.750 Y250.000
G01 X301.453 Y247.807
G01 X296.750 Y250.000
G01 X301.950 Y250.000
G01 X306.658 Y252.194
G01 X311.861 Y252.197
G01 X301.950 Y250.000
G01 X306.658 Y247.806
G01 X309.236 Y244.786
G01 X309.983 Y243.824
G01 X307.452 Y246.922
G01 X306.658 Y247.806
G01 X311.368 Y245.611
G01 X316.555 Y245.607
G01 X321.271 Y243.410
G01 X311.368 Y245.611
G01 X304.929 Y248.774
G01 X301.950 Y250.000
G01 X307.150 Y250.000
G01 X311.861 Y247.803
G01 X307.150 Y250.000
G01 X312.325 Y250.000
G01 X317.039 Y252.193
G01 X322.242 Y252.197
G01 X312.325 Y250.000
G01 X317.039 Y252.193
G01 X322.242 Y252.197
G01 X317.039 Y252.193
G01 X321.741 Y254.389
G01 X325.032 Y258.301
G01 X325.085 Y258.369
G01 X329.804 Y260.563
G01 X324.241 Y256.140
G01 X321.741 Y254.389
G01 X326.950 Y254.391
G01 X331.645 Y252.196
G01 X326.950 Y254.391
G01 X332.133 Y254.390
G01 X336.851 Y256.587
G01 X342.040 Y256.583
G01 X332.133 Y254.390
G01 X313.934 Y250.275
G01 X312.325 Y250.000
G01 X317.039 Y247.807
G01 X320.042 Y244.258
G01 X320.380 Y243.826
G01 X317.398 Y247.410
G01 X317.039 Y247.807
G01 X321.741 Y245.611
G01 X326.950 Y245.609
G01 X331.660 Y243.412
G01 X321.741 Y245.611
G01 X325.032 Y241.698
G01 X325.085 Y241.631
G01 X326.176 Y237.700
G01 X326.436 Y236.611
G01 X325.401 Y240.578
G01 X325.085 Y241.631
G01 X328.433 Y237.648
G01 X333.137 Y235.455
G01 X336.488 Y231.475
G01 X329.293 Y237.048
G01 X328.433 Y237.648
G01 X325.083 Y241.926
G01 X321.741 Y245.611
G01 X326.467 Y243.415
G01 X329.804 Y239.436
G01 X326.467 Y243.415
G01 X331.176 Y241.215
G01 X336.355 Y241.222
G01 X341.066 Y239.028
G01 X331.176 Y241.215
G01 X336.355 Y241.222
G01 X341.066 Y239.028
G01 X336.355 Y241.222
G01 X341.555 Y241.220
G01 X346.275 Y243.414
G01 X351.462 Y243.416
G01 X341.555 Y241.220
G01 X346.276 Y239.025
G01 X349.609 Y235.047
G01 X346.276 Y239.025
G01 X350.970 Y236.830
G01 X356.162 Y236.832
G01 X360.865 Y234.636
G01 X350.970 Y236.830
G01 X331.176 Y241.215
G01 X322.725 Y245.725
G01 X314.048 Y249.383
G01 X312.325 Y250.000
G01 X317.525 Y250.000
G01 X322.242 Y247.803
G01 X317.525 Y250.000
G01 X322.725 Y250.000
G01 X327.444 Y252.192
G01 X332.621 Y252.198
G01 X322.725 Y250.000
G01 X327.444 Y247.807
G01 X330.764 Y243.825
G01 X327.444 Y247.807
G01 X332.133 Y245.610
G01 X337.340 Y245.612
G01 X342.040 Y243.417
G01 X332.133 Y245.610
G01 X323.494 Y249.683
G01 X322.725 Y250.000
G01 X327.925 Y250.000
G01 X332.621 Y247.801
G01 X327.925 Y250.000
G01 X333.125 Y250.000
G01 X337.823 Y252.196
G01 X343.024 Y252.195
G01 X333.125 Y250.000
G01 X337.823 Y252.196
G01 X343.024 Y252.195
G01 X337.823 Y252.196
G01 X342.521 Y254.388
G01 X345.860 Y258.370
G01 X350.571 Y260.568
G01 X343.698 Y255.216
G01 X342.521 Y254.388
G01 X347.726 Y254.391
G01 X352.427 Y252.192
G01 X347.726 Y254.391
G01 X352.932 Y254.387
G01 X357.624 Y256.584
G01 X362.833 Y256.585
G01 X352.932 Y254.387
G01 X333.125 Y250.000
G01 X337.823 Y252.196
G01 X343.024 Y252.195
G01 X337.823 Y252.196
G01 X342.521 Y254.388
G01 X345.860 Y258.370
G01 X350.571 Y260.568
G01 X343.698 Y255.216
G01 X342.521 Y254.388
G01 X347.726 Y254.391
G01 X352.427 Y252.192
G01 X347.726 Y254.391
G01 X352.932 Y254.387
G01 X357.624 Y256.584
G01 X362.833 Y256.585
G01 X352.932 Y254.387
G01 X342.521 Y254.388
G01 X347.227 Y256.582
G01 X352.439 Y256.585
G01 X347.227 Y256.582
G01 X351.948 Y258.779
G01 X355.280 Y262.758
G01 X359.989 Y264.950
G01 X351.967 Y258.792
G01 X351.948 Y258.779
G01 X355.280 Y262.758
G01 X359.989 Y264.950
G01 X355.280 Y262.758
G01 X358.618 Y266.738
G01 X359.969 Y271.754
G01 X363.313 Y275.743
G01 X360.119 Y269.392
G01 X358.618 Y266.738
G01 X363.328 Y268.940
G01 X368.522 Y268.932
G01 X363.328 Y268.940
G01 X368.049 Y271.127
G01 X371.380 Y275.110
G01 X376.077 Y277.307
G01 X368.049 Y271.127
G01 X359.548 Y264.100
G01 X351.948 Y258.779
G01 X357.141 Y258.783
G01 X361.856 Y256.584
G01 X357.141 Y258.783
G01 X362.332 Y258.779
G01 X367.037 Y260.974
G01 X372.233 Y260.981
G01 X362.332 Y258.779
G01 X367.040 Y256.584
G01 X370.397 Y252.613
G01 X367.040 Y256.584
G01 X371.746 Y254.396
G01 X376.949 Y254.394
G01 X381.657 Y252.198
G01 X371.746 Y254.396
G01 X362.332 Y258.779
G01 X367.522 Y258.783
G01 X372.248 Y256.583
G01 X367.522 Y258.783
G01 X372.737 Y258.778
G01 X377.428 Y260.973
G01 X382.621 Y260.979
G01 X372.737 Y258.778
G01 X377.428 Y260.973
G01 X382.621 Y260.979
G01 X377.428 Y260.973
G01 X382.145 Y263.178
G01 X385.494 Y267.149
G01 X390.197 Y269.342
G01 X382.145 Y263.178
G01 X387.345 Y263.170
G01 X392.052 Y260.973
G01 X387.345 Y263.170
G01 X392.542 Y263.179
G01 X397.250 Y265.369
G01 X402.427 Y265.370
G01 X392.542 Y263.179
G01 X372.737 Y258.778
G01 X345.578 Y252.133
G01 X333.125 Y250.000
G01 X337.823 Y252.196
G01 X343.024 Y252.195
G01 X337.823 Y252.196
G01 X342.521 Y254.388
G01 X345.860 Y258.370
G01 X350.571 Y260.568
G01 X343.698 Y255.216
G01 X342.521 Y254.388
G01 X347.726 Y254.391
G01 X352.427 Y252.192
G01 X347.726 Y254.391
G01 X352.932 Y254.387
G01 X357.624 Y256.584
G01 X362.833 Y256.585
G01 X352.932 Y254.387
G01 X342.521 Y254.388
G01 X347.227 Y256.582
G01 X352.439 Y256.585
G01 X347.227 Y256.582
G01 X351.948 Y258.779
G01 X355.280 Y262.758
G01 X359.989 Y264.950
G01 X351.967 Y258.792
G01 X351.948 Y258.779
G01 X355.280 Y262.758
G01 X359.989 Y264.950
G01 X355.280 Y262.758
G01 X358.618 Y266.738
G01 X359.969 Y271.754
G01 X363.313 Y275.743
G01 X360.119 Y269.392
G01 X358.618 Y266.738
G01 X363.328 Y268.940
G01 X368.522 Y268.932
G01 X363.328 Y268.940
G01 X368.049 Y271.127
G01 X371.380 Y275.110
G01 X376.077 Y277.307
G01 X368.049 Y271.127
G01 X359.548 Y264.100
G01 X351.948 Y258.779
G01 X357.141 Y258.783
G01 X361.856 Y256.584
G01 X357.141 Y258.783
G01 X362.332 Y258.779
G01 X367.037 Y260.974
G01 X372.233 Y260.981
G01 X362.332 Y258.779
G01 X367.040 Y256.584
G01 X370.397 Y252.613
G01 X367.040 Y256.584
G01 X371.746 Y254.396
G01 X376.949 Y254.394
G01 X381.657 Y252.198
G01 X371.746 Y254.396
G01 X362.332 Y258.779
G01 X367.522 Y258.783
G01 X372.248 Y256.583
G01 X367.522 Y258.783
G01 X372.737 Y258.778
G01 X377.428 Y260.973
G01 X382.621 Y260.979
G01 X372.737 Y258.778
G01 X377.428 Y260.973
G01 X382.621 Y260.979
G01 X377.428 Y260.973
G01 X382.145 Y263.178
G01 X385.494 Y267.149
G01 X390.197 Y269.342
G01 X382.145 Y263.178
G01 X387.345 Y263.170
G01 X392.052 Y260.973
G01 X387.345 Y263.170
G01 X392.542 Y263.179
G01 X397.250 Y265.369
G01 X402.427 Y265.370
G01 X392.542 Y263.179
G01 X372.737 Y258.778
G01 X351.948 Y258.779
G01 X356.661 Y260.982
G01 X361.863 Y260.975
G01 X356.661 Y260.982
G01 X361.374 Y263.169
G01 X364.700 Y267.147
G01 X369.418 Y269.345
G01 X361.374 Y263.169
G01 X366.559 Y263.168
G01 X371.254 Y260.979
G01 X366.559 Y263.168
G01 X371.764 Y263.177
G01 X376.470 Y265.365
G01 X381.656 Y265.367
G01 X371.764 Y263.177
G01 X361.374 Y263.169
G01 X366.063 Y265.362
G01 X371.255 Y265.371
G01 X366.063 Y265.362
G01 X370.780 Y267.562
G01 X374.118 Y271.548
G01 X378.832 Y273.736
G01 X370.780 Y267.562
G01 X374.118 Y271.548
G01 X378.832 Y273.736
G01 X374.118 Y271.548
G01 X377.470 Y275.521
G01 X378.804 Y280.539
G01 X382.141 Y284.516
G01 X378.220 Y276.848
G01 X377.470 Y275.521
G01 X382.175 Y277.716
G01 X387.357 Y277.714
G01 X382.175 Y277.716
G01 X386.869 Y279.917
G01 X390.211 Y283.896
G01 X394.923 Y286.095
G01 X386.869 Y279.917
G01 X375.829 Y271.096
G01 X370.780 Y267.562
G01 X374.118 Y271.548
G01 X378.832 Y273.736
G01 X374.118 Y271.548
G01 X377.470 Y275.521
G01 X378.804 Y280.539
G01 X382.141 Y284.516
G01 X378.220 Y276.848
G01 X377.470 Y275.521
G01 X382.175 Y277.716
G01 X387.357 Y277.714
G01 X382.175 Y277.716
G01 X386.869 Y279.917
G01 X390.211 Y283.896
G01 X394.923 Y286.095
G01 X386.869 Y279.917
G01 X377.470 Y275.521
G01 X380.791 Y279.494
G01 X385.516 Y281.701
G01 X380.791 Y279.494
G01 X384.135 Y283.479
G01 X385.485 Y288.504
G01 X388.823 Y292.471
G01 X384.439 Y284.014
G01 X384.135 Y283.479
G01 X385.485 Y288.504
G01 X388.823 Y292.471
G01 X385.485 Y288.504
G01 X386.823 Y293.511
G01 X385.913 Y298.628
G01 X387.263 Y303.650
G01 X386.997 Y295.933
G01 X386.823 Y293.511
G01 X390.172 Y297.496
G01 X394.867 Y299.685
G01 X390.172 Y297.496
G01 X393.498 Y301.471
G01 X394.847 Y306.497
G01 X398.184 Y310.478
G01 X393.498 Y301.471
G01 X389.169 Y292.336
G01 X384.305 Y283.754
G01 X384.135 Y283.479
G01 X388.840 Y285.673
G01 X394.047 Y285.678
G01 X388.840 Y285.673
G01 X393.565 Y287.868
G01 X396.878 Y291.853
G01 X401.604 Y294.054
G01 X393.565 Y287.868
G01 X398.755 Y287.872
G01 X403.459 Y285.672
G01 X398.755 Y287.872
G01 X403.936 Y287.866
G01 X408.643 Y290.069
G01 X413.849 Y290.061
G01 X403.936 Y287.866
G01 X393.565 Y287.868
G01 X398.258 Y290.059
G01 X403.456 Y290.067
G01 X398.258 Y290.059
G01 X402.968 Y292.269
G01 X406.305 Y296.235
G01 X411.023 Y298.437
G01 X402.968 Y292.269
G01 X406.305 Y296.235
G01 X411.023 Y298.437
G01 X406.305 Y296.235
G01 X409.637 Y300.222
G01 X410.989 Y305.232
G01 X414.329 Y309.222
G01 X409.637 Y300.222
G01 X414.346 Y302.408
G01 X419.559 Y302.413
G01 X414.346 Y302.408
G01 X419.070 Y304.624
G01 X422.392 Y308.586
G01 X427.110 Y310.783
G01 X419.070 Y304.624
G01 X402.968 Y292.269
G01 X390.836 Y281.569
G01 X378.056 Y272.169
G01 X370.780 Y267.562
G01 X375.982 Y267.560
G01 X380.674 Y265.372
G01 X375.982 Y267.560
G01 X381.179 Y267.563
G01 X385.871 Y269.757
G01 X391.072 Y269.765
G01 X381.179 Y267.563
G01 X385.884 Y265.365
G01 X389.210 Y261.384
G01 X385.884 Y265.365
G01 X390.585 Y263.168
G01 X395.781 Y263.170
G01 X400.500 Y260.975
G01 X390.585 Y263.168
G01 X381.179 Y267.563
G01 X386.373 Y267.565
G01 X391.066 Y265.365
G01 X386.373 Y267.565
G01 X391.565 Y267.558
G01 X396.271 Y269.763
G01 X401.467 Y269.756
G01 X391.565 Y267.558
G01 X396.271 Y269.763
G01 X401.467 Y269.756
G01 X396.271 Y269.763
G01 X400.987 Y271.955
G01 X404.311 Y275.932
G01 X409.031 Y278.134
G01 X400.987 Y271.955
G01 X406.164 Y271.959
G01 X410.866 Y269.756
G01 X406.164 Y271.959
G01 X411.364 Y271.950
G01 X416.078 Y274.149
G01 X421.256 Y274.150
G01 X411.364 Y271.950
G01 X391.565 Y267.558
G01 X396.270 Y265.370
G01 X399.617 Y261.392
G01 X396.270 Y265.370
G01 X400.977 Y263.168
G01 X406.170 Y263.180
G01 X410.876 Y260.972
G01 X400.977 Y263.168
G01 X404.326 Y259.193
G01 X405.669 Y254.172
G01 X404.326 Y259.193
G01 X407.664 Y255.220
G01 X412.372 Y253.020
G01 X415.697 Y249.038
G01 X407.664 Y255.220
G01 X401.590 Y262.486
G01 X400.977 Y263.168
G01 X405.688 Y260.978
G01 X409.021 Y257.001
G01 X405.688 Y260.978
G01 X410.385 Y258.781
G01 X415.592 Y258.784
G01 X420.297 Y256.593
G01 X410.385 Y258.781
G01 X415.592 Y258.784
G01 X420.297 Y256.593
G01 X415.592 Y258.784
G01 X420.774 Y258.785
G01 X425.482 Y260.981
G01 X430.692 Y260.981
G01 X420.774 Y258.785
G01 X425.477 Y256.583
G01 X428.831 Y252.610
G01 X425.477 Y256.583
G01 X430.196 Y254.397
G01 X435.398 Y254.394
G01 X440.087 Y252.204
G01 X430.196 Y254.397
G01 X410.385 Y258.781
G01 X396.986 Y265.310
G01 X391.565 Y267.558
G01 X396.753 Y267.561
G01 X401.473 Y265.366
G01 X396.753 Y267.561
G01 X401.938 Y267.565
G01 X406.658 Y269.764
G01 X411.848 Y269.761
G01 X401.938 Y267.565
G01 X406.648 Y265.369
G01 X409.995 Y261.394
G01 X406.648 Y265.369
G01 X411.363 Y263.180
G01 X416.555 Y263.168
G01 X421.274 Y260.976
G01 X411.363 Y263.180
G01 X401.938 Y267.565
G01 X407.147 Y267.562
G01 X411.847 Y265.372
G01 X407.147 Y267.562
G01 X412.327 Y267.566
G01 X417.036 Y269.751
G01 X422.246 Y269.756
G01 X412.327 Y267.566
G01 X417.036 Y269.751
G01 X422.246 Y269.756
G01 X417.036 Y269.751
G01 X421.753 Y271.948
G01 X425.091 Y275.925
G01 X429.813 Y278.132
G01 X421.753 Y271.948
G01 X426.944 Y271.946
G01 X431.655 Y269.750
G01 X426.944 Y271.946
G01 X432.131 Y271.961
G01 X436.847 Y274.142
G01 X442.038 Y274.149
G01 X432.131 Y271.961
G01 X412.327 Y267.566
G01 X417.036 Y269.751
G01 X422.246 Y269.756
G01 X417.036 Y269.751
G01 X421.753 Y271.948
G01 X425.091 Y275.925
G01 X429.813 Y278.132
G01 X421.753 Y271.948
G01 X426.944 Y271.946
G01 X431.655 Y269.750
G01 X426.944 Y271.946
G01 X432.131 Y271.961
G01 X436.847 Y274.142
G01 X442.038 Y274.149
G01 X432.131 Y271.961
G01 X421.753 Y271.948
G01 X426.456 Y274.146
G01 X431.651 Y274.154
G01 X426.456 Y274.146
G01 X431.170 Y276.344
G01 X434.500 Y280.323
G01 X439.226 Y282.520
G01 X431.170 Y276.344
G01 X434.500 Y280.323
G01 X439.226 Y282.520
G01 X434.500 Y280.323
G01 X437.845 Y284.298
G01 X439.183 Y289.315
G01 X442.542 Y293.298
G01 X437.845 Y284.298
G01 X442.548 Y286.491
G01 X447.760 Y286.497
G01 X442.548 Y286.491
G01 X447.266 Y288.695
G01 X450.611 Y292.674
G01 X455.303 Y294.875
G01 X447.266 Y288.695
G01 X431.241 Y276.393
G01 X431.170 Y276.344
G01 X436.373 Y276.339
G01 X441.081 Y274.145
G01 X436.373 Y276.339
G01 X441.571 Y276.351
G01 X446.261 Y278.538
G01 X451.464 Y278.534
G01 X441.571 Y276.351
G01 X446.271 Y274.143
G01 X449.609 Y270.168
G01 X446.271 Y274.143
G01 X450.980 Y271.953
G01 X456.159 Y271.955
G01 X460.877 Y269.753
G01 X450.980 Y271.953
G01 X441.571 Y276.351
G01 X446.744 Y276.342
G01 X451.458 Y274.148
G01 X446.744 Y276.342
G01 X451.940 Y276.339
G01 X456.665 Y278.533
G01 X461.862 Y278.538
G01 X451.940 Y276.339
G01 X456.665 Y278.533
G01 X461.862 Y278.538
G01 X456.665 Y278.533
G01 X461.377 Y280.736
G01 X464.712 Y284.715
G01 X469.416 Y286.918
G01 X461.377 Y280.736
G01 X466.554 Y280.737
G01 X471.266 Y278.544
G01 X466.554 Y280.737
G01 X471.756 Y280.729
G01 X476.468 Y282.930
G01 X481.647 Y282.927
G01 X471.756 Y280.729
G01 X451.940 Y276.339
G01 X412.327 Y267.566
G01 X378.483 Y257.552
G01 X344.130 Y250.906
G01 X333.199 Y249.509
G01 X325.231 Y245.859
G01 X317.125 Y242.988
G01 X308.937 Y240.902
G01 X300.725 Y239.599
G01 X292.545 Y239.076
G01 X284.455 Y239.326
G01 X276.510 Y240.338
G01 X268.764 Y242.097
G01 X261.273 Y244.586
G01 X254.089 Y247.783
G01 X250.130 Y249.925
G01 X254.503 Y247.400
G01 X255.306 Y246.579
G01 X256.037 Y245.674
G01 X256.690 Y244.691
G01 X257.258 Y243.634
G01 X257.483 Y243.142
G01 X256.954 Y244.229
G01 X256.338 Y245.245
G01 X255.641 Y246.186
G01 X254.869 Y247.045
G01 X254.503 Y247.400
G01 X259.007 Y244.800
G01 X260.717 Y244.495
G01 X262.476 Y244.347
G01 X264.167 Y244.355
G01 X268.662 Y241.760
G01 X264.165 Y242.896
G01 X259.834 Y244.448
G01 X259.007 Y244.800
G01 X260.126 Y243.471
G01 X261.134 Y242.022
G01 X261.972 Y240.554
G01 X262.363 Y239.220
G01 X262.650 Y237.827
G01 X262.828 Y236.381
G01 X262.883 Y235.429
G01 X262.778 Y236.904
G01 X262.560 Y238.331
G01 X262.235 Y239.704
G01 X261.972 Y240.554
G01 X264.013 Y237.781
G01 X264.948 Y236.302
G01 X269.449 Y233.701
G01 X272.431 Y229.444
G01 X264.948 Y236.302
G01 X263.892 Y238.471
G01 X262.664 Y240.499
G01 X261.275 Y242.376
G01 X259.736 Y244.091
G01 X259.007 Y244.800
G01 X263.488 Y242.212
G01 X264.936 Y240.369
G01 X266.232 Y238.368
G01 X266.467 Y237.958
G01 X265.203 Y239.989
G01 X263.784 Y241.864
G01 X263.488 Y242.212
G01 X267.992 Y239.612
G01 X270.920 Y239.254
G01 X273.164 Y239.160
G01 X277.659 Y236.564
G01 X270.953 Y238.518
G01 X267.992 Y239.612
G01 X270.920 Y239.254
G01 X273.164 Y239.160
G01 X277.659 Y236.564
G01 X273.164 Y239.160
G01 X277.492 Y238.744
G01 X278.333 Y238.709
G01 X280.742 Y239.466
G01 X283.140 Y240.434
G01 X283.238 Y240.478
G01 X288.402 Y240.030
G01 X284.433 Y239.232
G01 X280.487 Y238.796
G01 X278.333 Y238.709
G01 X282.833 Y236.111
G01 X285.008 Y233.120
G01 X285.816 Y231.856
G01 X283.727 Y234.946
G01 X282.833 Y236.111
G01 X287.346 Y233.510
G01 X292.523 Y233.055
G01 X297.025 Y230.455
G01 X287.346 Y233.510
G01 X278.331 Y235.790
G01 X269.650 Y238.906
G01 X267.992 Y239.612
G01 X269.766 Y237.256
G01 X270.970 Y235.359
G01 X271.436 Y233.411
G01 X271.759 Y231.385
G01 X271.873 Y230.243
G01 X271.632 Y232.309
G01 X271.243 Y234.301
G01 X270.970 Y235.359
G01 X273.494 Y231.819
G01 X273.944 Y231.108
G01 X278.445 Y228.510
G01 X281.425 Y224.254
G01 X273.944 Y231.108
G01 X274.493 Y228.644
G01 X274.854 Y226.083
G01 X274.865 Y225.976
G01 X274.421 Y223.970
G01 X273.838 Y221.951
G01 X273.506 Y220.974
G01 X274.156 Y222.995
G01 X274.667 Y225.008
G01 X274.865 Y225.976
G01 X275.494 Y222.826
G01 X275.750 Y220.876
G01 X278.736 Y216.614
G01 X279.577 Y212.017
G01 X279.647 Y211.490
G01 X276.944 Y218.345
G01 X275.750 Y220.876
G01 X275.542 Y223.820
G01 X275.112 Y226.670
G01 X274.467 Y229.411
G01 X273.944 Y231.108
G01 X276.938 Y226.841
G01 X277.548 Y223.860
G01 X277.835 Y221.727
G01 X277.385 Y224.788
G01 X276.938 Y226.841
G01 X279.914 Y222.587
G01 X284.407 Y219.999
G01 X287.397 Y215.729
G01 X279.914 Y222.587
G01 X284.407 Y219.999
G01 X287.397 Y215.729
G01 X284.407 Y219.999
G01 X288.916 Y217.387
G01 X293.598 Y216.966
G01 X294.083 Y216.944
G01 X298.593 Y214.338
G01 X291.165 Y216.562
G01 X288.916 Y217.387
G01 X291.892 Y213.139
G01 X292.729 Y208.510
G01 X292.796 Y208.018
G01 X291.995 Y212.665
G01 X291.892 Y213.139
G01 X294.862 Y208.889
G01 X299.376 Y206.281
G01 X302.345 Y202.031
G01 X294.862 Y208.889
G01 X279.914 Y222.587
G01 X277.795 Y226.932
G01 X275.331 Y230.997
G01 X272.543 Y234.758
G01 X269.455 Y238.193
G01 X267.992 Y239.612
G01 X272.495 Y237.012
G01 X274.590 Y234.145
G01 X275.466 Y232.764
G01 X273.475 Y235.739
G01 X272.495 Y237.012
G01 X276.998 Y234.412
G01 X281.143 Y234.003
G01 X282.173 Y233.959
G01 X286.662 Y231.368
G01 X277.763 Y234.130
G01 X276.998 Y234.412
G01 X279.425 Y231.028
G01 X279.978 Y230.157
G01 X280.528 Y227.564
G01 X280.875 Y225.043
G01 X280.499 Y227.729
G01 X279.978 Y230.157
G01 X282.954 Y225.902
G01 X287.460 Y223.302
G01 X290.439 Y219.047
G01 X282.954 Y225.902
G01 X280.427 Y229.965
G01 X277.589 Y233.715
G01 X276.998 Y234.412
G01 X281.502 Y231.812
G01 X284.241 Y227.922
G01 X284.467 Y227.566
G01 X281.754 Y231.483
G01 X281.502 Y231.812
G01 X285.983 Y229.225
G01 X291.171 Y228.764
G01 X295.656 Y226.173
G01 X285.983 Y229.225
G01 X291.171 Y228.764
G01 X295.656 Y226.173
G01 X291.171 Y228.764
G01 X296.328 Y228.320
G01 X299.912 Y229.564
G01 X301.217 Y230.093
G01 X306.387 Y229.640
G01 X300.949 Y228.723
G01 X296.328 Y228.320
G01 X300.847 Y225.713
G01 X303.825 Y221.456
G01 X300.847 Y225.713
G01 X305.341 Y223.117
G01 X310.515 Y222.670
G01 X315.017 Y220.071
G01 X305.341 Y223.117
G01 X291.912 Y227.033
G01 X285.983 Y229.225
G01 X291.171 Y228.764
G01 X295.656 Y226.173
G01 X291.171 Y228.764
G01 X296.328 Y228.320
G01 X299.912 Y229.564
G01 X301.217 Y230.093
G01 X306.387 Y229.640
G01 X300.949 Y228.723
G01 X296.328 Y228.320
G01 X300.847 Y225.713
G01 X303.825 Y221.456
G01 X300.847 Y225.713
G01 X305.341 Y223.117
G01 X310.515 Y222.670
G01 X315.017 Y220.071
G01 X305.341 Y223.117
G01 X296.328 Y228.320
G01 X301.519 Y227.859
G01 X306.008 Y225.270
G01 X301.519 Y227.859
G01 X306.690 Y227.410
G01 X311.200 Y229.030
G01 X311.576 Y229.183
G01 X316.745 Y228.737
G01 X309.760 Y227.677
G01 X306.690 Y227.410
G01 X311.200 Y229.030
G01 X311.576 Y229.183
G01 X316.745 Y228.737
G01 X311.576 Y229.183
G01 X316.452 Y230.963
G01 X319.326 Y233.774
G01 X320.136 Y234.632
G01 X325.004 Y236.413
G01 X320.846 Y233.540
G01 X316.594 Y231.039
G01 X316.452 Y230.963
G01 X321.620 Y230.509
G01 X326.135 Y227.909
G01 X321.620 Y230.509
G01 X326.804 Y230.061
G01 X331.680 Y231.837
G01 X336.853 Y231.388
G01 X326.804 Y230.061
G01 X318.876 Y228.461
G01 X310.992 Y227.585
G01 X306.690 Y227.410
G01 X311.193 Y224.810
G01 X314.167 Y220.556
G01 X311.193 Y224.810
G01 X315.689 Y222.211
G01 X320.856 Y221.764
G01 X325.360 Y219.163
G01 X315.689 Y222.211
G01 X318.667 Y217.957
G01 X319.509 Y213.309
G01 X319.575 Y212.844
G01 X318.762 Y217.509
G01 X318.667 Y217.957
G01 X321.655 Y213.700
G01 X326.144 Y211.110
G01 X329.127 Y206.855
G01 X321.655 Y213.700
G01 X317.478 Y219.881
G01 X315.689 Y222.211
G01 X320.182 Y219.621
G01 X323.167 Y215.366
G01 X320.182 Y219.621
G01 X324.693 Y217.020
G01 X329.858 Y216.565
G01 X334.355 Y213.976
G01 X324.693 Y217.020
G01 X329.858 Y216.565
G01 X334.355 Y213.976
G01 X329.858 Y216.565
G01 X335.046 Y216.110
G01 X339.913 Y217.890
G01 X345.080 Y217.443
G01 X335.089 Y216.114
G01 X335.046 Y216.110
G01 X339.529 Y213.522
G01 X342.503 Y209.266
G01 X339.529 Y213.522
G01 X344.027 Y210.920
G01 X349.213 Y210.465
G01 X353.694 Y207.872
G01 X344.027 Y210.920
G01 X324.693 Y217.020
G01 X306.663 Y221.581
G01 X289.299 Y227.812
G01 X285.983 Y229.225
G01 X288.976 Y224.962
G01 X289.622 Y221.708
G01 X289.883 Y219.844
G01 X289.363 Y223.167
G01 X288.976 Y224.962
G01 X291.940 Y220.719
G01 X296.457 Y218.108
G01 X299.421 Y213.860
G01 X291.940 Y220.719
G01 X292.654 Y216.992
G01 X292.848 Y215.597
G01 X292.124 Y212.636
G01 X291.509 Y210.572
G01 X292.365 Y213.541
G01 X292.848 Y215.597
G01 X293.637 Y211.294
G01 X293.747 Y210.486
G01 X296.728 Y206.232
G01 X297.628 Y201.116
G01 X294.731 Y208.386
G01 X293.747 Y210.486
G01 X293.264 Y214.618
G01 X292.486 Y218.602
G01 X291.940 Y220.719
G01 X294.934 Y216.454
G01 X295.703 Y212.250
G01 X295.825 Y211.347
G01 X295.120 Y215.584
G01 X294.934 Y216.454
G01 X297.908 Y212.200
G01 X302.411 Y209.600
G01 X305.391 Y205.344
G01 X297.908 Y212.200
G01 X302.411 Y209.600
G01 X305.391 Y205.344
G01 X302.411 Y209.600
G01 X306.910 Y207.005
G01 X312.083 Y206.553
G01 X316.581 Y203.958
G01 X306.910 Y207.005
G01 X309.880 Y202.754
G01 X310.782 Y197.640
G01 X309.880 Y202.754
G01 X312.869 Y198.491
G01 X317.361 Y195.894
G01 X320.346 Y191.644
G01 X312.869 Y198.491
G01 X297.908 Y212.200
G01 X298.760 Y207.484
G01 X298.816 Y207.081
G01 X297.900 Y203.526
G01 X297.460 Y202.072
G01 X298.471 Y205.634
G01 X298.816 Y207.081
G01 X299.712 Y201.969
G01 X302.689 Y197.720
G01 X303.588 Y192.603
G01 X299.912 Y201.542
G01 X299.712 Y201.969
G01 X298.715 Y198.075
G01 X298.376 Y196.944
G01 X296.100 Y194.167
G01 X295.039 Y192.963
G01 X297.385 Y195.698
G01 X298.376 Y196.944
G01 X297.275 Y192.745
G01 X297.027 Y191.928
G01 X297.921 Y186.817
G01 X296.603 Y181.852
G01 X296.584 Y181.790
G01 X297.011 Y187.938
G01 X297.027 Y191.928
G01 X298.316 Y195.987
G01 X299.324 Y200.027
G01 X299.712 Y201.969
G01 X300.620 Y196.847
G01 X299.507 Y192.624
G01 X299.268 Y191.837
G01 X300.435 Y196.065
G01 X300.620 Y196.847
G01 X301.517 Y191.734
G01 X304.492 Y187.492
G01 X305.399 Y182.368
G01 X301.517 Y191.734
G01 X304.492 Y187.492
G01 X305.399 Y182.368
G01 X304.492 Y187.492
G01 X307.473 Y183.228
G01 X311.973 Y180.624
G01 X314.948 Y176.379
G01 X307.473 Y183.228
G01 X308.370 Y178.113
G01 X307.035 Y173.090
G01 X308.370 Y178.113
G01 X309.279 Y173.000
G01 X312.265 Y168.736
G01 X313.159 Y163.629
G01 X309.279 Y173.000
G01 X303.895 Y186.682
G01 X301.517 Y191.734
G01 X301.102 Y197.623
G01 X300.242 Y203.323
G01 X298.953 Y208.806
G01 X297.908 Y212.200
G01 X300.896 Y207.942
G01 X301.786 Y202.828
G01 X300.896 Y207.942
G01 X303.877 Y203.682
G01 X308.365 Y201.088
G01 X311.342 Y196.835
G01 X303.877 Y203.682
G01 X304.768 Y198.578
G01 X303.681 Y194.396
G01 X303.428 Y193.549
G01 X304.571 Y197.735
G01 X304.768 Y198.578
G01 X305.669 Y193.455
G01 X308.648 Y189.201
G01 X309.551 Y184.095
G01 X305.669 Y193.455
G01 X304.770 Y199.575
G01 X303.877 Y203.682
G01 X306.841 Y199.438
G01 X307.750 Y194.314
G01 X306.841 Y199.438
G01 X309.828 Y195.174
G01 X314.327 Y192.583
G01 X317.311 Y188.316
G01 X309.828 Y195.174
G01 X314.327 Y192.583
G01 X317.311 Y188.316
G01 X314.327 Y192.583
G01 X318.833 Y189.981
G01 X324.009 Y189.525
G01 X328.504 Y186.931
G01 X318.833 Y189.981
G01 X321.810 Y185.723
G01 X322.707 Y180.618
G01 X321.810 Y185.723
G01 X324.776 Y181.475
G01 X329.276 Y178.883
G01 X332.259 Y174.618
G01 X324.776 Y181.475
G01 X309.828 Y195.174
G01 X314.327 Y192.583
G01 X317.311 Y188.316
G01 X314.327 Y192.583
G01 X318.833 Y189.981
G01 X324.009 Y189.525
G01 X328.504 Y186.931
G01 X318.833 Y189.981
G01 X321.810 Y185.723
G01 X322.707 Y180.618
G01 X321.810 Y185.723
G01 X324.776 Y181.475
G01 X329.276 Y178.883
G01 X332.259 Y174.618
G01 X324.776 Y181.475
G01 X318.833 Y189.981
G01 X323.326 Y187.381
G01 X326.297 Y183.136
G01 X323.326 Y187.381
G01 X327.814 Y184.790
G01 X332.994 Y184.342
G01 X337.499 Y181.740
G01 X327.814 Y184.790
G01 X332.994 Y184.342
G01 X337.499 Y181.740
G01 X332.994 Y184.342
G01 X338.166 Y183.889
G01 X343.052 Y185.668
G01 X348.230 Y185.206
G01 X340.023 Y184.060
G01 X338.166 Y183.889
G01 X342.679 Y181.283
G01 X345.645 Y177.033
G01 X342.679 Y181.283
G01 X347.167 Y178.691
G01 X352.348 Y178.238
G01 X356.846 Y175.640
G01 X347.167 Y178.691
G01 X332.310 Y183.141
G01 X327.814 Y184.790
G01 X330.796 Y180.539
G01 X331.700 Y175.415
G01 X330.796 Y180.539
G01 X333.783 Y176.278
G01 X338.280 Y173.674
G01 X341.267 Y169.418
G01 X333.783 Y176.278
G01 X334.680 Y171.159
G01 X333.338 Y166.143
G01 X334.680 Y171.159
G01 X335.574 Y166.053
G01 X338.564 Y161.788
G01 X339.462 Y156.680
G01 X335.574 Y166.053
G01 X333.989 Y175.332
G01 X333.783 Y176.278
G01 X336.761 Y172.027
G01 X337.658 Y166.918
G01 X336.761 Y172.027
G01 X339.742 Y167.760
G01 X344.242 Y165.167
G01 X347.207 Y160.920
G01 X339.742 Y167.760
G01 X344.242 Y165.167
G01 X347.207 Y160.920
G01 X344.242 Y165.167
G01 X348.734 Y162.578
G01 X353.919 Y162.114
G01 X358.404 Y159.523
G01 X348.734 Y162.578
G01 X351.722 Y158.305
G01 X352.624 Y153.199
G01 X351.722 Y158.305
G01 X354.690 Y154.062
G01 X359.193 Y151.471
G01 X362.173 Y147.205
G01 X354.690 Y154.062
G01 X339.742 Y167.760
G01 X309.828 Y195.174
G01 X305.591 Y203.865
G01 X300.661 Y211.994
G01 X295.085 Y219.515
G01 X288.911 Y226.386
G01 X285.983 Y229.225
G01 X290.487 Y226.625
G01 X293.463 Y222.374
G01 X290.487 Y226.625
G01 X294.990 Y224.025
G01 X300.164 Y223.571
G01 X304.672 Y220.972
G01 X294.990 Y224.025
G01 X297.970 Y219.771
G01 X298.693 Y215.866
G01 X298.859 Y214.660
G01 X298.216 Y218.609
G01 X297.970 Y219.771
G01 X300.952 Y215.515
G01 X305.442 Y212.918
G01 X308.427 Y208.657
G01 X300.952 Y215.515
G01 X296.956 Y221.474
G01 X294.990 Y224.025
G01 X299.493 Y221.425
G01 X302.475 Y217.167
G01 X299.493 Y221.425
G01 X303.975 Y218.837
G01 X309.154 Y218.379
G01 X313.661 Y215.781
G01 X303.975 Y218.837
G01 X309.154 Y218.379
G01 X313.661 Y215.781
G01 X309.154 Y218.379
G01 X314.324 Y217.930
G01 X319.130 Y219.673
G01 X319.210 Y219.705
G01 X324.394 Y219.246
G01 X317.364 Y218.196
G01 X314.324 Y217.930
G01 X318.836 Y215.327
G01 X321.805 Y211.079
G01 X318.836 Y215.327
G01 X323.324 Y212.735
G01 X328.508 Y212.279
G01 X333.000 Y209.681
G01 X323.324 Y212.735
G01 X305.506 Y218.272
G01 X303.975 Y218.837
G01 X306.961 Y214.581
G01 X307.788 Y210.006
G01 X307.863 Y209.463
G01 X307.073 Y214.058
G01 X306.961 Y214.581
G01 X309.935 Y210.328
G01 X314.445 Y207.722
G01 X317.425 Y203.465
G01 X309.935 Y210.328
G01 X310.829 Y205.294
G01 X310.841 Y205.210
G01 X309.820 Y201.260
G01 X309.501 Y200.187
G01 X310.588 Y204.140
G01 X310.841 Y205.210
G01 X311.749 Y200.086
G01 X314.726 Y195.835
G01 X315.638 Y190.713
G01 X312.193 Y199.137
G01 X311.749 Y200.086
G01 X310.987 Y205.467
G01 X309.935 Y210.328
G01 X312.930 Y206.064
G01 X313.830 Y200.950
G01 X312.930 Y206.064
G01 X315.908 Y201.804
G01 X320.396 Y199.220
G01 X323.374 Y194.957
G01 X315.908 Y201.804
G01 X320.396 Y199.220
G01 X323.374 Y194.957
G01 X320.396 Y199.220
G01 X324.899 Y196.619
G01 X330.083 Y196.159
G01 X334.576 Y193.567
G01 X324.899 Y196.619
G01 X327.890 Y192.357
G01 X328.787 Y187.246
G01 X327.890 Y192.357
G01 X330.857 Y188.109
G01 X335.355 Y185.516
G01 X338.330 Y181.262
G01 X330.857 Y188.109
G01 X315.908 Y201.804
G01 X310.844 Y209.935
G01 X305.158 Y217.442
G01 X303.975 Y218.837
G01 X308.478 Y216.237
G01 X311.464 Y211.976
G01 X308.478 Y216.237
G01 X312.982 Y213.637
G01 X318.164 Y213.176
G01 X322.651 Y210.593
G01 X312.982 Y213.637
G01 X315.972 Y209.379
G01 X316.857 Y204.270
G01 X315.972 Y209.379
G01 X318.934 Y205.131
G01 X323.444 Y202.529
G01 X326.417 Y198.279
G01 X318.934 Y205.131
G01 X313.489 Y212.978
G01 X312.982 Y213.637
G01 X317.485 Y211.037
G01 X320.452 Y206.786
G01 X317.485 Y211.037
G01 X321.988 Y208.437
G01 X327.154 Y207.990
G01 X331.659 Y205.389
G01 X321.988 Y208.437
G01 X327.154 Y207.990
G01 X331.659 Y205.389
G01 X327.154 Y207.990
G01 X332.320 Y207.540
G01 X337.202 Y209.319
G01 X342.381 Y208.866
G01 X333.753 Y207.668
G01 X332.320 Y207.540
G01 X336.829 Y204.939
G01 X339.800 Y200.685
G01 X336.829 Y204.939
G01 X341.335 Y202.334
G01 X346.497 Y201.890
G01 X351.009 Y199.286
G01 X341.335 Y202.334
G01 X321.988 Y208.437
G01 X327.154 Y207.990
G01 X331.659 Y205.389
G01 X327.154 Y207.990
G01 X332.320 Y207.540
G01 X337.202 Y209.319
G01 X342.381 Y208.866
G01 X333.753 Y207.668
G01 X332.320 Y207.540
G01 X336.829 Y204.939
G01 X339.800 Y200.685
G01 X336.829 Y204.939
G01 X341.335 Y202.334
G01 X346.497 Y201.890
G01 X351.009 Y199.286
G01 X341.335 Y202.334
G01 X332.320 Y207.540
G01 X337.493 Y207.087
G01 X342.007 Y204.484
G01 X337.493 Y207.087
G01 X342.679 Y206.628
G01 X347.554 Y208.409
G01 X352.728 Y207.953
G01 X342.701 Y206.630
G01 X342.679 Y206.628
G01 X347.554 Y208.409
G01 X352.728 Y207.953
G01 X347.554 Y208.409
G01 X352.435 Y210.186
G01 X356.113 Y213.855
G01 X361.003 Y215.638
G01 X355.062 Y211.734
G01 X352.435 Y210.186
G01 X357.615 Y209.738
G01 X362.109 Y207.134
G01 X357.615 Y209.738
G01 X362.797 Y209.272
G01 X367.673 Y211.056
G01 X372.839 Y210.610
G01 X362.797 Y209.272
G01 X351.922 Y207.437
G01 X342.679 Y206.628
G01 X347.178 Y204.036
G01 X350.163 Y199.774
G01 X347.178 Y204.036
G01 X351.672 Y201.437
G01 X356.844 Y200.986
G01 X361.347 Y198.393
G01 X351.672 Y201.437
G01 X354.652 Y197.182
G01 X355.573 Y192.064
G01 X354.652 Y197.182
G01 X357.633 Y192.935
G01 X362.138 Y190.330
G01 X365.117 Y186.075
G01 X357.633 Y192.935
G01 X351.672 Y201.437
G01 X356.169 Y198.845
G01 X359.161 Y194.577
G01 X356.169 Y198.845
G01 X360.682 Y196.233
G01 X365.843 Y195.788
G01 X370.343 Y193.197
G01 X360.682 Y196.233
G01 X365.843 Y195.788
G01 X370.343 Y193.197
G01 X365.843 Y195.788
G01 X371.030 Y195.340
G01 X375.916 Y197.104
G01 X381.085 Y196.652
G01 X371.030 Y195.340
G01 X375.529 Y192.733
G01 X378.507 Y188.477
G01 X375.529 Y192.733
G01 X380.035 Y190.142
G01 X385.207 Y189.685
G01 X389.691 Y187.097
G01 X380.035 Y190.142
G01 X360.682 Y196.233
G01 X333.839 Y204.058
G01 X321.988 Y208.437
G01 X327.154 Y207.990
G01 X331.659 Y205.389
G01 X327.154 Y207.990
G01 X332.320 Y207.540
G01 X337.202 Y209.319
G01 X342.381 Y208.866
G01 X333.753 Y207.668
G01 X332.320 Y207.540
G01 X336.829 Y204.939
G01 X339.800 Y200.685
G01 X336.829 Y204.939
G01 X341.335 Y202.334
G01 X346.497 Y201.890
G01 X351.009 Y199.286
G01 X341.335 Y202.334
G01 X332.320 Y207.540
G01 X337.493 Y207.087
G01 X342.007 Y204.484
G01 X337.493 Y207.087
G01 X342.679 Y206.628
G01 X347.554 Y208.409
G01 X352.728 Y207.953
G01 X342.701 Y206.630
G01 X342.679 Y206.628
G01 X347.554 Y208.409
G01 X352.728 Y207.953
G01 X347.554 Y208.409
G01 X352.435 Y210.186
G01 X356.113 Y213.855
G01 X361.003 Y215.638
G01 X355.062 Y211.734
G01 X352.435 Y210.186
G01 X357.615 Y209.738
G01 X362.109 Y207.134
G01 X357.615 Y209.738
G01 X362.797 Y209.272
G01 X367.673 Y211.056
G01 X372.839 Y210.610
G01 X362.797 Y209.272
G01 X351.922 Y207.437
G01 X342.679 Y206.628
G01 X347.178 Y204.036
G01 X350.163 Y199.774
G01 X347.178 Y204.036
G01 X351.672 Y201.437
G01 X356.844 Y200.986
G01 X361.347 Y198.393
G01 X351.672 Y201.437
G01 X354.652 Y197.182
G01 X355.573 Y192.064
G01 X354.652 Y197.182
G01 X357.633 Y192.935
G01 X362.138 Y190.330
G01 X365.117 Y186.075
G01 X357.633 Y192.935
G01 X351.672 Y201.437
G01 X356.169 Y198.845
G01 X359.161 Y194.577
G01 X356.169 Y198.845
G01 X360.682 Y196.233
G01 X365.843 Y195.788
G01 X370.343 Y193.197
G01 X360.682 Y196.233
G01 X365.843 Y195.788
G01 X370.343 Y193.197
G01 X365.843 Y195.788
G01 X371.030 Y195.340
G01 X375.916 Y197.104
G01 X381.085 Y196.652
G01 X371.030 Y195.340
G01 X375.529 Y192.733
G01 X378.507 Y188.477
G01 X375.529 Y192.733
G01 X380.035 Y190.142
G01 X385.207 Y189.685
G01 X389.691 Y187.097
G01 X380.035 Y190.142
G01 X360.682 Y196.233
G01 X342.679 Y206.628
G01 X347.862 Y206.180
G01 X352.363 Y203.573
G01 X347.862 Y206.180
G01 X353.037 Y205.718
G01 X357.907 Y207.500
G01 X363.092 Y207.044
G01 X353.037 Y205.718
G01 X357.527 Y203.124
G01 X360.498 Y198.881
G01 X357.527 Y203.124
G01 X362.039 Y200.529
G01 X367.209 Y200.071
G01 X371.701 Y197.480
G01 X362.039 Y200.529
G01 X353.037 Y205.718
G01 X358.194 Y205.273
G01 X362.695 Y202.685
G01 X358.194 Y205.273
G01 X363.380 Y204.819
G01 X368.264 Y206.602
G01 X373.439 Y206.140
G01 X363.380 Y204.819
G01 X368.264 Y206.602
G01 X373.439 Y206.140
G01 X368.264 Y206.602
G01 X373.153 Y208.366
G01 X376.817 Y212.045
G01 X381.696 Y213.821
G01 X374.466 Y209.141
G01 X373.153 Y208.366
G01 X378.325 Y207.915
G01 X382.812 Y205.323
G01 X378.325 Y207.915
G01 X383.490 Y207.474
G01 X388.374 Y209.249
G01 X393.554 Y208.798
G01 X383.490 Y207.474
G01 X369.519 Y205.355
G01 X363.380 Y204.819
G01 X368.264 Y206.602
G01 X373.439 Y206.140
G01 X368.264 Y206.602
G01 X373.153 Y208.366
G01 X376.817 Y212.045
G01 X381.696 Y213.821
G01 X374.466 Y209.141
G01 X373.153 Y208.366
G01 X378.325 Y207.915
G01 X382.812 Y205.323
G01 X378.325 Y207.915
G01 X383.490 Y207.474
G01 X388.374 Y209.249
G01 X393.554 Y208.798
G01 X383.490 Y207.474
G01 X373.153 Y208.366
G01 X378.015 Y210.147
G01 X383.211 Y209.696
G01 X378.015 Y210.147
G01 X382.904 Y211.926
G01 X386.585 Y215.603
G01 X391.460 Y217.369
G01 X383.435 Y212.238
G01 X382.904 Y211.926
G01 X386.585 Y215.603
G01 X391.460 Y217.369
G01 X386.585 Y215.603
G01 X390.248 Y219.270
G01 X392.018 Y224.157
G01 X395.698 Y227.830
G01 X391.609 Y221.281
G01 X390.248 Y219.270
G01 X395.140 Y221.046
G01 X400.301 Y220.595
G01 X395.140 Y221.046
G01 X400.009 Y222.826
G01 X403.689 Y226.504
G01 X408.570 Y228.284
G01 X400.009 Y222.826
G01 X391.691 Y217.079
G01 X383.188 Y212.079
G01 X382.904 Y211.926
G01 X388.076 Y211.473
G01 X392.588 Y208.874
G01 X388.076 Y211.473
G01 X393.265 Y211.012
G01 X398.127 Y212.807
G01 X403.320 Y212.349
G01 X393.265 Y211.012
G01 X397.761 Y208.420
G01 X400.735 Y204.163
G01 X397.761 Y208.420
G01 X402.246 Y205.825
G01 X407.423 Y205.379
G01 X411.928 Y202.769
G01 X402.246 Y205.825
G01 X393.265 Y211.012
G01 X398.425 Y210.563
G01 X402.930 Y207.971
G01 X398.425 Y210.563
G01 X403.608 Y210.122
G01 X408.482 Y211.888
G01 X413.668 Y211.436
G01 X403.608 Y210.122
G01 X408.482 Y211.888
G01 X413.668 Y211.436
G01 X408.482 Y211.888
G01 X413.360 Y213.675
G01 X417.037 Y217.338
G01 X421.924 Y219.123
G01 X413.360 Y213.675
G01 X418.532 Y213.214
G01 X423.049 Y210.611
G01 X418.532 Y213.214
G01 X423.731 Y212.770
G01 X428.589 Y214.541
G01 X433.773 Y214.084
G01 X423.731 Y212.770
G01 X403.608 Y210.122
G01 X387.752 Y206.921
G01 X371.985 Y205.171
G01 X363.380 Y204.819
G01 X367.884 Y202.217
G01 X370.853 Y197.975
G01 X367.884 Y202.217
G01 X372.386 Y199.620
G01 X377.546 Y199.174
G01 X382.054 Y196.580
G01 X372.386 Y199.620
G01 X375.361 Y195.364
G01 X376.252 Y190.254
G01 X375.361 Y195.364
G01 X378.334 Y191.112
G01 X382.835 Y188.515
G01 X385.825 Y184.255
G01 X378.334 Y191.112
G01 X372.386 Y199.620
G01 X376.885 Y197.025
G01 X379.849 Y192.774
G01 X376.885 Y197.025
G01 X381.378 Y194.423
G01 X386.556 Y193.979
G01 X391.052 Y191.375
G01 X381.378 Y194.423
G01 X386.556 Y193.979
G01 X391.052 Y191.375
G01 X386.556 Y193.979
G01 X391.736 Y193.520
G01 X396.603 Y195.302
G01 X401.791 Y194.849
G01 X391.736 Y193.520
G01 X396.221 Y190.935
G01 X399.192 Y186.676
G01 X396.221 Y190.935
G01 X400.720 Y188.327
G01 X405.903 Y187.874
G01 X410.387 Y185.287
G01 X400.720 Y188.327
G01 X381.378 Y194.423
G01 X384.358 Y190.176
G01 X385.268 Y185.057
G01 X384.358 Y190.176
G01 X387.334 Y185.915
G01 X391.837 Y183.329
G01 X394.809 Y179.064
G01 X387.334 Y185.915
G01 X388.247 Y180.798
G01 X386.899 Y175.779
G01 X388.247 Y180.798
G01 X389.151 Y175.689
G01 X392.128 Y171.429
G01 X393.017 Y166.318
G01 X389.151 Y175.689
G01 X387.524 Y185.018
G01 X387.334 Y185.915
G01 X390.319 Y181.663
G01 X391.217 Y176.552
G01 X390.319 Y181.663
G01 X393.288 Y177.412
G01 X397.799 Y174.811
G01 X400.778 Y170.561
G01 X393.288 Y177.412
G01 X397.799 Y174.811
G01 X400.778 Y170.561
G01 X397.799 Y174.811
G01 X402.287 Y172.221
G01 X407.462 Y171.769
G01 X411.974 Y169.164
G01 X402.287 Y172.221
G01 X405.258 Y167.962
G01 X406.177 Y162.845
G01 X405.258 Y167.962
G01 X408.253 Y163.710
G01 X412.756 Y161.106
G01 X415.722 Y156.865
G01 X408.253 Y163.710
G01 X393.288 Y177.412
G01 X384.949 Y189.765
G01 X381.378 Y194.423
G01 X385.872 Y191.831
G01 X388.862 Y187.571
G01 X385.872 Y191.831
G01 X390.365 Y189.243
G01 X395.552 Y188.787
G01 X400.045 Y186.190
G01 X390.365 Y189.243
G01 X393.345 Y184.985
G01 X394.257 Y179.870
G01 X393.345 Y184.985
G01 X396.334 Y180.732
G01 X400.825 Y178.126
G01 X403.815 Y173.868
G01 X396.334 Y180.732
G01 X390.365 Y189.243
G01 X394.874 Y186.636
G01 X397.849 Y182.389
G01 X394.874 Y186.636
G01 X399.363 Y184.049
G01 X404.533 Y183.586
G01 X409.047 Y180.986
G01 X399.363 Y184.049
G01 X404.533 Y183.586
G01 X409.047 Y180.986
G01 X404.533 Y183.586
G01 X409.716 Y183.130
G01 X414.596 Y184.906
G01 X419.788 Y184.457
G01 X409.716 Y183.130
G01 X414.211 Y180.533
G01 X417.192 Y176.276
G01 X414.211 Y180.533
G01 X418.710 Y177.953
G01 X423.885 Y177.484
G01 X428.384 Y174.895
G01 X418.710 Y177.953
G01 X399.363 Y184.049
G01 X404.533 Y183.586
G01 X409.047 Y180.986
G01 X404.533 Y183.586
G01 X409.716 Y183.130
G01 X414.596 Y184.906
G01 X419.788 Y184.457
G01 X409.716 Y183.130
G01 X414.211 Y180.533
G01 X417.192 Y176.276
G01 X414.211 Y180.533
G01 X418.710 Y177.953
G01 X423.885 Y177.484
G01 X428.384 Y174.895
G01 X418.710 Y177.953
G01 X409.716 Y183.130
G01 X414.888 Y182.683
G01 X419.392 Y180.093
G01 X414.888 Y182.683
G01 X420.069 Y182.229
G01 X424.943 Y184.010
G01 X430.134 Y183.550
G01 X420.069 Y182.229
G01 X424.943 Y184.010
G01 X430.134 Y183.550
G01 X424.943 Y184.010
G01 X429.827 Y185.780
G01 X433.495 Y189.456
G01 X438.395 Y191.226
G01 X429.827 Y185.780
G01 X434.997 Y185.328
G01 X439.514 Y182.727
G01 X434.997 Y185.328
G01 X440.184 Y184.878
G01 X445.072 Y186.651
G01 X450.235 Y186.211
G01 X440.184 Y184.878
G01 X420.156 Y182.237
G01 X420.069 Y182.229
G01 X424.573 Y179.624
G01 X427.553 Y175.370
G01 X424.573 Y179.624
G01 X429.081 Y177.035
G01 X434.236 Y176.584
G01 X438.740 Y173.979
G01 X429.081 Y177.035
G01 X432.047 Y172.773
G01 X432.950 Y167.661
G01 X432.047 Y172.773
G01 X435.030 Y168.521
G01 X439.517 Y165.934
G01 X442.501 Y161.668
G01 X435.030 Y168.521
G01 X429.081 Y177.035
G01 X433.556 Y174.440
G01 X436.541 Y170.183
G01 X433.556 Y174.440
G01 X438.054 Y171.840
G01 X443.243 Y171.378
G01 X447.747 Y168.784
G01 X438.054 Y171.840
G01 X443.243 Y171.378
G01 X447.747 Y168.784
G01 X443.243 Y171.378
G01 X448.426 Y170.929
G01 X453.303 Y172.708
G01 X458.479 Y172.264
G01 X448.426 Y170.929
G01 X452.910 Y168.342
G01 X455.894 Y164.087
G01 X452.910 Y168.342
G01 X457.411 Y165.734
G01 X462.592 Y165.284
G01 X467.075 Y162.692
G01 X457.411 Y165.734
G01 X438.054 Y171.840
G01 X399.363 Y184.049
G01 X365.045 Y192.299
G01 X331.971 Y203.719
G01 X321.806 Y207.975
G01 X313.100 Y208.786
G01 X304.661 Y210.340
G01 X296.543 Y212.611
G01 X288.793 Y215.572
G01 X281.461 Y219.190
G01 X274.590 Y223.432
G01 X268.225 Y228.261
G01 X262.404 Y233.635
G01 X257.167 Y239.513
G01 X252.546 Y245.850
G01 X250.062 Y249.892
G01 X252.600 Y245.496
G01 X252.884 Y244.383
G01 X253.065 Y243.234
G01 X253.139 Y242.055
G01 X253.103 Y240.856
G01 X253.052 Y240.320
G01 X253.136 Y241.526
G01 X253.111 Y242.715
G01 X252.977 Y243.878
G01 X252.738 Y245.008
G01 X252.600 Y245.496
G01 X255.200 Y240.993
G01 X256.529 Y239.874
G01 X257.978 Y238.866
G01 X259.446 Y238.028
G01 X262.041 Y233.533
G01 X258.715 Y236.765
G01 X255.740 Y240.275
G01 X255.200 Y240.993
G01 X255.505 Y239.282
G01 X255.653 Y237.523
G01 X255.645 Y235.833
G01 X255.317 Y234.483
G01 X254.869 Y233.133
G01 X254.300 Y231.792
G01 X253.872 Y230.939
G01 X254.518 Y232.270
G01 X255.043 Y233.615
G01 X255.448 Y234.966
G01 X255.645 Y235.833
G01 X256.027 Y232.412
G01 X256.096 Y230.663
G01 X258.694 Y226.161
G01 X259.148 Y220.983
G01 X256.096 Y230.663
G01 X256.266 Y233.069
G01 X256.217 Y235.440
G01 X255.953 Y237.760
G01 X255.478 Y240.015
G01 X255.200 Y240.993
G01 X257.787 Y236.512
G01 X258.120 Y234.191
G01 X258.241 Y231.811
G01 X258.240 Y231.338
G01 X258.161 Y233.729
G01 X257.869 Y236.062
G01 X257.787 Y236.512
G01 X260.387 Y232.008
G01 X262.744 Y230.234
G01 X264.640 Y229.030
G01 X267.235 Y224.534
G01 X262.405 Y229.580
G01 X260.387 Y232.008
G01 X262.744 Y230.234
G01 X264.640 Y229.030
G01 X267.235 Y224.534
G01 X264.640 Y229.030
G01 X268.181 Y226.505
G01 X268.892 Y226.055
G01 X271.356 Y225.507
G01 X273.916 Y225.146
G01 X274.024 Y225.135
G01 X278.272 Y222.165
G01 X274.436 Y223.458
G01 X270.800 Y225.054
G01 X268.892 Y226.055
G01 X271.489 Y221.555
G01 X271.878 Y217.877
G01 X271.946 Y216.379
G01 X271.682 Y220.099
G01 X271.489 Y221.555
G01 X274.098 Y217.046
G01 X278.354 Y214.064
G01 X280.952 Y209.561
G01 X274.098 Y217.046
G01 X267.431 Y223.528
G01 X261.470 Y230.567
G01 X260.387 Y232.008
G01 X260.745 Y229.080
G01 X260.840 Y226.836
G01 X260.270 Y224.916
G01 X259.537 Y222.999
G01 X259.064 Y221.953
G01 X259.888 Y223.863
G01 X260.548 Y225.783
G01 X260.840 Y226.836
G01 X261.256 Y222.507
G01 X261.290 Y221.667
G01 X263.889 Y217.167
G01 X264.341 Y211.991
G01 X261.290 Y221.667
G01 X260.533 Y219.258
G01 X259.566 Y216.860
G01 X259.522 Y216.762
G01 X258.134 Y215.247
G01 X256.620 Y213.790
G01 X255.843 Y213.110
G01 X257.418 Y214.535
G01 X258.867 Y216.023
G01 X259.522 Y216.762
G01 X258.491 Y213.720
G01 X257.738 Y211.903
G01 X258.193 Y206.719
G01 X256.623 Y202.317
G01 X256.420 Y201.826
G01 X257.507 Y209.114
G01 X257.738 Y211.903
G01 X259.031 Y214.557
G01 X260.082 Y217.240
G01 X260.894 Y219.936
G01 X261.290 Y221.667
G01 X261.750 Y216.474
G01 X260.787 Y213.588
G01 X259.969 Y211.598
G01 X261.110 Y214.473
G01 X261.750 Y216.474
G01 X262.200 Y211.302
G01 X264.797 Y206.815
G01 X265.251 Y201.622
G01 X262.200 Y211.302
G01 X264.797 Y206.815
G01 X265.251 Y201.622
G01 X264.797 Y206.815
G01 X267.396 Y202.298
G01 X271.239 Y199.593
G01 X271.649 Y199.331
G01 X274.252 Y194.819
G01 X268.931 Y200.460
G01 X267.396 Y202.298
G01 X267.849 Y197.132
G01 X266.259 Y192.704
G01 X266.071 Y192.244
G01 X267.702 Y196.670
G01 X267.849 Y197.132
G01 X268.296 Y191.966
G01 X270.902 Y187.450
G01 X271.347 Y182.285
G01 X268.296 Y191.966
G01 X262.200 Y211.302
G01 X262.538 Y216.125
G01 X262.435 Y220.878
G01 X261.901 Y225.528
G01 X260.945 Y230.047
G01 X260.387 Y232.008
G01 X262.987 Y227.505
G01 X263.368 Y223.975
G01 X263.436 Y222.341
G01 X263.199 Y225.912
G01 X262.987 Y227.505
G01 X265.587 Y223.002
G01 X268.972 Y220.575
G01 X269.842 Y220.022
G01 X272.434 Y215.533
G01 X266.108 Y222.375
G01 X265.587 Y223.002
G01 X265.997 Y218.857
G01 X266.040 Y217.827
G01 X265.220 Y215.306
G01 X264.260 Y212.949
G01 X265.277 Y215.464
G01 X266.040 Y217.827
G01 X266.490 Y212.653
G01 X269.092 Y208.149
G01 X269.544 Y202.975
G01 X266.490 Y212.653
G01 X266.333 Y217.435
G01 X265.750 Y222.102
G01 X265.587 Y223.002
G01 X268.187 Y218.498
G01 X268.615 Y213.760
G01 X268.632 Y213.338
G01 X268.242 Y218.087
G01 X268.187 Y218.498
G01 X270.775 Y214.017
G01 X275.037 Y211.024
G01 X277.626 Y206.537
G01 X270.775 Y214.017
G01 X275.037 Y211.024
G01 X277.626 Y206.537
G01 X275.037 Y211.024
G01 X279.295 Y208.040
G01 X283.011 Y207.340
G01 X284.402 Y207.151
G01 X288.653 Y204.174
G01 X283.493 Y206.088
G01 X279.295 Y208.040
G01 X281.892 Y203.543
G01 X282.341 Y198.368
G01 X281.892 Y203.543
G01 X284.485 Y199.048
G01 X288.742 Y196.074
G01 X291.342 Y191.572
G01 X284.485 Y199.048
G01 X274.813 Y209.154
G01 X270.775 Y214.017
G01 X275.037 Y211.024
G01 X277.626 Y206.537
G01 X275.037 Y211.024
G01 X279.295 Y208.040
G01 X283.011 Y207.340
G01 X284.402 Y207.151
G01 X288.653 Y204.174
G01 X283.493 Y206.088
G01 X279.295 Y208.040
G01 X281.892 Y203.543
G01 X282.341 Y198.368
G01 X281.892 Y203.543
G01 X284.485 Y199.048
G01 X288.742 Y196.074
G01 X291.342 Y191.572
G01 X284.485 Y199.048
G01 X279.295 Y208.040
G01 X283.546 Y205.066
G01 X286.139 Y200.579
G01 X283.546 Y205.066
G01 X287.800 Y202.091
G01 X292.515 Y201.239
G01 X292.918 Y201.184
G01 X297.171 Y198.213
G01 X290.592 Y200.788
G01 X287.800 Y202.091
G01 X292.515 Y201.239
G01 X292.918 Y201.184
G01 X297.171 Y198.213
G01 X292.918 Y201.184
G01 X298.031 Y200.288
G01 X301.925 Y201.285
G01 X303.056 Y201.623
G01 X308.162 Y200.731
G01 X303.124 Y200.322
G01 X298.192 Y200.283
G01 X298.031 Y200.288
G01 X302.280 Y197.310
G01 X304.889 Y192.801
G01 X302.280 Y197.310
G01 X306.545 Y194.330
G01 X311.656 Y193.431
G01 X315.905 Y190.448
G01 X306.545 Y194.330
G01 X298.879 Y196.908
G01 X291.614 Y200.092
G01 X287.800 Y202.091
G01 X290.400 Y197.588
G01 X290.848 Y192.417
G01 X290.400 Y197.588
G01 X292.994 Y193.090
G01 X297.246 Y190.119
G01 X299.845 Y185.615
G01 X292.994 Y193.090
G01 X293.446 Y187.917
G01 X291.850 Y183.470
G01 X291.676 Y183.035
G01 X293.304 Y187.481
G01 X293.446 Y187.917
G01 X293.905 Y182.736
G01 X296.497 Y178.249
G01 X296.953 Y173.072
G01 X293.905 Y182.736
G01 X293.378 Y190.177
G01 X292.994 Y193.090
G01 X295.590 Y188.600
G01 X296.047 Y183.423
G01 X295.590 Y188.600
G01 X298.196 Y184.092
G01 X302.442 Y181.115
G01 X305.042 Y176.625
G01 X298.196 Y184.092
G01 X302.442 Y181.115
G01 X305.042 Y176.625
G01 X302.442 Y181.115
G01 X306.707 Y178.127
G01 X311.812 Y177.235
G01 X316.063 Y174.264
G01 X306.746 Y178.109
G01 X306.707 Y178.127
G01 X309.295 Y173.645
G01 X309.743 Y168.471
G01 X309.295 Y173.645
G01 X311.890 Y169.142
G01 X316.153 Y166.155
G01 X318.737 Y161.669
G01 X311.890 Y169.142
G01 X298.196 Y184.092
G01 X284.861 Y197.057
G01 X272.940 Y211.135
G01 X270.775 Y214.017
G01 X271.235 Y208.829
G01 X270.168 Y205.687
G01 X269.461 Y203.943
G01 X270.673 Y207.081
G01 X271.235 Y208.829
G01 X271.691 Y203.649
G01 X274.286 Y199.152
G01 X274.730 Y193.992
G01 X271.691 Y203.649
G01 X270.438 Y200.081
G01 X269.906 Y198.782
G01 X267.798 Y196.580
G01 X266.233 Y195.100
G01 X268.459 Y197.243
G01 X269.906 Y198.782
G01 X268.437 Y194.661
G01 X268.129 Y193.907
G01 X268.584 Y188.731
G01 X266.805 Y183.851
G01 X267.931 Y191.596
G01 X268.129 Y193.907
G01 X269.780 Y197.717
G01 X271.103 Y201.548
G01 X271.691 Y203.649
G01 X272.141 Y198.481
G01 X270.705 Y194.456
G01 X270.359 Y193.613
G01 X271.867 Y197.635
G01 X272.141 Y198.481
G01 X272.590 Y193.310
G01 X275.189 Y188.807
G01 X275.642 Y183.631
G01 X272.590 Y193.310
G01 X275.189 Y188.807
G01 X275.642 Y183.631
G01 X275.189 Y188.807
G01 X277.788 Y184.311
G01 X282.042 Y181.333
G01 X284.640 Y176.836
G01 X277.788 Y184.311
G01 X278.235 Y179.143
G01 X276.458 Y174.264
G01 X278.235 Y179.143
G01 X278.691 Y173.958
G01 X281.283 Y169.462
G01 X281.743 Y164.289
G01 X278.691 Y173.958
G01 X272.590 Y193.310
G01 X270.970 Y188.800
G01 X270.816 Y188.423
G01 X268.246 Y185.802
G01 X267.137 Y184.763
G01 X269.794 Y187.343
G01 X270.816 Y188.423
G01 X269.036 Y183.548
G01 X269.490 Y178.379
G01 X267.710 Y173.498
G01 X268.996 Y183.078
G01 X269.036 Y183.548
G01 X266.225 Y180.674
G01 X265.367 Y179.864
G01 X262.007 Y178.597
G01 X260.486 Y178.085
G01 X263.885 Y179.281
G01 X265.367 Y179.864
G01 X262.313 Y176.778
G01 X261.691 Y176.195
G01 X259.910 Y171.322
G01 X256.285 Y167.680
G01 X256.238 Y167.636
G01 X259.682 Y172.747
G01 X261.691 Y176.195
G01 X264.836 Y179.065
G01 X267.730 Y182.060
G01 X269.036 Y183.548
G01 X267.261 Y178.659
G01 X264.186 Y175.557
G01 X263.586 Y174.996
G01 X266.711 Y178.073
G01 X267.261 Y178.659
G01 X265.481 Y173.781
G01 X265.937 Y168.621
G01 X264.161 Y163.729
G01 X265.481 Y173.781
G01 X265.937 Y168.621
G01 X264.161 Y163.729
G01 X265.937 Y168.621
G01 X266.387 Y163.437
G01 X268.982 Y158.932
G01 X269.436 Y153.768
G01 X266.387 Y163.437
G01 X264.606 Y158.559
G01 X260.939 Y154.877
G01 X264.606 Y158.559
G01 X262.837 Y153.677
G01 X263.291 Y148.491
G01 X261.511 Y143.621
G01 X262.837 Y153.677
G01 X265.016 Y168.217
G01 X265.481 Y173.781
G01 X268.067 Y179.089
G01 X270.172 Y184.456
G01 X271.797 Y189.848
G01 X272.590 Y193.310
G01 X273.042 Y188.126
G01 X271.262 Y183.255
G01 X273.042 Y188.126
G01 X273.499 Y182.949
G01 X276.090 Y178.459
G01 X276.542 Y173.287
G01 X273.499 Y182.949
G01 X271.719 Y178.083
G01 X268.687 Y175.005
G01 X268.044 Y174.399
G01 X271.127 Y177.452
G01 X271.719 Y178.083
G01 X269.938 Y173.196
G01 X270.391 Y168.023
G01 X268.620 Y163.149
G01 X269.938 Y173.196
G01 X272.220 Y178.946
G01 X273.499 Y182.949
G01 X273.945 Y177.792
G01 X272.170 Y172.899
G01 X273.945 Y177.792
G01 X274.399 Y172.605
G01 X277.000 Y168.111
G01 X277.451 Y162.925
G01 X274.399 Y172.605
G01 X277.000 Y168.111
G01 X277.451 Y162.925
G01 X277.000 Y168.111
G01 X279.601 Y163.605
G01 X283.856 Y160.622
G01 X286.452 Y156.129
G01 X279.601 Y163.605
G01 X280.050 Y158.430
G01 X278.275 Y153.559
G01 X280.050 Y158.430
G01 X280.495 Y153.268
G01 X283.096 Y148.773
G01 X283.547 Y143.588
G01 X280.495 Y153.268
G01 X274.399 Y172.605
G01 X277.000 Y168.111
G01 X277.451 Y162.925
G01 X277.000 Y168.111
G01 X279.601 Y163.605
G01 X283.856 Y160.622
G01 X286.452 Y156.129
G01 X279.601 Y163.605
G01 X280.050 Y158.430
G01 X278.275 Y153.559
G01 X280.050 Y158.430
G01 X280.495 Y153.268
G01 X283.096 Y148.773
G01 X283.547 Y143.588
G01 X280.495 Y153.268
G01 X279.601 Y163.605
G01 X282.192 Y159.108
G01 X282.643 Y153.945
G01 X282.192 Y159.108
G01 X284.783 Y154.619
G01 X289.045 Y151.642
G01 X291.646 Y147.136
G01 X284.783 Y154.619
G01 X289.045 Y151.642
G01 X291.646 Y147.136
G01 X289.045 Y151.642
G01 X293.299 Y148.663
G01 X298.419 Y147.761
G01 X302.673 Y144.772
G01 X294.992 Y147.882
G01 X293.299 Y148.663
G01 X295.904 Y144.150
G01 X296.347 Y138.986
G01 X295.904 Y144.150
G01 X298.494 Y139.662
G01 X302.755 Y136.678
G01 X305.352 Y132.179
G01 X298.494 Y139.662
G01 X287.852 Y150.943
G01 X284.783 Y154.619
G01 X285.241 Y149.447
G01 X283.462 Y144.557
G01 X285.241 Y149.447
G01 X285.698 Y144.263
G01 X288.289 Y139.760
G01 X288.748 Y134.581
G01 X285.698 Y144.263
G01 X283.914 Y139.382
G01 X280.244 Y135.709
G01 X283.914 Y139.382
G01 X282.135 Y134.513
G01 X282.593 Y129.324
G01 X280.816 Y124.452
G01 X282.135 Y134.513
G01 X285.402 Y143.341
G01 X285.698 Y144.263
G01 X286.150 Y139.093
G01 X284.373 Y134.220
G01 X286.150 Y139.093
G01 X286.599 Y133.907
G01 X289.199 Y129.411
G01 X289.643 Y124.251
G01 X286.599 Y133.907
G01 X289.199 Y129.411
G01 X289.643 Y124.251
G01 X289.199 Y129.411
G01 X291.795 Y124.923
G01 X296.053 Y121.929
G01 X298.642 Y117.443
G01 X291.795 Y124.923
G01 X292.246 Y119.729
G01 X290.475 Y114.856
G01 X292.246 Y119.729
G01 X292.695 Y114.570
G01 X295.299 Y110.075
G01 X295.747 Y104.890
G01 X292.695 Y114.570
G01 X286.599 Y133.907
G01 X274.399 Y172.605
G01 X275.075 Y182.250
G01 X274.871 Y191.755
G01 X273.803 Y201.057
G01 X271.891 Y210.094
G01 X270.775 Y214.017
G01 X273.375 Y209.513
G01 X273.827 Y204.343
G01 X273.375 Y209.513
G01 X275.975 Y205.010
G01 X280.228 Y202.030
G01 X282.833 Y197.525
G01 X275.975 Y205.010
G01 X276.429 Y199.836
G01 X275.103 Y196.093
G01 X274.643 Y194.965
G01 X276.061 Y198.706
G01 X276.429 Y199.836
G01 X276.883 Y194.659
G01 X279.473 Y190.165
G01 X279.928 Y184.982
G01 X276.883 Y194.659
G01 X276.402 Y201.817
G01 X275.975 Y205.010
G01 X278.575 Y200.506
G01 X279.028 Y195.328
G01 X278.575 Y200.506
G01 X281.162 Y196.025
G01 X285.418 Y193.039
G01 X288.023 Y188.535
G01 X281.162 Y196.025
G01 X285.418 Y193.039
G01 X288.023 Y188.535
G01 X285.418 Y193.039
G01 X289.671 Y190.065
G01 X294.705 Y189.170
G01 X294.790 Y189.159
G01 X299.050 Y186.169
G01 X292.437 Y188.775
G01 X289.671 Y190.065
G01 X292.277 Y185.555
G01 X292.725 Y180.391
G01 X292.277 Y185.555
G01 X294.868 Y181.066
G01 X299.129 Y178.078
G01 X301.720 Y173.582
G01 X294.868 Y181.066
G01 X282.205 Y194.770
G01 X281.162 Y196.025
G01 X281.620 Y190.846
G01 X280.049 Y186.471
G01 X279.843 Y185.962
G01 X281.455 Y190.336
G01 X281.620 Y190.846
G01 X282.069 Y185.676
G01 X284.672 Y181.164
G01 X285.124 Y175.986
G01 X282.069 Y185.676
G01 X280.327 Y180.869
G01 X280.294 Y180.790
G01 X277.435 Y177.879
G01 X276.623 Y177.110
G01 X279.540 Y179.990
G01 X280.294 Y180.790
G01 X278.519 Y175.899
G01 X278.972 Y170.728
G01 X277.201 Y165.836
G01 X278.429 Y174.855
G01 X278.519 Y175.899
G01 X280.549 Y180.939
G01 X282.069 Y185.676
G01 X282.531 Y180.485
G01 X280.753 Y175.606
G01 X282.531 Y180.485
G01 X282.980 Y175.307
G01 X285.575 Y170.825
G01 X286.023 Y165.645
G01 X282.980 Y175.307
G01 X285.575 Y170.825
G01 X286.023 Y165.645
G01 X285.575 Y170.825
G01 X288.174 Y166.321
G01 X292.433 Y163.330
G01 X295.028 Y158.839
G01 X288.174 Y166.321
G01 X288.633 Y161.135
G01 X286.855 Y156.260
G01 X288.633 Y161.135
G01 X289.079 Y155.973
G01 X291.677 Y151.478
G01 X292.127 Y146.306
G01 X289.079 Y155.973
G01 X282.980 Y175.307
G01 X282.660 Y184.881
G01 X281.490 Y194.225
G01 X281.162 Y196.025
G01 X283.762 Y191.521
G01 X284.218 Y186.338
G01 X283.762 Y191.521
G01 X286.362 Y187.018
G01 X290.620 Y184.027
G01 X293.214 Y179.547
G01 X286.362 Y187.018
G01 X286.823 Y181.835
G01 X285.035 Y176.969
G01 X286.823 Y181.835
G01 X287.264 Y176.676
G01 X289.869 Y172.167
G01 X290.319 Y166.999
G01 X287.264 Y176.676
G01 X286.472 Y186.194
G01 X286.362 Y187.018
G01 X288.962 Y182.515
G01 X289.406 Y177.349
G01 X288.962 Y182.515
G01 X291.562 Y178.011
G01 X295.813 Y175.041
G01 X298.413 Y170.536
G01 X291.562 Y178.011
G01 X295.813 Y175.041
G01 X298.413 Y170.536
G01 X295.813 Y175.041
G01 X300.061 Y172.069
G01 X305.179 Y171.168
G01 X309.438 Y168.187
G01 X301.366 Y171.463
G01 X300.061 Y172.069
G01 X302.665 Y167.562
G01 X303.111 Y162.392
G01 X302.665 Y167.562
G01 X305.265 Y163.052
G01 X309.513 Y160.087
G01 X312.119 Y155.576
G01 X305.265 Y163.052
G01 X291.562 Y178.011
G01 X295.813 Y175.041
G01 X298.413 Y170.536
G01 X295.813 Y175.041
G01 X300.061 Y172.069
G01 X305.179 Y171.168
G01 X309.438 Y168.187
G01 X301.366 Y171.463
G01 X300.061 Y172.069
G01 X302.665 Y167.562
G01 X303.111 Y162.392
G01 X302.665 Y167.562
G01 X305.265 Y163.052
G01 X309.513 Y160.087
G01 X312.119 Y155.576
G01 X305.265 Y163.052
G01 X300.061 Y172.069
G01 X304.328 Y169.069
G01 X306.922 Y164.578
G01 X304.328 Y169.069
G01 X308.576 Y166.100
G01 X313.689 Y165.204
G01 X317.941 Y162.222
G01 X308.597 Y166.090
G01 X308.576 Y166.100
G01 X313.689 Y165.204
G01 X317.941 Y162.222
G01 X313.689 Y165.204
G01 X318.804 Y164.303
G01 X323.824 Y165.641
G01 X328.950 Y164.740
G01 X321.853 Y164.330
G01 X318.804 Y164.303
G01 X323.067 Y161.325
G01 X325.657 Y156.822
G01 X323.067 Y161.325
G01 X327.321 Y158.330
G01 X332.436 Y157.437
G01 X336.687 Y154.468
G01 X327.321 Y158.330
G01 X316.985 Y162.178
G01 X308.576 Y166.100
G01 X311.177 Y161.605
G01 X311.630 Y156.422
G01 X311.177 Y161.605
G01 X313.769 Y157.107
G01 X318.022 Y154.130
G01 X320.626 Y149.634
G01 X313.769 Y157.107
G01 X314.222 Y151.932
G01 X312.461 Y147.040
G01 X314.222 Y151.932
G01 X314.680 Y146.763
G01 X317.279 Y142.256
G01 X317.732 Y137.081
G01 X314.680 Y146.763
G01 X313.769 Y157.107
G01 X316.367 Y152.614
G01 X316.825 Y147.421
G01 X316.367 Y152.614
G01 X318.970 Y148.096
G01 X323.217 Y145.130
G01 X325.819 Y140.636
G01 X318.970 Y148.096
G01 X323.217 Y145.130
G01 X325.819 Y140.636
G01 X323.217 Y145.130
G01 X327.485 Y142.148
G01 X332.598 Y141.233
G01 X336.849 Y138.256
G01 X327.485 Y142.148
G01 X330.078 Y137.640
G01 X330.529 Y132.466
G01 X330.078 Y137.640
G01 X332.684 Y133.144
G01 X336.935 Y130.162
G01 X339.524 Y125.679
G01 X332.684 Y133.144
G01 X318.970 Y148.096
G01 X299.636 Y168.293
G01 X291.562 Y178.011
G01 X295.813 Y175.041
G01 X298.413 Y170.536
G01 X295.813 Y175.041
G01 X300.061 Y172.069
G01 X305.179 Y171.168
G01 X309.438 Y168.187
G01 X301.366 Y171.463
G01 X300.061 Y172.069
G01 X302.665 Y167.562
G01 X303.111 Y162.392
G01 X302.665 Y167.562
G01 X305.265 Y163.052
G01 X309.513 Y160.087
G01 X312.119 Y155.576
G01 X305.265 Y163.052
G01 X300.061 Y172.069
G01 X304.328 Y169.069
G01 X306.922 Y164.578
G01 X304.328 Y169.069
G01 X308.576 Y166.100
G01 X313.689 Y165.204
G01 X317.941 Y162.222
G01 X308.597 Y166.090
G01 X308.576 Y166.100
G01 X313.689 Y165.204
G01 X317.941 Y162.222
G01 X313.689 Y165.204
G01 X318.804 Y164.303
G01 X323.824 Y165.641
G01 X328.950 Y164.740
G01 X321.853 Y164.330
G01 X318.804 Y164.303
G01 X323.067 Y161.325
G01 X325.657 Y156.822
G01 X323.067 Y161.325
G01 X327.321 Y158.330
G01 X332.436 Y157.437
G01 X336.687 Y154.468
G01 X327.321 Y158.330
G01 X316.985 Y162.178
G01 X308.576 Y166.100
G01 X311.177 Y161.605
G01 X311.630 Y156.422
G01 X311.177 Y161.605
G01 X313.769 Y157.107
G01 X318.022 Y154.130
G01 X320.626 Y149.634
G01 X313.769 Y157.107
G01 X314.222 Y151.932
G01 X312.461 Y147.040
G01 X314.222 Y151.932
G01 X314.680 Y146.763
G01 X317.279 Y142.256
G01 X317.732 Y137.081
G01 X314.680 Y146.763
G01 X313.769 Y157.107
G01 X316.367 Y152.614
G01 X316.825 Y147.421
G01 X316.367 Y152.614
G01 X318.970 Y148.096
G01 X323.217 Y145.130
G01 X325.819 Y140.636
G01 X318.970 Y148.096
G01 X323.217 Y145.130
G01 X325.819 Y140.636
G01 X323.217 Y145.130
G01 X327.485 Y142.148
G01 X332.598 Y141.233
G01 X336.849 Y138.256
G01 X327.485 Y142.148
G01 X330.078 Y137.640
G01 X330.529 Y132.466
G01 X330.078 Y137.640
G01 X332.684 Y133.144
G01 X336.935 Y130.162
G01 X339.524 Y125.679
G01 X332.684 Y133.144
G01 X318.970 Y148.096
G01 X308.576 Y166.100
G01 X312.841 Y163.119
G01 X315.436 Y158.611
G01 X312.841 Y163.119
G01 X317.092 Y160.132
G01 X322.200 Y159.240
G01 X326.462 Y156.253
G01 X317.092 Y160.132
G01 X319.683 Y155.641
G01 X320.149 Y150.460
G01 X319.683 Y155.641
G01 X322.293 Y151.137
G01 X326.541 Y148.156
G01 X329.136 Y143.666
G01 X322.293 Y151.137
G01 X317.092 Y160.132
G01 X321.335 Y157.168
G01 X323.939 Y152.676
G01 X321.335 Y157.168
G01 X325.599 Y154.183
G01 X330.720 Y153.284
G01 X334.971 Y150.296
G01 X325.599 Y154.183
G01 X330.720 Y153.284
G01 X334.971 Y150.296
G01 X330.720 Y153.284
G01 X335.837 Y152.368
G01 X340.849 Y153.721
G01 X345.962 Y152.820
G01 X337.361 Y152.382
G01 X335.837 Y152.368
G01 X340.090 Y149.391
G01 X342.680 Y144.902
G01 X340.090 Y149.391
G01 X344.343 Y146.427
G01 X349.460 Y145.521
G01 X353.720 Y142.540
G01 X344.343 Y146.427
G01 X331.184 Y151.576
G01 X325.599 Y154.183
G01 X330.720 Y153.284
G01 X334.971 Y150.296
G01 X330.720 Y153.284
G01 X335.837 Y152.368
G01 X340.849 Y153.721
G01 X345.962 Y152.820
G01 X337.361 Y152.382
G01 X335.837 Y152.368
G01 X340.090 Y149.391
G01 X342.680 Y144.902
G01 X340.090 Y149.391
G01 X344.343 Y146.427
G01 X349.460 Y145.521
G01 X353.720 Y142.540
G01 X344.343 Y146.427
G01 X335.837 Y152.368
G01 X340.938 Y151.479
G01 X345.212 Y148.490
G01 X340.938 Y151.479
G01 X346.061 Y150.575
G01 X351.088 Y151.919
G01 X356.193 Y151.011
G01 X346.677 Y150.579
G01 X346.061 Y150.575
G01 X351.088 Y151.919
G01 X356.193 Y151.011
G01 X351.088 Y151.919
G01 X356.093 Y153.263
G01 X360.069 Y156.610
G01 X365.093 Y157.951
G01 X358.277 Y154.324
G01 X356.093 Y153.263
G01 X361.218 Y152.355
G01 X365.461 Y149.384
G01 X361.218 Y152.355
G01 X366.324 Y151.462
G01 X371.351 Y152.807
G01 X376.467 Y151.908
G01 X366.324 Y151.462
G01 X356.248 Y150.644
G01 X346.384 Y150.565
G01 X346.061 Y150.575
G01 X350.314 Y147.597
G01 X352.921 Y143.090
G01 X350.314 Y147.597
G01 X354.577 Y144.603
G01 X359.685 Y143.726
G01 X363.953 Y140.734
G01 X354.577 Y144.603
G01 X357.175 Y140.110
G01 X357.622 Y134.937
G01 X357.175 Y140.110
G01 X359.761 Y135.620
G01 X364.022 Y132.645
G01 X366.618 Y128.133
G01 X359.761 Y135.620
G01 X354.577 Y144.603
G01 X358.821 Y141.634
G01 X361.426 Y137.137
G01 X358.821 Y141.634
G01 X363.089 Y138.660
G01 X368.193 Y137.753
G01 X372.458 Y134.768
G01 X363.089 Y138.660
G01 X368.193 Y137.753
G01 X372.458 Y134.768
G01 X368.193 Y137.753
G01 X373.311 Y136.861
G01 X378.327 Y138.195
G01 X383.452 Y137.297
G01 X373.311 Y136.861
G01 X377.560 Y133.876
G01 X380.170 Y129.364
G01 X377.560 Y133.876
G01 X381.840 Y130.892
G01 X386.933 Y129.997
G01 X391.194 Y127.009
G01 X381.840 Y130.892
G01 X363.089 Y138.660
G01 X347.757 Y143.817
G01 X333.227 Y150.184
G01 X325.599 Y154.183
G01 X328.199 Y149.676
G01 X328.649 Y144.519
G01 X328.199 Y149.676
G01 X330.800 Y145.177
G01 X335.045 Y142.210
G01 X337.652 Y137.710
G01 X330.800 Y145.177
G01 X331.248 Y140.003
G01 X329.464 Y135.132
G01 X331.248 Y140.003
G01 X331.696 Y134.834
G01 X334.296 Y130.334
G01 X334.755 Y125.150
G01 X331.696 Y134.834
G01 X330.800 Y145.177
G01 X333.398 Y140.679
G01 X333.839 Y135.516
G01 X333.398 Y140.679
G01 X335.988 Y136.180
G01 X340.250 Y133.207
G01 X342.842 Y128.703
G01 X335.988 Y136.180
G01 X340.250 Y133.207
G01 X342.842 Y128.703
G01 X340.250 Y133.207
G01 X344.507 Y130.218
G01 X349.613 Y129.329
G01 X353.880 Y126.342
G01 X344.507 Y130.218
G01 X347.098 Y125.737
G01 X347.542 Y120.563
G01 X347.098 Y125.737
G01 X349.691 Y121.229
G01 X353.953 Y118.246
G01 X356.542 Y113.763
G01 X349.691 Y121.229
G01 X335.988 Y136.180
G01 X336.445 Y131.012
G01 X334.674 Y126.124
G01 X336.445 Y131.012
G01 X336.892 Y125.834
G01 X339.499 Y121.343
G01 X339.940 Y116.163
G01 X336.892 Y125.834
G01 X335.124 Y120.946
G01 X331.448 Y117.273
G01 X335.124 Y120.946
G01 X333.352 Y116.069
G01 X333.801 Y110.892
G01 X332.015 Y106.021
G01 X333.352 Y116.069
G01 X336.608 Y124.962
G01 X336.892 Y125.834
G01 X337.351 Y120.659
G01 X335.573 Y115.784
G01 X337.351 Y120.659
G01 X337.797 Y115.493
G01 X340.403 Y110.985
G01 X340.858 Y105.814
G01 X337.797 Y115.493
G01 X340.403 Y110.985
G01 X340.858 Y105.814
G01 X340.403 Y110.985
G01 X342.995 Y106.497
G01 X347.251 Y103.519
G01 X349.855 Y99.007
G01 X342.995 Y106.497
G01 X343.439 Y101.324
G01 X341.676 Y96.433
G01 X343.439 Y101.324
G01 X343.906 Y96.144
G01 X346.504 Y91.637
G01 X346.952 Y86.482
G01 X343.906 Y96.144
G01 X337.797 Y115.493
G01 X336.752 Y130.361
G01 X335.988 Y136.180
G01 X338.584 Y131.688
G01 X339.043 Y126.503
G01 X338.584 Y131.688
G01 X341.181 Y127.200
G01 X345.445 Y124.212
G01 X348.037 Y119.716
G01 X341.181 Y127.200
G01 X341.633 Y122.023
G01 X339.865 Y117.137
G01 X341.633 Y122.023
G01 X342.095 Y116.845
G01 X344.681 Y112.343
G01 X345.142 Y107.160
G01 X342.095 Y116.845
G01 X341.181 Y127.200
G01 X343.783 Y122.688
G01 X344.236 Y117.523
G01 X343.783 Y122.688
G01 X346.376 Y118.203
G01 X350.623 Y115.217
G01 X353.232 Y110.708
G01 X346.376 Y118.203
G01 X350.623 Y115.217
G01 X353.232 Y110.708
G01 X350.623 Y115.217
G01 X354.883 Y112.231
G01 X359.997 Y111.329
G01 X364.269 Y108.344
G01 X354.883 Y112.231
G01 X357.477 Y107.734
G01 X357.931 Y102.557
G01 X357.477 Y107.734
G01 X360.083 Y103.250
G01 X364.331 Y100.257
G01 X366.932 Y95.765
G01 X360.083 Y103.250
G01 X346.376 Y118.203
G01 X350.623 Y115.217
G01 X353.232 Y110.708
G01 X350.623 Y115.217
G01 X354.883 Y112.231
G01 X359.997 Y111.329
G01 X364.269 Y108.344
G01 X354.883 Y112.231
G01 X357.477 Y107.734
G01 X357.931 Y102.557
G01 X357.477 Y107.734
G01 X360.083 Y103.250
G01 X364.331 Y100.257
G01 X366.932 Y95.765
G01 X360.083 Y103.250
G01 X354.883 Y112.231
G01 X359.139 Y109.258
G01 X361.744 Y104.762
G01 X359.139 Y109.258
G01 X363.399 Y106.274
G01 X368.510 Y105.380
G01 X372.776 Y102.385
G01 X363.399 Y106.274
G01 X368.510 Y105.380
G01 X372.776 Y102.385
G01 X368.510 Y105.380
G01 X373.625 Y104.470
G01 X378.639 Y105.820
G01 X383.768 Y104.903
G01 X373.625 Y104.470
G01 X377.876 Y101.494
G01 X380.487 Y96.982
G01 X377.876 Y101.494
G01 X382.143 Y98.510
G01 X387.262 Y97.602
G01 X391.514 Y94.640
G01 X382.143 Y98.510
G01 X363.477 Y106.237
G01 X363.399 Y106.274
G01 X365.997 Y101.766
G01 X366.450 Y96.592
G01 X365.997 Y101.766
G01 X368.606 Y97.270
G01 X372.845 Y94.302
G01 X375.443 Y89.793
G01 X368.606 Y97.270
G01 X369.044 Y92.096
G01 X367.270 Y87.218
G01 X369.044 Y92.096
G01 X369.501 Y86.922
G01 X372.093 Y82.438
G01 X372.544 Y77.251
G01 X369.501 Y86.922
G01 X368.606 Y97.270
G01 X371.184 Y92.785
G01 X371.641 Y87.606
G01 X371.184 Y92.785
G01 X373.779 Y88.284
G01 X378.042 Y85.289
G01 X380.645 Y80.791
G01 X373.779 Y88.284
G01 X378.042 Y85.289
G01 X380.645 Y80.791
G01 X378.042 Y85.289
G01 X382.306 Y82.310
G01 X387.420 Y81.412
G01 X391.680 Y78.439
G01 X382.306 Y82.310
G01 X384.896 Y77.827
G01 X385.353 Y72.650
G01 X384.896 Y77.827
G01 X387.490 Y73.318
G01 X391.752 Y70.338
G01 X394.338 Y65.851
G01 X387.490 Y73.318
G01 X373.779 Y88.284
G01 X346.376 Y118.203
G01 X320.781 Y142.506
G01 X297.849 Y168.934
G01 X291.174 Y177.702
G01 X284.040 Y182.755
G01 X277.510 Y188.317
G01 X271.616 Y194.340
G01 X266.386 Y200.776
G01 X261.845 Y207.573
G01 X258.016 Y214.679
G01 X254.917 Y222.040
G01 X252.563 Y229.601
G01 X250.965 Y237.308
G01 X250.131 Y245.103
G01 X250.000 Y249.875
G01 X249.999 Y244.800
G01 X249.690 Y243.694
G01 X249.271 Y242.608
G01 X248.746 Y241.550
G01 X248.115 Y240.529
G01 X247.803 Y240.091
G01 X248.479 Y241.093
G01 X249.051 Y242.135
G01 X249.517 Y243.209
G01 X249.876 Y244.308
G01 X249.999 Y244.800
G01 X250.000 Y239.600
G01 X250.591 Y237.966
G01 X251.342 Y236.369
G01 X252.194 Y234.909
G01 X252.195 Y229.718
G01 X250.930 Y234.181
G01 X250.109 Y238.708
G01 X250.000 Y239.600
G01 X249.409 Y237.966
G01 X248.657 Y236.369
G01 X247.805 Y234.909
G01 X246.846 Y233.903
G01 X245.783 Y232.958
G01 X244.620 Y232.081
G01 X243.822 Y231.557
G01 X245.047 Y232.386
G01 X246.175 Y233.288
G01 X247.201 Y234.256
G01 X247.805 Y234.909
G01 X246.425 Y231.755
G01 X245.611 Y230.206
G01 X245.609 Y225.008
G01 X243.414 Y220.296
G01 X245.611 Y230.206
G01 X246.961 Y232.204
G01 X248.104 Y234.282
G01 X249.035 Y236.424
G01 X249.751 Y238.614
G01 X250.000 Y239.600
G01 X250.000 Y234.425
G01 X249.128 Y232.249
G01 X248.043 Y230.127
G01 X247.805 Y229.718
G01 X248.932 Y231.828
G01 X249.846 Y233.995
G01 X250.000 Y234.425
G01 X250.000 Y229.225
G01 X251.154 Y226.510
G01 X252.194 Y224.519
G01 X252.193 Y219.328
G01 X250.533 Y226.114
G01 X250.000 Y229.225
G01 X251.154 Y226.510
G01 X252.194 Y224.519
G01 X252.193 Y219.328
G01 X252.194 Y224.519
G01 X254.001 Y220.542
G01 X254.392 Y219.793
G01 X256.251 Y218.098
G01 X258.285 Y216.517
G01 X258.373 Y216.454
G01 X260.567 Y211.758
G01 X257.893 Y214.786
G01 X255.544 Y217.976
G01 X254.392 Y219.793
G01 X254.388 Y214.621
G01 X252.885 Y211.242
G01 X252.195 Y209.910
G01 X253.826 Y213.264
G01 X254.388 Y214.621
G01 X254.392 Y209.412
G01 X256.587 Y204.701
G01 X256.586 Y199.503
G01 X254.392 Y209.412
G01 X251.860 Y218.359
G01 X250.217 Y227.436
G01 X250.000 Y229.225
G01 X248.846 Y226.510
G01 X247.806 Y224.519
G01 X246.352 Y223.141
G01 X244.758 Y221.848
G01 X243.827 Y221.179
G01 X245.495 Y222.421
G01 X247.026 Y223.754
G01 X247.806 Y224.519
G01 X245.999 Y220.542
G01 X245.607 Y219.793
G01 X245.612 Y214.621
G01 X243.415 Y209.912
G01 X245.607 Y219.793
G01 X243.749 Y218.098
G01 X241.714 Y216.517
G01 X241.627 Y216.454
G01 X239.667 Y215.836
G01 X237.628 Y215.332
G01 X236.615 Y215.131
G01 X238.691 Y215.577
G01 X240.690 Y216.142
G01 X241.627 Y216.454
G01 X239.213 Y214.335
G01 X237.653 Y213.138
G01 X235.455 Y208.421
G01 X231.894 Y205.394
G01 X231.473 Y205.070
G01 X236.058 Y210.838
G01 X237.653 Y213.138
G01 X240.097 Y214.783
G01 X242.349 Y216.574
G01 X244.399 Y218.496
G01 X245.607 Y219.793
G01 X243.413 Y215.091
G01 X241.135 Y213.073
G01 X239.432 Y211.758
G01 X241.858 Y213.678
G01 X243.413 Y215.091
G01 X241.216 Y210.387
G01 X241.221 Y205.202
G01 X239.019 Y200.478
G01 X241.216 Y210.387
G01 X241.221 Y205.202
G01 X239.019 Y200.478
G01 X241.221 Y205.202
G01 X241.214 Y199.991
G01 X243.190 Y195.726
G01 X243.414 Y195.295
G01 X243.413 Y190.086
G01 X241.624 Y197.632
G01 X241.214 Y199.991
G01 X239.023 Y195.290
G01 X235.433 Y192.250
G01 X235.040 Y191.947
G01 X238.665 Y194.964
G01 X239.023 Y195.290
G01 X236.827 Y190.593
G01 X236.826 Y185.379
G01 X234.630 Y180.684
G01 X236.827 Y190.593
G01 X241.216 Y210.387
G01 X243.920 Y214.395
G01 X246.208 Y218.561
G01 X248.071 Y222.856
G01 X249.503 Y227.248
G01 X250.000 Y229.225
G01 X250.000 Y224.025
G01 X248.564 Y220.777
G01 X247.806 Y219.328
G01 X249.387 Y222.540
G01 X250.000 Y224.025
G01 X250.000 Y218.825
G01 X251.718 Y215.031
G01 X252.195 Y214.117
G01 X252.195 Y208.934
G01 X250.138 Y218.022
G01 X250.000 Y218.825
G01 X248.282 Y215.031
G01 X247.805 Y214.117
G01 X245.834 Y212.344
G01 X243.824 Y210.783
G01 X245.962 Y212.452
G01 X247.805 Y214.117
G01 X245.607 Y209.412
G01 X245.609 Y204.210
G01 X243.413 Y199.503
G01 X245.607 Y209.412
G01 X247.862 Y213.632
G01 X249.691 Y217.965
G01 X250.000 Y218.825
G01 X250.000 Y213.625
G01 X248.001 Y209.308
G01 X247.805 Y208.934
G01 X249.841 Y213.242
G01 X250.000 Y213.625
G01 X250.000 Y208.450
G01 X252.195 Y203.727
G01 X252.193 Y198.547
G01 X250.000 Y208.450
G01 X252.195 Y203.727
G01 X252.193 Y198.547
G01 X252.195 Y203.727
G01 X254.390 Y199.014
G01 X257.259 Y196.550
G01 X258.369 Y195.691
G01 X260.561 Y190.988
G01 X257.050 Y195.225
G01 X254.390 Y199.014
G01 X254.390 Y193.821
G01 X252.192 Y189.114
G01 X254.390 Y193.821
G01 X254.389 Y188.632
G01 X256.589 Y183.928
G01 X256.589 Y178.729
G01 X254.389 Y188.632
G01 X251.066 Y202.220
G01 X250.000 Y208.450
G01 X252.195 Y203.727
G01 X252.193 Y198.547
G01 X252.195 Y203.727
G01 X254.390 Y199.014
G01 X257.259 Y196.550
G01 X258.369 Y195.691
G01 X260.561 Y190.988
G01 X257.050 Y195.225
G01 X254.390 Y199.014
G01 X254.390 Y193.821
G01 X252.192 Y189.114
G01 X254.390 Y193.821
G01 X254.389 Y188.632
G01 X256.589 Y183.928
G01 X256.589 Y178.729
G01 X254.389 Y188.632
G01 X254.390 Y199.014
G01 X256.584 Y194.313
G01 X256.587 Y189.130
G01 X256.584 Y194.313
G01 X258.781 Y189.610
G01 X262.439 Y186.514
G01 X262.760 Y186.265
G01 X264.958 Y181.566
G01 X260.548 Y187.085
G01 X258.781 Y189.610
G01 X262.439 Y186.514
G01 X262.760 Y186.265
G01 X264.958 Y181.566
G01 X262.760 Y186.265
G01 X266.739 Y182.932
G01 X270.611 Y181.849
G01 X271.759 Y181.576
G01 X275.735 Y178.251
G01 X271.168 Y180.416
G01 X266.877 Y182.848
G01 X266.739 Y182.932
G01 X268.931 Y178.230
G01 X268.936 Y173.020
G01 X268.931 Y178.230
G01 X271.134 Y173.516
G01 X275.110 Y170.182
G01 X277.299 Y165.474
G01 X271.134 Y173.516
G01 X265.784 Y179.582
G01 X261.084 Y185.972
G01 X258.781 Y189.610
G01 X258.781 Y184.410
G01 X256.584 Y179.708
G01 X258.781 Y184.410
G01 X258.779 Y179.217
G01 X260.975 Y174.519
G01 X260.975 Y169.318
G01 X258.779 Y179.217
G01 X256.584 Y174.512
G01 X252.979 Y171.458
G01 X252.610 Y171.168
G01 X256.243 Y174.205
G01 X256.584 Y174.512
G01 X254.391 Y169.795
G01 X254.392 Y164.613
G01 X252.198 Y159.902
G01 X254.391 Y169.795
G01 X257.655 Y176.503
G01 X258.779 Y179.217
G01 X258.782 Y174.031
G01 X256.590 Y169.319
G01 X258.782 Y174.031
G01 X258.784 Y168.824
G01 X260.973 Y164.123
G01 X260.980 Y158.935
G01 X258.784 Y168.824
G01 X260.973 Y164.123
G01 X260.980 Y158.935
G01 X260.973 Y164.123
G01 X263.173 Y159.403
G01 X267.149 Y156.078
G01 X269.345 Y151.379
G01 X263.198 Y159.367
G01 X263.173 Y159.403
G01 X263.174 Y154.227
G01 X260.975 Y149.523
G01 X263.174 Y154.227
G01 X263.169 Y149.030
G01 X265.368 Y144.311
G01 X265.363 Y139.134
G01 X263.169 Y149.030
G01 X258.784 Y168.824
G01 X253.719 Y186.719
G01 X250.434 Y204.872
G01 X250.000 Y208.450
G01 X247.805 Y203.727
G01 X245.309 Y201.540
G01 X243.825 Y200.383
G01 X246.444 Y202.494
G01 X247.805 Y203.727
G01 X245.609 Y199.014
G01 X245.609 Y193.821
G01 X243.412 Y189.130
G01 X245.609 Y199.014
G01 X242.740 Y196.550
G01 X241.630 Y195.691
G01 X238.703 Y194.838
G01 X236.608 Y194.338
G01 X239.608 Y195.082
G01 X241.630 Y195.691
G01 X238.298 Y192.856
G01 X237.653 Y192.357
G01 X235.459 Y187.648
G01 X231.480 Y184.311
G01 X236.327 Y190.455
G01 X237.653 Y192.357
G01 X240.988 Y194.832
G01 X244.050 Y197.488
G01 X245.609 Y199.014
G01 X243.415 Y194.313
G01 X240.159 Y191.545
G01 X239.438 Y190.988
G01 X242.755 Y193.717
G01 X243.415 Y194.313
G01 X241.218 Y189.610
G01 X241.218 Y184.410
G01 X239.022 Y179.702
G01 X241.218 Y189.610
G01 X241.218 Y184.410
G01 X239.022 Y179.702
G01 X241.218 Y184.410
G01 X241.220 Y179.217
G01 X243.415 Y174.512
G01 X243.417 Y169.318
G01 X241.220 Y179.217
G01 X239.024 Y174.519
G01 X235.045 Y171.181
G01 X239.024 Y174.519
G01 X236.826 Y169.800
G01 X236.823 Y164.611
G01 X234.635 Y159.901
G01 X236.826 Y169.800
G01 X241.218 Y189.610
G01 X237.560 Y186.515
G01 X237.239 Y186.265
G01 X233.702 Y185.280
G01 X232.223 Y184.935
G01 X235.813 Y185.840
G01 X237.239 Y186.265
G01 X233.260 Y182.933
G01 X231.068 Y178.230
G01 X227.086 Y174.892
G01 X232.990 Y182.546
G01 X233.260 Y182.933
G01 X229.388 Y181.849
G01 X228.240 Y181.577
G01 X224.697 Y182.159
G01 X223.124 Y182.477
G01 X226.666 Y181.813
G01 X228.240 Y181.577
G01 X224.053 Y180.431
G01 X223.222 Y180.238
G01 X219.243 Y176.908
G01 X214.283 Y175.566
G01 X214.220 Y175.552
G01 X219.759 Y178.256
G01 X223.222 Y180.238
G01 X227.381 Y181.150
G01 X231.384 Y182.298
G01 X233.260 Y182.933
G01 X229.278 Y179.586
G01 X225.064 Y178.437
G01 X224.263 Y178.251
G01 X228.508 Y179.354
G01 X229.278 Y179.586
G01 X225.298 Y176.252
G01 X223.112 Y171.555
G01 X219.128 Y168.207
G01 X225.298 Y176.252
G01 X223.112 Y171.555
G01 X219.128 Y168.207
G01 X223.112 Y171.555
G01 X220.910 Y166.841
G01 X220.905 Y161.642
G01 X218.716 Y156.943
G01 X220.910 Y166.841
G01 X216.937 Y163.504
G01 X211.912 Y162.152
G01 X216.937 Y163.504
G01 X212.956 Y160.163
G01 X210.756 Y155.446
G01 X206.780 Y152.117
G01 X212.956 Y160.163
G01 X222.112 Y171.666
G01 X225.298 Y176.252
G01 X230.191 Y179.556
G01 X234.698 Y183.151
G01 X238.801 Y187.008
G01 X241.218 Y189.610
G01 X239.025 Y184.894
G01 X235.041 Y181.566
G01 X239.025 Y184.894
G01 X236.825 Y180.182
G01 X236.824 Y174.999
G01 X234.629 Y170.294
G01 X236.825 Y180.182
G01 X232.851 Y176.859
G01 X228.686 Y175.709
G01 X227.826 Y175.505
G01 X232.023 Y176.608
G01 X232.851 Y176.859
G01 X228.865 Y173.516
G01 X226.670 Y168.810
G01 X222.700 Y165.474
G01 X228.865 Y173.516
G01 X233.716 Y177.356
G01 X236.825 Y180.182
G01 X234.632 Y175.493
G01 X230.649 Y172.144
G01 X234.632 Y175.493
G01 X232.433 Y170.774
G01 X232.438 Y165.582
G01 X230.235 Y160.865
G01 X232.433 Y170.774
G01 X232.438 Y165.582
G01 X230.235 Y160.865
G01 X232.438 Y165.582
G01 X232.438 Y160.380
G01 X234.631 Y155.669
G01 X234.632 Y150.480
G01 X232.438 Y160.380
G01 X230.239 Y155.673
G01 X226.266 Y152.343
G01 X230.239 Y155.673
G01 X228.044 Y150.980
G01 X228.048 Y145.787
G01 X225.846 Y141.071
G01 X228.044 Y150.980
G01 X232.433 Y170.774
G01 X232.438 Y165.582
G01 X230.235 Y160.865
G01 X232.438 Y165.582
G01 X232.438 Y160.380
G01 X234.631 Y155.669
G01 X234.632 Y150.480
G01 X232.438 Y160.380
G01 X230.239 Y155.673
G01 X226.266 Y152.343
G01 X230.239 Y155.673
G01 X228.044 Y150.980
G01 X228.048 Y145.787
G01 X225.846 Y141.071
G01 X228.044 Y150.980
G01 X232.438 Y160.380
G01 X232.433 Y155.189
G01 X230.242 Y150.493
G01 X232.433 Y155.189
G01 X232.433 Y150.006
G01 X234.635 Y145.296
G01 X234.634 Y140.094
G01 X232.433 Y150.006
G01 X234.635 Y145.296
G01 X234.634 Y140.094
G01 X234.635 Y145.296
G01 X236.829 Y140.590
G01 X240.812 Y137.249
G01 X243.002 Y132.533
G01 X237.906 Y139.067
G01 X236.829 Y140.590
G01 X236.829 Y135.379
G01 X234.631 Y130.686
G01 X236.829 Y135.379
G01 X236.828 Y130.197
G01 X239.026 Y125.483
G01 X239.025 Y120.288
G01 X236.828 Y130.197
G01 X233.253 Y145.288
G01 X232.433 Y150.006
G01 X230.243 Y145.298
G01 X226.257 Y141.953
G01 X230.243 Y145.298
G01 X228.046 Y140.581
G01 X228.040 Y135.385
G01 X225.847 Y130.670
G01 X228.046 Y140.581
G01 X224.062 Y137.245
G01 X219.046 Y135.899
G01 X224.062 Y137.245
G01 X220.086 Y133.917
G01 X217.888 Y129.195
G01 X213.913 Y125.864
G01 X220.086 Y133.917
G01 X227.330 Y139.930
G01 X228.046 Y140.581
G01 X225.853 Y135.877
G01 X221.878 Y132.545
G01 X225.853 Y135.877
G01 X223.649 Y131.161
G01 X223.653 Y125.967
G01 X221.457 Y121.277
G01 X223.649 Y131.161
G01 X223.653 Y125.967
G01 X221.457 Y121.277
G01 X223.653 Y125.967
G01 X223.657 Y120.783
G01 X225.847 Y116.060
G01 X225.846 Y110.881
G01 X223.657 Y120.783
G01 X221.450 Y116.059
G01 X217.480 Y112.724
G01 X221.450 Y116.059
G01 X219.260 Y111.367
G01 X219.268 Y106.172
G01 X217.063 Y101.458
G01 X219.260 Y111.367
G01 X223.649 Y131.161
G01 X232.433 Y170.774
G01 X237.841 Y178.789
G01 X242.416 Y187.123
G01 X246.142 Y195.713
G01 X249.005 Y204.495
G01 X250.000 Y208.450
G01 X250.000 Y203.250
G01 X247.806 Y198.547
G01 X250.000 Y203.250
G01 X250.000 Y198.050
G01 X252.193 Y193.342
G01 X252.197 Y188.139
G01 X250.000 Y198.050
G01 X247.806 Y193.342
G01 X244.786 Y190.764
G01 X243.824 Y190.017
G01 X246.922 Y192.548
G01 X247.806 Y193.342
G01 X245.610 Y188.632
G01 X245.607 Y183.445
G01 X243.410 Y178.729
G01 X245.610 Y188.632
G01 X248.774 Y195.071
G01 X250.000 Y198.050
G01 X250.000 Y192.850
G01 X247.803 Y188.139
G01 X250.000 Y192.850
G01 X250.000 Y187.675
G01 X252.192 Y182.961
G01 X252.196 Y177.758
G01 X250.000 Y187.675
G01 X252.192 Y182.961
G01 X252.196 Y177.758
G01 X252.192 Y182.961
G01 X254.388 Y178.259
G01 X258.301 Y174.968
G01 X258.368 Y174.915
G01 X260.563 Y170.196
G01 X256.139 Y175.759
G01 X254.388 Y178.259
G01 X254.390 Y173.050
G01 X252.196 Y168.355
G01 X254.390 Y173.050
G01 X254.389 Y167.867
G01 X256.587 Y163.149
G01 X256.582 Y157.960
G01 X254.389 Y167.867
G01 X250.275 Y186.066
G01 X250.000 Y187.675
G01 X247.807 Y182.961
G01 X244.258 Y179.958
G01 X243.825 Y179.620
G01 X247.409 Y182.602
G01 X247.807 Y182.961
G01 X245.611 Y178.259
G01 X245.609 Y173.050
G01 X243.412 Y168.340
G01 X245.611 Y178.259
G01 X241.698 Y174.968
G01 X241.631 Y174.915
G01 X237.699 Y173.824
G01 X236.611 Y173.564
G01 X240.578 Y174.599
G01 X241.631 Y174.915
G01 X237.648 Y171.567
G01 X235.454 Y166.863
G01 X231.475 Y163.512
G01 X237.048 Y170.708
G01 X237.648 Y171.567
G01 X241.926 Y174.917
G01 X245.611 Y178.259
G01 X243.415 Y173.533
G01 X239.436 Y170.196
G01 X243.415 Y173.533
G01 X241.215 Y168.824
G01 X241.222 Y163.645
G01 X239.028 Y158.934
G01 X241.215 Y168.824
G01 X241.222 Y163.645
G01 X239.028 Y158.934
G01 X241.222 Y163.645
G01 X241.220 Y158.445
G01 X243.413 Y153.725
G01 X243.415 Y148.538
G01 X241.220 Y158.445
G01 X239.025 Y153.724
G01 X235.047 Y150.391
G01 X239.025 Y153.724
G01 X236.830 Y149.030
G01 X236.832 Y143.839
G01 X234.636 Y139.135
G01 X236.830 Y149.030
G01 X241.215 Y168.824
G01 X245.725 Y177.275
G01 X249.383 Y185.952
G01 X250.000 Y187.675
G01 X250.000 Y182.475
G01 X247.803 Y177.758
G01 X250.000 Y182.475
G01 X249.999 Y177.275
G01 X252.192 Y172.556
G01 X252.198 Y167.379
G01 X249.999 Y177.275
G01 X247.807 Y172.556
G01 X243.825 Y169.236
G01 X247.807 Y172.556
G01 X245.609 Y167.867
G01 X245.611 Y162.660
G01 X243.416 Y157.960
G01 X245.609 Y167.867
G01 X249.683 Y176.506
G01 X249.999 Y177.275
G01 X249.999 Y172.075
G01 X247.801 Y167.379
G01 X249.999 Y172.075
G01 X249.999 Y166.875
G01 X252.195 Y162.177
G01 X252.195 Y156.976
G01 X249.999 Y166.875
G01 X252.195 Y162.177
G01 X252.195 Y156.976
G01 X252.195 Y162.177
G01 X254.388 Y157.479
G01 X258.370 Y154.140
G01 X260.568 Y149.429
G01 X255.215 Y156.302
G01 X254.388 Y157.479
G01 X254.390 Y152.274
G01 X252.192 Y147.573
G01 X254.390 Y152.274
G01 X254.387 Y147.068
G01 X256.583 Y142.376
G01 X256.585 Y137.167
G01 X254.387 Y147.068
G01 X249.999 Y166.875
G01 X252.195 Y162.177
G01 X252.195 Y156.976
G01 X252.195 Y162.177
G01 X254.388 Y157.479
G01 X258.370 Y154.140
G01 X260.568 Y149.429
G01 X255.215 Y156.302
G01 X254.388 Y157.479
G01 X254.390 Y152.274
G01 X252.192 Y147.573
G01 X254.390 Y152.274
G01 X254.387 Y147.068
G01 X256.583 Y142.376
G01 X256.585 Y137.167
G01 X254.387 Y147.068
G01 X254.388 Y157.479
G01 X256.584 Y152.748
G01 X256.585 Y147.561
G01 X256.584 Y152.748
G01 X258.778 Y148.052
G01 X262.758 Y144.720
G01 X264.950 Y140.011
G01 X258.791 Y148.033
G01 X258.778 Y148.052
G01 X262.758 Y144.720
G01 X264.950 Y140.011
G01 X262.758 Y144.720
G01 X266.738 Y141.382
G01 X271.753 Y140.031
G01 X275.743 Y136.687
G01 X269.391 Y139.881
G01 X266.738 Y141.382
G01 X268.940 Y136.672
G01 X268.932 Y131.477
G01 X268.940 Y136.672
G01 X271.127 Y131.951
G01 X275.110 Y128.620
G01 X277.307 Y123.923
G01 X271.127 Y131.951
G01 X264.100 Y140.452
G01 X258.778 Y148.052
G01 X258.783 Y142.859
G01 X256.584 Y138.144
G01 X258.783 Y142.859
G01 X258.779 Y137.668
G01 X260.974 Y132.963
G01 X260.981 Y127.767
G01 X258.779 Y137.668
G01 X256.584 Y132.960
G01 X252.612 Y129.603
G01 X256.584 Y132.960
G01 X254.396 Y128.254
G01 X254.393 Y123.051
G01 X252.198 Y118.343
G01 X254.396 Y128.254
G01 X258.779 Y137.668
G01 X258.783 Y132.478
G01 X256.582 Y127.752
G01 X258.783 Y132.478
G01 X258.777 Y127.263
G01 X260.972 Y122.572
G01 X260.979 Y117.379
G01 X258.777 Y127.263
G01 X260.972 Y122.572
G01 X260.979 Y117.379
G01 X260.972 Y122.572
G01 X263.178 Y117.855
G01 X267.148 Y114.506
G01 X269.341 Y109.803
G01 X263.178 Y117.855
G01 X263.169 Y112.655
G01 X260.973 Y107.948
G01 X263.169 Y112.655
G01 X263.179 Y107.458
G01 X265.368 Y102.750
G01 X265.370 Y97.573
G01 X263.179 Y107.458
G01 X258.777 Y127.263
G01 X252.132 Y154.422
G01 X249.999 Y166.875
G01 X252.195 Y162.177
G01 X252.195 Y156.976
G01 X252.195 Y162.177
G01 X254.388 Y157.479
G01 X258.370 Y154.140
G01 X260.568 Y149.429
G01 X255.215 Y156.302
G01 X254.388 Y157.479
G01 X254.390 Y152.274
G01 X252.192 Y147.573
G01 X254.390 Y152.274
G01 X254.387 Y147.068
G01 X256.583 Y142.376
G01 X256.585 Y137.167
G01 X254.387 Y147.068
G01 X254.388 Y157.479
G01 X256.584 Y152.748
G01 X256.585 Y147.561
G01 X256.584 Y152.748
G01 X258.778 Y148.052
G01 X262.758 Y144.720
G01 X264.950 Y140.011
G01 X258.791 Y148.033
G01 X258.778 Y148.052
G01 X262.758 Y144.720
G01 X264.950 Y140.011
G01 X262.758 Y144.720
G01 X266.738 Y141.382
G01 X271.753 Y140.031
G01 X275.743 Y136.687
G01 X269.391 Y139.881
G01 X266.738 Y141.382
G01 X268.940 Y136.672
G01 X268.932 Y131.477
G01 X268.940 Y136.672
G01 X271.127 Y131.951
G01 X275.110 Y128.620
G01 X277.307 Y123.923
G01 X271.127 Y131.951
G01 X264.100 Y140.452
G01 X258.778 Y148.052
G01 X258.783 Y142.859
G01 X256.584 Y138.144
G01 X258.783 Y142.859
G01 X258.779 Y137.668
G01 X260.974 Y132.963
G01 X260.981 Y127.767
G01 X258.779 Y137.668
G01 X256.584 Y132.960
G01 X252.612 Y129.603
G01 X256.584 Y132.960
G01 X254.396 Y128.254
G01 X254.393 Y123.051
G01 X252.198 Y118.343
G01 X254.396 Y128.254
G01 X258.779 Y137.668
G01 X258.783 Y132.478
G01 X256.582 Y127.752
G01 X258.783 Y132.478
G01 X258.777 Y127.263
G01 X260.972 Y122.572
G01 X260.979 Y117.379
G01 X258.777 Y127.263
G01 X260.972 Y122.572
G01 X260.979 Y117.379
G01 X260.972 Y122.572
G01 X263.178 Y117.855
G01 X267.148 Y114.506
G01 X269.341 Y109.803
G01 X263.178 Y117.855
G01 X263.169 Y112.655
G01 X260.973 Y107.948
G01 X263.169 Y112.655
G01 X263.179 Y107.458
G01 X265.368 Y102.750
G01 X265.370 Y97.573
G01 X263.179 Y107.458
G01 X258.777 Y127.263
G01 X258.778 Y148.052
G01 X260.981 Y143.339
G01 X260.974 Y138.137
G01 X260.981 Y143.339
G01 X263.169 Y138.626
G01 X267.147 Y135.300
G01 X269.344 Y130.582
G01 X263.169 Y138.626
G01 X263.168 Y133.441
G01 X260.980 Y128.721
G01 X263.168 Y133.441
G01 X263.176 Y128.236
G01 X265.364 Y123.530
G01 X265.367 Y118.344
G01 X263.176 Y128.236
G01 X263.169 Y138.626
G01 X265.362 Y133.937
G01 X265.371 Y128.745
G01 X265.362 Y133.937
G01 X267.562 Y129.220
G01 X271.548 Y125.882
G01 X273.735 Y121.168
G01 X267.562 Y129.220
G01 X271.548 Y125.882
G01 X273.735 Y121.168
G01 X271.548 Y125.882
G01 X275.520 Y122.530
G01 X280.538 Y121.196
G01 X284.516 Y117.858
G01 X276.848 Y121.780
G01 X275.520 Y122.530
G01 X277.716 Y117.825
G01 X277.714 Y112.643
G01 X277.716 Y117.825
G01 X279.916 Y113.131
G01 X283.895 Y109.789
G01 X286.094 Y105.077
G01 X279.916 Y113.131
G01 X271.095 Y124.171
G01 X267.562 Y129.220
G01 X271.548 Y125.882
G01 X273.735 Y121.168
G01 X271.548 Y125.882
G01 X275.520 Y122.530
G01 X280.538 Y121.196
G01 X284.516 Y117.858
G01 X276.848 Y121.780
G01 X275.520 Y122.530
G01 X277.716 Y117.825
G01 X277.714 Y112.643
G01 X277.716 Y117.825
G01 X279.916 Y113.131
G01 X283.895 Y109.789
G01 X286.094 Y105.077
G01 X279.916 Y113.131
G01 X275.520 Y122.530
G01 X279.494 Y119.209
G01 X281.701 Y114.483
G01 X279.494 Y119.209
G01 X283.479 Y115.865
G01 X288.504 Y114.515
G01 X292.471 Y111.176
G01 X284.014 Y115.561
G01 X283.479 Y115.865
G01 X288.504 Y114.515
G01 X292.471 Y111.176
G01 X288.504 Y114.515
G01 X293.511 Y113.177
G01 X298.627 Y114.087
G01 X303.649 Y112.737
G01 X295.933 Y113.003
G01 X293.511 Y113.177
G01 X297.495 Y109.828
G01 X299.684 Y105.133
G01 X297.495 Y109.828
G01 X301.471 Y106.502
G01 X306.496 Y105.153
G01 X310.478 Y101.816
G01 X301.471 Y106.502
G01 X292.335 Y110.831
G01 X283.753 Y115.695
G01 X283.479 Y115.865
G01 X285.673 Y111.159
G01 X285.677 Y105.953
G01 X285.673 Y111.159
G01 X287.868 Y106.435
G01 X291.853 Y103.122
G01 X294.053 Y98.396
G01 X287.868 Y106.435
G01 X287.871 Y101.245
G01 X285.671 Y96.541
G01 X287.871 Y101.245
G01 X287.865 Y96.064
G01 X290.068 Y91.357
G01 X290.061 Y86.151
G01 X287.865 Y96.064
G01 X287.868 Y106.435
G01 X290.059 Y101.741
G01 X290.066 Y96.544
G01 X290.059 Y101.741
G01 X292.268 Y97.032
G01 X296.234 Y93.694
G01 X298.436 Y88.977
G01 X292.268 Y97.032
G01 X296.234 Y93.694
G01 X298.436 Y88.977
G01 X296.234 Y93.694
G01 X300.221 Y90.363
G01 X305.231 Y89.011
G01 X309.221 Y85.670
G01 X300.221 Y90.363
G01 X302.408 Y85.654
G01 X302.412 Y80.441
G01 X302.408 Y85.654
G01 X304.623 Y80.930
G01 X308.585 Y77.608
G01 X310.782 Y72.890
G01 X304.623 Y80.930
G01 X292.268 Y97.032
G01 X281.568 Y109.164
G01 X272.169 Y121.944
G01 X267.562 Y129.220
G01 X267.560 Y124.018
G01 X265.371 Y119.326
G01 X267.560 Y124.018
G01 X267.563 Y118.820
G01 X269.756 Y114.129
G01 X269.764 Y108.928
G01 X267.563 Y118.820
G01 X265.365 Y114.116
G01 X261.384 Y110.790
G01 X265.365 Y114.116
G01 X263.168 Y109.415
G01 X263.169 Y104.219
G01 X260.975 Y99.500
G01 X263.168 Y109.415
G01 X267.563 Y118.820
G01 X267.565 Y113.626
G01 X265.365 Y108.934
G01 X267.565 Y113.626
G01 X267.557 Y108.435
G01 X269.762 Y103.729
G01 X269.755 Y98.533
G01 X267.557 Y108.435
G01 X269.762 Y103.729
G01 X269.755 Y98.533
G01 X269.762 Y103.729
G01 X271.954 Y99.013
G01 X275.932 Y95.689
G01 X278.133 Y90.969
G01 X271.954 Y99.013
G01 X271.958 Y93.836
G01 X269.755 Y89.133
G01 X271.958 Y93.836
G01 X271.949 Y88.636
G01 X274.149 Y83.921
G01 X274.150 Y78.744
G01 X271.949 Y88.636
G01 X267.557 Y108.435
G01 X265.370 Y103.730
G01 X261.392 Y100.383
G01 X265.370 Y103.730
G01 X263.167 Y99.023
G01 X263.180 Y93.830
G01 X260.971 Y89.124
G01 X263.167 Y99.023
G01 X259.192 Y95.674
G01 X254.172 Y94.331
G01 X259.192 Y95.674
G01 X255.219 Y92.336
G01 X253.019 Y87.628
G01 X249.038 Y84.303
G01 X255.219 Y92.336
G01 X262.486 Y98.410
G01 X263.167 Y99.023
G01 X260.977 Y94.312
G01 X257.000 Y90.979
G01 X260.977 Y94.312
G01 X258.781 Y89.615
G01 X258.783 Y84.408
G01 X256.593 Y79.703
G01 X258.781 Y89.615
G01 X258.783 Y84.408
G01 X256.593 Y79.703
G01 X258.783 Y84.408
G01 X258.784 Y79.226
G01 X260.981 Y74.518
G01 X260.980 Y69.308
G01 X258.784 Y79.226
G01 X256.582 Y74.523
G01 X252.610 Y71.169
G01 X256.582 Y74.523
G01 X254.396 Y69.804
G01 X254.393 Y64.602
G01 X252.204 Y59.913
G01 X254.396 Y69.804
G01 X258.781 Y89.615
G01 X265.309 Y103.014
G01 X267.557 Y108.435
G01 X267.560 Y103.247
G01 X265.365 Y98.527
G01 X267.560 Y103.247
G01 X267.565 Y98.062
G01 X269.763 Y93.342
G01 X269.761 Y88.152
G01 X267.565 Y98.062
G01 X265.368 Y93.352
G01 X261.394 Y90.005
G01 X265.368 Y93.352
G01 X263.179 Y88.637
G01 X263.167 Y83.445
G01 X260.975 Y78.726
G01 X263.179 Y88.637
G01 X267.565 Y98.062
G01 X267.562 Y92.853
G01 X265.372 Y88.153
G01 X267.562 Y92.853
G01 X267.566 Y87.673
G01 X269.750 Y82.964
G01 X269.755 Y77.754
G01 X267.566 Y87.673
G01 X269.750 Y82.964
G01 X269.755 Y77.754
G01 X269.750 Y82.964
G01 X271.947 Y78.247
G01 X275.924 Y74.909
G01 X278.132 Y70.187
G01 X271.947 Y78.247
G01 X271.945 Y73.056
G01 X269.749 Y68.345
G01 X271.945 Y73.056
G01 X271.960 Y67.869
G01 X274.141 Y63.153
G01 X274.149 Y57.962
G01 X271.960 Y67.869
G01 X267.566 Y87.673
G01 X269.750 Y82.964
G01 X269.755 Y77.754
G01 X269.750 Y82.964
G01 X271.947 Y78.247
G01 X275.924 Y74.909
G01 X278.132 Y70.187
G01 X271.947 Y78.247
G01 X271.945 Y73.056
G01 X269.749 Y68.345
G01 X271.945 Y73.056
G01 X271.960 Y67.869
G01 X274.141 Y63.153
G01 X274.149 Y57.962
G01 X271.960 Y67.869
G01 X271.947 Y78.247
G01 X274.146 Y73.544
G01 X274.154 Y68.349
G01 X274.146 Y73.544
G01 X276.343 Y68.830
G01 X280.322 Y65.500
G01 X282.519 Y60.774
G01 X276.343 Y68.830
G01 X280.322 Y65.500
G01 X282.519 Y60.774
G01 X280.322 Y65.500
G01 X284.297 Y62.155
G01 X289.314 Y60.817
G01 X293.297 Y57.458
G01 X284.297 Y62.155
G01 X286.490 Y57.452
G01 X286.496 Y52.239
G01 X286.490 Y57.452
G01 X288.694 Y52.734
G01 X292.673 Y49.388
G01 X294.875 Y44.697
G01 X288.694 Y52.734
G01 X276.393 Y68.759
G01 X276.343 Y68.830
G01 X276.339 Y63.627
G01 X274.145 Y58.919
G01 X276.339 Y63.627
G01 X276.351 Y58.429
G01 X278.537 Y53.739
G01 X278.533 Y48.536
G01 X276.351 Y58.429
G01 X274.143 Y53.729
G01 X270.167 Y50.391
G01 X274.143 Y53.729
G01 X271.952 Y49.020
G01 X271.954 Y43.841
G01 X269.752 Y39.123
G01 X271.952 Y49.020
G01 X276.351 Y58.429
G01 X276.341 Y53.255
G01 X274.147 Y48.542
G01 X276.341 Y53.255
G01 X276.338 Y48.060
G01 X278.532 Y43.335
G01 X278.537 Y38.138
G01 X276.338 Y48.060
G01 X278.532 Y43.335
G01 X278.537 Y38.138
G01 X278.532 Y43.335
G01 X280.735 Y38.623
G01 X284.715 Y35.288
G01 X286.918 Y30.584
G01 X280.735 Y38.623
G01 X280.737 Y33.445
G01 X278.544 Y28.733
G01 X280.737 Y33.445
G01 X280.729 Y28.244
G01 X282.930 Y23.532
G01 X282.926 Y18.353
G01 X280.729 Y28.244
G01 X276.338 Y48.060
G01 X267.566 Y87.673
G01 X257.551 Y121.517
