;  Created by Sandify
;  https://sandify.org
;  Version: 0.2.6
;
;  Machine type: Rectangular
;    Min X (mm): 0
;    Max X (mm): 500
;    Min Y (mm): 0
;    Max Y (mm): 500
;  Content type: shape
;  Layer:
;    Shape: FileImport
;    Name: goulet_loveballoon_ee.thr
;    From file:: goulet_loveballoon_ee.thr
;    Aspect Ratio: true
;    Comments: 
;    Visible: true
;    Initial width: 14
;    Initial height: 14
;    X offset: 0
;    Y offset: 34
;    Rotate (degrees): 0
;    Reverse path: false
;    Fine tuning:
;      Connect to next layer: line
;      Draw portion of path (%): 100
;      Backtrack at end (%): 0
;      Rotate starting point (%): 0
;  Reverse export path: false
;
; File name: 'loveballoon'
; File type: gcode
;

G01 X0.000 Y283.999
G01 X0.000 Y323.081
G01 X0.644 Y322.987
G01 X4.375 Y322.605
G01 X23.353 Y319.367
G01 X38.400 Y315.417
G01 X62.696 Y307.078
G01 X74.938 Y302.289
G01 X75.417 Y301.816
G01 X75.897 Y301.345
G01 X78.056 Y298.858
G01 X79.393 Y296.236
G01 X81.187 Y291.500
G01 X85.944 Y286.821
G01 X88.280 Y286.231
G01 X92.547 Y285.952
G01 X94.917 Y287.381
G01 X96.318 Y289.765
G01 X96.260 Y293.528
G01 X93.377 Y297.281
G01 X93.374 Y299.177
G01 X96.027 Y300.366
G01 X99.011 Y303.003
G01 X96.027 Y300.366
G01 X93.374 Y299.177
G01 X93.377 Y297.281
G01 X96.260 Y293.528
G01 X96.318 Y289.765
G01 X94.917 Y287.381
G01 X92.547 Y285.952
G01 X88.280 Y286.231
G01 X85.944 Y286.821
G01 X81.187 Y291.500
G01 X79.393 Y296.236
G01 X78.056 Y298.858
G01 X75.897 Y301.345
G01 X75.417 Y301.816
G01 X75.889 Y302.296
G01 X79.443 Y304.461
G01 X85.898 Y310.196
G01 X88.956 Y311.113
G01 X89.468 Y311.407
G01 X96.573 Y311.000
G01 X97.013 Y311.475
G01 X97.498 Y311.010
G01 X99.946 Y303.953
G01 X99.460 Y303.482
G01 X99.011 Y303.003
G01 X99.460 Y303.482
G01 X99.929 Y303.009
G01 X100.574 Y301.653
G01 X100.789 Y294.238
G01 X101.018 Y290.753
G01 X100.751 Y290.257
G01 X100.268 Y282.923
G01 X100.165 Y279.413
G01 X101.504 Y274.184
G01 X104.754 Y267.209
G01 X104.824 Y267.068
G01 X106.956 Y263.433
G01 X111.724 Y258.766
G01 X118.441 Y255.339
G01 X123.551 Y254.632
G01 X124.053 Y254.177
G01 X123.558 Y253.686
G01 X122.162 Y251.316
G01 X122.686 Y248.023
G01 X125.529 Y245.210
G01 X126.959 Y244.749
G01 X127.437 Y244.293
G01 X126.967 Y243.814
G01 X125.787 Y242.257
G01 X124.191 Y240.005
G01 X124.223 Y236.240
G01 X127.067 Y233.424
G01 X127.988 Y233.303
G01 X128.505 Y232.975
G01 X131.766 Y233.620
G01 X135.090 Y234.928
G01 X136.947 Y236.827
G01 X140.672 Y244.426
G01 X141.601 Y244.431
G01 X140.672 Y244.426
G01 X136.947 Y236.827
G01 X135.090 Y234.928
G01 X131.766 Y233.620
G01 X128.505 Y232.975
G01 X127.988 Y233.303
G01 X127.067 Y233.424
G01 X124.223 Y236.240
G01 X124.191 Y240.005
G01 X125.787 Y242.257
G01 X126.967 Y243.814
G01 X127.437 Y244.293
G01 X126.959 Y244.749
G01 X125.529 Y245.210
G01 X122.686 Y248.023
G01 X122.162 Y251.316
G01 X123.558 Y253.686
G01 X124.053 Y254.177
G01 X124.518 Y254.645
G01 X130.649 Y255.184
G01 X131.123 Y254.719
G01 X131.964 Y254.526
G01 X137.504 Y249.965
G01 X142.520 Y246.330
G01 X143.018 Y245.867
G01 X142.521 Y245.387
G01 X142.062 Y244.905
G01 X141.601 Y244.431
G01 X142.062 Y244.905
G01 X142.530 Y244.441
G01 X141.312 Y239.183
G01 X137.215 Y231.040
G01 X136.789 Y230.384
G01 X133.306 Y225.470
G01 X133.325 Y223.583
G01 X143.187 Y222.117
G01 X147.545 Y221.029
G01 X153.585 Y218.012
G01 X155.888 Y216.983
G01 X160.556 Y213.444
G01 X164.595 Y210.681
G01 X165.082 Y210.224
G01 X164.617 Y209.745
G01 X164.614 Y208.792
G01 X162.758 Y208.952
G01 X158.619 Y211.320
G01 X155.921 Y213.205
G01 X150.902 Y215.868
G01 X148.016 Y216.642
G01 X142.780 Y216.299
G01 X140.425 Y215.773
G01 X137.657 Y214.657
G01 X135.309 Y212.269
G01 X134.580 Y210.279
G01 X134.265 Y209.473
G01 X133.953 Y207.070
G01 X134.787 Y205.144
G01 X134.938 Y204.246
G01 X138.270 Y200.985
G01 X144.435 Y198.685
G01 X144.908 Y198.213
G01 X144.436 Y197.740
G01 X143.235 Y196.169
G01 X141.195 Y191.570
G01 X141.230 Y187.789
G01 X143.148 Y184.017
G01 X146.436 Y182.506
G01 X150.271 Y181.745
G01 X152.627 Y182.244
G01 X148.793 Y172.801
G01 X148.525 Y166.629
G01 X150.477 Y161.929
G01 X154.274 Y158.181
G01 X157.592 Y156.804
G01 X161.363 Y156.826
G01 X164.231 Y157.657
G01 X173.063 Y161.337
G01 X174.543 Y161.694
G01 X175.235 Y156.540
G01 X177.339 Y150.327
G01 X182.726 Y144.306
G01 X182.727 Y144.304
G01 X177.341 Y150.325
G01 X177.339 Y150.327
G01 X175.235 Y156.540
G01 X174.543 Y161.694
G01 X173.063 Y161.337
G01 X164.231 Y157.657
G01 X161.363 Y156.826
G01 X157.592 Y156.804
G01 X154.274 Y158.181
G01 X150.477 Y161.929
G01 X148.525 Y166.629
G01 X148.793 Y172.801
G01 X152.627 Y182.244
G01 X150.271 Y181.745
G01 X146.436 Y182.506
G01 X143.148 Y184.017
G01 X141.230 Y187.789
G01 X141.195 Y191.570
G01 X143.235 Y196.169
G01 X144.436 Y197.740
G01 X144.908 Y198.213
G01 X144.435 Y198.685
G01 X138.270 Y200.985
G01 X134.938 Y204.246
G01 X134.787 Y205.144
G01 X133.953 Y207.070
G01 X134.265 Y209.473
G01 X134.580 Y210.279
G01 X135.309 Y212.269
G01 X137.657 Y214.657
G01 X140.425 Y215.773
G01 X142.780 Y216.299
G01 X148.016 Y216.642
G01 X150.902 Y215.868
G01 X155.921 Y213.205
G01 X158.619 Y211.320
G01 X162.758 Y208.952
G01 X164.614 Y208.792
G01 X166.049 Y208.339
G01 X166.513 Y208.818
G01 X166.049 Y208.339
G01 X164.614 Y208.792
G01 X164.617 Y209.745
G01 X165.082 Y210.224
G01 X166.015 Y210.220
G01 X166.044 Y209.288
G01 X166.513 Y208.818
G01 X166.983 Y208.350
G01 X167.931 Y208.352
G01 X168.404 Y207.893
G01 X167.941 Y207.415
G01 X164.884 Y203.004
G01 X161.638 Y191.254
G01 X161.042 Y188.929
G01 X160.578 Y188.452
G01 X160.114 Y187.976
G01 X156.669 Y184.873
G01 X152.627 Y182.244
G01 X156.669 Y184.873
G01 X160.114 Y187.976
G01 X160.578 Y188.452
G01 X161.067 Y187.997
G01 X163.025 Y188.764
G01 X170.028 Y190.238
G01 X177.993 Y191.200
G01 X182.310 Y192.321
G01 X190.711 Y196.325
G01 X182.310 Y192.321
G01 X177.993 Y191.200
G01 X170.028 Y190.238
G01 X163.025 Y188.764
G01 X161.067 Y187.997
G01 X160.578 Y188.452
G01 X161.042 Y188.929
G01 X161.638 Y191.254
G01 X164.884 Y203.004
G01 X167.941 Y207.415
G01 X168.404 Y207.893
G01 X168.888 Y207.429
G01 X173.615 Y204.450
G01 X177.766 Y202.104
G01 X182.738 Y199.744
G01 X183.535 Y199.395
G01 X189.110 Y198.131
G01 X191.170 Y197.748
G01 X191.169 Y196.776
G01 X190.711 Y196.325
G01 X191.169 Y196.776
G01 X191.653 Y196.325
G01 X191.912 Y190.664
G01 X192.480 Y188.388
G01 X192.968 Y187.283
G01 X196.077 Y181.353
G01 X197.287 Y179.267
G01 X199.166 Y176.327
G01 X199.878 Y176.109
G01 X200.364 Y175.654
G01 X202.792 Y167.631
G01 X203.271 Y167.174
G01 X202.803 Y166.683
G01 X202.652 Y160.088
G01 X201.825 Y156.359
G01 X201.641 Y155.792
G01 X198.277 Y148.721
G01 X195.936 Y146.325
G01 X192.643 Y144.896
G01 X191.700 Y143.923
G01 X191.716 Y142.969
G01 X198.316 Y139.184
G01 X205.147 Y135.709
G01 X209.693 Y133.628
G01 X212.691 Y132.064
G01 X217.841 Y130.712
G01 X224.898 Y130.109
G01 X224.900 Y129.151
G01 X221.858 Y124.732
G01 X218.758 Y116.402
G01 X217.581 Y106.440
G01 X218.046 Y105.965
G01 X217.590 Y105.478
G01 X217.606 Y104.550
G01 X218.078 Y104.075
G01 X217.601 Y103.591
G01 X215.343 Y94.610
G01 X214.862 Y94.129
G01 X214.398 Y93.646
G01 X206.480 Y84.609
G01 X206.001 Y84.141
G01 X205.533 Y83.635
G01 X199.436 Y80.286
G01 X198.966 Y79.790
G01 X198.480 Y80.273
G01 X192.835 Y79.276
G01 X185.635 Y81.388
G01 X184.793 Y81.547
G01 X180.501 Y85.760
G01 X180.309 Y86.606
G01 X179.717 Y87.745
G01 X178.568 Y90.472
G01 X178.799 Y95.691
G01 X179.144 Y97.507
G01 X182.456 Y106.170
G01 X184.038 Y109.389
G01 X176.412 Y111.055
G01 X172.724 Y112.249
G01 X169.356 Y113.495
G01 X164.119 Y118.631
G01 X162.677 Y121.927
G01 X162.603 Y128.520
G01 X164.439 Y133.271
G01 X170.049 Y138.996
G01 X170.855 Y139.192
G01 X172.524 Y140.237
G01 X178.059 Y142.161
G01 X180.846 Y142.611
G01 X182.742 Y143.365
G01 X180.846 Y142.611
G01 X178.059 Y142.161
G01 X172.524 Y140.237
G01 X170.855 Y139.192
G01 X170.049 Y138.996
G01 X164.439 Y133.271
G01 X162.603 Y128.520
G01 X162.677 Y121.927
G01 X164.119 Y118.631
G01 X169.356 Y113.495
G01 X172.724 Y112.249
G01 X176.412 Y111.055
G01 X184.038 Y109.389
G01 X182.456 Y106.170
G01 X179.144 Y97.507
G01 X178.799 Y95.691
G01 X178.568 Y90.472
G01 X179.717 Y87.745
G01 X180.309 Y86.606
G01 X180.501 Y85.760
G01 X184.793 Y81.547
G01 X185.635 Y81.388
G01 X192.835 Y79.276
G01 X198.480 Y80.273
G01 X198.966 Y79.790
G01 X198.503 Y79.329
G01 X194.693 Y76.592
G01 X193.814 Y76.466
G01 X193.820 Y74.580
G01 X195.885 Y71.796
G01 X196.083 Y71.240
G01 X197.698 Y66.120
G01 X201.991 Y61.910
G01 X206.701 Y61.015
G01 X208.131 Y61.490
G01 X210.903 Y65.287
G01 X210.552 Y67.698
G01 X208.487 Y72.363
G01 X211.295 Y73.326
G01 X214.107 Y77.126
G01 X213.586 Y80.416
G01 X211.691 Y82.296
G01 X210.239 Y82.577
G01 X206.487 Y83.676
G01 X210.239 Y82.577
G01 X211.691 Y82.296
G01 X213.586 Y80.416
G01 X214.107 Y77.126
G01 X211.295 Y73.326
G01 X208.487 Y72.363
G01 X210.552 Y67.698
G01 X210.903 Y65.287
G01 X208.131 Y61.490
G01 X206.701 Y61.015
G01 X201.991 Y61.910
G01 X197.698 Y66.120
G01 X196.083 Y71.240
G01 X195.885 Y71.796
G01 X193.820 Y74.580
G01 X193.814 Y76.466
G01 X194.693 Y76.592
G01 X198.503 Y79.329
G01 X198.966 Y79.790
G01 X199.436 Y80.286
G01 X205.533 Y83.635
G01 X206.001 Y84.141
G01 X206.487 Y83.676
G01 X206.001 Y84.141
G01 X206.480 Y84.609
G01 X214.398 Y93.646
G01 X214.862 Y94.129
G01 X215.344 Y93.649
G01 X216.062 Y89.433
G01 X222.890 Y74.840
G01 X223.628 Y68.714
G01 X224.098 Y68.269
G01 X223.625 Y67.798
G01 X219.897 Y63.021
G01 X220.288 Y57.778
G01 X220.451 Y56.909
G01 X223.763 Y53.614
G01 X225.247 Y53.309
G01 X231.341 Y51.824
G01 X230.163 Y47.531
G01 X229.534 Y45.195
G01 X229.899 Y40.880
G01 X230.046 Y39.989
G01 X233.877 Y36.269
G01 X239.051 Y35.846
G01 X239.587 Y36.174
G01 X244.226 Y38.263
G01 X247.038 Y41.118
G01 X248.682 Y44.114
G01 X249.069 Y44.812
G01 X250.049 Y48.240
G01 X250.443 Y51.985
G01 X251.418 Y59.129
G01 X251.704 Y60.006
G01 X252.949 Y62.435
G01 X252.924 Y64.289
G01 X249.167 Y64.482
G01 X246.371 Y65.315
G01 X245.027 Y65.867
G01 X235.402 Y70.263
G01 X227.395 Y69.694
G01 X235.402 Y70.263
G01 X245.027 Y65.867
G01 X246.371 Y65.315
G01 X249.167 Y64.482
G01 X252.924 Y64.289
G01 X252.949 Y62.435
G01 X251.704 Y60.006
G01 X251.418 Y59.129
G01 X250.443 Y51.985
G01 X250.049 Y48.240
G01 X249.069 Y44.812
G01 X248.682 Y44.114
G01 X247.038 Y41.118
G01 X244.226 Y38.263
G01 X239.587 Y36.174
G01 X239.051 Y35.846
G01 X233.877 Y36.269
G01 X230.046 Y39.989
G01 X229.899 Y40.880
G01 X229.534 Y45.195
G01 X230.163 Y47.531
G01 X231.341 Y51.824
G01 X225.247 Y53.309
G01 X223.763 Y53.614
G01 X220.451 Y56.909
G01 X220.288 Y57.778
G01 X219.897 Y63.021
G01 X223.625 Y67.798
G01 X224.098 Y68.269
G01 X224.570 Y68.742
G01 X225.508 Y68.739
G01 X226.441 Y69.691
G01 X226.904 Y70.169
G01 X227.395 Y69.694
G01 X226.904 Y70.169
G01 X227.387 Y70.645
G01 X227.839 Y72.076
G01 X238.523 Y75.940
G01 X239.037 Y76.144
G01 X240.913 Y77.104
G01 X242.888 Y77.903
G01 X248.499 Y83.631
G01 X250.061 Y86.845
G01 X250.609 Y87.966
G01 X252.178 Y93.087
G01 X252.146 Y95.922
G01 X250.203 Y100.635
G01 X252.146 Y95.922
G01 X252.178 Y93.087
G01 X250.609 Y87.966
G01 X250.061 Y86.845
G01 X248.499 Y83.631
G01 X242.888 Y77.903
G01 X240.913 Y77.104
G01 X239.037 Y76.144
G01 X228.374 Y72.253
G01 X227.839 Y72.076
G01 X227.387 Y70.645
G01 X226.904 Y70.169
G01 X226.441 Y69.691
G01 X225.508 Y68.739
G01 X224.570 Y68.742
G01 X224.098 Y68.269
G01 X223.628 Y68.714
G01 X222.890 Y74.840
G01 X216.062 Y89.433
G01 X215.344 Y93.649
G01 X214.862 Y94.129
G01 X215.343 Y94.610
G01 X217.601 Y103.591
G01 X218.078 Y104.075
G01 X218.534 Y104.563
G01 X219.001 Y105.015
G01 X218.534 Y104.563
G01 X218.078 Y104.075
G01 X217.606 Y104.550
G01 X217.590 Y105.478
G01 X218.046 Y105.965
G01 X219.002 Y105.974
G01 X219.471 Y105.502
G01 X219.001 Y105.015
G01 X219.471 Y105.502
G01 X219.939 Y105.990
G01 X220.168 Y106.697
G01 X223.639 Y108.979
G01 X227.460 Y109.822
G01 X230.292 Y108.916
G01 X232.212 Y107.057
G01 X234.650 Y98.118
G01 X235.604 Y98.112
G01 X239.021 Y100.298
G01 X242.626 Y102.430
G01 X247.351 Y102.474
G01 X249.253 Y101.547
G01 X249.727 Y101.090
G01 X250.203 Y100.635
G01 X249.727 Y101.090
G01 X250.202 Y101.580
G01 X250.656 Y102.036
G01 X251.132 Y101.584
G01 X256.495 Y98.544
G01 X264.378 Y94.951
G01 X266.327 Y94.196
G01 X266.790 Y93.709
G01 X266.331 Y93.248
G01 X260.948 Y87.324
G01 X259.084 Y84.532
G01 X255.644 Y76.597
G01 X256.052 Y69.500
G01 X257.163 Y65.753
G01 X263.363 Y59.698
G01 X265.351 Y58.948
G01 X266.167 Y58.619
G01 X271.888 Y56.958
G01 X280.380 Y57.973
G01 X280.858 Y57.507
G01 X280.392 Y57.021
G01 X275.102 Y52.924
G01 X266.717 Y49.956
G01 X265.314 Y49.474
G01 X262.526 Y48.363
G01 X257.400 Y43.104
G01 X255.270 Y37.866
G01 X254.676 Y32.709
G01 X255.937 Y29.304
G01 X256.136 Y28.469
G01 X260.423 Y24.264
G01 X261.849 Y23.800
G01 X264.665 Y23.838
G01 X266.037 Y24.445
G01 X266.597 Y24.656
G01 X271.102 Y26.950
G01 X273.596 Y29.100
G01 X275.470 Y29.140
G01 X276.100 Y27.761
G01 X276.285 Y27.217
G01 X278.848 Y22.104
G01 X282.192 Y18.827
G01 X285.033 Y17.916
G01 X287.852 Y17.914
G01 X291.157 Y19.397
G01 X294.878 Y23.198
G01 X296.730 Y27.934
G01 X296.660 Y34.541
G01 X295.680 Y39.236
G01 X296.612 Y39.269
G01 X297.077 Y39.751
G01 X297.550 Y39.272
G01 X300.301 Y32.644
G01 X302.414 Y26.107
G01 X302.509 Y17.595
G01 X302.016 Y17.142
G01 X302.049 Y15.259
G01 X303.944 Y15.276
G01 X305.458 Y16.478
G01 X308.194 Y17.525
G01 X313.330 Y18.915
G01 X327.184 Y19.173
G01 X334.094 Y19.570
G01 X340.601 Y21.469
G01 X342.451 Y22.486
G01 X347.733 Y25.611
G01 X351.930 Y29.913
G01 X355.922 Y38.016
G01 X357.002 Y40.815
G01 X355.922 Y38.016
G01 X351.930 Y29.913
G01 X347.733 Y25.611
G01 X342.451 Y22.486
G01 X340.601 Y21.469
G01 X334.094 Y19.570
G01 X320.174 Y18.953
G01 X313.330 Y18.915
G01 X308.194 Y17.525
G01 X305.458 Y16.478
G01 X303.944 Y15.276
G01 X302.049 Y15.259
G01 X302.016 Y17.142
G01 X302.509 Y17.595
G01 X302.414 Y26.107
G01 X300.301 Y32.644
G01 X297.550 Y39.272
G01 X297.077 Y39.751
G01 X297.075 Y40.677
G01 X297.077 Y39.751
G01 X296.612 Y39.269
G01 X295.680 Y39.236
G01 X296.660 Y34.541
G01 X296.730 Y27.934
G01 X294.878 Y23.198
G01 X291.157 Y19.397
G01 X287.852 Y17.914
G01 X285.033 Y17.916
G01 X282.192 Y18.827
G01 X278.848 Y22.104
G01 X276.285 Y27.217
G01 X276.100 Y27.761
G01 X275.470 Y29.140
G01 X273.596 Y29.100
G01 X271.102 Y26.950
G01 X266.597 Y24.656
G01 X266.037 Y24.445
G01 X264.665 Y23.838
G01 X261.849 Y23.800
G01 X260.423 Y24.264
G01 X256.136 Y28.469
G01 X255.937 Y29.304
G01 X254.676 Y32.709
G01 X255.270 Y37.866
G01 X257.400 Y43.104
G01 X262.526 Y48.363
G01 X265.314 Y49.474
G01 X266.717 Y49.956
G01 X275.102 Y52.924
G01 X280.392 Y57.021
G01 X280.858 Y57.507
G01 X281.321 Y57.995
G01 X282.726 Y58.477
G01 X283.209 Y58.017
G01 X284.030 Y55.131
G01 X285.865 Y51.126
G01 X294.235 Y40.643
G01 X294.719 Y40.197
G01 X295.187 Y39.714
G01 X295.680 Y39.236
G01 X295.187 Y39.714
G01 X294.719 Y40.197
G01 X295.185 Y40.675
G01 X296.118 Y40.672
G01 X296.580 Y41.152
G01 X297.075 Y40.677
G01 X296.580 Y41.152
G01 X296.249 Y42.621
G01 X294.138 Y50.093
G01 X294.757 Y57.163
G01 X296.229 Y62.891
G01 X296.563 Y63.712
G01 X298.215 Y67.581
G01 X304.761 Y74.276
G01 X305.608 Y74.463
G01 X306.728 Y75.054
G01 X310.399 Y76.231
G01 X316.999 Y76.278
G01 X319.462 Y75.096
G01 X320.317 Y74.902
G01 X324.610 Y70.713
G01 X324.814 Y69.857
G01 X325.380 Y68.721
G01 X326.837 Y64.558
G01 X328.092 Y54.217
G01 X327.620 Y52.802
G01 X329.075 Y53.147
G01 X337.074 Y55.520
G01 X344.126 Y56.249
G01 X337.074 Y55.520
G01 X329.075 Y53.147
G01 X327.620 Y52.802
G01 X328.092 Y54.217
G01 X326.837 Y64.558
G01 X325.380 Y68.721
G01 X324.814 Y69.857
G01 X324.610 Y70.713
G01 X320.317 Y74.902
G01 X319.462 Y75.096
G01 X316.999 Y76.278
G01 X310.399 Y76.231
G01 X306.728 Y75.054
G01 X305.608 Y74.463
G01 X304.761 Y74.276
G01 X298.215 Y67.581
G01 X296.563 Y63.712
G01 X296.229 Y62.891
G01 X294.757 Y57.163
G01 X294.138 Y50.093
G01 X296.249 Y42.621
G01 X296.580 Y41.152
G01 X296.118 Y40.672
G01 X295.185 Y40.675
G01 X294.719 Y40.197
G01 X294.235 Y40.643
G01 X285.865 Y51.126
G01 X284.030 Y55.131
G01 X283.209 Y58.017
G01 X282.726 Y58.477
G01 X283.189 Y58.934
G01 X286.849 Y61.065
G01 X292.106 Y64.242
G01 X298.660 Y70.910
G01 X300.230 Y74.117
G01 X300.775 Y75.257
G01 X306.151 Y89.831
G01 X306.602 Y91.238
G01 X311.095 Y99.829
G01 X316.245 Y105.085
G01 X317.129 Y105.228
G01 X317.663 Y105.542
G01 X317.129 Y105.228
G01 X316.245 Y105.085
G01 X311.095 Y99.829
G01 X306.602 Y91.238
G01 X306.151 Y89.831
G01 X300.775 Y75.257
G01 X300.230 Y74.117
G01 X298.660 Y70.910
G01 X292.106 Y64.242
G01 X286.849 Y61.065
G01 X283.189 Y58.934
G01 X282.726 Y58.477
G01 X281.321 Y57.995
G01 X280.858 Y57.507
G01 X280.380 Y57.973
G01 X271.888 Y56.958
G01 X266.167 Y58.619
G01 X265.351 Y58.948
G01 X263.363 Y59.698
G01 X257.163 Y65.753
G01 X256.052 Y69.500
G01 X255.644 Y76.597
G01 X259.084 Y84.532
G01 X260.948 Y87.324
G01 X266.331 Y93.248
G01 X266.790 Y93.709
G01 X266.327 Y94.196
G01 X264.378 Y94.951
G01 X256.495 Y98.544
G01 X251.132 Y101.584
G01 X250.656 Y102.036
G01 X250.183 Y102.525
G01 X247.023 Y107.765
G01 X245.371 Y111.897
G01 X245.330 Y116.625
G01 X246.508 Y120.027
G01 X246.884 Y120.790
G01 X247.615 Y122.773
G01 X253.691 Y128.994
G01 X254.538 Y129.192
G01 X255.665 Y129.754
G01 X262.195 Y131.712
G01 X265.457 Y132.396
G01 X271.127 Y132.445
G01 X279.129 Y130.551
G01 X280.159 Y130.342
G01 X282.429 Y129.589
G01 X288.824 Y125.768
G01 X300.297 Y115.265
G01 X302.800 Y113.195
G01 X310.023 Y109.108
G01 X317.642 Y106.507
G01 X318.134 Y106.021
G01 X317.663 Y105.542
G01 X318.134 Y106.021
G01 X318.596 Y105.561
G01 X319.436 Y92.835
G01 X320.867 Y84.869
G01 X321.380 Y83.492
G01 X328.384 Y70.728
G01 X336.486 Y62.796
G01 X344.569 Y58.633
G01 X345.039 Y58.147
G01 X344.568 Y57.684
G01 X344.588 Y56.744
G01 X344.126 Y56.249
G01 X344.582 Y55.794
G01 X346.472 Y55.826
G01 X346.946 Y56.294
G01 X346.472 Y55.826
G01 X344.582 Y55.794
G01 X344.126 Y56.249
G01 X344.588 Y56.744
G01 X344.568 Y57.684
G01 X345.039 Y58.147
G01 X345.988 Y58.168
G01 X346.944 Y57.244
G01 X347.419 Y56.762
G01 X346.946 Y56.294
G01 X347.419 Y56.762
G01 X347.881 Y56.313
G01 X348.221 Y55.773
G01 X349.220 Y54.717
G01 X351.208 Y53.981
G01 X354.092 Y51.164
G01 X355.526 Y47.894
G01 X355.996 Y47.414
G01 X356.490 Y46.945
G01 X356.989 Y41.765
G01 X357.486 Y41.296
G01 X357.002 Y40.815
G01 X357.486 Y41.296
G01 X357.960 Y40.817
G01 X361.946 Y37.312
G01 X364.143 Y36.624
G01 X365.562 Y37.129
G01 X367.891 Y39.514
G01 X368.128 Y40.951
G01 X368.296 Y44.698
G01 X374.434 Y45.223
G01 X377.231 Y49.047
G01 X376.241 Y52.812
G01 X373.869 Y55.147
G01 X371.889 Y55.871
G01 X370.539 Y56.540
G01 X366.258 Y56.207
G01 X364.424 Y55.985
G01 X366.258 Y56.207
G01 X370.539 Y56.540
G01 X371.889 Y55.871
G01 X373.869 Y55.147
G01 X376.241 Y52.812
G01 X377.231 Y49.047
G01 X374.434 Y45.223
G01 X368.296 Y44.698
G01 X368.128 Y40.951
G01 X367.891 Y39.514
G01 X365.562 Y37.129
G01 X364.143 Y36.624
G01 X361.946 Y37.312
G01 X357.960 Y40.817
G01 X357.486 Y41.296
G01 X356.989 Y41.765
G01 X356.490 Y46.945
G01 X355.996 Y47.414
G01 X356.462 Y47.892
G01 X357.176 Y48.138
G01 X358.121 Y51.694
G01 X358.265 Y56.403
G01 X358.121 Y51.694
G01 X357.176 Y48.138
G01 X356.462 Y47.892
G01 X355.996 Y47.414
G01 X355.526 Y47.894
G01 X354.092 Y51.164
G01 X351.208 Y53.981
G01 X349.220 Y54.717
G01 X348.221 Y55.773
G01 X347.881 Y56.313
G01 X347.419 Y56.762
G01 X347.890 Y57.231
G01 X358.265 Y56.403
G01 X360.160 Y56.420
G01 X360.622 Y56.916
G01 X361.103 Y56.450
G01 X361.121 Y55.485
G01 X363.006 Y55.513
G01 X363.484 Y55.985
G01 X363.937 Y56.445
G01 X364.424 Y55.985
G01 X363.937 Y56.445
G01 X363.930 Y57.421
G01 X363.937 Y56.445
G01 X363.484 Y55.985
G01 X363.006 Y55.513
G01 X361.121 Y55.485
G01 X361.103 Y56.450
G01 X360.622 Y56.916
G01 X361.097 Y57.382
G01 X361.570 Y57.849
G01 X363.444 Y57.882
G01 X363.930 Y57.421
G01 X363.444 Y57.882
G01 X363.914 Y58.354
G01 X367.204 Y59.808
G01 X373.296 Y65.990
G01 X374.390 Y68.753
G01 X376.025 Y73.572
G01 X374.390 Y68.753
G01 X373.296 Y65.990
G01 X367.204 Y59.808
G01 X363.914 Y58.354
G01 X363.444 Y57.882
G01 X361.570 Y57.849
G01 X361.097 Y57.382
G01 X360.622 Y56.916
G01 X360.160 Y56.420
G01 X358.265 Y56.403
G01 X347.890 Y57.231
G01 X347.419 Y56.762
G01 X346.944 Y57.244
G01 X345.988 Y58.168
G01 X345.039 Y58.147
G01 X344.569 Y58.633
G01 X336.486 Y62.796
G01 X328.384 Y70.728
G01 X321.380 Y83.492
G01 X320.867 Y84.869
G01 X319.436 Y92.835
G01 X318.596 Y105.561
G01 X318.134 Y106.021
G01 X318.584 Y106.494
G01 X319.050 Y106.975
G01 X318.992 Y114.525
G01 X318.167 Y119.294
G01 X317.781 Y121.104
G01 X313.895 Y131.391
G01 X310.721 Y137.576
G01 X313.895 Y131.391
G01 X317.781 Y121.104
G01 X318.167 Y119.294
G01 X318.992 Y114.525
G01 X319.050 Y106.975
G01 X318.584 Y106.494
G01 X318.134 Y106.021
G01 X317.642 Y106.507
G01 X310.023 Y109.108
G01 X302.800 Y113.195
G01 X291.094 Y123.545
G01 X288.824 Y125.768
G01 X282.429 Y129.589
G01 X280.159 Y130.342
G01 X272.126 Y132.183
G01 X271.127 Y132.445
G01 X265.457 Y132.396
G01 X262.195 Y131.712
G01 X255.665 Y129.754
G01 X254.538 Y129.192
G01 X253.691 Y128.994
G01 X247.615 Y122.773
G01 X246.884 Y120.790
G01 X246.508 Y120.027
G01 X245.330 Y116.625
G01 X245.371 Y111.897
G01 X247.023 Y107.765
G01 X250.183 Y102.525
G01 X250.656 Y102.036
G01 X250.202 Y101.580
G01 X249.727 Y101.090
G01 X249.253 Y101.547
G01 X247.351 Y102.474
G01 X242.626 Y102.430
G01 X239.021 Y100.298
G01 X235.604 Y98.112
G01 X234.650 Y98.118
G01 X232.212 Y107.057
G01 X230.292 Y108.916
G01 X227.460 Y109.822
G01 X223.639 Y108.979
G01 X220.168 Y106.697
G01 X219.939 Y105.990
G01 X219.471 Y105.502
G01 X219.002 Y105.974
G01 X218.046 Y105.965
G01 X217.581 Y106.440
G01 X218.758 Y116.402
G01 X221.858 Y124.732
G01 X224.900 Y129.151
G01 X224.898 Y130.109
G01 X217.841 Y130.712
G01 X212.691 Y132.064
G01 X205.665 Y135.365
G01 X198.872 Y138.987
G01 X194.719 Y141.427
G01 X191.716 Y142.969
G01 X183.696 Y143.378
G01 X183.210 Y143.840
G01 X182.742 Y143.365
G01 X183.210 Y143.840
G01 X182.727 Y144.304
G01 X183.210 Y143.840
G01 X183.696 Y143.378
G01 X191.716 Y142.969
G01 X191.700 Y143.923
G01 X192.643 Y144.896
G01 X195.936 Y146.325
G01 X198.277 Y148.721
G01 X201.641 Y155.792
G01 X201.825 Y156.359
G01 X202.652 Y160.088
G01 X202.803 Y166.683
G01 X203.271 Y167.174
G01 X203.755 Y166.718
G01 X209.186 Y163.472
G01 X210.878 Y162.535
G01 X214.218 Y162.896
G01 X216.138 Y163.799
G01 X217.930 Y164.975
G01 X218.994 Y167.770
G01 X219.228 Y176.783
G01 X220.649 Y176.313
G01 X224.423 Y176.362
G01 X225.788 Y176.980
G01 X228.650 Y177.800
G01 X230.994 Y180.201
G01 X231.888 Y184.912
G01 X230.994 Y180.201
G01 X228.650 Y177.800
G01 X225.788 Y176.980
G01 X224.423 Y176.362
G01 X220.649 Y176.313
G01 X219.228 Y176.783
G01 X218.994 Y167.770
G01 X217.930 Y164.975
G01 X216.138 Y163.799
G01 X214.218 Y162.896
G01 X210.878 Y162.535
G01 X205.382 Y165.706
G01 X203.755 Y166.718
G01 X203.271 Y167.174
G01 X202.792 Y167.631
G01 X200.364 Y175.654
G01 X200.831 Y176.133
G01 X201.416 Y184.136
G01 X201.650 Y187.455
G01 X200.655 Y192.151
G01 X199.706 Y193.107
G01 X200.655 Y192.151
G01 X206.409 Y192.338
G01 X208.199 Y192.468
G01 X213.905 Y194.020
G01 X216.214 Y194.698
G01 X219.989 Y194.724
G01 X224.379 Y193.264
G01 X226.244 Y192.715
G01 X228.033 Y192.449
G01 X231.674 Y186.827
G01 X231.722 Y186.758
G01 X231.881 Y185.874
G01 X232.353 Y185.397
G01 X231.888 Y184.912
G01 X232.353 Y185.397
G01 X233.300 Y185.409
G01 X237.693 Y180.814
G01 X242.358 Y176.541
G01 X242.836 Y176.088
G01 X242.367 Y175.593
G01 X236.784 Y173.817
G01 X236.666 Y173.784
G01 X230.621 Y170.753
G01 X224.974 Y168.342
G01 X218.901 Y162.151
G01 X217.389 Y157.914
G01 X217.063 Y157.384
G01 X217.452 Y151.221
G01 X217.744 Y150.394
G01 X220.967 Y144.218
G01 X226.212 Y139.079
G01 X233.089 Y135.785
G01 X235.738 Y134.634
G01 X243.036 Y133.055
G01 X245.157 Y132.667
G01 X252.587 Y132.695
G01 X254.600 Y132.765
G01 X261.908 Y134.519
G01 X262.175 Y134.590
G01 X268.622 Y136.879
G01 X275.253 Y141.169
G01 X276.027 Y141.706
G01 X281.637 Y146.472
G01 X287.524 Y151.107
G01 X292.033 Y155.053
G01 X293.911 Y156.013
G01 X300.096 Y158.428
G01 X303.358 Y159.845
G01 X306.274 Y160.485
G01 X310.018 Y161.636
G01 X309.997 Y162.601
G01 X309.041 Y163.536
G01 X308.282 Y163.749
G01 X300.480 Y170.046
G01 X296.877 Y174.927
G01 X294.052 Y179.810
G01 X293.266 Y183.661
G01 X294.052 Y179.810
G01 X296.877 Y174.927
G01 X300.480 Y170.046
G01 X308.282 Y163.749
G01 X309.041 Y163.536
G01 X309.997 Y162.601
G01 X310.018 Y161.636
G01 X306.274 Y160.485
G01 X303.358 Y159.845
G01 X297.242 Y157.270
G01 X293.911 Y156.013
G01 X292.033 Y155.053
G01 X286.452 Y150.222
G01 X281.637 Y146.472
G01 X276.027 Y141.706
G01 X269.440 Y137.379
G01 X268.622 Y136.879
G01 X262.175 Y134.590
G01 X254.873 Y132.823
G01 X254.600 Y132.765
G01 X247.172 Y132.639
G01 X245.157 Y132.667
G01 X237.823 Y134.144
G01 X235.738 Y134.634
G01 X228.760 Y137.806
G01 X226.212 Y139.079
G01 X220.967 Y144.218
G01 X217.744 Y150.394
G01 X217.452 Y151.221
G01 X217.063 Y157.384
G01 X217.389 Y157.914
G01 X218.901 Y162.151
G01 X224.974 Y168.342
G01 X231.312 Y171.074
G01 X236.666 Y173.784
G01 X242.254 Y175.554
G01 X242.367 Y175.593
G01 X242.836 Y176.088
G01 X242.358 Y176.541
G01 X237.565 Y180.940
G01 X233.300 Y185.409
G01 X232.353 Y185.397
G01 X231.881 Y185.874
G01 X231.722 Y186.758
G01 X228.075 Y192.378
G01 X228.033 Y192.449
G01 X226.560 Y198.572
G01 X226.810 Y202.864
G01 X227.144 Y204.662
G01 X228.352 Y208.029
G01 X233.016 Y212.777
G01 X233.864 Y212.975
G01 X236.870 Y214.530
G01 X240.560 Y215.883
G01 X242.420 Y216.665
G01 X245.737 Y216.428
G01 X249.058 Y216.353
G01 X252.377 Y216.442
G01 X253.311 Y216.496
G01 X256.085 Y216.127
G01 X259.620 Y214.986
G01 X263.281 Y214.032
G01 X264.066 Y213.856
G01 X266.015 Y212.983
G01 X270.470 Y210.294
G01 X274.432 Y208.253
G01 X278.878 Y205.232
G01 X282.215 Y201.969
G01 X285.305 Y197.400
G01 X291.113 Y186.243
G01 X291.823 Y186.012
G01 X291.113 Y186.243
G01 X285.305 Y197.400
G01 X282.215 Y201.969
G01 X278.878 Y205.232
G01 X274.432 Y208.253
G01 X269.725 Y210.713
G01 X266.015 Y212.983
G01 X264.066 Y213.856
G01 X260.380 Y214.770
G01 X256.817 Y215.872
G01 X256.085 Y216.127
G01 X253.311 Y216.496
G01 X249.995 Y216.362
G01 X246.673 Y216.390
G01 X243.354 Y216.582
G01 X242.420 Y216.665
G01 X238.816 Y215.211
G01 X236.870 Y214.530
G01 X233.864 Y212.975
G01 X233.016 Y212.777
G01 X228.352 Y208.029
G01 X227.144 Y204.662
G01 X226.810 Y202.864
G01 X226.560 Y198.572
G01 X228.033 Y192.449
G01 X226.244 Y192.715
G01 X221.823 Y194.085
G01 X219.989 Y194.724
G01 X216.214 Y194.698
G01 X213.905 Y194.020
G01 X208.199 Y192.468
G01 X202.487 Y192.173
G01 X200.655 Y192.151
G01 X201.650 Y187.455
G01 X201.416 Y184.136
G01 X200.831 Y176.133
G01 X200.364 Y175.654
G01 X199.878 Y176.109
G01 X199.166 Y176.327
G01 X197.287 Y179.267
G01 X194.020 Y185.172
G01 X192.968 Y187.283
G01 X192.480 Y188.388
G01 X191.912 Y190.664
G01 X191.653 Y196.325
G01 X191.169 Y196.776
G01 X191.170 Y197.748
G01 X197.202 Y197.789
G01 X201.534 Y198.059
G01 X205.367 Y198.684
G01 X211.690 Y201.104
G01 X214.816 Y202.511
G01 X215.503 Y202.902
G01 X218.475 Y204.632
G01 X222.676 Y208.912
G01 X224.714 Y212.606
G01 X227.431 Y219.293
G01 X228.174 Y225.013
G01 X226.938 Y229.979
G01 X226.193 Y234.436
G01 X227.039 Y229.497
G01 X228.174 Y225.013
G01 X227.431 Y219.293
G01 X224.714 Y212.606
G01 X222.676 Y208.912
G01 X218.475 Y204.632
G01 X215.503 Y202.902
G01 X214.816 Y202.511
G01 X208.670 Y199.880
G01 X205.367 Y198.684
G01 X201.534 Y198.059
G01 X195.609 Y197.740
G01 X191.170 Y197.748
G01 X185.607 Y198.886
G01 X183.535 Y199.395
G01 X178.553 Y201.709
G01 X177.766 Y202.104
G01 X172.956 Y204.845
G01 X168.888 Y207.429
G01 X168.404 Y207.893
G01 X167.931 Y208.352
G01 X166.983 Y208.350
G01 X166.513 Y208.818
G01 X166.044 Y209.288
G01 X166.015 Y210.220
G01 X165.082 Y210.224
G01 X164.595 Y210.681
G01 X159.827 Y213.971
G01 X155.888 Y216.983
G01 X149.828 Y219.833
G01 X147.545 Y221.029
G01 X143.187 Y222.117
G01 X133.325 Y223.583
G01 X133.306 Y225.470
G01 X136.789 Y230.384
G01 X137.215 Y231.040
G01 X141.312 Y239.183
G01 X142.530 Y244.441
G01 X142.062 Y244.905
G01 X142.521 Y245.387
G01 X143.018 Y245.867
G01 X143.480 Y246.344
G01 X143.904 Y252.257
G01 X144.646 Y258.036
G01 X145.444 Y262.467
G01 X145.827 Y265.688
G01 X147.042 Y271.072
G01 X147.782 Y273.806
G01 X148.052 Y274.656
G01 X150.562 Y279.790
G01 X151.843 Y282.134
G01 X153.939 Y285.623
G01 X151.843 Y282.134
G01 X149.211 Y277.127
G01 X148.052 Y274.656
G01 X147.782 Y273.806
G01 X146.424 Y268.506
G01 X145.827 Y265.688
G01 X144.860 Y260.147
G01 X144.191 Y254.468
G01 X143.865 Y249.568
G01 X143.480 Y246.344
G01 X143.018 Y245.867
G01 X142.520 Y246.330
G01 X136.843 Y250.477
G01 X131.964 Y254.526
G01 X131.123 Y254.719
G01 X130.649 Y255.184
G01 X131.111 Y255.660
G01 X131.106 Y256.600
G01 X135.314 Y259.951
G01 X135.504 Y260.766
G01 X137.305 Y264.643
G01 X138.023 Y270.361
G01 X136.776 Y275.821
G01 X135.797 Y281.370
G01 X135.554 Y283.073
G01 X135.061 Y283.540
G01 X135.554 Y283.073
G01 X144.022 Y283.385
G01 X153.026 Y285.474
G01 X153.939 Y285.623
G01 X153.026 Y285.474
G01 X144.022 Y283.385
G01 X135.554 Y283.073
G01 X136.450 Y277.499
G01 X137.616 Y272.011
G01 X138.023 Y270.361
G01 X137.305 Y264.643
G01 X135.504 Y260.766
G01 X135.314 Y259.951
G01 X131.106 Y256.600
G01 X131.111 Y255.660
G01 X130.649 Y255.184
G01 X124.518 Y254.645
G01 X124.053 Y254.177
G01 X123.551 Y254.632
G01 X118.441 Y255.339
G01 X111.724 Y258.766
G01 X106.956 Y263.433
G01 X104.824 Y267.068
G01 X101.568 Y274.038
G01 X101.504 Y274.184
G01 X100.165 Y279.413
G01 X100.476 Y286.764
G01 X100.751 Y290.257
G01 X101.018 Y290.753
G01 X100.630 Y298.140
G01 X100.574 Y301.653
G01 X99.929 Y303.009
G01 X99.460 Y303.482
G01 X99.946 Y303.953
G01 X97.498 Y311.010
G01 X97.013 Y311.475
G01 X97.491 Y311.956
G01 X102.237 Y311.056
G01 X108.836 Y311.119
G01 X115.979 Y313.365
G01 X118.756 Y314.383
G01 X129.533 Y317.950
G01 X138.016 Y318.028
G01 X140.902 Y317.294
G01 X142.702 Y316.956
G01 X148.075 Y315.016
G01 X151.816 Y313.117
G01 X152.693 Y312.995
G01 X158.463 Y306.450
G01 X159.382 Y305.504
G01 X159.882 Y305.034
G01 X159.412 Y304.552
G01 X160.037 Y299.814
G01 X160.102 Y299.413
G01 X160.406 Y298.900
G01 X160.161 Y295.562
G01 X159.519 Y292.293
G01 X160.004 Y291.822
G01 X159.543 Y291.343
G01 X155.219 Y287.025
G01 X153.939 Y285.623
G01 X158.199 Y290.066
G01 X159.543 Y291.343
G01 X160.004 Y291.822
G01 X160.469 Y292.296
G01 X163.905 Y294.477
G01 X170.235 Y297.707
G01 X170.289 Y297.732
G01 X172.214 Y298.549
G01 X170.289 Y297.732
G01 X163.958 Y294.507
G01 X163.905 Y294.477
G01 X160.469 Y292.296
G01 X160.004 Y291.822
G01 X159.519 Y292.293
G01 X160.161 Y295.562
G01 X160.406 Y298.900
G01 X160.102 Y299.413
G01 X159.456 Y304.141
G01 X159.412 Y304.552
G01 X159.882 Y305.034
G01 X160.349 Y304.566
G01 X172.183 Y299.499
G01 X172.663 Y299.034
G01 X172.214 Y298.549
G01 X172.663 Y299.034
G01 X173.149 Y299.506
G01 X182.086 Y300.073
G01 X182.586 Y299.599
G01 X183.524 Y299.614
G01 X183.998 Y300.089
G01 X184.461 Y299.622
G01 X191.614 Y297.473
G01 X198.535 Y293.243
G01 X198.696 Y293.156
G01 X200.073 Y290.401
G01 X201.593 Y287.804
G01 X203.244 Y285.372
G01 X204.466 Y283.777
G01 X204.925 Y283.306
G01 X204.445 Y282.829
G01 X204.004 Y282.352
G01 X204.006 Y280.465
G01 X204.501 Y279.999
G01 X204.311 Y277.711
G01 X204.237 Y275.394
G01 X204.253 Y273.823
G01 X203.759 Y271.446
G01 X202.590 Y268.594
G01 X201.594 Y265.599
G01 X200.782 Y262.470
G01 X200.704 Y262.116
G01 X198.343 Y257.962
G01 X196.514 Y254.082
G01 X195.339 Y252.536
G01 X195.359 Y250.649
G01 X199.881 Y249.925
G01 X200.138 Y249.895
G01 X203.186 Y248.486
G01 X206.249 Y247.292
G01 X209.313 Y246.311
G01 X212.365 Y245.538
G01 X212.783 Y245.449
G01 X214.823 Y243.788
G01 X216.937 Y242.234
G01 X219.118 Y240.791
G01 X221.361 Y239.460
G01 X222.851 Y238.656
G01 X223.323 Y238.175
G01 X223.793 Y237.703
G01 X225.511 Y235.310
G01 X226.193 Y234.436
G01 X228.575 Y233.142
G01 X231.027 Y231.963
G01 X233.544 Y230.902
G01 X235.203 Y230.281
G01 X238.003 Y230.277
G01 X238.977 Y230.310
G01 X241.939 Y231.865
G01 X243.819 Y232.993
G01 X245.547 Y234.149
G01 X248.045 Y239.278
G01 X248.505 Y240.416
G01 X250.115 Y249.315
G01 X251.868 Y248.388
G01 X253.712 Y247.551
G01 X255.642 Y246.812
G01 X257.318 Y246.273
G01 X259.442 Y245.531
G01 X261.656 Y244.908
G01 X262.430 Y244.725
G01 X264.510 Y244.930
G01 X266.599 Y245.246
G01 X267.577 Y245.431
G01 X269.448 Y246.340
G01 X270.566 Y246.939
G01 X272.248 Y248.172
G01 X272.782 Y248.591
G01 X271.122 Y247.332
G01 X270.566 Y246.939
G01 X268.722 Y245.974
G01 X267.577 Y245.431
G01 X265.485 Y245.064
G01 X263.400 Y244.807
G01 X262.430 Y244.725
G01 X260.187 Y245.305
G01 X258.032 Y246.007
G01 X257.318 Y246.273
G01 X255.320 Y246.926
G01 X253.403 Y247.682
G01 X251.574 Y248.534
G01 X250.115 Y249.315
G01 X248.505 Y240.416
G01 X248.045 Y239.278
G01 X245.547 Y234.149
G01 X243.819 Y232.993
G01 X240.976 Y231.332
G01 X238.977 Y230.310
G01 X236.188 Y230.263
G01 X235.203 Y230.281
G01 X232.648 Y231.263
G01 X230.153 Y232.366
G01 X227.725 Y233.587
G01 X226.193 Y234.436
G01 X224.410 Y236.809
G01 X223.793 Y237.703
G01 X223.323 Y238.175
G01 X223.798 Y238.668
G01 X222.796 Y241.854
G01 X222.513 Y242.929
G01 X221.830 Y245.241
G01 X221.524 Y248.612
G01 X221.478 Y251.914
G01 X221.683 Y255.132
G01 X221.739 Y255.636
G01 X222.526 Y257.582
G01 X223.949 Y261.303
G01 X225.665 Y264.814
G01 X227.481 Y267.835
G01 X228.740 Y270.267
G01 X229.410 Y271.379
G01 X230.068 Y273.090
G01 X230.809 Y274.644
G01 X230.880 Y275.814
G01 X231.019 Y276.954
G01 X231.222 Y278.061
G01 X231.413 Y278.858
G01 X231.164 Y277.779
G01 X230.977 Y276.664
G01 X230.855 Y275.516
G01 X230.809 Y274.644
G01 X230.041 Y273.026
G01 X229.410 Y271.379
G01 X228.064 Y269.025
G01 X227.481 Y267.835
G01 X225.512 Y264.532
G01 X223.820 Y261.002
G01 X222.526 Y257.582
G01 X221.739 Y255.636
G01 X221.494 Y252.434
G01 X221.500 Y249.144
G01 X221.763 Y245.783
G01 X221.830 Y245.241
G01 X222.513 Y242.929
G01 X223.431 Y239.747
G01 X223.798 Y238.668
G01 X223.323 Y238.175
G01 X222.851 Y238.656
G01 X220.571 Y239.912
G01 X218.349 Y241.282
G01 X216.191 Y242.764
G01 X214.102 Y244.356
G01 X212.783 Y245.449
G01 X209.733 Y246.192
G01 X206.670 Y247.145
G01 X203.606 Y248.309
G01 X200.556 Y249.688
G01 X200.138 Y249.895
G01 X195.619 Y250.598
G01 X195.359 Y250.649
G01 X195.339 Y252.536
G01 X196.514 Y254.082
G01 X198.615 Y258.483
G01 X200.704 Y262.116
G01 X201.495 Y265.258
G01 X202.471 Y268.269
G01 X203.621 Y271.137
G01 X203.759 Y271.446
G01 X204.253 Y273.823
G01 X204.248 Y276.155
G01 X204.360 Y278.463
G01 X204.501 Y279.999
G01 X204.006 Y280.465
G01 X204.004 Y282.352
G01 X204.445 Y282.829
G01 X204.925 Y283.306
G01 X205.390 Y282.840
G01 X210.195 Y281.005
G01 X210.897 Y280.778
G01 X212.973 Y279.111
G01 X214.600 Y277.971
G01 X216.909 Y276.677
G01 X219.255 Y275.594
G01 X219.651 Y275.434
G01 X224.358 Y275.480
G01 X228.558 Y278.026
G01 X229.667 Y278.611
G01 X230.473 Y278.849
G01 X230.930 Y279.323
G01 X231.413 Y278.858
G01 X230.930 Y279.323
G01 X231.394 Y279.798
G01 X231.454 Y280.759
G01 X231.564 Y281.703
G01 X231.721 Y282.629
G01 X231.822 Y283.107
G01 X232.295 Y283.584
G01 X231.835 Y284.053
G01 X230.961 Y284.991
G01 X230.138 Y286.014
G01 X229.371 Y287.121
G01 X228.955 Y287.799
G01 X226.165 Y288.856
G01 X224.758 Y289.312
G01 X223.286 Y289.627
G01 X223.244 Y291.023
G01 X223.247 Y291.519
G01 X224.109 Y292.669
G01 X224.438 Y293.074
G01 X224.885 Y294.329
G01 X225.393 Y295.563
G01 X225.962 Y296.771
G01 X226.165 Y297.167
G01 X226.499 Y297.684
G01 X226.165 Y297.167
G01 X225.576 Y295.968
G01 X225.047 Y294.742
G01 X224.580 Y293.494
G01 X224.438 Y293.074
G01 X223.557 Y291.949
G01 X223.247 Y291.519
G01 X223.263 Y290.117
G01 X223.286 Y289.627
G01 X224.758 Y289.312
G01 X226.165 Y288.856
G01 X228.955 Y287.799
G01 X229.686 Y286.646
G01 X230.478 Y285.573
G01 X231.323 Y284.585
G01 X231.835 Y284.053
G01 X232.295 Y283.584
G01 X233.546 Y282.803
G01 X234.828 Y282.145
G01 X236.133 Y281.609
G01 X237.390 Y281.212
G01 X238.169 Y280.768
G01 X238.961 Y280.393
G01 X239.759 Y280.088
G01 X239.941 Y280.029
G01 X240.513 Y279.705
G01 X241.092 Y279.428
G01 X241.675 Y279.197
G01 X242.258 Y279.012
G01 X242.838 Y278.872
G01 X243.413 Y278.776
G01 X243.979 Y278.723
G01 X244.161 Y278.716
G01 X244.566 Y278.574
G01 X244.971 Y278.459
G01 X245.373 Y278.370
G01 X245.772 Y278.307
G01 X246.165 Y278.269
G01 X246.552 Y278.256
G01 X246.930 Y278.266
G01 X247.299 Y278.300
G01 X247.571 Y278.339
G01 X247.852 Y278.230
G01 X248.139 Y278.134
G01 X248.430 Y278.053
G01 X248.724 Y277.986
G01 X249.021 Y277.934
G01 X249.320 Y277.896
G01 X249.621 Y277.873
G01 X249.922 Y277.865
G01 X250.223 Y277.871
G01 X250.523 Y277.893
G01 X250.822 Y277.929
G01 X250.970 Y277.952
G01 X251.304 Y277.827
G01 X251.652 Y277.720
G01 X252.014 Y277.632
G01 X252.388 Y277.566
G01 X252.773 Y277.521
G01 X253.169 Y277.499
G01 X253.573 Y277.501
G01 X253.984 Y277.527
G01 X254.365 Y277.572
G01 X254.973 Y277.400
G01 X255.607 Y277.272
G01 X256.265 Y277.192
G01 X256.944 Y277.160
G01 X257.640 Y277.180
G01 X257.760 Y277.189
G01 X258.860 Y276.962
G01 X260.000 Y276.827
G01 X261.172 Y276.789
G01 X261.176 Y276.789
G01 X261.635 Y277.272
G01 X262.096 Y276.813
G01 X263.527 Y276.350
G01 X264.020 Y275.874
G01 X264.482 Y275.416
G01 X265.919 Y274.009
G01 X266.377 Y273.554
G01 X266.864 Y273.081
G01 X271.081 Y268.833
G01 X272.840 Y266.795
G01 X273.828 Y265.041
G01 X274.170 Y264.239
G01 X275.256 Y261.194
G01 X275.973 Y258.547
G01 X275.728 Y256.183
G01 X275.312 Y253.785
G01 X275.105 Y252.853
G01 X274.631 Y252.388
G01 X274.647 Y251.430
G01 X274.161 Y250.981
G01 X273.711 Y250.484
G01 X273.250 Y249.065
G01 X272.782 Y248.591
G01 X273.250 Y249.065
G01 X273.713 Y248.616
G01 X274.656 Y248.625
G01 X274.524 Y247.727
G01 X273.889 Y244.633
G01 X273.006 Y241.517
G01 X272.853 Y241.052
G01 X273.144 Y234.830
G01 X272.969 Y229.720
G01 X273.650 Y227.386
G01 X274.142 Y225.052
G01 X276.084 Y220.401
G01 X276.665 Y219.278
G01 X286.218 Y205.156
G01 X289.508 Y199.776
G01 X292.373 Y191.267
G01 X292.512 Y190.715
G01 X293.223 Y186.507
G01 X292.769 Y186.001
G01 X292.307 Y185.534
G01 X292.769 Y185.085
G01 X293.266 Y183.661
G01 X297.991 Y186.202
G01 X302.572 Y188.964
G01 X306.353 Y191.487
G01 X312.075 Y192.520
G01 X317.829 Y193.896
G01 X323.235 Y195.503
G01 X329.508 Y196.993
G01 X329.984 Y197.122
G01 X335.829 Y199.499
G01 X339.346 Y201.117
G01 X339.801 Y201.610
G01 X340.274 Y201.142
G01 X338.369 Y194.514
G01 X337.736 Y192.593
G01 X337.433 Y183.467
G01 X336.436 Y174.163
G01 X336.157 Y172.322
G01 X332.941 Y164.828
G01 X332.597 Y164.095
G01 X332.191 Y161.407
G01 X331.237 Y161.403
G01 X325.808 Y166.301
G01 X323.161 Y167.438
G01 X318.916 Y166.946
G01 X316.578 Y164.557
G01 X315.880 Y161.700
G01 X315.725 Y156.043
G01 X315.257 Y155.568
G01 X313.365 Y155.560
G01 X312.882 Y156.024
G01 X307.226 Y155.961
G01 X303.954 Y153.563
G01 X303.537 Y147.434
G01 X304.497 Y145.555
G01 X309.268 Y140.876
G01 X311.634 Y140.431
G01 X309.268 Y140.876
G01 X304.497 Y145.555
G01 X303.537 Y147.434
G01 X303.954 Y153.563
G01 X307.226 Y155.961
G01 X312.882 Y156.024
G01 X313.365 Y155.560
G01 X315.257 Y155.568
G01 X315.725 Y156.043
G01 X315.880 Y161.700
G01 X316.578 Y164.557
G01 X318.916 Y166.946
G01 X323.161 Y167.438
G01 X325.808 Y166.301
G01 X331.237 Y161.403
G01 X331.813 Y153.364
G01 X330.290 Y148.217
G01 X330.058 Y140.135
G01 X329.581 Y139.671
G01 X328.643 Y139.636
G01 X328.183 Y138.233
G01 X322.508 Y137.434
G01 X315.915 Y137.150
G01 X315.438 Y137.627
G01 X314.962 Y138.104
G01 X314.033 Y138.076
G01 X313.076 Y138.079
G01 X311.661 Y137.590
G01 X311.183 Y138.072
G01 X310.721 Y137.576
G01 X311.183 Y138.072
G01 X311.656 Y138.537
G01 X311.183 Y138.072
G01 X311.661 Y137.590
G01 X313.076 Y138.079
G01 X313.063 Y139.027
G01 X313.076 Y138.079
G01 X314.033 Y138.076
G01 X314.015 Y139.024
G01 X314.033 Y138.076
G01 X314.962 Y138.104
G01 X315.438 Y137.627
G01 X315.907 Y138.106
G01 X315.438 Y137.627
G01 X315.915 Y137.150
G01 X322.508 Y137.434
G01 X328.183 Y138.233
G01 X328.643 Y139.636
G01 X325.790 Y140.567
G01 X319.171 Y139.741
G01 X315.895 Y139.061
G01 X315.907 Y138.106
G01 X315.895 Y139.061
G01 X314.954 Y139.059
G01 X314.962 Y138.104
G01 X314.954 Y139.059
G01 X314.015 Y139.024
G01 X313.529 Y139.498
G01 X313.063 Y139.027
G01 X313.529 Y139.498
G01 X313.045 Y139.974
G01 X312.113 Y139.951
G01 X311.647 Y139.484
G01 X311.656 Y138.537
G01 X311.647 Y139.484
G01 X312.113 Y139.951
G01 X311.634 Y140.431
G01 X312.113 Y139.951
G01 X313.045 Y139.974
G01 X313.529 Y139.498
G01 X314.015 Y139.024
G01 X314.954 Y139.059
G01 X315.895 Y139.061
G01 X319.171 Y139.741
G01 X325.790 Y140.567
G01 X328.643 Y139.636
G01 X329.581 Y139.671
G01 X330.062 Y139.177
G01 X331.908 Y139.408
G01 X339.095 Y142.397
G01 X346.819 Y145.677
G01 X354.084 Y149.197
G01 X362.018 Y151.789
G01 X354.084 Y149.197
G01 X346.464 Y145.516
G01 X339.095 Y142.397
G01 X331.908 Y139.408
G01 X330.062 Y139.177
G01 X329.581 Y139.671
G01 X330.058 Y140.135
G01 X330.290 Y148.217
G01 X331.813 Y153.364
G01 X331.237 Y161.403
G01 X332.191 Y161.407
G01 X334.538 Y161.906
G01 X341.606 Y161.299
G01 X343.951 Y160.876
G01 X355.765 Y155.776
G01 X362.003 Y152.741
G01 X362.487 Y152.281
G01 X362.018 Y151.789
G01 X362.487 Y152.281
G01 X374.517 Y151.910
G01 X376.187 Y151.926
G01 X376.659 Y151.458
G01 X378.074 Y151.020
G01 X378.572 Y150.529
G01 X384.659 Y149.047
G01 X392.139 Y145.262
G01 X395.619 Y143.168
G01 X400.395 Y138.490
G01 X400.617 Y137.663
G01 X402.601 Y134.184
G01 X405.231 Y126.268
G01 X405.290 Y119.665
G01 X403.003 Y113.514
G01 X396.000 Y106.346
G01 X393.283 Y105.178
G01 X392.141 Y104.626
G01 X386.552 Y102.652
G01 X384.716 Y102.459
G01 X384.251 Y101.985
G01 X382.834 Y101.511
G01 X382.368 Y101.000
G01 X381.419 Y101.005
G01 X380.948 Y100.540
G01 X380.023 Y99.583
G01 X379.076 Y99.559
G01 X376.276 Y95.773
G01 X376.326 Y91.062
G01 X381.586 Y85.894
G01 X381.574 Y84.963
G01 X376.908 Y80.181
G01 X376.431 Y79.720
G01 X376.502 Y74.063
G01 X376.025 Y73.572
G01 X376.502 Y74.063
G01 X376.993 Y73.582
G01 X379.517 Y71.470
G01 X382.672 Y69.875
G01 X385.526 Y69.887
G01 X390.314 Y71.650
G01 X391.167 Y71.838
G01 X399.510 Y81.589
G01 X402.354 Y85.164
G01 X394.230 Y75.300
G01 X391.167 Y71.838
G01 X390.314 Y71.650
G01 X385.526 Y69.887
G01 X382.672 Y69.875
G01 X379.517 Y71.470
G01 X376.993 Y73.582
G01 X376.502 Y74.063
G01 X376.431 Y79.720
G01 X375.977 Y80.180
G01 X374.265 Y89.105
G01 X371.746 Y95.807
G01 X371.210 Y97.169
G01 X370.122 Y99.008
G01 X370.088 Y100.909
G01 X378.601 Y100.979
G01 X370.088 Y100.909
G01 X370.122 Y99.008
G01 X371.210 Y97.169
G01 X371.746 Y95.807
G01 X374.265 Y89.105
G01 X375.977 Y80.180
G01 X376.431 Y79.720
G01 X376.908 Y80.181
G01 X381.574 Y84.963
G01 X381.586 Y85.894
G01 X376.326 Y91.062
G01 X376.276 Y95.773
G01 X379.076 Y99.559
G01 X379.075 Y100.499
G01 X378.601 Y100.979
G01 X379.075 Y100.499
G01 X379.076 Y99.559
G01 X380.023 Y99.583
G01 X380.948 Y100.540
G01 X381.419 Y101.005
G01 X380.939 Y101.480
G01 X379.051 Y101.467
G01 X378.601 Y100.979
G01 X379.051 Y101.467
G01 X380.939 Y101.480
G01 X381.419 Y101.005
G01 X382.368 Y101.000
G01 X382.829 Y100.556
G01 X384.266 Y100.086
G01 X382.829 Y100.556
G01 X382.368 Y101.000
G01 X382.834 Y101.511
G01 X384.251 Y101.985
G01 X384.719 Y101.504
G01 X384.737 Y100.560
G01 X384.266 Y100.086
G01 X384.737 Y100.560
G01 X385.201 Y100.120
G01 X389.851 Y99.003
G01 X391.839 Y98.272
G01 X402.342 Y86.125
G01 X402.807 Y85.644
G01 X402.354 Y85.164
G01 X402.807 Y85.644
G01 X403.764 Y85.676
G01 X402.807 Y85.644
G01 X402.342 Y86.125
G01 X391.839 Y98.272
G01 X389.851 Y99.003
G01 X385.201 Y100.120
G01 X384.737 Y100.560
G01 X384.719 Y101.504
G01 X384.251 Y101.985
G01 X384.716 Y102.459
G01 X386.552 Y102.652
G01 X392.141 Y104.626
G01 X393.283 Y105.178
G01 X396.000 Y106.346
G01 X403.003 Y113.514
G01 X405.290 Y119.665
G01 X405.231 Y126.268
G01 X402.601 Y134.184
G01 X400.617 Y137.663
G01 X400.395 Y138.490
G01 X395.619 Y143.168
G01 X392.139 Y145.262
G01 X384.659 Y149.047
G01 X378.572 Y150.529
G01 X378.074 Y151.020
G01 X378.551 Y151.482
G01 X378.525 Y152.434
G01 X378.551 Y151.482
G01 X378.074 Y151.020
G01 X376.659 Y151.458
G01 X376.187 Y151.926
G01 X376.650 Y152.419
G01 X378.061 Y152.910
G01 X378.525 Y152.434
G01 X378.061 Y152.910
G01 X378.532 Y153.371
G01 X379.436 Y153.527
G01 X384.470 Y156.016
G01 X387.141 Y157.949
G01 X390.721 Y161.053
G01 X393.945 Y169.116
G01 X393.578 Y174.332
G01 X390.998 Y179.461
G01 X389.589 Y180.851
G01 X383.837 Y183.499
G01 X379.189 Y184.728
G01 X371.129 Y185.870
G01 X371.114 Y187.753
G01 X372.218 Y189.559
G01 X372.774 Y190.688
G01 X374.613 Y197.260
G01 X374.940 Y199.093
G01 X375.204 Y203.361
G01 X374.907 Y203.870
G01 X373.250 Y209.012
G01 X369.419 Y212.759
G01 X363.741 Y214.594
G01 X355.680 Y214.173
G01 X349.609 Y211.619
G01 X355.680 Y214.173
G01 X363.741 Y214.594
G01 X369.419 Y212.759
G01 X373.250 Y209.012
G01 X374.907 Y203.870
G01 X375.204 Y203.361
G01 X374.940 Y199.093
G01 X374.613 Y197.260
G01 X372.774 Y190.688
G01 X372.218 Y189.559
G01 X371.114 Y187.753
G01 X371.129 Y185.870
G01 X379.189 Y184.728
G01 X383.837 Y183.499
G01 X389.589 Y180.851
G01 X390.998 Y179.461
G01 X393.578 Y174.332
G01 X393.945 Y169.116
G01 X390.721 Y161.053
G01 X387.141 Y157.949
G01 X384.470 Y156.016
G01 X379.436 Y153.527
G01 X378.532 Y153.371
G01 X378.061 Y152.910
G01 X376.650 Y152.419
G01 X376.187 Y151.926
G01 X364.113 Y152.179
G01 X362.487 Y152.281
G01 X362.003 Y152.741
G01 X355.765 Y155.776
G01 X343.951 Y160.876
G01 X341.606 Y161.299
G01 X334.538 Y161.906
G01 X332.191 Y161.407
G01 X332.597 Y164.095
G01 X335.866 Y171.586
G01 X336.157 Y172.322
G01 X337.293 Y181.656
G01 X337.730 Y190.820
G01 X337.736 Y192.593
G01 X339.767 Y199.225
G01 X340.274 Y201.142
G01 X339.801 Y201.610
G01 X340.278 Y202.081
G01 X344.617 Y206.258
G01 X348.763 Y210.664
G01 X349.609 Y211.619
G01 X345.506 Y207.166
G01 X341.206 Y202.940
G01 X340.278 Y202.081
G01 X339.801 Y201.610
G01 X339.346 Y201.117
G01 X333.526 Y198.517
G01 X329.984 Y197.122
G01 X323.926 Y195.340
G01 X317.890 Y193.937
G01 X313.109 Y193.088
G01 X307.552 Y191.736
G01 X306.353 Y191.487
G01 X301.904 Y188.542
G01 X297.301 Y185.812
G01 X293.266 Y183.661
G01 X292.769 Y185.085
G01 X292.307 Y185.534
G01 X291.823 Y186.012
G01 X292.307 Y185.534
G01 X292.769 Y186.001
G01 X293.223 Y186.507
G01 X292.512 Y190.715
G01 X292.373 Y191.267
G01 X289.508 Y199.776
G01 X286.218 Y205.156
G01 X276.665 Y219.278
G01 X276.084 Y220.401
G01 X274.142 Y225.052
G01 X273.650 Y227.386
G01 X272.969 Y229.720
G01 X273.131 Y236.041
G01 X272.853 Y241.052
G01 X273.773 Y244.169
G01 X274.445 Y247.268
G01 X274.524 Y247.727
G01 X274.656 Y248.625
G01 X275.602 Y249.564
G01 X275.587 Y250.517
G01 X275.602 Y249.564
G01 X274.656 Y248.625
G01 X273.713 Y248.616
G01 X273.250 Y249.065
G01 X273.711 Y250.484
G01 X274.161 Y250.981
G01 X274.641 Y250.508
G01 X275.587 Y250.517
G01 X276.518 Y251.475
G01 X276.508 Y252.421
G01 X276.518 Y251.475
G01 X275.587 Y250.517
G01 X274.641 Y250.508
G01 X274.161 Y250.981
G01 X274.647 Y251.430
G01 X274.631 Y252.388
G01 X275.105 Y252.853
G01 X275.583 Y252.384
G01 X276.508 Y252.421
G01 X277.589 Y254.230
G01 X277.899 Y254.794
G01 X279.374 Y256.126
G01 X280.786 Y257.533
G01 X282.130 Y259.011
G01 X282.585 Y259.547
G01 X283.399 Y259.766
G01 X285.424 Y260.862
G01 X286.904 Y261.764
G01 X289.787 Y262.614
G01 X291.986 Y263.418
G01 X295.755 Y263.458
G01 X301.477 Y261.774
G01 X306.417 Y258.072
G01 X309.955 Y252.796
G01 X310.207 Y252.380
G01 X310.793 Y251.246
G01 X312.955 Y245.982
G01 X313.721 Y243.775
G01 X315.265 Y238.173
G01 X315.376 Y237.693
G01 X315.858 Y237.223
G01 X316.321 Y237.698
G01 X319.887 Y240.145
G01 X321.375 Y241.256
G01 X326.290 Y243.259
G01 X330.443 Y245.261
G01 X336.051 Y246.406
G01 X330.443 Y245.261
G01 X325.553 Y242.933
G01 X321.375 Y241.256
G01 X317.842 Y238.706
G01 X316.321 Y237.698
G01 X315.858 Y237.223
G01 X315.376 Y237.693
G01 X313.865 Y243.316
G01 X313.721 Y243.775
G01 X311.710 Y249.157
G01 X310.793 Y251.246
G01 X310.207 Y252.380
G01 X306.698 Y257.688
G01 X306.417 Y258.072
G01 X301.477 Y261.774
G01 X295.755 Y263.458
G01 X291.986 Y263.418
G01 X289.101 Y262.391
G01 X286.904 Y261.764
G01 X284.900 Y260.563
G01 X283.399 Y259.766
G01 X282.585 Y259.547
G01 X281.265 Y258.044
G01 X279.877 Y256.612
G01 X278.424 Y255.253
G01 X277.899 Y254.794
G01 X276.852 Y252.974
G01 X276.508 Y252.421
G01 X275.583 Y252.384
G01 X275.105 Y252.853
G01 X275.589 Y255.262
G01 X275.899 Y257.641
G01 X275.973 Y258.547
G01 X275.090 Y261.718
G01 X274.170 Y264.239
G01 X273.828 Y265.041
G01 X272.840 Y266.795
G01 X268.792 Y271.240
G01 X266.864 Y273.081
G01 X266.377 Y273.554
G01 X266.867 Y274.017
G01 X266.842 Y274.969
G01 X266.867 Y274.017
G01 X266.377 Y273.554
G01 X265.919 Y274.009
G01 X264.482 Y275.416
G01 X264.020 Y275.874
G01 X264.485 Y276.352
G01 X266.846 Y275.906
G01 X267.320 Y275.440
G01 X266.842 Y274.969
G01 X267.320 Y275.440
G01 X269.519 Y275.519
G01 X271.065 Y275.689
G01 X273.138 Y276.160
G01 X275.213 Y276.815
G01 X276.748 Y277.423
G01 X278.172 Y278.523
G01 X279.549 Y279.748
G01 X280.871 Y281.095
G01 X282.130 Y282.562
G01 X283.285 Y284.100
G01 X283.482 Y284.921
G01 X284.659 Y286.660
G01 X285.743 Y288.516
G01 X286.724 Y290.485
G01 X287.444 Y292.169
G01 X287.912 Y292.646
G01 X288.374 Y292.176
G01 X290.830 Y290.624
G01 X292.847 Y289.145
G01 X296.984 Y287.314
G01 X300.343 Y285.501
G01 X305.469 Y284.799
G01 X305.929 Y284.331
G01 X306.420 Y283.865
G01 X306.889 Y282.453
G01 X307.837 Y281.518
G01 X308.783 Y281.530
G01 X312.359 Y278.305
G01 X315.751 Y274.723
G01 X315.927 Y274.522
G01 X318.165 Y270.758
G01 X320.186 Y266.753
G01 X321.972 Y262.519
G01 X322.054 Y262.303
G01 X324.506 Y257.512
G01 X325.101 Y256.203
G01 X331.286 Y250.131
G01 X336.039 Y247.350
G01 X336.523 Y246.878
G01 X336.051 Y246.406
G01 X336.523 Y246.878
G01 X337.004 Y246.403
G01 X346.466 Y244.619
G01 X346.922 Y244.161
G01 X350.943 Y238.632
G01 X352.999 Y234.260
G01 X354.142 Y229.599
G01 X353.493 Y223.296
G01 X353.446 Y222.945
G01 X351.622 Y217.089
G01 X349.609 Y211.619
G01 X351.742 Y217.443
G01 X353.446 Y222.945
G01 X354.116 Y229.252
G01 X354.142 Y229.599
G01 X352.999 Y234.260
G01 X350.943 Y238.632
G01 X346.922 Y244.161
G01 X346.466 Y244.619
G01 X346.924 Y245.097
G01 X350.666 Y245.338
G01 X354.555 Y246.875
G01 X355.257 Y247.288
G01 X358.227 Y248.987
G01 X361.009 Y251.852
G01 X363.322 Y257.061
G01 X363.297 Y262.880
G01 X363.270 Y263.670
G01 X360.555 Y269.435
G01 X357.718 Y273.226
G01 X353.656 Y277.733
G01 X352.245 Y278.187
G01 X352.230 Y280.084
G01 X357.065 Y283.680
G01 X357.870 Y283.915
G01 X363.396 Y289.481
G01 X364.401 Y290.587
G01 X365.961 Y293.812
G01 X366.711 Y294.863
G01 X365.961 Y293.812
G01 X364.401 Y290.587
G01 X358.928 Y284.918
G01 X357.870 Y283.915
G01 X357.065 Y283.680
G01 X352.230 Y280.084
G01 X352.245 Y278.187
G01 X353.656 Y277.733
G01 X357.718 Y273.226
G01 X360.555 Y269.435
G01 X363.270 Y263.670
G01 X363.336 Y257.860
G01 X363.322 Y257.061
G01 X361.009 Y251.852
G01 X358.227 Y248.987
G01 X355.257 Y247.288
G01 X354.555 Y246.875
G01 X350.666 Y245.338
G01 X346.924 Y245.097
G01 X346.466 Y244.619
G01 X337.004 Y246.403
G01 X336.523 Y246.878
G01 X336.039 Y247.350
G01 X331.286 Y250.131
G01 X325.101 Y256.203
G01 X323.068 Y260.964
G01 X320.756 Y265.456
G01 X318.996 Y268.412
G01 X317.163 Y272.256
G01 X315.927 Y274.522
G01 X312.546 Y278.122
G01 X308.979 Y281.367
G01 X308.783 Y281.530
G01 X307.837 Y281.518
G01 X306.889 Y282.453
G01 X306.420 Y283.865
G01 X305.929 Y284.331
G01 X306.414 Y284.807
G01 X309.304 Y285.590
G01 X314.457 Y288.902
G01 X316.737 Y290.575
G01 X318.120 Y292.948
G01 X318.585 Y293.428
G01 X318.095 Y293.896
G01 X318.682 Y297.153
G01 X318.996 Y300.513
G01 X318.277 Y303.782
G01 X317.146 Y307.081
G01 X316.819 Y307.946
G01 X315.113 Y311.009
G01 X314.847 Y311.456
G01 X314.612 Y312.268
G01 X312.108 Y314.887
G01 X309.504 Y317.330
G01 X308.891 Y317.868
G01 X306.390 Y319.049
G01 X302.819 Y320.540
G01 X299.242 Y321.768
G01 X298.891 Y321.875
G01 X296.043 Y322.782
G01 X293.008 Y323.993
G01 X289.967 Y325.002
G01 X286.933 Y325.812
G01 X286.721 Y325.861
G01 X285.589 Y326.418
G01 X283.328 Y327.932
G01 X282.080 Y328.700
G01 X280.075 Y330.572
G01 X277.963 Y332.354
G01 X277.586 Y332.654
G01 X279.716 Y330.888
G01 X281.739 Y329.031
G01 X282.080 Y328.700
G01 X284.376 Y327.250
G01 X285.589 Y326.418
G01 X286.721 Y325.861
G01 X289.754 Y325.066
G01 X292.795 Y324.071
G01 X295.831 Y322.874
G01 X296.043 Y322.782
G01 X298.891 Y321.875
G01 X302.468 Y320.672
G01 X306.040 Y319.207
G01 X306.390 Y319.049
G01 X308.891 Y317.868
G01 X311.515 Y315.466
G01 X314.044 Y312.888
G01 X314.612 Y312.268
G01 X314.847 Y311.456
G01 X316.574 Y308.409
G01 X316.819 Y307.946
G01 X317.993 Y304.662
G01 X318.277 Y303.782
G01 X318.996 Y300.513
G01 X318.682 Y297.153
G01 X318.095 Y293.896
G01 X318.585 Y293.428
G01 X319.049 Y293.900
G01 X322.811 Y298.116
G01 X326.315 Y302.723
G01 X328.365 Y305.799
G01 X330.226 Y308.178
G01 X336.282 Y311.687
G01 X342.929 Y314.447
G01 X342.911 Y315.390
G01 X342.420 Y315.854
G01 X338.182 Y316.280
G01 X334.627 Y319.780
G01 X334.368 Y320.020
G01 X334.323 Y323.791
G01 X335.733 Y325.225
G01 X340.911 Y324.796
G01 X341.837 Y328.602
G01 X343.245 Y330.025
G01 X347.000 Y330.059
G01 X349.380 Y327.716
G01 X349.899 Y323.474
G01 X348.211 Y318.698
G01 X347.614 Y315.431
G01 X348.211 Y318.698
G01 X349.899 Y323.474
G01 X349.380 Y327.716
G01 X347.000 Y330.059
G01 X343.245 Y330.025
G01 X341.837 Y328.602
G01 X340.911 Y324.796
G01 X335.733 Y325.225
G01 X334.323 Y323.791
G01 X334.368 Y320.020
G01 X337.933 Y316.539
G01 X338.182 Y316.280
G01 X342.420 Y315.854
G01 X342.911 Y315.390
G01 X343.379 Y315.861
G01 X344.300 Y315.870
G01 X344.789 Y315.403
G01 X345.272 Y314.940
G01 X347.144 Y314.948
G01 X347.614 Y315.431
G01 X348.095 Y314.959
G01 X357.461 Y312.980
G01 X359.462 Y312.255
G01 X364.251 Y307.579
G01 X364.700 Y307.109
G01 X366.401 Y302.392
G01 X366.682 Y296.606
G01 X366.711 Y294.863
G01 X367.659 Y294.868
G01 X374.241 Y295.151
G01 X386.502 Y298.829
G01 X386.977 Y299.310
G01 X386.501 Y299.782
G01 X378.767 Y303.265
G01 X373.685 Y306.726
G01 X370.998 Y312.433
G01 X369.318 Y315.653
G01 X369.281 Y320.377
G01 X370.478 Y323.779
G01 X372.300 Y326.686
G01 X372.998 Y327.968
G01 X377.121 Y330.563
G01 X384.298 Y333.558
G01 X386.096 Y333.943
G01 X390.866 Y334.752
G01 X390.842 Y336.646
G01 X389.135 Y338.656
G01 X385.726 Y345.165
G01 X385.221 Y346.066
G01 X383.608 Y351.199
G01 X383.561 Y355.912
G01 X385.857 Y362.078
G01 X388.201 Y364.457
G01 X391.439 Y366.059
G01 X392.012 Y366.258
G01 X394.773 Y367.356
G01 X403.263 Y367.452
G01 X409.993 Y364.871
G01 X413.234 Y363.296
G01 X420.135 Y356.559
G01 X420.839 Y355.829
G01 X422.754 Y353.002
G01 X420.839 Y355.829
G01 X413.964 Y362.618
G01 X413.234 Y363.296
G01 X409.993 Y364.871
G01 X403.263 Y367.452
G01 X394.773 Y367.356
G01 X392.012 Y366.258
G01 X391.439 Y366.059
G01 X388.201 Y364.457
G01 X385.857 Y362.078
G01 X383.561 Y355.912
G01 X383.608 Y351.199
G01 X385.221 Y346.066
G01 X388.673 Y339.585
G01 X389.135 Y338.656
G01 X390.842 Y336.646
G01 X390.866 Y334.752
G01 X386.096 Y333.943
G01 X384.298 Y333.558
G01 X377.121 Y330.563
G01 X372.998 Y327.968
G01 X372.300 Y326.686
G01 X370.478 Y323.779
G01 X369.281 Y320.377
G01 X369.318 Y315.653
G01 X372.156 Y310.065
G01 X373.685 Y306.726
G01 X378.767 Y303.265
G01 X386.501 Y299.782
G01 X386.977 Y299.310
G01 X390.741 Y299.346
G01 X391.213 Y298.884
G01 X392.187 Y297.952
G01 X392.655 Y297.480
G01 X393.119 Y297.018
G01 X393.979 Y296.835
G01 X395.974 Y296.101
G01 X398.810 Y293.299
G01 X400.275 Y290.001
G01 X400.309 Y286.226
G01 X399.868 Y284.811
G01 X396.593 Y281.465
G01 X394.270 Y280.842
G01 X387.161 Y279.487
G01 X387.802 Y277.189
G01 X388.205 Y270.346
G01 X388.214 Y270.064
G01 X387.471 Y269.013
G01 X387.269 Y268.160
G01 X384.961 Y265.780
G01 X382.137 Y264.801
G01 X378.786 Y265.103
G01 X373.615 Y267.551
G01 X369.917 Y273.228
G01 X368.613 Y276.900
G01 X368.707 Y282.730
G01 X368.516 Y288.552
G01 X368.300 Y291.618
G01 X367.659 Y294.868
G01 X368.300 Y291.618
G01 X368.642 Y285.806
G01 X368.698 Y279.979
G01 X368.613 Y276.900
G01 X369.917 Y273.228
G01 X373.615 Y267.551
G01 X378.786 Y265.103
G01 X382.137 Y264.801
G01 X384.961 Y265.780
G01 X387.269 Y268.160
G01 X387.471 Y269.013
G01 X388.214 Y270.064
G01 X387.825 Y276.909
G01 X387.802 Y277.189
G01 X387.161 Y279.487
G01 X394.270 Y280.842
G01 X396.593 Y281.465
G01 X399.868 Y284.811
G01 X400.309 Y286.226
G01 X400.275 Y290.001
G01 X398.810 Y293.299
G01 X395.974 Y296.101
G01 X393.979 Y296.835
G01 X393.119 Y297.018
G01 X392.655 Y297.480
G01 X393.101 Y297.955
G01 X393.112 Y298.896
G01 X393.101 Y297.955
G01 X392.655 Y297.480
G01 X392.187 Y297.952
G01 X391.213 Y298.884
G01 X390.741 Y299.346
G01 X391.216 Y299.827
G01 X393.080 Y299.848
G01 X393.589 Y299.381
G01 X393.112 Y298.896
G01 X393.589 Y299.381
G01 X394.030 Y299.851
G01 X397.806 Y300.102
G01 X404.315 Y302.030
G01 X405.444 Y302.619
G01 X417.391 Y310.689
G01 X419.561 Y312.167
G01 X426.882 Y315.441
G01 X435.885 Y316.791
G01 X435.861 Y318.688
G01 X432.754 Y322.134
G01 X428.998 Y328.946
G01 X428.815 Y329.528
G01 X426.930 Y338.421
G01 X426.002 Y342.152
G01 X424.217 Y349.717
G01 X424.675 Y350.189
G01 X424.682 Y351.153
G01 X423.719 Y351.122
G01 X422.783 Y352.074
G01 X422.754 Y353.002
G01 X423.724 Y353.027
G01 X422.754 Y353.002
G01 X422.783 Y352.074
G01 X423.719 Y351.122
G01 X424.682 Y351.153
G01 X424.661 Y353.036
G01 X424.180 Y353.491
G01 X423.724 Y353.027
G01 X424.180 Y353.491
G01 X423.597 Y363.342
G01 X423.591 Y363.405
G01 X423.861 Y363.907
G01 X424.944 Y369.548
G01 X410.819 Y368.463
G01 X407.128 Y369.576
G01 X402.266 Y372.157
G01 X398.765 Y378.206
G01 X397.922 Y382.019
G01 X397.441 Y382.488
G01 X396.996 Y382.020
G01 X392.327 Y375.350
G01 X388.772 Y372.267
G01 X383.309 Y368.399
G01 X377.755 Y366.431
G01 X370.722 Y365.709
G01 X367.034 Y366.796
G01 X364.096 Y367.523
G01 X362.672 Y367.978
G01 X362.192 Y368.444
G01 X361.710 Y368.907
G01 X357.668 Y374.414
G01 X354.837 Y381.062
G01 X354.004 Y384.892
G01 X354.192 Y395.507
G01 X354.163 Y396.715
G01 X354.535 Y399.505
G01 X354.774 Y400.939
G01 X354.305 Y401.404
G01 X345.371 Y399.699
G01 X344.861 Y399.621
G01 X341.595 Y398.931
G01 X334.035 Y398.849
G01 X331.156 Y399.578
G01 X329.396 Y400.031
G01 X326.148 Y401.354
G01 X323.443 Y403.230
G01 X320.760 Y405.328
G01 X317.577 Y411.464
G01 X316.879 Y413.764
G01 X316.804 Y423.222
G01 X317.570 Y425.145
G01 X319.814 Y430.434
G01 X320.234 Y431.126
G01 X322.102 Y433.918
G01 X327.005 Y439.352
G01 X322.102 Y433.918
G01 X320.234 Y431.126
G01 X319.814 Y430.434
G01 X317.570 Y425.145
G01 X316.804 Y423.222
G01 X316.879 Y413.764
G01 X317.577 Y411.464
G01 X320.760 Y405.328
G01 X323.443 Y403.230
G01 X326.148 Y401.354
G01 X329.396 Y400.031
G01 X331.156 Y399.578
G01 X334.035 Y398.849
G01 X341.595 Y398.931
G01 X344.861 Y399.621
G01 X345.371 Y399.699
G01 X354.305 Y401.404
G01 X354.774 Y400.939
G01 X354.535 Y399.505
G01 X354.163 Y396.715
G01 X354.064 Y386.070
G01 X354.004 Y384.892
G01 X354.837 Y381.062
G01 X357.668 Y374.414
G01 X361.710 Y368.907
G01 X362.192 Y368.444
G01 X361.719 Y367.966
G01 X359.867 Y365.121
G01 X356.120 Y361.294
G01 X355.313 Y361.094
G01 X347.691 Y356.509
G01 X345.331 Y354.109
G01 X343.773 Y350.890
G01 X343.211 Y349.747
G01 X342.125 Y347.014
G01 X342.202 Y340.634
G01 X342.197 Y340.401
G01 X343.145 Y337.568
G01 X347.133 Y333.686
G01 X347.444 Y333.365
G01 X349.766 Y332.786
G01 X350.277 Y332.453
G01 X353.947 Y333.625
G01 X355.939 Y334.407
G01 X360.124 Y338.686
G01 X360.119 Y339.634
G01 X360.586 Y340.106
G01 X362.494 Y340.130
G01 X366.789 Y335.278
G01 X368.196 Y333.570
G01 X369.062 Y333.403
G01 X371.011 Y332.517
G01 X374.363 Y332.223
G01 X375.785 Y332.717
G01 X380.441 Y337.483
G01 X381.824 Y341.752
G01 X380.941 Y348.388
G01 X380.621 Y349.190
G01 X378.868 Y353.037
G01 X374.097 Y357.716
G01 X373.283 Y357.918
G01 X370.304 Y359.561
G01 X365.282 Y364.555
G01 X364.117 Y365.643
G01 X364.096 Y367.523
G01 X364.117 Y365.643
G01 X369.185 Y360.718
G01 X370.304 Y359.561
G01 X373.283 Y357.918
G01 X374.097 Y357.716
G01 X378.868 Y353.037
G01 X380.621 Y349.190
G01 X380.941 Y348.388
G01 X381.824 Y341.752
G01 X380.441 Y337.483
G01 X375.785 Y332.717
G01 X374.363 Y332.223
G01 X371.011 Y332.517
G01 X369.062 Y333.403
G01 X368.196 Y333.570
G01 X363.970 Y338.520
G01 X362.494 Y340.130
G01 X360.586 Y340.106
G01 X360.119 Y339.634
G01 X360.124 Y338.686
G01 X355.939 Y334.407
G01 X353.947 Y333.625
G01 X350.277 Y332.453
G01 X349.766 Y332.786
G01 X347.444 Y333.365
G01 X343.468 Y337.268
G01 X343.145 Y337.568
G01 X342.197 Y340.401
G01 X342.135 Y346.776
G01 X342.125 Y347.014
G01 X343.211 Y349.747
G01 X343.773 Y350.890
G01 X345.331 Y354.109
G01 X347.691 Y356.509
G01 X355.313 Y361.094
G01 X356.120 Y361.294
G01 X359.867 Y365.121
G01 X361.719 Y367.966
G01 X362.192 Y368.444
G01 X362.672 Y367.978
G01 X364.096 Y367.523
G01 X367.034 Y366.796
G01 X370.722 Y365.709
G01 X377.755 Y366.431
G01 X383.309 Y368.399
G01 X388.772 Y372.267
G01 X392.327 Y375.350
G01 X396.996 Y382.020
G01 X397.441 Y382.488
G01 X397.915 Y382.976
G01 X401.111 Y392.912
G01 X401.585 Y393.392
G01 X401.117 Y393.860
G01 X401.274 Y395.718
G01 X401.959 Y403.309
G01 X401.427 Y408.498
G01 X401.903 Y408.966
G01 X401.423 Y409.437
G01 X401.415 Y410.377
G01 X400.460 Y410.373
G01 X400.458 Y411.299
G01 X400.914 Y411.789
G01 X400.458 Y411.299
G01 X400.460 Y410.373
G01 X401.415 Y410.377
G01 X401.872 Y411.793
G01 X402.929 Y413.363
G01 X403.891 Y417.459
G01 X404.129 Y422.687
G01 X402.599 Y432.567
G01 X402.871 Y436.875
G01 X403.194 Y438.676
G01 X406.225 Y446.769
G01 X412.303 Y452.966
G01 X413.151 Y453.170
G01 X416.485 Y454.568
G01 X423.620 Y454.971
G01 X426.465 Y454.058
G01 X430.284 Y450.313
G01 X431.435 Y446.602
G01 X431.797 Y441.373
G01 X429.973 Y433.786
G01 X429.978 Y432.848
G01 X440.347 Y432.742
G01 X445.193 Y431.315
G01 X446.038 Y431.124
G01 X449.394 Y427.863
G01 X449.526 Y426.960
G01 X449.712 Y426.399
G01 X450.377 Y425.037
G01 X450.408 Y420.317
G01 X449.643 Y417.444
G01 X449.285 Y416.657
G01 X448.117 Y414.172
G01 X444.380 Y410.357
G01 X436.817 Y406.640
G01 X435.398 Y406.186
G01 X433.081 Y405.502
G01 X427.414 Y405.456
G01 X423.110 Y406.675
G01 X413.661 Y409.351
G01 X409.950 Y409.738
G01 X403.760 Y409.184
G01 X401.903 Y408.966
G01 X403.760 Y409.184
G01 X409.950 Y409.738
G01 X413.661 Y409.351
G01 X423.110 Y406.675
G01 X427.414 Y405.456
G01 X433.081 Y405.502
G01 X435.398 Y406.186
G01 X436.817 Y406.640
G01 X444.380 Y410.357
G01 X448.117 Y414.172
G01 X449.285 Y416.657
G01 X449.643 Y417.444
G01 X450.408 Y420.317
G01 X450.377 Y425.037
G01 X449.712 Y426.399
G01 X449.526 Y426.960
G01 X449.394 Y427.863
G01 X446.038 Y431.124
G01 X445.193 Y431.315
G01 X440.347 Y432.742
G01 X429.978 Y432.848
G01 X429.973 Y433.786
G01 X431.797 Y441.373
G01 X431.435 Y446.602
G01 X430.284 Y450.313
G01 X426.465 Y454.058
G01 X423.620 Y454.971
G01 X416.485 Y454.568
G01 X413.151 Y453.170
G01 X412.303 Y452.966
G01 X406.225 Y446.769
G01 X403.194 Y438.676
G01 X402.871 Y436.875
G01 X402.599 Y432.567
G01 X404.129 Y422.687
G01 X403.891 Y417.459
G01 X402.929 Y413.363
G01 X401.872 Y411.793
G01 X400.914 Y411.789
G01 X400.465 Y412.263
G01 X397.381 Y421.606
G01 X395.081 Y429.666
G01 X395.243 Y442.435
G01 X396.766 Y449.497
G01 X392.543 Y449.007
G01 X392.053 Y449.475
G01 X391.587 Y448.998
G01 X390.553 Y448.225
G01 X386.394 Y446.794
G01 X380.758 Y446.531
G01 X380.292 Y446.052
G01 X379.827 Y445.573
G01 X368.457 Y447.221
G01 X359.941 Y447.992
G01 X356.204 Y448.357
G01 X348.156 Y448.536
G01 X335.526 Y444.810
G01 X333.571 Y444.140
G01 X327.955 Y440.326
G01 X327.487 Y439.855
G01 X327.005 Y439.352
G01 X327.487 Y439.855
G01 X327.019 Y440.322
G01 X325.164 Y440.484
G01 X320.864 Y441.673
G01 X315.608 Y446.802
G01 X314.503 Y449.574
G01 X314.303 Y450.140
G01 X312.670 Y457.142
G01 X312.192 Y457.612
G01 X311.732 Y457.144
G01 X308.535 Y455.517
G01 X304.178 Y453.492
G01 X300.441 Y452.304
G01 X299.985 Y451.819
G01 X300.475 Y451.380
G01 X300.787 Y450.846
G01 X303.167 Y445.688
G01 X303.555 Y443.900
G01 X303.889 Y439.608
G01 X302.976 Y436.776
G01 X300.168 Y433.887
G01 X296.824 Y432.582
G01 X295.465 Y431.978
G01 X292.636 Y431.944
G01 X286.829 Y434.505
G01 X286.000 Y434.705
G01 X280.286 Y440.308
G01 X277.652 Y448.254
G01 X275.184 Y459.053
G01 X272.484 Y463.830
G01 X272.939 Y465.254
G01 X275.738 Y465.479
G01 X279.109 Y466.599
G01 X289.608 Y472.441
G01 X293.173 Y474.217
G01 X300.228 Y474.975
G01 X308.259 Y472.680
G01 X312.571 Y468.488
G01 X312.757 Y467.648
G01 X313.525 Y466.606
G01 X312.757 Y467.648
G01 X312.571 Y468.488
G01 X308.259 Y472.680
G01 X300.228 Y474.975
G01 X293.173 Y474.217
G01 X282.462 Y468.569
G01 X279.109 Y466.599
G01 X275.738 Y465.479
G01 X272.939 Y465.254
G01 X272.484 Y463.830
G01 X275.184 Y459.053
G01 X277.652 Y448.254
G01 X280.286 Y440.308
G01 X286.000 Y434.705
G01 X286.829 Y434.505
G01 X292.636 Y431.944
G01 X295.465 Y431.978
G01 X296.824 Y432.582
G01 X300.168 Y433.887
G01 X302.976 Y436.776
G01 X303.889 Y439.608
G01 X303.555 Y443.900
G01 X303.167 Y445.688
G01 X300.787 Y450.846
G01 X300.475 Y451.380
G01 X299.985 Y451.819
G01 X300.441 Y452.304
G01 X304.178 Y453.492
G01 X308.535 Y455.517
G01 X311.732 Y457.144
G01 X312.192 Y457.612
G01 X312.666 Y458.111
G01 X312.943 Y458.606
G01 X313.998 Y466.144
G01 X313.525 Y466.606
G01 X313.998 Y466.144
G01 X314.469 Y466.609
G01 X314.607 Y467.525
G01 X314.867 Y473.696
G01 X314.364 Y477.006
G01 X319.099 Y476.106
G01 X324.306 Y476.443
G01 X329.032 Y477.427
G01 X331.331 Y478.104
G01 X337.007 Y478.162
G01 X344.589 Y475.403
G01 X349.367 Y470.750
G01 X350.331 Y467.924
G01 X350.384 Y462.253
G01 X346.667 Y457.515
G01 X345.754 Y457.341
G01 X341.979 Y456.324
G01 X334.398 Y456.428
G01 X334.452 Y451.712
G01 X334.926 Y451.237
G01 X333.896 Y445.628
G01 X333.571 Y444.140
G01 X333.896 Y445.628
G01 X334.926 Y451.237
G01 X334.452 Y451.712
G01 X334.398 Y456.428
G01 X341.979 Y456.324
G01 X345.754 Y457.341
G01 X346.667 Y457.515
G01 X350.384 Y462.253
G01 X350.331 Y467.924
G01 X349.367 Y470.750
G01 X344.589 Y475.403
G01 X337.007 Y478.162
G01 X331.331 Y478.104
G01 X329.032 Y477.427
G01 X324.306 Y476.443
G01 X319.099 Y476.106
G01 X314.364 Y477.006
G01 X313.409 Y477.948
G01 X314.364 Y477.006
G01 X314.867 Y473.696
G01 X314.607 Y467.525
G01 X314.469 Y466.609
G01 X313.998 Y466.144
G01 X312.943 Y458.606
G01 X312.666 Y458.111
G01 X312.192 Y457.612
G01 X312.670 Y457.142
G01 X314.303 Y450.140
G01 X314.503 Y449.574
G01 X315.608 Y446.802
G01 X320.864 Y441.673
G01 X325.164 Y440.484
G01 X327.019 Y440.322
G01 X327.487 Y439.855
G01 X327.955 Y440.326
G01 X333.571 Y444.140
G01 X346.107 Y448.000
G01 X348.156 Y448.536
G01 X356.204 Y448.357
G01 X359.941 Y447.992
G01 X371.195 Y446.888
G01 X379.827 Y445.573
G01 X380.292 Y446.052
G01 X380.758 Y446.531
G01 X380.281 Y447.003
G01 X377.914 Y448.379
G01 X376.648 Y450.810
G01 X375.976 Y452.149
G01 X376.758 Y455.972
G01 X381.065 Y461.146
G01 X381.078 Y462.093
G01 X380.268 Y462.296
G01 X375.372 Y465.815
G01 X374.410 Y467.702
G01 X374.355 Y472.412
G01 X378.094 Y476.231
G01 X385.165 Y476.781
G01 X386.539 Y476.154
G01 X389.436 Y475.407
G01 X396.111 Y468.847
G01 X396.115 Y467.906
G01 X400.543 Y464.892
G01 X401.806 Y464.199
G01 X400.543 Y464.892
G01 X396.115 Y467.906
G01 X396.111 Y468.847
G01 X389.436 Y475.407
G01 X386.539 Y476.154
G01 X385.165 Y476.781
G01 X378.094 Y476.231
G01 X374.355 Y472.412
G01 X374.410 Y467.702
G01 X375.372 Y465.815
G01 X380.268 Y462.296
G01 X381.078 Y462.093
G01 X381.065 Y461.146
G01 X376.758 Y455.972
G01 X375.976 Y452.149
G01 X376.648 Y450.810
G01 X377.914 Y448.379
G01 X380.281 Y447.003
G01 X380.758 Y446.531
G01 X386.394 Y446.794
G01 X390.553 Y448.225
G01 X391.587 Y448.998
G01 X392.053 Y449.475
G01 X392.520 Y449.951
G01 X395.049 Y454.097
G01 X398.079 Y460.382
G01 X401.839 Y463.255
G01 X402.305 Y463.731
G01 X401.806 Y464.199
G01 X402.305 Y463.731
G01 X401.839 Y463.255
G01 X398.079 Y460.382
G01 X395.049 Y454.097
G01 X392.520 Y449.951
G01 X392.053 Y449.475
G01 X392.543 Y449.007
G01 X396.766 Y449.497
G01 X395.243 Y442.435
G01 X395.081 Y429.666
G01 X397.381 Y421.606
G01 X400.465 Y412.263
G01 X400.914 Y411.789
G01 X401.872 Y411.793
G01 X401.415 Y410.377
G01 X401.423 Y409.437
G01 X401.903 Y408.966
G01 X401.427 Y408.498
G01 X401.959 Y403.309
G01 X401.274 Y395.718
G01 X401.117 Y393.860
G01 X401.585 Y393.392
G01 X402.059 Y393.872
G01 X408.314 Y398.899
G01 X416.172 Y402.359
G01 X420.843 Y403.510
G01 X426.500 Y403.565
G01 X436.471 Y401.483
G01 X440.670 Y400.694
G01 X449.680 Y400.490
G01 X453.393 Y401.622
G01 X456.735 Y401.988
G01 X454.926 Y393.466
G01 X454.994 Y387.798
G01 X455.762 Y384.924
G01 X458.330 Y373.786
G01 X458.450 Y373.192
G01 X458.230 Y365.127
G01 X457.877 Y363.318
G01 X455.018 Y356.064
G01 X454.629 Y355.376
G01 X452.993 Y352.378
G01 X447.386 Y346.665
G01 X440.762 Y343.933
G01 X438.440 Y343.265
G01 X434.240 Y343.874
G01 X431.464 Y344.803
G01 X428.989 Y345.991
G01 X427.068 Y347.856
G01 X427.055 Y348.813
G01 X425.639 Y350.213
G01 X424.675 Y350.189
G01 X425.639 Y350.213
G01 X427.055 Y348.813
G01 X427.068 Y347.856
G01 X428.989 Y345.991
G01 X431.464 Y344.803
G01 X434.240 Y343.874
G01 X438.440 Y343.265
G01 X440.762 Y343.933
G01 X447.386 Y346.665
G01 X452.993 Y352.378
G01 X454.629 Y355.376
G01 X455.018 Y356.064
G01 X457.877 Y363.318
G01 X458.230 Y365.127
G01 X458.450 Y373.192
G01 X455.913 Y384.332
G01 X455.762 Y384.924
G01 X454.994 Y387.798
G01 X454.926 Y393.466
G01 X456.735 Y401.988
G01 X453.393 Y401.622
G01 X449.680 Y400.490
G01 X440.670 Y400.694
G01 X436.471 Y401.483
G01 X426.500 Y403.565
G01 X420.843 Y403.510
G01 X416.172 Y402.359
G01 X408.314 Y398.899
G01 X402.059 Y393.872
G01 X401.585 Y393.392
G01 X401.111 Y392.912
G01 X397.915 Y382.976
G01 X397.441 Y382.488
G01 X397.922 Y382.019
G01 X398.765 Y378.206
G01 X402.266 Y372.157
G01 X407.128 Y369.576
G01 X410.819 Y368.463
G01 X424.944 Y369.548
G01 X423.861 Y363.907
G01 X423.591 Y363.405
G01 X424.178 Y353.553
G01 X424.180 Y353.491
G01 X424.661 Y353.036
G01 X424.682 Y351.153
G01 X424.675 Y350.189
G01 X424.217 Y349.717
G01 X426.002 Y342.152
G01 X428.074 Y333.288
G01 X428.815 Y329.528
G01 X428.998 Y328.946
G01 X432.754 Y322.134
G01 X435.861 Y318.688
G01 X435.885 Y316.791
G01 X426.882 Y315.441
G01 X419.561 Y312.167
G01 X417.391 Y310.689
G01 X405.444 Y302.619
G01 X404.315 Y302.030
G01 X397.806 Y300.102
G01 X394.030 Y299.851
G01 X393.589 Y299.381
G01 X393.080 Y299.848
G01 X391.216 Y299.827
G01 X390.741 Y299.346
G01 X386.977 Y299.310
G01 X386.502 Y298.829
G01 X374.241 Y295.151
G01 X367.659 Y294.868
G01 X366.711 Y294.863
G01 X366.516 Y300.645
G01 X366.401 Y302.392
G01 X364.700 Y307.109
G01 X359.930 Y311.824
G01 X359.462 Y312.255
G01 X357.461 Y312.980
G01 X348.095 Y314.959
G01 X347.614 Y315.431
G01 X347.144 Y314.948
G01 X345.272 Y314.940
G01 X344.789 Y315.403
G01 X344.300 Y315.870
G01 X343.379 Y315.861
G01 X342.911 Y315.390
G01 X342.929 Y314.447
G01 X344.320 Y314.923
G01 X344.789 Y315.403
G01 X344.320 Y314.923
G01 X342.929 Y314.447
G01 X336.282 Y311.687
G01 X330.226 Y308.178
G01 X326.666 Y303.056
G01 X322.808 Y298.345
G01 X320.904 Y296.282
G01 X319.049 Y293.900
G01 X318.585 Y293.428
G01 X318.120 Y292.948
G01 X316.737 Y290.575
G01 X311.668 Y287.032
G01 X309.304 Y285.590
G01 X306.414 Y284.807
G01 X305.929 Y284.331
G01 X305.469 Y284.799
G01 X300.343 Y285.501
G01 X296.275 Y287.659
G01 X292.847 Y289.145
G01 X290.445 Y290.884
G01 X288.374 Y292.176
G01 X287.912 Y292.646
G01 X287.444 Y292.169
G01 X286.551 Y290.114
G01 X285.550 Y288.165
G01 X284.449 Y286.331
G01 X283.482 Y284.921
G01 X283.285 Y284.100
G01 X282.097 Y282.520
G01 X280.836 Y281.057
G01 X279.512 Y279.713
G01 X278.134 Y278.492
G01 X276.748 Y277.423
G01 X274.682 Y276.630
G01 X272.607 Y276.022
G01 X271.065 Y275.689
G01 X268.844 Y275.474
G01 X267.320 Y275.440
G01 X266.846 Y275.906
G01 X264.485 Y276.352
G01 X264.020 Y275.874
G01 X263.527 Y276.350
G01 X262.096 Y276.813
G01 X261.635 Y277.272
G01 X261.188 Y278.243
G01 X260.677 Y279.154
G01 X260.104 Y279.999
G01 X259.476 Y280.776
G01 X258.799 Y281.481
G01 X258.228 Y281.988
G01 X257.994 Y282.457
G01 X257.736 Y282.897
G01 X257.454 Y283.308
G01 X257.152 Y283.689
G01 X256.830 Y284.039
G01 X256.501 Y284.349
G01 X256.479 Y284.668
G01 X256.442 Y284.985
G01 X256.389 Y285.301
G01 X256.320 Y285.614
G01 X256.237 Y285.923
G01 X256.138 Y286.227
G01 X256.024 Y286.527
G01 X255.896 Y286.821
G01 X255.753 Y287.109
G01 X255.596 Y287.389
G01 X255.456 Y287.615
G01 X255.429 Y287.993
G01 X255.377 Y288.377
G01 X255.300 Y288.766
G01 X255.198 Y289.157
G01 X255.069 Y289.549
G01 X254.915 Y289.941
G01 X254.734 Y290.330
G01 X254.526 Y290.716
G01 X254.419 Y290.896
G01 X254.563 Y291.955
G01 X254.613 Y293.044
G01 X254.567 Y294.154
G01 X254.421 Y295.280
G01 X254.362 Y295.597
G01 X255.132 Y299.445
G01 X255.399 Y300.278
G01 X257.785 Y306.343
G01 X260.573 Y310.138
G01 X263.747 Y313.704
G01 X266.307 Y316.151
G01 X272.318 Y323.118
G01 X272.698 Y323.515
G01 X275.583 Y329.845
G01 X276.649 Y332.655
G01 X277.109 Y333.121
G01 X277.586 Y332.654
G01 X277.109 Y333.121
G01 X276.649 Y332.655
G01 X275.583 Y329.845
G01 X272.698 Y323.515
G01 X267.377 Y318.016
G01 X262.660 Y312.106
G01 X262.044 Y311.241
G01 X259.360 Y308.335
G01 X257.785 Y306.343
G01 X255.399 Y300.278
G01 X255.132 Y299.445
G01 X254.362 Y295.597
G01 X254.536 Y294.468
G01 X254.610 Y293.353
G01 X254.587 Y292.258
G01 X254.469 Y291.189
G01 X254.419 Y290.896
G01 X254.639 Y290.512
G01 X254.833 Y290.124
G01 X255.000 Y289.734
G01 X255.141 Y289.341
G01 X255.255 Y288.950
G01 X255.344 Y288.560
G01 X255.407 Y288.173
G01 X255.446 Y287.792
G01 X255.456 Y287.615
G01 X255.624 Y287.341
G01 X255.779 Y287.060
G01 X255.919 Y286.771
G01 X256.045 Y286.476
G01 X256.156 Y286.175
G01 X256.252 Y285.870
G01 X256.333 Y285.560
G01 X256.399 Y285.247
G01 X256.449 Y284.931
G01 X256.484 Y284.613
G01 X256.501 Y284.349
G01 X256.838 Y284.031
G01 X257.159 Y283.681
G01 X257.461 Y283.299
G01 X257.742 Y282.887
G01 X258.000 Y282.446
G01 X258.228 Y281.988
G01 X258.941 Y281.343
G01 X259.609 Y280.623
G01 X260.226 Y279.832
G01 X260.786 Y278.973
G01 X261.285 Y278.050
G01 X261.635 Y277.272
G01 X261.176 Y276.789
G01 X260.003 Y276.827
G01 X258.864 Y276.961
G01 X257.763 Y277.188
G01 X257.760 Y277.189
G01 X257.061 Y277.160
G01 X256.379 Y277.183
G01 X255.718 Y277.255
G01 X255.079 Y277.375
G01 X254.467 Y277.540
G01 X254.365 Y277.572
G01 X253.949 Y277.523
G01 X253.538 Y277.500
G01 X253.135 Y277.500
G01 X252.740 Y277.524
G01 X252.355 Y277.571
G01 X251.982 Y277.639
G01 X251.622 Y277.728
G01 X251.274 Y277.837
G01 X250.970 Y277.952
G01 X250.672 Y277.909
G01 X250.373 Y277.880
G01 X250.072 Y277.866
G01 X249.771 Y277.867
G01 X249.470 Y277.883
G01 X249.170 Y277.913
G01 X248.872 Y277.958
G01 X248.576 Y278.018
G01 X248.283 Y278.092
G01 X247.995 Y278.180
G01 X247.710 Y278.283
G01 X247.571 Y278.339
G01 X247.210 Y278.289
G01 X246.838 Y278.262
G01 X246.458 Y278.257
G01 X246.069 Y278.276
G01 X245.675 Y278.320
G01 X245.275 Y278.389
G01 X244.872 Y278.484
G01 X244.467 Y278.606
G01 X244.161 Y278.716
G01 X243.599 Y278.754
G01 X243.026 Y278.836
G01 X242.448 Y278.961
G01 X241.865 Y279.132
G01 X241.282 Y279.348
G01 X240.701 Y279.610
G01 X240.126 Y279.918
G01 X239.941 Y280.029
G01 X239.000 Y280.270
G01 X238.062 Y280.595
G01 X237.130 Y281.004
G01 X236.212 Y281.496
G01 X235.313 Y282.071
G01 X234.859 Y282.400
G01 X233.310 Y283.061
G01 X232.295 Y283.584
G01 X231.822 Y283.107
G01 X231.641 Y282.191
G01 X231.506 Y281.256
G01 X231.419 Y280.304
G01 X231.394 Y279.798
G01 X230.930 Y279.323
G01 X230.473 Y278.849
G01 X229.667 Y278.611
G01 X225.419 Y276.175
G01 X224.358 Y275.480
G01 X219.651 Y275.434
G01 X217.300 Y276.481
G01 X214.984 Y277.739
G01 X214.600 Y277.971
G01 X212.473 Y279.490
G01 X210.897 Y280.778
G01 X206.081 Y282.545
G01 X205.390 Y282.840
G01 X204.925 Y283.306
G01 X205.411 Y283.786
G01 X206.034 Y285.948
G01 X206.762 Y288.049
G01 X207.588 Y290.083
G01 X208.425 Y291.879
G01 X208.775 Y293.696
G01 X209.397 Y295.679
G01 X210.114 Y297.625
G01 X210.456 Y298.461
G01 X212.187 Y299.973
G01 X213.588 Y301.071
G01 X215.257 Y302.079
G01 X216.546 Y302.770
G01 X219.860 Y302.912
G01 X222.182 Y302.844
G01 X225.055 Y300.970
G01 X225.510 Y300.518
G01 X225.994 Y300.046
G01 X226.494 Y298.626
G01 X226.953 Y298.171
G01 X226.499 Y297.684
G01 X226.953 Y298.171
G01 X227.419 Y298.646
G01 X227.936 Y298.982
G01 X229.313 Y299.583
G01 X230.695 Y300.085
G01 X232.075 Y300.491
G01 X233.446 Y300.802
G01 X233.565 Y300.825
G01 X234.840 Y301.124
G01 X236.105 Y301.341
G01 X237.354 Y301.475
G01 X238.581 Y301.531
G01 X239.782 Y301.509
G01 X240.953 Y301.413
G01 X242.034 Y301.255
G01 X243.001 Y301.351
G01 X243.958 Y301.394
G01 X244.863 Y301.387
G01 X245.658 Y301.883
G01 X246.489 Y302.342
G01 X247.355 Y302.762
G01 X248.254 Y303.141
G01 X249.184 Y303.476
G01 X250.143 Y303.765
G01 X251.128 Y304.006
G01 X251.448 Y304.073
G01 X252.632 Y305.631
G01 X253.972 Y307.117
G01 X255.464 Y308.519
G01 X257.055 Y309.793
G01 X257.235 Y310.650
G01 X258.437 Y313.112
G01 X258.086 Y318.073
G01 X258.053 Y318.349
G01 X257.419 Y320.672
G01 X255.770 Y322.043
G01 X254.004 Y323.338
G01 X253.136 Y323.917
G01 X251.173 Y324.012
G01 X249.209 Y324.011
G01 X247.247 Y323.914
G01 X246.528 Y323.854
G01 X244.647 Y323.123
G01 X243.753 Y322.734
G01 X241.948 Y321.964
G01 X241.829 Y321.909
G01 X240.884 Y321.909
G01 X240.579 Y325.217
G01 X238.893 Y332.263
G01 X235.556 Y335.529
G01 X238.893 Y332.263
G01 X240.579 Y325.217
G01 X240.884 Y321.909
G01 X241.829 Y321.909
G01 X243.629 Y322.685
G01 X243.753 Y322.734
G01 X245.604 Y323.509
G01 X246.528 Y323.854
G01 X248.487 Y323.987
G01 X250.451 Y324.023
G01 X252.415 Y323.963
G01 X253.136 Y323.917
G01 X254.956 Y322.661
G01 X256.660 Y321.324
G01 X257.419 Y320.672
G01 X258.053 Y318.349
G01 X258.430 Y313.385
G01 X258.437 Y313.112
G01 X257.235 Y310.650
G01 X257.055 Y309.793
G01 X255.421 Y308.482
G01 X253.933 Y307.077
G01 X252.597 Y305.589
G01 X251.448 Y304.073
G01 X250.455 Y303.847
G01 X249.488 Y303.573
G01 X248.548 Y303.253
G01 X247.639 Y302.888
G01 X246.762 Y302.481
G01 X245.919 Y302.034
G01 X245.113 Y301.549
G01 X244.863 Y301.387
G01 X243.892 Y301.467
G01 X242.901 Y301.494
G01 X241.894 Y301.464
G01 X240.873 Y301.377
G01 X239.841 Y301.231
G01 X239.211 Y301.113
G01 X237.946 Y301.189
G01 X236.647 Y301.181
G01 X235.322 Y301.085
G01 X233.975 Y300.899
G01 X233.565 Y300.825
G01 X232.194 Y300.522
G01 X230.814 Y300.124
G01 X229.433 Y299.630
G01 X228.055 Y299.038
G01 X227.936 Y298.982
G01 X227.419 Y298.646
G01 X226.953 Y298.171
G01 X226.494 Y298.626
G01 X225.994 Y300.046
G01 X225.510 Y300.518
G01 X225.999 Y300.979
G01 X226.471 Y301.452
G01 X225.678 Y303.963
G01 X225.079 Y306.590
G01 X224.788 Y308.428
G01 X224.218 Y309.546
G01 X221.581 Y315.067
G01 X220.627 Y317.456
G01 X220.605 Y320.995
G01 X220.858 Y324.562
G01 X221.199 Y326.380
G01 X222.404 Y329.232
G01 X223.149 Y330.776
G01 X224.927 Y333.114
G01 X225.664 Y334.008
G01 X223.822 Y331.694
G01 X223.149 Y330.776
G01 X221.829 Y327.933
G01 X221.199 Y326.380
G01 X220.858 Y324.562
G01 X220.604 Y320.946
G01 X220.627 Y317.456
G01 X223.064 Y311.802
G01 X224.218 Y309.546
G01 X224.788 Y308.428
G01 X225.251 Y305.729
G01 X225.914 Y303.138
G01 X226.471 Y301.452
G01 X225.999 Y300.979
G01 X225.510 Y300.518
G01 X225.055 Y300.970
G01 X222.182 Y302.844
G01 X218.917 Y302.900
G01 X216.546 Y302.770
G01 X215.257 Y302.079
G01 X213.588 Y301.071
G01 X211.817 Y299.665
G01 X210.456 Y298.461
G01 X209.698 Y296.533
G01 X209.035 Y294.566
G01 X208.775 Y293.696
G01 X208.425 Y291.879
G01 X207.513 Y289.910
G01 X206.695 Y287.870
G01 X205.976 Y285.763
G01 X205.411 Y283.786
G01 X204.925 Y283.306
G01 X204.466 Y283.777
G01 X202.732 Y286.090
G01 X201.119 Y288.572
G01 X199.641 Y291.218
G01 X198.696 Y293.156
G01 X191.768 Y297.370
G01 X191.614 Y297.473
G01 X184.461 Y299.622
G01 X183.998 Y300.089
G01 X183.982 Y301.033
G01 X183.489 Y301.501
G01 X183.982 Y301.033
G01 X183.998 Y300.089
G01 X183.524 Y299.614
G01 X182.586 Y299.599
G01 X182.086 Y300.073
G01 X182.560 Y300.546
G01 X182.547 Y301.497
G01 X183.489 Y301.501
G01 X183.978 Y301.974
G01 X185.998 Y303.665
G01 X187.735 Y304.841
G01 X189.267 Y307.702
G01 X189.349 Y307.845
G01 X190.481 Y310.544
G01 X190.413 Y314.162
G01 X190.435 Y315.260
G01 X189.638 Y317.180
G01 X189.285 Y317.985
G01 X186.362 Y322.563
G01 X180.385 Y328.847
G01 X180.376 Y329.795
G01 X183.324 Y331.500
G01 X184.014 Y331.919
G01 X186.480 Y333.166
G01 X189.148 Y336.070
G01 X191.947 Y338.831
G01 X193.031 Y339.830
G01 X193.988 Y344.559
G01 X194.576 Y346.887
G01 X194.842 Y347.399
G01 X195.299 Y347.886
G01 X195.776 Y347.419
G01 X200.749 Y342.961
G01 X204.214 Y340.689
G01 X205.896 Y339.704
G01 X211.444 Y337.937
G01 X216.238 Y335.984
G01 X220.156 Y335.299
G01 X220.952 Y335.124
G01 X224.215 Y335.062
G01 X225.648 Y334.971
G01 X226.121 Y334.499
G01 X225.664 Y334.008
G01 X226.121 Y334.499
G01 X226.586 Y334.986
G01 X229.357 Y335.472
G01 X232.119 Y335.810
G01 X234.864 Y336.003
G01 X235.078 Y336.012
G01 X235.556 Y335.529
G01 X235.078 Y336.012
G01 X235.546 Y336.471
G01 X238.108 Y337.252
G01 X240.712 Y337.908
G01 X243.351 Y338.436
G01 X246.020 Y338.834
G01 X247.501 Y338.998
G01 X250.205 Y339.648
G01 X252.967 Y340.163
G01 X253.480 Y340.242
G01 X256.340 Y340.937
G01 X259.095 Y341.455
G01 X262.043 Y341.608
G01 X265.028 Y341.608
G01 X268.041 Y341.453
G01 X269.976 Y341.271
G01 X272.755 Y340.904
G01 X275.814 Y340.362
G01 X278.874 Y339.655
G01 X281.926 Y338.782
G01 X283.192 Y338.369
G01 X283.156 Y344.835
G01 X282.598 Y351.123
G01 X283.315 Y354.931
G01 X284.985 Y361.943
G01 X293.421 Y381.520
G01 X296.390 Y387.132
G01 X296.856 Y387.613
G01 X297.333 Y387.126
G01 X299.085 Y383.346
G01 X300.294 Y374.893
G01 X298.973 Y365.923
G01 X299.340 Y358.028
G01 X299.340 Y357.867
G01 X299.881 Y355.506
G01 X302.118 Y351.405
G01 X304.075 Y347.261
G01 X304.354 Y346.614
G01 X307.552 Y344.070
G01 X310.630 Y341.363
G01 X311.492 Y340.555
G01 X311.969 Y340.085
G01 X311.504 Y339.608
G01 X305.390 Y337.185
G01 X302.132 Y333.857
G01 X301.984 Y332.945
G01 X301.204 Y331.008
G01 X301.584 Y326.888
G01 X301.593 Y326.729
G01 X301.740 Y325.831
G01 X304.105 Y323.516
G01 X304.584 Y323.017
G01 X307.425 Y322.101
G01 X311.640 Y322.800
G01 X314.036 Y323.120
G01 X314.515 Y321.705
G01 X314.061 Y321.233
G01 X314.913 Y317.581
G01 X315.529 Y314.156
G01 X318.915 Y311.702
G01 X319.345 Y311.368
G01 X322.184 Y311.401
G01 X325.456 Y312.842
G01 X328.276 Y315.710
G01 X329.466 Y318.217
G01 X329.784 Y318.980
G01 X330.582 Y321.877
G01 X330.519 Y325.643
G01 X329.838 Y327.958
G01 X328.438 Y332.348
G01 X328.309 Y332.715
G01 X328.128 Y338.093
G01 X328.040 Y339.314
G01 X327.543 Y339.769
G01 X325.651 Y339.751
G01 X327.543 Y339.769
G01 X328.040 Y339.314
G01 X328.298 Y333.912
G01 X328.309 Y332.715
G01 X329.730 Y328.327
G01 X329.838 Y327.958
G01 X330.519 Y325.643
G01 X330.582 Y321.877
G01 X329.784 Y318.980
G01 X329.466 Y318.217
G01 X328.276 Y315.710
G01 X325.456 Y312.842
G01 X322.184 Y311.401
G01 X319.345 Y311.368
G01 X315.969 Y313.855
G01 X315.529 Y314.156
G01 X314.867 Y317.802
G01 X314.061 Y321.233
G01 X314.515 Y321.705
G01 X314.036 Y323.120
G01 X311.640 Y322.800
G01 X307.425 Y322.101
G01 X304.584 Y323.017
G01 X302.240 Y325.361
G01 X301.740 Y325.831
G01 X301.593 Y326.729
G01 X301.224 Y330.846
G01 X301.204 Y331.008
G01 X301.984 Y332.945
G01 X302.132 Y333.857
G01 X305.390 Y337.185
G01 X311.504 Y339.608
G01 X311.969 Y340.085
G01 X313.431 Y339.813
G01 X315.765 Y339.191
G01 X323.443 Y339.728
G01 X324.732 Y339.757
G01 X325.175 Y340.216
G01 X325.651 Y339.751
G01 X325.175 Y340.216
G01 X325.651 Y340.690
G01 X328.676 Y345.149
G01 X329.516 Y347.308
G01 X329.696 Y347.868
G01 X330.292 Y349.248
G01 X330.223 Y355.850
G01 X328.939 Y361.066
G01 X328.738 Y362.911
G01 X328.263 Y363.382
G01 X327.786 Y363.850
G01 X328.263 Y363.382
G01 X328.738 Y362.911
G01 X329.200 Y363.390
G01 X335.335 Y362.973
G01 X342.303 Y364.645
G01 X343.447 Y365.250
G01 X344.297 Y365.445
G01 X348.968 Y370.208
G01 X349.272 Y371.667
G01 X349.549 Y372.515
G01 X349.825 Y377.764
G01 X347.886 Y383.405
G01 X343.010 Y388.222
G01 X342.161 Y389.015
G01 X340.183 Y389.753
G01 X333.414 Y392.143
G01 X331.726 Y392.674
G01 X324.191 Y392.608
G01 X320.464 Y391.481
G01 X311.468 Y388.617
G01 X309.140 Y387.748
G01 X302.564 Y387.734
G01 X300.634 Y387.654
G01 X296.847 Y388.538
G01 X299.104 Y398.478
G01 X298.727 Y409.369
G01 X298.310 Y412.152
G01 X296.400 Y418.718
G01 X296.211 Y419.264
G01 X293.662 Y424.403
G01 X287.737 Y430.315
G01 X285.545 Y432.331
G01 X279.367 Y434.425
G01 X276.585 Y434.800
G01 X269.036 Y434.990
G01 X267.593 Y434.983
G01 X264.319 Y434.274
G01 X259.687 Y432.364
G01 X257.710 Y431.569
G01 X259.687 Y432.364
G01 X264.319 Y434.274
G01 X267.593 Y434.983
G01 X275.135 Y434.865
G01 X276.585 Y434.800
G01 X279.367 Y434.425
G01 X285.545 Y432.331
G01 X291.640 Y426.503
G01 X293.662 Y424.403
G01 X296.211 Y419.264
G01 X296.400 Y418.718
G01 X298.310 Y412.152
G01 X298.727 Y409.369
G01 X299.104 Y398.478
G01 X296.847 Y388.538
G01 X300.634 Y387.654
G01 X307.169 Y387.785
G01 X309.140 Y387.748
G01 X318.018 Y390.778
G01 X320.464 Y391.481
G01 X324.191 Y392.608
G01 X331.726 Y392.674
G01 X338.502 Y390.386
G01 X340.183 Y389.753
G01 X342.161 Y389.015
G01 X347.078 Y384.237
G01 X347.886 Y383.405
G01 X349.825 Y377.764
G01 X349.549 Y372.515
G01 X349.272 Y371.667
G01 X348.968 Y370.208
G01 X344.297 Y365.445
G01 X343.447 Y365.250
G01 X342.303 Y364.645
G01 X335.335 Y362.973
G01 X329.200 Y363.390
G01 X328.738 Y362.911
G01 X328.939 Y361.066
G01 X330.223 Y355.850
G01 X330.292 Y349.248
G01 X329.696 Y347.868
G01 X329.516 Y347.308
G01 X328.676 Y345.149
G01 X325.651 Y340.690
G01 X325.175 Y340.216
G01 X324.732 Y339.757
G01 X317.019 Y339.322
G01 X315.765 Y339.191
G01 X313.431 Y339.813
G01 X311.969 Y340.085
G01 X311.492 Y340.555
G01 X308.450 Y343.308
G01 X305.286 Y345.899
G01 X304.354 Y346.614
G01 X302.440 Y350.764
G01 X300.247 Y354.872
G01 X299.881 Y355.506
G01 X299.340 Y357.867
G01 X298.988 Y365.759
G01 X298.973 Y365.923
G01 X300.294 Y374.893
G01 X299.085 Y383.346
G01 X297.333 Y387.126
G01 X296.856 Y387.613
G01 X296.847 Y388.538
G01 X296.856 Y387.613
G01 X296.390 Y387.132
G01 X293.421 Y381.520
G01 X284.985 Y361.943
G01 X283.315 Y354.931
G01 X282.598 Y351.123
G01 X283.170 Y344.546
G01 X283.192 Y338.369
G01 X280.146 Y339.311
G01 X277.088 Y340.087
G01 X274.028 Y340.698
G01 X272.755 Y340.904
G01 X269.976 Y341.271
G01 X266.949 Y341.527
G01 X263.945 Y341.626
G01 X260.973 Y341.570
G01 X259.095 Y341.455
G01 X256.164 Y340.899
G01 X253.480 Y340.242
G01 X250.711 Y339.905
G01 X247.983 Y339.432
G01 X245.303 Y338.827
G01 X242.677 Y338.094
G01 X241.523 Y337.725
G01 X238.894 Y337.260
G01 X236.290 Y336.665
G01 X235.546 Y336.471
G01 X235.078 Y336.012
G01 X232.334 Y335.830
G01 X229.574 Y335.503
G01 X226.803 Y335.029
G01 X226.586 Y334.986
G01 X226.121 Y334.499
G01 X225.648 Y334.971
G01 X222.418 Y335.121
G01 X220.952 Y335.124
G01 X217.065 Y335.863
G01 X216.238 Y335.984
G01 X210.949 Y338.115
G01 X205.896 Y339.704
G01 X204.214 Y340.689
G01 X200.749 Y342.961
G01 X195.776 Y347.419
G01 X195.299 Y347.886
G01 X194.821 Y348.353
G01 X195.299 Y347.886
G01 X194.842 Y347.399
G01 X194.576 Y346.887
G01 X193.458 Y342.138
G01 X193.031 Y339.830
G01 X190.184 Y337.124
G01 X187.465 Y334.272
G01 X186.480 Y333.166
G01 X184.014 Y331.919
G01 X183.324 Y331.500
G01 X180.376 Y329.795
G01 X180.385 Y328.847
G01 X186.362 Y322.563
G01 X189.285 Y317.985
G01 X189.638 Y317.180
G01 X190.435 Y315.260
G01 X190.438 Y311.620
G01 X190.481 Y310.544
G01 X189.349 Y307.845
G01 X187.811 Y304.990
G01 X187.735 Y304.841
G01 X185.998 Y303.665
G01 X183.978 Y301.974
G01 X183.489 Y301.501
G01 X182.547 Y301.497
G01 X182.560 Y300.546
G01 X182.086 Y300.073
G01 X173.149 Y299.506
G01 X172.663 Y299.034
G01 X172.183 Y299.499
G01 X160.349 Y304.566
G01 X159.882 Y305.034
G01 X159.382 Y305.504
G01 X153.549 Y311.953
G01 X152.693 Y312.995
G01 X152.490 Y314.837
G01 X149.097 Y321.449
G01 X147.590 Y324.832
G01 X147.399 Y325.671
G01 X140.229 Y332.691
G01 X138.822 Y333.143
G01 X138.789 Y335.030
G01 X144.053 Y337.258
G01 X147.721 Y339.371
G01 X151.180 Y343.948
G01 X154.839 Y348.320
G01 X158.688 Y352.478
G01 X159.846 Y353.651
G01 X163.290 Y355.827
G01 X168.727 Y358.134
G01 X169.286 Y358.278
G01 X173.949 Y359.460
G01 X179.606 Y359.533
G01 X187.527 Y357.036
G01 X190.030 Y355.852
G01 X190.506 Y355.383
G01 X194.821 Y348.353
G01 X190.506 Y355.383
G01 X190.030 Y355.852
G01 X190.498 Y356.330
G01 X189.947 Y364.773
G01 X189.936 Y365.299
G01 X190.698 Y369.119
G01 X191.460 Y372.345
G01 X193.410 Y376.737
G01 X193.797 Y377.463
G01 X195.451 Y380.454
G01 X199.462 Y384.582
G01 X200.117 Y385.216
G01 X200.919 Y385.451
G01 X205.402 Y388.376
G01 X210.543 Y390.531
G01 X210.873 Y390.660
G01 X216.368 Y391.763
G01 X221.285 Y392.510
G01 X226.955 Y392.327
G01 X232.537 Y391.852
G01 X235.968 Y391.412
G01 X239.201 Y390.660
G01 X240.661 Y390.341
G01 X241.004 Y403.081
G01 X240.058 Y403.076
G01 X239.584 Y403.562
G01 X238.812 Y405.531
G01 X234.426 Y419.186
G01 X234.221 Y420.008
G01 X230.405 Y423.753
G01 X229.564 Y423.951
G01 X225.679 Y425.601
G01 X222.332 Y425.271
G01 X220.491 Y425.077
G01 X217.214 Y421.726
G01 X217.264 Y417.021
G01 X218.905 Y413.818
G01 X219.671 Y412.777
G01 X219.682 Y410.909
G01 X215.973 Y409.784
G01 X214.639 Y409.233
G01 X211.968 Y407.167
G01 X210.775 Y405.616
G01 X210.807 Y401.833
G01 X212.738 Y398.084
G01 X217.516 Y395.494
G01 X219.337 Y395.138
G01 X223.623 Y394.901
G01 X224.995 Y395.506
G01 X230.142 Y398.642
G01 X235.538 Y401.537
G01 X236.330 Y401.930
G01 X239.595 Y402.614
G01 X236.330 Y401.930
G01 X230.900 Y399.071
G01 X225.716 Y395.969
G01 X224.995 Y395.506
G01 X223.623 Y394.901
G01 X219.337 Y395.138
G01 X217.516 Y395.494
G01 X212.738 Y398.084
G01 X210.807 Y401.833
G01 X210.775 Y405.616
G01 X211.968 Y407.167
G01 X214.639 Y409.233
G01 X215.973 Y409.784
G01 X219.682 Y410.909
G01 X219.671 Y412.777
G01 X218.905 Y413.818
G01 X217.264 Y417.021
G01 X217.214 Y421.726
G01 X220.491 Y425.077
G01 X222.332 Y425.271
G01 X225.679 Y425.601
G01 X229.564 Y423.951
G01 X230.405 Y423.753
G01 X234.221 Y420.008
G01 X234.426 Y419.186
G01 X238.812 Y405.531
G01 X239.584 Y403.562
G01 X240.058 Y403.076
G01 X239.595 Y402.614
G01 X240.058 Y403.076
G01 X241.004 Y403.081
G01 X243.002 Y410.647
G01 X246.319 Y419.295
G01 X247.894 Y422.514
G01 X254.940 Y429.729
G01 X255.365 Y430.132
G01 X256.779 Y430.633
G01 X256.764 Y431.580
G01 X256.296 Y432.056
G01 X249.026 Y431.799
G01 X244.497 Y431.457
G01 X243.072 Y431.923
G01 X238.305 Y436.572
G01 X238.267 Y440.360
G01 X239.012 Y441.397
G01 X240.634 Y442.554
G01 X246.734 Y443.287
G01 X246.902 Y447.036
G01 X247.138 Y449.420
G01 X248.548 Y450.839
G01 X249.449 Y450.984
G01 X252.795 Y451.347
G01 X254.207 Y450.897
G01 X257.077 Y448.102
G01 X258.554 Y441.969
G01 X258.227 Y441.460
G01 X257.398 Y437.682
G01 X257.231 Y432.049
G01 X257.398 Y437.682
G01 X258.227 Y441.460
G01 X258.554 Y441.969
G01 X257.077 Y448.102
G01 X254.207 Y450.897
G01 X252.795 Y451.347
G01 X249.449 Y450.984
G01 X248.548 Y450.839
G01 X247.138 Y449.420
G01 X246.902 Y447.036
G01 X246.734 Y443.287
G01 X240.634 Y442.554
G01 X239.012 Y441.397
G01 X238.267 Y440.360
G01 X238.305 Y436.572
G01 X243.072 Y431.923
G01 X244.497 Y431.457
G01 X251.744 Y431.937
G01 X256.296 Y432.056
G01 X256.764 Y431.580
G01 X257.231 Y432.049
G01 X257.710 Y431.569
G01 X257.231 Y432.049
G01 X256.764 Y431.580
G01 X256.779 Y430.633
G01 X255.365 Y430.132
G01 X248.279 Y422.937
G01 X247.894 Y422.514
G01 X246.319 Y419.295
G01 X243.002 Y410.647
G01 X241.004 Y403.081
G01 X240.661 Y390.341
G01 X239.201 Y390.660
G01 X235.968 Y391.412
G01 X230.449 Y392.065
G01 X224.832 Y392.430
G01 X221.285 Y392.510
G01 X215.777 Y391.658
G01 X210.873 Y390.660
G01 X205.725 Y388.520
G01 X205.402 Y388.376
G01 X200.919 Y385.451
G01 X200.117 Y385.216
G01 X196.063 Y381.112
G01 X195.451 Y380.454
G01 X193.797 Y377.463
G01 X193.410 Y376.737
G01 X191.460 Y372.345
G01 X190.698 Y369.119
G01 X189.936 Y365.299
G01 X190.444 Y356.841
G01 X190.498 Y356.330
G01 X190.030 Y355.852
G01 X187.527 Y357.036
G01 X179.606 Y359.533
G01 X173.949 Y359.460
G01 X169.286 Y358.278
G01 X168.727 Y358.134
G01 X163.290 Y355.827
G01 X159.846 Y353.651
G01 X155.944 Y349.557
G01 X152.228 Y345.246
G01 X148.710 Y340.728
G01 X147.721 Y339.371
G01 X144.053 Y337.258
G01 X138.789 Y335.030
G01 X138.822 Y333.143
G01 X140.229 Y332.691
G01 X147.399 Y325.671
G01 X147.590 Y324.832
G01 X150.779 Y318.020
G01 X152.490 Y314.837
G01 X152.693 Y312.995
G01 X151.816 Y313.117
G01 X148.075 Y315.016
G01 X142.702 Y316.956
G01 X140.902 Y317.294
G01 X138.016 Y318.028
G01 X129.533 Y317.950
G01 X118.756 Y314.383
G01 X115.979 Y313.365
G01 X108.836 Y311.119
G01 X102.237 Y311.056
G01 X97.491 Y311.956
G01 X97.013 Y311.475
G01 X96.573 Y311.000
G01 X89.468 Y311.407
G01 X88.956 Y311.113
G01 X85.898 Y310.196
G01 X79.443 Y304.461
G01 X75.889 Y302.296
G01 X75.417 Y301.816
G01 X74.938 Y302.289
G01 X62.696 Y307.078
G01 X38.400 Y315.417
G01 X23.353 Y319.367
G01 X4.375 Y322.605
G01 X0.644 Y322.987
G01 X0.000 Y323.081
G01 X0.000 Y323.081
G01 X0.644 Y322.987
G01 X4.375 Y322.605
G01 X23.353 Y319.367
G01 X38.400 Y315.417
G01 X62.696 Y307.078
G01 X74.938 Y302.289
G01 X62.696 Y307.078
G01 X38.400 Y315.417
G01 X23.353 Y319.367
G01 X4.375 Y322.605
G01 X0.644 Y322.987
G01 X0.000 Y323.081

