;  Created by Sandify
;  https://sandify.org
;  Version: 0.2.6
;
;  Machine type: Rectangular
;    Min X (mm): 0
;    Max X (mm): 500
;    Min Y (mm): 0
;    Max Y (mm): 500
;  Content type: shape
;  Layer:
;    Shape: FileImport
;    Name: OareWiltshire 6-21-2010.thr
;    From file:: OareWiltshire 6-21-2010.thr
;    Aspect Ratio: true
;    Comments: 
;    Visible: true
;    Initial width: 10
;    Initial height: 10
;    X offset: 0
;    Y offset: 0
;    Rotate (degrees): 0
;    Reverse path: false
;    Fine tuning:
;      Connect to next layer: line
;      Draw portion of path (%): 100
;      Backtrack at end (%): 0
;      Rotate starting point (%): 0
;  Reverse export path: false
;
; File name: 'OaereWiltshire (C NW)'
; File type: gcode
;

G01 X250.000 Y250.000
G01 X249.982 Y249.996
G01 X249.982 Y249.995
G01 X249.982 Y249.994
G01 X249.982 Y249.992
G01 X249.982 Y249.991
G01 X249.982 Y249.990
G01 X249.982 Y249.989
G01 X249.982 Y249.988
G01 X249.982 Y249.987
G01 X249.983 Y249.986
G01 X249.983 Y249.984
G01 X249.983 Y249.983
G01 X249.984 Y249.982
G01 X249.984 Y249.981
G01 X249.985 Y249.980
G01 X249.975 Y249.970
G01 X249.963 Y249.960
G01 X249.951 Y249.952
G01 X249.946 Y249.948
G01 X249.931 Y249.941
G01 X249.917 Y249.935
G01 X249.901 Y249.931
G01 X249.897 Y249.930
G01 X249.873 Y249.922
G01 X249.849 Y249.917
G01 X249.824 Y249.915
G01 X249.819 Y249.914
G01 X249.801 Y249.917
G01 X249.782 Y249.922
G01 X249.763 Y249.928
G01 X249.760 Y249.929
G01 X249.742 Y249.938
G01 X249.724 Y249.947
G01 X249.707 Y249.959
G01 X249.702 Y249.962
G01 X249.686 Y249.976
G01 X249.671 Y249.991
G01 X249.656 Y250.007
G01 X249.650 Y250.015
G01 X249.637 Y250.033
G01 X249.625 Y250.053
G01 X249.613 Y250.074
G01 X249.609 Y250.084
G01 X249.599 Y250.107
G01 X249.591 Y250.131
G01 X249.584 Y250.156
G01 X249.582 Y250.166
G01 X249.569 Y250.195
G01 X249.559 Y250.227
G01 X249.551 Y250.259
G01 X249.549 Y250.269
G01 X249.550 Y250.300
G01 X249.553 Y250.331
G01 X249.557 Y250.362
G01 X249.559 Y250.368
G01 X249.566 Y250.400
G01 X249.575 Y250.433
G01 X249.586 Y250.465
G01 X249.588 Y250.470
G01 X249.601 Y250.502
G01 X249.617 Y250.533
G01 X249.635 Y250.565
G01 X249.638 Y250.570
G01 X249.655 Y250.607
G01 X249.675 Y250.644
G01 X249.698 Y250.680
G01 X249.704 Y250.689
G01 X249.733 Y250.717
G01 X249.753 Y250.735
G01 X249.785 Y250.760
G01 X249.808 Y250.777
G01 X249.844 Y250.800
G01 X249.869 Y250.815
G01 X249.907 Y250.835
G01 X249.935 Y250.847
G01 X249.976 Y250.865
G01 X250.005 Y250.875
G01 X250.049 Y250.889
G01 X250.079 Y250.897
G01 X250.125 Y250.906
G01 X250.156 Y250.912
G01 X250.204 Y250.918
G01 X250.236 Y250.920
G01 X250.285 Y250.922
G01 X250.317 Y250.922
G01 X250.367 Y250.920
G01 X250.399 Y250.917
G01 X250.451 Y250.910
G01 X250.482 Y250.904
G01 X250.542 Y250.906
G01 X250.579 Y250.906
G01 X250.632 Y250.889
G01 X250.663 Y250.877
G01 X250.716 Y250.856
G01 X250.747 Y250.841
G01 X250.798 Y250.815
G01 X250.829 Y250.797
G01 X250.879 Y250.765
G01 X250.910 Y250.743
G01 X250.958 Y250.707
G01 X250.988 Y250.681
G01 X251.033 Y250.640
G01 X251.062 Y250.611
G01 X251.104 Y250.565
G01 X251.131 Y250.533
G01 X251.169 Y250.483
G01 X251.194 Y250.448
G01 X251.229 Y250.393
G01 X251.251 Y250.355
G01 X251.281 Y250.297
G01 X251.300 Y250.256
G01 X251.334 Y250.209
G01 X251.341 Y250.152
G01 X251.362 Y250.087
G01 X251.374 Y250.044
G01 X251.405 Y249.976
G01 X251.423 Y249.930
G01 X251.433 Y249.859
G01 X251.438 Y249.813
G01 X251.442 Y249.740
G01 X251.443 Y249.694
G01 X251.441 Y249.620
G01 X251.438 Y249.573
G01 X251.430 Y249.498
G01 X251.423 Y249.452
G01 X251.409 Y249.377
G01 X251.398 Y249.330
G01 X251.377 Y249.255
G01 X251.362 Y249.209
G01 X251.347 Y249.126
G01 X251.335 Y249.073
G01 X251.300 Y249.000
G01 X251.275 Y248.953
G01 X251.233 Y248.881
G01 X251.204 Y248.836
G01 X251.156 Y248.767
G01 X251.122 Y248.723
G01 X251.067 Y248.658
G01 X251.029 Y248.616
G01 X250.968 Y248.554
G01 X250.926 Y248.515
G01 X250.859 Y248.458
G01 X250.813 Y248.422
G01 X250.741 Y248.370
G01 X250.691 Y248.338
G01 X250.614 Y248.292
G01 X250.562 Y248.264
G01 X250.480 Y248.224
G01 X250.425 Y248.200
G01 X250.339 Y248.166
G01 X250.283 Y248.146
G01 X250.193 Y248.120
G01 X250.135 Y248.105
G01 X250.042 Y248.085
G01 X249.983 Y248.075
G01 X249.887 Y248.047
G01 X249.826 Y248.033
G01 X249.768 Y248.039
G01 X249.668 Y248.028
G01 X249.666 Y248.028
G01 X249.566 Y248.032
G01 X249.504 Y248.037
G01 X249.404 Y248.049
G01 X249.341 Y248.059
G01 X249.241 Y248.080
G01 X249.176 Y248.096
G01 X249.077 Y248.125
G01 X249.013 Y248.146
G01 X248.916 Y248.184
G01 X248.853 Y248.211
G01 X248.758 Y248.257
G01 X248.696 Y248.291
G01 X248.604 Y248.345
G01 X248.545 Y248.384
G01 X248.456 Y248.446
G01 X248.400 Y248.490
G01 X248.316 Y248.561
G01 X248.262 Y248.610
G01 X248.184 Y248.688
G01 X248.135 Y248.742
G01 X248.062 Y248.827
G01 X248.017 Y248.885
G01 X247.951 Y248.977
G01 X247.911 Y249.038
G01 X247.838 Y249.131
G01 X247.793 Y249.192
G01 X247.742 Y249.297
G01 X247.712 Y249.364
G01 X247.668 Y249.474
G01 X247.644 Y249.544
G01 X247.609 Y249.658
G01 X247.590 Y249.730
G01 X247.558 Y249.847
G01 X247.554 Y249.868
G01 X247.551 Y249.922
G01 X247.520 Y250.043
G01 X247.503 Y250.121
G01 X247.497 Y250.245
G01 X247.496 Y250.325
G01 X247.500 Y250.450
G01 X247.506 Y250.531
G01 X247.520 Y250.657
G01 X247.533 Y250.738
G01 X247.558 Y250.864
G01 X247.578 Y250.945
G01 X247.613 Y251.069
G01 X247.640 Y251.149
G01 X247.686 Y251.271
G01 X247.719 Y251.349
G01 X247.775 Y251.468
G01 X247.815 Y251.544
G01 X247.882 Y251.658
G01 X247.928 Y251.731
G01 X248.004 Y251.841
G01 X248.056 Y251.910
G01 X248.142 Y252.014
G01 X248.200 Y252.079
G01 X248.295 Y252.177
G01 X248.358 Y252.237
G01 X248.452 Y252.340
G01 X248.516 Y252.404
G01 X248.628 Y252.487
G01 X248.702 Y252.537
G01 X248.751 Y252.562
G01 X248.870 Y252.638
G01 X248.901 Y252.657
G01 X249.027 Y252.722
G01 X249.111 Y252.760
G01 X249.244 Y252.815
G01 X249.331 Y252.848
G01 X249.469 Y252.892
G01 X249.560 Y252.917
G01 X249.702 Y252.950
G01 X249.796 Y252.968
G01 X249.941 Y252.990
G01 X250.037 Y253.000
G01 X250.185 Y253.009
G01 X250.282 Y253.012
G01 X250.432 Y253.009
G01 X250.529 Y253.004
G01 X250.679 Y252.989
G01 X250.776 Y252.975
G01 X250.926 Y252.948
G01 X251.021 Y252.927
G01 X251.175 Y252.902
G01 X251.273 Y252.881
G01 X251.420 Y252.829
G01 X251.512 Y252.792
G01 X251.655 Y252.728
G01 X251.741 Y252.685
G01 X251.745 Y252.682
G01 X251.883 Y252.606
G01 X251.970 Y252.553
G01 X252.103 Y252.465
G01 X252.186 Y252.405
G01 X252.313 Y252.305
G01 X252.391 Y252.238
G01 X252.510 Y252.127
G01 X252.584 Y252.053
G01 X252.694 Y251.932
G01 X252.762 Y251.851
G01 X252.863 Y251.721
G01 X252.925 Y251.633
G01 X253.015 Y251.494
G01 X253.070 Y251.401
G01 X253.149 Y251.255
G01 X253.197 Y251.157
G01 X253.265 Y251.003
G01 X253.304 Y250.901
G01 X253.374 Y250.745
G01 X253.415 Y250.642
G01 X253.458 Y250.475
G01 X253.481 Y250.367
G01 X253.492 Y250.234
G01 X253.524 Y250.087
G01 X253.539 Y249.914
G01 X253.545 Y249.803
G01 X253.546 Y249.628
G01 X253.542 Y249.516
G01 X253.529 Y249.340
G01 X253.516 Y249.227
G01 X253.488 Y249.051
G01 X253.466 Y248.938
G01 X253.424 Y248.764
G01 X253.392 Y248.653
G01 X253.336 Y248.481
G01 X253.295 Y248.372
G01 X253.224 Y248.205
G01 X253.173 Y248.098
G01 X253.089 Y247.936
G01 X253.029 Y247.833
G01 X252.931 Y247.677
G01 X252.863 Y247.578
G01 X252.763 Y247.420
G01 X252.694 Y247.320
G01 X252.687 Y247.313
G01 X252.563 Y247.173
G01 X252.485 Y247.092
G01 X252.348 Y246.962
G01 X252.257 Y246.881
G01 X252.110 Y246.761
G01 X252.012 Y246.689
G01 X251.855 Y246.580
G01 X251.752 Y246.515
G01 X251.585 Y246.420
G01 X251.475 Y246.363
G01 X251.305 Y246.266
G01 X251.193 Y246.208
G01 X251.010 Y246.140
G01 X250.889 Y246.100
G01 X250.699 Y246.046
G01 X250.575 Y246.016
G01 X250.380 Y245.978
G01 X250.253 Y245.958
G01 X250.054 Y245.950
G01 X249.973 Y245.950
G01 X249.925 Y245.926
G01 X249.724 Y245.919
G01 X249.593 Y245.920
G01 X249.391 Y245.930
G01 X249.259 Y245.942
G01 X249.058 Y245.968
G01 X248.927 Y245.991
G01 X248.727 Y246.034
G01 X248.599 Y246.067
G01 X248.401 Y246.127
G01 X248.276 Y246.170
G01 X248.083 Y246.246
G01 X247.962 Y246.299
G01 X247.775 Y246.391
G01 X247.657 Y246.454
G01 X247.468 Y246.549
G01 X247.350 Y246.614
G01 X247.177 Y246.737
G01 X247.069 Y246.820
G01 X247.051 Y246.837
G01 X246.887 Y246.974
G01 X246.804 Y247.049
G01 X246.651 Y247.200
G01 X246.557 Y247.301
G01 X246.416 Y247.465
G01 X246.329 Y247.574
G01 X246.202 Y247.749
G01 X246.123 Y247.867
G01 X246.010 Y248.053
G01 X245.941 Y248.177
G01 X245.842 Y248.373
G01 X245.783 Y248.503
G01 X245.700 Y248.707
G01 X245.651 Y248.843
G01 X245.585 Y249.054
G01 X245.547 Y249.194
G01 X245.494 Y249.410
G01 X245.481 Y249.469
G01 X245.472 Y249.553
G01 X245.440 Y249.775
G01 X245.426 Y249.918
G01 X245.397 Y250.144
G01 X245.384 Y250.289
G01 X245.389 Y250.517
G01 X245.397 Y250.662
G01 X245.420 Y250.890
G01 X245.441 Y251.035
G01 X245.483 Y251.262
G01 X245.515 Y251.407
G01 X245.576 Y251.630
G01 X245.620 Y251.773
G01 X245.699 Y251.992
G01 X245.755 Y252.132
G01 X245.852 Y252.345
G01 X245.920 Y252.480
G01 X245.931 Y252.498
G01 X246.045 Y252.704
G01 X246.114 Y252.817
G01 X246.245 Y253.014
G01 X246.335 Y253.139
G01 X246.483 Y253.325
G01 X246.584 Y253.443
G01 X246.747 Y253.617
G01 X246.857 Y253.726
G01 X247.034 Y253.888
G01 X247.153 Y253.988
G01 X247.336 Y254.149
G01 X247.459 Y254.248
G01 X247.663 Y254.381
G01 X247.797 Y254.461
G01 X248.012 Y254.578
G01 X248.138 Y254.640
G01 X248.153 Y254.646
G01 X248.378 Y254.746
G01 X248.525 Y254.804
G01 X248.758 Y254.885
G01 X248.911 Y254.931
G01 X249.152 Y254.994
G01 X249.309 Y255.028
G01 X249.555 Y255.071
G01 X249.715 Y255.092
G01 X249.965 Y255.115
G01 X250.127 Y255.123
G01 X250.380 Y255.126
G01 X250.543 Y255.121
G01 X250.796 Y255.103
G01 X250.961 Y255.085
G01 X251.185 Y255.063
G01 X251.376 Y255.015
G01 X251.625 Y254.956
G01 X251.785 Y254.911
G01 X252.030 Y254.831
G01 X252.186 Y254.773
G01 X252.432 Y254.687
G01 X252.588 Y254.625
G01 X252.820 Y254.505
G01 X252.966 Y254.422
G01 X253.189 Y254.284
G01 X253.327 Y254.189
G01 X253.539 Y254.033
G01 X253.670 Y253.927
G01 X253.872 Y253.755
G01 X253.942 Y253.690
G01 X254.011 Y253.653
G01 X254.197 Y253.461
G01 X254.312 Y253.333
G01 X254.483 Y253.126
G01 X254.588 Y252.988
G01 X254.742 Y252.767
G01 X254.836 Y252.620
G01 X254.958 Y252.380
G01 X255.031 Y252.221
G01 X255.149 Y251.977
G01 X255.218 Y251.815
G01 X255.316 Y251.561
G01 X255.372 Y251.394
G01 X255.451 Y251.132
G01 X255.480 Y251.024
G01 X255.492 Y250.959
G01 X255.562 Y250.692
G01 X255.601 Y250.517
G01 X255.635 Y250.242
G01 X255.650 Y250.063
G01 X255.661 Y249.785
G01 X255.661 Y249.606
G01 X255.650 Y249.327
G01 X255.636 Y249.149
G01 X255.617 Y248.867
G01 X255.598 Y248.687
G01 X255.542 Y248.410
G01 X255.498 Y248.234
G01 X255.405 Y247.966
G01 X255.397 Y247.944
G01 X255.361 Y247.787
G01 X255.260 Y247.520
G01 X255.188 Y247.351
G01 X255.065 Y247.092
G01 X254.978 Y246.928
G01 X254.834 Y246.678
G01 X254.734 Y246.521
G01 X254.570 Y246.283
G01 X254.457 Y246.134
G01 X254.273 Y245.909
G01 X254.147 Y245.769
G01 X253.945 Y245.559
G01 X253.808 Y245.428
G01 X253.720 Y245.356
G01 X253.499 Y245.163
G01 X253.441 Y245.116
G01 X253.206 Y244.940
G01 X253.050 Y244.833
G01 X252.807 Y244.662
G01 X252.645 Y244.559
G01 X252.381 Y244.422
G01 X252.208 Y244.341
G01 X251.933 Y244.225
G01 X251.752 Y244.157
G01 X251.467 Y244.063
G01 X251.281 Y244.010
G01 X250.985 Y243.955
G01 X250.974 Y243.953
G01 X250.797 Y243.902
G01 X250.498 Y243.855
G01 X250.303 Y243.832
G01 X250.000 Y243.810
G01 X249.803 Y243.803
G01 X249.498 Y243.805
G01 X249.301 Y243.814
G01 X248.996 Y243.841
G01 X248.799 Y243.867
G01 X248.495 Y243.918
G01 X248.301 Y243.959
G01 X248.001 Y244.033
G01 X247.886 Y244.065
G01 X247.811 Y244.092
G01 X247.512 Y244.179
G01 X247.322 Y244.243
G01 X247.035 Y244.367
G01 X246.854 Y244.455
G01 X246.578 Y244.603
G01 X246.404 Y244.706
G01 X246.139 Y244.876
G01 X245.973 Y244.993
G01 X245.722 Y245.186
G01 X245.566 Y245.316
G01 X245.329 Y245.528
G01 X245.220 Y245.632
G01 X245.183 Y245.673
G01 X244.965 Y245.905
G01 X244.830 Y246.060
G01 X244.630 Y246.310
G01 X244.508 Y246.477
G01 X244.328 Y246.744
G01 X244.219 Y246.921
G01 X244.061 Y247.201
G01 X243.966 Y247.387
G01 X243.831 Y247.681
G01 X243.752 Y247.874
G01 X243.637 Y248.178
G01 X243.604 Y248.272
G01 X243.552 Y248.372
G01 X243.465 Y248.687
G01 X243.418 Y248.892
G01 X243.356 Y249.215
G01 X243.325 Y249.423
G01 X243.289 Y249.751
G01 X243.275 Y249.963
G01 X243.266 Y250.294
G01 X243.269 Y250.507
G01 X243.287 Y250.839
G01 X243.307 Y251.052
G01 X243.361 Y251.352
G01 X243.390 Y251.596
G01 X243.462 Y251.922
G01 X243.516 Y252.132
G01 X243.615 Y252.453
G01 X243.687 Y252.658
G01 X243.811 Y252.971
G01 X243.900 Y253.171
G01 X244.050 Y253.474
G01 X244.154 Y253.665
G01 X244.316 Y253.965
G01 X244.428 Y254.154
G01 X244.491 Y254.237
G01 X244.691 Y254.515
G01 X244.762 Y254.606
G01 X244.983 Y254.868
G01 X245.132 Y255.030
G01 X245.375 Y255.275
G01 X245.538 Y255.426
G01 X245.800 Y255.650
G01 X245.975 Y255.788
G01 X246.256 Y255.992
G01 X246.443 Y256.116
G01 X246.737 Y256.302
G01 X246.781 Y256.328
G01 X246.937 Y256.405
G01 X247.249 Y256.562
G01 X247.456 Y256.655
G01 X247.781 Y256.786
G01 X247.994 Y256.863
G01 X248.330 Y256.968
G01 X248.550 Y257.027
G01 X248.894 Y257.105
G01 X249.118 Y257.146
G01 X249.468 Y257.211
G01 X249.694 Y257.244
G01 X249.747 Y257.246
G01 X250.103 Y257.266
G01 X250.280 Y257.270
G01 X250.637 Y257.262
G01 X250.867 Y257.248
G01 X251.224 Y257.212
G01 X251.453 Y257.179
G01 X251.808 Y257.114
G01 X252.034 Y257.063
G01 X252.383 Y256.969
G01 X252.606 Y256.899
G01 X252.816 Y256.816
G01 X253.157 Y256.692
G01 X253.165 Y256.689
G01 X253.497 Y256.539
G01 X253.707 Y256.433
G01 X254.026 Y256.257
G01 X254.229 Y256.133
G01 X254.534 Y255.931
G01 X254.726 Y255.791
G01 X255.015 Y255.564
G01 X255.195 Y255.409
G01 X255.454 Y255.185
G01 X255.651 Y255.006
G01 X255.902 Y254.733
G01 X256.056 Y254.550
G01 X256.285 Y254.256
G01 X256.424 Y254.061
G01 X256.629 Y253.749
G01 X256.753 Y253.542
G01 X256.932 Y253.212
G01 X257.039 Y252.996
G01 X257.199 Y252.655
G01 X257.211 Y252.629
G01 X257.281 Y252.426
G01 X257.406 Y252.070
G01 X257.478 Y251.837
G01 X257.574 Y251.471
G01 X257.626 Y251.231
G01 X257.693 Y250.857
G01 X257.726 Y250.614
G01 X257.762 Y250.234
G01 X257.775 Y249.987
G01 X257.788 Y249.605
G01 X257.788 Y249.576
G01 X257.774 Y249.358
G01 X257.763 Y248.974
G01 X257.746 Y248.726
G01 X257.689 Y248.344
G01 X257.642 Y248.100
G01 X257.555 Y247.723
G01 X257.488 Y247.483
G01 X257.370 Y247.113
G01 X257.284 Y246.879
G01 X257.156 Y246.536
G01 X257.031 Y246.290
G01 X256.854 Y245.942
G01 X256.730 Y245.722
G01 X256.525 Y245.388
G01 X256.383 Y245.177
G01 X256.150 Y244.860
G01 X255.992 Y244.661
G01 X255.733 Y244.363
G01 X255.558 Y244.176
G01 X255.367 Y244.000
G01 X255.085 Y243.727
G01 X254.780 Y243.473
G01 X254.577 Y243.317
G01 X254.259 Y243.074
G01 X254.048 Y242.926
G01 X253.703 Y242.723
G01 X253.476 Y242.601
G01 X253.114 Y242.425
G01 X252.878 Y242.321
G01 X252.780 Y242.286
G01 X252.403 Y242.141
G01 X252.257 Y242.091
G01 X251.869 Y241.975
G01 X251.617 Y241.910
G01 X251.220 Y241.825
G01 X250.962 Y241.781
G01 X250.559 Y241.729
G01 X250.297 Y241.705
G01 X249.889 Y241.683
G01 X249.735 Y241.679
G01 X249.625 Y241.683
G01 X249.216 Y241.697
G01 X248.952 Y241.716
G01 X248.544 Y241.763
G01 X248.281 Y241.803
G01 X247.877 Y241.883
G01 X247.618 Y241.945
G01 X247.215 Y242.043
G01 X246.958 Y242.117
G01 X246.676 Y242.231
G01 X246.322 Y242.365
G01 X245.944 Y242.541
G01 X245.707 Y242.664
G01 X245.344 Y242.871
G01 X245.116 Y243.013
G01 X244.770 Y243.249
G01 X244.553 Y243.410
G01 X244.226 Y243.674
G01 X244.027 Y243.848
G01 X244.022 Y243.853
G01 X243.716 Y244.143
G01 X243.526 Y244.339
G01 X243.244 Y244.654
G01 X243.071 Y244.864
G01 X242.815 Y245.202
G01 X242.657 Y245.428
G01 X242.428 Y245.786
G01 X242.290 Y246.024
G01 X242.123 Y246.307
G01 X241.971 Y246.649
G01 X241.788 Y247.037
G01 X241.679 Y247.293
G01 X241.542 Y247.700
G01 X241.464 Y247.967
G01 X241.359 Y248.385
G01 X241.303 Y248.657
G01 X241.231 Y249.083
G01 X241.205 Y249.277
G01 X241.198 Y249.359
G01 X241.162 Y249.791
G01 X241.150 Y250.070
G01 X241.149 Y250.505
G01 X241.160 Y250.786
G01 X241.194 Y251.221
G01 X241.227 Y251.500
G01 X241.297 Y251.932
G01 X241.353 Y252.209
G01 X241.397 Y252.377
G01 X241.505 Y252.802
G01 X241.536 Y252.908
G01 X241.675 Y253.326
G01 X241.775 Y253.593
G01 X241.948 Y253.999
G01 X242.070 Y254.257
G01 X242.263 Y254.656
G01 X242.398 Y254.910
G01 X242.618 Y255.235
G01 X242.798 Y255.522
G01 X243.066 Y255.879
G01 X243.248 Y256.101
G01 X243.545 Y256.435
G01 X243.744 Y256.643
G01 X244.067 Y256.953
G01 X244.283 Y257.144
G01 X244.629 Y257.432
G01 X244.732 Y257.512
G01 X244.864 Y257.603
G01 X245.235 Y257.859
G01 X245.481 Y258.014
G01 X245.873 Y258.239
G01 X246.132 Y258.375
G01 X246.542 Y258.569
G01 X246.812 Y258.683
G01 X247.237 Y258.844
G01 X247.498 Y258.931
G01 X247.517 Y258.936
G01 X247.955 Y259.062
G01 X248.242 Y259.132
G01 X248.688 Y259.238
G01 X248.980 Y259.294
G01 X249.436 Y259.348
G01 X249.732 Y259.371
G01 X250.192 Y259.388
G01 X250.488 Y259.387
G01 X250.575 Y259.382
G01 X251.036 Y259.360
G01 X251.246 Y259.342
G01 X251.705 Y259.285
G01 X251.999 Y259.236
G01 X252.458 Y259.156
G01 X252.752 Y259.093
G01 X253.194 Y258.947
G01 X253.476 Y258.841
G01 X253.623 Y258.782
G01 X254.058 Y258.611
G01 X254.188 Y258.555
G01 X254.610 Y258.352
G01 X254.878 Y258.210
G01 X255.284 Y257.973
G01 X255.540 Y257.810
G01 X255.926 Y257.540
G01 X256.168 Y257.356
G01 X256.315 Y257.231
G01 X256.690 Y256.941
G01 X256.777 Y256.870
G01 X257.117 Y256.540
G01 X257.327 Y256.318
G01 X257.641 Y255.960
G01 X257.833 Y255.721
G01 X258.117 Y255.338
G01 X258.290 Y255.085
G01 X258.390 Y254.918
G01 X258.657 Y254.519
G01 X258.717 Y254.424
G01 X258.937 Y253.997
G01 X259.068 Y253.716
G01 X259.254 Y253.272
G01 X259.362 Y252.981
G01 X259.497 Y252.518
G01 X259.572 Y252.216
G01 X259.607 Y252.060
G01 X259.715 Y251.589
G01 X259.744 Y251.440
G01 X259.818 Y250.962
G01 X259.854 Y250.650
G01 X259.889 Y250.166
G01 X259.899 Y249.852
G01 X259.910 Y249.364
G01 X259.904 Y249.049
G01 X259.896 Y248.961
G01 X259.850 Y248.474
G01 X259.820 Y248.249
G01 X259.737 Y247.766
G01 X259.671 Y247.457
G01 X259.549 Y246.981
G01 X259.459 Y246.678
G01 X259.313 Y246.206
G01 X259.212 Y245.921
G01 X259.206 Y245.907
G01 X259.008 Y245.453
G01 X258.868 Y245.166
G01 X258.633 Y244.729
G01 X258.471 Y244.453
G01 X258.188 Y244.044
G01 X257.996 Y243.788
G01 X257.696 Y243.391
G01 X257.591 Y243.262
G01 X257.487 Y243.147
G01 X257.152 Y242.777
G01 X256.926 Y242.546
G01 X256.562 Y242.204
G01 X256.317 Y241.991
G01 X255.934 Y241.666
G01 X255.677 Y241.466
G01 X255.259 Y241.202
G01 X254.983 Y241.014
G01 X254.543 Y240.767
G01 X254.253 Y240.619
G01 X253.793 Y240.407
G01 X253.492 Y240.284
G01 X253.020 Y240.095
G01 X252.712 Y239.986
G01 X252.425 Y239.912
G01 X251.932 Y239.782
G01 X251.900 Y239.775
G01 X251.398 Y239.679
G01 X251.072 Y239.630
G01 X250.563 Y239.575
G01 X250.233 Y239.553
G01 X249.720 Y239.554
G01 X249.390 Y239.568
G01 X249.333 Y239.571
G01 X248.820 Y239.600
G01 X248.546 Y239.626
G01 X248.036 Y239.695
G01 X247.708 Y239.753
G01 X247.200 Y239.849
G01 X246.874 Y239.924
G01 X246.383 Y240.089
G01 X246.272 Y240.131
G01 X246.061 Y240.186
G01 X245.578 Y240.377
G01 X245.272 Y240.513
G01 X244.804 Y240.743
G01 X244.510 Y240.903
G01 X244.054 Y241.158
G01 X243.767 Y241.334
G01 X243.495 Y241.536
G01 X243.072 Y241.846
G01 X242.670 Y242.184
G01 X242.420 Y242.413
G01 X242.045 Y242.784
G01 X241.814 Y243.033
G01 X241.470 Y243.433
G01 X241.258 Y243.701
G01 X241.256 Y243.703
G01 X240.958 Y244.140
G01 X240.778 Y244.427
G01 X240.503 Y244.879
G01 X240.336 Y245.179
G01 X240.083 Y245.647
G01 X239.932 Y245.956
G01 X239.753 Y246.434
G01 X239.614 Y246.774
G01 X239.454 Y247.284
G01 X239.364 Y247.617
G01 X239.245 Y248.139
G01 X239.182 Y248.477
G01 X239.090 Y249.007
G01 X239.044 Y249.350
G01 X239.038 Y249.465
G01 X239.008 Y250.004
G01 X239.003 Y250.236
G01 X239.012 Y250.777
G01 X239.032 Y251.124
G01 X239.086 Y251.664
G01 X239.134 Y252.009
G01 X239.246 Y252.540
G01 X239.254 Y252.573
G01 X239.307 Y252.885
G01 X239.462 Y253.407
G01 X239.575 Y253.739
G01 X239.757 Y254.252
G01 X239.888 Y254.578
G01 X240.098 Y255.083
G01 X240.248 Y255.405
G01 X240.304 Y255.506
G01 X240.571 Y255.984
G01 X240.695 Y256.188
G01 X240.997 Y256.646
G01 X241.204 Y256.934
G01 X241.544 Y257.367
G01 X241.773 Y257.636
G01 X242.126 Y258.035
G01 X242.381 Y258.311
G01 X242.788 Y258.686
G01 X243.060 Y258.918
G01 X243.497 Y259.260
G01 X243.788 Y259.469
G01 X244.252 Y259.776
G01 X244.558 Y259.960
G01 X244.570 Y259.967
G01 X245.059 Y260.235
G01 X245.370 Y260.390
G01 X245.880 Y260.619
G01 X246.215 Y260.753
G01 X246.743 Y260.941
G01 X247.089 Y261.048
G01 X247.459 Y261.139
G01 X247.986 Y261.271
G01 X248.539 Y261.372
G01 X248.900 Y261.422
G01 X249.461 Y261.478
G01 X249.825 Y261.499
G01 X250.390 Y261.513
G01 X250.553 Y261.512
G01 X250.753 Y261.500
G01 X251.320 Y261.480
G01 X251.684 Y261.452
G01 X252.246 Y261.370
G01 X252.607 Y261.303
G01 X253.163 Y261.176
G01 X253.517 Y261.080
G01 X253.633 Y261.043
G01 X254.177 Y260.867
G01 X254.407 Y260.784
G01 X254.938 Y260.569
G01 X255.275 Y260.416
G01 X255.787 Y260.157
G01 X256.110 Y259.978
G01 X256.468 Y259.749
G01 X256.911 Y259.472
G01 X257.377 Y259.133
G01 X257.669 Y258.902
G01 X258.108 Y258.526
G01 X258.381 Y258.271
G01 X258.777 Y257.850
G01 X258.861 Y257.755
G01 X259.040 Y257.584
G01 X259.414 Y257.140
G01 X259.642 Y256.846
G01 X259.992 Y256.381
G01 X260.205 Y256.072
G01 X260.504 Y255.571
G01 X260.683 Y255.242
G01 X260.688 Y255.232
G01 X260.946 Y254.707
G01 X261.094 Y254.374
G01 X261.310 Y253.829
G01 X261.434 Y253.472
G01 X261.606 Y252.911
G01 X261.702 Y252.545
G01 X261.752 Y252.302
G01 X261.871 Y251.725
G01 X261.894 Y251.595
G01 X261.973 Y251.011
G01 X262.008 Y250.631
G01 X262.040 Y250.041
G01 X262.045 Y249.658
G01 X262.023 Y249.197
G01 X262.003 Y248.684
G01 X261.939 Y248.095
G01 X261.882 Y247.715
G01 X261.771 Y247.131
G01 X261.684 Y246.759
G01 X261.532 Y246.183
G01 X261.514 Y246.122
G01 X261.432 Y245.811
G01 X261.226 Y245.249
G01 X261.080 Y244.893
G01 X260.829 Y244.349
G01 X260.654 Y244.006
G01 X260.363 Y243.480
G01 X260.241 Y243.278
G01 X260.157 Y243.152
G01 X259.821 Y242.653
G01 X259.591 Y242.339
G01 X259.215 Y241.868
G01 X258.960 Y241.574
G01 X258.547 Y241.133
G01 X258.270 Y240.861
G01 X258.268 Y240.860
G01 X257.819 Y240.453
G01 X257.518 Y240.202
G01 X257.037 Y239.833
G01 X256.718 Y239.607
G01 X256.207 Y239.277
G01 X255.870 Y239.077
G01 X255.758 Y239.018
G01 X255.227 Y238.717
G01 X254.990 Y238.594
G01 X254.430 Y238.349
G01 X254.063 Y238.205
G01 X253.483 Y238.005
G01 X253.105 Y237.892
G01 X252.877 Y237.836
G01 X252.280 Y237.690
G01 X252.123 Y237.656
G01 X251.517 Y237.552
G01 X251.122 Y237.500
G01 X250.508 Y237.445
G01 X250.111 Y237.425
G01 X249.786 Y237.427
G01 X249.168 Y237.430
G01 X249.094 Y237.433
G01 X248.476 Y237.477
G01 X248.079 Y237.522
G01 X247.466 Y237.616
G01 X247.073 Y237.693
G01 X246.692 Y237.790
G01 X246.089 Y237.944
G01 X246.083 Y237.945
G01 X245.485 Y238.124
G01 X245.106 Y238.254
G01 X244.529 Y238.494
G01 X244.163 Y238.664
G01 X243.772 Y238.875
G01 X243.254 Y239.151
G01 X243.777 Y238.801
G01 X244.317 Y238.475
G01 X244.875 Y238.176
G01 X245.448 Y237.904
G01 X245.460 Y237.898
G01 X246.052 Y237.666
G01 X246.616 Y237.474
G01 X246.120 Y235.640
G01 X245.305 Y232.623
G01 X244.490 Y229.606
G01 X243.675 Y226.589
G01 X242.860 Y223.573
G01 X242.045 Y220.556
G01 X241.230 Y217.539
G01 X240.415 Y214.522
G01 X239.599 Y211.505
G01 X238.784 Y208.488
G01 X237.969 Y205.472
G01 X237.154 Y202.455
G01 X236.339 Y199.438
G01 X235.524 Y196.421
G01 X234.709 Y193.404
G01 X233.894 Y190.387
G01 X233.079 Y187.371
G01 X232.264 Y184.354
G01 X231.449 Y181.337
G01 X230.633 Y178.320
G01 X229.818 Y175.303
G01 X229.003 Y172.287
G01 X228.188 Y169.270
G01 X227.373 Y166.253
G01 X226.558 Y163.236
G01 X225.743 Y160.219
G01 X224.928 Y157.202
G01 X224.113 Y154.186
G01 X223.298 Y151.169
G01 X222.483 Y148.152
G01 X221.667 Y145.135
G01 X220.852 Y142.118
G01 X220.037 Y139.101
G01 X219.222 Y136.085
G01 X218.407 Y133.068
G01 X217.592 Y130.051
G01 X216.777 Y127.034
G01 X215.962 Y124.017
G01 X215.147 Y121.000
G01 X214.332 Y117.984
G01 X213.517 Y114.967
G01 X212.701 Y111.950
G01 X211.886 Y108.933
G01 X211.071 Y105.916
G01 X210.908 Y105.313
G01 X212.444 Y104.907
G01 X212.540 Y105.812
G01 X212.882 Y108.926
G01 X213.215 Y112.045
G01 X213.530 Y115.015
G01 X213.477 Y114.874
G01 X212.205 Y112.033
G01 X210.921 Y109.171
G01 X209.647 Y106.309
G01 X208.738 Y104.305
G01 X209.628 Y104.056
G01 X212.642 Y103.256
G01 X213.818 Y102.961
G01 X214.010 Y104.871
G01 X214.344 Y107.983
G01 X214.682 Y111.095
G01 X215.019 Y114.183
G01 X215.354 Y117.298
G01 X215.683 Y120.417
G01 X216.015 Y123.511
G01 X216.131 Y124.645
G01 X215.330 Y122.842
G01 X214.046 Y119.979
G01 X212.775 Y117.141
G01 X211.491 Y114.283
G01 X210.215 Y111.423
G01 X208.935 Y108.566
G01 X207.673 Y105.731
G01 X206.582 Y103.316
G01 X207.051 Y103.178
G01 X210.049 Y102.308
G01 X213.070 Y101.524
G01 X215.173 Y101.042
G01 X215.285 Y101.992
G01 X215.616 Y105.099
G01 X215.949 Y108.206
G01 X216.285 Y111.314
G01 X216.610 Y114.426
G01 X216.941 Y117.538
G01 X217.277 Y120.650
G01 X217.614 Y123.737
G01 X217.941 Y126.855
G01 X218.278 Y129.971
G01 X218.607 Y133.066
G01 X218.740 Y134.299
G01 X217.969 Y132.565
G01 X216.683 Y129.703
G01 X215.419 Y126.864
G01 X214.140 Y124.004
G01 X212.853 Y121.148
G01 X211.586 Y118.287
G01 X210.300 Y115.434
G01 X209.032 Y112.603
G01 X207.753 Y109.750
G01 X206.472 Y106.899
G01 X205.205 Y104.044
G01 X204.441 Y102.344
G01 X205.646 Y101.951
G01 X208.645 Y101.086
G01 X211.662 Y100.281
G01 X214.694 Y99.537
G01 X216.552 Y99.138
G01 X216.683 Y100.364
G01 X217.005 Y103.469
G01 X217.342 Y106.571
G01 X217.679 Y109.674
G01 X218.010 Y112.805
G01 X218.352 Y115.909
G01 X218.684 Y119.017
G01 X219.008 Y122.127
G01 X219.333 Y125.213
G01 X219.671 Y128.323
G01 X220.006 Y131.435
G01 X220.338 Y134.549
G01 X220.665 Y137.641
G01 X221.011 Y140.756
G01 X221.332 Y143.853
G01 X221.341 Y143.928
G01 X220.095 Y141.133
G01 X218.822 Y138.294
G01 X217.542 Y135.434
G01 X216.262 Y132.576
G01 X214.992 Y129.742
G01 X213.719 Y126.885
G01 X212.439 Y124.031
G01 X211.154 Y121.180
G01 X209.877 Y118.327
G01 X208.610 Y115.473
G01 X207.327 Y112.625
G01 X206.057 Y109.774
G01 X204.772 Y106.929
G01 X203.494 Y104.055
G01 X202.302 Y101.392
G01 X202.480 Y101.335
G01 X205.455 Y100.391
G01 X208.465 Y99.501
G01 X211.483 Y98.701
G01 X214.522 Y97.985
G01 X217.574 Y97.330
G01 X217.910 Y97.259
G01 X218.211 Y100.032
G01 X218.545 Y103.131
G01 X218.878 Y106.230
G01 X219.216 Y109.355
G01 X219.548 Y112.456
G01 X219.882 Y115.557
G01 X220.205 Y118.662
G01 X220.545 Y121.764
G01 X220.876 Y124.870
G01 X221.218 Y127.999
G01 X221.549 Y131.107
G01 X221.871 Y134.192
G01 X222.208 Y137.301
G01 X222.545 Y140.412
G01 X222.872 Y143.527
G01 X223.213 Y146.640
G01 X223.543 Y149.732
G01 X223.877 Y152.851
G01 X223.950 Y153.582
G01 X222.975 Y151.386
G01 X221.695 Y148.550
G01 X220.424 Y145.687
G01 X219.139 Y142.830
G01 X217.862 Y139.972
G01 X216.594 Y137.140
G01 X215.320 Y134.285
G01 X214.039 Y131.434
G01 X212.763 Y128.582
G01 X211.481 Y125.733
G01 X210.207 Y122.883
G01 X208.922 Y120.011
G01 X207.656 Y117.161
G01 X206.375 Y114.316
G01 X205.107 Y111.467
G01 X203.819 Y108.600
G01 X202.539 Y105.758
G01 X201.275 Y102.910
G01 X200.165 Y100.460
G01 X200.599 Y100.316
G01 X203.565 Y99.344
G01 X206.550 Y98.430
G01 X209.559 Y97.599
G01 X212.584 Y96.829
G01 X215.645 Y96.139
G01 X218.703 Y95.513
G01 X219.290 Y95.395
G01 X219.554 Y97.918
G01 X219.899 Y101.036
G01 X220.222 Y104.134
G01 X220.556 Y107.230
G01 X220.894 Y110.351
G01 X221.226 Y113.449
G01 X221.563 Y116.572
G01 X221.884 Y119.673
G01 X222.219 Y122.773
G01 X222.558 Y125.872
G01 X222.893 Y128.999
G01 X223.217 Y132.104
G01 X223.560 Y135.206
G01 X223.887 Y138.312
G01 X224.223 Y141.418
G01 X224.549 Y144.527
G01 X224.887 Y147.636
G01 X225.218 Y150.747
G01 X225.556 Y153.859
G01 X225.885 Y156.949
G01 X226.222 Y160.065
G01 X226.547 Y163.161
G01 X226.551 Y163.212
G01 X225.305 Y160.416
G01 X224.019 Y157.557
G01 X222.741 Y154.697
G01 X221.474 Y151.862
G01 X220.194 Y149.006
G01 X218.911 Y146.154
G01 X217.638 Y143.300
G01 X216.365 Y140.447
G01 X215.085 Y137.598
G01 X213.807 Y134.749
G01 X212.528 Y131.876
G01 X211.252 Y129.029
G01 X209.972 Y126.184
G01 X208.702 Y123.338
G01 X207.422 Y120.468
G01 X206.149 Y117.624
G01 X204.877 Y114.780
G01 X203.584 Y111.918
G01 X202.314 Y109.074
G01 X201.039 Y106.207
G01 X199.761 Y103.367
G01 X198.479 Y100.504
G01 X198.047 Y99.542
G01 X199.999 Y98.856
G01 X202.964 Y97.881
G01 X205.970 Y96.984
G01 X208.971 Y96.126
G01 X212.000 Y95.376
G01 X215.038 Y94.661
G01 X218.115 Y94.051
G01 X220.665 Y93.577
G01 X220.715 Y94.102
G01 X221.058 Y97.192
G01 X221.385 Y100.310
G01 X221.723 Y103.428
G01 X222.052 Y106.522
G01 X222.383 Y109.641
G01 X222.720 Y112.734
G01 X223.048 Y115.856
G01 X223.383 Y118.951
G01 X223.724 Y122.071
G01 X224.048 Y125.169
G01 X224.386 Y128.265
G01 X224.721 Y131.389
G01 X225.044 Y134.490
G01 X225.384 Y137.589
G01 X225.713 Y140.716
G01 X226.046 Y143.818
G01 X226.378 Y146.922
G01 X226.710 Y150.027
G01 X227.045 Y153.133
G01 X227.385 Y156.239
G01 X227.712 Y159.350
G01 X228.050 Y162.460
G01 X228.375 Y165.550
G01 X228.713 Y168.665
G01 X229.044 Y171.784
G01 X229.160 Y172.866
G01 X228.331 Y170.993
G01 X227.051 Y168.157
G01 X225.773 Y165.297
G01 X224.500 Y162.437
G01 X223.217 Y159.583
G01 X221.952 Y156.752
G01 X220.674 Y153.900
G01 X219.393 Y151.050
G01 X218.113 Y148.176
G01 X216.841 Y145.326
G01 X215.561 Y142.481
G01 X214.284 Y139.635
G01 X213.005 Y136.765
G01 X211.728 Y133.921
G01 X210.460 Y131.076
G01 X209.170 Y128.212
G01 X207.898 Y125.369
G01 X206.625 Y122.528
G01 X205.344 Y119.663
G01 X204.073 Y116.822
G01 X202.796 Y113.957
G01 X201.516 Y111.120
G01 X200.245 Y108.254
G01 X198.964 Y105.392
G01 X197.681 Y102.557
G01 X196.411 Y99.692
G01 X195.942 Y98.665
G01 X197.815 Y97.983
G01 X200.758 Y96.952
G01 X203.745 Y95.997
G01 X206.741 Y95.128
G01 X209.753 Y94.318
G01 X212.796 Y93.563
G01 X215.843 Y92.895
G01 X218.907 Y92.311
G01 X221.992 Y91.760
G01 X222.040 Y91.751
G01 X222.373 Y94.815
G01 X222.708 Y97.930
G01 X223.032 Y101.021
G01 X223.370 Y104.136
G01 X223.702 Y107.252
G01 X224.027 Y110.345
G01 X224.366 Y113.460
G01 X224.702 Y116.577
G01 X225.032 Y119.670
G01 X225.366 Y122.788
G01 X225.694 Y125.882
G01 X226.029 Y129.002
G01 X226.360 Y132.097
G01 X226.699 Y135.216
G01 X227.025 Y138.314
G01 X227.361 Y141.435
G01 X227.699 Y144.532
G01 X228.033 Y147.630
G01 X228.361 Y150.757
G01 X228.694 Y153.857
G01 X229.030 Y156.959
G01 X229.361 Y160.063
G01 X229.689 Y163.169
G01 X230.027 Y166.274
G01 X230.359 Y169.383
G01 X230.697 Y172.493
G01 X231.029 Y175.606
G01 X231.354 Y178.698
G01 X231.695 Y181.814
G01 X231.762 Y182.495
G01 X230.773 Y180.278
G01 X229.491 Y177.417
G01 X228.217 Y174.583
G01 X226.942 Y171.726
G01 X225.668 Y168.870
G01 X224.391 Y166.018
G01 X223.113 Y163.167
G01 X221.837 Y160.318
G01 X220.556 Y157.472
G01 X219.275 Y154.601
G01 X218.000 Y151.755
G01 X216.726 Y148.910
G01 X215.448 Y146.042
G01 X214.171 Y143.200
G01 X212.900 Y140.357
G01 X211.617 Y137.492
G01 X210.339 Y134.653
G01 X209.062 Y131.788
G01 X207.794 Y128.947
G01 X206.504 Y126.087
G01 X205.237 Y123.247
G01 X203.963 Y120.383
G01 X202.678 Y117.523
G01 X201.405 Y114.686
G01 X200.128 Y111.825
G01 X198.841 Y108.967
G01 X197.568 Y106.131
G01 X196.293 Y103.270
G01 X195.009 Y100.413
G01 X193.843 Y97.805
G01 X194.063 Y97.697
G01 X196.996 Y96.599
G01 X199.944 Y95.586
G01 X202.926 Y94.625
G01 X205.911 Y93.725
G01 X208.935 Y92.904
G01 X211.964 Y92.168
G01 X215.023 Y91.488
G01 X218.077 Y90.870
G01 X221.163 Y90.333
G01 X223.421 Y89.967
G01 X223.509 Y90.789
G01 X223.834 Y93.903
G01 X224.183 Y97.013
G01 X224.508 Y100.128
G01 X224.837 Y103.216
G01 X225.178 Y106.328
G01 X225.513 Y109.442
G01 X225.843 Y112.557
G01 X226.178 Y115.646
G01 X226.501 Y118.762
G01 X226.847 Y121.875
G01 X227.173 Y124.967
G01 X227.502 Y128.083
G01 X227.844 Y131.198
G01 X228.169 Y134.291
G01 X228.501 Y137.409
G01 X228.830 Y140.503
G01 X229.168 Y143.621
G01 X229.510 Y146.738
G01 X229.833 Y149.835
G01 X230.163 Y152.931
G01 X230.507 Y156.051
G01 X230.837 Y159.149
G01 X231.175 Y162.272
G01 X231.503 Y165.373
G01 X231.831 Y168.475
G01 X232.168 Y171.577
G01 X232.501 Y174.681
G01 X232.834 Y177.787
G01 X233.164 Y180.896
G01 X233.495 Y184.008
G01 X233.832 Y187.120
G01 X234.167 Y190.237
G01 X234.370 Y192.149
G01 X233.886 Y191.063
G01 X232.605 Y188.202
G01 X231.325 Y185.343
G01 X230.046 Y182.487
G01 X228.780 Y179.656
G01 X227.496 Y176.780
G01 X226.220 Y173.930
G01 X224.940 Y171.083
G01 X223.666 Y168.236
G01 X222.394 Y165.390
G01 X221.110 Y162.522
G01 X219.839 Y159.678
G01 X218.559 Y156.837
G01 X217.281 Y153.971
G01 X216.005 Y151.131
G01 X214.724 Y148.268
G01 X213.457 Y145.426
G01 X212.179 Y142.563
G01 X210.907 Y139.724
G01 X209.625 Y136.863
G01 X208.343 Y134.003
G01 X207.069 Y131.167
G01 X205.788 Y128.307
G01 X204.509 Y125.447
G01 X203.242 Y122.610
G01 X201.957 Y119.753
G01 X200.689 Y116.890
G01 X199.399 Y114.036
G01 X198.137 Y111.198
G01 X196.859 Y108.339
G01 X195.574 Y105.484
G01 X194.296 Y102.626
G01 X193.019 Y99.795
G01 X191.742 Y96.937
G01 X191.758 Y96.931
G01 X194.675 Y95.800
G01 X197.599 Y94.729
G01 X200.566 Y93.733
G01 X203.553 Y92.793
G01 X206.548 Y91.939
G01 X209.574 Y91.138
G01 X212.600 Y90.398
G01 X215.660 Y89.738
G01 X218.737 Y89.160
G01 X221.807 Y88.645
G01 X224.804 Y88.200
G01 X224.820 Y88.299
G01 X225.142 Y91.411
G01 X225.486 Y94.521
G01 X225.820 Y97.632
G01 X226.142 Y100.719
G01 X226.474 Y103.831
G01 X226.813 Y106.942
G01 X227.145 Y110.054
G01 X227.485 Y113.165
G01 X227.814 Y116.253
G01 X228.143 Y119.366
G01 X228.480 Y122.478
G01 X228.813 Y125.591
G01 X229.140 Y128.680
G01 X229.480 Y131.793
G01 X229.807 Y134.908
G01 X230.146 Y138.022
G01 X230.469 Y141.113
G01 X230.809 Y144.227
G01 X231.141 Y147.343
G01 X231.472 Y150.434
G01 X231.803 Y153.552
G01 X232.135 Y156.644
G01 X232.469 Y159.762
G01 X232.804 Y162.881
G01 X233.135 Y165.976
G01 X233.475 Y169.095
G01 X233.807 Y172.192
G01 X234.133 Y175.291
G01 X234.474 Y178.414
G01 X234.802 Y181.516
G01 X235.133 Y184.619
G01 X235.466 Y187.724
G01 X235.803 Y190.829
G01 X236.134 Y193.939
G01 X236.470 Y197.051
G01 X236.797 Y200.144
G01 X236.972 Y201.779
G01 X236.370 Y200.440
G01 X235.092 Y197.579
G01 X233.812 Y194.722
G01 X232.533 Y191.867
G01 X231.257 Y189.015
G01 X229.982 Y186.165
G01 X228.707 Y183.317
G01 X227.430 Y180.471
G01 X226.162 Y177.625
G01 X224.875 Y174.759
G01 X223.604 Y171.916
G01 X222.320 Y169.052
G01 X221.049 Y166.211
G01 X219.768 Y163.347
G01 X218.496 Y160.508
G01 X217.218 Y157.645
G01 X215.943 Y154.809
G01 X214.665 Y151.947
G01 X213.384 Y149.088
G01 X212.108 Y146.253
G01 X210.833 Y143.392
G01 X209.559 Y140.531
G01 X208.282 Y137.698
G01 X207.010 Y134.838
G01 X205.728 Y131.981
G01 X204.449 Y129.123
G01 X203.161 Y126.269
G01 X201.899 Y123.432
G01 X200.621 Y120.575
G01 X199.335 Y117.721
G01 X198.055 Y114.865
G01 X196.782 Y112.006
G01 X195.511 Y109.174
G01 X194.240 Y106.315
G01 X192.963 Y103.459
G01 X191.680 Y100.605
G01 X190.407 Y97.747
G01 X189.658 Y96.107
G01 X190.882 Y95.606
G01 X193.794 Y94.469
G01 X196.727 Y93.388
G01 X199.689 Y92.385
G01 X202.669 Y91.438
G01 X205.652 Y90.553
G01 X208.673 Y89.743
G01 X211.715 Y89.015
G01 X214.769 Y88.344
G01 X217.836 Y87.732
G01 X220.917 Y87.202
G01 X224.007 Y86.731
G01 X226.188 Y86.449
G01 X226.285 Y87.345
G01 X226.608 Y90.456
G01 X226.952 Y93.564
G01 X227.285 Y96.674
G01 X227.622 Y99.783
G01 X227.950 Y102.893
G01 X228.284 Y106.003
G01 X228.609 Y109.115
G01 X228.954 Y112.223
G01 X229.274 Y115.310
G01 X229.618 Y118.419
G01 X229.942 Y121.531
G01 X230.274 Y124.643
G01 X230.613 Y127.753
G01 X230.947 Y130.864
G01 X231.278 Y133.976
G01 X231.614 Y137.062
G01 X231.940 Y140.175
G01 X232.277 Y143.287
G01 X232.613 Y146.399
G01 X232.945 Y149.487
G01 X233.273 Y152.601
G01 X233.613 Y155.713
G01 X233.948 Y158.827
G01 X234.274 Y161.918
G01 X234.610 Y165.032
G01 X234.946 Y168.148
G01 X235.271 Y171.240
G01 X235.611 Y174.356
G01 X235.941 Y177.475
G01 X236.274 Y180.569
G01 X236.608 Y183.689
G01 X236.937 Y186.786
G01 X237.269 Y189.883
G01 X237.609 Y193.006
G01 X237.939 Y196.108
G01 X238.270 Y199.212
G01 X238.605 Y202.318
G01 X238.937 Y205.427
G01 X239.273 Y208.540
G01 X239.580 Y211.433
G01 X239.497 Y211.248
G01 X238.219 Y208.385
G01 X236.938 Y205.529
G01 X235.662 Y202.674
G01 X234.386 Y199.823
G01 X233.109 Y196.975
G01 X231.833 Y194.129
G01 X230.555 Y191.260
G01 X229.279 Y188.418
G01 X228.006 Y185.576
G01 X226.727 Y182.711
G01 X225.455 Y179.871
G01 X224.174 Y177.009
G01 X222.889 Y174.150
G01 X221.617 Y171.312
G01 X220.336 Y168.453
G01 X219.057 Y165.593
G01 X217.789 Y162.756
G01 X216.509 Y159.898
G01 X215.234 Y157.038
G01 X213.966 Y154.203
G01 X212.678 Y151.349
G01 X211.400 Y148.492
G01 X210.122 Y145.634
G01 X208.846 Y142.777
G01 X207.581 Y139.942
G01 X206.299 Y137.087
G01 X205.020 Y134.231
G01 X203.746 Y131.374
G01 X202.465 Y128.519
G01 X201.189 Y125.663
G01 X199.917 Y122.832
G01 X198.642 Y119.976
G01 X197.361 Y117.122
G01 X196.087 Y114.265
G01 X194.809 Y111.410
G01 X193.526 Y108.558
G01 X192.251 Y105.702
G01 X190.973 Y102.847
G01 X189.689 Y99.995
G01 X188.426 Y97.162
G01 X187.582 Y95.292
G01 X188.580 Y94.866
G01 X191.474 Y93.698
G01 X194.406 Y92.578
G01 X197.344 Y91.519
G01 X200.309 Y90.538
G01 X203.292 Y89.613
G01 X206.300 Y88.767
G01 X209.322 Y87.978
G01 X212.364 Y87.270
G01 X215.419 Y86.620
G01 X218.485 Y86.026
G01 X221.565 Y85.515
G01 X224.670 Y85.059
G01 X226.010 Y84.884
G01 X226.159 Y84.862
G01 X226.302 Y86.433
G01 X226.309 Y86.482
G01 X226.645 Y89.591
G01 X226.969 Y92.702
G01 X227.314 Y95.810
G01 X227.629 Y98.897
G01 X227.969 Y102.006
G01 X228.298 Y105.116
G01 X228.634 Y108.226
G01 X228.961 Y111.337
G01 X229.294 Y114.447
G01 X229.633 Y117.557
G01 X229.966 Y120.667
G01 X230.289 Y123.754
G01 X230.623 Y126.865
G01 X230.953 Y129.977
G01 X231.291 Y133.088
G01 X231.625 Y136.199
G01 X231.957 Y139.311
G01 X232.284 Y142.399
G01 X232.614 Y145.512
G01 X232.955 Y148.623
G01 X233.286 Y151.736
G01 X233.615 Y154.825
G01 X233.943 Y157.940
G01 X234.275 Y161.054
G01 X234.613 Y164.168
G01 X234.945 Y167.258
G01 X235.274 Y170.375
G01 X235.612 Y173.491
G01 X235.936 Y176.585
G01 X236.270 Y179.703
G01 X236.602 Y182.797
G01 X236.938 Y185.918
G01 X237.264 Y189.016
G01 X237.597 Y192.114
G01 X237.934 Y195.239
G01 X238.265 Y198.341
G01 X238.597 Y201.446
G01 X238.928 Y204.554
G01 X239.259 Y207.666
G01 X239.587 Y210.758
G01 X239.654 Y211.387
G01 X240.305 Y213.801
G01 X241.120 Y216.818
G01 X241.934 Y219.835
G01 X242.747 Y222.852
G01 X243.563 Y225.869
G01 X244.375 Y228.887
G01 X245.190 Y231.903
G01 X246.003 Y234.921
G01 X246.732 Y237.624
G01 X246.425 Y237.709
G01 X245.826 Y237.900
G01 X245.237 Y238.119
G01 X244.660 Y238.367
G01 X244.096 Y238.643
G01 X243.558 Y238.939
G01 X243.023 Y239.269
G01 X242.505 Y239.624
G01 X242.168 Y239.875
G01 X241.667 Y240.255
G01 X241.184 Y240.660
G01 X241.044 Y240.785
G01 X240.595 Y241.229
G01 X240.168 Y241.695
G01 X239.765 Y242.181
G01 X239.385 Y242.687
G01 X239.050 Y243.180
G01 X238.720 Y243.721
G01 X238.416 Y244.277
G01 X238.140 Y244.849
G01 X237.892 Y245.433
G01 X237.689 Y245.982
G01 X237.502 Y246.589
G01 X237.345 Y247.205
G01 X237.218 Y247.829
G01 X237.122 Y248.458
G01 X237.061 Y249.033
G01 X237.049 Y249.210
G01 X234.102 Y249.065
G01 X230.981 Y248.913
G01 X227.860 Y248.759
G01 X224.738 Y248.606
G01 X221.617 Y248.454
G01 X218.496 Y248.300
G01 X215.374 Y248.149
G01 X212.253 Y247.993
G01 X209.132 Y247.840
G01 X206.011 Y247.688
G01 X202.889 Y247.538
G01 X199.768 Y247.385
G01 X196.647 Y247.228
G01 X193.526 Y247.077
G01 X190.404 Y246.921
G01 X187.283 Y246.773
G01 X184.162 Y246.619
G01 X181.041 Y246.465
G01 X177.919 Y246.312
G01 X174.798 Y246.160
G01 X171.677 Y246.009
G01 X168.556 Y245.850
G01 X165.434 Y245.699
G01 X162.313 Y245.549
G01 X159.192 Y245.391
G01 X156.070 Y245.242
G01 X152.949 Y245.084
G01 X149.828 Y244.935
G01 X146.707 Y244.778
G01 X143.585 Y244.631
G01 X140.464 Y244.473
G01 X137.343 Y244.327
G01 X134.272 Y244.172
G01 X134.275 Y244.114
G01 X134.323 Y243.223
G01 X136.526 Y243.683
G01 X139.571 Y244.328
G01 X140.264 Y244.474
G01 X137.874 Y244.736
G01 X134.756 Y245.063
G01 X132.669 Y245.291
G01 X132.715 Y244.270
G01 X132.896 Y241.328
G01 X133.068 Y241.365
G01 X136.130 Y242.003
G01 X139.193 Y242.652
G01 X142.234 Y243.287
G01 X145.300 Y243.940
G01 X148.345 Y244.575
G01 X150.251 Y244.977
G01 X149.043 Y245.108
G01 X145.950 Y245.438
G01 X142.833 Y245.774
G01 X139.744 Y246.105
G01 X136.631 Y246.437
G01 X133.520 Y246.771
G01 X131.037 Y247.035
G01 X131.055 Y246.393
G01 X131.190 Y243.278
G01 X131.408 Y240.156
G01 X131.470 Y239.433
G01 X133.836 Y239.925
G01 X136.893 Y240.566
G01 X139.951 Y241.209
G01 X143.010 Y241.851
G01 X146.045 Y242.501
G01 X149.108 Y243.137
G01 X152.172 Y243.788
G01 X155.239 Y244.430
G01 X158.282 Y245.069
G01 X160.214 Y245.479
G01 X159.081 Y245.604
G01 X155.963 Y245.934
G01 X152.872 Y246.267
G01 X149.758 Y246.599
G01 X146.645 Y246.938
G01 X143.535 Y247.262
G01 X140.426 Y247.598
G01 X137.319 Y247.936
G01 X134.213 Y248.261
G01 X131.108 Y248.595
G01 X129.456 Y248.781
G01 X129.480 Y247.322
G01 X129.590 Y244.202
G01 X129.781 Y241.074
G01 X130.052 Y237.963
G01 X130.095 Y237.543
G01 X132.727 Y238.101
G01 X135.803 Y238.748
G01 X138.856 Y239.385
G01 X141.909 Y240.026
G01 X144.964 Y240.668
G01 X148.019 Y241.319
G01 X151.076 Y241.958
G01 X154.135 Y242.602
G01 X157.195 Y243.249
G01 X160.258 Y243.887
G01 X163.322 Y244.531
G01 X166.364 Y245.176
G01 X169.433 Y245.822
G01 X170.201 Y245.981
G01 X167.861 Y246.234
G01 X164.769 Y246.562
G01 X161.654 Y246.896
G01 X158.542 Y247.227
G01 X155.432 Y247.558
G01 X152.323 Y247.898
G01 X149.216 Y248.224
G01 X146.110 Y248.565
G01 X143.006 Y248.896
G01 X139.903 Y249.228
G01 X136.801 Y249.557
G01 X133.700 Y249.894
G01 X130.575 Y250.225
G01 X127.876 Y250.511
G01 X127.875 Y250.096
G01 X127.912 Y246.982
G01 X128.030 Y243.858
G01 X128.227 Y240.738
G01 X128.504 Y237.624
G01 X128.720 Y235.657
G01 X129.849 Y235.900
G01 X132.921 Y236.546
G01 X135.968 Y237.184
G01 X139.015 Y237.830
G01 X142.089 Y238.473
G01 X145.138 Y239.117
G01 X148.189 Y239.752
G01 X151.266 Y240.401
G01 X154.318 Y241.045
G01 X157.372 Y241.686
G01 X160.428 Y242.330
G01 X163.485 Y242.976
G01 X166.544 Y243.619
G01 X169.605 Y244.257
G01 X172.668 Y244.903
G01 X175.734 Y245.545
G01 X178.777 Y246.192
G01 X180.163 Y246.483
G01 X178.478 Y246.664
G01 X175.360 Y246.997
G01 X172.271 Y247.332
G01 X169.159 Y247.662
G01 X166.049 Y248.000
G01 X162.941 Y248.327
G01 X159.835 Y248.664
G01 X156.730 Y249.001
G01 X153.627 Y249.334
G01 X150.501 Y249.660
G01 X147.400 Y249.998
G01 X144.301 Y250.326
G01 X141.202 Y250.662
G01 X138.079 Y250.994
G01 X134.983 Y251.332
G01 X131.862 Y251.664
G01 X128.766 Y251.999
G01 X126.345 Y252.249
G01 X126.335 Y251.556
G01 X126.335 Y248.440
G01 X126.414 Y245.312
G01 X126.572 Y242.187
G01 X126.808 Y239.079
G01 X127.124 Y235.967
G01 X127.393 Y233.782
G01 X128.300 Y233.976
G01 X131.343 Y234.618
G01 X134.411 Y235.262
G01 X137.455 Y235.902
G01 X140.524 Y236.542
G01 X143.593 Y237.189
G01 X146.639 Y237.829
G01 X149.685 Y238.472
G01 X152.757 Y239.121
G01 X155.805 Y239.757
G01 X158.879 Y240.405
G01 X161.929 Y241.046
G01 X164.980 Y241.691
G01 X168.032 Y242.337
G01 X171.111 Y242.983
G01 X174.168 Y243.622
G01 X177.225 Y244.267
G01 X180.286 Y244.908
G01 X183.323 Y245.552
G01 X186.389 Y246.197
G01 X189.457 Y246.842
G01 X190.151 Y246.986
G01 X187.736 Y247.245
G01 X184.645 Y247.573
G01 X181.532 Y247.910
G01 X178.422 Y248.245
G01 X175.314 Y248.572
G01 X172.208 Y248.910
G01 X169.104 Y249.238
G01 X166.001 Y249.570
G01 X162.900 Y249.903
G01 X159.775 Y250.242
G01 X156.677 Y250.577
G01 X153.579 Y250.905
G01 X150.458 Y251.243
G01 X147.362 Y251.569
G01 X144.242 Y251.902
G01 X141.148 Y252.241
G01 X138.030 Y252.574
G01 X134.936 Y252.898
G01 X131.819 Y253.237
G01 X128.702 Y253.565
G01 X125.611 Y253.905
G01 X124.814 Y253.993
G01 X124.761 Y251.651
G01 X124.759 Y248.520
G01 X124.834 Y245.402
G01 X124.988 Y242.275
G01 X125.220 Y239.165
G01 X125.529 Y236.049
G01 X125.915 Y232.954
G01 X126.065 Y231.900
G01 X128.098 Y232.334
G01 X131.164 Y232.973
G01 X134.203 Y233.621
G01 X137.268 Y234.261
G01 X140.334 Y234.902
G01 X143.375 Y235.548
G01 X146.441 Y236.196
G01 X149.508 Y236.840
G01 X152.551 Y237.476
G01 X155.620 Y238.120
G01 X158.688 Y238.766
G01 X161.733 Y239.409
G01 X164.804 Y240.054
G01 X167.850 Y240.701
G01 X170.897 Y241.342
G01 X173.971 Y241.986
G01 X177.022 Y242.625
G01 X180.073 Y243.272
G01 X183.151 Y243.919
G01 X186.207 Y244.557
G01 X189.264 Y245.203
G01 X192.324 Y245.845
G01 X195.363 Y246.487
G01 X198.430 Y247.134
G01 X200.113 Y247.488
G01 X198.729 Y247.639
G01 X195.638 Y247.971
G01 X192.525 Y248.303
G01 X189.415 Y248.636
G01 X186.308 Y248.967
G01 X183.204 Y249.304
G01 X180.101 Y249.635
G01 X176.975 Y249.970
G01 X173.876 Y250.303
G01 X170.778 Y250.633
G01 X167.656 Y250.970
G01 X164.560 Y251.297
G01 X161.440 Y251.637
G01 X158.346 Y251.969
G01 X155.228 Y252.302
G01 X152.135 Y252.632
G01 X149.019 Y252.968
G01 X145.902 Y253.299
G01 X142.812 Y253.633
G01 X139.696 Y253.960
G01 X136.581 Y254.299
G01 X133.492 Y254.626
G01 X130.378 Y254.965
G01 X127.264 Y255.291
G01 X124.176 Y255.626
G01 X123.329 Y255.715
G01 X123.247 Y253.434
G01 X123.200 Y250.315
G01 X123.231 Y247.183
G01 X123.339 Y244.066
G01 X123.523 Y240.952
G01 X123.785 Y237.831
G01 X124.123 Y234.730
G01 X124.538 Y231.626
G01 X124.782 Y230.034
G01 X126.251 Y230.345
G01 X129.313 Y230.992
G01 X132.376 Y231.631
G01 X135.437 Y232.285
G01 X138.499 Y232.930
G01 X141.539 Y233.562
G01 X144.601 Y234.209
G01 X147.664 Y234.856
G01 X150.728 Y235.502
G01 X153.792 Y236.146
G01 X156.833 Y236.784
G01 X159.898 Y237.430
G01 X162.964 Y238.070
G01 X166.005 Y238.710
G01 X169.071 Y239.361
G01 X172.139 Y240.002
G01 X175.183 Y240.643
G01 X178.252 Y241.289
G01 X181.297 Y241.931
G01 X184.368 Y242.577
G01 X187.416 Y243.220
G01 X190.465 Y243.863
G01 X193.542 Y244.505
G01 X196.595 Y245.147
G01 X199.651 Y245.790
G01 X202.709 Y246.436
G01 X205.771 Y247.080
G01 X208.813 Y247.724
G01 X210.101 Y247.991
G01 X208.290 Y248.184
G01 X205.174 Y248.520
G01 X202.064 Y248.849
G01 X198.957 Y249.182
G01 X195.852 Y249.517
G01 X192.750 Y249.850
G01 X189.650 Y250.180
G01 X186.527 Y250.513
G01 X183.430 Y250.851
G01 X180.310 Y251.184
G01 X177.216 Y251.513
G01 X174.098 Y251.851
G01 X171.005 Y252.180
G01 X167.888 Y252.512
G01 X164.798 Y252.845
G01 X161.682 Y253.179
G01 X158.567 Y253.511
G01 X155.453 Y253.849
G01 X152.364 Y254.180
G01 X149.251 Y254.515
G01 X146.138 Y254.842
G01 X143.025 Y255.180
G01 X139.938 Y255.506
G01 X136.826 Y255.843
G01 X133.714 Y256.179
G01 X130.602 Y256.512
G01 X127.491 Y256.841
G01 X124.405 Y257.177
G01 X121.841 Y257.452
G01 X121.809 Y256.876
G01 X121.680 Y253.759
G01 X121.627 Y250.640
G01 X121.649 Y247.508
G01 X121.748 Y244.390
G01 X121.923 Y241.262
G01 X122.173 Y238.153
G01 X122.500 Y235.038
G01 X122.901 Y231.944
G01 X123.239 Y229.710
G01 X124.094 Y229.899
G01 X124.782 Y230.034
G01 X127.157 Y230.539
G01 X130.219 Y231.184
G01 X133.282 Y231.820
G01 X136.321 Y232.457
G01 X139.384 Y233.099
G01 X142.447 Y233.743
G01 X145.510 Y234.388
G01 X148.575 Y235.022
G01 X151.614 Y235.662
G01 X154.679 Y236.303
G01 X157.743 Y236.951
G01 X160.809 Y237.593
G01 X163.851 Y238.227
G01 X166.917 Y238.875
G01 X169.984 Y239.513
G01 X173.027 Y240.155
G01 X176.096 Y240.795
G01 X179.141 Y241.433
G01 X182.211 Y242.079
G01 X185.258 Y242.717
G01 X188.332 Y243.357
G01 X191.381 Y243.999
G01 X194.433 Y244.637
G01 X197.511 Y245.284
G01 X200.568 Y245.922
G01 X203.627 Y246.566
G01 X206.665 Y247.205
G01 X209.733 Y247.847
G01 X210.104 Y247.927
G01 X212.850 Y248.070
G01 X215.971 Y248.235
G01 X219.091 Y248.400
G01 X222.212 Y248.564
G01 X225.333 Y248.731
G01 X228.453 Y248.893
G01 X231.574 Y249.059
G01 X234.695 Y249.223
G01 X237.041 Y249.347
G01 X237.025 Y249.984
G01 X237.026 Y250.123
G01 X237.047 Y250.760
G01 X237.100 Y251.394
G01 X237.184 Y252.025
G01 X237.299 Y252.652
G01 X237.429 Y253.212
G01 X237.602 Y253.825
G01 X237.804 Y254.429
G01 X238.036 Y255.022
G01 X238.297 Y255.603
G01 X238.558 Y256.118
G01 X238.872 Y256.672
G01 X239.212 Y257.210
G01 X239.579 Y257.730
G01 X239.971 Y258.232
G01 X240.346 Y258.669
G01 X240.783 Y259.132
G01 X241.242 Y259.573
G01 X241.722 Y259.992
G01 X242.223 Y260.386
G01 X242.691 Y260.720
G01 X243.226 Y261.066
G01 X243.777 Y261.385
G01 X244.343 Y261.677
G01 X244.923 Y261.940
G01 X245.458 Y262.154
G01 X246.060 Y262.362
G01 X246.671 Y262.541
G01 X247.291 Y262.689
G01 X247.917 Y262.807
G01 X248.487 Y262.886
G01 X249.121 Y262.945
G01 X249.757 Y262.973
G01 X250.394 Y262.969
G01 X251.030 Y262.934
G01 X251.602 Y262.876
G01 X252.232 Y262.782
G01 X252.856 Y262.657
G01 X253.111 Y262.597
G01 X253.531 Y264.141
G01 X254.351 Y267.157
G01 X255.172 Y270.173
G01 X255.995 Y273.188
G01 X256.814 Y276.204
G01 X257.635 Y279.219
G01 X258.457 Y282.234
G01 X259.279 Y285.249
G01 X260.097 Y288.265
G01 X260.919 Y291.280
G01 X261.740 Y294.296
G01 X262.560 Y297.311
G01 X263.382 Y300.326
G01 X264.201 Y303.342
G01 X265.022 Y306.357
G01 X265.844 Y309.372
G01 X266.663 Y312.388
G01 X267.482 Y315.404
G01 X268.303 Y318.419
G01 X269.125 Y321.434
G01 X269.948 Y324.449
G01 X270.764 Y327.465
G01 X271.589 Y330.480
G01 X272.407 Y333.496
G01 X273.226 Y336.511
G01 X274.054 Y339.525
G01 X274.874 Y342.540
G01 X275.695 Y345.556
G01 X276.516 Y348.571
G01 X277.338 Y351.586
G01 X278.150 Y354.603
G01 X278.973 Y357.618
G01 X279.797 Y360.633
G01 X280.621 Y363.647
G01 X281.434 Y366.664
G01 X282.259 Y369.679
G01 X283.084 Y372.693
G01 X283.898 Y375.710
G01 X284.724 Y378.724
G01 X285.538 Y381.741
G01 X286.359 Y384.730
G01 X287.173 Y387.747
G01 X288.002 Y390.760
G01 X288.816 Y393.777
G01 X289.645 Y396.790
G01 X290.460 Y399.807
G01 X291.275 Y402.824
G01 X291.682 Y404.268
G01 X292.339 Y405.774
G01 X293.622 Y408.611
G01 X294.767 Y411.199
G01 X294.493 Y411.275
G01 X291.470 Y412.079
G01 X290.951 Y412.211
G01 X290.678 Y409.649
G01 X290.351 Y406.533
G01 X290.013 Y403.444
G01 X289.682 Y400.326
G01 X289.348 Y397.207
G01 X289.080 Y394.639
G01 X289.289 Y395.126
G01 X290.567 Y397.965
G01 X291.839 Y400.830
G01 X293.129 Y403.688
G01 X294.398 Y406.525
G01 X295.674 Y409.385
G01 X296.943 Y412.219
G01 X296.927 Y412.224
G01 X293.902 Y413.069
G01 X290.878 Y413.853
G01 X289.599 Y414.167
G01 X289.410 Y412.386
G01 X289.077 Y409.276
G01 X288.744 Y406.166
G01 X288.396 Y403.057
G01 X288.062 Y399.945
G01 X287.746 Y396.852
G01 X287.406 Y393.738
G01 X287.075 Y390.620
G01 X286.745 Y387.526
G01 X286.471 Y384.985
G01 X286.709 Y385.542
G01 X287.984 Y388.382
G01 X289.271 Y391.242
G01 X290.541 Y394.080
G01 X291.822 Y396.939
G01 X293.090 Y399.801
G01 X294.368 Y402.632
G01 X295.637 Y405.491
G01 X296.922 Y408.344
G01 X298.206 Y411.196
G01 X299.091 Y413.202
G01 X298.209 Y413.464
G01 X295.209 Y414.319
G01 X292.178 Y415.123
G01 X289.150 Y415.867
G01 X288.220 Y416.084
G01 X288.000 Y413.928
G01 X287.670 Y410.822
G01 X287.326 Y407.718
G01 X286.999 Y404.610
G01 X286.671 Y401.500
G01 X286.328 Y398.393
G01 X285.998 Y395.282
G01 X285.665 Y392.170
G01 X285.328 Y389.058
G01 X285.006 Y385.966
G01 X284.672 Y382.850
G01 X284.330 Y379.735
G01 X284.000 Y376.640
G01 X283.870 Y375.355
G01 X284.606 Y377.020
G01 X285.889 Y379.883
G01 X287.159 Y382.721
G01 X288.442 Y385.580
G01 X289.717 Y388.440
G01 X290.996 Y391.298
G01 X292.271 Y394.129
G01 X293.541 Y396.987
G01 X294.826 Y399.839
G01 X296.096 Y402.694
G01 X297.381 Y405.543
G01 X298.649 Y408.397
G01 X299.930 Y411.246
G01 X301.208 Y414.095
G01 X301.255 Y414.186
G01 X298.341 Y415.067
G01 X295.329 Y415.920
G01 X292.318 Y416.713
G01 X289.277 Y417.455
G01 X286.862 Y418.004
G01 X286.789 Y417.354
G01 X286.469 Y414.250
G01 X286.135 Y411.148
G01 X285.799 Y408.021
G01 X285.455 Y404.920
G01 X285.128 Y401.814
G01 X284.801 Y398.707
G01 X284.459 Y395.603
G01 X284.130 Y392.495
G01 X283.798 Y389.386
G01 X283.463 Y386.277
G01 X283.123 Y383.167
G01 X282.798 Y380.079
G01 X282.459 Y376.967
G01 X282.125 Y373.852
G01 X281.793 Y370.734
G01 X281.469 Y367.639
G01 X281.261 Y365.701
G01 X281.743 Y366.788
G01 X283.023 Y369.652
G01 X284.294 Y372.490
G01 X285.569 Y375.351
G01 X286.852 Y378.209
G01 X288.120 Y381.043
G01 X289.402 Y383.898
G01 X290.674 Y386.755
G01 X291.962 Y389.605
G01 X293.239 Y392.457
G01 X294.503 Y395.313
G01 X295.782 Y398.163
G01 X297.059 Y401.012
G01 X298.336 Y403.861
G01 X299.617 Y406.734
G01 X300.904 Y409.578
G01 X302.171 Y412.427
G01 X303.387 Y415.135
G01 X303.238 Y415.183
G01 X300.257 Y416.114
G01 X297.259 Y416.992
G01 X294.245 Y417.815
G01 X291.218 Y418.584
G01 X288.177 Y419.299
G01 X285.497 Y419.881
G01 X285.454 Y419.507
G01 X285.119 Y416.410
G01 X284.789 Y413.311
G01 X284.459 Y410.186
G01 X284.121 Y407.087
G01 X283.786 Y403.987
G01 X283.449 Y400.861
G01 X283.118 Y397.759
G01 X282.787 Y394.656
G01 X282.456 Y391.552
G01 X282.123 Y388.447
G01 X281.788 Y385.342
G01 X281.463 Y382.234
G01 X281.120 Y379.128
G01 X280.797 Y376.016
G01 X280.454 Y372.908
G01 X280.128 Y369.795
G01 X279.792 Y366.682
G01 X279.463 Y363.591
G01 X279.127 Y360.475
G01 X278.794 Y357.381
G01 X278.659 Y356.071
G01 X279.392 Y357.712
G01 X280.672 Y360.575
G01 X281.955 Y363.435
G01 X283.219 Y366.273
G01 X284.500 Y369.130
G01 X285.777 Y371.987
G01 X287.062 Y374.840
G01 X288.340 Y377.693
G01 X289.610 Y380.548
G01 X290.884 Y383.401
G01 X292.161 Y386.251
G01 X293.439 Y389.100
G01 X294.718 Y391.948
G01 X295.997 Y394.795
G01 X297.260 Y397.646
G01 X298.544 Y400.515
G01 X299.818 Y403.361
G01 X301.104 Y406.203
G01 X302.378 Y409.074
G01 X303.655 Y411.916
G01 X304.927 Y414.761
G01 X305.519 Y416.092
G01 X303.922 Y416.617
G01 X300.947 Y417.550
G01 X297.957 Y418.431
G01 X294.935 Y419.262
G01 X291.915 Y420.035
G01 X288.865 Y420.758
G01 X285.819 Y421.423
G01 X284.120 Y421.769
G01 X283.967 Y420.372
G01 X283.645 Y417.275
G01 X283.308 Y414.155
G01 X282.982 Y411.058
G01 X282.639 Y407.938
G01 X282.306 Y404.841
G01 X281.976 Y401.742
G01 X281.644 Y398.619
G01 X281.304 Y395.521
G01 X280.980 Y392.420
G01 X280.636 Y389.296
G01 X280.311 Y386.193
G01 X279.983 Y383.089
G01 X279.640 Y379.989
G01 X279.319 Y376.882
G01 X278.980 Y373.778
G01 X278.648 Y370.671
G01 X278.320 Y367.562
G01 X277.983 Y364.454
G01 X277.648 Y361.344
G01 X277.312 Y358.232
G01 X276.974 Y355.119
G01 X276.649 Y352.027
G01 X276.311 Y348.910
G01 X276.051 Y346.418
G01 X276.301 Y346.997
G01 X277.582 Y349.861
G01 X278.853 Y352.699
G01 X280.135 Y355.558
G01 X281.409 Y358.417
G01 X282.688 Y361.247
G01 X283.961 Y364.103
G01 X285.244 Y366.955
G01 X286.522 Y369.807
G01 X287.794 Y372.660
G01 X289.071 Y375.509
G01 X290.352 Y378.357
G01 X291.630 Y381.230
G01 X292.903 Y384.078
G01 X294.176 Y386.925
G01 X295.450 Y389.771
G01 X296.730 Y392.641
G01 X298.015 Y395.481
G01 X299.284 Y398.327
G01 X300.572 Y401.191
G01 X301.832 Y404.038
G01 X303.127 Y406.899
G01 X304.393 Y409.743
G01 X305.669 Y412.584
G01 X306.946 Y415.449
G01 X307.649 Y417.005
G01 X306.311 Y417.461
G01 X303.339 Y418.431
G01 X300.349 Y419.349
G01 X297.344 Y420.213
G01 X294.341 Y421.020
G01 X291.307 Y421.778
G01 X288.261 Y422.482
G01 X285.202 Y423.133
G01 X282.757 Y423.612
G01 X282.676 Y422.991
G01 X282.355 Y419.897
G01 X282.021 Y416.779
G01 X281.682 Y413.687
G01 X281.345 Y410.569
G01 X281.019 Y407.474
G01 X280.693 Y404.353
G01 X280.361 Y401.258
G01 X280.012 Y398.140
G01 X279.687 Y395.043
G01 X279.358 Y391.920
G01 X279.022 Y388.824
G01 X278.686 Y385.727
G01 X278.358 Y382.602
G01 X278.021 Y379.503
G01 X277.694 Y376.402
G01 X277.358 Y373.276
G01 X277.023 Y370.174
G01 X276.694 Y367.070
G01 X276.359 Y363.967
G01 X276.026 Y360.861
G01 X275.695 Y357.754
G01 X275.363 Y354.645
G01 X275.029 Y351.536
G01 X274.691 Y348.425
G01 X274.356 Y345.312
G01 X274.029 Y342.221
G01 X273.693 Y339.104
G01 X273.449 Y336.788
G01 X273.765 Y337.505
G01 X275.041 Y340.344
G01 X276.317 Y343.206
G01 X277.601 Y346.063
G01 X278.873 Y348.922
G01 X280.142 Y351.754
G01 X281.420 Y354.608
G01 X282.699 Y357.460
G01 X283.977 Y360.311
G01 X285.252 Y363.161
G01 X286.541 Y366.032
G01 X287.817 Y368.880
G01 X289.086 Y371.729
G01 X290.357 Y374.576
G01 X291.631 Y377.421
G01 X292.915 Y380.289
G01 X294.191 Y383.132
G01 X295.475 Y385.999
G01 X296.749 Y388.841
G01 X298.022 Y391.683
G01 X299.300 Y394.549
G01 X300.581 Y397.387
G01 X301.851 Y400.255
G01 X303.137 Y403.090
G01 X304.412 Y405.956
G01 X305.687 Y408.794
G01 X306.964 Y411.657
G01 X308.249 Y414.517
G01 X309.518 Y417.357
G01 X309.778 Y417.928
G01 X307.404 Y418.754
G01 X304.443 Y419.732
G01 X301.447 Y420.664
G01 X298.453 Y421.538
G01 X295.443 Y422.360
G01 X292.403 Y423.133
G01 X289.367 Y423.849
G01 X286.319 Y424.511
G01 X283.242 Y425.123
G01 X281.384 Y425.465
G01 X281.238 Y424.247
G01 X280.909 Y421.131
G01 X280.576 Y418.041
G01 X280.248 Y414.924
G01 X279.911 Y411.809
G01 X279.585 Y408.716
G01 X279.246 Y405.600
G01 X278.917 Y402.508
G01 X278.589 Y399.389
G01 X278.251 Y396.272
G01 X277.920 Y393.178
G01 X277.574 Y390.061
G01 X277.250 Y386.966
G01 X276.921 Y383.844
G01 X276.584 Y380.750
G01 X276.248 Y377.654
G01 X275.917 Y374.532
G01 X275.589 Y371.433
G01 X275.253 Y368.310
G01 X274.917 Y365.211
G01 X274.587 Y362.111
G01 X274.261 Y359.008
G01 X273.921 Y355.882
G01 X273.587 Y352.778
G01 X273.253 Y349.674
G01 X272.925 Y346.566
G01 X272.583 Y343.460
G01 X272.253 Y340.350
G01 X271.922 Y337.238
G01 X271.593 Y334.149
G01 X271.252 Y331.034
G01 X270.925 Y327.940
G01 X270.841 Y327.134
G01 X271.790 Y329.259
G01 X273.072 Y332.121
G01 X274.344 Y334.982
G01 X275.621 Y337.814
G01 X276.898 Y340.669
G01 X278.173 Y343.524
G01 X279.452 Y346.375
G01 X280.726 Y349.227
G01 X282.000 Y352.077
G01 X283.282 Y354.949
G01 X284.564 Y357.794
G01 X285.831 Y360.643
G01 X287.116 Y363.485
G01 X288.390 Y366.356
G01 X289.671 Y369.197
G01 X290.943 Y372.040
G01 X292.224 Y374.906
G01 X293.498 Y377.747
G01 X294.780 Y380.612
G01 X296.052 Y383.453
G01 X297.331 Y386.317
G01 X298.598 Y389.158
G01 X299.884 Y392.019
G01 X301.158 Y394.857
G01 X302.435 Y397.720
G01 X303.721 Y400.579
G01 X304.993 Y403.416
G01 X306.266 Y406.280
G01 X307.548 Y409.139
G01 X308.813 Y411.978
G01 X310.094 Y414.838
G01 X311.382 Y417.694
G01 X311.887 Y418.813
G01 X310.112 Y419.454
G01 X307.154 Y420.474
G01 X304.196 Y421.437
G01 X301.205 Y422.354
G01 X298.199 Y423.219
G01 X295.178 Y424.032
G01 X292.143 Y424.791
G01 X289.113 Y425.494
G01 X286.053 Y426.148
G01 X282.983 Y426.749
G01 X279.992 Y427.281
G01 X279.997 Y427.204
G01 X279.667 Y424.090
G01 X279.330 Y420.978
G01 X278.986 Y417.866
G01 X278.656 Y414.777
G01 X278.331 Y411.661
G01 X277.998 Y408.547
G01 X277.656 Y405.434
G01 X277.327 Y402.344
G01 X276.999 Y399.227
G01 X276.662 Y396.112
G01 X276.334 Y393.021
G01 X275.992 Y389.906
G01 X275.658 Y386.815
G01 X275.323 Y383.698
G01 X274.990 Y380.580
G01 X274.662 Y377.486
G01 X274.330 Y374.368
G01 X274.001 Y371.273
G01 X273.667 Y368.153
G01 X273.334 Y365.058
G01 X272.993 Y361.938
G01 X272.663 Y358.841
G01 X272.338 Y355.741
G01 X272.000 Y352.618
G01 X271.669 Y349.518
G01 X271.337 Y346.417
G01 X271.003 Y343.316
G01 X270.669 Y340.187
G01 X270.334 Y337.083
G01 X269.998 Y333.977
G01 X269.669 Y330.867
G01 X269.333 Y327.758
G01 X269.002 Y324.670
G01 X268.667 Y321.555
G01 X268.330 Y318.438
G01 X268.239 Y317.504
G01 X269.120 Y319.467
G01 X270.399 Y322.329
G01 X271.677 Y325.188
G01 X272.957 Y328.044
G01 X274.229 Y330.900
G01 X275.512 Y333.750
G01 X276.788 Y336.602
G01 X278.062 Y339.452
G01 X279.341 Y342.299
G01 X280.613 Y345.146
G01 X281.886 Y347.993
G01 X283.166 Y350.862
G01 X284.446 Y353.704
G01 X285.721 Y356.546
G01 X286.999 Y359.413
G01 X288.273 Y362.255
G01 X289.558 Y365.118
G01 X290.825 Y367.960
G01 X292.101 Y370.825
G01 X293.381 Y373.662
G01 X294.656 Y376.526
G01 X295.933 Y379.362
G01 X297.217 Y382.222
G01 X298.498 Y385.083
G01 X299.766 Y387.921
G01 X301.038 Y390.784
G01 X302.318 Y393.644
G01 X303.599 Y396.476
G01 X304.867 Y399.340
G01 X306.158 Y402.195
G01 X307.417 Y405.034
G01 X308.708 Y407.889
G01 X309.974 Y410.752
G01 X311.262 Y413.606
G01 X312.533 Y416.441
G01 X313.801 Y419.302
G01 X313.994 Y419.711
G01 X311.475 Y420.639
G01 X308.531 Y421.671
G01 X305.552 Y422.658
G01 X302.575 Y423.588
G01 X299.581 Y424.467
G01 X296.573 Y425.294
G01 X293.534 Y426.073
G01 X290.499 Y426.796
G01 X287.452 Y427.466
G01 X284.377 Y428.087
G01 X281.309 Y428.652
G01 X278.626 Y429.102
G01 X278.580 Y428.704
G01 X278.245 Y425.593
G01 X277.921 Y422.480
G01 X277.574 Y419.370
G01 X277.242 Y416.283
G01 X276.917 Y413.170
G01 X276.584 Y410.057
G01 X276.245 Y406.946
G01 X275.914 Y403.833
G01 X275.580 Y400.745
G01 X275.249 Y397.631
G01 X274.910 Y394.519
G01 X274.577 Y391.405
G01 X274.254 Y388.315
G01 X273.917 Y385.201
G01 X273.584 Y382.086
G01 X273.258 Y378.995
G01 X272.918 Y375.881
G01 X272.579 Y372.766
G01 X272.258 Y369.673
G01 X271.920 Y366.557
G01 X271.580 Y363.441
G01 X271.255 Y360.347
G01 X270.921 Y357.228
G01 X270.588 Y354.134
G01 X270.255 Y351.014
G01 X269.919 Y347.919
G01 X269.590 Y344.797
G01 X269.257 Y341.700
G01 X268.921 Y338.602
G01 X268.585 Y335.478
G01 X268.256 Y332.376
G01 X267.926 Y329.273
G01 X267.593 Y326.170
G01 X267.261 Y323.064
G01 X266.926 Y319.956
G01 X266.592 Y316.847
G01 X266.259 Y313.734
G01 X265.924 Y310.618
G01 X265.631 Y307.851
G01 X265.762 Y308.152
G01 X267.043 Y311.014
G01 X268.325 Y313.873
G01 X269.593 Y316.707
G01 X270.871 Y319.561
G01 X272.146 Y322.414
G01 X273.421 Y325.265
G01 X274.710 Y328.136
G01 X275.985 Y330.983
G01 X277.259 Y333.829
G01 X278.530 Y336.675
G01 X279.812 Y339.543
G01 X281.087 Y342.385
G01 X282.369 Y345.250
G01 X283.641 Y348.092
G01 X284.920 Y350.930
G01 X286.191 Y353.797
G01 X287.476 Y356.658
G01 X288.744 Y359.498
G01 X290.023 Y362.360
G01 X291.305 Y365.194
G01 X292.584 Y368.054
G01 X293.862 Y370.915
G01 X295.130 Y373.753
G01 X296.416 Y376.610
G01 X297.685 Y379.473
G01 X298.955 Y382.308
G01 X300.243 Y385.164
G01 X301.525 Y388.021
G01 X302.801 Y390.880
G01 X304.061 Y393.718
G01 X305.352 Y396.571
G01 X306.621 Y399.433
G01 X307.911 Y402.286
G01 X309.177 Y405.147
G01 X310.455 Y407.978
G01 X311.733 Y410.834
G01 X313.016 Y413.689
G01 X314.289 Y416.548
G01 X315.567 Y419.404
G01 X316.095 Y420.567
G01 X314.386 Y421.219
G01 X311.449 Y422.295
G01 X308.494 Y423.320
G01 X305.522 Y424.295
G01 X302.534 Y425.219
G01 X299.547 Y426.087
G01 X296.529 Y426.908
G01 X293.497 Y427.678
G01 X290.453 Y428.396
G01 X287.397 Y429.062
G01 X284.329 Y429.675
G01 X281.270 Y430.232
G01 X278.184 Y430.741
G01 X277.243 Y430.885
G01 X277.009 Y428.721
G01 X276.682 Y425.609
G01 X276.355 Y422.524
G01 X276.018 Y419.414
G01 X275.677 Y416.304
G01 X275.347 Y413.193
G01 X275.012 Y410.083
G01 X274.686 Y406.971
G01 X274.339 Y403.862
G01 X274.021 Y400.774
G01 X273.677 Y397.664
G01 X273.355 Y394.550
G01 X273.013 Y391.440
G01 X272.677 Y388.329
G01 X272.351 Y385.240
G01 X272.013 Y382.129
G01 X271.680 Y379.016
G01 X271.351 Y375.902
G01 X271.013 Y372.790
G01 X270.682 Y369.701
G01 X270.348 Y366.588
G01 X270.015 Y363.473
G01 X269.686 Y360.383
G01 X269.352 Y357.268
G01 X269.016 Y354.153
G01 X268.692 Y351.061
G01 X268.358 Y347.944
G01 X268.020 Y344.828
G01 X267.689 Y341.735
G01 X267.354 Y338.617
G01 X267.024 Y335.522
G01 X266.686 Y332.403
G01 X266.356 Y329.306
G01 X266.022 Y326.183
G01 X265.691 Y323.085
G01 X265.356 Y319.985
G01 X265.026 Y316.883
G01 X264.692 Y313.754
G01 X264.354 Y310.650
G01 X264.025 Y307.540
G01 X263.695 Y304.454
G01 X263.360 Y301.340
G01 X263.024 Y298.222
G01 X263.029 Y298.221
G01 X264.296 Y301.061
G01 X265.568 Y303.897
G01 X266.848 Y306.752
G01 X268.124 Y309.605
G01 X269.401 Y312.456
G01 X270.674 Y315.306
G01 X271.950 Y318.152
G01 X273.235 Y321.021
G01 X274.510 Y323.865
G01 X275.785 Y326.707
G01 X277.060 Y329.575
G01 X278.338 Y332.414
G01 X279.619 Y335.278
G01 X280.892 Y338.117
G01 X282.171 Y340.979
G01 X283.448 Y343.842
G01 X284.721 Y346.679
G01 X286.006 Y349.538
G01 X287.276 Y352.375
G01 X288.555 Y355.234
G01 X289.836 Y358.093
G01 X291.116 Y360.952
G01 X292.387 Y363.787
G01 X293.664 Y366.645
G01 X294.939 Y369.505
G01 X296.223 Y372.360
G01 X297.494 Y375.194
G01 X298.769 Y378.053
G01 X300.051 Y380.908
G01 X301.328 Y383.765
G01 X302.597 Y386.625
G01 X303.879 Y389.454
G01 X305.147 Y392.314
G01 X306.436 Y395.166
G01 X307.702 Y398.026
G01 X308.987 Y400.879
G01 X310.264 Y403.735
G01 X311.536 Y406.566
G01 X312.807 Y409.424
G01 X314.082 Y412.281
G01 X315.362 Y415.135
G01 X316.646 Y417.987
G01 X317.918 Y420.845
G01 X318.193 Y421.435
G01 X315.890 Y422.333
G01 X312.951 Y423.429
G01 X310.011 Y424.468
G01 X307.054 Y425.457
G01 X304.063 Y426.401
G01 X301.074 Y427.290
G01 X298.053 Y428.132
G01 X295.036 Y428.919
G01 X292.006 Y429.655
G01 X288.946 Y430.343
G01 X285.893 Y430.975
G01 X282.829 Y431.556
G01 X279.738 Y432.088
G01 X276.657 Y432.564
G01 X275.871 Y432.677
G01 X275.618 Y430.365
G01 X275.284 Y427.256
G01 X274.948 Y424.147
G01 X274.624 Y421.037
G01 X274.280 Y417.929
G01 X273.948 Y414.819
G01 X273.612 Y411.710
G01 X273.287 Y408.599
G01 X272.942 Y405.492
G01 X272.627 Y402.405
G01 X272.287 Y399.296
G01 X271.957 Y396.185
G01 X271.622 Y393.075
G01 X271.281 Y389.966
G01 X270.948 Y386.856
G01 X270.622 Y383.744
G01 X270.290 Y380.634
G01 X269.954 Y377.549
G01 X269.621 Y374.438
G01 X269.292 Y371.326
G01 X268.955 Y368.215
G01 X268.621 Y365.103
G01 X268.290 Y361.991
G01 X267.954 Y358.905
G01 X267.625 Y355.792
G01 X267.286 Y352.680
G01 X266.957 Y349.566
G01 X266.629 Y346.477
G01 X266.295 Y343.364
G01 X265.956 Y340.250
G01 X265.621 Y337.136
G01 X265.293 Y334.045
G01 X264.960 Y330.929
G01 X264.625 Y327.812
G01 X264.292 Y324.720
G01 X263.955 Y321.603
G01 X263.630 Y318.507
G01 X263.295 Y315.387
G01 X262.964 Y312.290
G01 X262.628 Y309.193
G01 X262.296 Y306.068
G01 X261.960 Y302.966
G01 X261.632 Y299.861
G01 X261.297 Y296.754
G01 X260.963 Y293.644
G01 X260.629 Y290.529
G01 X260.420 Y288.567
G01 X260.884 Y289.607
G01 X262.165 Y292.467
G01 X263.441 Y295.324
G01 X264.718 Y298.177
G01 X265.996 Y301.026
G01 X267.269 Y303.875
G01 X268.544 Y306.720
G01 X269.826 Y309.588
G01 X271.104 Y312.429
G01 X272.379 Y315.296
G01 X273.657 Y318.135
G01 X274.938 Y320.998
G01 X276.209 Y323.836
G01 X277.485 Y326.699
G01 X278.761 Y329.534
G01 X280.038 Y332.395
G01 X281.322 Y335.253
G01 X282.594 Y338.088
G01 X283.869 Y340.948
G01 X285.147 Y343.807
G01 X286.427 Y346.664
G01 X287.700 Y349.497
G01 X288.971 Y352.357
G01 X290.251 Y355.213
G01 X291.530 Y358.070
G01 X292.806 Y360.927
G01 X294.091 Y363.781
G01 X295.362 Y366.613
G01 X296.639 Y369.469
G01 X297.910 Y372.328
G01 X299.187 Y375.183
G01 X300.471 Y378.036
G01 X301.748 Y380.892
G01 X303.021 Y383.722
G01 X304.296 Y386.578
G01 X305.576 Y389.432
G01 X306.847 Y392.290
G01 X308.137 Y395.139
G01 X309.402 Y397.999
G01 X310.687 Y400.850
G01 X311.961 Y403.706
G01 X313.239 Y406.560
G01 X314.521 Y409.413
G01 X315.782 Y412.247
G01 X317.071 Y415.096
G01 X318.348 Y417.950
G01 X319.612 Y420.810
G01 X320.267 Y422.271
G01 X318.869 Y422.834
G01 X315.956 Y423.967
G01 X313.024 Y425.050
G01 X310.075 Y426.084
G01 X307.108 Y427.068
G01 X304.126 Y428.003
G01 X301.128 Y428.887
G01 X298.115 Y429.721
G01 X295.089 Y430.504
G01 X292.051 Y431.236
G01 X289.000 Y431.916
G01 X285.939 Y432.546
G01 X282.867 Y433.124
G01 X279.786 Y433.650
G01 X276.697 Y434.125
G01 X276.034 Y434.220
G01 X275.871 Y432.677
G01 X275.767 Y431.808
G01 X275.436 Y428.699
G01 X275.083 Y425.593
G01 X274.745 Y422.484
G01 X274.402 Y419.376
G01 X274.057 Y416.269
G01 X273.723 Y413.159
G01 X273.386 Y410.051
G01 X273.044 Y406.942
G01 X272.698 Y403.835
G01 X272.362 Y400.725
G01 X272.021 Y397.616
G01 X271.680 Y394.533
G01 X271.343 Y391.424
G01 X271.002 Y388.315
G01 X270.654 Y385.207
G01 X270.314 Y382.097
G01 X269.981 Y378.987
G01 X269.629 Y375.879
G01 X269.295 Y372.768
G01 X268.953 Y369.658
G01 X268.620 Y366.572
G01 X268.274 Y363.463
G01 X267.932 Y360.353
G01 X267.592 Y357.242
G01 X267.252 Y354.130
G01 X266.907 Y351.045
G01 X266.568 Y347.933
G01 X266.227 Y344.822
G01 X265.883 Y341.710
G01 X265.545 Y338.597
G01 X265.206 Y335.509
G01 X264.865 Y332.395
G01 X264.524 Y329.281
G01 X264.186 Y326.191
G01 X263.841 Y323.076
G01 X263.497 Y319.960
G01 X263.164 Y316.866
G01 X262.816 Y313.750
G01 X262.478 Y310.655
G01 X262.136 Y307.534
G01 X261.796 Y304.437
G01 X261.458 Y301.337
G01 X261.120 Y298.235
G01 X260.781 Y295.130
G01 X260.439 Y292.023
G01 X260.097 Y288.911
G01 X260.074 Y288.711
G01 X259.330 Y285.882
G01 X258.534 Y282.860
G01 X257.736 Y279.838
G01 X256.941 Y276.816
G01 X256.146 Y273.794
G01 X255.350 Y270.772
G01 X254.553 Y267.750
G01 X253.757 Y264.728
G01 X253.191 Y262.576
G01 X253.804 Y262.405
G01 X254.055 Y262.325
G01 X254.655 Y262.111
G01 X255.244 Y261.868
G01 X255.820 Y261.596
G01 X256.382 Y261.297
G01 X256.879 Y261.001
G01 X257.410 Y260.651
G01 X257.924 Y260.274
G01 X258.419 Y259.873
G01 X258.893 Y259.448
G01 X259.304 Y259.044
G01 X259.737 Y258.576
G01 X259.884 Y258.406
G01 X261.659 Y259.830
G01 X264.077 Y261.771
G01 X266.514 Y263.728
G01 X268.952 Y265.684
G01 X271.390 Y267.640
G01 X273.826 Y269.597
G01 X276.263 Y271.553
G01 X278.700 Y273.510
G01 X281.138 Y275.465
G01 X283.576 Y277.420
G01 X286.011 Y279.379
G01 X288.449 Y281.335
G01 X290.888 Y283.289
G01 X293.325 Y285.244
G01 X295.760 Y287.203
G01 X298.197 Y289.159
G01 X300.635 Y291.115
G01 X303.074 Y293.069
G01 X305.509 Y295.027
G01 X307.946 Y296.984
G01 X310.383 Y298.940
G01 X312.821 Y300.895
G01 X315.259 Y302.849
G01 X317.693 Y304.809
G01 X320.133 Y306.761
G01 X322.568 Y308.720
G01 X325.010 Y310.671
G01 X327.446 Y312.628
G01 X329.882 Y314.585
G01 X332.319 Y316.542
G01 X334.756 Y318.498
G01 X337.194 Y320.454
G01 X339.631 Y322.409
G01 X342.070 Y324.363
G01 X344.501 Y326.327
G01 X346.940 Y328.281
G01 X349.379 Y330.234
G01 X351.819 Y332.187
G01 X354.250 Y334.150
G01 X356.691 Y336.102
G01 X359.131 Y338.053
G01 X361.563 Y340.016
G01 X364.005 Y341.967
G01 X366.437 Y343.929
G01 X368.879 Y345.879
G01 X371.311 Y347.841
G01 X373.754 Y349.790
G01 X374.396 Y350.308
G01 X376.390 Y351.458
G01 X379.107 Y353.025
G01 X380.977 Y354.089
G01 X380.371 Y354.847
G01 X378.473 Y357.163
G01 X378.399 Y357.057
G01 X376.290 Y354.744
G01 X374.211 Y352.434
G01 X372.110 Y350.108
G01 X370.026 Y347.799
G01 X367.919 Y345.475
G01 X366.631 Y344.047
G01 X367.659 Y344.643
G01 X370.383 Y346.201
G01 X373.079 Y347.752
G01 X375.795 Y349.316
G01 X378.511 Y350.877
G01 X381.207 Y352.422
G01 X383.326 Y353.648
G01 X382.900 Y354.194
G01 X380.950 Y356.634
G01 X378.955 Y359.039
G01 X378.529 Y359.541
G01 X376.869 Y357.711
G01 X374.770 Y355.393
G01 X372.670 Y353.074
G01 X370.598 Y350.758
G01 X368.495 Y348.439
G01 X366.390 Y346.121
G01 X364.291 Y343.793
G01 X362.207 Y341.484
G01 X360.100 Y339.162
G01 X358.846 Y337.770
G01 X359.943 Y338.400
G01 X362.637 Y339.956
G01 X365.353 Y341.522
G01 X368.071 Y343.083
G01 X370.770 Y344.625
G01 X373.480 Y346.192
G01 X376.200 Y347.744
G01 X378.909 Y349.307
G01 X381.617 Y350.870
G01 X384.334 Y352.420
G01 X385.641 Y353.181
G01 X384.675 Y354.438
G01 X382.742 Y356.885
G01 X380.753 Y359.309
G01 X378.731 Y361.683
G01 X378.552 Y361.889
G01 X376.641 Y359.781
G01 X374.546 Y357.465
G01 X372.451 Y355.146
G01 X370.357 Y352.826
G01 X368.252 Y350.517
G01 X366.155 Y348.196
G01 X364.076 Y345.891
G01 X361.984 Y343.561
G01 X359.879 Y341.244
G01 X357.779 Y338.919
G01 X355.694 Y336.614
G01 X353.592 Y334.287
G01 X351.502 Y331.982
G01 X351.081 Y331.508
G01 X353.248 Y332.763
G01 X355.952 Y334.305
G01 X358.670 Y335.866
G01 X361.363 Y337.417
G01 X364.078 Y338.978
G01 X366.795 Y340.534
G01 X369.503 Y342.099
G01 X372.212 Y343.662
G01 X374.930 Y345.211
G01 X377.638 Y346.771
G01 X380.344 Y348.331
G01 X383.059 Y349.879
G01 X385.762 Y351.442
G01 X387.970 Y352.705
G01 X387.620 Y353.173
G01 X385.719 Y355.661
G01 X383.785 Y358.100
G01 X381.795 Y360.517
G01 X379.762 Y362.897
G01 X378.570 Y364.253
G01 X377.681 Y363.258
G01 X375.584 Y360.950
G01 X373.490 Y358.639
G01 X371.396 Y356.324
G01 X369.304 Y354.008
G01 X367.211 Y351.690
G01 X365.119 Y349.371
G01 X363.025 Y347.051
G01 X360.929 Y344.733
G01 X358.831 Y342.415
G01 X356.730 Y340.099
G01 X354.633 Y337.776
G01 X352.532 Y335.456
G01 X350.434 Y333.130
G01 X348.349 Y330.826
G01 X346.245 Y328.502
G01 X344.160 Y326.192
G01 X343.297 Y325.231
G01 X344.920 Y326.165
G01 X347.614 Y327.719
G01 X350.334 Y329.279
G01 X353.030 Y330.825
G01 X355.741 Y332.390
G01 X358.456 Y333.949
G01 X361.173 Y335.502
G01 X363.883 Y337.062
G01 X366.595 Y338.619
G01 X369.298 Y340.185
G01 X372.009 Y341.737
G01 X374.721 Y343.289
G01 X377.422 Y344.853
G01 X380.130 Y346.405
G01 X382.837 Y347.958
G01 X385.541 Y349.514
G01 X388.273 Y351.073
G01 X390.253 Y352.219
G01 X389.771 Y352.877
G01 X387.896 Y355.376
G01 X385.977 Y357.841
G01 X384.014 Y360.271
G01 X382.008 Y362.665
G01 X379.959 Y365.023
G01 X378.569 Y366.574
G01 X377.879 Y365.809
G01 X375.767 Y363.485
G01 X373.677 Y361.174
G01 X371.590 Y358.858
G01 X369.486 Y356.523
G01 X367.391 Y354.214
G01 X365.297 Y351.903
G01 X363.203 Y349.590
G01 X361.119 Y347.264
G01 X359.006 Y344.934
G01 X356.909 Y342.620
G01 X354.810 Y340.308
G01 X352.717 Y337.987
G01 X350.621 Y335.669
G01 X348.527 Y333.344
G01 X346.448 Y331.040
G01 X344.342 Y328.726
G01 X342.246 Y326.399
G01 X340.140 Y324.080
G01 X338.060 Y321.767
G01 X335.956 Y319.439
G01 X335.532 Y318.970
G01 X337.678 Y320.210
G01 X340.381 Y321.753
G01 X343.095 Y323.318
G01 X345.808 Y324.882
G01 X348.507 Y326.421
G01 X351.214 Y327.988
G01 X353.933 Y329.538
G01 X356.638 Y331.102
G01 X359.346 Y332.662
G01 X362.055 Y334.218
G01 X364.765 Y335.771
G01 X367.476 Y337.321
G01 X370.178 Y338.883
G01 X372.907 Y340.446
G01 X375.607 Y342.007
G01 X378.314 Y343.557
G01 X381.019 Y345.109
G01 X383.741 Y346.677
G01 X386.441 Y348.234
G01 X389.146 Y349.781
G01 X391.868 Y351.347
G01 X392.540 Y351.741
G01 X391.174 Y353.627
G01 X389.297 Y356.138
G01 X387.385 Y358.600
G01 X385.420 Y361.042
G01 X383.422 Y363.435
G01 X381.370 Y365.805
G01 X379.288 Y368.125
G01 X378.565 Y368.911
G01 X377.189 Y367.379
G01 X375.088 Y365.047
G01 X372.999 Y362.740
G01 X370.894 Y360.411
G01 X368.800 Y358.107
G01 X366.700 Y355.770
G01 X364.610 Y353.459
G01 X362.522 Y351.146
G01 X360.406 Y348.825
G01 X358.318 Y346.509
G01 X356.230 Y344.192
G01 X354.140 Y341.875
G01 X352.021 Y339.553
G01 X349.936 Y337.229
G01 X347.839 Y334.916
G01 X345.746 Y332.598
G01 X343.648 Y330.283
G01 X341.552 Y327.963
G01 X339.457 Y325.641
G01 X337.354 Y323.325
G01 X335.277 Y321.016
G01 X333.177 Y318.692
G01 X331.073 Y316.370
G01 X328.989 Y314.060
G01 X327.747 Y312.693
G01 X328.867 Y313.335
G01 X331.583 Y314.902
G01 X334.302 Y316.461
G01 X336.997 Y318.009
G01 X339.711 Y319.569
G01 X342.425 Y321.127
G01 X345.136 Y322.685
G01 X347.845 Y324.245
G01 X350.550 Y325.807
G01 X353.258 Y327.364
G01 X355.968 Y328.916
G01 X358.672 Y330.474
G01 X361.385 Y332.019
G01 X364.091 Y333.572
G01 X366.808 Y335.150
G01 X369.513 Y336.702
G01 X372.217 Y338.253
G01 X374.939 Y339.821
G01 X377.639 Y341.375
G01 X380.346 Y342.919
G01 X383.070 Y344.480
G01 X385.771 Y346.031
G01 X388.488 Y347.600
G01 X391.191 Y349.146
G01 X393.910 Y350.712
G01 X394.800 Y351.227
G01 X393.596 Y352.929
G01 X391.762 Y355.440
G01 X389.874 Y357.932
G01 X387.942 Y360.391
G01 X385.966 Y362.815
G01 X383.948 Y365.204
G01 X381.888 Y367.557
G01 X379.787 Y369.873
G01 X378.545 Y371.203
G01 X377.690 Y370.252
G01 X375.580 Y367.934
G01 X373.494 Y365.626
G01 X371.394 Y363.296
G01 X369.306 Y360.991
G01 X367.202 Y358.663
G01 X365.110 Y356.360
G01 X363.013 Y354.024
G01 X360.925 Y351.714
G01 X358.821 Y349.385
G01 X356.726 Y347.081
G01 X354.623 Y344.748
G01 X352.529 Y342.442
G01 X350.443 Y340.126
G01 X348.337 Y337.793
G01 X346.247 Y335.478
G01 X344.154 Y333.166
G01 X342.058 Y330.856
G01 X339.965 Y328.541
G01 X337.855 Y326.205
G01 X335.757 Y323.891
G01 X333.667 Y321.567
G01 X331.568 Y319.251
G01 X329.486 Y316.951
G01 X327.387 Y314.629
G01 X325.289 Y312.304
G01 X323.183 Y309.984
G01 X321.100 Y307.673
G01 X319.982 Y306.431
G01 X321.235 Y307.148
G01 X323.953 Y308.711
G01 X326.646 Y310.264
G01 X329.362 Y311.823
G01 X332.074 Y313.384
G01 X334.788 Y314.940
G01 X337.496 Y316.502
G01 X340.209 Y318.053
G01 X342.914 Y319.614
G01 X345.623 Y321.167
G01 X348.329 Y322.724
G01 X351.037 Y324.274
G01 X353.740 Y325.830
G01 X356.464 Y327.398
G01 X359.170 Y328.948
G01 X361.875 Y330.497
G01 X364.593 Y332.070
G01 X367.297 Y333.617
G01 X370.012 Y335.191
G01 X372.714 Y336.740
G01 X375.413 Y338.291
G01 X378.140 Y339.847
G01 X380.833 Y341.405
G01 X383.553 Y342.967
G01 X386.258 Y344.507
G01 X388.971 Y346.080
G01 X391.688 Y347.644
G01 X394.389 Y349.187
G01 X397.065 Y350.722
G01 X397.035 Y350.766
G01 X395.249 Y353.324
G01 X393.408 Y355.864
G01 X391.533 Y358.357
G01 X389.616 Y360.818
G01 X387.644 Y363.258
G01 X385.641 Y365.649
G01 X383.596 Y368.005
G01 X381.511 Y370.324
G01 X379.373 Y372.620
G01 X378.524 Y373.510
G01 X377.257 Y372.122
G01 X375.158 Y369.795
G01 X373.054 Y367.475
G01 X370.973 Y365.165
G01 X368.867 Y362.844
G01 X366.767 Y360.517
G01 X364.689 Y358.203
G01 X362.585 Y355.879
G01 X360.475 Y353.561
G01 X358.395 Y351.246
G01 X356.290 Y348.922
G01 X354.204 Y346.612
G01 X352.102 Y344.283
G01 X350.008 Y341.980
G01 X347.906 Y339.650
G01 X345.820 Y337.336
G01 X343.725 Y335.032
G01 X341.618 Y332.704
G01 X339.534 Y330.385
G01 X337.438 Y328.078
G01 X335.335 Y325.741
G01 X333.237 Y323.434
G01 X331.148 Y321.116
G01 X329.058 Y318.796
G01 X326.959 Y316.485
G01 X324.864 Y314.167
G01 X322.771 Y311.844
G01 X320.671 Y309.526
G01 X318.570 Y307.208
G01 X316.470 Y304.883
G01 X314.389 Y302.572
G01 X312.280 Y300.251
G01 X312.198 Y300.154
G01 X314.804 Y301.659
G01 X317.502 Y303.206
G01 X320.217 Y304.767
G01 X322.933 Y306.324
G01 X325.642 Y307.887
G01 X328.354 Y309.442
G01 X331.062 Y311.000
G01 X333.771 Y312.555
G01 X336.480 Y314.107
G01 X339.181 Y315.668
G01 X341.886 Y317.222
G01 X344.615 Y318.784
G01 X347.320 Y320.334
G01 X350.019 Y321.890
G01 X352.741 Y323.458
G01 X355.443 Y325.008
G01 X358.145 Y326.556
G01 X360.868 Y328.118
G01 X363.562 Y329.677
G01 X366.283 Y331.239
G01 X368.981 Y332.788
G01 X371.699 Y334.354
G01 X374.401 Y335.897
G01 X377.122 Y337.456
G01 X379.839 Y339.020
G01 X382.532 Y340.574
G01 X385.250 Y342.135
G01 X387.943 Y343.687
G01 X390.662 Y345.246
G01 X393.375 Y346.812
G01 X396.073 Y348.356
G01 X398.795 Y349.909
G01 X399.292 Y350.199
G01 X397.854 Y352.309
G01 X396.052 Y354.866
G01 X394.216 Y357.377
G01 X392.326 Y359.870
G01 X390.393 Y362.330
G01 X388.417 Y364.755
G01 X386.411 Y367.133
G01 X384.352 Y369.488
G01 X382.253 Y371.808
G01 X380.114 Y374.091
G01 X378.477 Y375.784
G01 X377.966 Y375.234
G01 X375.868 Y372.910
G01 X373.765 Y370.591
G01 X371.687 Y368.281
G01 X369.585 Y365.960
G01 X367.489 Y363.632
G01 X365.406 Y361.327
G01 X363.299 Y359.010
G01 X361.196 Y356.688
G01 X359.116 Y354.378
G01 X357.011 Y352.057
G01 X354.909 Y349.733
G01 X352.828 Y347.422
G01 X350.722 Y345.102
G01 X348.626 Y342.769
G01 X346.540 Y340.462
G01 X344.436 Y338.136
G01 X342.350 Y335.828
G01 X340.245 Y333.502
G01 X338.156 Y331.194
G01 X336.047 Y328.871
G01 X333.961 Y326.558
G01 X331.853 Y324.232
G01 X329.766 Y321.918
G01 X327.679 Y319.602
G01 X325.568 Y317.275
G01 X323.474 Y314.964
G01 X321.383 Y312.647
G01 X319.289 Y310.332
G01 X317.196 Y308.015
G01 X315.100 Y305.697
G01 X313.002 Y303.380
G01 X310.908 Y301.054
G01 X308.806 Y298.734
G01 X306.723 Y296.426
G01 X304.616 Y294.103
G01 X304.433 Y293.893
G01 X306.890 Y295.304
G01 X309.587 Y296.851
G01 X312.301 Y298.413
G01 X315.015 Y299.971
G01 X317.726 Y301.529
G01 X320.432 Y303.090
G01 X323.144 Y304.642
G01 X325.847 Y306.202
G01 X328.552 Y307.757
G01 X331.278 Y309.324
G01 X333.983 Y310.875
G01 X336.687 Y312.426
G01 X339.409 Y313.993
G01 X342.113 Y315.539
G01 X344.814 Y317.090
G01 X347.530 Y318.662
G01 X350.234 Y320.206
G01 X352.951 Y321.772
G01 X355.649 Y323.323
G01 X358.366 Y324.889
G01 X361.062 Y326.440
G01 X363.784 Y327.996
G01 X366.497 Y329.565
G01 X369.195 Y331.111
G01 X371.911 Y332.674
G01 X374.633 Y334.228
G01 X377.330 Y335.773
G01 X380.044 Y337.337
G01 X382.754 Y338.907
G01 X385.456 Y340.442
G01 X388.166 Y342.012
G01 X390.879 Y343.575
G01 X393.597 Y345.132
G01 X396.287 Y346.683
G01 X399.003 Y348.242
G01 X401.523 Y349.687
G01 X401.404 Y349.869
G01 X399.653 Y352.473
G01 X397.869 Y355.032
G01 X396.041 Y357.560
G01 X394.169 Y360.055
G01 X392.244 Y362.533
G01 X390.287 Y364.963
G01 X388.289 Y367.359
G01 X386.238 Y369.733
G01 X384.159 Y372.059
G01 X382.040 Y374.348
G01 X379.869 Y376.614
G01 X378.430 Y378.073
G01 X377.707 Y377.276
G01 X375.606 Y374.957
G01 X373.531 Y372.647
G01 X371.433 Y370.324
G01 X369.332 Y368.005
G01 X367.225 Y365.690
G01 X365.126 Y363.369
G01 X363.051 Y361.058
G01 X360.952 Y358.735
G01 X358.848 Y356.417
G01 X356.749 Y354.094
G01 X354.654 Y351.766
G01 X352.571 Y349.461
G01 X350.463 Y347.145
G01 X348.369 Y344.816
G01 X346.285 Y342.510
G01 X344.185 Y340.185
G01 X342.077 Y337.868
G01 X339.997 Y335.557
G01 X337.891 Y333.237
G01 X335.792 Y330.908
G01 X333.702 Y328.605
G01 X331.599 Y326.279
G01 X329.513 Y323.971
G01 X327.411 Y321.641
G01 X325.323 Y319.333
G01 X323.219 Y317.004
G01 X321.133 Y314.691
G01 X319.021 Y312.368
G01 X316.931 Y310.056
G01 X314.844 Y307.740
G01 X312.751 Y305.427
G01 X310.643 Y303.092
G01 X308.545 Y300.782
G01 X306.451 Y298.463
G01 X304.353 Y296.145
G01 X302.258 Y293.821
G01 X300.177 Y291.515
G01 X298.072 Y289.194
G01 X296.648 Y287.616
G01 X297.522 Y288.125
G01 X300.224 Y289.668
G01 X302.938 Y291.231
G01 X305.650 Y292.791
G01 X308.361 Y294.349
G01 X311.069 Y295.908
G01 X313.780 Y297.458
G01 X316.484 Y299.017
G01 X319.187 Y300.573
G01 X321.914 Y302.137
G01 X324.617 Y303.689
G01 X327.316 Y305.244
G01 X330.041 Y306.805
G01 X332.739 Y308.360
G01 X335.460 Y309.922
G01 X338.159 Y311.473
G01 X340.880 Y313.033
G01 X343.576 Y314.585
G01 X346.294 Y316.148
G01 X348.991 Y317.696
G01 X351.710 Y319.256
G01 X354.427 Y320.817
G01 X357.123 Y322.364
G01 X359.839 Y323.927
G01 X362.552 Y325.492
G01 X365.250 Y327.034
G01 X367.966 Y328.594
G01 X370.679 Y330.158
G01 X373.397 Y331.714
G01 X376.090 Y333.262
G01 X378.800 Y334.829
G01 X381.513 Y336.391
G01 X384.231 Y337.945
G01 X386.922 Y339.494
G01 X389.638 Y341.050
G01 X392.349 Y342.614
G01 X395.062 Y344.173
G01 X397.779 Y345.727
G01 X400.469 Y347.277
G01 X403.182 Y348.836
G01 X403.727 Y349.144
G01 X402.354 Y351.241
G01 X400.611 Y353.816
G01 X398.814 Y356.376
G01 X396.973 Y358.905
G01 X395.090 Y361.403
G01 X393.164 Y363.867
G01 X391.196 Y366.299
G01 X389.198 Y368.682
G01 X387.148 Y371.045
G01 X385.059 Y373.372
G01 X382.929 Y375.664
G01 X380.761 Y377.918
G01 X378.555 Y380.135
G01 X378.359 Y380.328
G01 X376.467 Y378.227
G01 X374.373 Y375.902
G01 X372.264 Y373.594
G01 X370.175 Y371.264
G01 X368.071 Y368.950
G01 X365.974 Y366.628
G01 X363.874 Y364.309
G01 X361.798 Y362.001
G01 X359.700 Y359.680
G01 X357.597 Y357.363
G01 X355.501 Y355.040
G01 X353.399 Y352.721
G01 X351.303 Y350.397
G01 X349.219 Y348.096
G01 X347.121 Y345.773
G01 X345.018 Y343.455
G01 X342.926 Y341.125
G01 X340.838 Y338.827
G01 X338.742 Y336.500
G01 X336.639 Y334.181
G01 X334.537 Y331.859
G01 X332.453 Y329.554
G01 X330.359 Y327.224
G01 X328.256 Y324.902
G01 X326.169 Y322.599
G01 X324.068 Y320.273
G01 X321.965 Y317.949
G01 X319.882 Y315.640
G01 X317.775 Y313.317
G01 X315.693 Y311.004
G01 X313.585 Y308.681
G01 X311.499 Y306.370
G01 X309.391 Y304.045
G01 X307.305 Y301.730
G01 X305.212 Y299.421
G01 X303.106 Y297.088
G01 X301.011 Y294.777
G01 X298.919 Y292.458
G01 X296.824 Y290.141
G01 X294.729 Y287.820
G01 X292.629 Y285.500
G01 X290.527 Y283.177
G01 X288.883 Y281.354
G01 X289.433 Y281.668
G01 X292.151 Y283.231
G01 X294.865 Y284.792
G01 X297.578 Y286.350
G01 X300.269 Y287.891
G01 X302.994 Y289.465
G01 X305.703 Y291.017
G01 X308.404 Y292.575
G01 X311.108 Y294.127
G01 X313.834 Y295.688
G01 X316.535 Y297.240
G01 X319.234 Y298.793
G01 X321.955 Y300.356
G01 X324.651 Y301.910
G01 X327.372 Y303.469
G01 X330.092 Y305.030
G01 X332.788 Y306.579
G01 X335.502 Y308.146
G01 X338.197 Y309.695
G01 X340.914 Y311.256
G01 X343.632 Y312.815
G01 X346.349 Y314.373
G01 X349.039 Y315.927
G01 X351.755 Y317.485
G01 X354.470 Y319.046
G01 X357.162 Y320.594
G01 X359.880 Y322.149
G01 X362.596 Y323.706
G01 X365.308 Y325.268
G01 X368.018 Y326.835
G01 X370.710 Y328.381
G01 X373.427 Y329.935
G01 X376.139 Y331.495
G01 X378.856 Y333.049
G01 X381.567 Y334.610
G01 X384.282 Y336.167
G01 X386.970 Y337.717
G01 X389.682 Y339.277
G01 X392.397 Y340.832
G01 X395.105 Y342.396
G01 X397.816 Y343.957
G01 X400.530 Y345.513
G01 X403.246 Y347.064
G01 X405.934 Y348.614
G01 X405.924 Y348.630
G01 X404.235 Y351.251
G01 X402.492 Y353.858
G01 X400.715 Y356.420
G01 X398.895 Y358.952
G01 X397.022 Y361.467
G01 X395.117 Y363.936
G01 X393.159 Y366.386
G01 X391.172 Y368.789
G01 X389.144 Y371.157
G01 X387.065 Y373.505
G01 X384.958 Y375.804
G01 X382.813 Y378.067
G01 X380.616 Y380.306
G01 X378.396 Y382.495
G01 X378.303 Y382.584
G01 X376.282 Y380.365
G01 X374.184 Y378.046
G01 X372.097 Y375.718
G01 X369.994 Y373.404
G01 X367.900 Y371.081
G01 X365.820 Y368.779
G01 X363.720 Y366.462
G01 X361.628 Y364.137
G01 X359.522 Y361.826
G01 X357.423 Y359.508
G01 X355.331 Y357.182
G01 X353.235 Y354.860
G01 X351.135 Y352.542
G01 X349.041 Y350.218
G01 X346.960 Y347.917
G01 X344.857 Y345.601
G01 X342.758 Y343.281
G01 X340.664 Y340.956
G01 X338.564 Y338.637
G01 X336.468 Y336.314
G01 X334.365 Y333.997
G01 X332.283 Y331.694
G01 X330.184 Y329.372
G01 X328.087 Y327.049
G01 X325.990 Y324.725
G01 X323.885 Y322.408
G01 X321.804 Y320.102
G01 X319.703 Y317.780
G01 X317.607 Y315.453
G01 X315.501 Y313.135
G01 X313.421 Y310.826
G01 X311.318 Y308.503
G01 X309.215 Y306.180
G01 X307.133 Y303.870
G01 X305.030 Y301.545
G01 X302.945 Y299.235
G01 X300.840 Y296.909
G01 X298.749 Y294.603
G01 X296.643 Y292.275
G01 X294.554 Y289.962
G01 X292.466 Y287.646
G01 X290.373 Y285.332
G01 X288.260 Y282.999
G01 X286.181 Y280.699
G01 X284.083 Y278.378
G01 X281.981 Y276.053
G01 X281.099 Y275.077
G01 X282.678 Y275.985
G01 X285.373 Y277.533
G01 X288.085 Y279.092
G01 X290.795 Y280.648
G01 X293.500 Y282.206
G01 X296.226 Y283.775
G01 X298.931 Y285.326
G01 X301.633 Y286.877
G01 X304.353 Y288.444
G01 X307.053 Y289.995
G01 X309.774 Y291.556
G01 X312.471 Y293.107
G01 X315.191 Y294.667
G01 X317.887 Y296.216
G01 X320.604 Y297.777
G01 X323.321 Y299.338
G01 X326.015 Y300.886
G01 X328.727 Y302.451
G01 X331.447 Y304.005
G01 X334.157 Y305.572
G01 X336.853 Y307.116
G01 X339.570 Y308.671
G01 X342.280 Y310.236
G01 X344.996 Y311.792
G01 X347.711 Y313.350
G01 X350.403 Y314.896
G01 X353.114 Y316.458
G01 X355.829 Y318.014
G01 X358.542 Y319.573
G01 X361.251 Y321.137
G01 X363.964 Y322.695
G01 X366.651 Y324.246
G01 X369.364 Y325.804
G01 X372.079 Y327.358
G01 X374.790 Y328.918
G01 X377.503 Y330.474
G01 X380.212 Y332.037
G01 X382.923 Y333.597
G01 X385.636 Y335.152
G01 X388.352 Y336.703
G01 X391.041 Y338.250
G01 X393.753 Y339.807
G01 X396.458 Y341.375
G01 X399.174 Y342.925
G01 X401.884 Y344.486
G01 X404.595 Y346.044
G01 X407.308 Y347.599
G01 X408.113 Y348.055
G01 X406.945 Y349.914
G01 X405.245 Y352.536
G01 X403.500 Y355.130
G01 X401.713 Y357.694
G01 X399.882 Y360.227
G01 X398.009 Y362.729
G01 X396.094 Y365.200
G01 X394.139 Y367.638
G01 X392.142 Y370.043
G01 X390.105 Y372.414
G01 X388.029 Y374.750
G01 X385.914 Y377.051
G01 X383.760 Y379.317
G01 X381.569 Y381.545
G01 X379.354 Y383.724
G01 X379.341 Y383.737
G01 X378.303 Y382.584
G01 X377.264 Y381.432
G01 X375.168 Y379.112
G01 X373.069 Y376.795
G01 X370.967 Y374.480
G01 X368.875 Y372.156
G01 X366.767 Y369.846
G01 X364.669 Y367.527
G01 X362.579 Y365.201
G01 X360.491 Y362.906
G01 X358.394 Y360.586
G01 X356.304 Y358.259
G01 X354.199 Y355.946
G01 X352.101 Y353.626
G01 X349.999 Y351.310
G01 X347.903 Y348.988
G01 X345.802 Y346.670
G01 X343.724 Y344.365
G01 X341.623 Y342.047
G01 X339.526 Y339.725
G01 X337.433 Y337.399
G01 X335.333 Y335.079
G01 X333.228 Y332.765
G01 X331.133 Y330.440
G01 X329.049 Y328.139
G01 X326.948 Y325.819
G01 X324.847 Y323.498
G01 X322.752 Y321.171
G01 X320.667 Y318.869
G01 X318.563 Y316.551
G01 X316.462 Y314.228
G01 X314.363 Y311.902
G01 X312.278 Y309.598
G01 X310.175 Y307.275
G01 X308.071 Y304.952
G01 X305.988 Y302.643
G01 X303.883 Y300.319
G01 X301.795 Y298.012
G01 X299.691 Y295.684
G01 X297.605 Y293.372
G01 X295.496 Y291.045
G01 X293.404 Y288.735
G01 X291.314 Y286.419
G01 X289.222 Y284.103
G01 X287.125 Y281.788
G01 X285.028 Y279.468
G01 X282.926 Y277.148
G01 X281.076 Y275.105
G01 X280.785 Y274.869
G01 X278.342 Y272.920
G01 X275.900 Y270.970
G01 X273.456 Y269.023
G01 X271.013 Y267.073
G01 X268.571 Y265.123
G01 X266.128 Y263.174
G01 X263.686 Y261.224
G01 X261.243 Y259.275
G01 X259.992 Y258.277
G01 X260.386 Y257.777
G01 X260.755 Y257.258
G01 X260.893 Y257.050
G01 X261.225 Y256.507
G01 X261.531 Y255.948
G01 X261.809 Y255.375
G01 X262.059 Y254.789
G01 X262.259 Y254.250
G01 X262.453 Y253.643
G01 X262.617 Y253.028
G01 X262.750 Y252.405
G01 X262.853 Y251.777
G01 X262.919 Y251.205
G01 X262.951 Y250.783
G01 X265.648 Y250.913
G01 X268.770 Y251.062
G01 X271.891 Y251.212
G01 X275.013 Y251.362
G01 X278.135 Y251.510
G01 X281.256 Y251.662
G01 X284.377 Y251.810
G01 X287.499 Y251.960
G01 X290.620 Y252.110
G01 X293.742 Y252.259
G01 X296.863 Y252.407
G01 X299.985 Y252.557
G01 X303.106 Y252.706
G01 X306.228 Y252.854
G01 X309.349 Y253.006
G01 X312.471 Y253.152
G01 X315.592 Y253.303
G01 X315.892 Y253.318
G01 X315.836 Y254.273
G01 X314.032 Y253.892
G01 X310.964 Y253.247
G01 X309.849 Y253.013
G01 X311.836 Y252.804
G01 X314.928 Y252.469
G01 X317.514 Y252.196
G01 X317.495 Y252.729
G01 X317.296 Y255.850
G01 X317.267 Y256.173
G01 X314.533 Y255.597
G01 X311.476 Y254.954
G01 X308.416 Y254.308
G01 X305.354 Y253.665
G01 X302.288 Y253.021
G01 X299.887 Y252.512
G01 X300.541 Y252.443
G01 X303.634 Y252.109
G01 X306.747 Y251.777
G01 X309.858 Y251.443
G01 X312.965 Y251.109
G01 X316.070 Y250.780
G01 X319.099 Y250.450
G01 X319.098 Y250.512
G01 X319.004 Y253.640
G01 X318.769 Y256.755
G01 X318.629 Y258.053
G01 X316.860 Y257.683
G01 X313.813 Y257.042
G01 X310.739 Y256.396
G01 X307.689 Y255.754
G01 X304.637 Y255.107
G01 X301.582 Y254.468
G01 X298.525 Y253.822
G01 X295.464 Y253.179
G01 X292.399 Y252.535
G01 X289.899 Y252.009
G01 X290.478 Y251.949
G01 X293.570 Y251.613
G01 X296.682 Y251.284
G01 X299.791 Y250.952
G01 X302.896 Y250.614
G01 X305.999 Y250.286
G01 X309.125 Y249.953
G01 X312.224 Y249.615
G01 X315.321 Y249.282
G01 X318.442 Y248.953
G01 X320.663 Y248.714
G01 X320.674 Y249.598
G01 X320.623 Y252.721
G01 X320.433 Y255.839
G01 X320.177 Y258.377
G01 X319.612 Y258.260
G01 X318.629 Y258.053
G01 X316.565 Y257.622
G01 X313.493 Y256.975
G01 X310.444 Y256.334
G01 X307.368 Y255.693
G01 X304.316 Y255.050
G01 X301.261 Y254.409
G01 X298.203 Y253.768
G01 X295.142 Y253.129
G01 X292.077 Y252.486
G01 X289.898 Y252.029
G01 X289.000 Y251.983
G01 X285.878 Y251.828
G01 X282.757 Y251.676
G01 X279.636 Y251.522
G01 X276.515 Y251.367
G01 X273.394 Y251.213
G01 X270.272 Y251.059
G01 X267.176 Y250.906
G01 X264.055 Y250.751
G01 X262.956 Y250.697
G01 X262.975 Y250.060
G01 X262.962 Y249.423
G01 X262.918 Y248.788
G01 X262.905 Y248.654
G01 X262.823 Y248.023
G01 X262.711 Y247.396
G01 X262.568 Y246.775
G01 X262.395 Y246.163
G01 X262.212 Y245.617
G01 X261.982 Y245.023
G01 X261.724 Y244.441
G01 X261.437 Y243.872
G01 X261.122 Y243.319
G01 X260.867 Y242.911
G01 X260.951 Y242.857
G01 X263.568 Y241.149
G01 X266.186 Y239.442
G01 X268.803 Y237.735
G01 X271.421 Y236.027
G01 X274.038 Y234.320
G01 X276.655 Y232.613
G01 X279.273 Y230.905
G01 X281.890 Y229.198
G01 X284.508 Y227.491
G01 X287.125 Y225.783
G01 X289.742 Y224.076
G01 X292.360 Y222.369
G01 X294.977 Y220.661
G01 X297.594 Y218.954
G01 X300.212 Y217.247
G01 X302.829 Y215.539
G01 X305.447 Y213.832
G01 X308.064 Y212.125
G01 X310.681 Y210.417
G01 X313.299 Y208.710
G01 X315.916 Y207.003
G01 X318.533 Y205.295
G01 X321.151 Y203.588
G01 X323.768 Y201.881
G01 X326.386 Y200.174
G01 X329.003 Y198.466
G01 X329.233 Y198.316
G01 X330.476 Y200.272
G01 X329.973 Y200.506
G01 X327.137 Y201.768
G01 X324.280 Y203.047
G01 X321.423 Y204.332
G01 X318.559 Y205.610
G01 X316.921 Y206.347
G01 X317.894 Y205.460
G01 X320.222 Y203.359
G01 X322.547 Y201.259
G01 X324.851 Y199.176
G01 X327.173 Y197.079
G01 X329.100 Y195.338
G01 X329.400 Y195.774
G01 X331.120 Y198.382
G01 X332.720 Y200.988
G01 X332.651 Y201.018
G01 X329.803 Y202.295
G01 X326.953 Y203.569
G01 X324.100 Y204.844
G01 X321.248 Y206.122
G01 X318.392 Y207.398
G01 X315.534 Y208.676
G01 X312.698 Y209.946
G01 X309.839 Y211.231
G01 X308.566 Y211.797
G01 X309.841 Y210.640
G01 X312.146 Y208.552
G01 X314.474 Y206.457
G01 X316.793 Y204.354
G01 X319.114 Y202.259
G01 X321.432 Y200.161
G01 X323.751 Y198.070
G01 X326.065 Y195.972
G01 X328.380 Y193.879
G01 X329.372 Y192.989
G01 X330.407 Y194.459
G01 X332.143 Y197.060
G01 X333.790 Y199.706
G01 X334.953 Y201.698
G01 X334.198 Y202.038
G01 X331.329 Y203.316
G01 X328.486 Y204.592
G01 X325.640 Y205.865
G01 X322.792 Y207.135
G01 X319.925 Y208.427
G01 X317.076 Y209.702
G01 X314.224 Y210.977
G01 X311.372 Y212.255
G01 X308.517 Y213.533
G01 X305.680 Y214.797
G01 X302.823 Y216.083
G01 X300.191 Y217.260
G01 X300.377 Y217.089
G01 X302.704 Y214.986
G01 X305.011 Y212.904
G01 X307.332 Y210.803
G01 X309.652 Y208.707
G01 X311.972 Y206.613
G01 X314.285 Y204.514
G01 X316.602 Y202.423
G01 X318.917 Y200.331
G01 X321.250 Y198.226
G01 X323.559 Y196.131
G01 X325.871 Y194.041
G01 X328.200 Y191.935
G01 X329.599 Y190.674
G01 X330.328 Y191.666
G01 X332.120 Y194.216
G01 X333.836 Y196.831
G01 X335.469 Y199.497
G01 X337.017 Y202.214
G01 X337.137 Y202.432
G01 X334.524 Y203.594
G01 X331.663 Y204.878
G01 X328.801 Y206.160
G01 X325.961 Y207.432
G01 X323.099 Y208.718
G01 X320.256 Y209.989
G01 X317.411 Y211.260
G01 X314.545 Y212.546
G01 X311.698 Y213.818
G01 X308.850 Y215.091
G01 X306.003 Y216.370
G01 X303.152 Y217.646
G01 X300.297 Y218.920
G01 X297.444 Y220.203
G01 X294.584 Y221.480
G01 X291.836 Y222.710
G01 X291.912 Y222.643
G01 X294.218 Y220.554
G01 X296.541 Y218.453
G01 X298.863 Y216.356
G01 X301.181 Y214.260
G01 X303.497 Y212.163
G01 X305.813 Y210.071
G01 X308.125 Y207.976
G01 X310.439 Y205.888
G01 X312.770 Y203.781
G01 X315.078 Y201.689
G01 X317.411 Y199.590
G01 X319.716 Y197.496
G01 X322.043 Y195.393
G01 X324.355 Y193.312
G01 X326.682 Y191.210
G01 X328.984 Y189.118
G01 X329.826 Y188.367
G01 X331.036 Y189.968
G01 X332.858 Y192.508
G01 X334.600 Y195.104
G01 X336.261 Y197.753
G01 X337.839 Y200.452
G01 X339.318 Y203.171
G01 X339.269 Y203.185
G01 X336.433 Y204.452
G01 X333.576 Y205.733
G01 X330.720 Y207.018
G01 X327.884 Y208.288
G01 X325.024 Y209.569
G01 X322.164 Y210.849
G01 X319.326 Y212.119
G01 X316.463 Y213.398
G01 X313.602 Y214.683
G01 X310.760 Y215.950
G01 X307.896 Y217.235
G01 X305.054 Y218.508
G01 X302.210 Y219.780
G01 X299.341 Y221.064
G01 X296.494 Y222.339
G01 X293.643 Y223.613
G01 X290.791 Y224.890
G01 X287.936 Y226.169
G01 X285.099 Y227.438
G01 X283.461 Y228.174
G01 X284.455 Y227.274
G01 X286.779 Y225.172
G01 X289.102 Y223.076
G01 X291.419 Y220.978
G01 X293.735 Y218.883
G01 X296.049 Y216.791
G01 X298.363 Y214.701
G01 X300.694 Y212.595
G01 X303.003 Y210.505
G01 X305.311 Y208.414
G01 X307.638 Y206.311
G01 X309.949 Y204.228
G01 X312.275 Y202.126
G01 X314.598 Y200.021
G01 X316.904 Y197.937
G01 X319.230 Y195.837
G01 X321.551 Y193.733
G01 X323.859 Y191.654
G01 X326.179 Y189.549
G01 X328.502 Y187.449
G01 X330.009 Y186.091
G01 X330.682 Y186.943
G01 X332.567 Y189.433
G01 X334.376 Y191.979
G01 X336.112 Y194.587
G01 X337.761 Y197.239
G01 X339.329 Y199.940
G01 X340.814 Y202.687
G01 X341.399 Y203.826
G01 X342.215 Y205.479
G01 X343.530 Y208.312
G01 X344.758 Y211.183
G01 X345.901 Y214.100
G01 X346.951 Y217.042
G01 X347.911 Y220.014
G01 X348.780 Y223.013
G01 X349.557 Y226.038
G01 X350.241 Y229.085
G01 X350.834 Y232.162
G01 X351.331 Y235.245
G01 X351.734 Y238.342
G01 X352.042 Y241.450
G01 X352.256 Y244.566
G01 X352.374 Y247.687
G01 X352.397 Y250.810
G01 X352.324 Y253.942
G01 X352.156 Y257.061
G01 X351.893 Y260.173
G01 X351.536 Y263.275
G01 X351.306 Y264.929
G01 X352.727 Y265.232
G01 X355.791 Y265.871
G01 X358.854 Y266.519
G01 X361.916 Y267.167
G01 X364.955 Y267.798
G01 X368.018 Y268.442
G01 X371.079 Y269.094
G01 X374.142 Y269.729
G01 X377.202 Y270.385
G01 X380.264 Y271.023
G01 X383.301 Y271.664
G01 X386.363 Y272.301
G01 X389.425 Y272.945
G01 X392.485 Y273.595
G01 X395.546 Y274.237
G01 X398.606 Y274.884
G01 X401.668 Y275.521
G01 X404.729 Y276.163
G01 X407.788 Y276.811
G01 X410.823 Y277.459
G01 X413.884 Y278.099
G01 X416.943 Y278.744
G01 X420.003 Y279.394
G01 X423.064 Y280.030
G01 X426.125 Y280.670
G01 X429.184 Y281.313
G01 X432.244 Y281.961
G01 X435.302 Y282.612
G01 X438.363 Y283.248
G01 X441.424 Y283.886
G01 X444.484 Y284.528
G01 X447.518 Y285.169
G01 X450.577 Y285.817
G01 X453.635 Y286.468
G01 X456.697 Y287.102
G01 X459.753 Y287.759
G01 X462.814 Y288.398
G01 X464.331 Y288.716
G01 X464.043 Y290.279
G01 X463.445 Y293.336
G01 X462.799 Y296.405
G01 X462.114 Y299.443
G01 X461.380 Y302.492
G01 X460.608 Y305.510
G01 X459.786 Y308.537
G01 X458.928 Y311.530
G01 X458.020 Y314.532
G01 X457.076 Y317.500
G01 X456.083 Y320.475
G01 X455.054 Y323.415
G01 X453.975 Y326.360
G01 X452.863 Y329.269
G01 X451.700 Y332.182
G01 X450.504 Y335.058
G01 X449.259 Y337.936
G01 X447.981 Y340.776
G01 X446.653 Y343.618
G01 X445.295 Y346.420
G01 X443.896 Y349.203
G01 X442.447 Y351.985
G01 X440.969 Y354.726
G01 X439.442 Y357.465
G01 X437.885 Y360.163
G01 X436.280 Y362.857
G01 X434.647 Y365.509
G01 X432.964 Y368.156
G01 X431.256 Y370.760
G01 X429.498 Y373.358
G01 X427.716 Y375.912
G01 X425.885 Y378.458
G01 X424.030 Y380.960
G01 X422.126 Y383.452
G01 X420.200 Y385.900
G01 X418.226 Y388.337
G01 X416.230 Y390.728
G01 X414.187 Y393.107
G01 X412.123 Y395.440
G01 X410.012 Y397.760
G01 X407.883 Y400.033
G01 X405.706 Y402.290
G01 X403.513 Y404.501
G01 X401.272 Y406.696
G01 X399.016 Y408.843
G01 X396.713 Y410.972
G01 X394.396 Y413.054
G01 X392.033 Y415.116
G01 X389.658 Y417.130
G01 X387.254 Y419.110
G01 X384.804 Y421.069
G01 X382.344 Y422.979
G01 X379.840 Y424.867
G01 X377.326 Y426.706
G01 X374.768 Y428.521
G01 X372.203 Y430.287
G01 X369.594 Y432.028
G01 X366.979 Y433.719
G01 X364.321 Y435.385
G01 X361.659 Y437.000
G01 X358.955 Y438.589
G01 X356.247 Y440.128
G01 X353.498 Y441.638
G01 X350.747 Y443.098
G01 X347.956 Y444.529
G01 X345.164 Y445.910
G01 X342.334 Y447.260
G01 X339.503 Y448.560
G01 X336.635 Y449.828
G01 X333.769 Y451.046
G01 X330.865 Y452.232
G01 X327.965 Y453.367
G01 X325.028 Y454.469
G01 X322.097 Y455.521
G01 X319.130 Y456.538
G01 X316.170 Y457.505
G01 X313.175 Y458.437
G01 X310.188 Y459.319
G01 X307.188 Y460.158
G01 X304.156 Y460.960
G01 X301.134 Y461.712
G01 X298.080 Y462.427
G01 X295.038 Y463.093
G01 X291.965 Y463.719
G01 X288.904 Y464.297
G01 X285.815 Y464.835
G01 X282.739 Y465.325
G01 X279.635 Y465.774
G01 X276.546 Y466.176
G01 X273.431 Y466.536
G01 X270.332 Y466.849
G01 X267.207 Y467.119
G01 X264.101 Y467.343
G01 X260.970 Y467.524
G01 X257.858 Y467.658
G01 X254.723 Y467.749
G01 X251.609 Y467.794
G01 X248.473 Y467.795
G01 X245.359 Y467.751
G01 X242.224 Y467.661
G01 X239.112 Y467.528
G01 X235.981 Y467.348
G01 X232.874 Y467.126
G01 X229.750 Y466.857
G01 X226.651 Y466.545
G01 X223.535 Y466.186
G01 X220.446 Y465.786
G01 X217.364 Y465.341
G01 X214.266 Y464.849
G01 X211.198 Y464.316
G01 X208.116 Y463.735
G01 X205.064 Y463.114
G01 X202.000 Y462.445
G01 X199.051 Y461.757
G01 X199.075 Y461.660
G01 X199.722 Y458.601
G01 X200.372 Y455.544
G01 X201.004 Y452.481
G01 X201.660 Y449.425
G01 X202.298 Y446.364
G01 X202.939 Y443.304
G01 X203.583 Y440.244
G01 X204.230 Y437.185
G01 X204.862 Y434.123
G01 X205.515 Y431.065
G01 X206.154 Y428.004
G01 X206.796 Y424.944
G01 X207.443 Y421.885
G01 X208.086 Y418.851
G01 X208.723 Y415.789
G01 X209.364 Y412.728
G01 X210.009 Y409.668
G01 X210.659 Y406.609
G01 X211.298 Y403.548
G01 X211.941 Y400.487
G01 X212.589 Y397.427
G01 X213.242 Y394.369
G01 X213.886 Y391.308
G01 X214.515 Y388.269
G01 X215.157 Y385.208
G01 X215.805 Y382.147
G01 X216.446 Y379.085
G01 X217.093 Y376.025
G01 X217.735 Y372.962
G01 X218.384 Y369.902
G01 X219.023 Y366.864
G01 X219.664 Y363.801
G01 X220.314 Y360.740
G01 X220.951 Y357.675
G01 X221.597 Y354.613
G01 X222.237 Y351.574
G01 X222.883 Y348.511
G01 X223.531 Y345.448
G01 X224.172 Y342.383
G01 X224.810 Y339.342
G01 X225.460 Y336.278
G01 X226.107 Y333.213
G01 X226.746 Y330.171
G01 X227.393 Y327.104
G01 X228.035 Y324.035
G01 X228.675 Y320.991
G01 X229.323 Y317.922
G01 X229.959 Y314.875
G01 X230.610 Y311.805
G01 X230.777 Y310.993
G01 X228.619 Y310.270
G01 X225.698 Y309.153
G01 X222.836 Y307.894
G01 X220.038 Y306.497
G01 X217.318 Y304.968
G01 X214.670 Y303.305
G01 X212.107 Y301.514
G01 X209.639 Y299.604
G01 X207.263 Y297.572
G01 X204.988 Y295.426
G01 X202.822 Y293.172
G01 X200.772 Y290.819
G01 X198.836 Y288.364
G01 X197.021 Y285.817
G01 X195.337 Y283.190
G01 X194.464 Y281.708
G01 X193.181 Y282.283
G01 X190.340 Y283.558
G01 X187.477 Y284.840
G01 X184.635 Y286.108
G01 X181.776 Y287.394
G01 X178.937 Y288.664
G01 X176.076 Y289.943
G01 X173.215 Y291.221
G01 X170.377 Y292.489
G01 X167.519 Y293.770
G01 X164.664 Y295.056
G01 X161.803 Y296.330
G01 X158.968 Y297.599
G01 X156.111 Y298.878
G01 X153.254 Y300.156
G01 X150.397 Y301.435
