;  Created by Sandify
;  https://sandify.org
;  Version: 0.2.6
;
;  Machine type: Rectangular
;    Min X (mm): 0
;    Max X (mm): 500
;    Min Y (mm): 0
;    Max Y (mm): 500
;  Content type: shape
;  Layer:
;    Shape: FileImport
;    Name: twoface.thr
;    From file:: twoface.thr
;    Aspect Ratio: true
;    Comments: 
;    Visible: true
;    Initial width: 10
;    Initial height: 10
;    X offset: 0
;    Y offset: 30
;    Rotate (degrees): 180
;    Reverse path: false
;    Fine tuning:
;      Connect to next layer: line
;      Draw portion of path (%): 100
;      Backtrack at end (%): 0
;      Rotate starting point (%): 0
;  Reverse export path: false
;
; File name: 'twofaces (SW SW) (BJ)'
; File type: gcode
;

G01 X115.883 Y69.020
G01 X116.667 Y69.020
G01 X117.451 Y69.804
G01 X118.236 Y70.589
G01 X119.020 Y71.373
G01 X119.804 Y72.157
G01 X120.589 Y72.942
G01 X120.589 Y73.726
G01 X121.373 Y74.510
G01 X122.157 Y75.295
G01 X122.941 Y76.079
G01 X123.726 Y76.863
G01 X124.510 Y77.647
G01 X125.294 Y78.432
G01 X126.079 Y79.216
G01 X126.863 Y80.000
G01 X127.647 Y80.785
G01 X128.432 Y81.569
G01 X129.216 Y82.353
G01 X130.000 Y83.138
G01 X130.785 Y83.138
G01 X131.569 Y83.138
G01 X131.569 Y83.922
G01 X131.569 Y84.706
G01 X131.569 Y85.491
G01 X131.569 Y86.275
G01 X130.785 Y86.275
G01 X130.000 Y87.059
G01 X130.000 Y87.844
G01 X129.216 Y88.628
G01 X129.216 Y89.412
G01 X129.216 Y90.196
G01 X128.432 Y90.981
G01 X128.432 Y91.765
G01 X127.647 Y92.549
G01 X127.647 Y93.334
G01 X127.647 Y94.118
G01 X126.863 Y94.902
G01 X126.863 Y95.687
G01 X126.863 Y96.471
G01 X126.079 Y97.255
G01 X126.079 Y98.040
G01 X125.294 Y98.824
G01 X125.294 Y99.608
G01 X125.294 Y100.393
G01 X124.510 Y101.177
G01 X124.510 Y101.961
G01 X123.726 Y102.745
G01 X123.726 Y103.530
G01 X123.726 Y104.314
G01 X122.941 Y105.098
G01 X122.941 Y105.883
G01 X122.941 Y106.667
G01 X122.157 Y107.451
G01 X122.157 Y108.236
G01 X121.373 Y109.020
G01 X121.373 Y109.804
G01 X121.373 Y110.589
G01 X120.589 Y111.373
G01 X120.589 Y112.157
G01 X120.589 Y112.942
G01 X119.804 Y113.726
G01 X119.804 Y114.510
G01 X119.020 Y115.294
G01 X119.020 Y116.079
G01 X119.020 Y116.863
G01 X119.020 Y117.647
G01 X118.236 Y118.432
G01 X118.236 Y119.216
G01 X118.236 Y120.000
G01 X117.451 Y120.785
G01 X117.451 Y121.569
G01 X117.451 Y122.353
G01 X117.451 Y123.138
G01 X116.667 Y123.922
G01 X116.667 Y124.706
G01 X116.667 Y125.491
G01 X116.667 Y126.275
G01 X116.667 Y127.059
G01 X115.883 Y127.843
G01 X115.883 Y128.628
G01 X115.883 Y129.412
G01 X115.883 Y130.196
G01 X115.883 Y130.981
G01 X115.883 Y131.765
G01 X115.883 Y132.549
G01 X115.098 Y133.334
G01 X115.098 Y134.118
G01 X115.098 Y134.902
G01 X115.098 Y135.687
G01 X115.098 Y136.471
G01 X114.314 Y137.255
G01 X114.314 Y138.040
G01 X113.530 Y138.824
G01 X113.530 Y139.608
G01 X112.745 Y140.392
G01 X112.745 Y141.177
G01 X111.961 Y141.961
G01 X111.961 Y142.745
G01 X111.177 Y143.530
G01 X111.177 Y144.314
G01 X110.392 Y145.098
G01 X110.392 Y145.883
G01 X109.608 Y146.667
G01 X108.824 Y147.451
G01 X108.824 Y148.236
G01 X108.040 Y149.020
G01 X108.040 Y149.804
G01 X107.255 Y150.589
G01 X106.471 Y151.373
G01 X106.471 Y152.157
G01 X105.687 Y152.941
G01 X104.902 Y153.726
G01 X104.902 Y154.510
G01 X104.118 Y155.294
G01 X104.118 Y156.079
G01 X103.334 Y156.863
G01 X102.549 Y157.647
G01 X102.549 Y158.432
G01 X101.765 Y159.216
G01 X100.981 Y160.000
G01 X100.981 Y160.785
G01 X100.196 Y161.569
G01 X99.412 Y162.353
G01 X98.628 Y163.138
G01 X98.628 Y163.922
G01 X97.843 Y164.706
G01 X97.059 Y165.490
G01 X96.275 Y166.275
G01 X95.491 Y167.059
G01 X94.706 Y167.843
G01 X94.706 Y168.628
G01 X93.922 Y169.412
G01 X93.922 Y170.196
G01 X93.138 Y170.981
G01 X93.138 Y171.765
G01 X93.922 Y171.765
G01 X94.706 Y171.765
G01 X95.491 Y171.765
G01 X96.275 Y171.765
G01 X97.059 Y171.765
G01 X97.843 Y171.765
G01 X98.628 Y171.765
G01 X99.412 Y171.765
G01 X100.196 Y171.765
G01 X100.981 Y171.765
G01 X101.765 Y171.765
G01 X102.549 Y172.549
G01 X103.334 Y172.549
G01 X104.118 Y172.549
G01 X104.902 Y172.549
G01 X105.687 Y173.334
G01 X106.471 Y173.334
G01 X107.255 Y173.334
G01 X108.040 Y174.118
G01 X108.824 Y174.902
G01 X109.608 Y174.902
G01 X110.392 Y175.686
G01 X111.177 Y175.686
G01 X111.961 Y176.471
G01 X112.745 Y176.471
G01 X113.530 Y177.255
G01 X114.314 Y177.255
G01 X115.098 Y177.255
G01 X115.883 Y178.039
G01 X116.667 Y178.039
G01 X117.451 Y178.039
G01 X118.236 Y178.039
G01 X119.020 Y178.039
G01 X119.804 Y178.039
G01 X120.589 Y178.039
G01 X121.373 Y178.039
G01 X122.157 Y178.039
G01 X122.941 Y178.039
G01 X123.726 Y177.255
G01 X124.510 Y176.471
G01 X125.294 Y176.471
G01 X126.079 Y176.471
G01 X126.863 Y177.255
G01 X127.647 Y178.039
G01 X128.432 Y178.824
G01 X128.432 Y179.608
G01 X129.216 Y180.392
G01 X129.216 Y181.177
G01 X130.000 Y181.961
G01 X130.000 Y182.745
G01 X130.785 Y183.530
G01 X130.785 Y184.314
G01 X130.785 Y185.098
G01 X131.569 Y185.883
G01 X131.569 Y186.667
G01 X131.569 Y187.451
G01 X131.569 Y188.235
G01 X131.569 Y189.020
G01 X131.569 Y189.804
G01 X130.785 Y190.588
G01 X130.000 Y191.373
G01 X129.216 Y192.157
G01 X128.432 Y192.941
G01 X127.647 Y193.726
G01 X126.863 Y193.726
G01 X126.079 Y194.510
G01 X125.294 Y194.510
G01 X124.510 Y195.294
G01 X123.726 Y195.294
G01 X122.941 Y195.294
G01 X122.157 Y195.294
G01 X121.373 Y195.294
G01 X121.373 Y196.079
G01 X121.373 Y195.294
G01 X122.157 Y195.294
G01 X122.941 Y195.294
G01 X123.726 Y195.294
G01 X124.510 Y195.294
G01 X125.294 Y194.510
G01 X126.079 Y194.510
G01 X126.863 Y193.726
G01 X127.647 Y193.726
G01 X128.432 Y192.941
G01 X129.216 Y192.157
G01 X130.000 Y191.373
G01 X130.785 Y190.588
G01 X131.569 Y189.804
G01 X131.569 Y189.020
G01 X131.569 Y188.235
G01 X131.569 Y187.451
G01 X131.569 Y186.667
G01 X131.569 Y185.883
G01 X130.785 Y185.098
G01 X130.785 Y184.314
G01 X130.785 Y183.530
G01 X130.000 Y182.745
G01 X130.000 Y181.961
G01 X129.216 Y181.177
G01 X129.216 Y180.392
G01 X128.432 Y179.608
G01 X128.432 Y178.824
G01 X127.647 Y178.039
G01 X126.863 Y177.255
G01 X126.079 Y176.471
G01 X125.294 Y176.471
G01 X124.510 Y176.471
G01 X124.510 Y175.687
G01 X124.510 Y174.902
G01 X123.726 Y174.118
G01 X123.726 Y173.334
G01 X122.941 Y172.549
G01 X122.941 Y171.765
G01 X122.941 Y172.549
G01 X123.726 Y173.334
G01 X123.726 Y174.118
G01 X124.510 Y174.902
G01 X124.510 Y175.687
G01 X124.510 Y176.471
G01 X123.726 Y177.255
G01 X122.941 Y178.039
G01 X122.157 Y178.039
G01 X121.373 Y178.039
G01 X120.589 Y178.039
G01 X119.804 Y178.039
G01 X119.020 Y178.039
G01 X118.236 Y178.039
G01 X117.451 Y178.039
G01 X116.667 Y178.039
G01 X115.883 Y178.039
G01 X115.098 Y177.255
G01 X114.314 Y177.255
G01 X113.530 Y177.255
G01 X112.745 Y176.471
G01 X111.961 Y176.471
G01 X111.177 Y175.686
G01 X110.392 Y175.686
G01 X109.608 Y174.902
G01 X108.824 Y174.902
G01 X108.040 Y174.118
G01 X107.255 Y173.334
G01 X106.471 Y173.334
G01 X105.687 Y173.334
G01 X104.902 Y172.549
G01 X104.118 Y172.549
G01 X103.334 Y172.549
G01 X102.549 Y172.549
G01 X101.765 Y171.765
G01 X100.981 Y171.765
G01 X100.196 Y171.765
G01 X99.412 Y171.765
G01 X98.628 Y171.765
G01 X97.843 Y171.765
G01 X97.059 Y171.765
G01 X96.275 Y171.765
G01 X95.491 Y171.765
G01 X94.706 Y171.765
G01 X93.922 Y171.765
G01 X93.138 Y171.765
G01 X92.353 Y171.765
G01 X91.569 Y172.549
G01 X90.785 Y173.334
G01 X90.785 Y174.118
G01 X90.785 Y174.902
G01 X90.785 Y175.686
G01 X90.000 Y176.471
G01 X90.000 Y177.255
G01 X90.000 Y178.039
G01 X90.000 Y178.824
G01 X90.000 Y179.608
G01 X90.000 Y180.392
G01 X89.216 Y181.177
G01 X89.216 Y181.961
G01 X90.000 Y182.745
G01 X90.000 Y183.530
G01 X90.000 Y184.314
G01 X90.000 Y185.098
G01 X90.000 Y185.883
G01 X90.000 Y186.667
G01 X90.785 Y187.451
G01 X90.785 Y188.235
G01 X90.785 Y189.020
G01 X91.569 Y189.804
G01 X91.569 Y190.588
G01 X92.353 Y191.373
G01 X92.353 Y192.157
G01 X93.138 Y192.941
G01 X93.922 Y192.157
G01 X94.706 Y191.373
G01 X95.491 Y191.373
G01 X96.275 Y191.373
G01 X97.059 Y191.373
G01 X97.843 Y192.157
G01 X98.628 Y192.941
G01 X99.412 Y193.726
G01 X100.196 Y194.510
G01 X100.981 Y195.294
G01 X101.765 Y196.079
G01 X102.549 Y196.863
G01 X103.334 Y197.647
G01 X103.334 Y198.432
G01 X103.334 Y199.216
G01 X104.118 Y200.000
G01 X104.902 Y200.784
G01 X105.687 Y201.569
G01 X105.687 Y202.353
G01 X106.471 Y203.137
G01 X106.471 Y203.922
G01 X106.471 Y204.706
G01 X106.471 Y205.490
G01 X106.471 Y206.275
G01 X106.471 Y207.059
G01 X106.471 Y207.843
G01 X106.471 Y208.628
G01 X106.471 Y209.412
G01 X106.471 Y210.196
G01 X105.687 Y210.981
G01 X105.687 Y211.765
G01 X105.687 Y212.549
G01 X105.687 Y213.333
G01 X104.902 Y214.118
G01 X104.902 Y214.902
G01 X104.902 Y215.686
G01 X104.902 Y216.471
G01 X104.902 Y217.255
G01 X104.902 Y218.039
G01 X104.118 Y218.824
G01 X104.118 Y219.608
G01 X104.118 Y220.392
G01 X104.118 Y221.177
G01 X103.334 Y221.177
G01 X102.549 Y221.961
G01 X102.549 Y222.745
G01 X101.765 Y223.530
G01 X101.765 Y224.314
G01 X101.765 Y225.098
G01 X100.981 Y225.882
G01 X100.981 Y226.667
G01 X101.765 Y227.451
G01 X101.765 Y228.235
G01 X101.765 Y229.020
G01 X101.765 Y229.804
G01 X102.549 Y230.588
G01 X102.549 Y231.373
G01 X102.549 Y232.157
G01 X103.334 Y232.941
G01 X103.334 Y233.726
G01 X104.118 Y234.510
G01 X104.118 Y235.294
G01 X104.902 Y236.079
G01 X104.902 Y236.863
G01 X105.687 Y237.647
G01 X105.687 Y238.431
G01 X106.471 Y239.216
G01 X106.471 Y240.000
G01 X107.255 Y240.784
G01 X108.040 Y241.569
G01 X108.824 Y242.353
G01 X108.824 Y243.137
G01 X109.608 Y243.922
G01 X110.392 Y244.706
G01 X110.392 Y245.490
G01 X110.392 Y246.275
G01 X110.392 Y247.059
G01 X109.608 Y247.843
G01 X109.608 Y248.628
G01 X108.824 Y249.412
G01 X108.824 Y250.196
G01 X108.040 Y250.980
G01 X108.040 Y251.765
G01 X108.040 Y252.549
G01 X108.040 Y253.333
G01 X108.040 Y254.118
G01 X108.040 Y254.902
G01 X108.040 Y255.686
G01 X108.040 Y256.471
G01 X108.824 Y257.255
G01 X109.608 Y258.039
G01 X110.392 Y258.039
G01 X111.177 Y257.255
G01 X111.961 Y256.471
G01 X111.961 Y255.686
G01 X111.961 Y254.902
G01 X112.745 Y254.118
G01 X112.745 Y253.333
G01 X113.530 Y252.549
G01 X113.530 Y251.765
G01 X114.314 Y250.980
G01 X114.314 Y250.196
G01 X114.314 Y249.412
G01 X114.314 Y248.628
G01 X113.530 Y247.843
G01 X112.745 Y247.059
G01 X111.961 Y246.275
G01 X111.961 Y245.490
G01 X112.745 Y244.706
G01 X113.530 Y243.922
G01 X114.314 Y243.922
G01 X115.098 Y243.137
G01 X115.883 Y242.353
G01 X116.667 Y241.569
G01 X117.451 Y241.569
G01 X118.236 Y240.784
G01 X119.020 Y240.784
G01 X119.804 Y240.000
G01 X120.589 Y240.000
G01 X121.373 Y239.216
G01 X122.157 Y239.216
G01 X122.941 Y239.216
G01 X123.726 Y239.216
G01 X124.510 Y239.216
G01 X125.294 Y239.216
G01 X126.079 Y239.216
G01 X126.863 Y238.431
G01 X127.647 Y238.431
G01 X128.432 Y238.431
G01 X129.216 Y238.431
G01 X130.000 Y238.431
G01 X130.785 Y238.431
G01 X131.569 Y238.431
G01 X132.353 Y237.647
G01 X133.138 Y237.647
G01 X133.922 Y237.647
G01 X134.706 Y237.647
G01 X135.490 Y237.647
G01 X136.275 Y237.647
G01 X137.059 Y237.647
G01 X137.843 Y236.863
G01 X138.628 Y236.863
G01 X139.412 Y236.863
G01 X140.196 Y236.863
G01 X140.196 Y237.647
G01 X140.196 Y238.431
G01 X140.196 Y239.216
G01 X139.412 Y240.000
G01 X138.628 Y240.000
G01 X137.843 Y240.784
G01 X137.059 Y240.784
G01 X136.275 Y241.569
G01 X135.490 Y242.353
G01 X134.706 Y242.353
G01 X133.922 Y243.137
G01 X133.138 Y243.137
G01 X132.353 Y243.137
G01 X131.569 Y243.922
G01 X130.785 Y243.922
G01 X130.000 Y243.922
G01 X129.216 Y244.706
G01 X128.432 Y244.706
G01 X127.647 Y244.706
G01 X126.863 Y244.706
G01 X126.079 Y245.490
G01 X125.294 Y245.490
G01 X124.510 Y245.490
G01 X123.726 Y246.275
G01 X122.941 Y246.275
G01 X122.157 Y247.059
G01 X121.373 Y247.843
G01 X120.589 Y248.628
G01 X119.804 Y249.412
G01 X119.020 Y250.196
G01 X119.020 Y250.980
G01 X118.236 Y251.765
G01 X117.451 Y252.549
G01 X116.667 Y253.333
G01 X116.667 Y254.118
G01 X115.883 Y254.902
G01 X115.883 Y255.686
G01 X115.098 Y256.471
G01 X115.098 Y257.255
G01 X115.098 Y258.039
G01 X114.314 Y258.824
G01 X114.314 Y259.608
G01 X114.314 Y260.392
G01 X114.314 Y261.177
G01 X114.314 Y261.961
G01 X115.098 Y262.745
G01 X115.098 Y263.529
G01 X115.098 Y264.314
G01 X115.883 Y265.098
G01 X115.883 Y265.882
G01 X116.667 Y266.667
G01 X117.451 Y267.451
G01 X117.451 Y268.235
G01 X118.236 Y269.020
G01 X119.020 Y269.804
G01 X119.020 Y270.588
G01 X119.804 Y271.373
G01 X120.589 Y272.157
G01 X121.373 Y272.157
G01 X121.373 Y272.941
G01 X121.373 Y273.726
G01 X121.373 Y274.510
G01 X121.373 Y275.294
G01 X121.373 Y276.078
G01 X120.589 Y276.863
G01 X120.589 Y277.647
G01 X119.804 Y278.431
G01 X119.804 Y279.216
G01 X119.804 Y280.000
G01 X119.804 Y280.784
G01 X119.804 Y281.569
G01 X119.804 Y282.353
G01 X119.804 Y283.137
G01 X119.804 Y283.922
G01 X119.804 Y284.706
G01 X119.804 Y285.490
G01 X119.804 Y286.274
G01 X119.804 Y287.059
G01 X119.804 Y287.843
G01 X119.804 Y288.627
G01 X120.589 Y289.412
G01 X120.589 Y290.196
G01 X120.589 Y290.980
G01 X120.589 Y291.765
G01 X120.589 Y292.549
G01 X120.589 Y293.333
G01 X121.373 Y294.118
G01 X121.373 Y294.902
G01 X121.373 Y295.686
G01 X122.157 Y296.471
G01 X122.157 Y297.255
G01 X122.157 Y298.039
G01 X122.157 Y298.823
G01 X122.941 Y299.608
G01 X122.941 Y300.392
G01 X122.941 Y301.176
G01 X123.726 Y301.961
G01 X123.726 Y302.745
G01 X123.726 Y303.529
G01 X124.510 Y304.314
G01 X124.510 Y305.098
G01 X125.294 Y305.882
G01 X126.079 Y306.667
G01 X126.863 Y307.451
G01 X127.647 Y308.235
G01 X128.432 Y309.020
G01 X129.216 Y309.020
G01 X130.000 Y309.804
G01 X130.785 Y309.020
G01 X131.569 Y309.020
G01 X132.353 Y309.020
G01 X133.138 Y309.020
G01 X133.922 Y309.020
G01 X134.706 Y309.020
G01 X135.490 Y308.235
G01 X136.275 Y308.235
G01 X137.059 Y308.235
G01 X137.843 Y307.451
G01 X138.628 Y307.451
G01 X139.412 Y307.451
G01 X140.196 Y306.667
G01 X140.981 Y306.667
G01 X141.765 Y306.667
G01 X142.549 Y305.882
G01 X143.334 Y305.882
G01 X144.118 Y305.098
G01 X144.902 Y305.098
G01 X145.686 Y305.098
G01 X146.471 Y304.314
G01 X147.255 Y304.314
G01 X148.039 Y304.314
G01 X148.824 Y303.529
G01 X149.608 Y303.529
G01 X150.392 Y303.529
G01 X151.177 Y302.745
G01 X151.961 Y302.745
G01 X152.745 Y301.961
G01 X153.530 Y301.961
G01 X154.314 Y301.961
G01 X155.098 Y301.176
G01 X155.883 Y301.176
G01 X156.667 Y300.392
G01 X157.451 Y300.392
G01 X158.235 Y300.392
G01 X159.020 Y299.608
G01 X159.804 Y299.608
G01 X160.588 Y298.823
G01 X161.373 Y298.823
G01 X162.157 Y298.823
G01 X162.941 Y298.039
G01 X163.726 Y298.039
G01 X164.510 Y297.255
G01 X165.294 Y297.255
G01 X166.079 Y297.255
G01 X166.863 Y296.471
G01 X167.647 Y296.471
G01 X168.432 Y295.686
G01 X169.216 Y295.686
G01 X170.000 Y294.902
G01 X170.784 Y294.902
G01 X171.569 Y294.902
G01 X172.353 Y294.118
G01 X173.137 Y294.118
G01 X173.922 Y293.333
G01 X174.706 Y293.333
G01 X175.490 Y292.549
G01 X176.275 Y292.549
G01 X177.059 Y292.549
G01 X177.843 Y291.765
G01 X178.628 Y291.765
G01 X179.412 Y290.980
G01 X180.196 Y290.980
G01 X180.981 Y290.196
G01 X181.765 Y290.196
G01 X182.549 Y290.196
G01 X183.333 Y289.412
G01 X183.333 Y288.627
G01 X183.333 Y287.843
G01 X183.333 Y287.059
G01 X183.333 Y286.274
G01 X182.549 Y285.490
G01 X182.549 Y284.706
G01 X182.549 Y283.922
G01 X182.549 Y283.137
G01 X181.765 Y282.353
G01 X181.765 Y281.569
G01 X181.765 Y280.784
G01 X180.981 Y280.000
G01 X180.981 Y279.216
G01 X180.981 Y278.431
G01 X180.981 Y277.647
G01 X180.196 Y276.863
G01 X180.196 Y276.078
G01 X180.196 Y275.294
G01 X180.196 Y274.510
G01 X180.196 Y273.726
G01 X179.412 Y272.941
G01 X179.412 Y272.157
G01 X179.412 Y271.373
G01 X179.412 Y270.588
G01 X179.412 Y269.804
G01 X179.412 Y269.020
G01 X179.412 Y268.235
G01 X179.412 Y267.451
G01 X179.412 Y266.667
G01 X179.412 Y265.882
G01 X179.412 Y265.098
G01 X179.412 Y264.314
G01 X179.412 Y263.529
G01 X179.412 Y262.745
G01 X179.412 Y261.961
G01 X179.412 Y261.177
G01 X179.412 Y260.392
G01 X179.412 Y259.608
G01 X179.412 Y258.824
G01 X179.412 Y258.039
G01 X179.412 Y257.255
G01 X179.412 Y256.471
G01 X179.412 Y255.686
G01 X180.196 Y254.902
G01 X180.196 Y254.118
G01 X180.196 Y253.333
G01 X180.196 Y252.549
G01 X180.981 Y251.765
G01 X180.981 Y250.980
G01 X180.981 Y250.196
G01 X181.765 Y249.412
G01 X181.765 Y248.628
G01 X181.765 Y247.843
G01 X182.549 Y247.059
G01 X182.549 Y246.275
G01 X183.333 Y245.490
G01 X184.118 Y244.706
G01 X184.902 Y243.922
G01 X185.686 Y243.137
G01 X186.471 Y242.353
G01 X187.255 Y241.569
G01 X188.039 Y240.784
G01 X188.824 Y240.784
G01 X189.608 Y240.000
G01 X190.392 Y239.216
G01 X191.177 Y239.216
G01 X191.961 Y238.431
G01 X192.745 Y238.431
G01 X193.530 Y238.431
G01 X194.314 Y238.431
G01 X195.098 Y238.431
G01 X195.882 Y237.647
G01 X196.667 Y237.647
G01 X197.451 Y237.647
G01 X198.235 Y237.647
G01 X199.020 Y237.647
G01 X199.804 Y237.647
G01 X200.588 Y237.647
G01 X201.373 Y238.431
G01 X202.157 Y238.431
G01 X202.941 Y238.431
G01 X203.726 Y238.431
G01 X204.510 Y239.216
G01 X205.294 Y239.216
G01 X206.079 Y239.216
G01 X206.863 Y240.000
G01 X207.647 Y240.000
G01 X208.431 Y240.784
G01 X209.216 Y240.784
G01 X210.000 Y241.569
G01 X210.784 Y241.569
G01 X211.569 Y242.353
G01 X212.353 Y242.353
G01 X213.137 Y242.353
G01 X213.922 Y243.137
G01 X214.706 Y243.137
G01 X215.490 Y243.922
G01 X216.275 Y243.922
G01 X217.059 Y244.706
G01 X217.843 Y244.706
G01 X218.628 Y245.490
G01 X219.412 Y245.490
G01 X220.196 Y246.275
G01 X220.980 Y246.275
G01 X221.765 Y247.059
G01 X222.549 Y247.059
G01 X223.333 Y247.059
G01 X224.118 Y247.843
G01 X224.902 Y247.843
G01 X225.686 Y248.628
G01 X226.471 Y248.628
G01 X227.255 Y248.628
G01 X228.039 Y249.412
G01 X228.824 Y249.412
G01 X229.608 Y250.196
G01 X230.392 Y250.196
G01 X231.177 Y250.196
G01 X231.961 Y250.980
G01 X232.745 Y250.980
G01 X233.529 Y250.980
G01 X234.314 Y250.980
G01 X235.098 Y251.765
G01 X235.882 Y251.765
G01 X236.667 Y251.765
G01 X237.451 Y251.765
G01 X238.235 Y251.765
G01 X239.020 Y251.765
G01 X239.804 Y251.765
G01 X240.588 Y251.765
G01 X241.373 Y251.765
G01 X242.157 Y251.765
G01 X242.941 Y251.765
G01 X243.726 Y251.765
G01 X244.510 Y250.980
G01 X245.294 Y250.980
G01 X246.078 Y250.980
G01 X246.863 Y250.196
G01 X247.647 Y249.412
G01 X248.431 Y248.628
G01 X249.216 Y247.843
G01 X249.216 Y247.059
G01 X250.000 Y246.275
G01 X250.784 Y245.490
G01 X251.569 Y244.706
G01 X251.569 Y243.922
G01 X252.353 Y243.137
G01 X252.353 Y242.353
G01 X253.137 Y241.569
G01 X253.137 Y240.784
G01 X253.922 Y240.000
G01 X253.922 Y239.216
G01 X254.706 Y238.431
G01 X254.706 Y237.647
G01 X254.706 Y236.863
G01 X255.490 Y236.079
G01 X255.490 Y235.294
G01 X256.274 Y234.510
G01 X256.274 Y233.726
G01 X256.274 Y232.941
G01 X257.059 Y232.157
G01 X257.059 Y231.373
G01 X257.843 Y230.588
G01 X257.843 Y229.804
G01 X257.843 Y229.020
G01 X258.627 Y228.235
G01 X258.627 Y227.451
G01 X259.412 Y226.667
G01 X259.412 Y225.882
G01 X259.412 Y225.098
G01 X260.196 Y224.314
G01 X260.196 Y223.530
G01 X260.196 Y222.745
G01 X260.980 Y221.961
G01 X260.980 Y221.177
G01 X261.765 Y220.392
G01 X261.765 Y219.608
G01 X261.765 Y218.824
G01 X262.549 Y218.039
G01 X262.549 Y217.255
G01 X263.333 Y216.471
G01 X263.333 Y215.686
G01 X264.118 Y214.902
G01 X264.118 Y214.118
G01 X264.902 Y213.333
G01 X264.902 Y212.549
G01 X265.686 Y211.765
G01 X265.686 Y210.981
G01 X266.471 Y210.196
G01 X266.471 Y209.412
G01 X267.255 Y208.628
G01 X268.039 Y207.843
G01 X268.823 Y207.059
G01 X269.608 Y206.275
G01 X270.392 Y205.490
G01 X271.176 Y204.706
G01 X271.961 Y203.922
G01 X272.745 Y203.137
G01 X273.529 Y202.353
G01 X274.314 Y201.569
G01 X275.098 Y200.784
G01 X275.882 Y200.784
G01 X276.667 Y200.000
G01 X277.451 Y199.216
G01 X278.235 Y198.432
G01 X279.020 Y198.432
G01 X279.804 Y197.647
G01 X280.588 Y196.863
G01 X281.372 Y196.863
G01 X282.157 Y196.079
G01 X282.941 Y195.294
G01 X283.725 Y195.294
G01 X284.510 Y194.510
G01 X285.294 Y193.726
G01 X286.078 Y193.726
G01 X286.863 Y192.941
G01 X287.647 Y192.157
G01 X288.431 Y192.157
G01 X289.216 Y191.373
G01 X290.000 Y190.588
G01 X290.784 Y190.588
G01 X291.569 Y189.804
G01 X292.353 Y189.020
G01 X293.137 Y188.235
G01 X293.921 Y187.451
G01 X294.706 Y186.667
G01 X294.706 Y185.883
G01 X294.706 Y185.098
G01 X294.706 Y184.314
G01 X294.706 Y183.530
G01 X294.706 Y182.745
G01 X294.706 Y181.961
G01 X294.706 Y181.177
G01 X294.706 Y180.392
G01 X293.921 Y179.608
G01 X293.921 Y178.824
G01 X293.921 Y178.039
G01 X294.706 Y177.255
G01 X294.706 Y176.471
G01 X294.706 Y175.686
G01 X294.706 Y174.902
G01 X295.490 Y174.118
G01 X295.490 Y173.334
G01 X295.490 Y172.549
G01 X296.274 Y171.765
G01 X297.059 Y170.981
G01 X297.843 Y170.196
G01 X298.627 Y169.412
G01 X299.412 Y168.628
G01 X300.196 Y167.843
G01 X300.980 Y167.059
G01 X301.765 Y166.275
G01 X302.549 Y166.275
G01 X303.333 Y165.490
G01 X304.118 Y164.706
G01 X304.902 Y163.922
G01 X305.686 Y163.138
G01 X306.470 Y162.353
G01 X307.255 Y162.353
G01 X308.039 Y161.569
G01 X308.823 Y160.785
G01 X309.608 Y160.000
G01 X310.392 Y160.000
G01 X311.176 Y159.216
G01 X311.961 Y158.432
G01 X312.745 Y157.647
G01 X313.529 Y157.647
G01 X314.314 Y156.863
G01 X315.098 Y156.079
G01 X315.882 Y156.079
G01 X316.667 Y155.294
G01 X317.451 Y154.510
G01 X318.235 Y154.510
G01 X319.019 Y153.726
G01 X319.804 Y153.726
G01 X320.588 Y152.941
G01 X321.372 Y152.157
G01 X322.157 Y152.157
G01 X322.941 Y151.373
G01 X323.725 Y151.373
G01 X324.510 Y150.589
G01 X325.294 Y150.589
G01 X326.078 Y149.804
G01 X326.863 Y149.804
G01 X327.647 Y149.020
G01 X328.431 Y149.020
G01 X329.216 Y148.236
G01 X330.000 Y148.236
G01 X330.784 Y147.451
G01 X331.568 Y147.451
G01 X332.353 Y146.667
G01 X333.137 Y146.667
G01 X333.921 Y145.883
G01 X334.706 Y145.883
G01 X335.490 Y145.883
G01 X336.274 Y145.098
G01 X337.059 Y145.098
G01 X337.843 Y145.098
G01 X338.627 Y144.314
G01 X339.412 Y144.314
G01 X340.196 Y144.314
G01 X340.980 Y144.314
G01 X341.765 Y143.530
G01 X342.549 Y143.530
G01 X343.333 Y143.530
G01 X344.117 Y143.530
G01 X344.902 Y143.530
G01 X345.686 Y142.745
G01 X346.470 Y142.745
G01 X347.255 Y142.745
G01 X348.039 Y142.745
G01 X348.823 Y142.745
G01 X349.608 Y142.745
G01 X350.392 Y142.745
G01 X351.176 Y142.745
G01 X351.961 Y142.745
G01 X352.745 Y143.530
G01 X353.529 Y143.530
G01 X354.314 Y143.530
G01 X355.098 Y144.314
G01 X355.882 Y144.314
G01 X356.666 Y145.098
G01 X357.451 Y145.883
G01 X358.235 Y146.667
G01 X359.019 Y147.451
G01 X359.804 Y148.236
G01 X360.588 Y149.020
G01 X361.372 Y149.804
G01 X362.157 Y150.589
G01 X362.941 Y151.373
G01 X363.725 Y152.157
G01 X364.510 Y152.941
G01 X365.294 Y153.726
G01 X366.078 Y154.510
G01 X366.862 Y155.294
G01 X367.647 Y156.079
G01 X368.431 Y156.863
G01 X369.215 Y157.647
G01 X370.000 Y158.432
G01 X370.784 Y159.216
G01 X371.568 Y160.000
G01 X372.353 Y160.785
G01 X373.137 Y161.569
G01 X373.921 Y162.353
G01 X374.706 Y163.138
G01 X375.490 Y163.922
G01 X376.274 Y164.706
G01 X376.274 Y165.490
G01 X377.059 Y166.275
G01 X377.843 Y167.059
G01 X378.627 Y167.843
G01 X379.411 Y168.628
G01 X380.196 Y169.412
G01 X380.980 Y170.196
G01 X381.764 Y170.981
G01 X381.764 Y171.765
G01 X382.549 Y172.549
G01 X383.333 Y173.334
G01 X384.117 Y174.118
G01 X384.902 Y174.902
G01 X384.902 Y175.686
G01 X385.686 Y176.471
G01 X386.470 Y177.255
G01 X387.255 Y178.039
G01 X387.255 Y178.824
G01 X388.039 Y179.608
G01 X388.823 Y180.392
G01 X388.823 Y181.177
G01 X389.608 Y181.961
G01 X390.392 Y182.745
G01 X390.392 Y183.530
G01 X391.176 Y184.314
G01 X391.960 Y185.098
G01 X391.960 Y185.883
G01 X392.745 Y186.667
G01 X392.745 Y187.451
G01 X393.529 Y188.235
G01 X394.313 Y189.020
G01 X394.313 Y189.804
G01 X395.098 Y190.588
G01 X395.098 Y191.373
G01 X395.882 Y192.157
G01 X395.882 Y192.941
G01 X396.666 Y193.726
G01 X396.666 Y194.510
G01 X396.666 Y195.294
G01 X397.451 Y196.079
G01 X397.451 Y196.863
G01 X398.235 Y197.647
G01 X398.235 Y198.432
G01 X398.235 Y199.216
G01 X399.019 Y200.000
G01 X399.019 Y200.784
G01 X399.019 Y201.569
G01 X399.804 Y202.353
G01 X399.804 Y203.137
G01 X399.804 Y203.922
G01 X399.804 Y204.706
G01 X400.588 Y205.490
G01 X400.588 Y206.275
G01 X400.588 Y207.059
G01 X400.588 Y207.843
G01 X400.588 Y208.628
G01 X401.372 Y209.412
G01 X401.372 Y210.196
G01 X401.372 Y210.981
G01 X401.372 Y211.765
G01 X401.372 Y212.549
G01 X401.372 Y213.333
G01 X401.372 Y214.118
G01 X401.372 Y214.902
G01 X401.372 Y215.686
G01 X401.372 Y216.471
G01 X401.372 Y217.255
G01 X402.157 Y218.039
G01 X402.157 Y218.824
G01 X402.157 Y219.608
G01 X402.157 Y220.392
G01 X402.157 Y221.177
G01 X402.157 Y221.961
G01 X402.157 Y222.745
G01 X402.157 Y223.530
G01 X402.157 Y224.314
G01 X402.157 Y225.098
G01 X402.157 Y225.882
G01 X402.157 Y226.667
G01 X402.157 Y227.451
G01 X402.157 Y228.235
G01 X402.157 Y229.020
G01 X402.157 Y229.804
G01 X402.157 Y230.588
G01 X402.941 Y231.373
G01 X402.941 Y232.157
G01 X402.941 Y232.941
G01 X402.941 Y233.726
G01 X402.941 Y234.510
G01 X402.941 Y235.294
G01 X403.725 Y236.079
G01 X403.725 Y236.863
G01 X403.725 Y237.647
G01 X403.725 Y238.431
G01 X403.725 Y239.216
G01 X402.941 Y239.216
G01 X402.157 Y239.216
G01 X401.372 Y239.216
G01 X400.588 Y239.216
G01 X399.804 Y239.216
G01 X399.019 Y239.216
G01 X398.235 Y239.216
G01 X397.451 Y240.000
G01 X397.451 Y240.784
G01 X396.666 Y241.569
G01 X396.666 Y242.353
G01 X395.882 Y243.137
G01 X395.882 Y243.922
G01 X395.098 Y244.706
G01 X395.098 Y245.490
G01 X394.313 Y246.275
G01 X394.313 Y247.059
G01 X393.529 Y247.843
G01 X393.529 Y248.628
G01 X392.745 Y249.412
G01 X392.745 Y250.196
G01 X393.529 Y250.196
G01 X394.313 Y250.196
G01 X395.098 Y250.196
G01 X395.882 Y250.196
G01 X396.666 Y249.412
G01 X397.451 Y249.412
G01 X398.235 Y249.412
G01 X399.019 Y249.412
G01 X399.804 Y249.412
G01 X400.588 Y249.412
G01 X401.372 Y249.412
G01 X402.157 Y249.412
G01 X402.941 Y249.412
G01 X403.725 Y249.412
G01 X404.509 Y249.412
G01 X405.294 Y250.196
G01 X406.078 Y250.980
G01 X406.078 Y251.765
G01 X406.862 Y252.549
G01 X406.862 Y253.333
G01 X406.862 Y254.118
G01 X406.862 Y254.902
G01 X406.862 Y255.686
G01 X406.862 Y256.471
G01 X406.862 Y257.255
G01 X406.078 Y258.039
G01 X406.078 Y258.824
G01 X406.078 Y259.608
G01 X406.078 Y260.392
G01 X405.294 Y261.177
G01 X405.294 Y261.961
G01 X405.294 Y262.745
G01 X405.294 Y263.529
G01 X404.509 Y264.314
G01 X404.509 Y265.098
G01 X403.725 Y265.882
G01 X403.725 Y266.667
G01 X403.725 Y267.451
G01 X402.941 Y268.235
G01 X402.941 Y269.020
G01 X402.941 Y269.804
G01 X402.941 Y270.588
G01 X402.941 Y271.373
G01 X403.725 Y272.157
G01 X404.509 Y272.941
G01 X405.294 Y272.941
G01 X406.078 Y272.941
G01 X406.078 Y273.726
G01 X406.078 Y274.510
G01 X406.862 Y275.294
G01 X407.647 Y276.078
G01 X408.431 Y276.863
G01 X409.215 Y277.647
G01 X410.000 Y277.647
G01 X410.784 Y278.431
G01 X411.568 Y279.216
G01 X412.353 Y280.000
G01 X413.137 Y280.784
G01 X413.921 Y281.569
G01 X414.706 Y282.353
G01 X415.490 Y283.137
G01 X415.490 Y283.922
G01 X416.274 Y284.706
G01 X416.274 Y285.490
G01 X416.274 Y286.274
G01 X416.274 Y287.059
G01 X416.274 Y287.843
G01 X416.274 Y288.627
G01 X416.274 Y289.412
G01 X416.274 Y290.196
G01 X416.274 Y290.980
G01 X416.274 Y291.765
G01 X416.274 Y292.549
G01 X416.274 Y293.333
G01 X415.490 Y294.118
G01 X415.490 Y294.902
G01 X415.490 Y295.686
G01 X414.706 Y296.471
G01 X414.706 Y297.255
G01 X414.706 Y298.039
G01 X413.921 Y298.823
G01 X413.921 Y299.608
G01 X413.137 Y300.392
G01 X413.137 Y301.176
G01 X412.353 Y301.961
G01 X412.353 Y302.745
G01 X411.568 Y303.529
G01 X411.568 Y304.314
G01 X410.784 Y305.098
G01 X410.000 Y305.882
G01 X410.000 Y306.667
G01 X409.215 Y307.451
G01 X408.431 Y308.235
G01 X407.647 Y309.020
G01 X406.862 Y309.020
G01 X406.078 Y309.020
G01 X405.294 Y309.020
G01 X404.509 Y309.020
G01 X403.725 Y308.235
G01 X402.941 Y307.451
G01 X402.157 Y307.451
G01 X402.157 Y306.667
G01 X402.157 Y305.882
G01 X402.157 Y305.098
G01 X401.372 Y304.314
G01 X400.588 Y303.529
G01 X400.588 Y302.745
G01 X400.588 Y301.961
G01 X399.804 Y301.176
G01 X399.804 Y300.392
G01 X399.804 Y299.608
G01 X399.019 Y298.823
G01 X398.235 Y298.039
G01 X397.451 Y297.255
G01 X396.666 Y297.255
G01 X395.882 Y298.039
G01 X395.098 Y298.039
G01 X394.313 Y298.823
G01 X393.529 Y299.608
G01 X392.745 Y299.608
G01 X391.960 Y299.608
G01 X391.176 Y300.392
G01 X390.392 Y300.392
G01 X389.608 Y300.392
G01 X388.823 Y300.392
G01 X388.039 Y300.392
G01 X387.255 Y300.392
G01 X386.470 Y299.608
G01 X385.686 Y299.608
G01 X384.902 Y299.608
G01 X384.117 Y298.823
G01 X383.333 Y298.823
G01 X382.549 Y298.823
G01 X381.764 Y298.039
G01 X380.980 Y297.255
G01 X380.196 Y296.471
G01 X379.411 Y295.686
G01 X379.411 Y294.902
G01 X378.627 Y294.118
G01 X378.627 Y293.333
G01 X378.627 Y292.549
G01 X378.627 Y291.765
G01 X378.627 Y290.980
G01 X379.411 Y290.196
G01 X380.196 Y289.412
G01 X380.980 Y288.627
G01 X381.764 Y287.843
G01 X382.549 Y287.059
G01 X383.333 Y286.274
G01 X384.117 Y285.490
G01 X383.333 Y286.274
G01 X382.549 Y287.059
G01 X381.764 Y287.843
G01 X380.980 Y288.627
G01 X380.196 Y289.412
G01 X379.411 Y290.196
G01 X378.627 Y290.980
G01 X378.627 Y291.765
G01 X378.627 Y292.549
G01 X377.843 Y292.549
G01 X377.059 Y293.333
G01 X376.274 Y294.118
G01 X376.274 Y294.902
G01 X376.274 Y295.686
G01 X376.274 Y296.471
G01 X376.274 Y297.255
G01 X376.274 Y298.039
G01 X377.059 Y298.823
G01 X377.843 Y299.608
G01 X377.843 Y300.392
G01 X378.627 Y301.176
G01 X379.411 Y301.961
G01 X380.196 Y302.745
G01 X380.980 Y303.529
G01 X381.764 Y303.529
G01 X382.549 Y304.314
G01 X383.333 Y304.314
G01 X384.117 Y304.314
G01 X384.902 Y305.098
G01 X385.686 Y305.098
G01 X386.470 Y305.098
G01 X387.255 Y305.098
G01 X388.039 Y305.098
G01 X388.823 Y305.098
G01 X389.608 Y305.098
G01 X390.392 Y305.098
G01 X391.176 Y305.098
G01 X391.960 Y305.882
G01 X392.745 Y305.882
G01 X393.529 Y305.882
G01 X394.313 Y305.882
G01 X395.098 Y305.882
G01 X395.882 Y306.667
G01 X396.666 Y306.667
G01 X397.451 Y306.667
G01 X398.235 Y306.667
G01 X399.019 Y306.667
G01 X399.804 Y306.667
G01 X400.588 Y307.451
G01 X401.372 Y307.451
G01 X400.588 Y307.451
G01 X399.804 Y306.667
G01 X399.019 Y306.667
G01 X398.235 Y306.667
G01 X397.451 Y306.667
G01 X396.666 Y306.667
G01 X395.882 Y306.667
G01 X395.098 Y305.882
G01 X394.313 Y305.882
G01 X393.529 Y305.882
G01 X392.745 Y305.882
G01 X391.960 Y305.882
G01 X391.176 Y305.098
G01 X390.392 Y305.098
G01 X389.608 Y305.098
G01 X388.823 Y305.098
G01 X388.039 Y305.098
G01 X387.255 Y305.098
G01 X386.470 Y305.098
G01 X385.686 Y305.098
G01 X384.902 Y305.098
G01 X384.117 Y304.314
G01 X383.333 Y304.314
G01 X382.549 Y304.314
G01 X381.764 Y303.529
G01 X380.980 Y303.529
G01 X380.196 Y302.745
G01 X379.411 Y301.961
G01 X378.627 Y301.176
G01 X377.843 Y300.392
G01 X377.843 Y299.608
G01 X377.059 Y298.823
G01 X376.274 Y298.039
G01 X376.274 Y297.255
G01 X376.274 Y296.471
G01 X376.274 Y295.686
G01 X376.274 Y294.902
G01 X376.274 Y294.118
G01 X377.059 Y293.333
G01 X377.843 Y292.549
G01 X378.627 Y292.549
G01 X378.627 Y293.333
G01 X378.627 Y294.118
G01 X379.411 Y294.902
G01 X379.411 Y295.686
G01 X380.196 Y296.471
G01 X380.980 Y297.255
G01 X381.764 Y298.039
G01 X382.549 Y298.823
G01 X383.333 Y298.823
G01 X384.117 Y298.823
G01 X384.902 Y299.608
G01 X385.686 Y299.608
G01 X386.470 Y299.608
G01 X387.255 Y300.392
G01 X388.039 Y300.392
G01 X388.823 Y300.392
G01 X389.608 Y300.392
G01 X390.392 Y300.392
G01 X391.176 Y300.392
G01 X391.960 Y299.608
G01 X392.745 Y299.608
G01 X393.529 Y299.608
G01 X394.313 Y298.823
G01 X395.098 Y298.039
G01 X395.882 Y298.039
G01 X396.666 Y297.255
G01 X397.451 Y297.255
G01 X398.235 Y298.039
G01 X399.019 Y298.823
G01 X399.804 Y299.608
G01 X399.804 Y300.392
G01 X399.804 Y301.176
G01 X400.588 Y301.961
G01 X400.588 Y302.745
G01 X400.588 Y303.529
G01 X401.372 Y304.314
G01 X402.157 Y305.098
G01 X402.157 Y305.882
G01 X402.157 Y306.667
G01 X402.157 Y307.451
G01 X401.372 Y307.451
G01 X402.157 Y307.451
G01 X402.941 Y307.451
G01 X403.725 Y308.235
G01 X404.509 Y309.020
G01 X405.294 Y309.020
G01 X406.078 Y309.020
G01 X406.862 Y309.020
G01 X407.647 Y309.020
G01 X408.431 Y308.235
G01 X409.215 Y307.451
G01 X410.000 Y306.667
G01 X410.000 Y305.882
G01 X410.784 Y305.098
G01 X411.568 Y304.314
G01 X411.568 Y303.529
G01 X412.353 Y302.745
G01 X412.353 Y301.961
G01 X413.137 Y301.176
G01 X413.137 Y300.392
G01 X413.921 Y299.608
G01 X413.921 Y298.823
G01 X414.706 Y298.039
G01 X414.706 Y297.255
G01 X414.706 Y296.471
G01 X415.490 Y295.686
G01 X415.490 Y294.902
G01 X415.490 Y294.118
G01 X416.274 Y293.333
G01 X416.274 Y292.549
G01 X416.274 Y291.765
G01 X416.274 Y290.980
G01 X416.274 Y290.196
G01 X416.274 Y289.412
G01 X416.274 Y288.627
G01 X416.274 Y287.843
G01 X416.274 Y287.059
G01 X416.274 Y286.274
G01 X416.274 Y285.490
G01 X416.274 Y284.706
G01 X415.490 Y283.922
G01 X415.490 Y283.137
G01 X414.706 Y282.353
G01 X413.921 Y281.569
G01 X413.137 Y280.784
G01 X412.353 Y280.000
G01 X411.568 Y279.216
G01 X410.784 Y278.431
G01 X410.000 Y277.647
G01 X409.215 Y277.647
G01 X408.431 Y276.863
G01 X407.647 Y276.078
G01 X406.862 Y275.294
G01 X406.078 Y274.510
G01 X406.078 Y273.726
G01 X405.294 Y273.726
G01 X406.078 Y273.726
G01 X406.078 Y272.941
G01 X406.862 Y272.941
G01 X407.647 Y272.941
G01 X408.431 Y272.941
G01 X407.647 Y272.941
G01 X406.862 Y272.941
G01 X406.078 Y272.941
G01 X405.294 Y272.941
G01 X405.294 Y273.726
G01 X405.294 Y272.941
G01 X404.509 Y272.941
G01 X403.725 Y272.157
G01 X402.941 Y271.373
G01 X402.941 Y270.588
G01 X402.941 Y269.804
G01 X402.941 Y269.020
G01 X402.941 Y268.235
G01 X403.725 Y267.451
G01 X403.725 Y266.667
G01 X403.725 Y265.882
G01 X404.509 Y265.098
G01 X404.509 Y264.314
G01 X405.294 Y263.529
G01 X405.294 Y262.745
G01 X405.294 Y261.961
G01 X405.294 Y261.177
G01 X406.078 Y260.392
G01 X406.078 Y259.608
G01 X406.078 Y258.824
G01 X406.078 Y258.039
G01 X406.862 Y257.255
G01 X406.862 Y256.471
G01 X406.862 Y255.686
G01 X406.862 Y254.902
G01 X406.862 Y254.118
G01 X406.862 Y253.333
G01 X406.862 Y252.549
G01 X406.078 Y251.765
G01 X406.078 Y250.980
G01 X405.294 Y250.196
G01 X404.509 Y249.412
G01 X403.725 Y249.412
G01 X402.941 Y249.412
G01 X402.157 Y249.412
G01 X401.372 Y249.412
G01 X400.588 Y249.412
G01 X399.804 Y249.412
G01 X399.019 Y249.412
G01 X398.235 Y249.412
G01 X397.451 Y249.412
G01 X396.666 Y249.412
G01 X395.882 Y250.196
G01 X395.098 Y250.196
G01 X394.313 Y250.196
G01 X393.529 Y250.196
G01 X392.745 Y250.196
G01 X391.960 Y250.980
G01 X391.176 Y251.765
G01 X390.392 Y251.765
G01 X391.176 Y251.765
G01 X391.960 Y250.980
G01 X392.745 Y250.196
G01 X392.745 Y249.412
G01 X393.529 Y248.628
G01 X393.529 Y247.843
G01 X394.313 Y247.059
G01 X394.313 Y246.275
G01 X395.098 Y245.490
G01 X395.098 Y244.706
G01 X395.882 Y243.922
G01 X395.882 Y243.137
G01 X396.666 Y242.353
G01 X396.666 Y241.569
G01 X397.451 Y240.784
G01 X397.451 Y240.000
G01 X398.235 Y239.216
G01 X399.019 Y239.216
G01 X399.804 Y239.216
G01 X400.588 Y239.216
G01 X401.372 Y239.216
G01 X402.157 Y239.216
G01 X402.941 Y239.216
G01 X403.725 Y239.216
G01 X404.509 Y240.000
G01 X405.294 Y240.000
G01 X406.078 Y240.000
G01 X406.862 Y240.784
G01 X407.647 Y240.784
G01 X408.431 Y240.784
G01 X407.647 Y240.784
G01 X406.862 Y240.784
G01 X406.078 Y240.000
G01 X405.294 Y240.000
G01 X404.509 Y240.000
G01 X403.725 Y239.216
G01 X403.725 Y238.431
G01 X403.725 Y237.647
G01 X403.725 Y236.863
G01 X403.725 Y236.079
G01 X402.941 Y235.294
G01 X402.941 Y234.510
G01 X402.941 Y233.726
G01 X402.941 Y232.941
G01 X402.941 Y232.157
G01 X402.941 Y231.373
G01 X402.157 Y230.588
G01 X402.157 Y229.804
G01 X402.157 Y229.020
G01 X402.157 Y228.235
G01 X402.157 Y227.451
G01 X402.157 Y226.667
G01 X402.157 Y225.882
G01 X402.157 Y225.098
G01 X402.157 Y224.314
G01 X402.157 Y223.530
G01 X402.157 Y222.745
G01 X402.157 Y221.961
G01 X402.157 Y221.177
G01 X402.157 Y220.392
G01 X402.157 Y219.608
G01 X402.157 Y218.824
G01 X402.157 Y218.039
G01 X401.372 Y217.255
G01 X401.372 Y216.471
G01 X401.372 Y215.686
G01 X401.372 Y214.902
G01 X401.372 Y214.118
G01 X401.372 Y213.333
G01 X401.372 Y212.549
G01 X401.372 Y211.765
G01 X401.372 Y210.981
G01 X401.372 Y210.196
G01 X401.372 Y209.412
G01 X400.588 Y208.628
G01 X400.588 Y207.843
G01 X400.588 Y207.059
G01 X400.588 Y206.275
G01 X400.588 Y205.490
G01 X399.804 Y204.706
G01 X399.804 Y203.922
G01 X399.804 Y203.137
G01 X399.804 Y202.353
G01 X399.019 Y201.569
G01 X399.019 Y200.784
G01 X399.019 Y200.000
G01 X398.235 Y199.216
G01 X398.235 Y198.432
G01 X398.235 Y197.647
G01 X397.451 Y196.863
G01 X397.451 Y196.079
G01 X396.666 Y195.294
G01 X396.666 Y194.510
G01 X396.666 Y193.726
G01 X395.882 Y192.941
G01 X395.882 Y192.157
G01 X395.098 Y191.373
G01 X395.098 Y190.588
G01 X394.313 Y189.804
G01 X394.313 Y189.020
G01 X393.529 Y188.235
G01 X392.745 Y187.451
G01 X392.745 Y186.667
G01 X391.960 Y185.883
G01 X391.960 Y185.098
G01 X391.176 Y184.314
G01 X390.392 Y183.530
G01 X390.392 Y182.745
G01 X389.608 Y181.961
G01 X388.823 Y181.177
G01 X388.823 Y180.392
G01 X388.039 Y179.608
G01 X387.255 Y178.824
G01 X387.255 Y178.039
G01 X386.470 Y177.255
G01 X385.686 Y176.471
G01 X384.902 Y175.686
G01 X384.902 Y174.902
G01 X384.117 Y174.118
G01 X383.333 Y173.334
G01 X382.549 Y172.549
G01 X381.764 Y171.765
G01 X381.764 Y170.981
G01 X380.980 Y170.196
G01 X380.196 Y169.412
G01 X379.411 Y168.628
G01 X378.627 Y167.843
G01 X377.843 Y167.059
G01 X377.059 Y166.275
G01 X376.274 Y165.490
G01 X376.274 Y164.706
G01 X375.490 Y163.922
G01 X374.706 Y163.138
G01 X373.921 Y162.353
G01 X373.137 Y161.569
G01 X372.353 Y160.785
G01 X371.568 Y160.000
G01 X370.784 Y159.216
G01 X370.000 Y158.432
G01 X369.215 Y157.647
G01 X368.431 Y156.863
G01 X367.647 Y156.079
G01 X366.862 Y155.294
G01 X366.078 Y154.510
G01 X365.294 Y153.726
G01 X364.510 Y152.941
G01 X363.725 Y152.157
G01 X362.941 Y151.373
G01 X362.157 Y150.589
G01 X361.372 Y149.804
G01 X360.588 Y149.020
G01 X359.804 Y148.236
G01 X359.019 Y147.451
G01 X358.235 Y146.667
G01 X357.451 Y145.883
G01 X356.666 Y145.098
G01 X355.882 Y144.314
G01 X355.098 Y144.314
G01 X354.314 Y143.530
G01 X353.529 Y143.530
G01 X352.745 Y143.530
G01 X351.961 Y142.745
G01 X351.176 Y142.745
G01 X350.392 Y142.745
G01 X349.608 Y142.745
G01 X348.823 Y142.745
G01 X348.039 Y142.745
G01 X347.255 Y142.745
G01 X346.470 Y142.745
G01 X345.686 Y142.745
G01 X344.902 Y143.530
G01 X344.117 Y143.530
G01 X343.333 Y143.530
G01 X342.549 Y143.530
G01 X341.765 Y143.530
G01 X340.980 Y144.314
G01 X340.196 Y144.314
G01 X339.412 Y144.314
G01 X338.627 Y144.314
G01 X337.843 Y145.098
G01 X337.059 Y145.098
G01 X336.274 Y145.098
G01 X335.490 Y145.883
G01 X334.706 Y145.883
G01 X333.921 Y145.883
G01 X333.137 Y146.667
G01 X332.353 Y146.667
G01 X331.568 Y147.451
G01 X330.784 Y147.451
G01 X330.000 Y148.236
G01 X329.216 Y148.236
G01 X328.431 Y149.020
G01 X327.647 Y149.020
G01 X326.863 Y149.804
G01 X326.078 Y149.804
G01 X325.294 Y150.589
G01 X324.510 Y150.589
G01 X323.725 Y151.373
G01 X322.941 Y151.373
G01 X322.157 Y152.157
G01 X321.372 Y152.157
G01 X320.588 Y152.941
G01 X319.804 Y153.726
G01 X319.019 Y153.726
G01 X318.235 Y154.510
G01 X317.451 Y154.510
G01 X316.667 Y155.294
G01 X315.882 Y156.079
G01 X315.098 Y156.079
G01 X314.314 Y156.863
G01 X313.529 Y157.647
G01 X312.745 Y157.647
G01 X311.961 Y158.432
G01 X311.176 Y159.216
G01 X310.392 Y160.000
G01 X309.608 Y160.000
G01 X308.823 Y160.785
G01 X308.039 Y161.569
G01 X307.255 Y162.353
G01 X306.470 Y162.353
G01 X305.686 Y163.138
G01 X304.902 Y163.922
G01 X304.118 Y164.706
G01 X303.333 Y165.490
G01 X302.549 Y166.275
G01 X301.765 Y166.275
G01 X300.980 Y167.059
G01 X300.196 Y167.843
G01 X299.412 Y168.628
G01 X298.627 Y169.412
G01 X297.843 Y170.196
G01 X297.059 Y170.981
G01 X296.274 Y171.765
G01 X295.490 Y172.549
G01 X295.490 Y173.334
G01 X295.490 Y174.118
G01 X294.706 Y174.902
G01 X294.706 Y175.686
G01 X294.706 Y176.471
G01 X294.706 Y177.255
G01 X293.921 Y178.039
G01 X293.921 Y178.824
G01 X293.921 Y179.608
G01 X294.706 Y180.392
G01 X294.706 Y181.177
G01 X294.706 Y181.961
G01 X294.706 Y182.745
G01 X294.706 Y183.530
G01 X294.706 Y184.314
G01 X294.706 Y185.098
G01 X294.706 Y185.883
G01 X294.706 Y186.667
G01 X293.921 Y187.451
G01 X293.137 Y188.235
G01 X292.353 Y189.020
G01 X291.569 Y189.804
G01 X290.784 Y190.588
G01 X290.000 Y190.588
G01 X289.216 Y191.373
G01 X288.431 Y192.157
G01 X287.647 Y192.157
G01 X286.863 Y192.941
G01 X286.078 Y193.726
G01 X285.294 Y193.726
G01 X284.510 Y194.510
G01 X283.725 Y195.294
G01 X282.941 Y195.294
G01 X282.157 Y196.079
G01 X281.372 Y196.863
G01 X280.588 Y196.863
G01 X279.804 Y197.647
G01 X279.020 Y198.432
G01 X278.235 Y198.432
G01 X277.451 Y199.216
G01 X276.667 Y200.000
G01 X275.882 Y200.784
G01 X275.098 Y200.784
G01 X274.314 Y201.569
G01 X273.529 Y202.353
G01 X272.745 Y203.137
G01 X271.961 Y203.922
G01 X271.176 Y204.706
G01 X270.392 Y205.490
G01 X269.608 Y206.275
G01 X268.823 Y207.059
G01 X268.039 Y207.843
G01 X267.255 Y208.628
G01 X266.471 Y209.412
G01 X266.471 Y210.196
G01 X265.686 Y210.981
G01 X265.686 Y211.765
G01 X264.902 Y212.549
G01 X264.902 Y213.333
G01 X264.118 Y214.118
G01 X264.118 Y214.902
G01 X263.333 Y215.686
G01 X263.333 Y216.471
G01 X262.549 Y217.255
G01 X262.549 Y218.039
G01 X261.765 Y218.824
G01 X261.765 Y219.608
G01 X261.765 Y220.392
G01 X260.980 Y221.177
G01 X260.980 Y221.961
G01 X260.196 Y222.745
G01 X260.196 Y223.530
G01 X260.196 Y224.314
G01 X259.412 Y225.098
G01 X259.412 Y225.882
G01 X259.412 Y226.667
G01 X258.627 Y227.451
G01 X258.627 Y228.235
G01 X257.843 Y229.020
G01 X257.843 Y229.804
G01 X257.843 Y230.588
G01 X257.059 Y231.373
G01 X257.059 Y232.157
G01 X256.274 Y232.941
G01 X256.274 Y233.726
G01 X256.274 Y234.510
G01 X255.490 Y235.294
G01 X255.490 Y236.079
G01 X254.706 Y236.863
G01 X254.706 Y237.647
G01 X254.706 Y238.431
G01 X253.922 Y239.216
G01 X253.922 Y240.000
G01 X253.137 Y240.784
G01 X253.137 Y241.569
G01 X252.353 Y242.353
G01 X252.353 Y243.137
G01 X251.569 Y243.922
G01 X251.569 Y244.706
G01 X250.784 Y245.490
G01 X250.000 Y246.275
G01 X249.216 Y247.059
G01 X249.216 Y247.843
G01 X248.431 Y248.628
G01 X247.647 Y249.412
G01 X246.863 Y250.196
G01 X246.078 Y250.980
G01 X245.294 Y250.980
G01 X244.510 Y250.980
G01 X243.726 Y251.765
G01 X242.941 Y251.765
G01 X242.157 Y251.765
G01 X241.373 Y251.765
G01 X240.588 Y251.765
G01 X239.804 Y251.765
G01 X239.804 Y252.549
G01 X239.804 Y251.765
G01 X239.020 Y251.765
G01 X238.235 Y251.765
G01 X237.451 Y251.765
G01 X236.667 Y251.765
G01 X235.882 Y251.765
G01 X235.098 Y251.765
G01 X234.314 Y250.980
G01 X233.529 Y250.980
G01 X232.745 Y250.980
G01 X231.961 Y250.980
G01 X231.177 Y250.196
G01 X230.392 Y250.196
G01 X229.608 Y250.196
G01 X228.824 Y249.412
G01 X228.039 Y249.412
G01 X227.255 Y248.628
G01 X226.471 Y248.628
G01 X225.686 Y248.628
G01 X224.902 Y247.843
G01 X224.118 Y247.843
G01 X223.333 Y247.059
G01 X222.549 Y247.059
G01 X221.765 Y247.059
G01 X220.980 Y246.275
G01 X220.196 Y246.275
G01 X219.412 Y245.490
G01 X218.628 Y245.490
G01 X217.843 Y244.706
G01 X217.059 Y244.706
G01 X216.275 Y243.922
G01 X215.490 Y243.922
G01 X214.706 Y243.137
G01 X213.922 Y243.137
G01 X213.137 Y242.353
G01 X212.353 Y242.353
G01 X211.569 Y242.353
G01 X210.784 Y241.569
G01 X210.000 Y241.569
G01 X209.216 Y240.784
G01 X208.431 Y240.784
G01 X207.647 Y240.000
G01 X206.863 Y240.000
G01 X206.079 Y239.216
G01 X205.294 Y239.216
G01 X204.510 Y239.216
G01 X203.726 Y238.431
G01 X202.941 Y238.431
G01 X202.157 Y238.431
G01 X201.373 Y238.431
G01 X200.588 Y237.647
G01 X199.804 Y237.647
G01 X199.020 Y237.647
G01 X198.235 Y237.647
G01 X197.451 Y237.647
G01 X196.667 Y237.647
G01 X195.882 Y237.647
G01 X195.098 Y238.431
G01 X194.314 Y238.431
G01 X193.530 Y238.431
G01 X192.745 Y238.431
G01 X191.961 Y238.431
G01 X191.177 Y239.216
G01 X190.392 Y239.216
G01 X189.608 Y240.000
G01 X188.824 Y240.784
G01 X188.039 Y240.784
G01 X187.255 Y241.569
G01 X186.471 Y242.353
G01 X185.686 Y243.137
G01 X184.902 Y243.922
G01 X184.118 Y244.706
G01 X183.333 Y245.490
G01 X182.549 Y246.275
G01 X182.549 Y247.059
G01 X181.765 Y247.843
G01 X181.765 Y248.628
G01 X181.765 Y249.412
G01 X180.981 Y250.196
G01 X180.981 Y250.980
G01 X180.981 Y251.765
G01 X180.196 Y252.549
G01 X180.196 Y253.333
G01 X180.196 Y254.118
G01 X180.196 Y254.902
G01 X179.412 Y255.686
G01 X179.412 Y256.471
G01 X179.412 Y257.255
G01 X179.412 Y258.039
G01 X179.412 Y258.824
G01 X179.412 Y259.608
G01 X179.412 Y260.392
G01 X179.412 Y261.177
G01 X179.412 Y261.961
G01 X179.412 Y262.745
G01 X179.412 Y263.529
G01 X179.412 Y264.314
G01 X179.412 Y265.098
G01 X179.412 Y265.882
G01 X179.412 Y266.667
G01 X179.412 Y267.451
G01 X179.412 Y268.235
G01 X179.412 Y269.020
G01 X179.412 Y269.804
G01 X179.412 Y270.588
G01 X179.412 Y271.373
G01 X179.412 Y272.157
G01 X179.412 Y272.941
G01 X180.196 Y273.726
G01 X180.196 Y274.510
G01 X180.196 Y275.294
G01 X180.196 Y276.078
G01 X180.196 Y276.863
G01 X180.981 Y277.647
G01 X180.981 Y278.431
G01 X180.981 Y279.216
G01 X180.981 Y280.000
G01 X181.765 Y280.784
G01 X181.765 Y281.569
G01 X181.765 Y282.353
G01 X182.549 Y283.137
G01 X182.549 Y283.922
G01 X182.549 Y284.706
G01 X182.549 Y285.490
G01 X183.333 Y286.274
G01 X183.333 Y287.059
G01 X183.333 Y287.843
G01 X183.333 Y288.627
G01 X183.333 Y289.412
G01 X184.118 Y289.412
G01 X184.902 Y289.412
G01 X184.902 Y290.196
G01 X184.902 Y290.980
G01 X185.686 Y291.765
G01 X185.686 Y292.549
G01 X186.471 Y293.333
G01 X186.471 Y294.118
G01 X187.255 Y294.902
G01 X187.255 Y295.686
G01 X188.039 Y296.471
G01 X188.824 Y297.255
G01 X189.608 Y298.039
G01 X190.392 Y298.823
G01 X191.177 Y299.608
G01 X191.961 Y300.392
G01 X192.745 Y301.176
G01 X193.530 Y301.961
G01 X194.314 Y301.961
G01 X195.098 Y302.745
G01 X195.882 Y303.529
G01 X196.667 Y304.314
G01 X197.451 Y304.314
G01 X198.235 Y305.098
G01 X199.020 Y305.882
G01 X199.804 Y305.882
G01 X200.588 Y306.667
G01 X201.373 Y307.451
G01 X202.157 Y307.451
G01 X202.941 Y308.235
G01 X203.726 Y308.235
G01 X204.510 Y309.020
G01 X205.294 Y309.020
G01 X206.079 Y309.020
G01 X206.863 Y309.804
G01 X207.647 Y309.804
G01 X208.431 Y309.804
G01 X209.216 Y310.588
G01 X210.000 Y310.588
G01 X210.784 Y310.588
G01 X211.569 Y311.372
G01 X212.353 Y311.372
G01 X213.137 Y311.372
G01 X213.922 Y311.372
G01 X214.706 Y312.157
G01 X215.490 Y312.157
G01 X216.275 Y312.157
G01 X217.059 Y312.157
G01 X217.843 Y312.941
G01 X218.628 Y312.941
G01 X219.412 Y312.941
G01 X220.196 Y312.941
G01 X220.980 Y312.941
G01 X221.765 Y312.941
G01 X222.549 Y312.941
G01 X223.333 Y313.725
G01 X224.118 Y313.725
G01 X224.902 Y313.725
G01 X225.686 Y313.725
G01 X226.471 Y313.725
G01 X227.255 Y313.725
G01 X228.039 Y313.725
G01 X228.824 Y313.725
G01 X229.608 Y313.725
G01 X230.392 Y313.725
G01 X231.177 Y313.725
G01 X231.961 Y313.725
G01 X232.745 Y313.725
G01 X233.529 Y313.725
G01 X234.314 Y313.725
G01 X235.098 Y314.510
G01 X235.882 Y315.294
G01 X236.667 Y316.078
G01 X237.451 Y316.863
G01 X237.451 Y317.647
G01 X238.235 Y318.431
G01 X238.235 Y319.216
G01 X238.235 Y320.000
G01 X239.020 Y320.784
G01 X239.020 Y321.569
G01 X239.020 Y322.353
G01 X239.804 Y323.137
G01 X239.804 Y323.921
G01 X239.804 Y324.706
G01 X239.804 Y325.490
G01 X240.588 Y326.274
G01 X240.588 Y327.059
G01 X240.588 Y327.843
G01 X241.373 Y328.627
G01 X241.373 Y329.412
G01 X241.373 Y330.196
G01 X242.157 Y330.980
G01 X242.157 Y331.765
G01 X242.157 Y332.549
G01 X242.941 Y333.333
G01 X242.941 Y334.118
G01 X243.726 Y334.902
G01 X243.726 Y335.686
G01 X243.726 Y336.470
G01 X244.510 Y337.255
G01 X244.510 Y338.039
G01 X244.510 Y338.823
G01 X244.510 Y339.608
G01 X245.294 Y340.392
G01 X245.294 Y341.176
G01 X245.294 Y341.961
G01 X246.078 Y342.745
G01 X246.078 Y343.529
G01 X246.863 Y344.314
G01 X246.863 Y345.098
G01 X246.863 Y345.882
G01 X247.647 Y346.667
G01 X247.647 Y347.451
G01 X247.647 Y348.235
G01 X248.431 Y349.019
G01 X248.431 Y349.804
G01 X248.431 Y350.588
G01 X249.216 Y351.372
G01 X249.216 Y352.157
G01 X249.216 Y352.941
G01 X250.000 Y353.725
G01 X250.000 Y354.510
G01 X250.000 Y355.294
G01 X250.784 Y356.078
G01 X250.784 Y356.863
G01 X250.784 Y357.647
G01 X251.569 Y358.431
G01 X251.569 Y359.216
G01 X251.569 Y360.000
G01 X252.353 Y360.784
G01 X252.353 Y361.568
G01 X252.353 Y362.353
G01 X253.137 Y363.137
G01 X253.137 Y363.921
G01 X253.922 Y364.706
G01 X253.922 Y365.490
G01 X253.922 Y366.274
G01 X254.706 Y367.059
G01 X254.706 Y367.843
G01 X254.706 Y368.627
G01 X255.490 Y369.412
G01 X255.490 Y370.196
G01 X256.274 Y370.980
G01 X257.059 Y371.765
G01 X257.843 Y372.549
G01 X258.627 Y373.333
G01 X259.412 Y373.333
G01 X260.196 Y374.117
G01 X260.980 Y374.902
G01 X261.765 Y374.902
G01 X262.549 Y375.686
G01 X263.333 Y375.686
G01 X264.118 Y376.470
G01 X264.902 Y376.470
G01 X265.686 Y377.255
G01 X266.471 Y377.255
G01 X267.255 Y378.039
G01 X268.039 Y378.039
G01 X268.823 Y378.039
G01 X269.608 Y378.823
G01 X270.392 Y378.823
G01 X271.176 Y379.608
G01 X271.961 Y379.608
G01 X272.745 Y380.392
G01 X273.529 Y380.392
G01 X274.314 Y380.392
G01 X275.098 Y381.176
G01 X275.882 Y381.176
G01 X276.667 Y381.176
G01 X277.451 Y381.961
G01 X278.235 Y381.961
G01 X279.020 Y382.745
G01 X279.804 Y382.745
G01 X280.588 Y382.745
G01 X281.372 Y383.529
G01 X282.157 Y383.529
G01 X282.941 Y383.529
G01 X283.725 Y384.313
G01 X284.510 Y384.314
G01 X285.294 Y384.314
G01 X286.078 Y385.098
G01 X286.863 Y385.098
G01 X287.647 Y385.098
G01 X288.431 Y385.882
G01 X289.216 Y385.882
G01 X290.000 Y386.666
G01 X290.784 Y386.666
G01 X291.569 Y386.666
G01 X292.353 Y386.666
G01 X293.137 Y387.451
G01 X293.921 Y387.451
G01 X294.706 Y387.451
G01 X295.490 Y388.235
G01 X296.274 Y388.235
G01 X297.059 Y388.235
G01 X297.843 Y389.019
G01 X298.627 Y389.019
G01 X299.412 Y389.019
G01 X300.196 Y389.804
G01 X300.980 Y389.804
G01 X301.765 Y389.804
G01 X302.549 Y390.588
G01 X303.333 Y390.588
G01 X304.118 Y390.588
G01 X304.902 Y391.372
G01 X305.686 Y391.372
G01 X306.470 Y391.372
G01 X307.255 Y392.157
G01 X308.039 Y392.157
G01 X308.823 Y392.157
G01 X309.608 Y392.941
G01 X310.392 Y392.941
G01 X311.176 Y392.941
G01 X311.961 Y393.725
G01 X312.745 Y393.725
G01 X313.529 Y393.725
G01 X314.314 Y394.510
G01 X315.098 Y394.510
G01 X315.882 Y394.510
G01 X316.667 Y394.510
G01 X317.451 Y395.294
G01 X318.235 Y395.294
G01 X319.019 Y395.294
G01 X319.804 Y396.078
G01 X320.588 Y396.078
G01 X321.372 Y396.078
G01 X322.157 Y396.862
G01 X322.941 Y396.862
G01 X323.725 Y396.862
G01 X324.510 Y397.647
G01 X325.294 Y397.647
G01 X326.078 Y397.647
G01 X326.863 Y397.647
G01 X327.647 Y398.431
G01 X328.431 Y398.431
G01 X329.216 Y398.431
G01 X330.000 Y399.215
G01 X330.784 Y399.215
G01 X331.568 Y399.215
G01 X332.353 Y400.000
G01 X333.137 Y400.000
G01 X333.921 Y400.000
G01 X334.706 Y400.000
G01 X335.490 Y400.784
G01 X336.274 Y400.784
G01 X337.059 Y400.784
G01 X337.843 Y401.568
G01 X338.627 Y401.568
G01 X339.412 Y401.568
G01 X340.196 Y402.353
G01 X340.980 Y402.353
G01 X341.765 Y402.353
G01 X342.549 Y402.353
G01 X343.333 Y403.137
G01 X344.117 Y403.137
G01 X344.902 Y403.137
G01 X345.686 Y403.137
G01 X346.470 Y403.921
G01 X347.255 Y403.921
G01 X348.039 Y403.921
G01 X348.823 Y404.706
G01 X349.608 Y404.706
G01 X350.392 Y404.706
G01 X351.176 Y405.490
G01 X351.961 Y405.490
G01 X352.745 Y405.490
G01 X353.529 Y405.490
G01 X354.314 Y406.274
G01 X355.098 Y406.274
G01 X355.882 Y406.274
G01 X356.666 Y407.059
G01 X357.451 Y407.059
G01 X358.235 Y407.059
G01 X359.019 Y407.059
G01 X359.804 Y407.843
G01 X360.588 Y407.843
G01 X361.372 Y407.843
G01 X362.157 Y407.843
G01 X362.941 Y408.627
G01 X363.725 Y408.627
G01 X364.510 Y409.411
G01 X364.510 Y410.196
G01 X364.510 Y410.980
G01 X363.725 Y410.980
G01 X362.941 Y410.980
G01 X362.157 Y410.980
G01 X361.372 Y410.980
G01 X360.588 Y410.980
G01 X359.804 Y410.980
G01 X359.019 Y410.980
G01 X358.235 Y410.980
G01 X357.451 Y410.196
G01 X356.666 Y410.196
G01 X355.882 Y410.196
G01 X355.098 Y410.196
G01 X354.314 Y410.196
G01 X353.529 Y409.411
G01 X352.745 Y409.411
G01 X351.961 Y409.411
G01 X351.176 Y409.411
G01 X350.392 Y409.411
G01 X349.608 Y409.411
G01 X348.823 Y409.411
G01 X348.039 Y409.411
G01 X347.255 Y409.411
G01 X346.470 Y409.411
G01 X345.686 Y409.411
G01 X344.902 Y409.411
G01 X344.117 Y409.411
G01 X343.333 Y409.411
G01 X342.549 Y410.196
G01 X341.765 Y410.196
G01 X340.980 Y410.196
G01 X340.196 Y410.196
G01 X339.412 Y410.980
G01 X338.627 Y410.980
G01 X337.843 Y410.980
G01 X337.059 Y411.764
G01 X336.274 Y411.764
G01 X335.490 Y412.549
G01 X334.706 Y412.549
G01 X333.921 Y413.333
G01 X333.137 Y413.333
G01 X332.353 Y414.117
G01 X331.568 Y414.902
G01 X330.784 Y415.686
G01 X330.000 Y416.470
G01 X329.216 Y417.255
G01 X328.431 Y418.039
G01 X327.647 Y418.823
G01 X327.647 Y419.608
G01 X326.863 Y420.392
G01 X326.078 Y421.176
G01 X325.294 Y421.960
G01 X325.294 Y422.745
G01 X324.510 Y423.529
G01 X323.725 Y424.313
G01 X323.725 Y425.098
G01 X322.941 Y425.882
G01 X322.941 Y426.666
G01 X322.157 Y427.451
G01 X322.157 Y428.235
G01 X321.372 Y429.019
G01 X321.372 Y429.804
G01 X321.372 Y430.588
G01 X320.588 Y431.372
G01 X320.588 Y432.157
G01 X319.804 Y432.941
G01 X319.804 Y433.725
G01 X319.804 Y434.509
G01 X319.019 Y435.294
G01 X319.019 Y436.078
G01 X318.235 Y436.862
G01 X318.235 Y437.647
G01 X318.235 Y438.431
G01 X318.235 Y439.215
G01 X317.451 Y440.000
G01 X317.451 Y440.784
G01 X317.451 Y441.568
G01 X317.451 Y442.353
G01 X316.667 Y443.137
G01 X316.667 Y443.921
G01 X316.667 Y444.706
G01 X316.667 Y445.490
G01 X316.667 Y446.274
G01 X315.882 Y447.058
G01 X315.882 Y447.843
G01 X315.882 Y448.627
G01 X315.882 Y449.411
G01 X315.882 Y450.196
G01 X315.882 Y450.980
G01 X315.098 Y451.764
G01 X315.098 Y452.549
G01 X315.098 Y453.333
G01 X315.098 Y454.117
G01 X315.098 Y454.902
G01 X315.098 Y455.686
G01 X315.098 Y456.470
G01 X314.314 Y457.255
G01 X314.314 Y458.039
G01 X314.314 Y458.823
G01 X314.314 Y459.607
G01 X314.314 Y460.392
G01 X314.314 Y461.176
G01 X314.314 Y461.960
G01 X314.314 Y462.745
G01 X314.314 Y463.529
G01 X314.314 Y464.313
G01 X314.314 Y465.098
G01 X314.314 Y465.882
G01 X314.314 Y466.666
G01 X313.529 Y467.451
G01 X313.529 Y468.235
G01 X313.529 Y469.019
G01 X313.529 Y469.804
G01 X313.529 Y470.588
G01 X313.529 Y471.372
G01 X313.529 Y472.156
G01 X313.529 Y472.941
G01 X313.529 Y473.725
G01 X313.529 Y474.509
G01 X313.529 Y475.294
G01 X313.529 Y476.078
G01 X313.529 Y476.862
G01 X313.529 Y477.647
G01 X313.529 Y478.431
G01 X313.529 Y479.215
G01 X313.529 Y480.000
G01 X313.529 Y480.784
G01 X314.314 Y481.568
G01 X314.314 Y482.353
G01 X314.314 Y483.137
G01 X314.314 Y483.921
G01 X314.314 Y484.705
G01 X314.314 Y485.490
G01 X314.314 Y486.274
G01 X314.314 Y487.058
G01 X314.314 Y487.843
G01 X314.314 Y488.627
G01 X314.314 Y489.411
G01 X314.314 Y490.196
G01 X314.314 Y490.980
G01 X314.314 Y490.196
G01 X314.314 Y489.411
G01 X314.314 Y488.627
G01 X314.314 Y487.843
G01 X314.314 Y487.058
G01 X314.314 Y486.274
G01 X314.314 Y485.490
G01 X314.314 Y484.705
G01 X314.314 Y483.921
G01 X314.314 Y483.137
G01 X314.314 Y482.353
G01 X314.314 Y481.568
G01 X313.529 Y480.784
G01 X313.529 Y480.000
G01 X313.529 Y479.215
G01 X313.529 Y478.431
G01 X313.529 Y477.647
G01 X313.529 Y476.862
G01 X313.529 Y476.078
G01 X313.529 Y475.294
G01 X313.529 Y474.509
G01 X313.529 Y473.725
G01 X313.529 Y472.941
G01 X313.529 Y472.156
G01 X313.529 Y471.372
G01 X313.529 Y470.588
G01 X313.529 Y469.804
G01 X313.529 Y469.019
G01 X313.529 Y468.235
G01 X313.529 Y467.451
G01 X314.314 Y466.666
G01 X314.314 Y465.882
G01 X314.314 Y465.098
G01 X314.314 Y464.313
G01 X314.314 Y463.529
G01 X314.314 Y462.745
G01 X314.314 Y461.960
G01 X314.314 Y461.176
G01 X314.314 Y460.392
G01 X314.314 Y459.607
G01 X314.314 Y458.823
G01 X314.314 Y458.039
G01 X314.314 Y457.255
G01 X315.098 Y456.470
G01 X315.098 Y455.686
G01 X315.098 Y454.902
G01 X315.098 Y454.117
G01 X315.098 Y453.333
G01 X315.098 Y452.549
G01 X315.098 Y451.764
G01 X315.882 Y450.980
G01 X315.882 Y450.196
G01 X315.882 Y449.411
G01 X315.882 Y448.627
G01 X315.882 Y447.843
G01 X315.882 Y447.058
G01 X316.667 Y446.274
G01 X316.667 Y445.490
G01 X316.667 Y444.706
G01 X316.667 Y443.921
G01 X316.667 Y443.137
G01 X317.451 Y442.353
G01 X317.451 Y441.568
G01 X317.451 Y440.784
G01 X317.451 Y440.000
G01 X318.235 Y439.215
G01 X318.235 Y438.431
G01 X318.235 Y437.647
G01 X318.235 Y436.862
G01 X319.019 Y436.078
G01 X319.019 Y435.294
G01 X319.804 Y434.509
G01 X319.804 Y433.725
G01 X319.804 Y432.941
G01 X320.588 Y432.157
G01 X320.588 Y431.372
G01 X321.372 Y430.588
G01 X321.372 Y429.804
G01 X321.372 Y429.019
G01 X322.157 Y428.235
G01 X322.157 Y427.451
G01 X322.941 Y426.666
G01 X322.941 Y425.882
G01 X323.725 Y425.098
G01 X323.725 Y424.313
G01 X324.510 Y423.529
G01 X325.294 Y422.745
G01 X325.294 Y421.960
G01 X326.078 Y421.176
G01 X326.863 Y420.392
G01 X327.647 Y419.608
G01 X327.647 Y418.823
G01 X328.431 Y418.039
G01 X329.216 Y417.255
G01 X330.000 Y416.470
G01 X330.784 Y415.686
G01 X331.568 Y414.902
G01 X332.353 Y414.117
G01 X333.137 Y413.333
G01 X333.921 Y413.333
G01 X334.706 Y412.549
G01 X335.490 Y412.549
G01 X336.274 Y411.764
G01 X337.059 Y411.764
G01 X337.843 Y410.980
G01 X338.627 Y410.980
G01 X339.412 Y410.980
G01 X340.196 Y410.196
G01 X340.980 Y410.196
G01 X341.765 Y410.196
G01 X342.549 Y410.196
G01 X343.333 Y409.411
G01 X344.117 Y409.411
G01 X344.902 Y409.411
G01 X345.686 Y409.411
G01 X346.470 Y409.411
G01 X347.255 Y409.411
G01 X348.039 Y409.411
G01 X348.823 Y409.411
G01 X349.608 Y409.411
G01 X350.392 Y409.411
G01 X351.176 Y409.411
G01 X351.961 Y409.411
G01 X352.745 Y409.411
G01 X353.529 Y409.411
G01 X354.314 Y410.196
G01 X355.098 Y410.196
G01 X355.882 Y410.196
G01 X356.666 Y410.196
G01 X357.451 Y410.196
G01 X358.235 Y410.980
G01 X359.019 Y410.980
G01 X359.804 Y410.980
G01 X360.588 Y410.980
G01 X361.372 Y410.980
G01 X362.157 Y410.980
G01 X362.941 Y410.980
G01 X363.725 Y410.980
G01 X364.510 Y410.980
G01 X364.510 Y411.764
G01 X363.725 Y410.980
G01 X364.510 Y411.764
G01 X364.510 Y410.980
G01 X365.294 Y410.980
G01 X364.510 Y410.980
G01 X364.510 Y410.196
G01 X365.294 Y410.196
G01 X366.078 Y410.980
G01 X366.862 Y410.980
G01 X367.647 Y410.980
G01 X368.431 Y410.980
G01 X369.215 Y410.980
G01 X370.000 Y410.980
G01 X370.000 Y410.196
G01 X370.000 Y409.411
G01 X370.784 Y408.627
G01 X371.568 Y407.843
G01 X371.568 Y407.059
G01 X371.568 Y406.274
G01 X371.568 Y405.490
G01 X371.568 Y404.706
G01 X371.568 Y403.921
G01 X371.568 Y403.137
G01 X371.568 Y402.353
G01 X371.568 Y401.568
G01 X370.784 Y400.784
G01 X370.784 Y400.000
G01 X370.784 Y399.215
G01 X370.784 Y398.431
G01 X370.784 Y397.647
G01 X370.784 Y396.862
G01 X370.784 Y396.078
G01 X370.000 Y395.294
G01 X370.000 Y394.510
G01 X370.000 Y393.725
G01 X370.000 Y392.941
G01 X370.000 Y392.157
G01 X369.215 Y391.372
G01 X369.215 Y390.588
G01 X369.215 Y389.804
G01 X369.215 Y389.019
G01 X368.431 Y388.235
G01 X368.431 Y387.451
G01 X368.431 Y386.666
G01 X367.647 Y385.882
G01 X367.647 Y385.098
G01 X367.647 Y384.314
G01 X366.862 Y383.529
G01 X366.862 Y382.745
G01 X366.862 Y381.961
G01 X366.078 Y381.176
G01 X366.078 Y380.392
G01 X365.294 Y379.608
G01 X365.294 Y378.823
G01 X364.510 Y378.039
G01 X364.510 Y377.255
G01 X363.725 Y376.470
G01 X363.725 Y375.686
G01 X362.941 Y374.902
G01 X362.941 Y374.117
G01 X362.157 Y373.333
G01 X362.157 Y372.549
G01 X361.372 Y371.765
G01 X360.588 Y370.980
G01 X360.588 Y370.196
G01 X359.804 Y369.412
G01 X359.019 Y368.627
G01 X359.019 Y367.843
G01 X358.235 Y367.059
G01 X357.451 Y366.274
G01 X356.666 Y365.490
G01 X356.666 Y364.706
G01 X355.882 Y363.921
G01 X355.098 Y363.137
G01 X355.098 Y362.353
G01 X354.314 Y361.568
G01 X353.529 Y360.784
G01 X353.529 Y360.000
G01 X352.745 Y359.216
G01 X351.961 Y358.431
G01 X351.961 Y357.647
G01 X351.176 Y356.863
G01 X351.176 Y356.078
G01 X350.392 Y355.294
G01 X349.608 Y354.510
G01 X349.608 Y353.725
G01 X348.823 Y352.941
G01 X348.823 Y352.157
G01 X348.039 Y351.372
G01 X348.039 Y350.588
G01 X347.255 Y349.804
G01 X347.255 Y349.019
G01 X346.470 Y348.235
G01 X345.686 Y347.451
G01 X345.686 Y346.667
G01 X344.902 Y345.882
G01 X344.902 Y345.098
G01 X344.117 Y344.314
G01 X344.117 Y343.529
G01 X343.333 Y342.745
G01 X343.333 Y341.961
G01 X342.549 Y341.176
G01 X342.549 Y340.392
G01 X342.549 Y339.608
G01 X341.765 Y338.823
G01 X341.765 Y338.039
G01 X340.980 Y337.255
G01 X340.980 Y336.470
G01 X340.196 Y335.686
G01 X340.196 Y334.902
G01 X340.196 Y334.118
G01 X339.412 Y333.333
G01 X339.412 Y332.549
G01 X338.627 Y331.765
G01 X338.627 Y330.980
G01 X338.627 Y330.196
G01 X337.843 Y329.412
G01 X337.843 Y328.627
G01 X337.843 Y327.843
G01 X337.059 Y327.059
G01 X337.059 Y326.274
G01 X336.274 Y325.490
G01 X336.274 Y324.706
G01 X336.274 Y323.921
G01 X335.490 Y323.137
G01 X335.490 Y322.353
G01 X335.490 Y321.569
G01 X334.706 Y320.784
G01 X334.706 Y320.000
G01 X334.706 Y319.216
G01 X334.706 Y318.431
G01 X333.921 Y317.647
G01 X333.921 Y316.863
G01 X333.921 Y316.078
G01 X333.137 Y315.294
G01 X333.137 Y314.510
G01 X333.137 Y313.725
G01 X332.353 Y312.941
G01 X332.353 Y312.157
G01 X332.353 Y311.372
G01 X331.568 Y310.588
G01 X331.568 Y309.804
G01 X331.568 Y309.020
G01 X330.784 Y308.235
G01 X330.784 Y307.451
G01 X330.000 Y306.667
G01 X330.000 Y305.882
G01 X329.216 Y305.098
G01 X329.216 Y304.314
G01 X328.431 Y303.529
G01 X328.431 Y302.745
G01 X327.647 Y301.961
G01 X327.647 Y301.176
G01 X326.863 Y300.392
G01 X326.078 Y299.608
G01 X325.294 Y298.823
G01 X324.510 Y298.039
G01 X323.725 Y297.255
G01 X322.941 Y296.471
G01 X322.157 Y295.686
G01 X321.372 Y294.902
G01 X320.588 Y294.118
G01 X319.804 Y293.333
G01 X319.019 Y292.549
G01 X318.235 Y291.765
G01 X317.451 Y290.980
G01 X316.667 Y290.196
G01 X315.882 Y289.412
G01 X315.098 Y289.412
G01 X314.314 Y288.627
G01 X313.529 Y287.843
G01 X312.745 Y287.059
G01 X311.961 Y287.059
G01 X311.176 Y286.274
G01 X310.392 Y286.274
G01 X309.608 Y285.490
G01 X308.823 Y285.490
G01 X308.039 Y284.706
G01 X307.255 Y284.706
G01 X306.470 Y283.922
G01 X305.686 Y283.922
G01 X304.902 Y283.137
G01 X304.118 Y283.137
G01 X303.333 Y283.137
G01 X302.549 Y282.353
G01 X301.765 Y282.353
G01 X300.980 Y282.353
G01 X300.196 Y281.569
G01 X299.412 Y281.569
G01 X298.627 Y281.569
G01 X297.843 Y281.569
G01 X297.059 Y281.569
G01 X296.274 Y280.784
G01 X295.490 Y280.784
G01 X294.706 Y280.784
G01 X293.921 Y280.784
G01 X293.137 Y280.784
G01 X292.353 Y280.000
G01 X291.569 Y280.000
G01 X290.784 Y280.000
G01 X290.000 Y279.216
G01 X289.216 Y278.431
G01 X288.431 Y277.647
G01 X287.647 Y276.863
G01 X287.647 Y276.078
G01 X286.863 Y275.294
G01 X286.863 Y274.510
G01 X286.078 Y273.726
G01 X286.078 Y272.941
G01 X286.078 Y272.157
G01 X286.078 Y271.373
G01 X286.078 Y270.588
G01 X286.078 Y269.804
G01 X286.078 Y269.020
G01 X286.078 Y268.235
G01 X286.863 Y267.451
G01 X286.863 Y266.667
G01 X286.863 Y265.882
G01 X286.863 Y265.098
G01 X286.863 Y264.314
G01 X286.863 Y263.529
G01 X287.647 Y262.745
G01 X287.647 Y261.961
G01 X287.647 Y261.177
G01 X288.431 Y260.392
G01 X288.431 Y259.608
G01 X288.431 Y258.824
G01 X289.216 Y258.039
G01 X289.216 Y257.255
G01 X290.000 Y256.471
G01 X290.000 Y255.686
G01 X290.784 Y254.902
G01 X290.784 Y254.118
G01 X291.569 Y253.333
G01 X291.569 Y252.549
G01 X292.353 Y251.765
G01 X292.353 Y250.980
G01 X293.137 Y250.196
G01 X293.137 Y249.412
G01 X293.921 Y248.628
G01 X294.706 Y247.843
G01 X294.706 Y247.059
G01 X295.490 Y246.275
G01 X296.274 Y245.490
G01 X296.274 Y244.706
G01 X297.059 Y243.922
G01 X297.843 Y243.137
G01 X298.627 Y242.353
G01 X299.412 Y241.569
G01 X300.196 Y241.569
G01 X300.980 Y241.569
G01 X301.765 Y241.569
G01 X302.549 Y241.569
G01 X303.333 Y241.569
G01 X304.118 Y241.569
G01 X304.902 Y241.569
G01 X305.686 Y242.353
G01 X306.470 Y242.353
G01 X307.255 Y242.353
G01 X308.039 Y242.353
G01 X308.823 Y242.353
G01 X309.608 Y243.137
G01 X310.392 Y243.137
G01 X311.176 Y243.137
G01 X311.961 Y243.137
G01 X312.745 Y243.922
G01 X313.529 Y243.922
G01 X314.314 Y243.922
G01 X315.098 Y243.922
G01 X315.882 Y244.706
G01 X316.667 Y244.706
G01 X317.451 Y244.706
G01 X318.235 Y244.706
G01 X319.019 Y244.706
G01 X319.804 Y245.490
G01 X320.588 Y245.490
G01 X321.372 Y245.490
G01 X322.157 Y245.490
G01 X322.941 Y245.490
G01 X323.725 Y246.275
G01 X324.510 Y247.059
G01 X325.294 Y247.843
G01 X324.510 Y247.059
G01 X325.294 Y247.059
G01 X324.510 Y247.059
G01 X323.725 Y246.275
G01 X322.941 Y245.490
G01 X322.157 Y245.490
G01 X321.372 Y245.490
G01 X320.588 Y245.490
G01 X319.804 Y245.490
G01 X319.019 Y244.706
G01 X318.235 Y244.706
G01 X317.451 Y244.706
G01 X316.667 Y244.706
G01 X315.882 Y244.706
G01 X315.098 Y243.922
G01 X314.314 Y243.922
G01 X313.529 Y243.922
G01 X312.745 Y243.922
G01 X311.961 Y243.137
G01 X311.176 Y243.137
G01 X310.392 Y243.137
G01 X309.608 Y243.137
G01 X308.823 Y242.353
G01 X308.039 Y242.353
G01 X307.255 Y242.353
G01 X306.470 Y242.353
G01 X305.686 Y242.353
G01 X304.902 Y241.569
G01 X304.118 Y241.569
G01 X303.333 Y241.569
G01 X302.549 Y241.569
G01 X301.765 Y241.569
G01 X300.980 Y241.569
G01 X300.196 Y241.569
G01 X299.412 Y241.569
G01 X298.627 Y242.353
G01 X297.843 Y243.137
G01 X297.059 Y243.922
G01 X296.274 Y244.706
G01 X296.274 Y245.490
G01 X295.490 Y246.275
G01 X294.706 Y247.059
G01 X294.706 Y247.843
G01 X293.921 Y248.628
G01 X293.137 Y249.412
G01 X293.137 Y250.196
G01 X292.353 Y250.980
G01 X292.353 Y251.765
G01 X291.569 Y252.549
G01 X291.569 Y253.333
G01 X290.784 Y254.118
G01 X290.784 Y254.902
G01 X290.000 Y255.686
G01 X290.000 Y256.471
G01 X289.216 Y257.255
G01 X289.216 Y258.039
G01 X288.431 Y258.824
G01 X288.431 Y259.608
G01 X288.431 Y260.392
G01 X287.647 Y261.177
G01 X287.647 Y261.961
G01 X287.647 Y262.745
G01 X286.863 Y263.529
G01 X286.863 Y264.314
G01 X286.863 Y265.098
G01 X286.863 Y265.882
G01 X286.863 Y266.667
G01 X286.863 Y267.451
G01 X286.078 Y268.235
G01 X286.078 Y269.020
G01 X286.078 Y269.804
G01 X286.078 Y270.588
G01 X286.078 Y271.373
G01 X286.078 Y272.157
G01 X286.078 Y272.941
G01 X286.078 Y273.726
G01 X286.863 Y274.510
G01 X286.863 Y275.294
G01 X287.647 Y276.078
G01 X287.647 Y276.863
G01 X288.431 Y277.647
G01 X289.216 Y278.431
G01 X290.000 Y279.216
G01 X290.784 Y280.000
G01 X291.569 Y280.000
G01 X292.353 Y280.000
G01 X293.137 Y280.784
G01 X293.921 Y280.784
G01 X294.706 Y280.784
G01 X295.490 Y280.784
G01 X296.274 Y280.784
G01 X297.059 Y281.569
G01 X297.843 Y281.569
G01 X298.627 Y281.569
G01 X299.412 Y281.569
G01 X300.196 Y281.569
G01 X300.980 Y282.353
G01 X301.765 Y282.353
G01 X302.549 Y282.353
G01 X303.333 Y283.137
G01 X304.118 Y283.137
G01 X304.902 Y283.137
G01 X305.686 Y283.922
G01 X306.470 Y283.922
G01 X307.255 Y284.706
G01 X308.039 Y284.706
G01 X308.823 Y285.490
G01 X309.608 Y285.490
G01 X310.392 Y286.274
G01 X311.176 Y286.274
G01 X311.961 Y287.059
G01 X312.745 Y287.059
G01 X313.529 Y287.843
G01 X314.314 Y288.627
G01 X315.098 Y289.412
G01 X315.882 Y289.412
G01 X316.667 Y290.196
G01 X317.451 Y290.980
G01 X318.235 Y291.765
G01 X319.019 Y292.549
G01 X319.804 Y293.333
G01 X320.588 Y294.118
G01 X321.372 Y294.902
G01 X322.157 Y295.686
G01 X322.941 Y296.471
G01 X323.725 Y297.255
G01 X324.510 Y298.039
G01 X325.294 Y298.823
G01 X326.078 Y299.608
G01 X326.863 Y300.392
G01 X327.647 Y301.176
G01 X327.647 Y301.961
G01 X328.431 Y302.745
G01 X328.431 Y303.529
G01 X329.216 Y304.314
G01 X329.216 Y305.098
G01 X330.000 Y305.882
G01 X330.000 Y306.667
G01 X330.784 Y307.451
G01 X330.784 Y308.235
G01 X331.568 Y309.020
G01 X331.568 Y309.804
G01 X331.568 Y310.588
G01 X332.353 Y311.372
G01 X332.353 Y312.157
G01 X332.353 Y312.941
G01 X333.137 Y313.725
G01 X333.137 Y314.510
G01 X333.137 Y315.294
G01 X333.921 Y316.078
G01 X333.921 Y316.863
G01 X333.921 Y317.647
G01 X334.706 Y318.431
G01 X334.706 Y319.216
G01 X334.706 Y320.000
G01 X334.706 Y320.784
G01 X335.490 Y321.569
G01 X335.490 Y322.353
G01 X335.490 Y323.137
G01 X336.274 Y323.921
G01 X336.274 Y324.706
G01 X336.274 Y325.490
G01 X337.059 Y326.274
G01 X337.059 Y327.059
G01 X337.843 Y327.843
G01 X337.843 Y328.627
G01 X337.843 Y329.412
G01 X338.627 Y330.196
G01 X338.627 Y330.980
G01 X338.627 Y331.765
G01 X339.412 Y332.549
G01 X339.412 Y333.333
G01 X340.196 Y334.118
G01 X340.196 Y334.902
G01 X340.196 Y335.686
G01 X340.980 Y336.470
G01 X340.980 Y337.255
G01 X341.765 Y338.039
G01 X341.765 Y338.823
G01 X342.549 Y339.608
G01 X342.549 Y340.392
G01 X342.549 Y341.176
G01 X343.333 Y341.961
G01 X343.333 Y342.745
G01 X344.117 Y343.529
G01 X344.117 Y344.314
G01 X344.902 Y345.098
G01 X344.902 Y345.882
G01 X345.686 Y346.667
G01 X345.686 Y347.451
G01 X346.470 Y348.235
G01 X347.255 Y349.019
G01 X347.255 Y349.804
G01 X348.039 Y350.588
G01 X348.039 Y351.372
G01 X348.823 Y352.157
G01 X348.823 Y352.941
G01 X349.608 Y353.725
G01 X349.608 Y354.510
G01 X350.392 Y355.294
G01 X351.176 Y356.078
G01 X351.176 Y356.863
G01 X351.961 Y357.647
G01 X351.961 Y358.431
G01 X352.745 Y359.216
G01 X353.529 Y360.000
G01 X353.529 Y360.784
G01 X354.314 Y361.568
G01 X355.098 Y362.353
G01 X355.098 Y363.137
G01 X355.882 Y363.921
G01 X356.666 Y364.706
G01 X356.666 Y365.490
G01 X357.451 Y366.274
G01 X358.235 Y367.059
G01 X359.019 Y367.843
G01 X359.019 Y368.627
G01 X359.804 Y369.412
G01 X360.588 Y370.196
G01 X360.588 Y370.980
G01 X361.372 Y371.765
G01 X362.157 Y372.549
G01 X362.157 Y373.333
G01 X362.941 Y374.117
G01 X362.941 Y374.902
G01 X363.725 Y375.686
G01 X363.725 Y376.470
G01 X364.510 Y377.255
G01 X364.510 Y378.039
G01 X365.294 Y378.823
G01 X365.294 Y379.608
G01 X366.078 Y380.392
G01 X366.078 Y381.176
G01 X366.862 Y381.961
G01 X366.862 Y382.745
G01 X366.862 Y383.529
G01 X367.647 Y384.314
G01 X367.647 Y385.098
G01 X367.647 Y385.882
G01 X368.431 Y386.666
G01 X368.431 Y387.451
G01 X368.431 Y388.235
G01 X369.215 Y389.019
G01 X369.215 Y389.804
G01 X369.215 Y390.588
G01 X369.215 Y391.372
G01 X370.000 Y392.157
G01 X370.000 Y392.941
G01 X370.000 Y393.725
G01 X370.000 Y394.510
G01 X370.000 Y395.294
G01 X370.784 Y396.078
G01 X370.784 Y396.862
G01 X370.784 Y397.647
G01 X370.784 Y398.431
G01 X370.784 Y399.215
G01 X370.784 Y400.000
G01 X370.784 Y400.784
G01 X371.568 Y401.568
G01 X371.568 Y402.353
G01 X371.568 Y403.137
G01 X371.568 Y403.921
G01 X371.568 Y404.706
G01 X371.568 Y405.490
G01 X371.568 Y406.274
G01 X371.568 Y407.059
G01 X371.568 Y407.843
G01 X370.784 Y408.627
G01 X370.000 Y409.411
G01 X370.000 Y410.196
G01 X370.000 Y410.980
G01 X370.784 Y411.764
G01 X371.568 Y411.764
G01 X372.353 Y411.764
G01 X373.137 Y411.764
G01 X373.921 Y411.764
G01 X374.706 Y411.764
G01 X375.490 Y411.764
G01 X376.274 Y411.764
G01 X377.059 Y411.764
G01 X377.843 Y410.980
G01 X378.627 Y410.980
G01 X379.411 Y410.980
G01 X380.196 Y410.980
G01 X380.980 Y410.980
G01 X381.764 Y410.196
G01 X382.549 Y410.196
G01 X383.333 Y409.411
G01 X384.117 Y409.411
G01 X384.902 Y409.411
G01 X385.686 Y408.627
G01 X386.470 Y407.843
G01 X387.255 Y407.843
G01 X388.039 Y407.059
G01 X388.823 Y406.274
G01 X389.608 Y405.490
G01 X390.392 Y404.706
G01 X391.176 Y403.921
G01 X391.960 Y403.137
G01 X392.745 Y402.353
G01 X393.529 Y401.568
G01 X393.529 Y400.784
G01 X394.313 Y400.000
G01 X394.313 Y399.215
G01 X394.313 Y398.431
G01 X395.098 Y397.647
G01 X395.098 Y396.862
G01 X395.098 Y396.078
G01 X395.098 Y395.294
G01 X395.882 Y394.510
G01 X395.882 Y393.725
G01 X395.882 Y392.941
G01 X395.882 Y392.157
G01 X395.882 Y391.372
G01 X395.882 Y390.588
G01 X395.882 Y389.804
G01 X395.882 Y389.019
G01 X395.882 Y388.235
G01 X395.882 Y387.451
G01 X395.882 Y386.666
G01 X395.882 Y385.882
G01 X395.098 Y385.098
G01 X395.098 Y384.314
G01 X395.098 Y383.529
G01 X395.098 Y382.745
G01 X394.313 Y381.961
G01 X394.313 Y381.176
G01 X394.313 Y380.392
G01 X394.313 Y379.608
G01 X394.313 Y378.823
G01 X394.313 Y378.039
G01 X394.313 Y377.255
G01 X394.313 Y376.470
G01 X394.313 Y375.686
G01 X394.313 Y374.902
G01 X394.313 Y374.117
G01 X394.313 Y373.333
G01 X394.313 Y372.549
G01 X395.098 Y371.765
G01 X395.098 Y370.980
G01 X395.098 Y370.196
G01 X395.882 Y369.412
G01 X395.882 Y368.627
G01 X395.882 Y367.843
G01 X395.882 Y367.059
G01 X395.882 Y366.274
G01 X395.882 Y365.490
G01 X395.882 Y364.706
G01 X395.882 Y363.921
G01 X396.666 Y363.137
G01 X397.451 Y362.353
G01 X398.235 Y361.568
G01 X399.019 Y360.784
G01 X399.804 Y360.000
G01 X399.804 Y359.216
G01 X399.804 Y358.431
G01 X399.019 Y357.647
G01 X399.019 Y356.863
G01 X398.235 Y356.078
G01 X397.451 Y355.294
G01 X396.666 Y354.510
G01 X395.882 Y353.725
G01 X395.098 Y353.725
G01 X394.313 Y352.941
G01 X393.529 Y352.941
G01 X392.745 Y352.157
G01 X391.960 Y352.157
G01 X391.176 Y352.157
G01 X390.392 Y351.372
G01 X389.608 Y351.372
G01 X388.823 Y351.372
G01 X388.039 Y350.588
G01 X387.255 Y350.588
G01 X386.470 Y350.588
G01 X385.686 Y350.588
G01 X384.902 Y349.804
G01 X384.117 Y349.804
G01 X383.333 Y349.804
G01 X382.549 Y349.804
G01 X381.764 Y349.019
G01 X380.980 Y349.019
G01 X380.196 Y349.019
G01 X379.411 Y349.019
G01 X378.627 Y348.235
G01 X377.843 Y348.235
G01 X377.059 Y348.235
G01 X376.274 Y348.235
G01 X375.490 Y347.451
G01 X374.706 Y347.451
G01 X373.921 Y347.451
G01 X373.137 Y347.451
G01 X372.353 Y347.451
G01 X371.568 Y346.667
G01 X370.784 Y346.667
G01 X370.000 Y345.882
G01 X370.000 Y345.098
G01 X370.784 Y344.314
G01 X371.568 Y344.314
G01 X372.353 Y344.314
G01 X373.137 Y344.314
G01 X373.921 Y345.098
G01 X374.706 Y345.098
G01 X375.490 Y345.098
G01 X376.274 Y345.098
G01 X377.059 Y345.098
G01 X377.843 Y345.882
G01 X378.627 Y345.882
G01 X379.411 Y345.882
G01 X380.196 Y345.882
G01 X380.980 Y345.882
G01 X381.764 Y346.667
G01 X382.549 Y346.667
G01 X383.333 Y346.667
G01 X384.117 Y346.667
G01 X384.902 Y347.451
G01 X385.686 Y347.451
G01 X386.470 Y347.451
G01 X387.255 Y348.235
G01 X388.039 Y348.235
G01 X388.823 Y348.235
G01 X389.608 Y349.019
G01 X390.392 Y349.019
G01 X391.176 Y349.019
G01 X391.960 Y349.804
G01 X392.745 Y349.804
G01 X393.529 Y349.804
G01 X394.313 Y350.588
G01 X395.098 Y350.588
G01 X395.882 Y350.588
G01 X396.666 Y351.372
G01 X397.451 Y351.372
G01 X398.235 Y352.157
G01 X399.019 Y352.157
G01 X399.804 Y352.157
G01 X400.588 Y352.157
G01 X401.372 Y352.157
G01 X402.157 Y351.372
G01 X402.941 Y350.588
G01 X402.941 Y349.804
G01 X403.725 Y349.019
G01 X403.725 Y348.235
G01 X403.725 Y347.451
G01 X404.509 Y346.667
G01 X404.509 Y345.882
G01 X404.509 Y345.098
G01 X404.509 Y344.314
G01 X404.509 Y343.529
G01 X404.509 Y342.745
G01 X405.294 Y341.961
G01 X405.294 Y341.176
G01 X405.294 Y340.392
G01 X405.294 Y339.608
G01 X406.078 Y338.823
G01 X406.078 Y338.039
G01 X406.078 Y337.255
G01 X406.078 Y336.470
G01 X406.078 Y335.686
G01 X406.078 Y334.902
G01 X405.294 Y334.118
G01 X405.294 Y333.333
G01 X405.294 Y332.549
G01 X404.509 Y331.765
G01 X403.725 Y330.980
G01 X402.941 Y330.196
G01 X402.157 Y329.412
G01 X402.157 Y328.627
G01 X402.157 Y327.843
G01 X402.157 Y327.059
G01 X402.157 Y326.274
G01 X402.157 Y325.490
G01 X402.157 Y324.706
G01 X402.157 Y323.921
G01 X402.157 Y323.137
G01 X402.157 Y322.353
G01 X402.157 Y321.569
G01 X402.157 Y320.784
G01 X402.157 Y320.000
G01 X402.157 Y319.216
G01 X402.157 Y318.431
G01 X402.157 Y317.647
G01 X402.157 Y316.863
G01 X402.941 Y316.078
G01 X402.941 Y315.294
G01 X402.941 Y314.510
G01 X402.941 Y313.725
G01 X403.725 Y312.941
G01 X403.725 Y312.157
G01 X403.725 Y311.372
G01 X404.509 Y310.588
G01 X404.509 Y309.804
G01 X404.509 Y309.020
G01 X404.509 Y309.804
G01 X404.509 Y310.588
G01 X403.725 Y311.372
G01 X403.725 Y312.157
G01 X403.725 Y312.941
G01 X402.941 Y313.725
G01 X402.941 Y314.510
G01 X402.941 Y315.294
G01 X402.941 Y316.078
G01 X402.157 Y316.863
G01 X402.157 Y317.647
G01 X402.157 Y318.431
G01 X402.157 Y319.216
G01 X402.157 Y320.000
G01 X402.157 Y320.784
G01 X402.157 Y321.569
G01 X402.157 Y322.353
G01 X402.157 Y323.137
G01 X402.157 Y323.921
G01 X402.157 Y324.706
G01 X402.157 Y325.490
G01 X402.157 Y326.274
G01 X402.157 Y327.059
G01 X402.157 Y327.843
G01 X402.157 Y328.627
G01 X402.157 Y329.412
G01 X401.372 Y329.412
G01 X400.588 Y329.412
G01 X399.804 Y329.412
G01 X399.019 Y329.412
G01 X398.235 Y328.627
G01 X397.451 Y328.627
G01 X396.666 Y327.843
G01 X395.882 Y327.843
G01 X395.098 Y327.843
G01 X394.313 Y327.059
G01 X393.529 Y327.059
G01 X392.745 Y327.059
G01 X391.960 Y327.059
G01 X391.176 Y327.059
G01 X390.392 Y327.059
G01 X389.608 Y327.059
G01 X388.823 Y327.059
G01 X388.039 Y327.059
G01 X387.255 Y327.059
G01 X386.470 Y327.059
G01 X385.686 Y327.059
G01 X384.902 Y327.843
G01 X384.117 Y327.843
G01 X383.333 Y328.627
G01 X382.549 Y328.627
G01 X381.764 Y328.627
G01 X380.980 Y329.412
G01 X380.196 Y329.412
G01 X379.411 Y330.196
G01 X378.627 Y330.196
G01 X377.843 Y330.980
G01 X377.059 Y330.980
G01 X376.274 Y331.765
G01 X375.490 Y331.765
G01 X374.706 Y332.549
G01 X373.921 Y332.549
G01 X373.137 Y333.333
G01 X372.353 Y333.333
G01 X371.568 Y334.118
G01 X370.784 Y334.118
G01 X370.000 Y334.902
G01 X369.215 Y335.686
G01 X368.431 Y335.686
G01 X367.647 Y336.470
G01 X366.862 Y336.470
G01 X366.078 Y337.255
G01 X365.294 Y338.039
G01 X365.294 Y338.823
G01 X365.294 Y338.039
G01 X366.078 Y337.255
G01 X366.862 Y336.470
G01 X367.647 Y336.470
G01 X368.431 Y335.686
G01 X369.215 Y335.686
G01 X370.000 Y334.902
G01 X370.784 Y334.118
G01 X371.568 Y334.118
G01 X372.353 Y333.333
G01 X373.137 Y333.333
G01 X373.921 Y332.549
G01 X374.706 Y332.549
G01 X375.490 Y331.765
G01 X376.274 Y331.765
G01 X377.059 Y330.980
G01 X377.843 Y330.980
G01 X378.627 Y330.196
G01 X379.411 Y330.196
G01 X380.196 Y329.412
G01 X380.980 Y329.412
G01 X381.764 Y328.627
G01 X382.549 Y328.627
G01 X383.333 Y328.627
G01 X384.117 Y327.843
G01 X384.902 Y327.843
G01 X385.686 Y327.059
G01 X386.470 Y327.059
G01 X387.255 Y327.059
G01 X388.039 Y327.059
G01 X388.823 Y327.059
G01 X389.608 Y327.059
G01 X390.392 Y327.059
G01 X391.176 Y327.059
G01 X391.960 Y327.059
G01 X392.745 Y327.059
G01 X393.529 Y327.059
G01 X394.313 Y327.059
G01 X395.098 Y327.843
G01 X395.882 Y327.843
G01 X396.666 Y327.843
G01 X397.451 Y328.627
G01 X398.235 Y328.627
G01 X399.019 Y329.412
G01 X399.804 Y329.412
G01 X400.588 Y329.412
G01 X401.372 Y329.412
G01 X402.157 Y329.412
G01 X402.941 Y330.196
G01 X403.725 Y330.980
G01 X404.509 Y331.765
G01 X405.294 Y332.549
G01 X405.294 Y333.333
G01 X405.294 Y334.118
G01 X406.078 Y334.902
G01 X406.078 Y335.686
G01 X406.078 Y336.470
G01 X406.078 Y337.255
G01 X406.078 Y338.039
G01 X406.078 Y338.823
G01 X405.294 Y339.608
G01 X405.294 Y340.392
G01 X405.294 Y341.176
G01 X405.294 Y341.961
G01 X404.509 Y342.745
G01 X404.509 Y343.529
G01 X404.509 Y344.314
G01 X403.725 Y344.314
G01 X402.941 Y345.098
G01 X402.157 Y345.882
G01 X401.372 Y346.667
G01 X400.588 Y347.451
G01 X399.804 Y348.235
G01 X399.019 Y348.235
G01 X398.235 Y348.235
G01 X397.451 Y347.451
G01 X396.666 Y347.451
G01 X395.882 Y346.667
G01 X395.098 Y345.882
G01 X395.098 Y345.098
G01 X394.313 Y344.314
G01 X393.529 Y343.529
G01 X393.529 Y342.745
G01 X392.745 Y341.961
G01 X392.745 Y341.176
G01 X391.960 Y340.392
G01 X391.176 Y339.608
G01 X390.392 Y338.823
G01 X389.608 Y338.823
G01 X388.823 Y338.039
G01 X388.039 Y338.039
G01 X387.255 Y338.039
G01 X386.470 Y338.039
G01 X385.686 Y338.039
G01 X384.902 Y338.039
G01 X384.117 Y338.039
G01 X383.333 Y338.039
G01 X382.549 Y338.039
G01 X381.764 Y338.039
G01 X380.980 Y338.823
G01 X380.196 Y338.823
G01 X379.411 Y338.823
G01 X378.627 Y338.823
G01 X377.843 Y338.823
G01 X377.059 Y338.823
G01 X376.274 Y338.823
G01 X375.490 Y338.823
G01 X374.706 Y338.823
G01 X373.921 Y338.823
G01 X373.137 Y338.823
G01 X372.353 Y338.823
G01 X371.568 Y338.823
G01 X370.784 Y338.823
G01 X370.000 Y338.823
G01 X369.215 Y338.823
G01 X368.431 Y338.823
G01 X367.647 Y338.823
G01 X366.862 Y339.608
G01 X366.078 Y338.823
G01 X365.294 Y338.823
G01 X364.510 Y338.823
G01 X363.725 Y339.608
G01 X362.941 Y339.608
G01 X362.157 Y339.608
G01 X362.941 Y339.608
G01 X363.725 Y339.608
G01 X364.510 Y338.823
G01 X365.294 Y338.823
G01 X366.078 Y338.823
G01 X366.862 Y338.823
G01 X366.078 Y338.823
G01 X366.862 Y339.608
G01 X367.647 Y338.823
G01 X368.431 Y338.823
G01 X369.215 Y338.823
G01 X370.000 Y338.823
G01 X370.784 Y338.823
G01 X371.568 Y338.823
G01 X372.353 Y338.823
G01 X373.137 Y338.823
G01 X373.921 Y338.823
G01 X374.706 Y338.823
G01 X375.490 Y338.823
G01 X376.274 Y338.823
G01 X377.059 Y338.823
G01 X377.843 Y338.823
G01 X378.627 Y338.823
G01 X379.411 Y338.823
G01 X380.196 Y338.823
G01 X380.980 Y338.823
G01 X381.764 Y338.039
G01 X382.549 Y338.039
G01 X383.333 Y338.039
G01 X384.117 Y338.039
G01 X384.902 Y338.039
G01 X385.686 Y338.039
G01 X386.470 Y338.039
G01 X387.255 Y338.039
G01 X388.039 Y338.039
G01 X388.823 Y338.039
G01 X389.608 Y338.823
G01 X390.392 Y338.823
G01 X391.176 Y339.608
G01 X391.960 Y340.392
G01 X392.745 Y341.176
G01 X392.745 Y341.961
G01 X393.529 Y342.745
G01 X393.529 Y343.529
G01 X394.313 Y344.314
G01 X395.098 Y345.098
G01 X395.098 Y345.882
G01 X395.882 Y346.667
G01 X396.666 Y347.451
G01 X397.451 Y347.451
G01 X398.235 Y348.235
G01 X399.019 Y348.235
G01 X399.804 Y348.235
G01 X400.588 Y347.451
G01 X401.372 Y346.667
G01 X402.157 Y345.882
G01 X402.941 Y345.098
G01 X403.725 Y344.314
G01 X404.509 Y344.314
G01 X404.509 Y345.098
G01 X404.509 Y345.882
G01 X404.509 Y346.667
G01 X403.725 Y347.451
G01 X403.725 Y348.235
G01 X403.725 Y349.019
G01 X402.941 Y349.804
G01 X402.941 Y350.588
G01 X402.157 Y351.372
G01 X401.372 Y352.157
G01 X400.588 Y352.157
G01 X399.804 Y352.157
G01 X399.019 Y352.157
G01 X398.235 Y352.157
G01 X397.451 Y351.372
G01 X396.666 Y351.372
G01 X395.882 Y350.588
G01 X395.098 Y350.588
G01 X394.313 Y350.588
G01 X393.529 Y349.804
G01 X392.745 Y349.804
G01 X391.960 Y349.804
G01 X391.176 Y349.019
G01 X390.392 Y349.019
G01 X389.608 Y349.019
G01 X388.823 Y348.235
G01 X388.039 Y348.235
G01 X387.255 Y348.235
G01 X386.470 Y347.451
G01 X385.686 Y347.451
G01 X384.902 Y347.451
G01 X384.117 Y346.667
G01 X383.333 Y346.667
G01 X382.549 Y346.667
G01 X381.764 Y346.667
G01 X380.980 Y345.882
G01 X380.196 Y345.882
G01 X379.411 Y345.882
G01 X378.627 Y345.882
G01 X377.843 Y345.882
G01 X377.059 Y345.098
G01 X376.274 Y345.098
G01 X375.490 Y345.098
G01 X374.706 Y345.098
G01 X373.921 Y345.098
G01 X373.137 Y344.314
G01 X372.353 Y344.314
G01 X371.568 Y344.314
G01 X370.784 Y344.314
G01 X370.000 Y345.098
G01 X369.215 Y345.098
G01 X369.215 Y345.882
G01 X369.215 Y345.098
G01 X368.431 Y345.098
G01 X367.647 Y345.098
G01 X366.862 Y345.098
G01 X366.078 Y345.098
G01 X365.294 Y345.098
G01 X364.510 Y345.098
G01 X363.725 Y345.098
G01 X362.941 Y345.098
G01 X362.157 Y345.882
G01 X362.941 Y345.098
G01 X363.725 Y345.098
G01 X364.510 Y345.098
G01 X365.294 Y345.098
G01 X366.078 Y345.098
G01 X366.862 Y345.098
G01 X367.647 Y345.098
G01 X368.431 Y345.098
G01 X369.215 Y345.098
G01 X370.000 Y345.098
G01 X370.000 Y345.882
G01 X369.215 Y345.882
G01 X370.000 Y345.882
G01 X370.784 Y346.667
G01 X371.568 Y346.667
G01 X372.353 Y347.451
G01 X373.137 Y347.451
G01 X373.921 Y347.451
G01 X374.706 Y347.451
G01 X375.490 Y347.451
G01 X376.274 Y348.235
G01 X377.059 Y348.235
G01 X377.843 Y348.235
G01 X378.627 Y348.235
G01 X379.411 Y349.019
G01 X380.196 Y349.019
G01 X380.980 Y349.019
G01 X381.764 Y349.019
G01 X382.549 Y349.804
G01 X383.333 Y349.804
G01 X384.117 Y349.804
G01 X384.902 Y349.804
G01 X385.686 Y350.588
G01 X386.470 Y350.588
G01 X387.255 Y350.588
G01 X388.039 Y350.588
G01 X388.823 Y351.372
G01 X389.608 Y351.372
G01 X390.392 Y351.372
G01 X391.176 Y352.157
G01 X391.960 Y352.157
G01 X392.745 Y352.157
G01 X393.529 Y352.941
G01 X394.313 Y352.941
G01 X395.098 Y353.725
G01 X395.882 Y353.725
G01 X396.666 Y354.510
G01 X397.451 Y355.294
G01 X398.235 Y356.078
G01 X399.019 Y356.863
G01 X399.019 Y357.647
G01 X399.804 Y358.431
G01 X399.804 Y359.216
G01 X399.804 Y360.000
G01 X399.019 Y360.784
G01 X398.235 Y361.568
G01 X397.451 Y362.353
G01 X396.666 Y363.137
G01 X395.882 Y363.921
G01 X395.098 Y363.137
G01 X394.313 Y362.353
G01 X393.529 Y362.353
G01 X392.745 Y361.568
G01 X391.960 Y360.784
G01 X391.176 Y360.784
G01 X390.392 Y360.000
G01 X389.608 Y359.216
G01 X388.823 Y359.216
G01 X388.039 Y358.431
G01 X387.255 Y357.647
G01 X386.470 Y357.647
G01 X385.686 Y356.863
G01 X384.902 Y356.078
G01 X384.117 Y356.078
G01 X383.333 Y356.078
G01 X384.117 Y356.078
G01 X384.902 Y356.078
G01 X385.686 Y356.863
G01 X386.470 Y357.647
G01 X387.255 Y357.647
G01 X388.039 Y358.431
G01 X388.823 Y359.216
G01 X389.608 Y359.216
G01 X390.392 Y360.000
G01 X391.176 Y360.784
G01 X391.960 Y360.784
G01 X392.745 Y361.568
G01 X393.529 Y362.353
G01 X394.313 Y362.353
G01 X395.098 Y363.137
G01 X395.882 Y363.921
G01 X395.882 Y364.706
G01 X395.882 Y365.490
G01 X395.882 Y366.274
G01 X395.882 Y367.059
G01 X395.882 Y367.843
G01 X395.882 Y368.627
G01 X395.882 Y369.412
G01 X395.098 Y370.196
G01 X395.098 Y370.980
G01 X395.098 Y371.765
G01 X394.313 Y372.549
G01 X394.313 Y373.333
G01 X394.313 Y374.117
G01 X394.313 Y374.902
G01 X394.313 Y375.686
G01 X394.313 Y376.470
G01 X394.313 Y377.255
G01 X394.313 Y378.039
G01 X394.313 Y378.823
G01 X394.313 Y379.608
G01 X394.313 Y380.392
G01 X394.313 Y381.176
G01 X394.313 Y381.961
G01 X395.098 Y382.745
G01 X395.098 Y383.529
G01 X395.098 Y384.314
G01 X395.098 Y385.098
G01 X395.882 Y385.882
G01 X395.882 Y386.666
G01 X395.882 Y387.451
G01 X395.882 Y388.235
G01 X395.882 Y389.019
G01 X395.882 Y389.804
G01 X395.882 Y390.588
G01 X395.882 Y391.372
G01 X395.882 Y392.157
G01 X395.882 Y392.941
G01 X395.882 Y393.725
G01 X395.882 Y394.510
G01 X395.098 Y395.294
G01 X395.098 Y396.078
G01 X395.098 Y396.862
G01 X395.098 Y397.647
G01 X394.313 Y398.431
G01 X394.313 Y399.215
G01 X394.313 Y400.000
G01 X393.529 Y400.784
G01 X393.529 Y401.568
G01 X392.745 Y402.353
G01 X391.960 Y403.137
G01 X391.176 Y403.921
G01 X390.392 Y404.706
G01 X389.608 Y405.490
G01 X388.823 Y406.274
G01 X388.039 Y407.059
G01 X387.255 Y407.843
G01 X386.470 Y407.843
G01 X385.686 Y408.627
G01 X384.902 Y409.411
G01 X384.117 Y409.411
G01 X383.333 Y409.411
G01 X382.549 Y410.196
G01 X381.764 Y410.196
G01 X380.980 Y410.980
G01 X380.196 Y410.980
G01 X379.411 Y410.980
G01 X378.627 Y410.980
G01 X377.843 Y410.980
G01 X377.059 Y411.764
G01 X376.274 Y411.764
G01 X375.490 Y411.764
G01 X374.706 Y411.764
G01 X373.921 Y411.764
G01 X373.137 Y411.764
G01 X372.353 Y411.764
G01 X371.568 Y411.764
G01 X370.784 Y411.764
G01 X370.000 Y410.980
G01 X369.215 Y410.980
G01 X368.431 Y410.980
G01 X367.647 Y410.980
G01 X366.862 Y410.980
G01 X366.078 Y410.980
G01 X365.294 Y410.196
G01 X364.510 Y410.196
G01 X364.510 Y409.411
G01 X363.725 Y408.627
G01 X362.941 Y408.627
G01 X362.157 Y407.843
G01 X361.372 Y407.843
G01 X360.588 Y407.843
G01 X359.804 Y407.843
G01 X359.019 Y407.059
G01 X358.235 Y407.059
G01 X357.451 Y407.059
G01 X356.666 Y407.059
G01 X355.882 Y406.274
G01 X355.098 Y406.274
G01 X354.314 Y406.274
G01 X353.529 Y405.490
G01 X352.745 Y405.490
G01 X351.961 Y405.490
G01 X351.176 Y405.490
G01 X350.392 Y404.706
G01 X349.608 Y404.706
G01 X348.823 Y404.706
G01 X348.039 Y403.921
G01 X347.255 Y403.921
G01 X346.470 Y403.921
G01 X345.686 Y403.137
G01 X344.902 Y403.137
G01 X344.117 Y403.137
G01 X343.333 Y403.137
G01 X342.549 Y402.353
G01 X341.765 Y402.353
G01 X340.980 Y402.353
G01 X340.196 Y402.353
G01 X339.412 Y401.568
G01 X338.627 Y401.568
G01 X337.843 Y401.568
G01 X337.059 Y400.784
G01 X336.274 Y400.784
G01 X335.490 Y400.784
G01 X334.706 Y400.000
G01 X333.921 Y400.000
G01 X333.137 Y400.000
G01 X332.353 Y400.000
G01 X331.568 Y399.215
G01 X330.784 Y399.215
G01 X330.000 Y399.215
G01 X329.216 Y398.431
G01 X328.431 Y398.431
G01 X327.647 Y398.431
G01 X326.863 Y397.647
G01 X326.078 Y397.647
G01 X325.294 Y397.647
G01 X324.510 Y397.647
G01 X323.725 Y396.862
G01 X322.941 Y396.862
G01 X322.157 Y396.862
G01 X321.372 Y396.078
G01 X320.588 Y396.078
G01 X319.804 Y396.078
G01 X319.019 Y395.294
G01 X318.235 Y395.294
G01 X317.451 Y395.294
G01 X316.667 Y394.510
G01 X315.882 Y394.510
G01 X315.098 Y394.510
G01 X314.314 Y394.510
G01 X313.529 Y393.725
G01 X312.745 Y393.725
G01 X311.961 Y393.725
G01 X311.176 Y392.941
G01 X310.392 Y392.941
G01 X309.608 Y392.941
G01 X308.823 Y392.157
G01 X308.039 Y392.157
G01 X307.255 Y392.157
G01 X306.470 Y391.372
G01 X305.686 Y391.372
G01 X304.902 Y391.372
G01 X304.118 Y390.588
G01 X303.333 Y390.588
G01 X302.549 Y390.588
G01 X301.765 Y389.804
G01 X300.980 Y389.804
G01 X300.196 Y389.804
G01 X299.412 Y389.019
G01 X298.627 Y389.019
G01 X297.843 Y389.019
G01 X297.059 Y388.235
G01 X296.274 Y388.235
G01 X295.490 Y388.235
G01 X294.706 Y387.451
G01 X293.921 Y387.451
G01 X293.137 Y387.451
G01 X292.353 Y386.666
G01 X291.569 Y386.666
G01 X290.784 Y386.666
G01 X290.000 Y386.666
G01 X289.216 Y385.882
G01 X288.431 Y385.882
G01 X287.647 Y385.098
G01 X286.863 Y385.098
G01 X286.078 Y385.098
G01 X285.294 Y384.314
G01 X284.510 Y384.314
G01 X283.725 Y384.313
G01 X282.941 Y383.529
G01 X282.157 Y383.529
G01 X281.372 Y383.529
G01 X280.588 Y382.745
G01 X279.804 Y382.745
G01 X279.020 Y382.745
G01 X278.235 Y381.961
G01 X277.451 Y381.961
G01 X276.667 Y381.176
G01 X275.882 Y381.176
G01 X275.098 Y381.176
G01 X274.314 Y380.392
G01 X273.529 Y380.392
G01 X272.745 Y380.392
G01 X271.961 Y379.608
G01 X271.176 Y379.608
G01 X270.392 Y378.823
G01 X269.608 Y378.823
G01 X268.823 Y378.039
G01 X268.039 Y378.039
G01 X267.255 Y378.039
G01 X266.471 Y377.255
G01 X265.686 Y377.255
G01 X264.902 Y376.470
G01 X264.118 Y376.470
G01 X263.333 Y375.686
G01 X262.549 Y375.686
G01 X261.765 Y374.902
G01 X260.980 Y374.902
G01 X260.196 Y374.117
G01 X259.412 Y373.333
G01 X258.627 Y373.333
G01 X257.843 Y372.549
G01 X257.059 Y371.765
G01 X256.274 Y370.980
G01 X255.490 Y370.196
G01 X255.490 Y369.412
G01 X254.706 Y368.627
G01 X254.706 Y367.843
G01 X254.706 Y367.059
G01 X253.922 Y366.274
G01 X253.922 Y365.490
G01 X253.922 Y364.706
G01 X253.137 Y363.921
G01 X253.137 Y363.137
G01 X252.353 Y362.353
G01 X252.353 Y361.568
G01 X252.353 Y360.784
G01 X251.569 Y360.000
G01 X251.569 Y359.216
G01 X251.569 Y358.431
G01 X250.784 Y357.647
G01 X250.784 Y356.863
G01 X250.784 Y356.078
G01 X250.000 Y355.294
G01 X250.000 Y354.510
G01 X250.000 Y353.725
G01 X249.216 Y352.941
G01 X249.216 Y352.157
G01 X249.216 Y351.372
G01 X248.431 Y350.588
G01 X248.431 Y349.804
G01 X248.431 Y349.019
G01 X247.647 Y348.235
G01 X247.647 Y347.451
G01 X247.647 Y346.667
G01 X246.863 Y345.882
G01 X246.863 Y345.098
G01 X246.863 Y344.314
G01 X246.078 Y343.529
G01 X246.078 Y342.745
G01 X245.294 Y341.961
G01 X245.294 Y341.176
G01 X245.294 Y340.392
G01 X244.510 Y339.608
G01 X244.510 Y338.823
G01 X244.510 Y338.039
G01 X244.510 Y337.255
G01 X243.726 Y336.470
G01 X243.726 Y335.686
G01 X243.726 Y334.902
G01 X242.941 Y334.118
G01 X242.941 Y333.333
G01 X242.157 Y332.549
G01 X242.157 Y331.765
G01 X242.157 Y330.980
G01 X241.373 Y330.196
G01 X241.373 Y329.412
G01 X241.373 Y328.627
G01 X240.588 Y327.843
G01 X240.588 Y327.059
G01 X240.588 Y326.274
G01 X239.804 Y325.490
G01 X239.804 Y324.706
G01 X239.804 Y323.921
G01 X239.804 Y323.137
G01 X239.020 Y322.353
G01 X239.020 Y321.569
G01 X239.020 Y320.784
G01 X238.235 Y320.000
G01 X238.235 Y319.216
G01 X238.235 Y318.431
G01 X237.451 Y317.647
G01 X237.451 Y316.863
G01 X236.667 Y316.078
G01 X235.882 Y315.294
G01 X235.098 Y314.510
G01 X234.314 Y313.725
G01 X233.529 Y313.725
G01 X232.745 Y313.725
G01 X231.961 Y313.725
G01 X231.177 Y313.725
G01 X230.392 Y313.725
G01 X229.608 Y313.725
G01 X228.824 Y313.725
G01 X228.039 Y313.725
G01 X227.255 Y313.725
G01 X226.471 Y313.725
G01 X225.686 Y313.725
G01 X224.902 Y313.725
G01 X224.118 Y313.725
G01 X223.333 Y313.725
G01 X222.549 Y312.941
G01 X221.765 Y312.941
G01 X220.980 Y312.941
G01 X220.196 Y312.941
G01 X219.412 Y312.941
G01 X218.628 Y312.941
G01 X217.843 Y312.941
G01 X217.059 Y312.157
G01 X216.275 Y312.157
G01 X215.490 Y312.157
G01 X214.706 Y312.157
G01 X213.922 Y311.372
G01 X213.137 Y311.372
G01 X212.353 Y311.372
G01 X211.569 Y311.372
G01 X210.784 Y310.588
G01 X210.000 Y310.588
G01 X209.216 Y310.588
G01 X208.431 Y309.804
G01 X207.647 Y309.804
G01 X206.863 Y309.804
G01 X206.079 Y309.020
G01 X205.294 Y309.020
G01 X204.510 Y309.020
G01 X203.726 Y308.235
G01 X202.941 Y308.235
G01 X202.157 Y307.451
G01 X201.373 Y307.451
G01 X200.588 Y306.667
G01 X199.804 Y305.882
G01 X199.020 Y305.882
G01 X198.235 Y305.098
G01 X197.451 Y304.314
G01 X196.667 Y304.314
G01 X195.882 Y303.529
G01 X195.098 Y302.745
G01 X194.314 Y301.961
G01 X193.530 Y301.961
G01 X192.745 Y301.176
G01 X191.961 Y300.392
G01 X191.177 Y299.608
G01 X190.392 Y298.823
G01 X189.608 Y298.039
G01 X188.824 Y297.255
G01 X188.039 Y296.471
G01 X187.255 Y295.686
G01 X187.255 Y294.902
G01 X186.471 Y294.118
G01 X186.471 Y293.333
G01 X185.686 Y292.549
G01 X185.686 Y291.765
G01 X184.902 Y290.980
G01 X184.902 Y290.196
G01 X184.902 Y289.412
G01 X185.686 Y288.627
G01 X186.471 Y287.843
G01 X187.255 Y287.843
G01 X188.039 Y287.059
G01 X188.824 Y287.059
G01 X189.608 Y286.274
G01 X190.392 Y286.274
G01 X191.177 Y286.274
G01 X191.961 Y285.490
G01 X192.745 Y285.490
G01 X193.530 Y284.706
G01 X194.314 Y284.706
G01 X195.098 Y283.922
G01 X195.882 Y283.922
G01 X196.667 Y283.137
G01 X197.451 Y283.137
G01 X198.235 Y283.137
G01 X199.020 Y282.353
G01 X199.804 Y282.353
G01 X200.588 Y281.569
G01 X201.373 Y281.569
G01 X202.157 Y280.784
G01 X202.941 Y280.784
G01 X203.726 Y280.000
G01 X204.510 Y280.000
G01 X205.294 Y279.216
G01 X206.079 Y279.216
G01 X206.863 Y279.216
G01 X207.647 Y278.431
G01 X208.431 Y278.431
G01 X209.216 Y277.647
G01 X210.000 Y277.647
G01 X210.784 Y276.863
G01 X211.569 Y276.863
G01 X212.353 Y276.078
G01 X213.137 Y276.078
G01 X213.922 Y275.294
G01 X214.706 Y275.294
G01 X215.490 Y275.294
G01 X216.275 Y274.510
G01 X217.059 Y274.510
G01 X217.843 Y273.726
G01 X218.628 Y273.726
G01 X219.412 Y272.941
G01 X220.196 Y272.941
G01 X220.980 Y272.157
G01 X221.765 Y272.157
G01 X222.549 Y271.373
G01 X223.333 Y271.373
G01 X224.118 Y270.588
G01 X224.902 Y270.588
G01 X225.686 Y269.804
G01 X226.471 Y269.804
G01 X227.255 Y269.804
G01 X228.039 Y269.020
G01 X228.824 Y269.020
G01 X229.608 Y268.235
G01 X230.392 Y268.235
G01 X231.177 Y267.451
G01 X231.961 Y267.451
G01 X232.729 Y266.682
G01 X232.745 Y266.667
G01 X233.529 Y266.667
G01 X234.265 Y265.929
G01 X234.314 Y265.882
G01 X235.098 Y265.882
G01 X235.809 Y265.168
G01 X235.882 Y265.098
G01 X236.667 Y265.098
G01 X237.362 Y264.398
G01 X237.451 Y264.314
G01 X238.235 Y264.314
G01 X238.926 Y263.618
G01 X239.020 Y263.529
G01 X239.804 Y263.529
G01 X240.502 Y262.827
G01 X240.588 Y262.745
G01 X241.373 Y262.745
G01 X242.090 Y262.024
G01 X242.157 Y261.961
G01 X242.941 Y261.961
G01 X243.691 Y261.209
G01 X243.726 Y261.177
G01 X244.510 Y261.177
G01 X245.294 Y260.392
G01 X246.078 Y260.392
G01 X246.863 Y259.608
G01 X247.647 Y259.608
G01 X248.431 Y258.824
G01 X249.216 Y258.824
G01 X250.000 Y258.039
G01 X250.784 Y258.039
G01 X251.569 Y257.255
G01 X252.353 Y257.255
G01 X253.137 Y256.471
G01 X253.922 Y255.686
G01 X254.706 Y255.686
G01 X255.490 Y254.902
G01 X256.274 Y254.902
G01 X257.059 Y254.118
G01 X257.843 Y254.118
G01 X258.627 Y253.333
G01 X259.412 Y253.333
G01 X260.196 Y252.549
G01 X260.980 Y252.549
G01 X261.765 Y251.765
G01 X262.549 Y251.765
G01 X263.333 Y250.980
G01 X264.118 Y250.196
G01 X264.902 Y250.196
G01 X265.686 Y249.412
G01 X266.471 Y249.412
G01 X267.255 Y248.628
G01 X268.039 Y247.843
G01 X268.823 Y247.843
G01 X269.608 Y247.059
G01 X270.392 Y247.059
G01 X271.176 Y246.275
G01 X271.961 Y245.490
G01 X272.745 Y245.490
G01 X273.529 Y244.706
G01 X274.314 Y244.706
G01 X275.098 Y243.922
G01 X275.882 Y243.137
G01 X276.667 Y243.137
G01 X277.451 Y242.353
G01 X278.235 Y242.353
G01 X279.020 Y241.569
G01 X279.804 Y240.784
G01 X280.588 Y240.784
G01 X281.372 Y240.000
G01 X282.157 Y239.216
G01 X282.941 Y239.216
G01 X283.725 Y238.431
G01 X284.510 Y237.647
G01 X285.294 Y237.647
G01 X286.078 Y236.863
G01 X286.863 Y236.079
G01 X287.647 Y236.079
G01 X288.431 Y235.294
G01 X289.216 Y234.510
G01 X290.000 Y234.510
G01 X290.784 Y233.726
G01 X291.569 Y232.941
G01 X292.353 Y232.157
G01 X293.137 Y231.373
G01 X293.921 Y230.588
G01 X294.706 Y229.804
G01 X295.490 Y229.020
G01 X296.274 Y228.235
G01 X297.059 Y227.451
G01 X297.843 Y226.667
G01 X298.627 Y225.882
G01 X299.412 Y225.098
G01 X300.196 Y224.314
G01 X300.196 Y223.530
G01 X300.980 Y222.745
G01 X301.765 Y221.961
G01 X302.549 Y221.177
G01 X303.333 Y221.177
G01 X304.118 Y220.392
G01 X304.902 Y220.392
G01 X305.686 Y220.392
G01 X306.470 Y219.608
G01 X307.255 Y219.608
G01 X308.039 Y219.608
G01 X308.823 Y218.824
G01 X309.608 Y218.824
G01 X310.392 Y218.824
G01 X311.176 Y218.039
G01 X311.961 Y218.039
G01 X312.745 Y218.039
G01 X313.529 Y218.039
G01 X314.314 Y218.039
G01 X315.098 Y218.039
G01 X315.098 Y218.824
G01 X315.098 Y219.608
G01 X315.098 Y220.392
G01 X314.314 Y221.177
G01 X314.314 Y221.961
G01 X314.314 Y222.745
G01 X314.314 Y223.530
G01 X314.314 Y224.314
G01 X315.098 Y225.098
G01 X315.882 Y225.882
G01 X316.667 Y226.667
G01 X317.451 Y227.451
G01 X318.235 Y228.235
G01 X319.019 Y229.020
G01 X319.804 Y229.804
G01 X319.804 Y230.588
G01 X319.804 Y231.373
G01 X319.804 Y232.157
G01 X319.804 Y232.941
G01 X320.588 Y233.726
G01 X321.372 Y232.941
G01 X322.157 Y232.941
G01 X322.941 Y232.157
G01 X323.725 Y232.157
G01 X324.510 Y231.373
G01 X325.294 Y231.373
G01 X326.078 Y231.373
G01 X326.863 Y230.588
G01 X327.647 Y230.588
G01 X328.431 Y230.588
G01 X329.216 Y229.804
G01 X330.000 Y229.804
G01 X330.784 Y229.804
G01 X331.568 Y229.804
G01 X332.353 Y229.804
G01 X333.137 Y229.020
G01 X333.921 Y229.020
G01 X334.706 Y229.020
G01 X335.490 Y229.020
G01 X336.274 Y229.020
G01 X337.059 Y229.020
G01 X337.843 Y229.020
G01 X338.627 Y229.020
G01 X339.412 Y229.804
G01 X340.196 Y229.804
G01 X340.980 Y229.804
G01 X341.765 Y229.804
G01 X342.549 Y229.804
G01 X343.333 Y229.804
G01 X344.117 Y230.588
G01 X344.902 Y230.588
G01 X345.686 Y230.588
G01 X346.470 Y231.373
G01 X347.255 Y231.373
G01 X348.039 Y231.373
G01 X348.823 Y232.157
G01 X349.608 Y232.157
G01 X350.392 Y232.157
G01 X351.176 Y232.941
G01 X351.961 Y232.941
G01 X352.745 Y233.726
G01 X353.529 Y234.510
G01 X354.314 Y234.510
G01 X355.098 Y235.294
G01 X355.882 Y236.079
G01 X356.666 Y236.863
G01 X357.451 Y237.647
G01 X358.235 Y238.431
G01 X359.019 Y239.216
G01 X359.804 Y240.000
G01 X360.588 Y240.784
G01 X360.588 Y241.569
G01 X361.372 Y242.353
G01 X361.372 Y243.137
G01 X362.157 Y243.922
G01 X362.157 Y244.706
G01 X362.157 Y245.490
G01 X362.157 Y246.275
G01 X362.157 Y247.059
G01 X362.157 Y247.843
G01 X362.157 Y248.628
G01 X361.372 Y249.412
G01 X360.588 Y249.412
G01 X359.804 Y250.196
G01 X359.019 Y250.196
G01 X358.235 Y249.412
G01 X357.451 Y249.412
G01 X356.666 Y249.412
G01 X355.882 Y249.412
G01 X355.098 Y249.412
G01 X354.314 Y249.412
G01 X353.529 Y248.628
G01 X352.745 Y247.843
G01 X351.961 Y247.843
G01 X351.176 Y247.843
G01 X350.392 Y247.059
G01 X349.608 Y247.059
G01 X348.823 Y247.059
G01 X348.039 Y247.059
G01 X347.255 Y246.275
G01 X346.470 Y246.275
G01 X345.686 Y246.275
G01 X344.902 Y246.275
G01 X344.117 Y246.275
G01 X343.333 Y245.490
G01 X342.549 Y245.490
G01 X341.765 Y245.490
G01 X340.980 Y245.490
G01 X340.196 Y245.490
G01 X339.412 Y245.490
G01 X338.627 Y244.706
G01 X337.843 Y244.706
G01 X337.059 Y244.706
G01 X336.274 Y244.706
G01 X335.490 Y244.706
G01 X334.706 Y244.706
G01 X333.921 Y244.706
G01 X333.137 Y244.706
G01 X332.353 Y244.706
G01 X331.568 Y244.706
G01 X330.784 Y244.706
G01 X330.000 Y243.922
G01 X329.216 Y243.922
G01 X328.431 Y243.922
G01 X327.647 Y243.922
G01 X326.863 Y243.922
G01 X326.078 Y243.922
G01 X325.294 Y243.922
G01 X324.510 Y243.922
G01 X323.725 Y243.922
G01 X322.941 Y243.922
G01 X322.941 Y243.137
G01 X322.941 Y242.353
G01 X323.725 Y241.569
G01 X322.941 Y242.353
G01 X322.941 Y243.137
G01 X322.941 Y243.922
G01 X322.941 Y244.706
G01 X322.941 Y245.490
G01 X322.941 Y244.706
G01 X322.941 Y243.922
G01 X323.725 Y243.922
G01 X324.510 Y243.922
G01 X325.294 Y243.922
G01 X326.078 Y243.922
G01 X326.863 Y243.922
G01 X327.647 Y243.922
G01 X328.431 Y243.922
G01 X329.216 Y243.922
G01 X330.000 Y243.922
G01 X330.784 Y244.706
G01 X331.568 Y244.706
G01 X332.353 Y244.706
G01 X333.137 Y244.706
G01 X333.921 Y244.706
G01 X334.706 Y244.706
G01 X335.490 Y244.706
G01 X336.274 Y244.706
G01 X337.059 Y244.706
G01 X337.843 Y244.706
G01 X338.627 Y244.706
G01 X339.412 Y245.490
G01 X340.196 Y245.490
G01 X340.980 Y245.490
G01 X341.765 Y245.490
G01 X342.549 Y245.490
G01 X343.333 Y245.490
G01 X344.117 Y246.275
G01 X344.902 Y246.275
G01 X345.686 Y246.275
G01 X346.470 Y246.275
G01 X347.255 Y246.275
G01 X348.039 Y247.059
G01 X348.823 Y247.059
G01 X349.608 Y247.059
G01 X350.392 Y247.059
G01 X351.176 Y247.843
G01 X351.961 Y247.843
G01 X352.745 Y247.843
G01 X353.529 Y248.628
G01 X354.314 Y249.412
G01 X354.313 Y250.196
G01 X354.314 Y250.980
G01 X354.314 Y251.765
G01 X353.529 Y251.765
G01 X352.745 Y251.765
G01 X351.961 Y251.765
G01 X351.176 Y252.549
G01 X350.392 Y253.333
G01 X349.608 Y253.333
G01 X348.823 Y254.118
G01 X348.039 Y254.902
G01 X347.255 Y255.686
G01 X346.470 Y256.471
G01 X345.686 Y256.471
G01 X344.902 Y256.471
G01 X344.117 Y256.471
G01 X343.333 Y256.471
G01 X342.549 Y256.471
G01 X341.765 Y256.471
G01 X340.980 Y256.471
G01 X340.980 Y255.686
G01 X340.980 Y254.902
G01 X340.980 Y254.118
G01 X340.196 Y253.333
G01 X339.412 Y252.549
G01 X338.627 Y251.765
G01 X337.843 Y250.980
G01 X337.059 Y250.196
G01 X336.274 Y249.412
G01 X335.490 Y248.628
G01 X334.706 Y248.628
G01 X333.921 Y248.628
G01 X333.137 Y247.843
G01 X332.353 Y247.843
G01 X331.568 Y247.843
G01 X330.784 Y247.843
G01 X330.000 Y247.843
G01 X329.216 Y247.059
G01 X328.431 Y247.059
G01 X327.647 Y247.059
G01 X326.863 Y247.059
G01 X326.078 Y247.059
G01 X325.294 Y247.843
G01 X326.078 Y247.059
G01 X326.863 Y247.059
G01 X327.647 Y247.059
G01 X328.431 Y247.059
G01 X329.216 Y247.059
G01 X330.000 Y247.843
G01 X330.784 Y247.843
G01 X331.568 Y247.843
G01 X332.353 Y247.843
G01 X333.137 Y247.843
G01 X333.921 Y248.628
G01 X334.706 Y248.628
G01 X335.490 Y248.628
G01 X336.274 Y249.412
G01 X337.059 Y250.196
G01 X337.843 Y250.980
G01 X338.627 Y251.765
G01 X339.412 Y252.549
G01 X340.196 Y253.333
G01 X340.980 Y254.118
G01 X340.980 Y254.902
G01 X340.980 Y255.686
G01 X340.980 Y256.471
G01 X340.196 Y256.471
G01 X339.412 Y256.471
G01 X338.627 Y256.471
G01 X337.843 Y255.686
G01 X337.059 Y255.686
