;  Created by Sandify
;  https://sandify.org
;  Version: 0.2.6
;
;  Machine type: Rectangular
;    Min X (mm): 0
;    Max X (mm): 500
;    Min Y (mm): 0
;    Max Y (mm): 500
;  Content type: shape
;  Layer:
;    Shape: FileImport
;    Name: WinterbourneStokeDown 7-18-2018.thr
;    From file:: WinterbourneStokeDown 7-18-2018.thr
;    Aspect Ratio: true
;    Comments: 
;    Visible: true
;    Initial width: 10
;    Initial height: 10
;    X offset: 0
;    Y offset: 0
;    Rotate (degrees): 0
;    Reverse path: false
;    Fine tuning:
;      Connect to next layer: line
;      Draw portion of path (%): 100
;      Backtrack at end (%): 0
;      Rotate starting point (%): 0
;  Reverse export path: false
;
; File name: 'WinterbourneStokedown (C C)'
; File type: gcode
;

G01 X250.000 Y250.000
G01 X250.000 Y250.725
G01 X250.000 Y458.775
G01 X249.958 Y458.800
G01 X249.896 Y458.825
G01 X249.833 Y458.850
G01 X249.749 Y458.825
G01 X249.687 Y458.800
G01 X249.603 Y458.750
G01 X249.562 Y458.675
G01 X249.520 Y458.574
G01 X249.521 Y458.449
G01 X249.521 Y458.324
G01 X249.563 Y458.200
G01 X249.625 Y458.100
G01 X249.709 Y457.975
G01 X249.813 Y457.875
G01 X249.958 Y457.800
G01 X250.145 Y457.750
G01 X250.332 Y457.725
G01 X250.519 Y457.749
G01 X250.727 Y457.799
G01 X250.935 Y457.873
G01 X251.123 Y457.997
G01 X251.291 Y458.171
G01 X251.438 Y458.370
G01 X251.544 Y458.594
G01 X251.608 Y458.869
G01 X251.631 Y459.144
G01 X251.592 Y459.444
G01 X251.510 Y459.745
G01 X251.365 Y460.021
G01 X251.199 Y460.272
G01 X250.968 Y460.523
G01 X250.695 Y460.724
G01 X250.380 Y460.875
G01 X250.021 Y460.950
G01 X249.641 Y460.975
G01 X249.262 Y460.949
G01 X248.861 Y460.847
G01 X248.504 Y460.670
G01 X248.148 Y460.467
G01 X247.835 Y460.164
G01 X247.566 Y459.836
G01 X247.361 Y459.433
G01 X247.241 Y458.982
G01 X247.185 Y458.506
G01 X247.191 Y458.031
G01 X247.302 Y457.532
G01 X247.473 Y457.085
G01 X247.748 Y456.638
G01 X248.082 Y456.241
G01 X248.497 Y455.895
G01 X248.972 Y455.647
G01 X249.507 Y455.449
G01 X250.062 Y455.350
G01 X250.637 Y455.349
G01 X251.212 Y455.421
G01 X251.789 Y455.617
G01 X252.327 Y455.912
G01 X252.806 Y456.281
G01 X253.226 Y456.775
G01 X253.587 Y457.319
G01 X253.826 Y457.915
G01 X254.005 Y458.562
G01 X254.059 Y459.211
G01 X253.989 Y459.912
G01 X253.791 Y460.566
G01 X253.485 Y461.196
G01 X253.071 Y461.803
G01 X252.548 Y462.310
G01 X251.958 Y462.766
G01 X251.300 Y463.096
G01 X250.576 Y463.324
G01 X249.808 Y463.425
G01 X249.018 Y463.373
G01 X248.252 Y463.193
G01 X247.509 Y462.885
G01 X246.813 Y462.476
G01 X246.185 Y461.941
G01 X245.646 Y461.305
G01 X245.219 Y460.571
G01 X244.923 Y459.764
G01 X244.776 Y458.910
G01 X244.777 Y458.034
G01 X244.903 Y457.162
G01 X245.172 Y456.294
G01 X245.581 Y455.502
G01 X246.130 Y454.763
G01 X246.815 Y454.125
G01 X247.618 Y453.611
G01 X248.496 Y453.244
G01 X249.432 Y452.999
G01 X250.406 Y452.925
G01 X251.380 Y452.995
G01 X252.337 Y453.212
G01 X253.258 Y453.624
G01 X254.105 Y454.209
G01 X254.837 Y454.918
G01 X255.474 Y455.752
G01 X255.954 Y456.689
G01 X256.295 Y457.680
G01 X256.473 Y458.750
G01 X256.444 Y459.826
G01 X256.244 Y460.883
G01 X255.850 Y461.919
G01 X255.302 Y462.884
G01 X254.576 Y463.776
G01 X253.733 Y464.518
G01 X252.754 Y465.107
G01 X251.681 Y465.543
G01 X250.539 Y465.774
G01 X249.353 Y465.824
G01 X248.167 Y465.692
G01 X247.006 Y465.354
G01 X245.918 Y464.836
G01 X244.925 Y464.115
G01 X244.070 Y463.243
G01 X243.355 Y462.221
G01 X242.821 Y461.078
G01 X242.463 Y459.865
G01 X242.299 Y458.608
G01 X242.368 Y457.310
G01 X242.662 Y456.044
G01 X243.176 Y454.836
G01 X243.866 Y453.733
G01 X244.728 Y452.731
G01 X245.780 Y451.881
G01 X246.941 Y451.202
G01 X248.233 Y450.742
G01 X249.579 Y450.500
G01 X250.962 Y450.498
G01 X252.348 Y450.711
G01 X253.681 Y451.141
G01 X254.945 Y451.789
G01 X256.061 Y452.659
G01 X257.031 Y453.729
G01 X257.833 Y454.950
G01 X258.421 Y456.278
G01 X258.790 Y457.689
G01 X258.916 Y459.160
G01 X258.789 Y460.642
G01 X258.404 Y462.109
G01 X257.774 Y463.483
G01 X256.939 Y464.763
G01 X255.895 Y465.895
G01 X254.684 Y466.824
G01 X253.285 Y467.550
G01 X251.810 Y468.017
G01 X250.240 Y468.250
G01 X248.647 Y468.221
G01 X247.080 Y467.930
G01 X245.564 Y467.405
G01 X244.150 Y466.596
G01 X242.906 Y465.558
G01 X241.830 Y464.319
G01 X240.967 Y462.908
G01 X240.334 Y461.354
G01 X239.946 Y459.734
G01 X239.860 Y458.053
G01 X240.066 Y456.361
G01 X240.555 Y454.732
G01 X241.319 Y453.190
G01 X242.309 Y451.778
G01 X243.521 Y450.520
G01 X244.931 Y449.511
G01 X246.522 Y448.745
G01 X248.235 Y448.267
G01 X250.000 Y448.050
G01 X251.783 Y448.117
G01 X253.553 Y448.493
G01 X255.239 Y449.156
G01 X256.786 Y450.110
G01 X258.179 Y451.334
G01 X259.334 Y452.760
G01 X260.268 Y454.367
G01 X260.934 Y456.110
G01 X261.304 Y457.968
G01 X261.343 Y459.844
G01 X261.040 Y461.712
G01 X260.451 Y463.544
G01 X259.563 Y465.238
G01 X258.417 Y466.812
G01 X257.005 Y468.138
G01 X255.394 Y469.234
G01 X253.587 Y470.021
G01 X251.676 Y470.519
G01 X249.691 Y470.700
G01 X247.706 Y470.563
G01 X245.751 Y470.109
G01 X243.902 Y469.290
G01 X242.207 Y468.186
G01 X240.716 Y466.776
G01 X239.470 Y465.167
G01 X238.467 Y463.364
G01 X237.789 Y461.398
G01 X237.466 Y459.350
G01 X237.488 Y457.248
G01 X237.859 Y455.191
G01 X238.569 Y453.179
G01 X239.602 Y451.332
G01 X240.910 Y449.643
G01 X242.504 Y448.208
G01 X244.343 Y447.069
G01 X246.349 Y446.241
G01 X248.473 Y445.744
G01 X250.665 Y445.599
G01 X252.839 Y445.804
G01 X254.989 Y446.387
G01 X256.989 Y447.351
G01 X258.825 Y448.629
G01 X260.420 Y450.204
G01 X261.770 Y452.007
G01 X262.789 Y454.025
G01 X263.485 Y456.210
G01 X263.779 Y458.470
G01 X263.697 Y460.755
G01 X263.225 Y463.040
G01 X262.387 Y465.194
G01 X261.218 Y467.211
G01 X259.708 Y469.010
G01 X257.898 Y470.509
G01 X255.877 Y471.722
G01 X253.650 Y472.570
G01 X251.316 Y473.071
G01 X248.929 Y473.147
G01 X246.546 Y472.823
G01 X244.223 Y472.125
G01 X242.062 Y471.032
G01 X240.089 Y469.601
G01 X238.378 Y467.840
G01 X236.971 Y465.807
G01 X235.926 Y463.587
G01 X235.256 Y461.186
G01 X234.989 Y458.711
G01 X235.127 Y456.214
G01 X235.714 Y453.750
G01 X236.686 Y451.435
G01 X238.048 Y449.292
G01 X239.727 Y447.383
G01 X241.733 Y445.776
G01 X243.968 Y444.531
G01 X246.397 Y443.666
G01 X248.957 Y443.222
G01 X251.565 Y443.194
G01 X254.143 Y443.581
G01 X256.633 Y444.437
G01 X258.929 Y445.671
G01 X261.022 Y447.317
G01 X262.830 Y449.262
G01 X264.308 Y451.468
G01 X265.364 Y453.922
G01 X266.017 Y456.530
G01 X266.226 Y459.222
G01 X265.988 Y461.923
G01 X265.302 Y464.555
G01 X264.194 Y467.061
G01 X262.670 Y469.334
G01 X260.766 Y471.338
G01 X258.568 Y473.010
G01 X256.125 Y474.291
G01 X253.468 Y475.173
G01 X250.699 Y475.574
G01 X247.903 Y475.515
G01 X245.139 Y474.998
G01 X242.470 Y474.023
G01 X239.997 Y472.625
G01 X237.799 Y470.813
G01 X235.943 Y468.649
G01 X234.427 Y466.215
G01 X233.331 Y463.550
G01 X232.704 Y460.716
G01 X232.544 Y457.818
G01 X232.910 Y454.939
G01 X233.714 Y452.120
G01 X234.990 Y449.486
G01 X236.677 Y447.075
G01 X238.757 Y444.976
G01 X241.182 Y443.249
G01 X243.855 Y441.952
G01 X246.713 Y441.097
G01 X249.695 Y440.700
G01 X252.691 Y440.831
G01 X255.651 Y441.492
G01 X258.461 Y442.614
G01 X261.061 Y444.185
G01 X263.380 Y446.169
G01 X265.357 Y448.532
G01 X266.879 Y451.193
G01 X267.945 Y454.088
G01 X268.545 Y457.121
G01 X268.633 Y460.226
G01 X268.219 Y463.323
G01 X267.253 Y466.288
G01 X265.801 Y469.081
G01 X263.913 Y471.614
G01 X261.648 Y473.797
G01 X259.029 Y475.594
G01 X256.128 Y476.917
G01 X253.029 Y477.730
G01 X249.840 Y478.025
G01 X246.628 Y477.800
G01 X243.504 Y477.057
G01 X240.534 Y475.777
G01 X237.801 Y474.018
G01 X235.405 Y471.820
G01 X233.371 Y469.245
G01 X231.781 Y466.384
G01 X230.710 Y463.279
G01 X230.179 Y460.017
G01 X230.200 Y456.704
G01 X230.740 Y453.415
G01 X231.825 Y450.277
G01 X233.425 Y447.330
G01 X235.506 Y444.711
G01 X238.014 Y442.452
G01 X240.862 Y440.631
G01 X243.978 Y439.304
G01 X247.267 Y438.480
G01 X250.678 Y438.274
G01 X254.075 Y438.606
G01 X257.394 Y439.506
G01 X260.512 Y440.936
G01 X263.387 Y442.861
G01 X265.870 Y445.256
G01 X267.934 Y448.065
G01 X269.513 Y451.156
G01 X270.580 Y454.492
G01 X271.096 Y457.958
G01 X270.984 Y461.486
G01 X270.286 Y464.945
G01 X269.035 Y468.246
G01 X267.254 Y471.328
G01 X264.990 Y474.074
G01 X262.282 Y476.392
G01 X259.225 Y478.214
G01 X255.878 Y479.550
G01 X252.349 Y480.288
G01 X248.732 Y480.472
G01 X245.146 Y480.024
G01 X241.662 Y478.973
G01 X238.395 Y477.354
G01 X235.430 Y475.229
G01 X232.845 Y472.640
G01 X230.711 Y469.630
G01 X229.128 Y466.295
G01 X228.119 Y462.728
G01 X227.695 Y459.038
G01 X227.882 Y455.337
G01 X228.682 Y451.702
G01 X230.111 Y448.230
G01 X232.083 Y445.054
G01 X234.571 Y442.207
G01 X237.492 Y439.813
G01 X240.766 Y437.923
G01 X244.343 Y436.639
G01 X248.084 Y435.965
G01 X251.896 Y435.890
G01 X255.688 Y436.438
G01 X259.351 Y437.617
G01 X262.748 Y439.421
G01 X265.819 Y441.774
G01 X268.464 Y444.601
G01 X270.629 Y447.827
G01 X272.241 Y451.376
G01 X273.218 Y455.140
G01 X273.534 Y459.055
G01 X273.219 Y462.963
G01 X272.277 Y466.783
G01 X270.712 Y470.404
G01 X268.543 Y473.708
G01 X265.844 Y476.622
G01 X262.679 Y479.049
G01 X259.173 Y480.943
G01 X255.389 Y482.237
G01 X251.421 Y482.871
G01 X247.392 Y482.810
G01 X243.430 Y482.107
G01 X239.609 Y480.766
G01 X236.072 Y478.801
G01 X232.595 Y475.880
G01 X229.990 Y472.728
G01 X228.140 Y469.640
G01 X226.334 Y464.674
G01 X225.683 Y460.701
G01 X225.737 Y456.077
G01 X226.568 Y451.970
G01 X227.692 Y448.878
G01 X229.564 Y445.409
G01 X231.705 Y442.608
G01 X233.681 Y440.628
G01 X235.965 Y438.804
G01 X239.186 Y436.887
G01 X242.199 Y435.636
G01 X245.175 Y434.837
G01 X247.472 Y434.483
G01 X250.000 Y434.350
G01 X250.000 Y393.550
G01 X250.416 Y393.574
G01 X250.876 Y393.572
G01 X251.177 Y393.570
G01 X251.566 Y393.641
G01 X251.568 Y391.216
G01 X251.560 Y388.091
G01 X251.566 Y384.966
G01 X251.556 Y381.866
G01 X251.558 Y378.741
G01 X251.558 Y375.615
G01 X251.568 Y372.490
G01 X251.564 Y369.365
G01 X251.558 Y366.240
G01 X251.561 Y363.139
G01 X251.562 Y360.014
G01 X251.561 Y356.889
G01 X251.567 Y353.763
G01 X251.560 Y350.638
G01 X251.560 Y347.513
G01 X251.558 Y344.412
G01 X251.561 Y341.287
G01 X251.561 Y338.161
G01 X251.567 Y337.511
G01 X252.131 Y339.900
G01 X252.955 Y342.903
G01 X253.123 Y343.473
G01 X253.121 Y345.999
G01 X253.123 Y349.126
G01 X253.130 Y352.252
G01 X253.120 Y355.379
G01 X253.125 Y358.480
G01 X253.126 Y361.606
G01 X253.121 Y364.733
G01 X253.124 Y367.859
G01 X253.122 Y370.985
G01 X253.128 Y374.086
G01 X253.130 Y377.211
G01 X253.129 Y380.337
G01 X253.124 Y383.463
G01 X253.128 Y386.589
G01 X253.130 Y389.690
G01 X253.128 Y392.816
G01 X253.131 Y393.616
G01 X254.682 Y393.574
G01 X254.685 Y392.798
G01 X254.682 Y389.697
G01 X254.686 Y386.570
G01 X254.686 Y383.443
G01 X254.693 Y380.316
G01 X254.684 Y377.214
G01 X254.693 Y374.086
G01 X254.683 Y370.959
G01 X254.692 Y367.832
G01 X254.684 Y364.729
G01 X254.690 Y361.601
G01 X254.689 Y358.474
G01 X254.691 Y355.346
G01 X254.686 Y352.243
G01 X254.692 Y349.114
G01 X254.682 Y348.088
G01 X255.448 Y350.052
G01 X256.248 Y351.959
G01 X256.250 Y353.011
G01 X256.248 Y356.141
G01 X256.245 Y359.247
G01 X256.255 Y362.376
G01 X256.255 Y365.506
G01 X256.245 Y368.611
G01 X256.251 Y371.740
G01 X256.249 Y374.869
G01 X256.250 Y377.972
G01 X256.245 Y381.101
G01 X256.246 Y384.230
G01 X256.254 Y387.358
G01 X256.255 Y390.461
G01 X256.247 Y393.514
G01 X256.333 Y393.510
G01 X257.811 Y393.437
G01 X257.807 Y391.810
G01 X257.816 Y388.680
G01 X257.816 Y385.550
G01 X257.810 Y382.445
G01 X257.807 Y379.315
G01 X257.810 Y376.209
G01 X257.814 Y373.077
G01 X257.807 Y369.946
G01 X257.816 Y366.839
G01 X257.813 Y363.707
G01 X257.810 Y360.600
G01 X257.816 Y357.466
G01 X257.809 Y355.336
G01 X258.247 Y356.205
G01 X259.371 Y358.320
G01 X259.377 Y359.022
G01 X259.376 Y362.159
G01 X259.369 Y365.270
G01 X259.373 Y368.405
G01 X259.375 Y371.514
G01 X259.379 Y374.648
G01 X259.369 Y377.757
G01 X259.375 Y380.890
G01 X259.368 Y383.998
G01 X259.381 Y387.130
G01 X259.368 Y390.237
G01 X259.374 Y393.344
G01 X259.402 Y393.342
G01 X260.936 Y393.233
G01 X260.943 Y391.653
G01 X260.940 Y388.544
G01 X260.938 Y385.409
G01 X260.939 Y382.298
G01 X260.940 Y379.162
G01 X260.943 Y376.051
G01 X260.933 Y372.940
G01 X260.932 Y369.802
G01 X260.942 Y366.688
G01 X260.937 Y363.575
G01 X260.939 Y361.037
G01 X261.250 Y361.559
G01 X262.503 Y363.514
G01 X262.496 Y364.294
G01 X262.507 Y367.436
G01 X262.498 Y370.554
G01 X262.496 Y373.670
G01 X262.503 Y376.785
G01 X262.496 Y379.900
G01 X262.502 Y383.039
G01 X262.507 Y386.152
G01 X262.498 Y389.265
G01 X262.506 Y392.402
G01 X262.496 Y393.105
G01 X264.069 Y392.959
G01 X264.057 Y392.106
G01 X264.058 Y388.991
G01 X264.059 Y385.875
G01 X264.058 Y382.758
G01 X264.069 Y379.639
G01 X264.063 Y376.521
G01 X264.066 Y373.401
G01 X264.064 Y370.281
G01 X264.067 Y367.158
G01 X264.060 Y365.825
G01 X265.118 Y367.280
G01 X265.624 Y367.945
G01 X265.619 Y370.215
G01 X265.624 Y373.339
G01 X265.621 Y376.464
G01 X265.625 Y379.586
G01 X265.625 Y382.708
G01 X265.621 Y385.830
G01 X265.628 Y388.949
G01 X265.619 Y392.069
G01 X265.627 Y392.797
G01 X267.182 Y392.619
G01 X267.183 Y391.788
G01 X267.184 Y388.664
G01 X267.183 Y385.540
G01 X267.193 Y382.439
G01 X267.182 Y379.313
G01 X267.191 Y376.184
G01 X267.191 Y373.055
G01 X267.185 Y369.950
G01 X268.747 Y371.816
G01 X268.752 Y372.498
G01 X268.753 Y375.608
G01 X268.747 Y378.742
G01 X268.745 Y381.874
G01 X268.746 Y384.979
G01 X268.745 Y388.109
G01 X268.752 Y391.236
G01 X268.750 Y392.421
G01 X270.316 Y392.206
G01 X270.309 Y391.854
G01 X270.317 Y388.745
G01 X270.315 Y385.612
G01 X270.310 Y382.502
G01 X270.307 Y379.366
G01 X270.310 Y376.252
G01 X270.309 Y373.567
G01 X270.601 Y373.874
G01 X271.883 Y375.227
G01 X271.871 Y376.498
G01 X271.876 Y379.617
G01 X271.870 Y382.735
G01 X271.868 Y385.851
G01 X271.874 Y388.989
G01 X271.879 Y391.974
G01 X272.006 Y391.954
G01 X273.439 Y391.725
G01 X273.436 Y390.053
G01 X273.435 Y386.934
G01 X273.439 Y383.813
G01 X273.431 Y380.691
G01 X273.437 Y377.565
G01 X273.436 Y376.777
G01 X275.000 Y378.261
G01 X275.008 Y378.438
G01 X274.999 Y381.546
G01 X274.994 Y384.675
G01 X275.004 Y387.800
G01 X275.004 Y390.924
G01 X274.996 Y391.458
G01 X276.565 Y391.172
G01 X276.567 Y390.180
G01 X276.557 Y387.051
G01 X276.566 Y383.941
G01 X276.557 Y380.806
G01 X276.566 Y379.656
G01 X278.052 Y380.903
G01 X278.120 Y380.965
G01 X278.128 Y384.005
G01 X278.124 Y387.120
G01 X278.120 Y390.233
G01 X278.130 Y390.869
G01 X279.692 Y390.548
G01 X279.693 Y389.653
G01 X279.687 Y386.535
G01 X279.693 Y383.411
G01 X279.695 Y382.232
G01 X281.239 Y383.417
G01 X281.252 Y383.414
G01 X281.246 Y386.520
G01 X281.257 Y389.645
G01 X281.251 Y390.210
G01 X282.819 Y389.851
G01 X282.816 Y388.901
G01 X282.813 Y385.792
G01 X282.816 Y384.505
G01 X284.322 Y385.547
G01 X284.375 Y385.585
G01 X284.372 Y388.653
G01 X284.369 Y389.478
G01 X285.943 Y389.081
G01 X285.940 Y388.384
G01 X285.941 Y386.368
G01 X286.970 Y386.715
G01 X287.493 Y386.857
G01 X287.498 Y388.669
G01 X288.233 Y388.469
G01 X289.063 Y388.237
G01 X289.066 Y387.145
G01 X290.219 Y387.228
G01 X293.314 Y386.912
G01 X296.242 Y385.845
G01 X298.811 Y384.092
G01 X299.004 Y383.915
G01 X299.648 Y384.797
G01 X301.168 Y384.228
G01 X301.075 Y384.103
G01 X300.107 Y382.759
G01 X300.980 Y381.595
G01 X301.076 Y381.451
G01 X302.682 Y383.641
G01 X302.869 Y383.567
G01 X304.175 Y383.043
G01 X303.162 Y381.646
G01 X301.883 Y379.897
G01 X302.195 Y378.990
G01 X302.509 Y378.106
G01 X303.796 Y379.874
G01 X305.629 Y382.387
G01 X305.662 Y382.428
G01 X307.128 Y381.802
G01 X306.275 Y380.618
G01 X304.428 Y378.091
G01 X303.133 Y376.304
G01 X303.414 Y375.425
G01 X303.711 Y374.427
G01 X304.930 Y376.106
G01 X306.766 Y378.631
G01 X308.601 Y381.154
G01 X310.053 Y380.495
G01 X309.155 Y379.257
G01 X307.316 Y376.743
G01 X305.488 Y374.220
G01 X304.228 Y372.482
G01 X304.474 Y371.524
G01 X304.715 Y370.510
G01 X305.932 Y372.181
G01 X307.763 Y374.696
G01 X309.603 Y377.231
G01 X311.429 Y379.742
G01 X311.485 Y379.827
G01 X312.922 Y379.136
G01 X312.068 Y377.967
G01 X310.237 Y375.436
G01 X308.413 Y372.927
G01 X306.576 Y370.394
G01 X305.163 Y368.461
G01 X305.298 Y367.735
G01 X305.555 Y366.341
G01 X306.559 Y367.717
G01 X308.386 Y370.222
G01 X310.221 Y372.749
G01 X312.051 Y375.274
G01 X313.888 Y377.823
G01 X314.339 Y378.436
G01 X315.748 Y377.721
G01 X315.303 Y377.106
G01 X313.463 Y374.565
G01 X311.628 Y372.048
G01 X309.800 Y369.525
G01 X307.969 Y367.002
G01 X306.134 Y364.478
G01 X305.912 Y364.169
G01 X306.199 Y361.906
G01 X306.468 Y362.275
G01 X308.298 Y364.795
G01 X310.136 Y367.338
G01 X311.970 Y369.852
G01 X313.811 Y372.389
G01 X315.645 Y374.900
G01 X317.149 Y376.990
G01 X317.643 Y376.727
G01 X318.541 Y376.243
G01 X317.315 Y374.548
G01 X315.475 Y372.018
G01 X313.651 Y369.506
G01 X311.808 Y366.975
G01 X309.971 Y364.438
G01 X308.141 Y361.925
G01 X306.433 Y359.571
G01 X306.451 Y359.365
G01 X306.600 Y357.144
G01 X307.117 Y357.861
G01 X308.954 Y360.394
G01 X310.799 Y362.923
G01 X312.626 Y365.431
G01 X314.459 Y367.963
G01 X316.295 Y370.491
G01 X318.134 Y373.017
G01 X319.926 Y375.482
G01 X319.989 Y375.447
G01 X321.290 Y374.712
G01 X320.335 Y373.386
G01 X318.498 Y370.864
G01 X316.662 Y368.341
G01 X314.828 Y365.816
G01 X312.997 Y363.287
G01 X311.158 Y360.762
G01 X309.337 Y358.255
G01 X307.498 Y355.726
G01 X306.684 Y354.604
G01 X306.700 Y352.857
G01 X306.703 Y351.970
G01 X308.011 Y353.759
G01 X309.843 Y356.286
G01 X311.680 Y358.809
G01 X313.510 Y361.334
G01 X315.354 Y363.879
G01 X317.189 Y366.400
G01 X319.024 Y368.920
G01 X320.847 Y371.446
G01 X322.657 Y373.920
G01 X322.707 Y373.891
G01 X324.003 Y373.121
G01 X323.057 Y371.823
G01 X321.212 Y369.286
G01 X319.389 Y366.763
G01 X317.554 Y364.247
G01 X315.720 Y361.730
G01 X313.874 Y359.190
G01 X312.052 Y356.663
G01 X310.213 Y354.147
G01 X308.387 Y351.621
G01 X306.615 Y349.179
G01 X306.605 Y349.069
G01 X306.415 Y346.262
G01 X306.595 Y346.504
G01 X308.431 Y349.021
G01 X310.273 Y351.562
G01 X312.105 Y354.079
G01 X313.928 Y356.600
G01 X315.776 Y359.136
G01 X317.600 Y361.656
G01 X319.447 Y364.191
G01 X321.279 Y366.704
G01 X323.098 Y369.226
G01 X324.938 Y371.762
G01 X325.341 Y372.307
G01 X326.670 Y371.479
G01 X326.154 Y370.769
G01 X324.310 Y368.238
G01 X322.487 Y365.722
G01 X320.647 Y363.187
G01 X318.818 Y360.674
G01 X316.984 Y358.134
G01 X315.151 Y355.623
G01 X313.315 Y353.084
G01 X311.481 Y350.571
G01 X309.636 Y348.037
G01 X307.815 Y345.515
G01 X306.086 Y343.142
G01 X306.061 Y342.953
G01 X305.595 Y339.869
G01 X305.596 Y339.810
G01 X307.382 Y342.261
G01 X309.222 Y344.797
G01 X311.049 Y347.310
G01 X312.890 Y349.844
G01 X314.716 Y352.357
G01 X316.554 Y354.892
G01 X318.376 Y357.408
G01 X320.219 Y359.938
G01 X322.059 Y362.471
G01 X323.881 Y364.986
G01 X325.723 Y367.516
G01 X327.560 Y370.050
G01 X327.989 Y370.636
G01 X329.299 Y369.779
G01 X328.808 Y369.114
G01 X326.979 Y366.577
G01 X325.145 Y364.073
G01 X323.315 Y361.537
G01 X321.479 Y359.004
G01 X319.651 Y356.496
G01 X317.805 Y353.969
G01 X315.966 Y351.437
G01 X314.148 Y348.922
G01 X312.303 Y346.393
G01 X310.466 Y343.859
G01 X308.641 Y341.347
G01 X306.802 Y338.814
G01 X304.963 Y336.281
G01 X304.874 Y336.160
G01 X304.180 Y333.276
G01 X303.865 Y332.108
G01 X304.996 Y333.668
G01 X306.834 Y336.200
G01 X308.655 Y338.712
G01 X310.498 Y341.240
G01 X312.337 Y343.770
G01 X314.173 Y346.302
G01 X316.001 Y348.809
G01 X317.838 Y351.340
G01 X319.670 Y353.874
G01 X321.506 Y356.405
G01 X323.334 Y358.912
G01 X325.168 Y361.444
G01 X327.007 Y363.973
G01 X328.850 Y366.500
G01 X330.600 Y368.907
G01 X330.707 Y368.835
G01 X331.892 Y368.022
G01 X330.887 Y366.649
G01 X329.050 Y364.121
G01 X327.229 Y361.611
G01 X325.385 Y359.086
G01 X323.555 Y356.552
G01 X321.718 Y354.024
G01 X319.883 Y351.493
G01 X318.056 Y348.987
G01 X316.218 Y346.458
G01 X314.383 Y343.927
G01 X312.543 Y341.400
G01 X310.707 Y338.869
G01 X308.881 Y336.363
G01 X307.045 Y333.832
G01 X305.206 Y331.304
G01 X303.372 Y328.772
G01 X302.414 Y327.458
G01 X301.913 Y326.045
G01 X300.780 Y323.153
G01 X300.176 Y321.715
G01 X301.087 Y322.969
G01 X302.924 Y325.498
G01 X304.757 Y328.029
G01 X306.578 Y330.538
G01 X308.416 Y333.066
G01 X310.256 Y335.592
G01 X312.090 Y338.123
G01 X313.927 Y340.652
G01 X315.765 Y343.179
G01 X317.591 Y345.685
G01 X319.423 Y348.217
G01 X321.267 Y350.740
G01 X323.103 Y353.269
G01 X324.940 Y355.797
G01 X326.768 Y358.332
G01 X328.594 Y360.838
G01 X330.435 Y363.363
G01 X332.267 Y365.895
G01 X333.161 Y367.130
G01 X334.398 Y366.242
G01 X334.354 Y366.181
G01 X308.033 Y329.929
G01 X311.885 Y326.985
G01 X312.086 Y326.823
G01 X315.701 Y323.756
G01 X319.240 Y320.443
G01 X319.614 Y320.074
G01 X321.895 Y317.732
G01 X323.782 Y315.671
G01 X326.235 Y319.038
G01 X328.454 Y322.097
G01 X330.494 Y324.898
G01 X333.196 Y328.631
G01 X335.413 Y331.670
G01 X337.204 Y334.136
G01 X333.196 Y328.631
G01 X329.471 Y323.501
G01 X326.235 Y319.038
G01 X323.782 Y315.671
G01 X326.123 Y312.942
G01 X327.606 Y311.105
G01 X329.813 Y308.192
G01 X326.264 Y305.465
G01 X322.076 Y302.254
G01 X318.984 Y299.875
G01 X313.903 Y295.979
G01 X310.771 Y293.568
G01 X308.151 Y291.558
G01 X312.336 Y294.775
G01 X315.570 Y297.257
G01 X320.528 Y301.067
G01 X323.466 Y303.318
G01 X326.264 Y305.465
G01 X329.813 Y308.192
G01 X332.126 Y304.880
G01 X334.527 Y301.105
G01 X336.393 Y297.883
G01 X338.525 Y293.815
G01 X340.299 Y290.033
G01 X341.871 Y286.279
G01 X343.541 Y281.728
G01 X343.939 Y280.527
G01 X386.618 Y294.395
G01 X298.289 Y265.692
G01 X297.679 Y267.458
G01 X296.765 Y269.777
G01 X296.412 Y270.593
G01 X295.345 Y272.845
G01 X294.882 Y273.743
G01 X293.662 Y275.917
G01 X292.679 Y277.506
G01 X291.278 Y279.567
G01 X290.190 Y281.030
G01 X288.619 Y282.965
G01 X287.376 Y284.368
G01 X285.644 Y286.160
G01 X283.827 Y287.866
G01 X283.675 Y288.002
G01 X281.769 Y289.608
G01 X280.668 Y290.467
G01 X279.879 Y291.022
G01 X280.581 Y292.119
G01 X282.518 Y290.642
G01 X284.473 Y288.998
G01 X285.582 Y287.988
G01 X287.403 Y286.197
G01 X288.783 Y284.714
G01 X290.440 Y282.769
G01 X291.999 Y280.746
G01 X292.728 Y279.724
G01 X294.135 Y277.591
G01 X294.620 Y276.801
G01 X295.881 Y274.579
G01 X297.032 Y272.298
G01 X297.240 Y271.854
G01 X298.255 Y269.510
G01 X298.619 Y268.584
G01 X299.473 Y266.176
G01 X299.502 Y266.086
G01 X300.976 Y266.565
G01 X300.102 Y269.047
G01 X299.986 Y269.347
G01 X298.977 Y271.777
G01 X298.547 Y272.719
G01 X297.374 Y275.073
G01 X296.424 Y276.791
G01 X295.054 Y279.036
G01 X294.199 Y280.322
G01 X292.658 Y282.454
G01 X291.762 Y283.599
G01 X290.063 Y285.608
G01 X289.189 Y286.567
G01 X287.348 Y288.446
G01 X285.796 Y289.895
G01 X283.795 Y291.603
G01 X282.888 Y292.324
G01 X281.483 Y293.380
G01 X282.417 Y294.648
G01 X282.715 Y294.430
G01 X284.856 Y292.771
G01 X286.057 Y291.763
G01 X288.063 Y289.944
G01 X289.034 Y288.995
G01 X290.901 Y287.033
G01 X291.717 Y286.111
G01 X293.438 Y284.021
G01 X294.348 Y282.826
G01 X295.905 Y280.610
G01 X296.606 Y279.532
G01 X297.999 Y277.210
G01 X298.274 Y276.718
G01 X299.527 Y274.317
G01 X299.723 Y273.915
G01 X300.837 Y271.446
G01 X300.988 Y271.084
G01 X301.901 Y268.722
G01 X302.474 Y267.052
G01 X386.618 Y294.395
G01 X384.275 Y301.045
G01 X384.202 Y301.235
G01 X381.527 Y307.758
G01 X381.288 Y308.299
G01 X378.269 Y314.671
G01 X378.009 Y315.185
G01 X369.647 Y312.472
G01 X358.178 Y308.747
G01 X372.974 Y313.553
G01 X378.009 Y315.185
G01 X374.656 Y321.387
G01 X373.717 Y323.003
G01 X369.986 Y328.986
G01 X368.907 Y330.600
G01 X364.809 Y336.337
G01 X363.050 Y338.629
G01 X358.565 Y344.069
G01 X358.045 Y344.666
G01 X353.269 Y349.854
G01 X352.456 Y350.688
G01 X347.392 Y355.594
G01 X346.234 Y356.651
G01 X340.885 Y361.244
G01 X339.699 Y362.202
G01 X334.433 Y366.217
G01 X324.880 Y353.133
G01 X318.374 Y344.171
G01 X312.337 Y335.857
G01 X308.033 Y329.929
G01 X303.818 Y324.123
G01 X296.018 Y313.381
G01 X288.424 Y302.922
G01 X282.417 Y294.648
G01 X277.702 Y288.154
G01 X276.160 Y286.030
G01 X274.360 Y287.270
G01 X272.502 Y288.420
G01 X271.853 Y288.794
G01 X269.923 Y289.819
G01 X267.945 Y290.749
G01 X266.969 Y291.165
G01 X264.929 Y291.948
G01 X262.853 Y292.630
G01 X260.912 Y293.167
G01 X258.781 Y293.651
G01 X256.628 Y294.029
G01 X256.037 Y294.114
G01 X253.865 Y294.357
G01 X251.684 Y294.493
G01 X250.000 Y294.525
G01 X250.283 Y302.374
G01 X250.243 Y309.350
G01 X250.541 Y324.148
G01 X251.567 Y337.511
G01 X254.682 Y348.088
G01 X257.809 Y355.336
G01 X260.939 Y361.037
G01 X264.060 Y365.825
G01 X267.185 Y369.950
G01 X270.309 Y373.567
G01 X273.436 Y376.777
G01 X276.566 Y379.656
G01 X279.695 Y382.232
G01 X282.816 Y384.505
G01 X285.941 Y386.368
G01 X289.066 Y387.145
G01 X291.767 Y387.156
G01 X294.205 Y386.679
G01 X296.127 Y386.043
G01 X299.004 Y383.915
G01 X301.076 Y381.451
G01 X302.509 Y378.106
G01 X303.711 Y374.427
G01 X304.715 Y370.510
G01 X305.555 Y366.341
G01 X306.199 Y361.906
G01 X306.600 Y357.144
G01 X306.703 Y351.970
G01 X306.415 Y346.262
G01 X305.596 Y339.810
G01 X303.865 Y332.108
G01 X300.176 Y321.715
G01 X299.069 Y319.069
G01 X294.962 Y312.848
G01 X288.969 Y304.471
G01 X283.567 Y296.870
G01 X250.600 Y250.800
G01 X250.628 Y250.758
G01 X250.654 Y250.714
G01 X250.676 Y250.670
G01 X250.697 Y250.625
G01 X250.714 Y250.580
G01 X250.729 Y250.535
G01 X250.741 Y250.490
G01 X250.750 Y250.445
G01 X250.757 Y250.400
G01 X250.761 Y250.355
G01 X250.763 Y250.312
G01 X250.762 Y250.268
G01 X250.761 Y250.247
G01 X250.951 Y250.309
G01 X448.554 Y314.522
G01 X448.565 Y314.570
G01 X448.570 Y314.637
G01 X448.574 Y314.704
G01 X448.524 Y314.776
G01 X448.481 Y314.828
G01 X448.414 Y314.872
G01 X448.323 Y314.908
G01 X448.222 Y314.897
G01 X448.097 Y314.878
G01 X447.984 Y314.819
G01 X447.872 Y314.760
G01 X447.796 Y314.670
G01 X447.703 Y314.552
G01 X447.647 Y314.402
G01 X447.621 Y314.241
G01 X447.625 Y314.067
G01 X447.658 Y313.882
G01 X447.746 Y313.692
G01 X447.857 Y313.509
G01 X447.986 Y313.354
G01 X448.162 Y313.214
G01 X448.379 Y313.108
G01 X448.614 Y313.030
G01 X448.860 Y312.998
G01 X449.141 Y313.022
G01 X449.409 Y313.085
G01 X449.683 Y313.215
G01 X449.943 Y313.386
G01 X450.167 Y313.589
G01 X450.348 Y313.845
G01 X450.516 Y314.142
G01 X450.623 Y314.463
G01 X450.669 Y314.810
G01 X450.629 Y315.175
G01 X450.536 Y315.543
G01 X450.394 Y315.896
G01 X450.180 Y316.226
G01 X449.894 Y316.530
G01 X449.591 Y316.807
G01 X449.206 Y317.010
G01 X448.818 Y317.145
G01 X448.372 Y317.216
G01 X447.899 Y317.210
G01 X447.429 Y317.116
G01 X446.986 Y316.944
G01 X446.539 Y316.704
G01 X446.173 Y316.383
G01 X445.826 Y316.004
G01 X445.552 Y315.563
G01 X445.350 Y315.062
G01 X445.269 Y314.514
G01 X445.239 Y313.964
G01 X445.322 Y313.386
G01 X445.499 Y312.839
G01 X445.746 Y312.314
G01 X446.104 Y311.845
G01 X446.551 Y311.425
G01 X447.056 Y311.064
G01 X447.655 Y310.816
G01 X448.278 Y310.661
G01 X448.925 Y310.598
G01 X449.589 Y310.648
G01 X450.223 Y310.797
G01 X450.869 Y311.080
G01 X451.429 Y311.471
G01 X451.934 Y311.956
G01 X452.383 Y312.537
G01 X452.710 Y313.171
G01 X452.961 Y313.874
G01 X453.066 Y314.622
G01 X453.059 Y315.381
G01 X452.917 Y316.142
G01 X452.630 Y316.857
G01 X452.216 Y317.550
G01 X451.694 Y318.162
G01 X451.089 Y318.698
G01 X450.386 Y319.129
G01 X449.615 Y319.445
G01 X448.785 Y319.624
G01 X447.932 Y319.637
G01 X447.075 Y319.512
G01 X446.236 Y319.261
G01 X445.445 Y318.872
G01 X444.709 Y318.328
G01 X444.083 Y317.694
G01 X443.550 Y316.944
G01 X443.155 Y316.095
G01 X442.907 Y315.192
G01 X442.830 Y314.244
G01 X442.886 Y313.278
G01 X443.116 Y312.328
G01 X443.484 Y311.423
G01 X443.992 Y310.561
G01 X444.668 Y309.812
G01 X445.480 Y309.207
G01 X446.387 Y308.711
G01 X447.371 Y308.382
G01 X448.411 Y308.215
G01 X449.458 Y308.197
G01 X450.531 Y308.358
G01 X451.551 Y308.699
G01 X452.489 Y309.235
G01 X453.353 Y309.930
G01 X454.101 Y310.750
G01 X454.731 Y311.696
G01 X455.170 Y312.747
G01 X455.428 Y313.861
G01 X455.511 Y315.015
G01 X455.378 Y316.173
G01 X455.058 Y317.317
G01 X454.566 Y318.404
G01 X453.893 Y319.382
G01 X453.064 Y320.258
G01 X452.071 Y320.979
G01 X450.971 Y321.542
G01 X449.778 Y321.907
G01 X448.526 Y322.062
G01 X447.261 Y322.028
G01 X446.015 Y321.795
G01 X444.802 Y321.328
G01 X443.690 Y320.658
G01 X442.700 Y319.795
G01 X441.863 Y318.798
G01 X441.184 Y317.650
G01 X440.694 Y316.405
G01 X440.413 Y315.072
G01 X440.369 Y313.720
G01 X440.560 Y312.346
G01 X440.986 Y311.030
G01 X441.611 Y309.797
G01 X442.438 Y308.643
G01 X443.439 Y307.661
G01 X444.617 Y306.848
G01 X445.934 Y306.256
G01 X447.338 Y305.891
G01 X448.788 Y305.722
G01 X450.244 Y305.807
G01 X451.682 Y306.142
G01 X453.046 Y306.741
G01 X454.322 Y307.560
G01 X455.441 Y308.563
G01 X456.394 Y309.773
G01 X457.147 Y311.116
G01 X457.657 Y312.555
G01 X457.922 Y314.089
G01 X457.904 Y315.658
G01 X457.640 Y317.222
G01 X457.120 Y318.728
G01 X456.359 Y320.129
G01 X455.391 Y321.408
G01 X454.192 Y322.482
G01 X452.813 Y323.366
G01 X451.303 Y324.005
G01 X449.694 Y324.390
G01 X448.020 Y324.512
G01 X446.367 Y324.361
G01 X444.741 Y323.924
G01 X443.196 Y323.204
G01 X441.798 Y322.236
G01 X440.559 Y321.053
G01 X439.523 Y319.675
G01 X438.702 Y318.133
G01 X438.184 Y316.461
G01 X437.940 Y314.731
G01 X438.016 Y312.953
G01 X438.354 Y311.208
G01 X438.975 Y309.514
G01 X439.874 Y307.965
G01 X441.026 Y306.567
G01 X442.416 Y305.371
G01 X444.005 Y304.444
G01 X445.724 Y303.767
G01 X447.541 Y303.375
G01 X449.399 Y303.300
G01 X451.280 Y303.523
G01 X453.076 Y304.065
G01 X454.765 Y304.910
G01 X456.320 Y306.057
G01 X457.656 Y307.425
G01 X458.799 Y309.002
G01 X459.630 Y310.733
G01 X460.168 Y312.624
G01 X460.365 Y314.566
G01 X460.248 Y316.537
G01 X459.807 Y318.481
G01 X459.064 Y320.326
G01 X458.028 Y322.045
G01 X456.678 Y323.551
G01 X455.104 Y324.821
G01 X453.302 Y325.804
G01 X451.380 Y326.513
G01 X449.362 Y326.889
G01 X447.282 Y326.927
G01 X445.228 Y326.621
G01 X443.235 Y325.950
G01 X441.394 Y324.961
G01 X439.707 Y323.645
G01 X438.262 Y322.111
G01 X437.067 Y320.326
G01 X436.195 Y318.367
G01 X435.673 Y316.285
G01 X435.506 Y314.121
G01 X435.690 Y311.947
G01 X436.229 Y309.818
G01 X437.102 Y307.795
G01 X438.314 Y305.949
G01 X439.855 Y304.326
G01 X441.633 Y302.994
G01 X443.629 Y301.944
G01 X445.756 Y301.237
G01 X447.994 Y300.872
G01 X450.282 Y300.905
G01 X452.523 Y301.324
G01 X454.671 Y302.108
G01 X456.698 Y303.262
G01 X458.493 Y304.704
G01 X460.044 Y306.461
G01 X461.289 Y308.452
G01 X462.160 Y310.617
G01 X462.684 Y312.934
G01 X462.809 Y315.293
G01 X462.564 Y317.668
G01 X461.892 Y319.983
G01 X460.847 Y322.149
G01 X459.473 Y324.121
G01 X457.758 Y325.860
G01 X455.788 Y327.294
G01 X453.584 Y328.377
G01 X451.224 Y329.067
G01 X448.789 Y329.375
G01 X446.299 Y329.270
G01 X443.854 Y328.779
G01 X441.530 Y327.857
G01 X439.360 Y326.556
G01 X437.467 Y324.898
G01 X435.842 Y322.958
G01 X434.552 Y320.753
G01 X433.637 Y318.367
G01 X433.144 Y315.857
G01 X433.078 Y313.261
G01 X433.441 Y310.708
G01 X434.220 Y308.219
G01 X435.384 Y305.886
G01 X436.968 Y303.783
G01 X438.857 Y301.962
G01 X441.069 Y300.480
G01 X443.478 Y299.361
G01 X446.027 Y298.656
G01 X448.692 Y298.391
G01 X451.369 Y298.595
G01 X453.994 Y299.229
G01 X456.489 Y300.290
G01 X458.786 Y301.735
G01 X460.827 Y303.563
G01 X462.512 Y305.736
G01 X463.836 Y308.145
G01 X464.741 Y310.774
G01 X465.204 Y313.493
G01 X465.228 Y316.271
G01 X464.754 Y319.028
G01 X463.827 Y321.691
G01 X462.481 Y324.159
G01 X460.737 Y326.375
G01 X458.643 Y328.295
G01 X456.240 Y329.826
G01 X453.600 Y330.942
G01 X450.817 Y331.632
G01 X447.953 Y331.832
G01 X445.055 Y331.572
G01 X442.258 Y330.809
G01 X439.624 Y329.590
G01 X437.200 Y327.935
G01 X435.082 Y325.926
G01 X433.310 Y323.577
G01 X431.956 Y320.950
G01 X431.063 Y318.111
G01 X430.656 Y315.167
G01 X430.732 Y312.167
G01 X431.270 Y309.226
G01 X432.326 Y306.399
G01 X433.864 Y303.807
G01 X435.805 Y301.462
G01 X438.102 Y299.475
G01 X440.706 Y297.883
G01 X443.559 Y296.751
G01 X446.560 Y296.126
G01 X449.647 Y295.988
G01 X452.713 Y296.374
G01 X455.697 Y297.230
G01 X458.511 Y298.601
G01 X461.032 Y300.436
G01 X463.239 Y302.680
G01 X465.070 Y305.236
G01 X466.441 Y308.087
G01 X467.341 Y311.134
G01 X467.702 Y314.301
G01 X467.524 Y317.478
G01 X466.820 Y320.602
G01 X465.613 Y323.587
G01 X463.934 Y326.350
G01 X461.798 Y328.779
G01 X459.289 Y330.814
G01 X456.451 Y332.434
G01 X453.373 Y333.573
G01 X450.169 Y334.181
G01 X446.885 Y334.241
G01 X443.618 Y333.738
G01 X440.465 Y332.713
G01 X437.513 Y331.164
G01 X434.856 Y329.181
G01 X432.555 Y326.731
G01 X430.707 Y323.942
G01 X429.333 Y320.859
G01 X428.475 Y317.606
G01 X428.176 Y314.232
G01 X428.415 Y310.832
G01 X429.266 Y307.542
G01 X430.632 Y304.414
G01 X432.514 Y301.535
G01 X434.842 Y298.993
G01 X437.557 Y296.873
G01 X440.602 Y295.251
G01 X443.911 Y294.156
G01 X447.343 Y293.591
G01 X450.846 Y293.607
G01 X454.297 Y294.206
G01 X457.618 Y295.403
G01 X460.696 Y297.115
G01 X463.445 Y299.346
G01 X465.831 Y301.971
G01 X467.743 Y304.972
G01 X469.111 Y308.264
G01 X469.892 Y311.757
G01 X470.129 Y315.353
G01 X469.740 Y318.937
G01 X468.804 Y322.411
G01 X467.263 Y325.706
G01 X465.195 Y328.673
G01 X462.645 Y331.280
G01 X459.700 Y333.464
G01 X456.439 Y335.122
G01 X452.916 Y336.222
G01 X449.265 Y336.677
G01 X445.551 Y336.554
G01 X441.912 Y335.817
G01 X438.449 Y334.495
G01 X435.239 Y332.611
G01 X432.379 Y330.179
G01 X429.975 Y327.304
G01 X428.029 Y324.075
G01 X426.655 Y320.558
G01 X425.876 Y316.843
G01 X425.754 Y313.061
G01 X426.269 Y309.295
G01 X427.382 Y305.629
G01 X429.069 Y302.209
G01 X431.322 Y299.090
G01 X434.088 Y296.417
G01 X437.274 Y294.224
G01 X440.781 Y292.581
G01 X444.518 Y291.520
G01 X448.391 Y291.083
G01 X452.273 Y291.318
G01 X456.098 Y292.207
G01 X459.713 Y293.734
G01 X463.055 Y295.811
G01 X466.015 Y298.418
G01 X468.487 Y301.502
G01 X470.424 Y304.970
G01 X471.755 Y308.730
G01 X472.472 Y312.649
G01 X472.534 Y316.648
G01 X471.910 Y320.618
G01 X470.615 Y324.408
G01 X468.714 Y327.982
G01 X466.257 Y331.202
G01 X463.296 Y333.958
G01 X459.452 Y336.340
G01 X455.640 Y337.865
G01 X452.140 Y338.650
G01 X446.851 Y338.853
G01 X442.871 Y338.244
G01 X438.498 Y336.745
G01 X434.841 Y334.704
G01 X432.248 Y332.679
G01 X429.535 Y329.809
G01 X427.533 Y326.907
G01 X426.252 Y324.434
G01 X425.224 Y321.698
G01 X424.396 Y318.043
G01 X424.144 Y314.773
G01 X424.297 Y311.713
G01 X424.670 Y309.419
G01 X425.325 Y306.974
G01 X386.523 Y294.364
G01 X386.674 Y293.976
G01 X386.819 Y293.525
G01 X386.906 Y293.251
G01 X387.093 Y292.904
G01 X384.788 Y292.152
G01 X381.817 Y291.180
G01 X378.843 Y290.222
G01 X375.895 Y289.261
G01 X372.923 Y288.294
G01 X369.951 Y287.328
G01 X366.978 Y286.365
G01 X364.005 Y285.403
G01 X361.034 Y284.432
G01 X358.083 Y283.481
G01 X355.111 Y282.514
G01 X352.141 Y281.540
G01 X349.168 Y280.578
G01 X346.196 Y279.609
G01 X343.224 Y278.643
G01 X340.274 Y277.688
G01 X337.303 Y276.719
G01 X334.330 Y275.754
G01 X333.711 Y275.556
G01 X336.157 Y275.757
G01 X339.268 Y275.901
G01 X339.865 Y275.909
G01 X342.267 Y276.691
G01 X345.241 Y277.655
G01 X348.214 Y278.625
G01 X351.187 Y279.590
G01 X354.135 Y280.554
G01 X357.109 Y281.519
G01 X360.084 Y282.479
G01 X363.054 Y283.453
G01 X366.030 Y284.410
G01 X368.978 Y285.374
G01 X371.951 Y286.338
G01 X374.924 Y287.306
G01 X377.895 Y288.276
G01 X380.869 Y289.238
G01 X383.819 Y290.195
G01 X386.791 Y291.163
G01 X387.553 Y291.407
G01 X387.996 Y289.905
G01 X387.256 Y289.676
G01 X384.308 Y288.708
G01 X381.332 Y287.750
G01 X378.358 Y286.784
G01 X375.386 Y285.811
G01 X372.437 Y284.849
G01 X369.462 Y283.886
G01 X366.489 Y282.917
G01 X363.513 Y281.954
G01 X360.563 Y280.992
G01 X357.588 Y280.030
G01 X354.613 Y279.065
G01 X351.638 Y278.096
G01 X348.688 Y277.132
G01 X345.712 Y276.169
G01 X344.736 Y275.852
G01 X346.840 Y275.730
G01 X348.901 Y275.559
G01 X349.899 Y275.892
G01 X352.879 Y276.850
G01 X355.831 Y277.813
G01 X358.808 Y278.782
G01 X361.784 Y279.749
G01 X364.737 Y280.706
G01 X367.712 Y281.679
G01 X370.690 Y282.636
G01 X373.639 Y283.606
G01 X376.617 Y284.565
G01 X379.592 Y285.531
G01 X382.566 Y286.503
G01 X385.518 Y287.461
G01 X388.423 Y288.399
G01 X388.442 Y288.329
G01 X388.833 Y286.887
G01 X387.284 Y286.388
G01 X384.306 Y285.426
G01 X381.330 Y284.458
G01 X378.378 Y283.492
G01 X375.400 Y282.527
G01 X372.447 Y281.565
G01 X369.467 Y280.606
G01 X366.490 Y279.633
G01 X363.535 Y278.675
G01 X360.555 Y277.711
G01 X357.602 Y276.742
G01 X354.621 Y275.779
G01 X352.595 Y275.117
G01 X353.557 Y274.969
G01 X355.916 Y274.554
G01 X356.583 Y274.776
G01 X359.566 Y275.746
G01 X362.525 Y276.703
G01 X365.508 Y277.667
G01 X368.463 Y278.638
G01 X371.444 Y279.603
G01 X374.401 Y280.561
G01 X377.379 Y281.536
G01 X380.337 Y282.490
G01 X383.315 Y283.459
G01 X386.271 Y284.418
G01 X389.223 Y285.386
G01 X389.230 Y285.358
G01 X389.604 Y283.852
G01 X388.100 Y283.371
G01 X385.142 Y282.413
G01 X382.160 Y281.446
G01 X379.203 Y280.483
G01 X376.220 Y279.513
G01 X373.262 Y278.549
G01 X370.303 Y277.585
G01 X367.319 Y276.616
G01 X364.357 Y275.656
G01 X361.397 Y274.688
G01 X358.982 Y273.913
G01 X359.575 Y273.779
G01 X361.820 Y273.191
G01 X362.563 Y273.427
G01 X365.552 Y274.399
G01 X368.517 Y275.360
G01 X371.481 Y276.324
G01 X374.442 Y277.292
G01 X377.406 Y278.249
G01 X380.390 Y279.226
G01 X383.352 Y280.184
G01 X386.310 Y281.154
G01 X389.296 Y282.115
G01 X389.965 Y282.329
G01 X390.309 Y280.801
G01 X389.497 Y280.535
G01 X386.534 Y279.572
G01 X383.571 Y278.609
G01 X380.606 Y277.646
G01 X377.640 Y276.685
G01 X374.673 Y275.727
G01 X371.707 Y274.759
G01 X368.739 Y273.797
G01 X365.771 Y272.829
G01 X364.502 Y272.413
G01 X366.210 Y271.867
G01 X366.999 Y271.592
G01 X369.159 Y272.287
G01 X372.130 Y273.260
G01 X375.103 Y274.215
G01 X378.072 Y275.188
G01 X381.041 Y276.154
G01 X384.011 Y277.109
G01 X386.976 Y278.080
G01 X389.944 Y279.038
G01 X390.636 Y279.270
G01 X390.950 Y277.721
G01 X390.160 Y277.464
G01 X387.189 Y276.498
G01 X384.218 Y275.534
G01 X381.269 Y274.579
G01 X378.296 Y273.611
G01 X375.320 Y272.649
G01 X372.344 Y271.681
G01 X369.391 Y270.715
G01 X371.648 Y269.806
G01 X372.296 Y270.024
G01 X375.254 Y270.985
G01 X378.236 Y271.946
G01 X381.214 Y272.915
G01 X384.168 Y273.874
G01 X387.143 Y274.842
G01 X390.117 Y275.815
G01 X391.244 Y276.183
G01 X391.523 Y274.628
G01 X391.188 Y274.512
G01 X388.232 Y273.557
G01 X385.251 Y272.590
G01 X382.295 Y271.621
G01 X379.311 Y270.655
G01 X376.350 Y269.690
G01 X373.796 Y268.862
G01 X374.178 Y268.678
G01 X375.860 Y267.890
G01 X377.067 Y268.282
G01 X380.032 Y269.253
G01 X382.998 Y270.209
G01 X385.961 Y271.174
G01 X388.945 Y272.152
G01 X391.785 Y273.070
G01 X391.806 Y272.942
G01 X392.031 Y271.509
G01 X390.439 Y270.995
G01 X387.475 Y270.018
G01 X384.506 Y269.064
G01 X381.536 Y268.093
G01 X378.563 Y267.135
G01 X377.814 Y266.892
G01 X379.710 Y265.850
G01 X379.879 Y265.911
G01 X382.832 Y266.879
G01 X385.809 Y267.838
G01 X388.781 Y268.807
G01 X391.753 Y269.773
G01 X392.261 Y269.931
G01 X392.471 Y268.365
G01 X391.528 Y268.056
G01 X388.551 Y267.085
G01 X385.594 Y266.129
G01 X382.612 Y265.156
G01 X381.519 Y264.805
G01 X383.164 Y263.778
G01 X383.246 Y263.719
G01 X386.138 Y264.663
G01 X389.100 Y265.630
G01 X392.061 Y266.582
G01 X392.666 Y266.782
G01 X392.844 Y265.198
G01 X391.993 Y264.921
G01 X389.026 Y263.963
G01 X386.056 Y262.991
G01 X384.936 Y262.626
G01 X386.540 Y261.523
G01 X386.541 Y261.510
G01 X389.494 Y262.461
G01 X392.468 Y263.431
G01 X393.004 Y263.611
G01 X393.147 Y262.009
G01 X392.243 Y261.718
G01 X389.285 Y260.760
G01 X388.062 Y260.360
G01 X389.520 Y259.235
G01 X389.571 Y259.211
G01 X392.489 Y260.148
G01 X393.273 Y260.405
G01 X393.380 Y258.800
G01 X392.717 Y258.587
G01 X390.800 Y257.963
G01 X391.447 Y257.092
G01 X391.745 Y256.624
G01 X393.471 Y257.179
G01 X393.506 Y256.433
G01 X393.542 Y255.572
G01 X392.504 Y255.232
G01 X392.940 Y254.146
G01 X393.596 Y251.105
G01 X393.486 Y248.005
G01 X392.613 Y245.006
G01 X392.504 Y244.767
G01 X393.542 Y244.427
G01 X393.470 Y242.820
G01 X393.322 Y242.856
G01 X391.745 Y243.375
G01 X390.908 Y242.185
G01 X390.800 Y242.036
G01 X393.380 Y241.199
G01 X393.367 Y240.984
G01 X393.273 Y239.594
G01 X391.631 Y240.126
G01 X389.571 Y240.788
G01 X388.805 Y240.211
G01 X388.062 Y239.639
G01 X390.142 Y238.976
G01 X393.098 Y238.008
G01 X393.147 Y237.990
G01 X393.004 Y236.388
G01 X391.616 Y236.848
G01 X388.640 Y237.809
G01 X386.541 Y238.489
G01 X385.793 Y237.964
G01 X384.936 Y237.373
G01 X386.909 Y236.733
G01 X389.878 Y235.767
G01 X392.844 Y234.801
G01 X392.666 Y233.216
G01 X391.211 Y233.688
G01 X388.252 Y234.660
G01 X385.288 Y235.619
G01 X383.246 Y236.280
G01 X382.410 Y235.750
G01 X381.519 Y235.194
G01 X383.484 Y234.554
G01 X386.442 Y233.589
G01 X389.423 Y232.636
G01 X392.374 Y231.661
G01 X392.471 Y231.634
G01 X392.260 Y230.068
G01 X390.883 Y230.505
G01 X387.912 Y231.478
G01 X384.962 Y232.437
G01 X381.985 Y233.401
G01 X379.710 Y234.149
G01 X379.062 Y233.795
G01 X377.815 Y233.120
G01 X379.434 Y232.590
G01 X382.381 Y231.628
G01 X385.351 Y230.663
G01 X388.319 Y229.703
G01 X391.308 Y228.730
G01 X392.030 Y228.490
G01 X391.785 Y226.929
G01 X391.063 Y227.162
G01 X388.080 Y228.141
G01 X385.117 Y229.095
G01 X382.155 Y230.067
G01 X379.190 Y231.029
G01 X376.222 Y231.993
G01 X375.860 Y232.109
G01 X373.796 Y231.138
G01 X374.230 Y230.995
G01 X377.192 Y230.034
G01 X380.176 Y229.059
G01 X383.136 Y228.104
G01 X386.118 Y227.138
G01 X389.073 Y226.170
G01 X391.523 Y225.371
G01 X391.428 Y224.833
G01 X391.243 Y223.816
G01 X389.255 Y224.472
G01 X386.280 Y225.440
G01 X383.327 Y226.399
G01 X380.348 Y227.356
G01 X377.370 Y228.332
G01 X374.414 Y229.296
G01 X371.648 Y230.193
G01 X371.458 Y230.112
G01 X369.391 Y229.284
G01 X370.230 Y229.002
G01 X373.208 Y228.037
G01 X376.185 Y227.077
G01 X379.134 Y226.114
G01 X382.106 Y225.140
G01 X385.079 Y224.175
G01 X388.052 Y223.220
G01 X390.950 Y222.278
G01 X390.936 Y222.207
G01 X390.636 Y220.729
G01 X389.083 Y221.241
G01 X386.114 Y222.195
G01 X383.147 Y223.162
G01 X380.179 Y224.126
G01 X377.211 Y225.099
G01 X374.238 Y226.054
G01 X371.293 Y227.024
G01 X368.318 Y227.980
G01 X366.999 Y228.407
G01 X365.343 Y227.853
G01 X364.502 Y227.586
G01 X366.608 Y226.896
G01 X369.577 Y225.934
G01 X372.544 Y224.967
G01 X375.512 Y224.008
G01 X378.502 Y223.040
G01 X381.467 Y222.075
G01 X384.430 Y221.108
G01 X387.393 Y220.140
G01 X390.309 Y219.198
G01 X390.296 Y219.142
G01 X389.965 Y217.670
G01 X388.438 Y218.169
G01 X385.451 Y219.126
G01 X382.492 Y220.093
G01 X379.532 Y221.061
G01 X376.568 Y222.015
G01 X373.582 Y222.986
G01 X370.619 Y223.950
G01 X367.655 Y224.910
G01 X364.691 Y225.878
G01 X361.820 Y226.808
G01 X361.711 Y226.773
G01 X358.982 Y226.086
G01 X359.270 Y226.000
G01 X362.231 Y225.032
G01 X365.217 Y224.065
G01 X368.177 Y223.101
G01 X371.136 Y222.134
G01 X374.121 Y221.173
G01 X377.079 Y220.205
G01 X380.063 Y219.244
G01 X383.020 Y218.278
G01 X385.977 Y217.314
G01 X388.958 Y216.347
G01 X389.604 Y216.147
G01 X389.227 Y214.627
G01 X388.393 Y214.898
G01 X385.412 Y215.856
G01 X382.459 Y216.825
G01 X379.479 Y217.792
G01 X376.521 Y218.743
G01 X373.542 Y219.714
G01 X370.587 Y220.682
G01 X367.605 Y221.643
G01 X364.649 Y222.611
G01 X361.665 Y223.571
G01 X358.707 Y224.535
G01 X355.916 Y225.446
G01 X355.728 Y225.411
G01 X352.649 Y224.891
G01 X352.595 Y224.882
G01 X355.479 Y223.941
G01 X358.459 Y222.975
G01 X361.414 Y222.013
G01 X364.393 Y221.046
G01 X367.347 Y220.086
G01 X370.326 Y219.121
G01 X373.278 Y218.154
G01 X376.258 Y217.195
G01 X379.235 Y216.228
G01 X382.186 Y215.259
G01 X385.166 Y214.303
G01 X388.140 Y213.325
G01 X388.833 Y213.112
G01 X388.423 Y211.600
G01 X387.635 Y211.849
G01 X384.661 Y212.818
G01 X381.709 Y213.775
G01 X378.735 Y214.745
G01 X375.759 Y215.709
G01 X372.808 Y216.672
G01 X369.831 Y217.634
G01 X366.855 Y218.601
G01 X363.904 Y219.564
G01 X360.926 Y220.526
G01 X357.949 Y221.491
G01 X354.999 Y222.461
G01 X352.021 Y223.427
G01 X349.043 Y224.393
G01 X348.901 Y224.440
G01 X345.944 Y224.209
G01 X344.736 Y224.148
G01 X346.569 Y223.554
G01 X349.545 Y222.589
G01 X352.494 Y221.622
G01 X355.471 Y220.662
G01 X358.445 Y219.694
G01 X361.420 Y218.731
G01 X364.370 Y217.767
G01 X367.344 Y216.802
G01 X370.317 Y215.831
G01 X373.292 Y214.867
G01 X376.244 Y213.916
G01 X379.216 Y212.941
G01 X382.189 Y211.974
G01 X385.165 Y211.015
G01 X387.996 Y210.094
G01 X387.956 Y209.956
G01 X387.553 Y208.592
G01 X385.937 Y209.123
G01 X382.964 Y210.089
G01 X380.015 Y211.046
G01 X377.040 Y212.006
G01 X374.068 Y212.976
G01 X371.096 Y213.942
G01 X368.122 Y214.905
G01 X365.174 Y215.868
G01 X362.201 Y216.835
G01 X359.227 Y217.797
G01 X356.254 Y218.766
G01 X353.280 Y219.730
G01 X350.329 Y220.682
G01 X347.358 Y221.656
G01 X344.382 Y222.614
G01 X341.410 Y223.586
G01 X339.865 Y224.091
G01 X338.366 Y224.130
G01 X335.262 Y224.305
G01 X333.711 Y224.444
G01 X335.186 Y223.966
G01 X338.158 Y222.999
G01 X341.129 Y222.030
G01 X344.078 Y221.073
G01 X347.050 Y220.106
G01 X350.024 Y219.146
G01 X352.995 Y218.173
G01 X355.967 Y217.208
G01 X358.939 Y216.241
G01 X361.890 Y215.290
G01 X364.860 Y214.318
G01 X367.834 Y213.356
G01 X370.806 Y212.391
G01 X373.779 Y211.425
G01 X376.750 Y210.458
G01 X379.697 Y209.495
G01 X382.672 Y208.537
G01 X385.642 Y207.564
G01 X387.093 Y207.095
G01 X386.631 Y205.645
G01 X386.559 Y205.668
G01 X343.948 Y219.501
G01 X342.339 Y214.928
G01 X342.250 Y214.696
G01 X340.450 Y210.310
G01 X338.394 Y205.920
G01 X338.158 Y205.451
G01 X336.631 Y202.549
G01 X335.254 Y200.117
G01 X339.219 Y198.833
G01 X342.813 Y197.669
G01 X346.108 Y196.593
G01 X350.488 Y195.168
G01 X354.069 Y194.008
G01 X356.968 Y193.068
G01 X350.488 Y195.168
G01 X344.459 Y197.126
G01 X339.219 Y198.833
G01 X335.254 Y200.117
G01 X333.387 Y197.056
G01 X332.098 Y195.078
G01 X330.010 Y192.079
G01 X326.319 Y194.611
G01 X321.971 Y197.601
G01 X318.753 Y199.808
G01 X313.477 Y203.435
G01 X310.217 Y205.669
G01 X307.496 Y207.539
G01 X311.848 Y204.554
G01 X315.209 Y202.245
G01 X320.359 Y198.700
G01 X323.413 Y196.608
G01 X326.319 Y194.611
G01 X330.010 Y192.079
G01 X327.575 Y188.856
G01 X324.726 Y185.405
G01 X322.232 Y182.628
G01 X319.029 Y179.350
G01 X315.972 Y176.487
G01 X312.896 Y173.839
G01 X309.083 Y170.844
G01 X308.056 Y170.088
G01 X334.432 Y133.783
G01 X279.844 Y208.921
G01 X281.339 Y210.050
G01 X283.261 Y211.636
G01 X283.928 Y212.225
G01 X285.741 Y213.935
G01 X286.452 Y214.654
G01 X288.142 Y216.485
G01 X289.350 Y217.911
G01 X290.877 Y219.881
G01 X291.932 Y221.368
G01 X293.287 Y223.460
G01 X294.234 Y225.071
G01 X295.404 Y227.271
G01 X296.464 Y229.527
G01 X296.549 Y229.719
G01 X297.488 Y232.027
G01 X297.962 Y233.335
G01 X298.248 Y234.262
G01 X299.507 Y233.928
G01 X298.702 Y231.635
G01 X297.743 Y229.267
G01 X297.125 Y227.900
G01 X295.984 Y225.615
G01 X295.001 Y223.844
G01 X293.663 Y221.668
G01 X292.220 Y219.559
G01 X291.474 Y218.550
G01 X289.881 Y216.553
G01 X289.275 Y215.844
G01 X287.552 Y213.958
G01 X285.738 Y212.158
G01 X285.380 Y211.823
G01 X283.464 Y210.133
G01 X282.696 Y209.501
G01 X280.669 Y207.945
G01 X280.593 Y207.890
G01 X281.504 Y206.636
G01 X283.594 Y208.234
G01 X283.845 Y208.437
G01 X285.843 Y210.147
G01 X286.606 Y210.847
G01 X288.483 Y212.690
G01 X289.827 Y214.128
G01 X291.539 Y216.125
G01 X292.497 Y217.336
G01 X294.049 Y219.461
G01 X294.861 Y220.666
G01 X296.246 Y222.903
G01 X296.888 Y224.030
G01 X298.106 Y226.362
G01 X299.002 Y228.281
G01 X300.009 Y230.712
G01 X300.414 Y231.797
G01 X300.984 Y233.460
G01 X302.479 Y232.963
G01 X302.365 Y232.617
G01 X301.449 Y230.069
G01 X300.862 Y228.615
G01 X299.752 Y226.145
G01 X299.147 Y224.923
G01 X297.857 Y222.542
G01 X297.236 Y221.486
G01 X295.780 Y219.202
G01 X294.925 Y217.968
G01 X293.299 Y215.802
G01 X292.487 Y214.798
G01 X290.708 Y212.756
G01 X290.329 Y212.346
G01 X288.433 Y210.413
G01 X288.111 Y210.102
G01 X286.107 Y208.280
G01 X285.810 Y208.024
G01 X283.841 Y206.422
G01 X282.430 Y205.362
G01 X334.432 Y133.783
G01 X340.033 Y138.065
G01 X340.202 Y138.202
G01 X345.579 Y142.762
G01 X346.009 Y143.147
G01 X351.136 Y147.986
G01 X351.555 Y148.403
G01 X346.381 Y155.507
G01 X339.295 Y165.265
G01 X348.447 Y152.688
G01 X351.555 Y148.403
G01 X356.418 Y153.509
G01 X357.664 Y154.902
G01 X362.201 Y160.299
G01 X363.403 Y161.823
G01 X367.593 Y167.494
G01 X369.228 Y169.875
G01 X373.016 Y175.822
G01 X373.423 Y176.502
G01 X376.881 Y182.646
G01 X377.423 Y183.678
G01 X380.524 Y190.010
G01 X381.171 Y191.438
G01 X383.886 Y197.945
G01 X384.431 Y199.368
G01 X386.622 Y205.617
G01 X371.222 Y210.647
G01 X360.688 Y214.066
G01 X350.915 Y217.239
G01 X343.948 Y219.501
G01 X337.124 Y221.716
G01 X324.498 Y225.815
G01 X312.204 Y229.806
G01 X302.479 Y232.963
G01 X294.846 Y235.441
G01 X292.349 Y236.252
G01 X292.973 Y238.346
G01 X293.493 Y240.469
G01 X293.647 Y241.202
G01 X294.026 Y243.354
G01 X294.299 Y245.523
G01 X294.394 Y246.584
G01 X294.508 Y248.766
G01 X294.515 Y250.951
G01 X294.426 Y252.963
G01 X294.227 Y255.139
G01 X293.922 Y257.303
G01 X293.820 Y257.892
G01 X293.380 Y260.033
G01 X292.835 Y262.149
G01 X292.345 Y263.761
G01 X299.899 Y265.912
G01 X306.521 Y268.105
G01 X320.688 Y272.394
G01 X333.711 Y275.556
G01 X344.736 Y275.852
G01 X352.595 Y275.117
G01 X358.982 Y273.913
G01 X364.502 Y272.413
G01 X369.391 Y270.715
G01 X373.796 Y268.862
G01 X377.814 Y266.892
G01 X381.519 Y264.805
G01 X384.936 Y262.626
G01 X388.062 Y260.360
G01 X390.800 Y257.963
G01 X392.504 Y255.232
G01 X393.350 Y252.652
G01 X393.650 Y250.186
G01 X393.638 Y248.161
G01 X392.504 Y244.767
G01 X390.800 Y242.036
G01 X388.062 Y239.639
G01 X384.936 Y237.373
G01 X381.519 Y235.194
G01 X377.815 Y233.120
G01 X373.796 Y231.138
G01 X369.391 Y229.284
G01 X364.502 Y227.586
G01 X358.982 Y226.086
G01 X352.595 Y224.882
G01 X344.736 Y224.148
G01 X333.711 Y224.444
G01 X330.853 Y224.679
G01 X323.667 Y226.662
G01 X313.848 Y229.773
G01 X304.949 Y232.561
G01 X250.946 Y249.677
G01 X250.914 Y249.637
G01 X250.881 Y249.599
G01 X250.846 Y249.564
G01 X250.810 Y249.531
G01 X250.772 Y249.500
G01 X250.734 Y249.472
G01 X250.695 Y249.447
G01 X250.655 Y249.424
G01 X250.614 Y249.404
G01 X250.573 Y249.386
G01 X250.532 Y249.371
G01 X250.491 Y249.358
G01 X250.470 Y249.353
G01 X250.661 Y249.090
G01 X372.710 Y81.094
G01 X372.759 Y81.099
G01 X372.824 Y81.115
G01 X372.907 Y81.144
G01 X372.943 Y81.201
G01 X372.995 Y81.271
G01 X373.016 Y81.348
G01 X373.006 Y81.433
G01 X372.981 Y81.539
G01 X372.924 Y81.652
G01 X372.833 Y81.740
G01 X372.726 Y81.817
G01 X372.633 Y81.873
G01 X372.476 Y81.913
G01 X372.333 Y81.932
G01 X372.171 Y81.908
G01 X372.007 Y81.850
G01 X371.824 Y81.749
G01 X371.687 Y81.619
G01 X371.548 Y81.457
G01 X371.423 Y81.274
G01 X371.344 Y81.064
G01 X371.311 Y80.824
G01 X371.309 Y80.577
G01 X371.355 Y80.333
G01 X371.464 Y80.073
G01 X371.624 Y79.849
G01 X371.816 Y79.617
G01 X372.076 Y79.434
G01 X372.338 Y79.284
G01 X372.620 Y79.179
G01 X372.954 Y79.111
G01 X373.293 Y79.109
G01 X373.655 Y79.185
G01 X373.972 Y79.322
G01 X374.294 Y79.525
G01 X374.602 Y79.782
G01 X374.849 Y80.087
G01 X375.051 Y80.453
G01 X375.203 Y80.814
G01 X375.278 Y81.243
G01 X375.303 Y81.667
G01 X375.233 Y82.113
G01 X375.081 Y82.561
G01 X374.847 Y82.979
G01 X374.545 Y83.347
G01 X374.163 Y83.685
G01 X373.761 Y83.947
G01 X373.293 Y84.160
G01 X372.773 Y84.272
G01 X372.233 Y84.308
G01 X371.704 Y84.229
G01 X371.155 Y84.075
G01 X370.648 Y83.829
G01 X370.182 Y83.492
G01 X369.759 Y83.095
G01 X369.407 Y82.598
G01 X369.145 Y82.043
G01 X368.975 Y81.463
G01 X368.925 Y80.816
G01 X368.970 Y80.176
G01 X369.109 Y79.541
G01 X369.362 Y78.925
G01 X369.700 Y78.368
G01 X370.169 Y77.842
G01 X370.696 Y77.417
G01 X371.331 Y77.099
G01 X372.023 Y76.852
G01 X372.727 Y76.737
G01 X373.473 Y76.715
G01 X374.199 Y76.834
G01 X374.918 Y77.075
G01 X375.599 Y77.445
G01 X376.207 Y77.951
G01 X376.722 Y78.548
G01 X377.142 Y79.233
G01 X377.465 Y79.973
G01 X377.658 Y80.776
G01 X377.720 Y81.606
G01 X377.634 Y82.451
G01 X377.399 Y83.279
G01 X377.016 Y84.056
G01 X376.501 Y84.763
G01 X375.886 Y85.395
G01 X375.158 Y85.940
G01 X374.362 Y86.339
G01 X373.484 Y86.615
G01 X372.554 Y86.728
G01 X371.603 Y86.672
G01 X370.677 Y86.453
G01 X369.776 Y86.101
G01 X368.960 Y85.601
G01 X368.197 Y84.959
G01 X367.550 Y84.222
G01 X367.047 Y83.347
G01 X366.705 Y82.376
G01 X366.530 Y81.372
G01 X366.522 Y80.334
G01 X366.667 Y79.282
G01 X366.974 Y78.281
G01 X367.476 Y77.322
G01 X368.115 Y76.457
G01 X368.898 Y75.719
G01 X369.825 Y75.112
G01 X370.854 Y74.666
G01 X371.948 Y74.359
G01 X373.083 Y74.267
G01 X374.205 Y74.353
G01 X375.346 Y74.643
G01 X376.406 Y75.127
G01 X377.377 Y75.772
G01 X378.259 Y76.576
G01 X378.999 Y77.531
G01 X379.576 Y78.590
G01 X379.955 Y79.757
G01 X380.134 Y80.965
G01 X380.112 Y82.212
G01 X379.889 Y83.464
G01 X379.465 Y84.656
G01 X378.843 Y85.756
G01 X378.024 Y86.766
G01 X377.042 Y87.617
G01 X375.932 Y88.304
G01 X374.710 Y88.779
G01 X373.424 Y89.083
G01 X372.089 Y89.164
G01 X370.734 Y89.019
G01 X369.418 Y88.631
G01 X368.187 Y88.037
G01 X367.067 Y87.225
G01 X366.071 Y86.238
G01 X365.245 Y85.106
G01 X364.621 Y83.851
G01 X364.212 Y82.479
G01 X364.056 Y81.044
G01 X364.125 Y79.585
G01 X364.430 Y78.165
G01 X364.960 Y76.806
G01 X365.724 Y75.542
G01 X366.697 Y74.418
G01 X367.871 Y73.458
G01 X369.188 Y72.716
G01 X370.616 Y72.171
G01 X372.126 Y71.869
G01 X373.670 Y71.841
G01 X375.210 Y72.064
G01 X376.697 Y72.566
G01 X378.085 Y73.288
G01 X379.357 Y74.248
G01 X380.454 Y75.404
G01 X381.371 Y76.720
G01 X382.040 Y78.205
G01 X382.454 Y79.790
G01 X382.579 Y81.410
G01 X382.464 Y83.073
G01 X382.063 Y84.702
G01 X381.408 Y86.228
G01 X380.490 Y87.638
G01 X379.328 Y88.886
G01 X377.976 Y89.916
G01 X376.467 Y90.728
G01 X374.837 Y91.288
G01 X373.100 Y91.581
G01 X371.366 Y91.569
G01 X369.629 Y91.254
G01 X367.978 Y90.644
G01 X366.407 Y89.771
G01 X365.004 Y88.669
G01 X363.792 Y87.324
G01 X362.818 Y85.797
G01 X362.127 Y84.116
G01 X361.737 Y82.318
G01 X361.624 Y80.474
G01 X361.813 Y78.625
G01 X362.298 Y76.824
G01 X363.091 Y75.103
G01 X364.180 Y73.574
G01 X365.505 Y72.229
G01 X367.059 Y71.093
G01 X368.772 Y70.245
G01 X370.625 Y69.645
G01 X372.547 Y69.403
G01 X374.494 Y69.462
G01 X376.419 Y69.888
G01 X378.257 Y70.608
G01 X379.969 Y71.628
G01 X381.495 Y72.906
G01 X382.809 Y74.422
G01 X383.824 Y76.171
G01 X384.546 Y78.061
G01 X384.924 Y80.078
G01 X385.004 Y82.125
G01 X384.738 Y84.161
G01 X384.131 Y86.150
G01 X383.205 Y88.009
G01 X381.936 Y89.684
G01 X380.426 Y91.130
G01 X378.669 Y92.340
G01 X376.764 Y93.240
G01 X374.697 Y93.825
G01 X372.564 Y94.049
G01 X370.407 Y93.890
G01 X368.297 Y93.380
G01 X366.287 Y92.534
G01 X364.444 Y91.375
G01 X362.790 Y89.919
G01 X361.409 Y88.196
G01 X360.342 Y86.228
G01 X359.607 Y84.116
G01 X359.243 Y81.904
G01 X359.227 Y79.662
G01 X359.572 Y77.421
G01 X360.293 Y75.244
G01 X361.384 Y73.242
G01 X362.811 Y71.453
G01 X364.517 Y69.870
G01 X366.461 Y68.621
G01 X368.593 Y67.676
G01 X370.872 Y67.108
G01 X373.218 Y66.960
G01 X375.584 Y67.178
G01 X377.865 Y67.788
G01 X380.048 Y68.755
G01 X382.025 Y70.096
G01 X383.780 Y71.772
G01 X385.231 Y73.689
G01 X386.337 Y75.844
G01 X387.109 Y78.174
G01 X387.458 Y80.605
G01 X387.385 Y83.063
G01 X386.925 Y85.474
G01 X386.056 Y87.809
G01 X384.817 Y89.969
G01 X383.238 Y91.908
G01 X381.315 Y93.557
G01 X379.168 Y94.858
G01 X376.806 Y95.791
G01 X374.326 Y96.349
G01 X371.773 Y96.482
G01 X369.219 Y96.163
G01 X366.745 Y95.435
G01 X364.413 Y94.290
G01 X362.302 Y92.792
G01 X360.444 Y90.963
G01 X358.933 Y88.807
G01 X357.785 Y86.448
G01 X357.059 Y83.886
G01 X356.739 Y81.249
G01 X356.857 Y78.607
G01 X357.428 Y75.990
G01 X358.432 Y73.496
G01 X359.863 Y71.207
G01 X361.626 Y69.150
G01 X363.728 Y67.424
G01 X366.097 Y66.047
G01 X368.667 Y65.105
G01 X371.385 Y64.603
G01 X374.146 Y64.541
G01 X376.894 Y64.954
G01 X379.543 Y65.789
G01 X382.019 Y67.092
G01 X384.247 Y68.784
G01 X386.178 Y70.827
G01 X387.765 Y73.184
G01 X388.944 Y75.768
G01 X389.657 Y78.527
G01 X389.903 Y81.382
G01 X389.682 Y84.228
G01 X389.003 Y87.028
G01 X387.845 Y89.690
G01 X386.271 Y92.128
G01 X384.298 Y94.257
G01 X381.974 Y96.051
G01 X379.409 Y97.444
G01 X376.628 Y98.403
G01 X373.696 Y98.866
G01 X370.734 Y98.851
G01 X367.793 Y98.316
G01 X364.979 Y97.329
G01 X362.333 Y95.897
G01 X359.987 Y94.030
G01 X357.980 Y91.756
G01 X356.366 Y89.196
G01 X355.186 Y86.397
G01 X354.477 Y83.429
G01 X354.282 Y80.365
G01 X354.598 Y77.307
G01 X355.438 Y74.339
G01 X356.735 Y71.532
G01 X358.489 Y68.969
G01 X360.662 Y66.717
G01 X363.168 Y64.875
G01 X365.984 Y63.469
G01 X369.000 Y62.530
G01 X372.135 Y62.107
G01 X375.311 Y62.193
G01 X378.416 Y62.815
G01 X381.401 Y63.979
G01 X384.154 Y65.614
G01 X386.621 Y67.684
G01 X388.711 Y70.121
G01 X390.379 Y72.917
G01 X391.539 Y75.932
G01 X392.203 Y79.133
G01 X392.318 Y82.397
G01 X391.923 Y85.647
G01 X390.964 Y88.788
G01 X389.476 Y91.740
G01 X387.512 Y94.408
G01 X385.142 Y96.751
G01 X382.420 Y98.652
G01 X379.393 Y100.096
G01 X376.170 Y100.991
G01 X372.814 Y101.345
G01 X369.439 Y101.144
G01 X366.153 Y100.398
G01 X362.993 Y99.120
G01 X360.128 Y97.293
G01 X357.559 Y95.017
G01 X355.418 Y92.348
G01 X353.721 Y89.348
G01 X352.543 Y86.111
G01 X351.925 Y82.704
G01 X351.906 Y79.218
G01 X352.446 Y75.790
G01 X353.544 Y72.463
G01 X355.180 Y69.366
G01 X357.327 Y66.567
G01 X359.925 Y64.179
G01 X362.877 Y62.243
G01 X366.130 Y60.797
G01 X369.575 Y59.906
G01 X373.128 Y59.622
G01 X376.692 Y59.958
G01 X380.185 Y60.845
G01 X383.455 Y62.309
G01 X386.488 Y64.286
G01 X389.127 Y66.756
G01 X391.328 Y69.654
G01 X393.019 Y72.884
G01 X394.169 Y76.346
G01 X394.756 Y79.974
G01 X394.696 Y83.650
G01 X394.017 Y87.278
G01 X392.736 Y90.758
G01 X390.911 Y93.991
G01 X388.599 Y96.889
G01 X385.800 Y99.347
G01 X382.618 Y101.329
G01 X379.141 Y102.726
G01 X375.455 Y103.567
G01 X371.699 Y103.799
G01 X367.926 Y103.392
G01 X364.291 Y102.339
G01 X360.853 Y100.674
G01 X357.726 Y98.494
G01 X354.980 Y95.822
G01 X352.725 Y92.726
G01 X351.021 Y89.259
G01 X349.936 Y85.561
G01 X349.441 Y81.709
G01 X349.587 Y77.827
G01 X350.385 Y74.018
G01 X351.790 Y70.388
G01 X353.835 Y67.036
G01 X356.387 Y64.059
G01 X359.414 Y61.533
G01 X362.808 Y59.523
G01 X366.486 Y58.114
G01 X370.401 Y57.355
G01 X374.369 Y57.239
G01 X378.338 Y57.781
G01 X382.160 Y58.958
G01 X385.724 Y60.765
G01 X388.947 Y63.182
G01 X391.758 Y66.094
G01 X394.043 Y69.410
G01 X395.767 Y73.093
G01 X396.845 Y77.485
G01 X397.100 Y81.567
G01 X396.782 Y85.153
G01 X395.341 Y90.246
G01 X393.531 Y93.843
G01 X390.754 Y97.539
G01 X387.683 Y100.386
G01 X384.941 Y102.213
G01 X381.388 Y103.919
G01 X378.009 Y104.927
G01 X375.247 Y105.368
G01 X372.327 Y105.501
G01 X368.595 Y105.158
G01 X365.422 Y104.400
G01 X362.544 Y103.297
G01 X360.477 Y102.233
G01 X358.354 Y100.855
G01 X334.374 Y133.863
G01 X334.063 Y133.607
G01 X333.678 Y133.331
G01 X333.433 Y133.155
G01 X333.161 Y132.869
G01 X331.745 Y134.838
G01 X329.903 Y137.363
G01 X328.072 Y139.896
G01 X326.247 Y142.402
G01 X324.409 Y144.929
G01 X322.572 Y147.458
G01 X320.737 Y149.987
G01 X318.893 Y152.511
G01 X317.061 Y155.043
G01 X315.236 Y157.549
G01 X313.398 Y160.077
G01 X311.563 Y162.606
G01 X309.729 Y165.137
G01 X307.889 Y167.664
G01 X306.052 Y170.192
G01 X304.232 Y172.702
G01 X302.392 Y175.229
G01 X300.555 Y177.757
G01 X300.176 Y178.285
G01 X301.123 Y176.021
G01 X302.214 Y173.101
G01 X302.413 Y172.542
G01 X303.900 Y170.499
G01 X305.736 Y167.968
G01 X307.576 Y165.441
G01 X309.414 Y162.911
G01 X311.232 Y160.399
G01 X313.069 Y157.870
G01 X314.910 Y155.343
G01 X316.746 Y152.812
G01 X318.585 Y150.284
G01 X320.403 Y147.772
G01 X322.249 Y145.249
G01 X324.087 Y142.721
G01 X325.918 Y140.188
G01 X327.751 Y137.656
G01 X329.584 Y135.155
G01 X331.411 Y132.619
G01 X331.891 Y131.978
G01 X330.599 Y131.092
G01 X330.141 Y131.718
G01 X328.321 Y134.229
G01 X326.479 Y136.756
G01 X324.642 Y139.286
G01 X322.809 Y141.819
G01 X320.983 Y144.327
G01 X319.147 Y146.859
G01 X317.307 Y149.387
G01 X315.471 Y151.919
G01 X313.645 Y154.427
G01 X311.801 Y156.954
G01 X309.963 Y159.485
G01 X308.132 Y162.021
G01 X306.303 Y164.528
G01 X304.468 Y167.061
G01 X303.865 Y167.891
G01 X304.399 Y165.853
G01 X304.873 Y163.840
G01 X305.489 Y162.988
G01 X307.331 Y160.456
G01 X309.159 Y157.945
G01 X311.000 Y155.414
G01 X312.839 Y152.882
G01 X314.663 Y150.370
G01 X316.497 Y147.835
G01 X318.338 Y145.304
G01 X320.161 Y142.793
G01 X322.004 Y140.264
G01 X323.842 Y137.733
G01 X325.686 Y135.205
G01 X327.509 Y132.694
G01 X329.299 Y130.221
G01 X329.239 Y130.181
G01 X327.988 Y129.364
G01 X327.035 Y130.682
G01 X325.199 Y133.217
G01 X323.359 Y135.749
G01 X321.528 Y138.257
G01 X319.690 Y140.792
G01 X317.863 Y143.303
G01 X316.019 Y145.834
G01 X314.184 Y148.371
G01 X312.360 Y150.886
G01 X310.512 Y153.415
G01 X308.688 Y155.931
G01 X306.851 Y158.468
G01 X305.595 Y160.190
G01 X305.751 Y159.229
G01 X306.085 Y156.857
G01 X306.502 Y156.291
G01 X308.338 Y153.749
G01 X310.172 Y151.236
G01 X312.011 Y148.698
G01 X313.837 Y146.181
G01 X315.686 Y143.650
G01 X317.512 Y141.134
G01 X319.348 Y138.596
G01 X321.180 Y136.085
G01 X323.022 Y133.552
G01 X324.848 Y131.037
G01 X326.669 Y128.521
G01 X326.657 Y128.513
G01 X325.340 Y127.692
G01 X324.417 Y128.974
G01 X322.580 Y131.484
G01 X320.740 Y134.021
G01 X318.910 Y136.536
G01 X317.077 Y139.080
G01 X315.245 Y141.595
G01 X313.414 Y144.111
G01 X311.571 Y146.651
G01 X309.743 Y149.170
G01 X307.907 Y151.686
G01 X306.414 Y153.738
G01 X306.469 Y153.133
G01 X306.614 Y150.821
G01 X307.068 Y150.188
G01 X308.916 Y147.645
G01 X310.746 Y145.122
G01 X312.579 Y142.602
G01 X314.415 Y140.084
G01 X316.241 Y137.562
G01 X318.081 Y135.019
G01 X319.919 Y132.505
G01 X321.744 Y129.984
G01 X323.593 Y127.449
G01 X324.003 Y126.878
G01 X322.656 Y126.079
G01 X322.152 Y126.769
G01 X320.321 Y129.289
G01 X318.488 Y131.810
G01 X316.657 Y134.332
G01 X314.826 Y136.855
G01 X312.987 Y139.375
G01 X311.150 Y141.897
G01 X309.318 Y144.423
G01 X307.491 Y146.952
G01 X306.703 Y148.030
G01 X306.702 Y146.231
G01 X306.684 Y145.396
G01 X308.022 Y143.562
G01 X309.855 Y141.031
G01 X311.693 Y138.505
G01 X313.525 Y135.976
G01 X315.360 Y133.451
G01 X317.198 Y130.928
G01 X319.026 Y128.400
G01 X320.867 Y125.881
G01 X321.289 Y125.287
G01 X319.925 Y124.518
G01 X319.436 Y125.190
G01 X317.599 Y127.716
G01 X315.764 Y130.244
G01 X313.944 Y132.754
G01 X312.105 Y135.282
G01 X310.270 Y137.815
G01 X308.431 Y140.346
G01 X306.599 Y142.856
G01 X306.432 Y140.428
G01 X306.829 Y139.873
G01 X308.668 Y137.363
G01 X310.503 Y134.825
G01 X312.345 Y132.292
G01 X314.170 Y129.779
G01 X316.010 Y127.248
G01 X317.842 Y124.714
G01 X318.541 Y123.756
G01 X317.148 Y123.010
G01 X316.946 Y123.299
G01 X315.112 Y125.809
G01 X313.272 Y128.345
G01 X311.448 Y130.864
G01 X309.608 Y133.403
G01 X307.775 Y135.921
G01 X306.198 Y138.093
G01 X306.141 Y137.674
G01 X305.911 Y135.831
G01 X306.657 Y134.804
G01 X308.486 Y132.278
G01 X310.323 Y129.758
G01 X312.157 Y127.239
G01 X313.996 Y124.696
G01 X315.747 Y122.279
G01 X315.632 Y122.220
G01 X314.338 Y121.563
G01 X313.358 Y122.918
G01 X311.525 Y125.442
G01 X309.688 Y127.965
G01 X307.859 Y130.495
G01 X306.017 Y133.020
G01 X305.554 Y133.658
G01 X305.162 Y131.538
G01 X305.271 Y131.396
G01 X307.093 Y128.882
G01 X308.936 Y126.353
G01 X310.765 Y123.819
G01 X312.601 Y121.292
G01 X312.921 Y120.864
G01 X311.484 Y120.173
G01 X310.912 Y120.981
G01 X309.068 Y123.513
G01 X307.233 Y126.023
G01 X305.398 Y128.564
G01 X304.714 Y129.489
G01 X304.246 Y127.607
G01 X304.227 Y127.517
G01 X306.007 Y125.053
G01 X307.841 Y122.535
G01 X309.674 Y120.019
G01 X310.052 Y119.505
G01 X308.600 Y118.846
G01 X308.074 Y119.569
G01 X306.232 Y122.090
G01 X304.404 Y124.619
G01 X303.710 Y125.572
G01 X303.157 Y123.706
G01 X303.144 Y123.701
G01 X304.962 Y121.186
G01 X306.804 Y118.657
G01 X307.127 Y118.198
G01 X305.661 Y117.572
G01 X305.105 Y118.342
G01 X303.266 Y120.854
G01 X302.508 Y121.893
G01 X301.902 Y120.165
G01 X301.882 Y120.103
G01 X303.687 Y117.623
G01 X304.174 Y116.957
G01 X302.681 Y116.359
G01 X302.274 Y116.924
G01 X301.075 Y118.549
G01 X300.459 Y117.669
G01 X300.106 Y117.241
G01 X301.167 Y115.772
G01 X300.469 Y115.508
G01 X299.647 Y115.202
G01 X299.003 Y116.084
G01 X298.119 Y115.339
G01 X295.430 Y113.776
G01 X292.434 Y112.917
G01 X289.325 Y112.826
G01 X289.065 Y112.855
G01 X289.062 Y111.763
G01 X287.497 Y111.330
G01 X287.500 Y111.486
G01 X287.506 Y113.146
G01 X286.116 Y113.575
G01 X285.940 Y113.632
G01 X285.942 Y110.919
G01 X285.733 Y110.865
G01 X284.382 Y110.525
G01 X284.367 Y112.247
G01 X284.374 Y114.414
G01 X283.589 Y114.965
G01 X282.815 Y115.495
G01 X282.813 Y113.308
G01 X282.806 Y110.198
G01 X282.818 Y110.149
G01 X281.250 Y109.790
G01 X281.259 Y111.253
G01 X281.253 Y114.380
G01 X281.251 Y116.586
G01 X280.507 Y117.132
G01 X279.694 Y117.768
G01 X279.694 Y115.693
G01 X279.693 Y112.571
G01 X279.691 Y109.452
G01 X278.129 Y109.131
G01 X278.128 Y110.661
G01 X278.125 Y113.773
G01 X278.134 Y116.891
G01 X278.119 Y119.035
G01 X277.357 Y119.665
G01 X276.565 Y120.343
G01 X276.564 Y118.277
G01 X276.560 Y115.166
G01 X276.561 Y112.034
G01 X276.560 Y108.928
G01 X276.564 Y108.828
G01 X274.995 Y108.541
G01 X275.000 Y109.989
G01 X274.993 Y113.113
G01 X275.007 Y116.217
G01 X275.004 Y119.346
G01 X274.999 Y121.739
G01 X274.475 Y122.248
G01 X273.436 Y123.223
G01 X273.445 Y121.522
G01 X273.440 Y118.421
G01 X273.440 Y115.299
G01 X273.430 Y112.177
G01 X273.442 Y109.036
G01 X273.438 Y108.275
G01 X271.878 Y108.026
G01 X271.876 Y108.784
G01 X271.871 Y111.921
G01 X271.876 Y115.036
G01 X271.872 Y118.152
G01 X271.871 Y121.270
G01 X271.871 Y124.390
G01 X271.882 Y124.772
G01 X270.308 Y126.433
G01 X270.307 Y125.976
G01 X270.308 Y122.862
G01 X270.315 Y119.724
G01 X270.309 Y116.612
G01 X270.311 Y113.478
G01 X270.317 Y110.370
G01 X270.315 Y107.794
G01 X269.774 Y107.717
G01 X268.749 Y107.579
G01 X268.745 Y109.671
G01 X268.746 Y112.800
G01 X268.746 Y115.904
G01 X268.749 Y119.035
G01 X268.744 Y122.167
G01 X268.747 Y125.276
G01 X268.746 Y128.184
G01 X268.610 Y128.340
G01 X267.184 Y130.050
G01 X267.187 Y129.166
G01 X267.190 Y126.036
G01 X267.184 Y122.906
G01 X267.179 Y119.804
G01 X267.185 Y116.678
G01 X267.186 Y113.553
G01 X267.182 Y110.429
G01 X267.181 Y107.381
G01 X267.110 Y107.373
G01 X265.626 Y107.202
G01 X265.618 Y108.836
G01 X265.623 Y111.956
G01 X265.625 Y115.077
G01 X265.624 Y118.198
G01 X265.620 Y121.320
G01 X265.623 Y124.443
G01 X265.623 Y127.543
G01 X265.624 Y130.669
G01 X265.623 Y132.055
G01 X264.584 Y133.459
G01 X264.059 Y134.175
G01 X264.065 Y131.960
G01 X264.056 Y128.838
G01 X264.065 Y125.718
G01 X264.057 Y122.598
G01 X264.061 Y119.455
G01 X264.058 Y116.337
G01 X264.068 Y113.222
G01 X264.064 Y110.105
G01 X264.068 Y107.041
G01 X264.011 Y107.035
G01 X262.495 Y106.894
G01 X262.497 Y108.501
G01 X262.499 Y111.638
G01 X262.504 Y114.752
G01 X262.496 Y117.865
G01 X262.501 Y120.979
G01 X262.502 Y124.119
G01 X262.503 Y127.235
G01 X262.500 Y130.351
G01 X262.504 Y133.469
G01 X262.502 Y136.486
G01 X262.434 Y136.580
G01 X260.938 Y138.962
G01 X260.934 Y138.661
G01 X260.940 Y135.547
G01 X260.943 Y132.408
G01 X260.941 Y129.295
G01 X260.936 Y126.182
G01 X260.944 Y123.046
G01 X260.937 Y119.934
G01 X260.933 Y116.798
G01 X260.941 Y113.688
G01 X260.938 Y110.578
G01 X260.940 Y107.444
G01 X260.934 Y106.767
G01 X259.373 Y106.656
G01 X259.373 Y107.533
G01 X259.376 Y110.665
G01 X259.373 Y113.772
G01 X259.371 Y116.904
G01 X259.374 Y120.013
G01 X259.378 Y123.146
G01 X259.372 Y126.254
G01 X259.377 Y129.389
G01 X259.372 Y132.498
G01 X259.375 Y135.634
G01 X259.378 Y138.745
G01 X259.371 Y141.680
G01 X259.280 Y141.847
G01 X257.844 Y144.616
G01 X257.808 Y144.664
G01 X257.815 Y141.631
G01 X257.817 Y138.499
G01 X257.816 Y135.391
G01 X257.817 Y132.259
G01 X257.817 Y129.153
G01 X257.808 Y126.021
G01 X257.812 Y122.915
G01 X257.808 Y119.784
G01 X257.809 Y116.653
G01 X257.813 Y113.548
G01 X257.810 Y110.418
G01 X257.813 Y107.289
G01 X257.810 Y106.562
G01 X256.246 Y106.486
G01 X256.253 Y107.312
G01 X256.255 Y110.440
G01 X256.253 Y113.543
G01 X256.257 Y116.672
G01 X256.253 Y119.800
G01 X256.245 Y122.903
G01 X256.252 Y126.033
G01 X256.252 Y129.162
G01 X256.245 Y132.266
G01 X256.251 Y135.395
G01 X256.248 Y138.525
G01 X256.248 Y141.630
G01 X256.247 Y144.760
G01 X256.246 Y147.891
G01 X256.247 Y148.041
G01 X255.114 Y150.782
G01 X254.691 Y151.912
G01 X254.683 Y149.985
G01 X254.685 Y146.856
G01 X254.688 Y143.753
G01 X254.683 Y140.625
G01 X254.693 Y137.498
G01 X254.685 Y134.370
G01 X254.691 Y131.268
G01 X254.693 Y128.140
G01 X254.688 Y125.013
G01 X254.690 Y121.886
G01 X254.685 Y118.784
G01 X254.689 Y115.657
G01 X254.689 Y112.530
G01 X254.683 Y109.403
G01 X254.681 Y106.426
G01 X254.552 Y106.422
G01 X253.130 Y106.384
G01 X253.122 Y108.084
G01 X253.122 Y111.210
G01 X253.120 Y114.311
G01 X253.128 Y117.437
G01 X253.119 Y120.563
G01 X253.120 Y123.689
G01 X253.129 Y126.815
G01 X253.122 Y129.916
G01 X253.123 Y133.042
G01 X253.130 Y136.168
G01 X253.122 Y139.294
G01 X253.120 Y142.420
G01 X253.124 Y145.522
G01 X253.122 Y148.648
G01 X253.124 Y151.775
G01 X253.129 Y154.901
G01 X253.122 Y156.527
G01 X252.706 Y157.965
G01 X251.914 Y160.971
G01 X251.566 Y162.489
G01 X251.558 Y160.939
G01 X251.567 Y157.813
G01 X251.563 Y154.688
G01 X251.564 Y151.587
G01 X251.563 Y148.462
G01 X251.559 Y145.337
G01 X251.562 Y142.211
G01 X251.563 Y139.086
G01 X251.562 Y135.961
G01 X251.557 Y132.860
G01 X251.563 Y129.735
G01 X251.566 Y126.610
G01 X251.568 Y123.485
G01 X251.568 Y120.359
G01 X251.566 Y117.234
G01 X251.562 Y114.134
G01 X251.556 Y111.009
G01 X251.562 Y107.884
G01 X251.565 Y106.359
G01 X250.042 Y106.350
G01 X250.042 Y106.425
G01 X250.029 Y151.225
G01 X245.182 Y151.343
G01 X244.934 Y151.355
G01 X240.207 Y151.712
G01 X235.396 Y152.311
G01 X234.877 Y152.390
G01 X231.646 Y152.945
G01 X228.907 Y153.504
G01 X228.901 Y149.337
G01 X228.904 Y145.559
G01 X228.910 Y142.092
G01 X228.908 Y137.485
G01 X228.900 Y133.724
G01 X228.902 Y130.676
G01 X228.908 Y137.485
G01 X228.907 Y143.825
G01 X228.901 Y149.337
G01 X228.907 Y153.504
G01 X225.418 Y154.333
G01 X223.130 Y154.950
G01 X219.632 Y156.009
G01 X220.909 Y160.299
G01 X222.401 Y165.361
G01 X223.513 Y169.101
G01 X225.325 Y175.242
G01 X226.449 Y179.031
G01 X227.387 Y182.196
G01 X225.886 Y177.137
G01 X224.728 Y173.228
G01 X222.956 Y167.231
G01 X221.910 Y163.680
G01 X220.909 Y160.299
G01 X219.632 Y156.009
G01 X215.824 Y157.326
G01 X211.662 Y158.969
G01 X208.249 Y160.483
G01 X204.133 Y162.520
G01 X200.475 Y164.538
G01 X196.997 Y166.650
G01 X192.971 Y169.351
G01 X191.942 Y170.089
G01 X165.566 Y133.784
G01 X220.156 Y208.922
G01 X221.687 Y207.852
G01 X223.789 Y206.513
G01 X224.559 Y206.058
G01 X226.746 Y204.863
G01 X227.645 Y204.411
G01 X229.909 Y203.369
G01 X231.639 Y202.661
G01 X233.984 Y201.817
G01 X235.724 Y201.273
G01 X238.132 Y200.631
G01 X239.962 Y200.227
G01 X242.416 Y199.795
G01 X244.889 Y199.483
G01 X245.092 Y199.463
G01 X247.578 Y199.283
G01 X248.974 Y199.235
G01 X249.939 Y199.250
G01 X250.015 Y197.950
G01 X247.585 Y198.006
G01 X245.037 Y198.187
G01 X243.541 Y198.352
G01 X241.015 Y198.731
G01 X239.027 Y199.120
G01 X236.544 Y199.719
G01 X234.093 Y200.440
G01 X232.907 Y200.837
G01 X230.515 Y201.735
G01 X229.654 Y202.091
G01 X227.327 Y203.147
G01 X225.056 Y204.316
G01 X224.626 Y204.554
G01 X222.427 Y205.853
G01 X221.588 Y206.388
G01 X219.483 Y207.835
G01 X219.406 Y207.890
G01 X218.495 Y206.636
G01 X220.661 Y205.143
G01 X220.931 Y204.967
G01 X223.176 Y203.595
G01 X224.077 Y203.086
G01 X226.410 Y201.870
G01 X228.188 Y201.039
G01 X230.616 Y200.028
G01 X232.069 Y199.488
G01 X234.569 Y198.669
G01 X235.966 Y198.270
G01 X238.522 Y197.643
G01 X239.793 Y197.381
G01 X242.387 Y196.943
G01 X244.489 Y196.684
G01 X247.111 Y196.478
G01 X248.269 Y196.428
G01 X250.026 Y196.400
G01 X250.016 Y194.825
G01 X249.646 Y194.826
G01 X246.940 Y194.910
G01 X245.381 Y195.019
G01 X242.689 Y195.312
G01 X241.340 Y195.509
G01 X238.677 Y195.999
G01 X237.480 Y196.264
G01 X234.858 Y196.943
G01 X233.420 Y197.375
G01 X230.858 Y198.252
G01 X229.652 Y198.714
G01 X227.160 Y199.774
G01 X226.653 Y200.008
G01 X224.228 Y201.214
G01 X223.833 Y201.424
G01 X221.482 Y202.767
G01 X221.146 Y202.971
G01 X219.014 Y204.347
G01 X217.569 Y205.362
G01 X165.566 Y133.784
G01 X171.370 Y129.781
G01 X171.552 Y129.662
G01 X177.551 Y125.958
G01 X178.050 Y125.668
G01 X184.237 Y122.287
G01 X184.750 Y122.024
G01 X189.920 Y129.134
G01 X197.010 Y138.889
G01 X187.864 Y126.304
G01 X184.750 Y122.024
G01 X191.108 Y118.977
G01 X192.831 Y118.216
G01 X199.366 Y115.570
G01 X201.174 Y114.903
G01 X207.862 Y112.669
G01 X210.646 Y111.846
G01 X217.472 Y110.081
G01 X218.230 Y109.907
G01 X225.142 Y108.517
G01 X226.291 Y108.320
G01 X233.271 Y107.327
G01 X234.829 Y107.153
G01 X241.857 Y106.581
G01 X243.379 Y106.503
G01 X249.999 Y106.350
G01 X250.037 Y122.550
G01 X250.034 Y133.625
G01 X250.031 Y143.900
G01 X250.029 Y151.225
G01 X250.027 Y158.400
G01 X250.023 Y171.675
G01 X250.019 Y184.600
G01 X250.016 Y194.825
G01 X250.014 Y202.850
G01 X250.013 Y205.475
G01 X252.198 Y205.529
G01 X254.377 Y205.691
G01 X255.122 Y205.771
G01 X257.286 Y206.075
G01 X259.433 Y206.486
G01 X260.471 Y206.724
G01 X262.582 Y207.290
G01 X264.662 Y207.958
G01 X266.544 Y208.663
G01 X268.552 Y209.524
G01 X270.516 Y210.483
G01 X271.045 Y210.762
G01 X272.945 Y211.842
G01 X274.789 Y213.014
G01 X276.170 Y213.978
G01 X280.555 Y207.461
G01 X284.687 Y201.841
G01 X293.144 Y189.694
G01 X300.176 Y178.285
G01 X303.865 Y167.891
G01 X305.595 Y160.190
G01 X306.414 Y153.738
G01 X306.703 Y148.030
G01 X306.599 Y142.856
G01 X306.198 Y138.093
G01 X305.554 Y133.658
G01 X304.714 Y129.489
G01 X303.710 Y125.572
G01 X302.508 Y121.893
G01 X301.075 Y118.549
G01 X299.003 Y116.084
G01 X296.825 Y114.487
G01 X294.572 Y113.440
G01 X292.643 Y112.825
G01 X289.065 Y112.855
G01 X285.940 Y113.632
G01 X282.815 Y115.495
G01 X279.694 Y117.768
G01 X276.565 Y120.343
G01 X273.436 Y123.223
G01 X270.308 Y126.433
G01 X267.184 Y130.050
G01 X264.059 Y134.175
G01 X260.938 Y138.962
G01 X257.808 Y144.664
G01 X254.691 Y151.912
G01 X251.566 Y162.489
G01 X250.897 Y165.280
G01 X250.564 Y172.727
G01 X250.488 Y183.027
G01 X250.392 Y192.351
G01 X249.985 Y249.000
G01 X249.937 Y249.018
G01 X249.891 Y249.038
G01 X249.846 Y249.060
G01 X249.804 Y249.085
G01 X249.763 Y249.111
G01 X249.725 Y249.139
G01 X249.689 Y249.168
G01 X249.654 Y249.199
G01 X249.623 Y249.232
G01 X249.593 Y249.265
G01 X249.566 Y249.300
G01 X249.541 Y249.335
G01 X249.530 Y249.353
G01 X249.324 Y249.070
G01 X127.287 Y81.096
G01 X127.306 Y81.051
G01 X127.342 Y80.994
G01 X127.378 Y80.937
G01 X127.460 Y80.908
G01 X127.526 Y80.892
G01 X127.606 Y80.896
G01 X127.701 Y80.920
G01 X127.793 Y80.976
G01 X127.866 Y81.078
G01 X127.939 Y81.179
G01 X127.979 Y81.305
G01 X127.987 Y81.422
G01 X127.993 Y81.572
G01 X127.951 Y81.727
G01 X127.877 Y81.873
G01 X127.772 Y82.011
G01 X127.635 Y82.141
G01 X127.453 Y82.243
G01 X127.272 Y82.313
G01 X127.060 Y82.376
G01 X126.836 Y82.386
G01 X126.598 Y82.343
G01 X126.362 Y82.269
G01 X126.144 Y82.150
G01 X125.931 Y81.966
G01 X125.751 Y81.757
G01 X125.606 Y81.491
G01 X125.495 Y81.199
G01 X125.434 Y80.903
G01 X125.438 Y80.590
G01 X125.476 Y80.251
G01 X125.579 Y79.928
G01 X125.746 Y79.621
G01 X125.992 Y79.349
G01 X126.284 Y79.106
G01 X126.607 Y78.904
G01 X126.990 Y78.751
G01 X127.383 Y78.684
G01 X127.791 Y78.639
G01 X128.222 Y78.700
G01 X128.633 Y78.807
G01 X129.035 Y79.012
G01 X129.397 Y79.307
G01 X129.723 Y79.659
G01 X129.980 Y80.059
G01 X130.200 Y80.515
G01 X130.325 Y80.979
G01 X130.366 Y81.501
G01 X130.328 Y82.019
G01 X130.196 Y82.543
G01 X129.957 Y83.022
G01 X129.641 Y83.497
G01 X129.250 Y83.903
G01 X128.786 Y84.242
G01 X128.261 Y84.534
G01 X127.696 Y84.702
G01 X127.087 Y84.780
G01 X126.483 Y84.763
G01 X125.853 Y84.610
G01 X125.241 Y84.382
G01 X124.681 Y84.053
G01 X124.172 Y83.623
G01 X123.747 Y83.130
G01 X123.392 Y82.521
G01 X123.168 Y81.875
G01 X123.044 Y81.186
G01 X123.023 Y80.452
G01 X123.148 Y79.734
G01 X123.358 Y79.018
G01 X123.696 Y78.364
G01 X124.147 Y77.754
G01 X124.709 Y77.221
G01 X125.361 Y76.812
G01 X126.105 Y76.494
G01 X126.886 Y76.307
G01 X127.690 Y76.228
G01 X128.513 Y76.292
G01 X129.322 Y76.490
G01 X130.099 Y76.833
G01 X130.796 Y77.324
G01 X131.434 Y77.917
G01 X131.948 Y78.625
G01 X132.359 Y79.405
G01 X132.652 Y80.266
G01 X132.786 Y81.146
G01 X132.776 Y82.067
G01 X132.597 Y82.986
G01 X132.250 Y83.874
G01 X131.755 Y84.686
G01 X131.142 Y85.435
G01 X130.397 Y86.068
G01 X129.567 Y86.583
G01 X128.666 Y86.971
G01 X127.679 Y87.179
G01 X126.650 Y87.203
G01 X125.641 Y87.060
G01 X124.635 Y86.759
G01 X123.696 Y86.283
G01 X122.838 Y85.682
G01 X122.065 Y84.921
G01 X121.440 Y84.046
G01 X120.997 Y83.061
G01 X120.706 Y81.991
G01 X120.582 Y80.888
G01 X120.646 Y79.740
G01 X120.892 Y78.644
G01 X121.337 Y77.592
G01 X121.949 Y76.608
G01 X122.737 Y75.751
G01 X123.668 Y75.013
G01 X124.705 Y74.422
G01 X125.842 Y74.014
G01 X127.027 Y73.793
G01 X128.255 Y73.793
G01 X129.458 Y73.996
G01 X130.637 Y74.403
G01 X131.742 Y75.013
G01 X132.744 Y75.784
G01 X133.616 Y76.705
G01 X134.323 Y77.796
G01 X134.829 Y78.992
G01 X135.122 Y80.272
G01 X135.214 Y81.570
G01 X135.088 Y82.898
G01 X134.753 Y84.193
G01 X134.213 Y85.425
G01 X133.438 Y86.556
G01 X132.492 Y87.544
G01 X131.374 Y88.358
G01 X130.127 Y89.000
G01 X128.796 Y89.436
G01 X127.392 Y89.654
G01 X125.978 Y89.606
G01 X124.565 Y89.312
G01 X123.198 Y88.794
G01 X121.942 Y88.066
G01 X120.814 Y87.142
G01 X119.848 Y86.025
G01 X119.079 Y84.752
G01 X118.529 Y83.339
G01 X118.230 Y81.856
G01 X118.153 Y80.330
G01 X118.333 Y78.801
G01 X118.766 Y77.337
G01 X119.454 Y75.941
G01 X120.391 Y74.682
G01 X121.524 Y73.572
G01 X122.830 Y72.659
G01 X124.268 Y71.973
G01 X125.803 Y71.507
G01 X127.422 Y71.331
G01 X129.040 Y71.438
G01 X130.638 Y71.809
G01 X132.165 Y72.443
G01 X133.591 Y73.328
G01 X134.857 Y74.411
G01 X135.915 Y75.720
G01 X136.742 Y77.210
G01 X137.304 Y78.815
G01 X137.593 Y80.512
G01 X137.622 Y82.236
G01 X137.381 Y83.966
G01 X136.833 Y85.612
G01 X135.997 Y87.166
G01 X134.891 Y88.560
G01 X133.591 Y89.773
G01 X132.093 Y90.779
G01 X130.456 Y91.503
G01 X128.702 Y91.957
G01 X126.890 Y92.095
G01 X125.044 Y91.923
G01 X123.271 Y91.448
G01 X121.571 Y90.697
G01 X120.007 Y89.679
G01 X118.616 Y88.393
G01 X117.482 Y86.898
G01 X116.629 Y85.209
G01 X116.029 Y83.380
G01 X115.752 Y81.488
G01 X115.754 Y79.541
G01 X116.100 Y77.652
G01 X116.776 Y75.805
G01 X117.758 Y74.119
G01 X119.028 Y72.580
G01 X120.510 Y71.280
G01 X122.214 Y70.211
G01 X124.062 Y69.429
G01 X126.040 Y69.005
G01 X128.060 Y68.902
G01 X130.095 Y69.166
G01 X132.049 Y69.735
G01 X133.920 Y70.605
G01 X135.625 Y71.797
G01 X137.089 Y73.264
G01 X138.307 Y74.977
G01 X139.216 Y76.859
G01 X139.824 Y78.905
G01 X140.074 Y81.006
G01 X140.009 Y83.141
G01 X139.562 Y85.239
G01 X138.745 Y87.241
G01 X137.608 Y89.091
G01 X136.182 Y90.741
G01 X134.494 Y92.147
G01 X132.598 Y93.270
G01 X130.532 Y94.051
G01 X128.347 Y94.446
G01 X126.111 Y94.491
G01 X123.895 Y94.155
G01 X121.743 Y93.489
G01 X119.733 Y92.456
G01 X117.886 Y91.098
G01 X116.319 Y89.442
G01 X115.042 Y87.545
G01 X114.081 Y85.419
G01 X113.476 Y83.198
G01 X113.253 Y80.865
G01 X113.417 Y78.522
G01 X114.001 Y76.245
G01 X114.922 Y74.076
G01 X116.225 Y72.081
G01 X117.819 Y70.304
G01 X119.706 Y68.839
G01 X121.824 Y67.701
G01 X124.114 Y66.900
G01 X126.505 Y66.513
G01 X128.942 Y66.512
G01 X131.361 Y66.931
G01 X133.694 Y67.749
G01 X135.845 Y68.931
G01 X137.798 Y70.480
G01 X139.469 Y72.325
G01 X140.807 Y74.437
G01 X141.798 Y76.765
G01 X142.372 Y79.208
G01 X142.530 Y81.743
G01 X142.278 Y84.285
G01 X141.616 Y86.754
G01 X140.539 Y89.074
G01 X139.082 Y91.202
G01 X137.273 Y93.065
G01 X135.179 Y94.622
G01 X132.866 Y95.824
G01 X130.348 Y96.595
G01 X127.750 Y96.958
G01 X125.105 Y96.844
G01 X122.498 Y96.333
G01 X120.007 Y95.418
G01 X117.694 Y94.066
G01 X115.648 Y92.327
G01 X113.897 Y90.272
G01 X112.502 Y87.947
G01 X111.510 Y85.414
G01 X110.933 Y82.735
G01 X110.830 Y80.000
G01 X111.193 Y77.260
G01 X111.988 Y74.615
G01 X113.212 Y72.143
G01 X114.843 Y69.868
G01 X116.829 Y67.930
G01 X119.144 Y66.320
G01 X121.684 Y65.115
G01 X124.416 Y64.334
G01 X127.220 Y64.024
G01 X130.082 Y64.185
G01 X132.856 Y64.846
G01 X135.513 Y65.924
G01 X137.966 Y67.435
G01 X140.139 Y69.359
G01 X141.954 Y71.621
G01 X143.368 Y74.155
G01 X144.374 Y76.908
G01 X144.890 Y79.789
G01 X144.942 Y82.731
G01 X144.494 Y85.651
G01 X143.547 Y88.474
G01 X142.146 Y91.095
G01 X140.337 Y93.466
G01 X138.158 Y95.540
G01 X135.642 Y97.206
G01 X132.874 Y98.400
G01 X129.941 Y99.144
G01 X126.899 Y99.413
G01 X123.857 Y99.171
G01 X120.883 Y98.410
G01 X118.088 Y97.151
G01 X115.509 Y95.449
G01 X113.255 Y93.334
G01 X111.360 Y90.874
G01 X109.874 Y88.125
G01 X108.913 Y85.159
G01 X108.446 Y82.046
G01 X108.484 Y78.887
G01 X109.034 Y75.789
G01 X110.097 Y72.796
G01 X111.666 Y70.021
G01 X113.695 Y67.542
G01 X116.101 Y65.429
G01 X118.814 Y63.736
G01 X121.796 Y62.487
G01 X124.952 Y61.778
G01 X128.196 Y61.594
G01 X131.427 Y61.964
G01 X134.586 Y62.851
G01 X137.554 Y64.231
G01 X140.246 Y66.114
G01 X142.593 Y68.441
G01 X144.523 Y71.134
G01 X146.019 Y74.112
G01 X146.986 Y77.288
G01 X147.424 Y80.613
G01 X147.262 Y83.965
G01 X146.578 Y87.257
G01 X145.345 Y90.404
G01 X143.603 Y93.309
G01 X141.427 Y95.909
G01 X138.789 Y98.080
G01 X135.845 Y99.808
G01 X132.631 Y101.032
G01 X129.253 Y101.719
G01 X125.811 Y101.839
G01 X122.394 Y101.361
G01 X119.073 Y100.302
G01 X115.979 Y98.729
G01 X113.155 Y96.657
G01 X110.700 Y94.157
G01 X108.716 Y91.237
G01 X107.249 Y88.028
G01 X106.320 Y84.622
G01 X105.949 Y81.082
G01 X106.167 Y77.530
G01 X106.995 Y74.063
G01 X108.398 Y70.792
G01 X110.321 Y67.744
G01 X112.742 Y65.072
G01 X115.560 Y62.798
G01 X118.725 Y61.052
G01 X122.161 Y59.854
G01 X125.756 Y59.244
G01 X129.403 Y59.220
G01 X133.016 Y59.796
G01 X136.512 Y60.977
G01 X139.753 Y62.744
G01 X142.666 Y65.037
G01 X145.177 Y67.773
G01 X147.201 Y70.877
G01 X148.691 Y74.288
G01 X149.576 Y77.937
G01 X149.847 Y81.666
G01 X149.508 Y85.432
G01 X148.551 Y89.085
G01 X147.014 Y92.538
G01 X144.874 Y95.679
G01 X142.244 Y98.424
G01 X139.204 Y100.725
G01 X135.814 Y102.510
G01 X132.158 Y103.710
G01 X128.349 Y104.247
G01 X124.482 Y104.148
G01 X120.680 Y103.416
G01 X117.033 Y102.078
G01 X113.643 Y100.155
G01 X110.640 Y97.683
G01 X108.083 Y94.702
G01 X106.041 Y91.356
G01 X104.558 Y87.711
G01 X103.695 Y83.862
G01 X103.508 Y79.914
G01 X103.979 Y75.970
G01 X105.112 Y72.146
G01 X106.836 Y68.554
G01 X109.137 Y65.282
G01 X111.975 Y62.437
G01 X115.269 Y60.118
G01 X118.889 Y58.358
G01 X122.768 Y57.197
G01 X126.784 Y56.708
G01 X131.314 Y57.027
G01 X135.274 Y58.046
G01 X138.567 Y59.469
G01 X142.966 Y62.413
G01 X145.827 Y65.245
G01 X148.503 Y69.018
G01 X150.244 Y72.829
G01 X151.152 Y75.991
G01 X151.676 Y79.898
G01 X151.590 Y83.422
G01 X151.156 Y86.186
G01 X150.380 Y89.004
G01 X148.901 Y92.447
G01 X147.199 Y95.231
G01 X145.261 Y97.626
G01 X143.610 Y99.264
G01 X141.643 Y100.857
G01 X165.625 Y133.865
G01 X165.274 Y134.090
G01 X164.903 Y134.361
G01 X164.660 Y134.540
G01 X164.304 Y134.711
G01 X165.728 Y136.674
G01 X167.571 Y139.198
G01 X169.404 Y141.730
G01 X171.223 Y144.240
G01 X173.069 Y146.762
G01 X174.906 Y149.290
G01 X176.735 Y151.824
G01 X178.575 Y154.350
G01 X180.408 Y156.882
G01 X182.236 Y159.385
G01 X184.073 Y161.914
G01 X185.911 Y164.442
G01 X187.743 Y166.974
G01 X189.585 Y169.498
G01 X191.422 Y172.027
G01 X193.239 Y174.540
G01 X195.081 Y177.065
G01 X196.918 Y179.593
G01 X197.296 Y180.122
G01 X195.435 Y178.522
G01 X193.003 Y176.576
G01 X192.532 Y176.214
G01 X191.049 Y174.169
G01 X189.209 Y171.641
G01 X187.366 Y169.115
G01 X185.528 Y166.586
G01 X183.710 Y164.074
G01 X181.872 Y161.545
G01 X180.038 Y159.013
G01 X178.198 Y156.486
G01 X176.362 Y153.956
G01 X174.535 Y151.450
G01 X172.696 Y148.923
G01 X170.860 Y146.393
G01 X169.026 Y143.861
G01 X167.185 Y141.335
G01 X165.362 Y138.827
G01 X163.526 Y136.297
G01 X163.053 Y135.652
G01 X161.823 Y136.598
G01 X162.276 Y137.227
G01 X164.091 Y139.742
G01 X165.936 Y142.266
G01 X167.775 Y144.796
G01 X169.607 Y147.330
G01 X171.438 Y149.834
G01 X173.269 Y152.370
G01 X175.114 Y154.894
G01 X176.945 Y157.429
G01 X178.776 Y159.934
G01 X180.609 Y162.468
G01 X182.448 Y164.998
G01 X184.285 Y167.530
G01 X186.113 Y170.038
G01 X187.948 Y172.572
G01 X188.550 Y173.403
G01 X186.784 Y172.258
G01 X185.017 Y171.185
G01 X184.396 Y170.336
G01 X182.558 Y167.802
G01 X180.727 Y165.294
G01 X178.888 Y162.761
G01 X177.048 Y160.230
G01 X175.222 Y157.719
G01 X173.387 Y155.184
G01 X171.550 Y152.651
G01 X169.724 Y150.141
G01 X167.889 Y147.607
G01 X166.050 Y145.076
G01 X164.205 Y142.550
G01 X162.380 Y140.040
G01 X160.592 Y137.565
G01 X160.525 Y137.619
G01 X159.372 Y138.547
G01 X160.331 Y139.861
G01 X162.164 Y142.399
G01 X164.003 Y144.931
G01 X165.834 Y147.439
G01 X167.666 Y149.979
G01 X169.499 Y152.485
G01 X171.337 Y155.020
G01 X173.182 Y157.550
G01 X175.001 Y160.069
G01 X176.845 Y162.600
G01 X178.674 Y165.113
G01 X180.511 Y167.651
G01 X181.760 Y169.378
G01 X180.903 Y168.925
G01 X178.750 Y167.875
G01 X178.333 Y167.310
G01 X176.490 Y164.772
G01 X174.659 Y162.258
G01 X172.821 Y159.717
G01 X170.992 Y157.203
G01 X169.147 Y154.670
G01 X167.318 Y152.156
G01 X165.482 Y149.617
G01 X163.650 Y147.108
G01 X161.809 Y144.573
G01 X159.982 Y142.060
G01 X158.162 Y139.541
G01 X158.140 Y139.559
G01 X156.964 Y140.549
G01 X157.887 Y141.832
G01 X159.717 Y144.345
G01 X161.561 Y146.880
G01 X163.388 Y149.397
G01 X165.230 Y151.935
G01 X167.057 Y154.454
G01 X168.884 Y156.973
G01 X170.730 Y159.511
G01 X172.561 Y162.028
G01 X174.395 Y164.544
G01 X175.885 Y166.598
G01 X175.327 Y166.358
G01 X173.165 Y165.514
G01 X172.711 Y164.878
G01 X170.856 Y162.343
G01 X169.030 Y159.815
G01 X167.200 Y157.293
G01 X165.363 Y154.777
G01 X163.538 Y152.252
G01 X161.688 Y149.717
G01 X159.855 Y147.201
G01 X158.032 Y144.677
G01 X156.182 Y142.145
G01 X155.776 Y141.569
G01 X154.589 Y142.612
G01 X155.101 Y143.295
G01 X156.931 Y145.816
G01 X158.762 Y148.337
G01 X160.595 Y150.859
G01 X162.419 Y153.388
G01 X164.257 Y155.908
G01 X166.088 Y158.434
G01 X167.924 Y160.957
G01 X169.756 Y163.485
G01 X170.546 Y164.559
G01 X168.835 Y164.004
G01 X168.035 Y163.763
G01 X166.696 Y161.932
G01 X164.864 Y159.399
G01 X163.030 Y156.869
G01 X161.191 Y154.346
G01 X159.356 Y151.820
G01 X157.525 Y149.292
G01 X155.686 Y146.773
G01 X153.859 Y144.243
G01 X153.425 Y143.659
G01 X152.271 Y144.718
G01 X152.759 Y145.390
G01 X154.594 Y147.918
G01 X156.431 Y150.444
G01 X158.246 Y152.960
G01 X160.082 Y155.491
G01 X161.924 Y158.018
G01 X163.764 Y160.550
G01 X165.593 Y163.058
G01 X163.233 Y162.467
G01 X162.828 Y161.918
G01 X160.999 Y159.403
G01 X159.162 Y156.864
G01 X157.312 Y154.338
G01 X155.496 Y151.817
G01 X153.648 Y149.294
G01 X151.814 Y146.759
G01 X151.119 Y145.799
G01 X149.979 Y146.893
G01 X150.192 Y147.174
G01 X152.012 Y149.694
G01 X153.855 Y152.228
G01 X155.687 Y154.740
G01 X157.533 Y157.276
G01 X159.361 Y159.797
G01 X160.940 Y161.968
G01 X160.523 Y161.892
G01 X158.690 Y161.550
G01 X157.953 Y160.515
G01 X156.116 Y157.995
G01 X154.288 Y155.469
G01 X152.449 Y152.956
G01 X150.609 Y150.412
G01 X148.851 Y147.999
G01 X148.759 Y148.090
G01 X147.735 Y149.118
G01 X148.720 Y150.469
G01 X150.554 Y152.992
G01 X152.386 Y155.519
G01 X154.217 Y158.049
G01 X156.059 Y160.573
G01 X156.523 Y161.210
G01 X154.386 Y160.928
G01 X154.275 Y160.789
G01 X152.456 Y158.270
G01 X150.611 Y155.745
G01 X148.776 Y153.214
G01 X146.940 Y150.686
G01 X146.631 Y150.249
G01 X145.530 Y151.403
G01 X146.112 Y152.207
G01 X147.960 Y154.732
G01 X149.780 Y157.254
G01 X151.630 Y159.784
G01 X152.298 Y160.720
G01 X150.364 Y160.584
G01 X150.272 Y160.574
G01 X148.479 Y158.120
G01 X146.651 Y155.597
G01 X144.824 Y153.076
G01 X144.443 Y152.568
G01 X143.368 Y153.746
G01 X143.893 Y154.470
G01 X145.731 Y156.989
G01 X147.562 Y159.521
G01 X148.254 Y160.475
G01 X146.308 Y160.424
G01 X146.299 Y160.434
G01 X144.478 Y157.918
G01 X142.633 Y155.396
G01 X142.306 Y154.935
G01 X141.248 Y156.148
G01 X141.808 Y156.914
G01 X143.638 Y159.428
G01 X144.393 Y160.471
G01 X142.561 Y160.513
G01 X142.496 Y160.513
G01 X140.695 Y158.029
G01 X140.203 Y157.371
G01 X139.173 Y158.607
G01 X139.585 Y159.169
G01 X140.769 Y160.800
G01 X139.733 Y161.125
G01 X139.217 Y161.328
G01 X138.156 Y159.854
G01 X137.680 Y160.448
G01 X137.145 Y161.124
G01 X137.785 Y162.009
G01 X136.803 Y162.620
G01 X134.485 Y164.694
G01 X132.742 Y167.278
G01 X131.695 Y170.206
G01 X131.642 Y170.463
G01 X130.603 Y170.128
G01 X129.708 Y171.482
G01 X129.849 Y171.540
G01 X131.430 Y172.047
G01 X131.407 Y173.501
G01 X131.415 Y173.674
G01 X128.828 Y172.846
G01 X128.720 Y173.016
G01 X127.972 Y174.208
G01 X129.612 Y174.743
G01 X131.675 Y175.406
G01 X131.956 Y176.323
G01 X132.214 Y177.234
G01 X130.141 Y176.549
G01 X127.181 Y175.593
G01 X127.130 Y175.580
G01 X126.312 Y176.948
G01 X127.698 Y177.404
G01 X130.671 Y178.375
G01 X132.769 Y179.059
G01 X133.065 Y179.923
G01 X133.411 Y180.905
G01 X131.439 Y180.264
G01 X128.469 Y179.300
G01 X125.501 Y178.338
G01 X124.714 Y179.724
G01 X126.168 Y180.198
G01 X129.134 Y181.151
G01 X132.095 Y182.118
G01 X134.136 Y182.783
G01 X134.500 Y183.702
G01 X134.901 Y184.665
G01 X132.935 Y184.028
G01 X129.975 Y183.070
G01 X126.996 Y182.100
G01 X124.043 Y181.142
G01 X123.948 Y181.107
G01 X123.191 Y182.510
G01 X124.570 Y182.954
G01 X127.538 Y183.925
G01 X130.489 Y184.883
G01 X133.464 Y185.852
G01 X135.744 Y186.585
G01 X136.060 Y187.252
G01 X136.672 Y188.531
G01 X135.051 Y188.008
G01 X132.101 Y187.055
G01 X129.131 Y186.090
G01 X126.166 Y185.122
G01 X123.175 Y184.153
G01 X122.457 Y183.909
G01 X121.731 Y185.329
G01 X122.459 Y185.552
G01 X125.440 Y186.526
G01 X128.405 Y187.484
G01 X131.366 Y188.451
G01 X134.331 Y189.415
G01 X137.299 Y190.379
G01 X137.660 Y190.498
G01 X138.758 Y192.497
G01 X138.324 Y192.358
G01 X135.362 Y191.394
G01 X132.374 Y190.429
G01 X129.419 Y189.462
G01 X126.438 Y188.491
G01 X123.479 Y187.537
G01 X121.027 Y186.744
G01 X120.788 Y187.234
G01 X120.345 Y188.153
G01 X122.334 Y188.804
G01 X125.310 Y189.770
G01 X128.262 Y190.729
G01 X131.241 Y191.694
G01 X134.218 Y192.666
G01 X137.176 Y193.624
G01 X139.941 Y194.524
G01 X140.048 Y194.702
G01 X141.233 Y196.586
G01 X140.393 Y196.310
G01 X137.412 Y195.351
G01 X134.439 Y194.379
G01 X131.487 Y193.424
G01 X128.516 Y192.453
G01 X125.544 Y191.486
G01 X122.572 Y190.524
G01 X119.673 Y189.583
G01 X119.643 Y189.648
G01 X119.022 Y191.007
G01 X120.574 Y191.519
G01 X123.542 Y192.479
G01 X126.511 Y193.442
G01 X129.479 Y194.407
G01 X132.446 Y195.376
G01 X135.418 Y196.338
G01 X138.366 Y197.296
G01 X141.339 Y198.261
G01 X142.657 Y198.691
G01 X143.666 Y200.123
G01 X144.190 Y200.833
G01 X142.080 Y200.154
G01 X139.113 Y199.187
G01 X136.144 Y198.225
G01 X133.180 Y197.257
G01 X130.191 Y196.283
G01 X127.226 Y195.321
G01 X124.260 Y194.362
G01 X121.300 Y193.390
G01 X118.381 Y192.452
G01 X118.358 Y192.504
G01 X117.762 Y193.890
G01 X119.290 Y194.384
G01 X122.275 Y195.352
G01 X125.232 Y196.322
G01 X128.195 Y197.279
G01 X131.159 Y198.236
G01 X134.141 Y199.218
G01 X137.104 Y200.180
G01 X140.072 Y201.134
G01 X143.033 Y202.105
G01 X145.902 Y203.039
G01 X145.975 Y203.122
G01 X147.779 Y205.281
G01 X147.490 Y205.191
G01 X144.526 Y204.234
G01 X141.542 Y203.261
G01 X138.580 Y202.302
G01 X135.623 Y201.333
G01 X132.638 Y200.368
G01 X129.682 Y199.401
G01 X126.698 Y198.436
G01 X123.738 Y197.480
G01 X120.784 Y196.509
G01 X117.799 Y195.551
G01 X117.158 Y195.334
G01 X116.570 Y196.785
G01 X117.404 Y197.057
G01 X120.379 Y198.034
G01 X123.338 Y198.985
G01 X126.316 Y199.954
G01 X129.273 Y200.912
G01 X132.250 Y201.888
G01 X135.209 Y202.843
G01 X138.187 Y203.818
G01 X141.147 Y204.773
G01 X144.130 Y205.739
G01 X147.085 Y206.708
G01 X149.878 Y207.612
G01 X150.010 Y207.750
G01 X152.200 Y209.971
G01 X152.234 Y210.020
G01 X149.348 Y209.086
G01 X146.369 Y208.116
G01 X143.413 Y207.157
G01 X140.435 Y206.189
G01 X137.480 Y205.229
G01 X134.503 Y204.258
G01 X131.551 Y203.295
G01 X128.572 Y202.330
G01 X125.595 Y201.363
G01 X122.643 Y200.399
G01 X119.665 Y199.435
G01 X116.690 Y198.464
G01 X115.998 Y198.243
G01 X115.442 Y199.707
G01 X116.225 Y199.969
G01 X119.201 Y200.933
G01 X122.151 Y201.894
G01 X125.128 Y202.857
G01 X128.102 Y203.826
G01 X131.055 Y204.782
G01 X134.029 Y205.753
G01 X137.005 Y206.720
G01 X139.959 Y207.675
G01 X142.938 Y208.636
G01 X145.913 Y209.606
G01 X148.866 Y210.566
G01 X151.843 Y211.534
G01 X154.820 Y212.503
G01 X154.963 Y212.548
G01 X157.219 Y214.473
G01 X158.160 Y215.233
G01 X156.328 Y214.636
G01 X153.354 Y213.667
G01 X150.403 Y212.706
G01 X147.427 Y211.743
G01 X144.452 Y210.778
G01 X141.478 Y209.809
G01 X138.526 Y208.855
G01 X135.552 Y207.887
G01 X132.581 Y206.914
G01 X129.603 Y205.958
G01 X126.655 Y204.991
G01 X123.678 Y204.034
G01 X120.709 Y203.056
G01 X117.733 Y202.095
G01 X114.902 Y201.176
G01 X114.858 Y201.298
G01 X114.377 Y202.652
G01 X115.997 Y203.172
G01 X118.970 Y204.137
G01 X121.918 Y205.097
G01 X124.889 Y206.069
G01 X127.863 Y207.031
G01 X130.836 Y207.996
G01 X133.808 Y208.965
G01 X136.759 Y209.918
G01 X139.732 Y210.884
G01 X142.704 Y211.854
G01 X145.678 Y212.817
G01 X148.651 Y213.785
G01 X151.602 Y214.740
G01 X154.575 Y215.708
G01 X157.549 Y216.672
G01 X160.521 Y217.643
G01 X162.068 Y218.142
G01 X163.304 Y218.992
G01 X165.920 Y220.665
G01 X167.254 Y221.473
G01 X165.780 Y220.994
G01 X162.807 Y220.028
G01 X159.837 Y219.057
G01 X156.885 Y218.107
G01 X153.916 Y217.133
G01 X150.942 Y216.171
G01 X147.971 Y215.202
G01 X144.999 Y214.235
G01 X142.026 Y213.271
G01 X139.076 Y212.317
G01 X136.106 Y211.346
G01 X133.131 Y210.388
G01 X130.159 Y209.421
G01 X127.186 Y208.456
G01 X124.213 Y207.492
G01 X121.268 Y206.525
G01 X118.294 Y205.565
G01 X115.324 Y204.593
G01 X113.869 Y204.133
G01 X113.395 Y205.565
G01 X113.467 Y205.588
G01 X156.069 Y219.446
G01 X154.683 Y224.092
G01 X154.616 Y224.341
G01 X153.495 Y228.947
G01 X152.578 Y233.708
G01 X152.493 Y234.225
G01 X152.023 Y237.471
G01 X151.709 Y240.238
G01 X147.745 Y238.956
G01 X144.152 Y237.785
G01 X140.855 Y236.719
G01 X136.473 Y235.298
G01 X132.895 Y234.131
G01 X129.997 Y233.188
G01 X136.473 Y235.298
G01 X142.504 Y237.247
G01 X147.745 Y238.956
G01 X151.709 Y240.238
G01 X151.418 Y243.822
G01 X151.299 Y246.179
G01 X151.225 Y249.833
G01 X155.700 Y249.954
G01 X160.975 Y250.090
G01 X164.875 Y250.197
G01 X171.276 Y250.363
G01 X175.226 Y250.472
G01 X178.527 Y250.558
G01 X173.251 Y250.415
G01 X169.176 Y250.308
G01 X162.925 Y250.140
G01 X159.225 Y250.046
G01 X155.700 Y249.954
G01 X151.225 Y249.833
G01 X151.301 Y253.872
G01 X151.578 Y258.338
G01 X151.963 Y262.051
G01 X152.627 Y266.585
G01 X153.416 Y270.688
G01 X154.350 Y274.649
G01 X155.675 Y279.313
G01 X156.058 Y280.519
G01 X113.379 Y294.384
G01 X201.709 Y265.688
G01 X201.165 Y263.901
G01 X200.542 Y261.488
G01 X200.348 Y260.620
G01 X199.887 Y258.171
G01 X199.734 Y257.171
G01 X199.443 Y254.696
G01 X199.304 Y252.832
G01 X199.226 Y250.341
G01 X199.247 Y248.518
G01 X199.380 Y246.030
G01 X199.561 Y244.164
G01 X199.909 Y241.696
G01 X200.376 Y239.248
G01 X200.420 Y239.049
G01 X201.017 Y236.629
G01 X201.403 Y235.287
G01 X201.716 Y234.374
G01 X200.503 Y233.899
G01 X199.804 Y236.233
G01 X199.189 Y238.712
G01 X198.885 Y240.181
G01 X198.464 Y242.701
G01 X198.219 Y244.711
G01 X198.022 Y247.258
G01 X197.950 Y249.812
G01 X197.961 Y251.068
G01 X198.076 Y253.620
G01 X198.149 Y254.544
G01 X198.434 Y257.083
G01 X198.844 Y259.604
G01 X198.937 Y260.086
G01 X199.493 Y262.580
G01 X199.744 Y263.548
G01 X200.469 Y265.997
G01 X200.497 Y266.082
G01 X199.023 Y266.561
G01 X198.271 Y264.040
G01 X198.188 Y263.728
G01 X197.577 Y261.169
G01 X197.371 Y260.155
G01 X196.936 Y257.560
G01 X196.695 Y255.613
G01 X196.483 Y252.991
G01 X196.420 Y251.448
G01 X196.413 Y248.817
G01 X196.465 Y247.365
G01 X196.659 Y244.741
G01 X196.802 Y243.451
G01 X197.187 Y240.849
G01 X197.591 Y238.764
G01 X198.205 Y236.206
G01 X198.516 Y235.090
G01 X199.032 Y233.410
G01 X197.531 Y232.933
G01 X197.418 Y233.285
G01 X196.661 Y235.885
G01 X196.282 Y237.406
G01 X195.728 Y240.057
G01 X195.500 Y241.395
G01 X195.144 Y244.080
G01 X195.025 Y245.305
G01 X194.861 Y248.009
G01 X194.827 Y249.510
G01 X194.870 Y252.217
G01 X194.937 Y253.507
G01 X195.175 Y256.205
G01 X195.241 Y256.759
G01 X195.638 Y259.438
G01 X195.717 Y259.879
G01 X196.267 Y262.530
G01 X196.357 Y262.912
G01 X197.006 Y265.360
G01 X197.525 Y267.047
G01 X113.379 Y294.384
G01 X111.365 Y287.627
G01 X111.312 Y287.431
G01 X109.643 Y280.581
G01 X109.518 Y280.003
G01 X108.215 Y273.074
G01 X108.124 Y272.505
G01 X116.483 Y269.785
G01 X127.953 Y266.069
G01 X113.157 Y270.865
G01 X108.124 Y272.505
G01 X107.190 Y265.516
G01 X107.001 Y263.656
G01 X106.503 Y256.623
G01 X106.426 Y254.684
G01 X106.369 Y247.633
G01 X106.446 Y244.745
G01 X106.877 Y237.708
G01 X106.947 Y236.919
G01 X107.761 Y229.915
G01 X107.929 Y228.762
G01 X109.142 Y221.817
G01 X109.458 Y220.281
G01 X111.085 Y213.421
G01 X111.481 Y211.949
G01 X113.382 Y205.606
G01 X128.801 Y210.576
G01 X139.333 Y214.002
G01 X149.104 Y217.180
G01 X156.069 Y219.446
G01 X162.893 Y221.665
G01 X175.516 Y225.772
G01 X187.808 Y229.770
G01 X197.531 Y232.933
G01 X205.162 Y235.415
G01 X207.659 Y236.227
G01 X208.386 Y234.166
G01 X209.213 Y232.143
G01 X209.519 Y231.460
G01 X210.477 Y229.496
G01 X211.531 Y227.581
G01 X212.076 Y226.671
G01 X213.266 Y224.838
G01 X214.545 Y223.066
G01 X215.799 Y221.491
G01 X217.239 Y219.847
G01 X218.758 Y218.276
G01 X219.187 Y217.859
G01 X220.801 Y216.386
G01 X222.486 Y214.994
G01 X223.829 Y213.978
G01 X218.987 Y207.794
G01 X214.919 Y202.128
G01 X205.974 Y190.335
G01 X197.296 Y180.122
G01 X188.550 Y173.403
G01 X181.760 Y169.378
G01 X175.885 Y166.598
G01 X170.546 Y164.559
G01 X165.593 Y163.058
G01 X160.940 Y161.968
G01 X156.523 Y161.210
G01 X152.298 Y160.720
G01 X148.254 Y160.475
G01 X144.393 Y160.471
G01 X140.769 Y160.800
G01 X137.785 Y162.009
G01 X135.592 Y163.587
G01 X133.901 Y165.405
G01 X132.719 Y167.051
G01 X131.642 Y170.463
G01 X131.415 Y173.674
G01 X132.214 Y177.234
G01 X133.411 Y180.905
G01 X134.901 Y184.665
G01 X136.672 Y188.531
G01 X138.758 Y192.497
G01 X141.233 Y196.586
G01 X144.190 Y200.833
G01 X147.779 Y205.281
G01 X152.234 Y210.020
G01 X158.160 Y215.233
G01 X167.254 Y221.473
G01 X169.705 Y222.964
G01 X176.684 Y225.583
G01 X186.456 Y228.837
G01 X195.295 Y231.811
G01 X249.044 Y249.705
G01 X249.047 Y249.756
G01 X249.052 Y249.807
G01 X249.059 Y249.856
G01 X249.069 Y249.904
G01 X249.081 Y249.950
G01 X249.096 Y249.996
G01 X249.113 Y250.039
G01 X249.132 Y250.081
G01 X249.153 Y250.121
G01 X249.175 Y250.160
G01 X249.200 Y250.196
G01 X249.226 Y250.231
G01 X249.239 Y250.247
G01 X248.859 Y250.371
G01 X51.440 Y314.505
G01 X51.403 Y314.473
G01 X51.360 Y314.422
G01 X51.317 Y314.370
G01 X51.322 Y314.302
G01 X51.320 Y314.215
G01 X51.348 Y314.140
G01 X51.400 Y314.058
G01 X51.489 Y314.007
G01 X51.602 Y313.949
G01 X51.727 Y313.930
G01 X51.852 Y313.912
G01 X51.967 Y313.941
G01 X52.111 Y313.981
G01 X52.245 Y314.069
G01 X52.361 Y314.184
G01 X52.460 Y314.327
G01 X52.542 Y314.497
G01 X52.582 Y314.702
G01 X52.600 Y314.915
G01 X52.587 Y315.116
G01 X52.527 Y315.333
G01 X52.413 Y315.546
G01 X52.269 Y315.748
G01 X52.095 Y315.937
G01 X51.848 Y316.064
G01 X51.594 Y316.171
G01 X51.296 Y316.226
G01 X50.985 Y316.241
G01 X50.684 Y316.209
G01 X50.387 Y316.108
G01 X50.077 Y315.966
G01 X49.801 Y315.769
G01 X49.560 Y315.515
G01 X49.378 Y315.198
G01 X49.237 Y314.844
G01 X49.145 Y314.475
G01 X49.124 Y314.083
G01 X49.176 Y313.668
G01 X49.259 Y313.267
G01 X49.450 Y312.876
G01 X49.685 Y312.538
G01 X50.005 Y312.219
G01 X50.391 Y311.946
G01 X50.826 Y311.745
G01 X51.286 Y311.624
G01 X51.788 Y311.555
G01 X52.273 Y311.600
G01 X52.777 Y311.703
G01 X53.257 Y311.898
G01 X53.721 Y312.206
G01 X54.103 Y312.581
G01 X54.451 Y313.009
G01 X54.723 Y313.525
G01 X54.902 Y314.072
G01 X55.010 Y314.641
G01 X55.003 Y315.251
G01 X54.882 Y315.834
G01 X54.686 Y316.423
G01 X54.346 Y316.975
G01 X53.933 Y317.467
G01 X53.447 Y317.898
G01 X52.880 Y318.248
G01 X52.280 Y318.501
G01 X51.591 Y318.650
G01 X50.908 Y318.664
G01 X50.214 Y318.568
G01 X49.509 Y318.362
G01 X48.872 Y318.041
G01 X48.256 Y317.620
G01 X47.732 Y317.077
G01 X47.291 Y316.459
G01 X46.965 Y315.780
G01 X46.771 Y315.013
G01 X46.705 Y314.228
G01 X46.761 Y313.406
G01 X46.935 Y312.618
G01 X47.250 Y311.855
G01 X47.689 Y311.147
G01 X48.261 Y310.534
G01 X48.937 Y310.002
G01 X49.704 Y309.599
G01 X50.531 Y309.309
G01 X51.405 Y309.179
G01 X52.314 Y309.167
G01 X53.193 Y309.311
G01 X54.065 Y309.604
G01 X54.884 Y310.059
G01 X55.615 Y310.644
G01 X56.235 Y311.366
G01 X56.758 Y312.180
G01 X57.130 Y313.084
G01 X57.363 Y314.033
G01 X57.460 Y315.028
G01 X57.352 Y316.032
G01 X57.051 Y316.999
G01 X56.610 Y317.933
G01 X56.006 Y318.778
G01 X55.270 Y319.543
G01 X54.427 Y320.154
G01 X53.464 Y320.654
G01 X52.438 Y320.978
G01 X51.365 Y321.095
G01 X50.264 Y321.061
G01 X49.170 Y320.817
G01 X48.104 Y320.422
G01 X47.132 Y319.830
G01 X46.268 Y319.081
G01 X45.522 Y318.196
G01 X44.950 Y317.181
G01 X44.536 Y316.068
G01 X44.295 Y314.899
G01 X44.264 Y313.712
G01 X44.420 Y312.516
G01 X44.799 Y311.349
G01 X45.359 Y310.246
G01 X46.110 Y309.251
G01 X47.032 Y308.389
G01 X48.075 Y307.674
G01 X49.225 Y307.150
G01 X50.481 Y306.814
G01 X51.775 Y306.702
G01 X53.078 Y306.799
G01 X54.340 Y307.113
G01 X55.565 Y307.643
G01 X56.693 Y308.362
G01 X57.704 Y309.276
G01 X58.534 Y310.343
G01 X59.187 Y311.567
G01 X59.616 Y312.882
G01 X59.841 Y314.267
G01 X59.844 Y315.667
G01 X59.612 Y317.050
G01 X59.136 Y318.400
G01 X58.419 Y319.653
G01 X57.498 Y320.773
G01 X56.424 Y321.762
G01 X55.196 Y322.550
G01 X53.836 Y323.123
G01 X52.388 Y323.461
G01 X50.866 Y323.528
G01 X49.371 Y323.374
G01 X47.889 Y322.955
G01 X46.498 Y322.332
G01 X45.232 Y321.447
G01 X44.116 Y320.362
G01 X43.209 Y319.082
G01 X42.503 Y317.661
G01 X42.045 Y316.158
G01 X41.830 Y314.557
G01 X41.862 Y312.953
G01 X42.201 Y311.379
G01 X42.797 Y309.854
