;  Created by Sandify
;  https://sandify.org
;  Version: 0.2.6
;
;  Machine type: Rectangular
;    Min X (mm): 0
;    Max X (mm): 500
;    Min Y (mm): 0
;    Max Y (mm): 500
;  Content type: shape
;  Layer:
;    Shape: FileImport
;    Name: dither_tri4.thr
;    From file:: dither_tri4.thr
;    Aspect Ratio: true
;    Comments: 
;    Visible: true
;    Initial width: 10
;    Initial height: 10
;    X offset: 0
;    Y offset: -11
;    Rotate (degrees): 30
;    Reverse path: false
;    Fine tuning:
;      Connect to next layer: line
;      Draw portion of path (%): 100
;      Backtrack at end (%): 0
;      Rotate starting point (%): 0
;  Reverse export path: false
;
; File name: 'tri4 (SE N)'
; File type: gcode
;

G01 X466.506 Y114.000
G01 X463.123 Y119.859
G01 X459.740 Y125.719
G01 X456.358 Y131.578
G01 X452.975 Y137.438
G01 X449.592 Y143.297
G01 X446.209 Y149.156
G01 X442.826 Y155.016
G01 X439.443 Y160.875
G01 X436.060 Y166.734
G01 X432.677 Y172.594
G01 X429.294 Y178.453
G01 X425.911 Y184.312
G01 X422.529 Y190.172
G01 X419.146 Y196.031
G01 X415.763 Y201.891
G01 X412.380 Y207.750
G01 X408.997 Y213.609
G01 X405.614 Y219.469
G01 X402.231 Y225.328
G01 X398.848 Y231.187
G01 X395.465 Y237.047
G01 X392.082 Y242.906
G01 X388.699 Y248.766
G01 X385.316 Y254.625
G01 X381.934 Y260.484
G01 X378.551 Y266.344
G01 X375.212 Y272.131
G01 X375.168 Y272.203
G01 X371.922 Y277.838
G01 X371.785 Y278.063
G01 X368.614 Y283.575
G01 X368.402 Y283.922
G01 X365.287 Y289.342
G01 X365.019 Y289.781
G01 X361.942 Y295.140
G01 X361.636 Y295.641
G01 X358.578 Y300.968
G01 X358.253 Y301.500
G01 X355.196 Y306.826
G01 X354.870 Y307.359
G01 X351.794 Y312.716
G01 X351.487 Y313.219
G01 X348.375 Y318.636
G01 X348.104 Y319.078
G01 X344.936 Y324.588
G01 X344.722 Y324.938
G01 X341.478 Y330.570
G01 X341.339 Y330.797
G01 X338.000 Y336.583
G01 X337.956 Y336.656
G01 X334.573 Y342.516
G01 X331.190 Y348.375
G01 X327.807 Y354.234
G01 X324.424 Y360.094
G01 X321.041 Y365.953
G01 X317.658 Y371.812
G01 X314.275 Y377.672
G01 X310.892 Y383.531
G01 X307.509 Y389.391
G01 X304.127 Y395.250
G01 X300.744 Y401.109
G01 X297.361 Y406.969
G01 X293.978 Y412.828
G01 X290.595 Y418.687
G01 X287.212 Y424.547
G01 X283.829 Y430.406
G01 X280.446 Y436.266
G01 X277.063 Y442.125
G01 X273.680 Y447.984
G01 X270.297 Y453.844
G01 X266.915 Y459.703
G01 X263.532 Y465.563
G01 X260.149 Y471.422
G01 X256.766 Y477.281
G01 X253.383 Y483.141
G01 X250.000 Y489.000
G01 X246.617 Y483.141
G01 X243.234 Y477.281
G01 X239.851 Y471.422
G01 X236.468 Y465.563
G01 X233.085 Y459.703
G01 X229.702 Y453.844
G01 X226.320 Y447.984
G01 X222.937 Y442.125
G01 X219.554 Y436.266
G01 X216.171 Y430.406
G01 X212.788 Y424.547
G01 X209.405 Y418.687
G01 X206.022 Y412.828
G01 X202.639 Y406.969
G01 X199.256 Y401.109
G01 X195.873 Y395.250
G01 X192.490 Y389.391
G01 X189.108 Y383.531
G01 X185.725 Y377.672
G01 X182.342 Y371.813
G01 X178.959 Y365.953
G01 X175.576 Y360.094
G01 X172.193 Y354.234
G01 X168.810 Y348.375
G01 X165.427 Y342.516
G01 X162.044 Y336.656
G01 X158.702 Y330.871
G01 X158.661 Y330.797
G01 X155.404 Y325.169
G01 X155.278 Y324.938
G01 X152.090 Y319.435
G01 X151.896 Y319.078
G01 X148.759 Y313.671
G01 X148.513 Y313.219
G01 X145.411 Y307.875
G01 X145.130 Y307.359
G01 X142.045 Y302.047
G01 X141.747 Y301.500
G01 X138.663 Y296.189
G01 X138.364 Y295.641
G01 X135.263 Y290.299
G01 X134.981 Y289.781
G01 X131.846 Y284.377
G01 X131.598 Y283.922
G01 X128.411 Y278.423
G01 X128.215 Y278.063
G01 X124.959 Y272.437
G01 X124.832 Y272.203
G01 X121.490 Y266.419
G01 X121.449 Y266.344
G01 X118.066 Y260.484
G01 X114.684 Y254.625
G01 X111.301 Y248.766
G01 X107.918 Y242.906
G01 X104.535 Y237.047
G01 X101.152 Y231.188
G01 X97.769 Y225.328
G01 X94.386 Y219.469
G01 X91.003 Y213.609
G01 X87.620 Y207.750
G01 X84.237 Y201.891
G01 X80.854 Y196.031
G01 X77.471 Y190.172
G01 X74.089 Y184.313
G01 X70.706 Y178.453
G01 X67.323 Y172.594
G01 X63.940 Y166.734
G01 X60.557 Y160.875
G01 X57.174 Y155.016
G01 X53.791 Y149.156
G01 X50.408 Y143.297
G01 X47.025 Y137.437
G01 X43.643 Y131.578
G01 X40.259 Y125.719
G01 X36.877 Y119.859
G01 X33.494 Y114.000
G01 X40.260 Y114.000
G01 X47.025 Y114.000
G01 X53.791 Y114.000
G01 X60.557 Y114.000
G01 X67.323 Y114.000
G01 X74.089 Y114.000
G01 X80.854 Y114.000
G01 X87.620 Y114.000
G01 X94.386 Y114.000
G01 X101.152 Y114.000
G01 X107.918 Y114.000
G01 X114.683 Y114.000
G01 X121.449 Y114.000
G01 X128.215 Y114.000
G01 X134.981 Y114.000
G01 X141.747 Y114.000
G01 X148.513 Y114.000
G01 X155.279 Y114.000
G01 X162.044 Y114.000
G01 X168.810 Y114.000
G01 X175.576 Y114.000
G01 X182.342 Y114.000
G01 X189.108 Y114.000
G01 X195.873 Y114.000
G01 X202.639 Y114.000
G01 X209.405 Y114.000
G01 X216.086 Y113.998
G01 X216.171 Y114.000
G01 X222.674 Y113.993
G01 X222.937 Y114.000
G01 X229.296 Y113.990
G01 X229.703 Y114.000
G01 X235.954 Y113.987
G01 X236.468 Y114.000
G01 X242.647 Y113.985
G01 X243.234 Y114.000
G01 X249.377 Y113.985
G01 X250.000 Y114.000
G01 X256.142 Y113.985
G01 X256.766 Y114.000
G01 X262.943 Y113.985
G01 X263.532 Y114.000
G01 X269.780 Y113.987
G01 X270.297 Y114.000
G01 X276.653 Y113.989
G01 X277.063 Y114.000
G01 X283.563 Y113.993
G01 X283.829 Y114.000
G01 X290.509 Y113.998
G01 X290.595 Y114.000
G01 X297.361 Y114.000
G01 X304.127 Y114.000
G01 X310.892 Y114.000
G01 X317.658 Y114.000
G01 X324.424 Y114.000
G01 X331.190 Y114.000
G01 X337.956 Y114.000
G01 X344.721 Y114.000
G01 X351.487 Y114.000
G01 X358.253 Y114.000
G01 X365.019 Y114.000
G01 X371.785 Y114.000
G01 X378.551 Y114.000
G01 X385.317 Y114.000
G01 X392.082 Y114.000
G01 X398.848 Y114.000
G01 X405.614 Y114.000
G01 X412.380 Y114.000
G01 X419.146 Y114.000
G01 X425.911 Y114.000
G01 X432.677 Y114.000
G01 X439.443 Y114.000
G01 X446.209 Y114.000
G01 X452.975 Y114.000
G01 X459.741 Y114.000
G01 X466.506 Y114.000
G01 X463.123 Y119.859
G01 X459.741 Y125.719
G01 X456.357 Y131.578
G01 X452.975 Y137.437
G01 X449.592 Y143.297
G01 X446.209 Y149.156
G01 X442.826 Y155.016
G01 X439.443 Y160.875
G01 X436.060 Y166.734
G01 X432.677 Y172.594
G01 X429.294 Y178.453
G01 X425.911 Y184.312
G01 X422.529 Y190.172
G01 X419.146 Y196.031
G01 X415.763 Y201.891
G01 X412.380 Y207.750
G01 X408.997 Y213.609
G01 X405.614 Y219.469
G01 X402.231 Y225.328
G01 X398.848 Y231.187
G01 X395.465 Y237.047
G01 X392.082 Y242.906
G01 X388.699 Y248.766
G01 X385.316 Y254.625
G01 X381.934 Y260.484
G01 X378.551 Y266.344
G01 X375.212 Y272.131
G01 X375.168 Y272.203
G01 X371.922 Y277.838
G01 X371.785 Y278.063
G01 X368.614 Y283.575
G01 X368.402 Y283.922
G01 X365.287 Y289.342
G01 X365.019 Y289.781
G01 X361.942 Y295.140
G01 X361.636 Y295.641
G01 X358.578 Y300.968
G01 X358.253 Y301.500
G01 X351.487 Y301.500
G01 X344.721 Y301.500
G01 X337.956 Y301.500
G01 X331.190 Y301.500
G01 X324.424 Y301.500
G01 X317.658 Y301.500
G01 X311.343 Y301.517
G01 X310.892 Y301.500
G01 X305.216 Y301.539
G01 X304.127 Y301.500
G01 X299.017 Y301.557
G01 X297.361 Y301.500
G01 X292.749 Y301.571
G01 X290.595 Y301.500
G01 X286.411 Y301.581
G01 X283.829 Y301.500
G01 X280.004 Y301.587
G01 X277.063 Y301.500
G01 X273.527 Y301.590
G01 X270.297 Y301.500
G01 X266.981 Y301.591
G01 X263.705 Y301.509
G01 X263.532 Y301.500
G01 X260.366 Y301.591
G01 X257.225 Y301.523
G01 X256.766 Y301.500
G01 X253.681 Y301.591
G01 X250.604 Y301.530
G01 X250.000 Y301.500
G01 X246.925 Y301.591
G01 X243.841 Y301.530
G01 X243.234 Y301.500
G01 X240.097 Y301.591
G01 X236.934 Y301.523
G01 X236.468 Y301.500
G01 X233.195 Y301.591
G01 X229.881 Y301.509
G01 X229.703 Y301.500
G01 X226.219 Y301.590
G01 X222.937 Y301.500
G01 X219.169 Y301.587
G01 X216.171 Y301.500
G01 X212.043 Y301.581
G01 X209.405 Y301.500
G01 X204.844 Y301.571
G01 X202.639 Y301.500
G01 X197.570 Y301.558
G01 X195.873 Y301.500
G01 X190.224 Y301.540
G01 X189.108 Y301.500
G01 X182.804 Y301.517
G01 X182.342 Y301.500
G01 X175.576 Y301.500
G01 X168.810 Y301.500
G01 X162.044 Y301.500
G01 X155.279 Y301.500
G01 X148.513 Y301.500
G01 X141.747 Y301.500
G01 X145.130 Y295.641
G01 X148.513 Y289.781
G01 X151.896 Y283.922
G01 X155.278 Y278.063
G01 X158.662 Y272.203
G01 X162.044 Y266.344
G01 X165.187 Y260.866
G01 X165.427 Y260.484
G01 X168.232 Y255.548
G01 X168.810 Y254.625
G01 X171.315 Y250.172
G01 X172.193 Y248.766
G01 X174.437 Y244.736
G01 X175.576 Y242.906
G01 X177.598 Y239.243
G01 X178.959 Y237.047
G01 X180.797 Y233.691
G01 X182.342 Y231.188
G01 X184.032 Y228.080
G01 X185.725 Y225.328
G01 X187.304 Y222.411
G01 X189.013 Y219.615
G01 X189.108 Y219.469
G01 X190.611 Y216.682
G01 X192.241 Y213.995
G01 X192.490 Y213.609
G01 X193.954 Y210.893
G01 X195.546 Y208.258
G01 X195.873 Y207.750
G01 X197.332 Y205.042
G01 X198.927 Y202.401
G01 X199.256 Y201.891
G01 X200.746 Y199.128
G01 X202.386 Y196.423
G01 X202.639 Y196.031
G01 X204.197 Y193.151
G01 X205.925 Y190.322
G01 X206.022 Y190.172
G01 X207.686 Y187.110
G01 X209.405 Y184.313
G01 X211.214 Y181.006
G01 X212.788 Y178.453
G01 X214.782 Y174.838
G01 X216.171 Y172.594
G01 X218.390 Y168.608
G01 X219.554 Y166.734
G01 X222.038 Y162.316
G01 X222.937 Y160.875
G01 X225.727 Y155.962
G01 X226.320 Y155.016
G01 X229.457 Y149.548
G01 X229.703 Y149.156
G01 X233.085 Y143.297
G01 X236.468 Y137.437
G01 X239.851 Y131.578
G01 X243.234 Y125.719
G01 X246.617 Y119.859
G01 X250.000 Y114.000
G01 X253.383 Y119.859
G01 X256.766 Y125.719
G01 X260.149 Y131.578
G01 X263.532 Y137.437
G01 X266.915 Y143.297
G01 X270.298 Y149.156
G01 X273.470 Y154.617
G01 X273.680 Y155.016
G01 X276.553 Y159.912
G01 X277.063 Y160.875
G01 X279.667 Y165.271
G01 X280.446 Y166.734
G01 X282.813 Y170.693
G01 X283.829 Y172.594
G01 X285.991 Y176.177
G01 X287.212 Y178.453
G01 X289.200 Y181.723
G01 X290.595 Y184.313
G01 X292.441 Y187.330
G01 X293.978 Y190.172
G01 X295.715 Y192.998
G01 X297.282 Y195.876
G01 X297.361 Y196.031
G01 X299.022 Y198.727
G01 X300.534 Y201.482
G01 X300.744 Y201.891
G01 X302.365 Y204.517
G01 X303.850 Y207.212
G01 X304.127 Y207.750
G01 X305.743 Y210.368
G01 X307.232 Y213.069
G01 X307.510 Y213.609
G01 X309.157 Y216.281
G01 X310.680 Y219.054
G01 X310.892 Y219.469
G01 X312.608 Y222.258
G01 X314.194 Y225.169
G01 X314.275 Y225.328
G01 X316.095 Y228.300
G01 X317.658 Y231.187
G01 X319.618 Y234.407
G01 X321.041 Y237.047
G01 X323.175 Y240.581
G01 X324.424 Y242.906
G01 X326.767 Y246.821
G01 X327.807 Y248.766
G01 X330.391 Y253.127
G01 X331.190 Y254.625
G01 X334.049 Y259.498
G01 X334.573 Y260.484
G01 X337.740 Y265.935
G01 X337.956 Y266.344
G01 X341.338 Y272.203
G01 X344.722 Y278.062
G01 X348.104 Y283.922
G01 X351.487 Y289.781
G01 X354.870 Y295.641
G01 X358.253 Y301.500
G01 X351.581 Y301.337
G01 X344.909 Y301.174
G01 X338.238 Y301.012
G01 X331.566 Y300.849
G01 X324.894 Y300.686
G01 X318.222 Y300.523
G01 X311.676 Y300.369
G01 X311.550 Y300.361
G01 X305.684 Y300.247
G01 X304.878 Y300.198
G01 X299.620 Y300.120
G01 X298.206 Y300.035
G01 X293.485 Y299.986
G01 X291.535 Y299.872
G01 X287.278 Y299.847
G01 X284.863 Y299.710
G01 X281.001 Y299.701
G01 X278.191 Y299.547
G01 X274.654 Y299.551
G01 X271.519 Y299.384
G01 X268.237 Y299.396
G01 X265.006 Y299.234
G01 X264.847 Y299.221
G01 X261.750 Y299.238
G01 X258.687 Y299.097
G01 X258.175 Y299.059
G01 X255.192 Y299.078
G01 X252.226 Y298.950
G01 X251.503 Y298.896
G01 X248.562 Y298.916
G01 X245.623 Y298.791
G01 X244.832 Y298.733
G01 X241.860 Y298.752
G01 X238.874 Y298.623
G01 X238.160 Y298.570
G01 X235.083 Y298.587
G01 X231.977 Y298.445
G01 X231.488 Y298.408
G01 X228.232 Y298.420
G01 X224.930 Y298.254
G01 X224.816 Y298.245
G01 X221.304 Y298.249
G01 X218.144 Y298.082
G01 X214.301 Y298.074
G01 X211.472 Y297.919
G01 X207.222 Y297.893
G01 X204.800 Y297.757
G01 X200.068 Y297.706
G01 X198.129 Y297.594
G01 X192.839 Y297.513
G01 X191.457 Y297.431
G01 X185.536 Y297.314
G01 X184.785 Y297.268
G01 X178.159 Y297.108
G01 X178.113 Y297.105
G01 X171.441 Y296.943
G01 X164.769 Y296.780
G01 X158.098 Y296.617
G01 X151.426 Y296.454
G01 X144.754 Y296.292
G01 X148.137 Y290.758
G01 X151.520 Y285.224
G01 X154.903 Y279.690
G01 X158.285 Y274.156
G01 X161.668 Y268.622
G01 X165.051 Y263.089
G01 X168.195 Y257.915
G01 X168.434 Y257.555
G01 X171.241 Y252.892
G01 X171.817 Y252.021
G01 X174.325 Y247.813
G01 X175.200 Y246.487
G01 X177.448 Y242.680
G01 X178.583 Y240.953
G01 X180.609 Y237.491
G01 X181.966 Y235.419
G01 X183.808 Y232.247
G01 X185.349 Y229.885
G01 X187.044 Y226.948
G01 X188.732 Y224.352
G01 X190.315 Y221.594
G01 X192.020 Y218.955
G01 X192.115 Y218.818
G01 X193.623 Y216.183
G01 X195.249 Y213.647
G01 X195.498 Y213.284
G01 X196.966 Y210.716
G01 X198.554 Y208.229
G01 X198.880 Y207.750
G01 X200.344 Y205.190
G01 X201.935 Y202.698
G01 X202.263 Y202.216
G01 X203.758 Y199.605
G01 X205.394 Y197.052
G01 X205.646 Y196.682
G01 X207.209 Y193.960
G01 X208.933 Y191.290
G01 X209.029 Y191.148
G01 X210.697 Y188.254
G01 X212.412 Y185.615
G01 X214.225 Y182.489
G01 X215.795 Y180.081
G01 X217.793 Y176.664
G01 X219.178 Y174.547
G01 X221.400 Y170.780
G01 X222.561 Y169.013
G01 X225.048 Y164.838
G01 X225.944 Y163.479
G01 X228.736 Y158.838
G01 X229.327 Y157.945
G01 X232.465 Y152.781
G01 X232.710 Y152.411
G01 X236.093 Y146.878
G01 X239.475 Y141.344
G01 X242.858 Y135.810
G01 X246.241 Y130.276
G01 X249.624 Y124.742
G01 X253.007 Y119.208
G01 X256.108 Y124.905
G01 X259.209 Y130.601
G01 X262.310 Y136.298
G01 X265.411 Y141.995
G01 X268.512 Y147.691
G01 X271.613 Y153.388
G01 X274.522 Y158.697
G01 X274.714 Y159.085
G01 X277.349 Y163.846
G01 X277.815 Y164.781
G01 X280.205 Y169.057
G01 X280.916 Y170.478
G01 X283.089 Y174.328
G01 X284.017 Y176.174
G01 X286.003 Y179.660
G01 X287.118 Y181.871
G01 X288.944 Y185.052
G01 X290.219 Y187.568
G01 X291.916 Y190.504
G01 X293.320 Y193.264
G01 X294.917 Y196.015
G01 X296.349 Y198.810
G01 X296.421 Y198.961
G01 X297.948 Y201.584
G01 X299.331 Y204.261
G01 X299.522 Y204.658
G01 X301.012 Y207.213
G01 X302.371 Y209.832
G01 X302.623 Y210.354
G01 X304.109 Y212.901
G01 X305.471 Y215.526
G01 X305.724 Y216.051
G01 X307.239 Y218.651
G01 X308.631 Y221.344
G01 X308.825 Y221.747
G01 X310.402 Y224.462
G01 X311.852 Y227.290
G01 X311.926 Y227.444
G01 X313.598 Y230.336
G01 X315.027 Y233.141
G01 X316.827 Y236.273
G01 X318.128 Y238.837
G01 X320.088 Y242.275
G01 X321.229 Y244.534
G01 X323.380 Y248.342
G01 X324.330 Y250.230
G01 X326.702 Y254.472
G01 X327.431 Y255.927
G01 X330.054 Y260.666
G01 X330.532 Y261.624
G01 X333.436 Y266.924
G01 X333.633 Y267.320
G01 X336.734 Y273.017
G01 X339.835 Y278.714
G01 X342.936 Y284.410
G01 X346.037 Y290.107
G01 X349.138 Y295.803
G01 X352.239 Y301.500
G01 X345.849 Y301.174
G01 X339.459 Y300.849
G01 X333.069 Y300.523
G01 X326.679 Y300.198
G01 X320.289 Y299.872
G01 X313.899 Y299.547
G01 X307.620 Y299.231
G01 X307.509 Y299.221
G01 X301.883 Y298.963
G01 X301.120 Y298.896
G01 X296.077 Y298.687
G01 X294.730 Y298.570
G01 X290.203 Y298.404
G01 X288.340 Y298.245
G01 X284.260 Y298.112
G01 X281.950 Y297.919
G01 X278.250 Y297.813
G01 X275.560 Y297.594
G01 X272.173 Y297.508
G01 X269.170 Y297.268
G01 X266.028 Y297.197
G01 X262.941 Y296.960
G01 X262.780 Y296.943
G01 X259.816 Y296.881
G01 X256.890 Y296.669
G01 X256.390 Y296.617
G01 X253.537 Y296.560
G01 X250.704 Y296.363
G01 X250.000 Y296.292
G01 X247.188 Y296.237
G01 X244.382 Y296.044
G01 X243.610 Y295.966
G01 X240.770 Y295.910
G01 X237.920 Y295.711
G01 X237.220 Y295.641
G01 X234.280 Y295.580
G01 X231.316 Y295.365
G01 X230.830 Y295.315
G01 X227.718 Y295.245
G01 X224.568 Y295.003
G01 X224.440 Y294.990
G01 X221.084 Y294.905
G01 X218.050 Y294.664
G01 X214.376 Y294.559
G01 X211.660 Y294.339
G01 X207.597 Y294.206
G01 X205.270 Y294.013
G01 X200.745 Y293.846
G01 X198.880 Y293.688
G01 X193.821 Y293.477
G01 X192.490 Y293.362
G01 X186.826 Y293.100
G01 X186.100 Y293.037
G01 X179.761 Y292.715
G01 X179.711 Y292.711
G01 X173.321 Y292.385
G01 X166.931 Y292.060
G01 X160.541 Y291.734
G01 X154.151 Y291.409
G01 X147.761 Y291.083
G01 X151.144 Y285.875
G01 X154.527 Y280.667
G01 X157.910 Y275.458
G01 X161.292 Y270.250
G01 X164.675 Y265.042
G01 X168.058 Y259.833
G01 X171.203 Y254.963
G01 X171.441 Y254.625
G01 X174.249 Y250.235
G01 X174.824 Y249.417
G01 X177.335 Y245.455
G01 X178.207 Y244.208
G01 X180.458 Y240.623
G01 X181.590 Y239.000
G01 X183.620 Y235.739
G01 X184.973 Y233.792
G01 X186.819 Y230.803
G01 X188.356 Y228.583
G01 X190.055 Y225.816
G01 X191.739 Y223.375
G01 X193.327 Y220.777
G01 X195.028 Y218.296
G01 X195.122 Y218.167
G01 X196.634 Y215.684
G01 X198.257 Y213.300
G01 X198.505 Y212.958
G01 X199.977 Y210.538
G01 X201.563 Y208.200
G01 X201.888 Y207.750
G01 X203.355 Y205.338
G01 X204.944 Y202.994
G01 X205.270 Y202.542
G01 X206.769 Y200.081
G01 X208.402 Y197.680
G01 X208.653 Y197.333
G01 X210.220 Y194.768
G01 X211.940 Y192.258
G01 X212.036 Y192.125
G01 X213.709 Y189.399
G01 X215.419 Y186.917
G01 X217.236 Y183.972
G01 X218.802 Y181.708
G01 X220.804 Y178.490
G01 X222.185 Y176.500
G01 X224.411 Y172.953
G01 X225.568 Y171.292
G01 X228.058 Y167.361
G01 X228.951 Y166.083
G01 X231.745 Y161.714
G01 X232.334 Y160.875
G01 X235.473 Y156.014
G01 X235.717 Y155.667
G01 X239.099 Y150.458
G01 X242.482 Y145.250
G01 X245.865 Y140.042
G01 X249.248 Y134.833
G01 X252.631 Y129.625
G01 X256.014 Y124.417
G01 X258.833 Y129.950
G01 X261.652 Y135.484
G01 X264.471 Y141.018
G01 X267.290 Y146.552
G01 X270.110 Y152.086
G01 X272.929 Y157.620
G01 X275.574 Y162.778
G01 X275.748 Y163.154
G01 X278.145 Y167.780
G01 X278.567 Y168.688
G01 X280.742 Y172.843
G01 X281.386 Y174.221
G01 X283.365 Y177.964
G01 X284.205 Y179.755
G01 X286.014 Y183.144
G01 X287.024 Y185.289
G01 X288.689 Y188.382
G01 X289.843 Y190.823
G01 X291.390 Y193.678
G01 X292.662 Y196.357
G01 X294.118 Y199.031
G01 X295.416 Y201.745
G01 X295.481 Y201.891
G01 X296.875 Y204.442
G01 X298.128 Y207.040
G01 X298.301 Y207.424
G01 X299.660 Y209.910
G01 X300.892 Y212.452
G01 X301.120 Y212.958
G01 X302.475 Y215.436
G01 X303.710 Y217.983
G01 X303.939 Y218.492
G01 X305.320 Y221.020
G01 X306.583 Y223.635
G01 X306.758 Y224.026
G01 X308.196 Y226.665
G01 X309.510 Y229.410
G01 X309.577 Y229.560
G01 X311.102 Y232.372
G01 X312.396 Y235.094
G01 X314.037 Y238.140
G01 X315.215 Y240.628
G01 X317.001 Y243.970
G01 X318.034 Y246.161
G01 X319.993 Y249.862
G01 X320.853 Y251.695
G01 X323.012 Y255.817
G01 X323.672 Y257.229
G01 X326.059 Y261.834
G01 X326.491 Y262.763
G01 X329.132 Y267.912
G01 X329.310 Y268.297
G01 X332.129 Y273.831
G01 X334.949 Y279.365
G01 X337.768 Y284.898
G01 X340.587 Y290.432
G01 X343.406 Y295.966
G01 X346.225 Y301.500
G01 X340.117 Y301.012
G01 X334.009 Y300.523
G01 X327.901 Y300.035
G01 X321.793 Y299.547
G01 X315.685 Y299.059
G01 X309.577 Y298.570
G01 X303.565 Y298.093
G01 X303.469 Y298.082
G01 X298.083 Y297.679
G01 X297.361 Y297.594
G01 X292.536 Y297.254
G01 X291.253 Y297.105
G01 X286.922 Y296.821
G01 X285.145 Y296.617
G01 X281.243 Y296.377
G01 X279.037 Y296.129
G01 X275.500 Y295.926
G01 X272.929 Y295.641
G01 X269.692 Y295.465
G01 X266.821 Y295.152
G01 X263.820 Y294.998
G01 X260.875 Y294.686
G01 X260.713 Y294.664
G01 X257.883 Y294.523
G01 X255.094 Y294.240
G01 X254.604 Y294.176
G01 X251.882 Y294.043
G01 X249.183 Y293.777
G01 X248.496 Y293.688
G01 X245.814 Y293.558
G01 X243.141 Y293.297
G01 X242.388 Y293.199
G01 X239.680 Y293.068
G01 X236.965 Y292.800
G01 X236.280 Y292.711
G01 X233.477 Y292.572
G01 X230.654 Y292.286
G01 X230.172 Y292.223
G01 X227.205 Y292.070
G01 X224.205 Y291.753
G01 X224.064 Y291.734
G01 X220.863 Y291.562
G01 X217.956 Y291.246
G01 X214.452 Y291.045
G01 X211.848 Y290.758
G01 X207.971 Y290.520
G01 X205.740 Y290.269
G01 X201.421 Y289.985
G01 X199.632 Y289.781
G01 X194.802 Y289.441
G01 X193.524 Y289.293
G01 X188.116 Y288.887
G01 X187.416 Y288.805
G01 X181.361 Y288.323
G01 X181.308 Y288.316
G01 X175.200 Y287.828
G01 X169.092 Y287.340
G01 X162.984 Y286.851
G01 X156.876 Y286.363
G01 X150.768 Y285.875
G01 X154.151 Y280.992
G01 X157.534 Y276.109
G01 X160.917 Y271.227
G01 X164.299 Y266.344
G01 X167.683 Y261.461
G01 X171.065 Y256.578
G01 X174.211 Y252.012
G01 X174.448 Y251.695
G01 X177.258 Y247.579
G01 X177.831 Y246.813
G01 X180.344 Y243.097
G01 X181.214 Y241.930
G01 X183.469 Y238.566
G01 X184.597 Y237.047
G01 X186.631 Y233.987
G01 X187.980 Y232.164
G01 X189.830 Y229.360
G01 X191.363 Y227.281
G01 X193.066 Y224.684
G01 X194.746 Y222.399
G01 X196.338 Y219.960
G01 X198.035 Y217.637
G01 X198.129 Y217.516
G01 X199.646 Y215.186
G01 X201.265 Y212.952
G01 X201.512 Y212.633
G01 X202.988 Y210.361
G01 X204.571 Y208.171
G01 X204.894 Y207.750
G01 X206.366 Y205.486
G01 X207.952 Y203.290
G01 X208.277 Y202.867
G01 X209.781 Y200.557
G01 X211.411 Y198.309
G01 X211.660 Y197.984
G01 X213.231 Y195.576
G01 X214.947 Y193.225
G01 X215.043 Y193.101
G01 X216.720 Y190.543
G01 X218.426 Y188.219
G01 X220.247 Y185.456
G01 X221.809 Y183.336
G01 X223.814 Y180.317
G01 X225.192 Y178.453
G01 X227.421 Y175.126
G01 X228.575 Y173.570
G01 X231.068 Y169.883
G01 X231.958 Y168.687
G01 X234.754 Y164.590
G01 X235.341 Y163.805
G01 X238.480 Y159.246
G01 X238.724 Y158.922
G01 X242.107 Y154.039
G01 X245.489 Y149.156
G01 X248.872 Y144.273
G01 X252.255 Y139.391
G01 X255.638 Y134.508
G01 X259.021 Y129.625
G01 X261.558 Y134.996
G01 X264.095 Y140.367
G01 X266.633 Y145.738
G01 X269.170 Y151.109
G01 X271.707 Y156.481
G01 X274.244 Y161.852
G01 X276.626 Y166.859
G01 X276.781 Y167.223
G01 X278.941 Y171.715
G01 X279.319 Y172.594
G01 X281.280 Y176.628
G01 X281.856 Y177.965
G01 X283.641 Y181.599
G01 X284.393 Y183.336
G01 X286.026 Y186.627
G01 X286.930 Y188.707
G01 X288.434 Y191.711
G01 X289.467 Y194.078
G01 X290.865 Y196.852
G01 X292.005 Y199.449
G01 X293.320 Y202.048
G01 X294.484 Y204.679
G01 X294.542 Y204.820
G01 X295.801 Y207.299
G01 X296.925 Y209.819
G01 X297.079 Y210.191
G01 X298.308 Y212.606
G01 X299.413 Y215.072
G01 X299.616 Y215.562
G01 X300.841 Y217.970
G01 X301.949 Y220.440
G01 X302.153 Y220.934
G01 X303.402 Y223.390
G01 X304.534 Y225.926
G01 X304.690 Y226.305
G01 X305.990 Y228.869
G01 X307.168 Y231.531
G01 X307.228 Y231.676
G01 X308.605 Y234.407
G01 X309.765 Y237.047
G01 X311.247 Y240.006
G01 X312.302 Y242.418
G01 X313.914 Y245.664
G01 X314.839 Y247.789
G01 X316.606 Y251.383
G01 X317.376 Y253.160
G01 X319.323 Y257.162
G01 X319.914 Y258.531
G01 X322.064 Y263.002
G01 X322.451 Y263.902
G01 X324.828 Y268.901
G01 X324.988 Y269.273
G01 X327.525 Y274.644
G01 X330.062 Y280.016
G01 X332.599 Y285.387
G01 X335.137 Y290.758
G01 X337.674 Y296.129
G01 X340.211 Y301.500
G01 X334.385 Y300.849
G01 X328.559 Y300.198
G01 X322.733 Y299.547
G01 X316.906 Y298.896
G01 X311.080 Y298.245
G01 X305.254 Y297.594
G01 X299.511 Y296.955
G01 X299.428 Y296.943
G01 X294.284 Y296.394
G01 X293.602 Y296.292
G01 X288.994 Y295.821
G01 X287.776 Y295.641
G01 X283.642 Y295.237
G01 X281.950 Y294.990
G01 X278.227 Y294.643
G01 X276.124 Y294.339
G01 X272.750 Y294.038
G01 X270.297 Y293.687
G01 X267.212 Y293.423
G01 X264.471 Y293.037
G01 X261.612 Y292.799
G01 X258.811 Y292.413
G01 X258.645 Y292.386
G01 X255.950 Y292.167
G01 X253.298 Y291.813
G01 X252.819 Y291.734
G01 X250.227 Y291.527
G01 X247.662 Y291.192
G01 X246.993 Y291.083
G01 X244.440 Y290.880
G01 X241.900 Y290.551
G01 X241.167 Y290.432
G01 X238.589 Y290.226
G01 X236.011 Y289.890
G01 X235.341 Y289.781
G01 X232.673 Y289.565
G01 X229.992 Y289.208
G01 X229.515 Y289.130
G01 X226.691 Y288.897
G01 X223.842 Y288.505
G01 X223.688 Y288.479
G01 X220.642 Y288.219
G01 X217.862 Y287.828
G01 X214.526 Y287.532
G01 X212.036 Y287.177
G01 X208.344 Y286.834
G01 X206.210 Y286.526
G01 X202.096 Y286.125
G01 X200.384 Y285.875
G01 X195.783 Y285.405
G01 X194.558 Y285.224
G01 X189.404 Y284.673
G01 X188.732 Y284.573
G01 X182.961 Y283.930
G01 X182.906 Y283.922
G01 X177.079 Y283.271
G01 X171.253 Y282.620
G01 X165.427 Y281.969
G01 X159.601 Y281.318
G01 X153.775 Y280.667
G01 X157.158 Y276.109
G01 X160.541 Y271.552
G01 X163.924 Y266.995
G01 X167.307 Y262.438
G01 X170.690 Y257.880
G01 X174.072 Y253.323
G01 X177.219 Y249.061
G01 X177.455 Y248.766
G01 X180.267 Y244.922
G01 X180.838 Y244.208
G01 X183.354 Y240.738
G01 X184.221 Y239.651
G01 X186.479 Y236.509
G01 X187.604 Y235.094
G01 X189.642 Y232.235
G01 X190.987 Y230.537
G01 X192.841 Y227.916
G01 X194.370 Y225.979
G01 X196.077 Y223.552
G01 X197.753 Y221.422
G01 X199.350 Y219.143
G01 X201.043 Y216.977
G01 X201.136 Y216.865
G01 X202.657 Y214.687
G01 X204.274 Y212.605
G01 X204.519 Y212.307
G01 X206.000 Y210.184
G01 X207.579 Y208.142
G01 X207.901 Y207.750
G01 X209.378 Y205.633
G01 X210.961 Y203.587
G01 X211.284 Y203.193
G01 X212.792 Y201.034
G01 X214.419 Y198.938
G01 X214.667 Y198.635
G01 X216.243 Y196.385
G01 X217.955 Y194.193
G01 X218.050 Y194.078
G01 X219.731 Y191.687
G01 X221.433 Y189.521
G01 X223.259 Y186.939
G01 X224.816 Y184.964
G01 X226.825 Y182.143
G01 X228.199 Y180.406
G01 X230.432 Y177.298
G01 X231.582 Y175.849
G01 X234.077 Y172.406
G01 X234.965 Y171.292
G01 X237.763 Y167.466
G01 X238.348 Y166.734
G01 X241.488 Y162.479
G01 X241.731 Y162.177
G01 X245.114 Y157.620
G01 X248.497 Y153.062
G01 X251.879 Y148.505
G01 X255.262 Y143.948
G01 X258.645 Y139.391
G01 X262.028 Y134.833
G01 X264.283 Y140.042
G01 X266.539 Y145.250
G01 X268.794 Y150.458
G01 X271.049 Y155.667
G01 X273.305 Y160.875
G01 X275.560 Y166.083
G01 X277.678 Y170.939
G01 X277.815 Y171.292
G01 X279.738 Y175.649
G01 X280.070 Y176.500
G01 X281.817 Y180.414
G01 X282.325 Y181.708
G01 X283.917 Y185.235
G01 X284.581 Y186.917
G01 X286.038 Y190.111
G01 X286.836 Y192.125
G01 X288.178 Y195.041
G01 X289.091 Y197.333
G01 X290.339 Y200.026
G01 X291.347 Y202.542
G01 X292.522 Y205.064
G01 X293.551 Y207.613
G01 X293.602 Y207.750
G01 X294.727 Y210.156
G01 X295.722 Y212.597
G01 X295.857 Y212.958
G01 X296.955 Y215.303
G01 X297.934 Y217.692
G01 X298.113 Y218.167
G01 X299.207 Y220.503
G01 X300.188 Y222.898
G01 X300.368 Y223.375
G01 X301.484 Y225.760
G01 X302.486 Y228.217
G01 X302.623 Y228.583
G01 X303.784 Y231.073
G01 X304.826 Y233.651
G01 X304.878 Y233.792
G01 X306.109 Y236.443
G01 X307.133 Y239.000
G01 X308.457 Y241.872
G01 X309.389 Y244.208
G01 X310.827 Y247.359
G01 X311.644 Y249.417
G01 X313.219 Y252.904
G01 X313.899 Y254.625
G01 X315.633 Y258.508
G01 X316.155 Y259.833
G01 X318.068 Y264.169
G01 X318.410 Y265.042
G01 X320.525 Y269.889
G01 X320.665 Y270.250
G01 X322.921 Y275.458
G01 X325.176 Y280.667
G01 X327.431 Y285.875
G01 X329.686 Y291.083
G01 X331.941 Y296.292
G01 X334.197 Y301.500
G01 X328.653 Y300.686
G01 X323.108 Y299.872
G01 X317.564 Y299.059
G01 X312.020 Y298.245
G01 X306.476 Y297.431
G01 X300.932 Y296.617
G01 X295.459 Y295.817
G01 X295.387 Y295.803
G01 X290.486 Y295.109
G01 X289.843 Y294.989
G01 X285.455 Y294.388
G01 X284.299 Y294.176
G01 X280.363 Y293.655
G01 X278.755 Y293.362
G01 X275.212 Y292.909
G01 X273.210 Y292.548
G01 X270.001 Y292.151
G01 X267.666 Y291.734
G01 X264.732 Y291.381
G01 X262.122 Y290.920
G01 X259.404 Y290.601
G01 X256.748 Y290.141
G01 X256.578 Y290.107
G01 X254.018 Y289.810
G01 X251.503 Y289.387
G01 X251.034 Y289.293
G01 X248.572 Y289.010
G01 X246.141 Y288.608
G01 X245.489 Y288.479
G01 X243.066 Y288.202
G01 X240.660 Y287.806
G01 X239.945 Y287.665
G01 X237.499 Y287.385
G01 X235.057 Y286.981
G01 X234.401 Y286.852
G01 X231.870 Y286.559
G01 X229.330 Y286.132
G01 X228.857 Y286.038
G01 X226.177 Y285.723
G01 X223.477 Y285.257
G01 X223.313 Y285.224
G01 X220.420 Y284.877
G01 X217.768 Y284.410
G01 X214.600 Y284.019
G01 X212.224 Y283.596
G01 X208.717 Y283.148
G01 X206.680 Y282.783
G01 X202.770 Y282.265
G01 X201.136 Y281.969
G01 X196.762 Y281.369
G01 X195.591 Y281.155
G01 X190.691 Y280.460
G01 X190.047 Y280.341
G01 X184.559 Y279.538
G01 X184.503 Y279.527
G01 X178.959 Y278.714
G01 X173.415 Y277.900
G01 X167.870 Y277.086
G01 X162.326 Y276.272
G01 X156.782 Y275.458
G01 X160.165 Y271.226
G01 X163.548 Y266.995
G01 X166.931 Y262.763
G01 X170.314 Y258.531
G01 X173.696 Y254.299
G01 X177.079 Y250.068
G01 X180.227 Y246.109
G01 X180.462 Y245.836
G01 X183.276 Y242.266
G01 X183.845 Y241.604
G01 X186.364 Y238.380
G01 X187.228 Y237.372
G01 X189.490 Y234.452
G01 X190.611 Y233.141
G01 X192.653 Y230.483
G01 X193.994 Y228.909
G01 X195.853 Y226.473
G01 X197.377 Y224.677
G01 X199.089 Y222.420
G01 X200.760 Y220.445
G01 X202.361 Y218.326
G01 X204.050 Y216.318
G01 X204.143 Y216.213
G01 X205.669 Y214.188
G01 X207.282 Y212.257
G01 X207.526 Y211.982
G01 X209.011 Y210.007
G01 X210.588 Y208.113
G01 X210.909 Y207.750
G01 X212.389 Y205.781
G01 X213.969 Y203.883
G01 X214.291 Y203.518
G01 X215.803 Y201.510
G01 X217.427 Y199.566
G01 X217.674 Y199.286
G01 X219.254 Y197.194
G01 X220.962 Y195.161
G01 X221.057 Y195.055
G01 X222.743 Y192.831
G01 X224.440 Y190.823
G01 X226.270 Y188.423
G01 X227.823 Y186.591
G01 X229.836 Y183.969
G01 X231.206 Y182.359
G01 X233.442 Y179.471
G01 X234.589 Y178.128
G01 X237.087 Y174.928
G01 X237.972 Y173.896
G01 X240.772 Y170.342
G01 X241.355 Y169.664
G01 X244.496 Y165.713
G01 X244.738 Y165.432
G01 X248.121 Y161.200
G01 X251.503 Y156.969
G01 X254.886 Y152.737
G01 X258.269 Y148.505
G01 X261.652 Y144.273
G01 X265.035 Y140.042
G01 X267.009 Y145.087
G01 X268.982 Y150.133
G01 X270.955 Y155.178
G01 X272.928 Y160.224
G01 X274.902 Y165.269
G01 X276.875 Y170.315
G01 X278.730 Y175.020
G01 X278.849 Y175.361
G01 X280.534 Y179.583
G01 X280.822 Y180.406
G01 X282.355 Y184.199
G01 X282.796 Y185.452
G01 X284.193 Y188.870
G01 X284.769 Y190.497
G01 X286.049 Y193.594
G01 X286.742 Y195.543
G01 X287.923 Y198.371
G01 X288.716 Y200.589
G01 X289.814 Y203.200
G01 X290.689 Y205.634
G01 X291.724 Y208.081
G01 X292.618 Y210.547
G01 X292.662 Y210.680
G01 X293.653 Y213.014
G01 X294.519 Y215.376
G01 X294.636 Y215.725
G01 X295.603 Y217.999
G01 X296.455 Y220.312
G01 X296.609 Y220.771
G01 X297.574 Y223.037
G01 X298.428 Y225.355
G01 X298.582 Y225.816
G01 X299.565 Y228.130
G01 X300.437 Y230.508
G01 X300.556 Y230.862
G01 X301.578 Y233.276
G01 X302.484 Y235.772
G01 X302.529 Y235.908
G01 X303.612 Y238.479
G01 X304.503 Y240.953
G01 X305.666 Y243.738
G01 X306.476 Y245.999
G01 X307.740 Y249.053
G01 X308.449 Y251.044
G01 X309.833 Y254.425
G01 X310.423 Y256.090
G01 X311.944 Y259.853
G01 X312.396 Y261.135
G01 X314.073 Y265.337
G01 X314.369 Y266.181
G01 X316.221 Y270.877
G01 X316.343 Y271.227
G01 X318.316 Y276.272
G01 X320.289 Y281.318
G01 X322.263 Y286.363
G01 X324.236 Y291.409
G01 X326.209 Y296.454
G01 X328.183 Y301.500
G01 X322.920 Y300.524
G01 X317.658 Y299.547
G01 X312.396 Y298.570
G01 X307.134 Y297.594
G01 X301.871 Y296.617
G01 X296.609 Y295.641
G01 X291.407 Y294.678
G01 X291.347 Y294.664
G01 X286.690 Y293.823
G01 X286.084 Y293.687
G01 X281.916 Y292.955
G01 X280.822 Y292.711
G01 X277.085 Y292.072
G01 X275.560 Y291.734
G01 X272.197 Y291.175
G01 X270.297 Y290.758
G01 X267.253 Y290.264
G01 X265.035 Y289.781
G01 X262.253 Y289.340
G01 X259.773 Y288.805
G01 X257.198 Y288.403
G01 X254.686 Y287.871
G01 X254.511 Y287.828
G01 X252.086 Y287.455
G01 X249.709 Y286.962
G01 X249.248 Y286.852
G01 X246.918 Y286.495
G01 X244.621 Y286.026
G01 X243.986 Y285.875
G01 X241.693 Y285.525
G01 X239.420 Y285.063
G01 X238.724 Y284.898
G01 X236.409 Y284.545
G01 X234.102 Y284.074
G01 X233.461 Y283.922
G01 X231.066 Y283.553
G01 X228.667 Y283.057
G01 X228.199 Y282.945
G01 X225.662 Y282.551
G01 X223.112 Y282.011
G01 X222.937 Y281.969
G01 X220.198 Y281.535
G01 X217.674 Y280.992
G01 X214.673 Y280.506
G01 X212.412 Y280.016
G01 X209.088 Y279.463
G01 X207.150 Y279.039
G01 X203.444 Y278.406
G01 X201.888 Y278.062
G01 X197.740 Y277.334
G01 X196.625 Y277.086
G01 X191.977 Y276.247
G01 X191.363 Y276.109
G01 X186.155 Y275.145
G01 X186.100 Y275.133
G01 X180.838 Y274.156
G01 X175.576 Y273.180
G01 X170.314 Y272.203
G01 X165.051 Y271.227
G01 X159.789 Y270.250
G01 X163.172 Y266.344
G01 X166.555 Y262.437
G01 X169.938 Y258.531
G01 X173.321 Y254.625
G01 X176.704 Y250.719
G01 X180.086 Y246.813
G01 X183.234 Y243.158
G01 X183.469 Y242.906
G01 X186.285 Y239.609
G01 X186.852 Y239.000
G01 X189.374 Y236.022
G01 X190.235 Y235.094
G01 X192.500 Y232.396
G01 X193.618 Y231.188
G01 X195.664 Y228.732
G01 X197.001 Y227.281
G01 X198.864 Y225.029
G01 X200.384 Y223.375
G01 X202.100 Y221.288
G01 X203.767 Y219.469
G01 X205.372 Y217.509
G01 X207.057 Y215.658
G01 X207.150 Y215.562
G01 X208.680 Y213.689
G01 X210.290 Y211.910
G01 X210.533 Y211.656
G01 X212.023 Y209.830
G01 X213.596 Y208.084
G01 X213.916 Y207.750
G01 X215.401 Y205.929
G01 X216.978 Y204.179
G01 X217.299 Y203.844
G01 X218.815 Y201.987
G01 X220.435 Y200.195
G01 X220.681 Y199.937
G01 X222.266 Y198.002
G01 X223.970 Y196.130
G01 X224.064 Y196.031
G01 X225.754 Y193.975
G01 X227.447 Y192.125
G01 X229.281 Y189.906
G01 X230.830 Y188.219
G01 X232.847 Y185.795
G01 X234.213 Y184.313
G01 X236.453 Y181.643
G01 X237.596 Y180.406
G01 X240.097 Y177.451
G01 X240.979 Y176.500
G01 X243.781 Y173.218
G01 X244.362 Y172.594
G01 X247.504 Y168.946
G01 X247.745 Y168.687
G01 X251.128 Y164.781
G01 X254.510 Y160.875
G01 X257.894 Y156.969
G01 X261.276 Y153.062
G01 X264.659 Y149.156
G01 X268.042 Y145.250
G01 X269.734 Y150.133
G01 X271.425 Y155.016
G01 X273.116 Y159.898
G01 X274.808 Y164.781
G01 X276.499 Y169.664
G01 X278.191 Y174.547
G01 X279.782 Y179.100
G01 X279.882 Y179.430
G01 X281.330 Y183.517
G01 X281.574 Y184.312
G01 X282.892 Y187.985
G01 X283.265 Y189.195
G01 X284.469 Y192.506
G01 X284.957 Y194.078
G01 X286.061 Y197.077
G01 X286.648 Y198.961
G01 X287.667 Y201.700
G01 X288.340 Y203.844
G01 X289.289 Y206.373
G01 X290.031 Y208.727
G01 X290.926 Y211.097
G01 X291.686 Y213.482
G01 X291.723 Y213.609
G01 X292.580 Y215.871
G01 X293.316 Y218.155
G01 X293.414 Y218.492
G01 X294.251 Y220.696
G01 X294.976 Y222.932
G01 X295.106 Y223.375
G01 X295.940 Y225.571
G01 X296.667 Y227.812
G01 X296.797 Y228.258
G01 X297.647 Y230.499
G01 X298.389 Y232.798
G01 X298.488 Y233.141
G01 X299.372 Y235.480
G01 X300.142 Y237.892
G01 X300.180 Y238.023
G01 X301.116 Y240.515
G01 X301.871 Y242.906
G01 X302.876 Y245.604
G01 X303.563 Y247.789
G01 X304.653 Y250.748
G01 X305.254 Y252.672
G01 X306.446 Y255.946
G01 X306.946 Y257.555
G01 X308.255 Y261.198
G01 X308.637 Y262.438
G01 X310.078 Y266.505
G01 X310.329 Y267.320
G01 X311.917 Y271.866
G01 X312.020 Y272.203
G01 X313.711 Y277.086
G01 X315.403 Y281.969
G01 X317.094 Y286.852
G01 X318.786 Y291.734
G01 X320.477 Y296.617
G01 X322.169 Y301.500
G01 X317.188 Y300.361
G01 X312.208 Y299.221
G01 X307.227 Y298.082
G01 X302.247 Y296.943
G01 X297.267 Y295.803
G01 X292.286 Y294.664
G01 X287.358 Y293.539
G01 X287.306 Y293.525
G01 X282.895 Y292.538
G01 X282.326 Y292.385
G01 X278.378 Y291.522
G01 X277.345 Y291.246
G01 X273.807 Y290.489
G01 X272.365 Y290.107
G01 X269.183 Y289.441
G01 X267.384 Y288.967
G01 X264.505 Y288.378
G01 X262.404 Y287.828
G01 X259.775 Y287.299
G01 X257.424 Y286.689
G01 X254.991 Y286.206
G01 X252.624 Y285.601
G01 X252.443 Y285.549
G01 X250.154 Y285.100
G01 X247.916 Y284.539
G01 X247.463 Y284.410
G01 X245.264 Y283.981
G01 X243.101 Y283.445
G01 X242.482 Y283.271
G01 X240.319 Y282.849
G01 X238.179 Y282.322
G01 X237.502 Y282.132
G01 X235.319 Y281.705
G01 X233.147 Y281.168
G01 X232.522 Y280.992
G01 X230.261 Y280.549
G01 X228.003 Y279.984
G01 X227.541 Y279.853
G01 X225.147 Y279.379
G01 X222.746 Y278.766
G01 X222.561 Y278.713
G01 X219.975 Y278.194
G01 X217.580 Y277.574
G01 X214.745 Y276.995
G01 X212.600 Y276.435
G01 X209.459 Y275.779
G01 X207.620 Y275.296
G01 X204.116 Y274.547
G01 X202.639 Y274.156
G01 X198.716 Y273.298
G01 X197.659 Y273.017
G01 X193.260 Y272.033
G01 X192.678 Y271.878
G01 X187.749 Y270.752
G01 X187.698 Y270.738
G01 X182.718 Y269.599
G01 X177.737 Y268.460
G01 X172.757 Y267.320
G01 X167.776 Y266.181
G01 X162.796 Y265.042
G01 X166.179 Y261.461
G01 X169.562 Y257.880
G01 X172.945 Y254.299
G01 X176.328 Y250.719
G01 X179.711 Y247.138
G01 X183.094 Y243.557
G01 X186.242 Y240.206
G01 X186.477 Y239.977
G01 X189.294 Y236.953
G01 X189.859 Y236.396
G01 X192.384 Y233.663
G01 X193.242 Y232.815
G01 X195.510 Y230.339
G01 X196.625 Y229.234
G01 X198.675 Y226.980
G01 X200.008 Y225.654
G01 X201.875 Y223.586
G01 X203.391 Y222.073
G01 X205.112 Y220.156
G01 X206.774 Y218.492
G01 X208.384 Y216.692
G01 X210.065 Y214.999
G01 X210.157 Y214.911
G01 X211.691 Y213.191
G01 X213.298 Y211.562
G01 X213.540 Y211.331
G01 X215.034 Y209.653
G01 X216.605 Y208.055
G01 X216.923 Y207.750
G01 X218.412 Y206.077
G01 X219.986 Y204.476
G01 X220.306 Y204.169
G01 X221.826 Y202.463
G01 X223.443 Y200.823
G01 X223.688 Y200.589
G01 X225.277 Y198.811
G01 X226.977 Y197.097
G01 X227.071 Y197.008
G01 X228.765 Y195.119
G01 X230.454 Y193.427
G01 X232.292 Y191.389
G01 X233.837 Y189.846
G01 X235.858 Y187.622
G01 X237.220 Y186.266
G01 X239.463 Y183.816
G01 X240.603 Y182.685
G01 X243.107 Y179.974
G01 X243.986 Y179.104
G01 X246.790 Y176.094
G01 X247.369 Y175.524
G01 X250.512 Y172.178
G01 X250.752 Y171.943
G01 X254.135 Y168.362
G01 X257.518 Y164.781
G01 X260.901 Y161.200
G01 X264.284 Y157.620
G01 X267.666 Y154.039
G01 X271.049 Y150.458
G01 X272.459 Y155.178
G01 X273.868 Y159.898
G01 X275.278 Y164.618
G01 X276.687 Y169.339
G01 X278.097 Y174.059
G01 X279.507 Y178.779
G01 X280.834 Y183.181
G01 X280.916 Y183.499
G01 X282.126 Y187.451
G01 X282.326 Y188.219
G01 X283.430 Y191.771
G01 X283.735 Y192.939
G01 X284.745 Y196.141
G01 X285.145 Y197.659
G01 X286.073 Y200.561
G01 X286.554 Y202.379
G01 X287.412 Y205.030
G01 X287.964 Y207.099
G01 X288.763 Y209.547
G01 X289.373 Y211.819
G01 X290.128 Y214.113
G01 X290.753 Y216.416
G01 X290.783 Y216.539
G01 X291.506 Y218.728
G01 X292.113 Y220.934
G01 X292.192 Y221.259
G01 X292.898 Y223.392
G01 X293.497 Y225.552
G01 X293.602 Y225.979
G01 X294.306 Y228.105
G01 X294.906 Y230.269
G01 X295.011 Y230.699
G01 X295.729 Y232.869
G01 X296.340 Y235.089
G01 X296.421 Y235.419
G01 X297.167 Y237.684
G01 X297.800 Y240.013
G01 X297.831 Y240.139
G01 X298.619 Y242.551
G01 X299.240 Y244.859
G01 X300.086 Y247.470
G01 X300.650 Y249.580
G01 X301.566 Y252.442
G01 X302.059 Y254.299
G01 X303.059 Y257.467
G01 X303.469 Y259.020
G01 X304.565 Y262.544
G01 X304.878 Y263.740
G01 X306.083 Y267.673
G01 X306.288 Y268.460
G01 X307.613 Y272.854
G01 X307.697 Y273.180
G01 X309.107 Y277.900
G01 X310.516 Y282.620
G01 X311.926 Y287.340
G01 X313.336 Y292.060
G01 X314.745 Y296.780
G01 X316.155 Y301.500
G01 X311.456 Y300.198
G01 X306.758 Y298.896
G01 X302.059 Y297.594
G01 X297.361 Y296.292
G01 X292.662 Y294.990
G01 X287.964 Y293.687
G01 X283.311 Y292.400
G01 X283.265 Y292.385
G01 X279.102 Y291.254
G01 X278.567 Y291.083
G01 X274.842 Y290.089
G01 X273.868 Y289.781
G01 X270.532 Y288.908
G01 X269.170 Y288.479
G01 X266.171 Y287.708
G01 X264.471 Y287.177
G01 X261.759 Y286.492
G01 X259.773 Y285.875
G01 X257.297 Y285.259
G01 X255.074 Y284.573
G01 X252.785 Y284.010
G01 X250.564 Y283.334
G01 X250.376 Y283.271
G01 X248.223 Y282.746
G01 X246.123 Y282.117
G01 X245.677 Y281.969
G01 X243.610 Y281.467
G01 X241.581 Y280.866
G01 X240.979 Y280.667
G01 X238.945 Y280.174
G01 X236.938 Y279.582
G01 X236.280 Y279.365
G01 X234.228 Y278.867
G01 X232.191 Y278.264
G01 X231.582 Y278.062
G01 X229.456 Y277.545
G01 X227.338 Y276.912
G01 X226.883 Y276.760
G01 X224.631 Y276.208
G01 X222.378 Y275.523
G01 X222.185 Y275.458
G01 X219.751 Y274.854
G01 X217.487 Y274.156
G01 X214.817 Y273.483
G01 X212.788 Y272.854
G01 X209.828 Y272.094
G01 X208.089 Y271.552
G01 X204.786 Y270.688
G01 X203.391 Y270.250
G01 X199.690 Y269.263
G01 X198.692 Y268.948
G01 X194.542 Y267.820
G01 X193.994 Y267.646
G01 X189.341 Y266.358
G01 X189.295 Y266.344
G01 X184.597 Y265.042
G01 X179.899 Y263.739
G01 X175.200 Y262.438
G01 X170.502 Y261.135
G01 X165.803 Y259.833
G01 X169.186 Y256.578
G01 X172.569 Y253.323
G01 X175.952 Y250.068
G01 X179.335 Y246.812
G01 X182.718 Y243.557
G01 X186.101 Y240.302
G01 X189.250 Y237.255
G01 X189.484 Y237.047
G01 X192.303 Y234.296
G01 X192.866 Y233.792
G01 X195.393 Y231.305
G01 X196.249 Y230.536
G01 X198.521 Y228.282
G01 X199.632 Y227.281
G01 X201.685 Y225.228
G01 X203.015 Y224.026
G01 X204.886 Y222.142
G01 X206.398 Y220.771
G01 X208.123 Y219.024
G01 X209.781 Y217.516
G01 X211.395 Y215.875
G01 X213.073 Y214.340
G01 X213.164 Y214.260
G01 X214.703 Y212.692
G01 X216.306 Y211.214
G01 X216.547 Y211.005
G01 X218.045 Y209.476
G01 X219.613 Y208.026
G01 X219.930 Y207.750
G01 X221.423 Y206.225
G01 X222.995 Y204.772
G01 X223.313 Y204.495
G01 X224.838 Y202.940
G01 X226.451 Y201.452
G01 X226.696 Y201.240
G01 X228.288 Y199.619
G01 X229.985 Y198.065
G01 X230.078 Y197.984
G01 X231.777 Y196.263
G01 X233.461 Y194.729
G01 X235.304 Y192.873
G01 X236.844 Y191.474
G01 X238.869 Y189.448
G01 X240.227 Y188.219
G01 X242.473 Y185.988
G01 X243.610 Y184.964
G01 X246.117 Y182.496
G01 X246.993 Y181.708
G01 X249.799 Y178.970
G01 X250.376 Y178.453
G01 X253.520 Y175.412
G01 X253.759 Y175.198
G01 X257.142 Y171.943
G01 X260.524 Y168.688
G01 X263.908 Y165.432
G01 X267.290 Y162.177
G01 X270.673 Y158.922
G01 X274.056 Y155.667
G01 X275.184 Y160.224
G01 X276.312 Y164.781
G01 X277.439 Y169.338
G01 X278.567 Y173.896
G01 X279.694 Y178.453
G01 X280.822 Y183.010
G01 X281.886 Y187.261
G01 X281.950 Y187.568
G01 X282.922 Y191.385
G01 X283.077 Y192.125
G01 X283.967 Y195.557
G01 X284.205 Y196.682
G01 X285.021 Y199.777
G01 X285.333 Y201.240
G01 X286.084 Y204.044
G01 X286.460 Y205.797
G01 X287.156 Y208.359
G01 X287.588 Y210.354
G01 X288.238 Y212.721
G01 X288.716 Y214.911
G01 X289.330 Y217.130
G01 X289.820 Y219.350
G01 X289.843 Y219.469
G01 X290.432 Y221.586
G01 X290.910 Y223.713
G01 X290.971 Y224.026
G01 X291.546 Y226.089
G01 X292.018 Y228.172
G01 X292.098 Y228.583
G01 X292.672 Y230.639
G01 X293.145 Y232.727
G01 X293.226 Y233.141
G01 X293.810 Y235.239
G01 X294.292 Y237.380
G01 X294.354 Y237.698
G01 X294.961 Y239.888
G01 X295.458 Y242.134
G01 X295.481 Y242.255
G01 X296.123 Y244.587
G01 X296.609 Y246.812
G01 X297.296 Y249.336
G01 X297.737 Y251.370
G01 X298.479 Y254.136
G01 X298.864 Y255.927
G01 X299.673 Y258.988
G01 X299.992 Y260.484
G01 X300.876 Y263.889
G01 X301.120 Y265.042
G01 X302.088 Y268.841
G01 X302.247 Y269.599
G01 X303.309 Y273.842
G01 X303.375 Y274.156
G01 X304.502 Y278.714
G01 X305.630 Y283.271
G01 X306.758 Y287.828
G01 X307.886 Y292.385
G01 X309.013 Y296.943
G01 X310.140 Y301.500
G01 X305.724 Y300.035
G01 X301.307 Y298.570
G01 X296.891 Y297.106
G01 X292.474 Y295.641
G01 X288.058 Y294.176
G01 X283.641 Y292.711
G01 X279.265 Y291.261
G01 X279.225 Y291.246
G01 X275.311 Y289.969
G01 X274.808 Y289.781
G01 X271.308 Y288.658
G01 X270.391 Y288.317
G01 X267.257 Y287.327
G01 X265.975 Y286.852
G01 X263.159 Y285.977
G01 X261.558 Y285.387
G01 X259.013 Y284.608
G01 X257.142 Y283.922
G01 X254.820 Y283.220
G01 X252.725 Y282.457
G01 X250.580 Y281.815
G01 X248.504 Y281.069
G01 X248.309 Y280.992
G01 X246.292 Y280.393
G01 X244.330 Y279.698
G01 X243.892 Y279.527
G01 X241.956 Y278.954
G01 X240.061 Y278.290
G01 X239.475 Y278.063
G01 X237.571 Y277.500
G01 X235.697 Y276.845
G01 X235.059 Y276.598
G01 X233.136 Y276.029
G01 X231.234 Y275.362
G01 X230.642 Y275.133
G01 X228.651 Y274.542
G01 X226.671 Y273.842
G01 X226.226 Y273.668
G01 X224.114 Y273.037
G01 X222.008 Y272.281
G01 X221.809 Y272.203
G01 X219.526 Y271.514
G01 X217.392 Y270.738
G01 X214.886 Y269.972
G01 X212.976 Y269.273
G01 X210.195 Y268.410
G01 X208.559 Y267.809
G01 X205.454 Y266.829
G01 X204.143 Y266.344
G01 X200.663 Y265.227
G01 X199.726 Y264.879
G01 X195.821 Y263.605
G01 X195.310 Y263.414
G01 X190.931 Y261.963
G01 X190.893 Y261.949
G01 X186.477 Y260.484
G01 X182.060 Y259.020
G01 X177.643 Y257.555
G01 X173.227 Y256.090
G01 X168.810 Y254.625
G01 X172.193 Y251.695
G01 X175.576 Y248.766
G01 X178.959 Y245.836
G01 X182.342 Y242.906
G01 X185.725 Y239.976
G01 X189.108 Y237.047
G01 X192.258 Y234.304
G01 X192.490 Y234.117
G01 X195.312 Y231.639
G01 X195.873 Y231.188
G01 X198.403 Y228.947
G01 X199.256 Y228.258
G01 X201.531 Y226.225
G01 X202.639 Y225.328
G01 X204.696 Y223.476
G01 X206.022 Y222.398
G01 X207.898 Y220.699
G01 X209.405 Y219.469
G01 X211.134 Y217.893
G01 X212.788 Y216.539
G01 X214.407 Y215.058
G01 X216.080 Y213.680
G01 X216.171 Y213.609
G01 X217.714 Y212.193
G01 X219.314 Y210.867
G01 X219.554 Y210.680
G01 X221.057 Y209.299
G01 X222.622 Y207.997
G01 X222.937 Y207.750
G01 X224.435 Y206.373
G01 X226.003 Y205.068
G01 X226.319 Y204.820
G01 X227.849 Y203.416
G01 X229.459 Y202.081
G01 X229.703 Y201.891
G01 X231.300 Y200.428
G01 X232.992 Y199.033
G01 X233.086 Y198.961
G01 X234.788 Y197.408
G01 X236.468 Y196.031
G01 X238.315 Y194.356
G01 X239.851 Y193.102
G01 X241.880 Y191.274
G01 X243.234 Y190.172
G01 X245.484 Y188.161
G01 X246.617 Y187.242
G01 X249.127 Y185.019
G01 X250.000 Y184.313
G01 X252.808 Y181.846
G01 X253.383 Y181.383
G01 X256.527 Y178.645
G01 X256.766 Y178.453
G01 X260.149 Y175.523
G01 X263.531 Y172.594
G01 X266.914 Y169.664
G01 X270.298 Y166.734
G01 X273.680 Y163.805
G01 X277.064 Y160.875
G01 X277.909 Y165.270
G01 X278.755 Y169.664
G01 X279.600 Y174.059
G01 X280.446 Y178.453
G01 X281.292 Y182.848
G01 X282.138 Y187.242
G01 X282.938 Y191.342
G01 X282.984 Y191.637
G01 X283.719 Y195.319
G01 X283.829 Y196.031
G01 X284.505 Y199.343
G01 X284.675 Y200.426
G01 X285.297 Y203.412
G01 X285.521 Y204.820
G01 X286.096 Y207.528
G01 X286.366 Y209.215
G01 X286.901 Y211.689
G01 X287.212 Y213.609
G01 X287.712 Y215.895
G01 X288.058 Y218.004
G01 X288.531 Y220.146
G01 X288.888 Y222.284
G01 X288.904 Y222.398
G01 X289.358 Y224.443
G01 X289.707 Y226.492
G01 X289.749 Y226.793
G01 X290.194 Y228.785
G01 X290.539 Y230.792
G01 X290.595 Y231.188
G01 X291.038 Y233.173
G01 X291.384 Y235.184
G01 X291.441 Y235.582
G01 X291.892 Y237.609
G01 X292.243 Y239.671
G01 X292.286 Y239.976
G01 X292.755 Y242.091
G01 X293.116 Y244.254
G01 X293.132 Y244.371
G01 X293.626 Y246.622
G01 X293.978 Y248.766
G01 X294.505 Y251.202
G01 X294.824 Y253.160
G01 X295.392 Y255.831
G01 X295.669 Y257.555
G01 X296.286 Y260.508
G01 X296.515 Y261.949
G01 X297.186 Y265.234
G01 X297.361 Y266.344
G01 X298.093 Y270.008
G01 X298.207 Y270.738
G01 X299.006 Y274.831
G01 X299.052 Y275.133
G01 X299.898 Y279.527
G01 X300.744 Y283.922
G01 X301.589 Y288.316
G01 X302.435 Y292.711
G01 X303.281 Y297.105
G01 X304.127 Y301.500
G01 X299.992 Y299.872
G01 X295.857 Y298.245
G01 X291.723 Y296.617
G01 X287.588 Y294.990
G01 X283.453 Y293.362
G01 X279.318 Y291.734
G01 X275.223 Y290.124
G01 X275.184 Y290.107
G01 X271.522 Y288.686
G01 X271.049 Y288.479
G01 X267.776 Y287.227
G01 X266.915 Y286.851
G01 X263.985 Y285.747
G01 X262.780 Y285.224
G01 X260.149 Y284.246
G01 X258.645 Y283.596
G01 X256.268 Y282.724
G01 X254.510 Y281.969
G01 X252.344 Y281.183
G01 X250.376 Y280.341
G01 X248.374 Y279.621
G01 X246.444 Y278.807
G01 X246.241 Y278.714
G01 X244.361 Y278.041
G01 X242.537 Y277.282
G01 X242.107 Y277.086
G01 X240.302 Y276.443
G01 X238.541 Y275.716
G01 X237.972 Y275.458
G01 X236.196 Y274.827
G01 X234.454 Y274.109
G01 X233.837 Y273.831
G01 X232.044 Y273.193
G01 X230.275 Y272.462
G01 X229.703 Y272.203
G01 X227.844 Y271.540
G01 X226.003 Y270.773
G01 X225.568 Y270.575
G01 X223.596 Y269.867
G01 X221.635 Y269.040
G01 X221.433 Y268.948
G01 X219.299 Y268.175
G01 X217.298 Y267.320
G01 X214.954 Y266.461
G01 X213.164 Y265.693
G01 X210.561 Y264.726
G01 X209.029 Y264.065
G01 X206.120 Y262.969
G01 X204.895 Y262.437
G01 X201.633 Y261.190
G01 X200.760 Y260.810
G01 X197.098 Y259.389
G01 X196.625 Y259.182
G01 X192.518 Y257.567
G01 X192.490 Y257.555
G01 X188.356 Y255.927
G01 X184.221 Y254.300
G01 X180.086 Y252.672
G01 X175.952 Y251.045
G01 X171.817 Y249.417
G01 X175.200 Y246.813
G01 X178.583 Y244.208
G01 X181.966 Y241.604
G01 X185.349 Y239.000
G01 X188.732 Y236.396
G01 X192.115 Y233.792
G01 X195.266 Y231.352
G01 X195.498 Y231.187
G01 X198.321 Y228.983
G01 X198.881 Y228.583
G01 X201.413 Y226.588
G01 X202.263 Y225.979
G01 X204.542 Y224.169
G01 X205.646 Y223.375
G01 X207.707 Y221.724
G01 X209.029 Y220.771
G01 X210.909 Y219.255
G01 X212.412 Y218.167
G01 X214.146 Y216.761
G01 X215.795 Y215.562
G01 X217.418 Y214.240
G01 X219.088 Y213.021
G01 X219.178 Y212.959
G01 X220.726 Y211.695
G01 X222.322 Y210.519
G01 X222.561 Y210.354
G01 X224.068 Y209.122
G01 X225.630 Y207.968
G01 X225.944 Y207.750
G01 X227.446 Y206.521
G01 X229.012 Y205.365
G01 X229.327 Y205.146
G01 X230.860 Y203.893
G01 X232.468 Y202.709
G01 X232.710 Y202.542
G01 X234.311 Y201.236
G01 X236.000 Y200.001
G01 X236.093 Y199.937
G01 X237.800 Y198.552
G01 X239.475 Y197.333
G01 X241.326 Y195.840
G01 X242.858 Y194.729
G01 X244.891 Y193.100
G01 X246.241 Y192.125
G01 X248.494 Y190.334
G01 X249.624 Y189.521
G01 X252.136 Y187.541
G01 X253.007 Y186.917
G01 X255.817 Y184.722
G01 X256.390 Y184.313
G01 X259.535 Y181.877
G01 X259.773 Y181.708
G01 X263.156 Y179.104
G01 X266.539 Y176.500
G01 X269.922 Y173.896
G01 X273.304 Y171.292
G01 X276.688 Y168.688
G01 X280.070 Y166.083
G01 X280.634 Y170.315
G01 X281.198 Y174.547
G01 X281.762 Y178.779
G01 X282.325 Y183.010
G01 X282.889 Y187.242
G01 X283.453 Y191.474
G01 X283.990 Y195.423
G01 X284.017 Y195.706
G01 X284.515 Y199.253
G01 X284.581 Y199.937
G01 X285.042 Y203.128
G01 X285.145 Y204.169
G01 X285.573 Y207.048
G01 X285.708 Y208.401
G01 X286.108 Y211.011
G01 X286.272 Y212.633
G01 X286.645 Y215.018
G01 X286.836 Y216.865
G01 X287.187 Y219.069
G01 X287.400 Y221.096
G01 X287.733 Y223.163
G01 X287.955 Y225.219
G01 X287.964 Y225.328
G01 X288.284 Y227.300
G01 X288.504 Y229.271
G01 X288.528 Y229.560
G01 X288.841 Y231.482
G01 X289.060 Y233.412
G01 X289.091 Y233.792
G01 X289.404 Y235.707
G01 X289.623 Y237.641
G01 X289.655 Y238.024
G01 X289.974 Y239.978
G01 X290.195 Y241.962
G01 X290.219 Y242.255
G01 X290.549 Y244.295
G01 X290.774 Y246.375
G01 X290.783 Y246.487
G01 X291.129 Y248.658
G01 X291.347 Y250.719
G01 X291.715 Y253.069
G01 X291.911 Y254.951
G01 X292.305 Y257.525
G01 X292.474 Y259.182
G01 X292.899 Y262.029
G01 X293.038 Y263.414
G01 X293.497 Y266.579
G01 X293.602 Y267.646
G01 X294.097 Y271.176
G01 X294.166 Y271.878
G01 X294.702 Y275.819
G01 X294.730 Y276.109
G01 X295.293 Y280.341
G01 X295.857 Y284.573
G01 X296.421 Y288.805
G01 X296.985 Y293.037
G01 X297.549 Y297.268
G01 X298.112 Y301.500
G01 X294.260 Y299.710
G01 X290.407 Y297.919
G01 X286.554 Y296.129
G01 X282.702 Y294.338
G01 X278.849 Y292.548
G01 X274.996 Y290.758
G01 X271.183 Y288.988
G01 X271.143 Y288.967
G01 X267.735 Y287.404
G01 X267.290 Y287.177
G01 X264.245 Y285.798
G01 X263.438 Y285.387
G01 X260.713 Y284.169
G01 X259.585 Y283.596
G01 X257.140 Y282.517
G01 X255.732 Y281.806
G01 X253.524 Y280.843
G01 X251.880 Y280.016
G01 X249.868 Y279.147
G01 X248.027 Y278.225
G01 X246.169 Y277.429
G01 X244.385 Y276.547
G01 X244.174 Y276.435
G01 X242.429 Y275.691
G01 X240.743 Y274.868
G01 X240.321 Y274.645
G01 X238.647 Y273.933
G01 X237.019 Y273.144
G01 X236.468 Y272.854
G01 X234.821 Y272.155
G01 X233.210 Y271.376
G01 X232.616 Y271.064
G01 X230.951 Y270.357
G01 X229.314 Y269.564
G01 X228.763 Y269.273
G01 X227.036 Y268.538
G01 X225.331 Y267.706
G01 X224.910 Y267.483
G01 X223.076 Y266.698
G01 X221.259 Y265.800
G01 X221.057 Y265.693
G01 X219.070 Y264.835
G01 X217.205 Y263.902
G01 X215.019 Y262.950
G01 X213.352 Y262.112
G01 X210.924 Y261.041
G01 X209.499 Y260.321
G01 X206.784 Y259.108
G01 X205.646 Y258.531
G01 X202.600 Y257.151
G01 X201.794 Y256.741
G01 X198.373 Y255.171
G01 X197.941 Y254.951
G01 X194.102 Y253.167
G01 X194.088 Y253.160
G01 X190.235 Y251.370
G01 X186.382 Y249.580
G01 X182.530 Y247.789
G01 X178.677 Y245.999
G01 X174.824 Y244.208
G01 X178.207 Y241.930
G01 X181.590 Y239.651
G01 X184.973 Y237.372
G01 X188.356 Y235.094
G01 X191.739 Y232.815
G01 X195.122 Y230.536
G01 X198.274 Y228.401
G01 X198.504 Y228.258
G01 X201.330 Y226.326
G01 X201.888 Y225.979
G01 X204.423 Y224.230
G01 X205.270 Y223.700
G01 X207.552 Y222.112
G01 X208.653 Y221.422
G01 X210.718 Y219.972
G01 X212.036 Y219.143
G01 X213.920 Y217.811
G01 X215.419 Y216.865
G01 X217.157 Y215.629
G01 X218.802 Y214.586
G01 X220.429 Y213.423
G01 X222.095 Y212.361
G01 X222.185 Y212.307
G01 X223.737 Y211.196
G01 X225.331 Y210.172
G01 X225.568 Y210.029
G01 X227.080 Y208.945
G01 X228.639 Y207.939
G01 X228.951 Y207.750
G01 X230.458 Y206.669
G01 X232.020 Y205.661
G01 X232.334 Y205.471
G01 X233.872 Y204.369
G01 X235.476 Y203.338
G01 X235.717 Y203.193
G01 X237.323 Y202.045
G01 X239.007 Y200.970
G01 X239.100 Y200.914
G01 X240.811 Y199.696
G01 X242.482 Y198.635
G01 X244.337 Y197.323
G01 X245.865 Y196.357
G01 X247.902 Y194.926
G01 X249.248 Y194.078
G01 X251.505 Y192.506
G01 X252.631 Y191.800
G01 X255.146 Y190.064
G01 X256.014 Y189.521
G01 X258.826 Y187.598
G01 X259.397 Y187.242
G01 X262.544 Y185.110
G01 X262.780 Y184.963
G01 X266.163 Y182.685
G01 X269.546 Y180.406
G01 X272.929 Y178.128
G01 X276.312 Y175.849
G01 X279.695 Y173.570
G01 X283.078 Y171.292
G01 X283.359 Y175.361
G01 X283.641 Y179.430
G01 X283.923 Y183.499
G01 X284.205 Y187.568
G01 X284.487 Y191.637
G01 X284.769 Y195.706
G01 X285.042 Y199.503
G01 X285.051 Y199.775
G01 X285.311 Y203.187
G01 X285.333 Y203.844
G01 X285.580 Y206.914
G01 X285.614 Y207.913
G01 X285.849 Y210.683
G01 X285.897 Y211.982
G01 X286.119 Y214.495
G01 X286.178 Y216.051
G01 X286.390 Y218.348
G01 X286.460 Y220.120
G01 X286.662 Y222.243
G01 X286.742 Y224.189
G01 X286.935 Y226.179
G01 X287.022 Y228.153
G01 X287.024 Y228.258
G01 X287.211 Y230.158
G01 X287.301 Y232.050
G01 X287.306 Y232.327
G01 X287.489 Y234.178
G01 X287.581 Y236.031
G01 X287.588 Y236.396
G01 X287.771 Y238.241
G01 X287.862 Y240.098
G01 X287.870 Y240.465
G01 X288.055 Y242.348
G01 X288.146 Y244.253
G01 X288.152 Y244.534
G01 X288.343 Y246.499
G01 X288.432 Y248.495
G01 X288.434 Y248.603
G01 X288.633 Y250.694
G01 X288.716 Y252.672
G01 X288.925 Y254.935
G01 X288.998 Y256.741
G01 X289.218 Y259.220
G01 X289.279 Y260.810
G01 X289.512 Y263.550
G01 X289.561 Y264.879
G01 X289.807 Y267.925
G01 X289.843 Y268.948
G01 X290.102 Y272.344
G01 X290.125 Y273.017
G01 X290.398 Y276.808
G01 X290.407 Y277.086
G01 X290.689 Y281.155
G01 X290.971 Y285.224
G01 X291.253 Y289.293
G01 X291.535 Y293.362
G01 X291.816 Y297.431
G01 X292.099 Y301.500
G01 X288.527 Y299.547
G01 X284.957 Y297.594
G01 X281.386 Y295.641
G01 X277.815 Y293.688
G01 X274.244 Y291.734
G01 X270.673 Y289.781
G01 X267.146 Y287.854
G01 X267.102 Y287.828
G01 X263.951 Y286.125
G01 X263.532 Y285.875
G01 X260.717 Y284.372
G01 X259.961 Y283.922
G01 X257.444 Y282.593
G01 X256.390 Y281.969
G01 X254.131 Y280.790
G01 X252.819 Y280.015
G01 X250.781 Y278.964
G01 X249.248 Y278.063
G01 X247.392 Y277.113
G01 X245.677 Y276.109
G01 X243.964 Y275.239
G01 X242.325 Y274.292
G01 X242.106 Y274.156
G01 X240.497 Y273.343
G01 X238.948 Y272.457
G01 X238.536 Y272.203
G01 X236.991 Y271.425
G01 X235.495 Y270.575
G01 X234.965 Y270.250
G01 X233.444 Y269.484
G01 X231.962 Y268.645
G01 X231.394 Y268.297
G01 X229.856 Y267.522
G01 X228.350 Y266.667
G01 X227.823 Y266.344
G01 X226.226 Y265.537
G01 X224.656 Y264.639
G01 X224.252 Y264.391
G01 X222.554 Y263.529
G01 X220.879 Y262.560
G01 X220.681 Y262.437
G01 X218.839 Y261.496
G01 X217.111 Y260.484
G01 X215.083 Y259.438
G01 X213.540 Y258.531
G01 X211.285 Y257.354
G01 X209.969 Y256.578
G01 X207.445 Y255.245
G01 X206.398 Y254.625
G01 X203.565 Y253.111
G01 X202.827 Y252.672
G01 X199.645 Y250.950
G01 X199.256 Y250.719
G01 X195.685 Y248.766
G01 X192.115 Y246.813
G01 X188.544 Y244.859
G01 X184.973 Y242.906
G01 X181.402 Y240.953
G01 X177.831 Y239.000
G01 X181.214 Y237.047
G01 X184.597 Y235.094
G01 X187.980 Y233.140
G01 X191.363 Y231.188
G01 X194.746 Y229.234
G01 X198.129 Y227.281
G01 X201.282 Y225.450
G01 X201.512 Y225.328
G01 X204.339 Y223.670
G01 X204.894 Y223.375
G01 X207.432 Y221.872
G01 X208.277 Y221.422
G01 X210.563 Y220.055
G01 X211.660 Y219.469
G01 X213.729 Y218.221
G01 X215.043 Y217.516
G01 X216.931 Y216.368
G01 X218.426 Y215.562
G01 X220.169 Y214.497
G01 X221.809 Y213.609
G01 X223.441 Y212.607
G01 X225.102 Y211.702
G01 X225.192 Y211.656
G01 X226.748 Y210.697
G01 X228.339 Y209.824
G01 X228.575 Y209.703
G01 X230.091 Y208.767
G01 X231.647 Y207.909
G01 X231.958 Y207.750
G01 X233.469 Y206.817
G01 X235.028 Y205.957
G01 X235.341 Y205.797
G01 X236.883 Y204.846
G01 X238.484 Y203.967
G01 X238.724 Y203.844
G01 X240.334 Y202.853
G01 X242.015 Y201.937
G01 X242.107 Y201.891
G01 X243.822 Y200.840
G01 X245.489 Y199.938
G01 X247.348 Y198.806
G01 X248.872 Y197.984
G01 X250.913 Y196.752
G01 X252.255 Y196.031
G01 X254.515 Y194.679
G01 X255.638 Y194.078
G01 X258.156 Y192.586
G01 X259.021 Y192.125
G01 X261.835 Y190.474
G01 X262.404 Y190.172
G01 X265.551 Y188.344
G01 X265.787 Y188.219
G01 X269.170 Y186.266
G01 X272.553 Y184.313
G01 X275.936 Y182.359
G01 X279.319 Y180.406
G01 X282.701 Y178.453
G01 X286.084 Y176.500
G01 X286.084 Y180.406
G01 X286.084 Y184.313
G01 X286.084 Y188.219
G01 X286.084 Y192.125
G01 X286.084 Y196.031
G01 X286.084 Y199.938
G01 X286.094 Y203.584
G01 X286.084 Y203.844
G01 X286.107 Y207.121
G01 X286.085 Y207.750
G01 X286.118 Y210.700
G01 X286.084 Y211.656
G01 X286.125 Y214.319
G01 X286.085 Y215.563
G01 X286.131 Y217.978
G01 X286.084 Y219.469
G01 X286.134 Y221.678
G01 X286.084 Y223.375
G01 X286.136 Y225.417
G01 X286.084 Y227.281
G01 X286.137 Y229.196
G01 X286.090 Y231.087
G01 X286.084 Y231.187
G01 X286.137 Y233.015
G01 X286.098 Y234.829
G01 X286.084 Y235.094
G01 X286.137 Y236.875
G01 X286.102 Y238.651
G01 X286.084 Y239.000
G01 X286.137 Y240.775
G01 X286.102 Y242.556
G01 X286.084 Y242.906
G01 X286.137 Y244.718
G01 X286.098 Y246.543
G01 X286.084 Y246.813
G01 X286.137 Y248.702
G01 X286.090 Y250.616
G01 X286.084 Y250.719
G01 X286.136 Y252.730
G01 X286.084 Y254.625
G01 X286.135 Y256.801
G01 X286.084 Y258.531
G01 X286.131 Y260.915
G01 X286.085 Y262.437
G01 X286.126 Y265.071
G01 X286.084 Y266.344
G01 X286.118 Y269.270
G01 X286.085 Y270.250
G01 X286.107 Y273.512
G01 X286.084 Y274.156
G01 X286.094 Y277.796
G01 X286.084 Y278.062
G01 X286.084 Y281.969
G01 X286.084 Y285.875
G01 X286.084 Y289.781
G01 X286.084 Y293.687
G01 X286.084 Y297.594
G01 X286.085 Y301.500
G01 X282.795 Y299.384
G01 X279.506 Y297.268
G01 X276.217 Y295.152
G01 X272.929 Y293.036
G01 X269.640 Y290.921
G01 X266.351 Y288.805
G01 X263.112 Y286.724
G01 X263.062 Y286.689
G01 X260.169 Y284.849
G01 X259.773 Y284.573
G01 X257.190 Y282.948
G01 X256.484 Y282.457
G01 X254.175 Y281.021
G01 X253.195 Y280.341
G01 X251.124 Y279.066
G01 X249.906 Y278.225
G01 X248.038 Y277.087
G01 X246.617 Y276.109
G01 X244.915 Y275.081
G01 X243.328 Y273.993
G01 X241.758 Y273.051
G01 X240.264 Y272.040
G01 X240.039 Y271.877
G01 X238.564 Y270.996
G01 X237.151 Y270.050
G01 X236.750 Y269.762
G01 X235.334 Y268.917
G01 X233.968 Y268.009
G01 X233.461 Y267.646
G01 X232.066 Y266.815
G01 X230.712 Y265.916
G01 X230.172 Y265.530
G01 X228.760 Y264.688
G01 X227.382 Y263.771
G01 X226.883 Y263.414
G01 X225.414 Y262.537
G01 X223.977 Y261.573
G01 X223.594 Y261.298
G01 X222.030 Y260.359
G01 X220.495 Y259.319
G01 X220.306 Y259.182
G01 X218.606 Y258.155
G01 X217.016 Y257.066
G01 X215.144 Y255.924
G01 X213.728 Y254.950
G01 X211.643 Y253.666
G01 X210.439 Y252.835
G01 X208.104 Y251.380
G01 X207.150 Y250.719
G01 X204.528 Y249.067
G01 X203.861 Y248.603
G01 X200.914 Y246.726
G01 X200.572 Y246.487
G01 X197.283 Y244.371
G01 X193.994 Y242.255
G01 X190.705 Y240.139
G01 X187.416 Y238.023
G01 X184.127 Y235.907
G01 X180.838 Y233.792
G01 X184.221 Y232.164
G01 X187.604 Y230.536
G01 X190.987 Y228.909
G01 X194.370 Y227.281
G01 X197.753 Y225.653
G01 X201.136 Y224.026
G01 X204.290 Y222.498
G01 X204.519 Y222.398
G01 X207.348 Y221.013
G01 X207.902 Y220.771
G01 X210.442 Y219.513
G01 X211.285 Y219.143
G01 X213.573 Y217.998
G01 X214.667 Y217.516
G01 X216.740 Y216.469
G01 X218.050 Y215.888
G01 X219.942 Y214.924
G01 X221.433 Y214.260
G01 X223.180 Y213.365
G01 X224.816 Y212.633
G01 X226.452 Y211.789
G01 X228.110 Y211.042
G01 X228.199 Y211.005
G01 X229.760 Y210.198
G01 X231.347 Y209.476
G01 X231.582 Y209.378
G01 X233.102 Y208.590
G01 X234.656 Y207.880
G01 X234.965 Y207.750
G01 X236.480 Y206.965
G01 X238.037 Y206.253
G01 X238.348 Y206.122
G01 X239.895 Y205.322
G01 X241.492 Y204.595
G01 X241.731 Y204.495
G01 X243.346 Y203.662
G01 X245.022 Y202.905
G01 X245.114 Y202.867
G01 X246.834 Y201.984
G01 X248.496 Y201.240
G01 X250.360 Y200.290
G01 X251.879 Y199.612
G01 X253.924 Y198.579
G01 X255.262 Y197.984
G01 X257.526 Y196.852
G01 X258.645 Y196.357
G01 X261.166 Y195.108
G01 X262.028 Y194.729
G01 X264.843 Y193.350
G01 X265.411 Y193.102
G01 X268.559 Y191.577
G01 X268.794 Y191.474
G01 X272.177 Y189.847
G01 X275.560 Y188.219
G01 X278.943 Y186.591
G01 X282.325 Y184.964
G01 X285.709 Y183.336
G01 X289.091 Y181.708
G01 X288.809 Y185.452
G01 X288.528 Y189.196
G01 X288.246 Y192.939
G01 X287.964 Y196.682
G01 X287.682 Y200.426
G01 X287.400 Y204.169
G01 X287.146 Y207.664
G01 X287.118 Y207.913
G01 X286.903 Y211.056
G01 X286.836 Y211.656
G01 X286.655 Y214.485
G01 X286.554 Y215.400
G01 X286.401 Y217.954
G01 X286.272 Y219.143
G01 X286.143 Y221.461
G01 X285.990 Y222.887
G01 X285.879 Y225.007
G01 X285.708 Y226.630
G01 X285.611 Y228.591
G01 X285.427 Y230.374
G01 X285.339 Y232.212
G01 X285.157 Y234.021
G01 X285.145 Y234.117
G01 X285.063 Y235.872
G01 X284.895 Y237.608
G01 X284.863 Y237.861
G01 X284.785 Y239.571
G01 X284.622 Y241.271
G01 X284.581 Y241.604
G01 X284.503 Y243.309
G01 X284.341 Y245.013
G01 X284.299 Y245.348
G01 X284.219 Y247.087
G01 X284.049 Y248.834
G01 X284.017 Y249.091
G01 X283.931 Y250.906
G01 X283.748 Y252.736
G01 X283.735 Y252.835
G01 X283.640 Y254.766
G01 X283.453 Y256.578
G01 X283.344 Y258.667
G01 X283.171 Y260.322
G01 X283.044 Y262.609
G01 X282.889 Y264.065
G01 X282.739 Y266.592
G01 X282.608 Y267.809
G01 X282.428 Y270.615
G01 X282.326 Y271.552
G01 X282.112 Y274.680
G01 X282.044 Y275.296
G01 X281.790 Y278.784
G01 X281.762 Y279.039
G01 X281.480 Y282.783
G01 X281.198 Y286.526
G01 X280.916 Y290.269
G01 X280.634 Y294.013
G01 X280.352 Y297.756
G01 X280.070 Y301.500
G01 X277.063 Y299.221
G01 X274.056 Y296.943
G01 X271.049 Y294.664
G01 X268.042 Y292.385
G01 X265.035 Y290.107
G01 X262.028 Y287.828
G01 X259.079 Y285.597
G01 X259.021 Y285.549
G01 X256.388 Y283.577
G01 X256.014 Y283.271
G01 X253.664 Y281.528
G01 X253.007 Y280.992
G01 X250.906 Y279.451
G01 X250.000 Y278.713
G01 X248.116 Y277.346
G01 X246.993 Y276.435
G01 X245.294 Y275.213
G01 X243.986 Y274.156
G01 X242.438 Y273.052
G01 X240.984 Y271.882
G01 X240.979 Y271.878
G01 X239.551 Y270.865
G01 X238.200 Y269.792
G01 X237.972 Y269.599
G01 X236.630 Y268.651
G01 X235.351 Y267.646
G01 X234.965 Y267.320
G01 X233.675 Y266.411
G01 X232.438 Y265.444
G01 X231.958 Y265.042
G01 X230.686 Y264.146
G01 X229.458 Y263.188
G01 X228.951 Y262.763
G01 X227.661 Y261.854
G01 X226.410 Y260.876
G01 X225.944 Y260.484
G01 X224.600 Y259.535
G01 X223.293 Y258.506
G01 X222.937 Y258.206
G01 X221.503 Y257.189
G01 X220.106 Y256.077
G01 X219.930 Y255.927
G01 X218.371 Y254.814
G01 X216.923 Y253.648
G01 X215.202 Y252.409
G01 X213.916 Y251.370
G01 X211.999 Y249.975
G01 X210.908 Y249.091
G01 X208.761 Y247.512
G01 X207.902 Y246.813
G01 X205.489 Y245.019
G01 X204.894 Y244.534
G01 X202.182 Y242.496
G01 X201.887 Y242.255
G01 X198.880 Y239.977
G01 X195.873 Y237.698
G01 X192.866 Y235.419
G01 X189.859 Y233.141
G01 X186.852 Y230.862
G01 X183.845 Y228.583
G01 X189.407 Y226.385
G01 X190.611 Y225.979
G01 X195.165 Y224.123
G01 X197.377 Y223.375
G01 X201.069 Y221.817
G01 X204.143 Y220.771
G01 X207.120 Y219.466
G01 X210.110 Y218.408
G01 X210.908 Y218.167
G01 X213.315 Y217.073
G01 X215.731 Y216.163
G01 X217.674 Y215.562
G01 X219.650 Y214.636
G01 X221.636 Y213.845
G01 X223.625 Y213.189
G01 X224.440 Y212.958
G01 X226.121 Y212.154
G01 X227.818 Y211.451
G01 X229.526 Y210.848
G01 X231.206 Y210.354
G01 X232.725 Y209.620
G01 X234.270 Y208.966
G01 X235.838 Y208.393
G01 X237.424 Y207.900
G01 X237.972 Y207.750
G01 X239.464 Y207.028
G01 X240.998 Y206.377
G01 X242.570 Y205.800
G01 X244.178 Y205.300
G01 X244.738 Y205.146
G01 X246.346 Y204.372
G01 X248.019 Y203.675
G01 X249.750 Y203.061
G01 X251.503 Y202.542
G01 X253.381 Y201.655
G01 X255.350 Y200.867
G01 X257.404 Y200.185
G01 X258.270 Y199.937
G01 X260.573 Y198.884
G01 X262.999 Y197.967
G01 X265.035 Y197.333
G01 X267.920 Y196.065
G01 X270.963 Y194.984
G01 X271.801 Y194.729
G01 X275.419 Y193.199
G01 X278.567 Y192.125
G01 X283.069 Y190.288
G01 X285.332 Y189.521
G01 X290.868 Y187.332
G01 X292.098 Y186.917
G01 X291.222 Y192.832
G01 X290.971 Y194.078
G01 X290.301 Y198.950
G01 X289.843 Y201.240
G01 X289.346 Y205.217
G01 X288.716 Y208.401
G01 X288.356 Y211.632
G01 X287.778 Y214.750
G01 X287.588 Y215.562
G01 X287.332 Y218.193
G01 X286.912 Y220.740
G01 X286.460 Y222.724
G01 X286.275 Y224.898
G01 X285.967 Y227.014
G01 X285.540 Y229.064
G01 X285.333 Y229.885
G01 X285.189 Y231.743
G01 X284.950 Y233.565
G01 X284.617 Y235.345
G01 X284.205 Y237.047
G01 X284.081 Y238.729
G01 X283.875 Y240.394
G01 X283.588 Y242.039
G01 X283.221 Y243.658
G01 X283.077 Y244.208
G01 X282.957 Y245.862
G01 X282.753 Y247.515
G01 X282.467 Y249.166
G01 X282.096 Y250.808
G01 X281.950 Y251.370
G01 X281.816 Y253.150
G01 X281.583 Y254.946
G01 X281.249 Y256.753
G01 X280.822 Y258.531
G01 X280.651 Y260.601
G01 X280.349 Y262.700
G01 X279.913 Y264.819
G01 X279.694 Y265.693
G01 X279.455 Y268.214
G01 X279.036 Y270.774
G01 X278.567 Y272.854
G01 X278.223 Y275.986
G01 X277.637 Y279.162
G01 X277.439 Y280.015
G01 X276.955 Y283.914
G01 X276.311 Y287.177
G01 X275.651 Y291.994
G01 X275.184 Y294.339
G01 X274.312 Y300.226
G01 X274.056 Y301.500
G01 X269.169 Y297.168
G01 X268.606 Y296.617
G01 X264.590 Y293.134
G01 X263.156 Y291.734
G01 X259.891 Y288.977
G01 X257.706 Y286.852
G01 X255.073 Y284.697
G01 X252.672 Y282.405
G01 X252.255 Y281.969
G01 X250.138 Y280.294
G01 X248.191 Y278.519
G01 X246.805 Y277.086
G01 X245.089 Y275.771
G01 X243.493 Y274.382
G01 X242.022 Y272.928
G01 X241.355 Y272.203
G01 X239.926 Y271.134
G01 X238.580 Y270.006
G01 X237.321 Y268.824
G01 X236.149 Y267.595
G01 X235.905 Y267.320
G01 X234.647 Y266.390
G01 X233.446 Y265.404
G01 X232.305 Y264.368
G01 X231.225 Y263.283
G01 X230.454 Y262.438
G01 X229.242 Y261.543
G01 X228.071 Y260.587
G01 X226.943 Y259.569
G01 X225.863 Y258.492
G01 X225.004 Y257.555
G01 X223.701 Y256.589
G01 X222.433 Y255.539
G01 X221.206 Y254.407
G01 X220.024 Y253.193
G01 X219.554 Y252.672
G01 X218.020 Y251.513
G01 X216.528 Y250.237
G01 X215.087 Y248.843
G01 X214.104 Y247.789
G01 X212.205 Y246.309
G01 X210.369 Y244.664
G01 X208.653 Y242.906
G01 X206.263 Y240.974
G01 X203.967 Y238.817
G01 X203.203 Y238.023
G01 X200.197 Y235.510
G01 X197.753 Y233.141
G01 X194.011 Y229.921
G01 X192.302 Y228.258
G01 X187.704 Y224.206
G01 X186.852 Y223.375
G01 X192.419 Y221.713
G01 X193.618 Y221.422
G01 X198.180 Y220.007
G01 X200.384 Y219.469
G01 X204.088 Y218.270
G01 X207.150 Y217.516
G01 X210.140 Y216.503
G01 X213.122 Y215.729
G01 X213.916 Y215.562
G01 X216.336 Y214.705
G01 X218.750 Y214.027
G01 X220.681 Y213.610
G01 X222.671 Y212.878
G01 X224.659 Y212.279
G01 X226.639 Y211.811
G01 X227.447 Y211.656
G01 X229.141 Y211.018
G01 X230.842 Y210.480
G01 X232.546 Y210.040
G01 X234.213 Y209.703
G01 X235.744 Y209.120
G01 X237.294 Y208.617
G01 X238.860 Y208.193
G01 X240.436 Y207.850
G01 X240.979 Y207.750
G01 X242.483 Y207.176
G01 X244.022 Y206.675
G01 X245.592 Y206.249
G01 X247.190 Y205.899
G01 X247.745 Y205.797
G01 X249.366 Y205.182
G01 X251.043 Y204.649
G01 X252.770 Y204.199
G01 X254.511 Y203.844
G01 X256.402 Y203.143
G01 X258.373 Y202.546
G01 X260.418 Y202.058
G01 X261.276 Y201.891
G01 X263.594 Y201.065
G01 X266.019 Y200.380
G01 X268.042 Y199.937
G01 X270.940 Y198.952
G01 X273.976 Y198.161
G01 X274.808 Y197.984
G01 X278.438 Y196.807
G01 X281.574 Y196.031
G01 X286.085 Y194.631
G01 X288.340 Y194.078
G01 X293.880 Y192.424
G01 X295.105 Y192.125
G01 X293.761 Y197.776
G01 X293.414 Y198.961
G01 X292.358 Y203.619
G01 X291.722 Y205.797
G01 X290.908 Y209.604
G01 X290.031 Y212.633
G01 X289.413 Y215.729
G01 X288.592 Y218.699
G01 X288.340 Y219.469
G01 X287.872 Y221.993
G01 X287.252 Y224.423
G01 X286.648 Y226.305
G01 X286.287 Y228.393
G01 X285.811 Y230.415
G01 X285.227 Y232.364
G01 X284.957 Y233.141
G01 X284.662 Y234.926
G01 X284.278 Y236.669
G01 X283.807 Y238.364
G01 X283.265 Y239.977
G01 X283.004 Y241.594
G01 X282.665 Y243.188
G01 X282.249 Y244.756
G01 X281.759 Y246.292
G01 X281.574 Y246.812
G01 X281.319 Y248.402
G01 X280.983 Y249.986
G01 X280.567 Y251.558
G01 X280.071 Y253.117
G01 X279.882 Y253.648
G01 X279.603 Y255.360
G01 X279.228 Y257.079
G01 X278.753 Y258.800
G01 X278.191 Y260.484
G01 X277.852 Y262.473
G01 X277.384 Y264.478
G01 X276.784 Y266.493
G01 X276.499 Y267.320
G01 X276.056 Y269.740
G01 X275.437 Y272.183
G01 X274.808 Y274.156
G01 X274.213 Y277.159
G01 X273.380 Y280.183
G01 X273.116 Y280.992
G01 X272.321 Y284.724
G01 X271.425 Y287.828
G01 X270.382 Y292.435
G01 X269.733 Y294.664
G01 X268.396 Y300.289
G01 X268.042 Y301.500
G01 X263.675 Y296.896
G01 X263.156 Y296.292
G01 X259.564 Y292.587
G01 X258.269 Y291.083
G01 X255.347 Y288.148
G01 X253.383 Y285.875
G01 X251.023 Y283.577
G01 X248.898 Y281.167
G01 X248.497 Y280.667
G01 X246.596 Y278.877
G01 X244.867 Y277.006
G01 X243.610 Y275.458
G01 X242.067 Y274.050
G01 X240.645 Y272.581
G01 X239.349 Y271.059
G01 X238.724 Y270.250
G01 X237.436 Y269.102
G01 X236.234 Y267.904
G01 X235.118 Y266.662
G01 X234.091 Y265.382
G01 X233.837 Y265.042
G01 X232.701 Y264.040
G01 X231.625 Y262.989
G01 X230.610 Y261.894
G01 X229.657 Y260.757
G01 X228.951 Y259.833
G01 X227.852 Y258.867
G01 X226.798 Y257.842
G01 X225.791 Y256.762
G01 X224.835 Y255.628
G01 X224.064 Y254.625
G01 X222.878 Y253.576
G01 X221.733 Y252.448
G01 X220.635 Y251.241
G01 X219.588 Y249.959
G01 X219.178 Y249.417
G01 X217.778 Y248.155
G01 X216.429 Y246.780
G01 X215.141 Y245.295
G01 X214.292 Y244.208
G01 X212.558 Y242.596
G01 X210.900 Y240.826
G01 X209.405 Y239.000
G01 X207.225 Y236.899
G01 X205.159 Y234.583
G01 X204.519 Y233.791
G01 X201.783 Y231.065
G01 X199.632 Y228.583
G01 X196.233 Y225.098
G01 X194.746 Y223.375
G01 X190.575 Y218.998
G01 X189.859 Y218.167
G01 X195.431 Y217.042
G01 X196.625 Y216.865
G01 X201.196 Y215.892
G01 X203.391 Y215.562
G01 X207.107 Y214.724
G01 X210.157 Y214.260
G01 X213.161 Y213.539
G01 X216.135 Y213.050
G01 X216.923 Y212.958
G01 X219.357 Y212.338
G01 X221.770 Y211.892
G01 X223.689 Y211.656
G01 X225.692 Y211.120
G01 X227.683 Y210.714
G01 X229.653 Y210.433
G01 X230.454 Y210.354
G01 X232.161 Y209.883
G01 X233.867 Y209.510
G01 X235.565 Y209.232
G01 X237.220 Y209.052
G01 X238.764 Y208.620
G01 X240.319 Y208.267
G01 X241.882 Y207.994
G01 X243.448 Y207.799
G01 X243.986 Y207.750
G01 X245.503 Y207.324
G01 X247.047 Y206.973
G01 X248.614 Y206.697
G01 X250.202 Y206.498
G01 X250.752 Y206.448
G01 X252.387 Y205.993
G01 X254.068 Y205.622
G01 X255.791 Y205.338
G01 X257.518 Y205.146
G01 X259.423 Y204.631
G01 X261.397 Y204.224
G01 X263.432 Y203.930
G01 X264.283 Y203.844
G01 X266.615 Y203.245
G01 X269.038 Y202.793
G01 X271.049 Y202.542
G01 X273.960 Y201.839
G01 X276.988 Y201.338
G01 X277.815 Y201.240
G01 X281.456 Y200.415
G01 X284.581 Y199.937
G01 X289.100 Y198.974
G01 X291.347 Y198.635
G01 X296.891 Y197.515
G01 X298.113 Y197.333
G01 X296.301 Y202.720
G01 X295.857 Y203.844
G01 X294.414 Y208.289
G01 X293.602 Y210.354
G01 X292.470 Y213.991
G01 X291.347 Y216.865
G01 X290.469 Y219.827
G01 X289.406 Y222.647
G01 X289.091 Y223.375
G01 X288.411 Y225.793
G01 X287.592 Y228.106
G01 X286.836 Y229.885
G01 X286.298 Y231.888
G01 X285.655 Y233.816
G01 X284.913 Y235.663
G01 X284.581 Y236.396
G01 X284.135 Y238.110
G01 X283.606 Y239.774
G01 X282.997 Y241.383
G01 X282.326 Y242.906
G01 X281.928 Y244.459
G01 X281.456 Y245.982
G01 X280.911 Y247.472
G01 X280.297 Y248.926
G01 X280.070 Y249.417
G01 X279.680 Y250.943
G01 X279.213 Y252.456
G01 X278.668 Y253.952
G01 X278.046 Y255.426
G01 X277.815 Y255.927
G01 X277.391 Y257.570
G01 X276.872 Y259.211
G01 X276.257 Y260.846
G01 X275.560 Y262.438
G01 X275.053 Y264.345
G01 X274.418 Y266.258
G01 X273.655 Y268.167
G01 X273.304 Y268.948
G01 X272.657 Y271.267
G01 X271.837 Y273.591
G01 X271.049 Y275.458
G01 X270.202 Y278.331
G01 X269.122 Y281.204
G01 X268.794 Y281.969
G01 X267.687 Y285.534
G01 X266.539 Y288.479
G01 X265.113 Y292.875
G01 X264.283 Y294.990
G01 X262.481 Y300.351
G01 X262.028 Y301.500
G01 X258.183 Y296.636
G01 X257.705 Y295.966
G01 X254.539 Y292.050
G01 X253.383 Y290.432
G01 X250.802 Y287.326
G01 X249.060 Y284.898
G01 X246.972 Y282.464
G01 X245.120 Y279.940
G01 X244.738 Y279.365
G01 X243.051 Y277.465
G01 X241.538 Y275.501
G01 X240.415 Y273.831
G01 X239.042 Y272.332
G01 X237.792 Y270.785
G01 X236.666 Y269.197
G01 X236.092 Y268.297
G01 X234.944 Y267.071
G01 X233.882 Y265.804
G01 X232.907 Y264.502
G01 X232.020 Y263.171
G01 X231.770 Y262.763
G01 X230.754 Y261.689
G01 X229.798 Y260.574
G01 X228.906 Y259.419
G01 X228.078 Y258.229
G01 X227.447 Y257.229
G01 X226.460 Y256.188
G01 X225.520 Y255.095
G01 X224.631 Y253.950
G01 X223.796 Y252.756
G01 X223.125 Y251.695
G01 X222.053 Y250.560
G01 X221.030 Y249.350
G01 X220.059 Y248.067
G01 X219.145 Y246.713
G01 X218.802 Y246.162
G01 X217.535 Y244.792
G01 X216.329 Y243.315
G01 X215.193 Y241.734
G01 X214.480 Y240.628
G01 X212.911 Y238.878
G01 X211.433 Y236.978
G01 X210.157 Y235.094
G01 X208.189 Y232.817
G01 X206.355 Y230.339
G01 X205.834 Y229.560
G01 X203.372 Y226.613
G01 X201.512 Y224.026
G01 X198.461 Y220.268
G01 X197.189 Y218.492
G01 X193.456 Y213.783
G01 X192.866 Y212.958
G01 X198.442 Y212.371
G01 X199.632 Y212.307
G01 X204.212 Y211.776
G01 X206.398 Y211.656
G01 X210.125 Y211.177
G01 X213.164 Y211.005
G01 X216.181 Y210.576
G01 X219.148 Y210.371
G01 X219.930 Y210.354
G01 X222.378 Y209.971
G01 X224.789 Y209.756
G01 X226.695 Y209.703
G01 X228.713 Y209.363
G01 X230.706 Y209.148
G01 X232.667 Y209.055
G01 X233.461 Y209.052
G01 X235.181 Y208.748
G01 X236.891 Y208.539
G01 X238.585 Y208.425
G01 X240.227 Y208.401
G01 X241.783 Y208.120
G01 X243.344 Y207.918
G01 X244.904 Y207.794
G01 X246.460 Y207.748
G01 X246.993 Y207.750
G01 X248.522 Y207.473
G01 X250.071 Y207.271
G01 X251.637 Y207.145
G01 X253.214 Y207.097
G01 X253.759 Y207.099
G01 X255.407 Y206.804
G01 X257.092 Y206.596
G01 X258.811 Y206.476
G01 X260.525 Y206.448
G01 X262.444 Y206.119
G01 X264.420 Y205.903
G01 X266.446 Y205.803
G01 X267.291 Y205.797
G01 X269.636 Y205.425
G01 X272.058 Y205.206
G01 X274.056 Y205.146
G01 X276.980 Y204.726
G01 X280.001 Y204.515
G01 X280.822 Y204.495
G01 X284.475 Y204.023
G01 X287.588 Y203.844
G01 X292.116 Y203.317
G01 X294.354 Y203.193
G01 X299.903 Y202.607
G01 X301.120 Y202.542
G01 X298.840 Y207.665
G01 X298.300 Y208.727
G01 X296.471 Y212.958
G01 X295.481 Y214.912
G01 X294.032 Y218.379
G01 X292.662 Y221.096
G01 X291.526 Y223.924
G01 X290.219 Y226.595
G01 X289.843 Y227.281
G01 X288.951 Y229.593
G01 X287.931 Y231.789
G01 X287.024 Y233.466
G01 X286.310 Y235.383
G01 X285.500 Y237.217
G01 X284.599 Y238.962
G01 X284.205 Y239.651
G01 X283.608 Y241.293
G01 X282.934 Y242.878
G01 X282.186 Y244.402
G01 X281.386 Y245.836
G01 X280.851 Y247.324
G01 X280.246 Y248.776
G01 X279.573 Y250.189
G01 X278.835 Y251.560
G01 X278.567 Y252.021
G01 X278.042 Y253.484
G01 X277.443 Y254.926
G01 X276.769 Y256.345
G01 X276.021 Y257.735
G01 X275.748 Y258.206
G01 X275.179 Y259.780
G01 X274.517 Y261.344
G01 X273.761 Y262.892
G01 X272.929 Y264.391
G01 X272.254 Y266.217
G01 X271.453 Y268.037
G01 X270.526 Y269.841
G01 X270.110 Y270.576
G01 X269.259 Y272.793
G01 X268.237 Y275.000
G01 X267.290 Y276.760
G01 X266.192 Y279.503
G01 X264.865 Y282.224
G01 X264.471 Y282.945
G01 X263.054 Y286.345
G01 X261.652 Y289.130
G01 X259.844 Y293.315
G01 X258.833 Y295.315
G01 X256.565 Y300.414
G01 X256.014 Y301.500
G01 X252.690 Y296.389
G01 X252.255 Y295.641
G01 X249.512 Y291.522
G01 X248.497 Y289.781
G01 X246.254 Y286.511
G01 X244.738 Y283.922
G01 X242.917 Y281.355
G01 X241.334 Y278.724
G01 X240.979 Y278.063
G01 X239.503 Y276.055
G01 X238.201 Y274.001
G01 X237.220 Y272.203
G01 X236.014 Y270.615
G01 X234.931 Y268.991
G01 X233.973 Y267.339
G01 X233.461 Y266.344
G01 X232.449 Y265.041
G01 X231.523 Y263.705
G01 X230.686 Y262.343
G01 X229.937 Y260.959
G01 X229.702 Y260.484
G01 X228.802 Y259.338
G01 X227.966 Y258.156
G01 X227.194 Y256.940
G01 X226.488 Y255.695
G01 X225.944 Y254.625
G01 X225.065 Y253.508
G01 X224.238 Y252.342
G01 X223.465 Y251.130
G01 X222.750 Y249.874
G01 X222.185 Y248.766
G01 X221.227 Y247.541
G01 X220.324 Y246.246
G01 X219.479 Y244.882
G01 X218.699 Y243.452
G01 X218.426 Y242.906
G01 X217.292 Y241.425
G01 X216.229 Y239.842
G01 X215.246 Y238.160
G01 X214.667 Y237.047
G01 X213.267 Y235.154
G01 X211.970 Y233.120
G01 X210.909 Y231.187
G01 X209.157 Y228.730
G01 X207.558 Y226.083
G01 X207.150 Y225.328
G01 X204.968 Y222.156
G01 X203.391 Y219.469
G01 X200.697 Y215.433
G01 X199.632 Y213.609
G01 X196.347 Y208.564
G01 X195.873 Y207.750
G01 X201.454 Y207.700
G01 X202.639 Y207.750
G01 X207.227 Y207.660
G01 X209.405 Y207.750
G01 X213.143 Y207.631
G01 X216.171 Y207.750
G01 X219.201 Y207.612
G01 X222.160 Y207.693
G01 X222.937 Y207.750
G01 X225.399 Y207.604
G01 X227.808 Y207.621
G01 X229.702 Y207.750
G01 X231.734 Y207.605
G01 X233.729 Y207.582
G01 X235.681 Y207.678
G01 X236.468 Y207.750
G01 X238.202 Y207.613
G01 X239.916 Y207.569
G01 X241.605 Y207.617
G01 X243.234 Y207.750
G01 X244.803 Y207.620
G01 X246.368 Y207.569
G01 X247.926 Y207.594
G01 X249.472 Y207.697
G01 X250.000 Y207.750
G01 X251.542 Y207.621
G01 X253.096 Y207.569
G01 X254.659 Y207.594
G01 X256.227 Y207.697
G01 X256.766 Y207.750
G01 X258.426 Y207.615
G01 X260.116 Y207.569
G01 X261.831 Y207.614
G01 X263.532 Y207.750
G01 X265.465 Y207.607
G01 X267.443 Y207.581
G01 X269.461 Y207.676
G01 X270.297 Y207.750
G01 X272.657 Y207.605
G01 X275.077 Y207.619
G01 X277.063 Y207.750
G01 X280.001 Y207.612
G01 X283.014 Y207.691
G01 X283.829 Y207.750
G01 X287.493 Y207.631
G01 X290.595 Y207.750
G01 X295.132 Y207.660
G01 X297.361 Y207.750
G01 X302.915 Y207.699
G01 X304.127 Y207.750
G01 X301.380 Y212.609
G01 X300.744 Y213.609
G01 X298.527 Y217.628
G01 X297.361 Y219.469
G01 X295.595 Y222.766
G01 X293.978 Y225.328
G01 X292.582 Y228.022
G01 X291.033 Y230.544
G01 X290.595 Y231.188
G01 X289.490 Y233.393
G01 X288.271 Y235.471
G01 X287.212 Y237.047
G01 X286.322 Y238.878
G01 X285.344 Y240.618
G01 X284.285 Y242.261
G01 X283.829 Y242.906
G01 X283.081 Y244.476
G01 X282.262 Y245.982
G01 X281.376 Y247.421
G01 X280.446 Y248.766
G01 X279.774 Y250.189
G01 X279.036 Y251.570
G01 X278.235 Y252.906
G01 X277.373 Y254.194
G01 X277.063 Y254.625
G01 X276.404 Y256.024
G01 X275.672 Y257.397
G01 X274.869 Y258.738
G01 X273.996 Y260.044
G01 X273.680 Y260.484
G01 X272.967 Y261.990
G01 X272.162 Y263.477
G01 X271.265 Y264.939
G01 X270.298 Y266.344
G01 X269.455 Y268.089
G01 X268.488 Y269.816
G01 X267.398 Y271.515
G01 X266.915 Y272.203
G01 X265.860 Y274.319
G01 X264.638 Y276.408
G01 X263.532 Y278.062
G01 X262.182 Y280.675
G01 X260.607 Y283.245
G01 X260.149 Y283.922
G01 X258.420 Y287.155
G01 X256.766 Y289.781
G01 X254.576 Y293.755
G01 X253.383 Y295.641
G01 X250.650 Y300.476
G01 X250.000 Y301.500
G01 X247.192 Y296.153
G01 X246.805 Y295.315
G01 X244.479 Y291.003
G01 X243.610 Y289.130
G01 X241.701 Y285.703
G01 X240.415 Y282.945
G01 X238.857 Y280.250
G01 X237.539 Y277.514
G01 X237.220 Y276.760
G01 X235.950 Y274.648
G01 X234.855 Y272.506
G01 X234.025 Y270.575
G01 X232.981 Y268.899
G01 X232.063 Y267.198
G01 X231.268 Y265.481
G01 X230.830 Y264.391
G01 X229.950 Y263.009
G01 X229.158 Y261.604
G01 X228.455 Y260.179
G01 X227.841 Y258.741
G01 X227.635 Y258.206
G01 X226.849 Y256.985
G01 X226.128 Y255.733
G01 X225.474 Y254.455
G01 X224.888 Y253.152
G01 X224.440 Y252.021
G01 X223.668 Y250.825
G01 X222.952 Y249.584
G01 X222.295 Y248.301
G01 X221.699 Y246.979
G01 X221.245 Y245.836
G01 X220.401 Y244.518
G01 X219.618 Y243.134
G01 X218.900 Y241.685
G01 X218.253 Y240.177
G01 X218.050 Y239.651
G01 X217.050 Y238.054
G01 X216.133 Y236.360
G01 X215.304 Y234.574
G01 X214.855 Y233.466
G01 X213.625 Y231.427
G01 X212.514 Y229.254
G01 X211.660 Y227.281
G01 X210.131 Y224.640
G01 X208.774 Y221.822
G01 X208.465 Y221.096
G01 X206.571 Y217.695
G01 X205.271 Y214.911
G01 X202.944 Y210.595
G01 X202.076 Y208.726
G01 X199.251 Y203.342
G01 X198.880 Y202.542
G01 X204.466 Y203.028
G01 X205.646 Y203.193
G01 X210.243 Y203.544
G01 X212.412 Y203.844
G01 X216.162 Y204.084
G01 X219.178 Y204.495
G01 X222.222 Y204.648
G01 X225.173 Y205.014
G01 X225.944 Y205.146
G01 X228.420 Y205.237
G01 X230.828 Y205.486
G01 X232.709 Y205.797
G01 X234.754 Y205.848
G01 X236.752 Y206.017
G01 X238.695 Y206.300
G01 X239.475 Y206.448
G01 X241.222 Y206.477
G01 X242.940 Y206.599
G01 X244.625 Y206.809
G01 X246.241 Y207.099
G01 X247.822 Y207.120
G01 X249.392 Y207.219
G01 X250.948 Y207.395
G01 X252.484 Y207.646
G01 X253.007 Y207.750
G01 X254.561 Y207.770
G01 X256.120 Y207.867
G01 X257.681 Y208.042
G01 X259.239 Y208.296
G01 X259.773 Y208.401
G01 X261.447 Y208.426
G01 X263.141 Y208.542
G01 X264.851 Y208.753
G01 X266.539 Y209.052
G01 X268.485 Y209.096
G01 X270.466 Y209.260
G01 X272.474 Y209.548
G01 X273.305 Y209.703
G01 X275.678 Y209.785
G01 X278.097 Y210.032
G01 X280.070 Y210.354
G01 X283.021 Y210.499
G01 X286.026 Y210.868
G01 X286.836 Y211.005
G01 X290.512 Y211.238
G01 X293.602 Y211.656
G01 X298.147 Y212.003
G01 X300.368 Y212.307
G01 X305.927 Y212.791
G01 X307.134 Y212.959
G01 X303.919 Y217.553
G01 X303.187 Y218.492
G01 X300.584 Y222.297
G01 X299.240 Y224.026
G01 X297.157 Y227.153
G01 X295.293 Y229.560
G01 X293.639 Y232.119
G01 X291.846 Y234.492
G01 X291.347 Y235.094
G01 X290.030 Y237.193
G01 X288.611 Y239.154
G01 X287.400 Y240.628
G01 X286.334 Y242.374
G01 X285.188 Y244.019
G01 X283.971 Y245.560
G01 X283.453 Y246.161
G01 X282.554 Y247.659
G01 X281.590 Y249.087
G01 X280.566 Y250.440
G01 X279.507 Y251.695
G01 X278.698 Y253.054
G01 X277.827 Y254.364
G01 X276.897 Y255.623
G01 X275.911 Y256.828
G01 X275.560 Y257.229
G01 X274.766 Y258.565
G01 X273.902 Y259.867
G01 X272.970 Y261.131
G01 X271.971 Y262.353
G01 X271.613 Y262.763
G01 X270.755 Y264.200
G01 X269.807 Y265.609
G01 X268.769 Y266.985
G01 X267.666 Y268.297
G01 X266.656 Y269.961
G01 X265.523 Y271.594
G01 X264.269 Y273.189
G01 X263.719 Y273.831
G01 X262.462 Y275.845
G01 X261.038 Y277.817
G01 X259.773 Y279.364
G01 X258.172 Y281.847
G01 X256.350 Y284.266
G01 X255.826 Y284.898
G01 X253.787 Y287.965
G01 X251.880 Y290.432
G01 X249.307 Y294.196
G01 X247.933 Y295.966
G01 X244.734 Y300.539
G01 X243.986 Y301.500
G01 X241.686 Y295.925
G01 X241.355 Y294.989
G01 X239.440 Y290.491
G01 X238.724 Y288.479
G01 X237.141 Y284.898
G01 X236.093 Y281.969
G01 X234.791 Y279.148
G01 X233.732 Y276.309
G01 X233.461 Y275.458
G01 X232.392 Y273.241
G01 X231.500 Y271.010
G01 X230.830 Y268.948
G01 X229.946 Y267.182
G01 X229.186 Y265.404
G01 X228.552 Y263.620
G01 X228.199 Y262.437
G01 X227.448 Y260.976
G01 X226.787 Y259.499
G01 X226.216 Y258.010
G01 X225.733 Y256.516
G01 X225.568 Y255.927
G01 X224.893 Y254.629
G01 X224.287 Y253.306
G01 X223.750 Y251.961
G01 X223.282 Y250.598
G01 X222.937 Y249.417
G01 X222.271 Y248.138
G01 X221.666 Y246.819
G01 X221.123 Y245.462
G01 X220.647 Y244.071
G01 X220.306 Y242.906
G01 X219.575 Y241.491
G01 X218.913 Y240.014
G01 X218.325 Y238.478
G01 X217.813 Y236.887
G01 X217.674 Y236.396
G01 X216.811 Y234.679
G01 X216.041 Y232.871
G01 X215.371 Y230.978
G01 X215.043 Y229.886
G01 X213.988 Y227.697
G01 X213.067 Y225.383
G01 X212.412 Y223.375
G01 X211.111 Y220.547
G01 X210.002 Y217.556
G01 X209.781 Y216.864
G01 X208.182 Y213.233
G01 X207.150 Y210.354
G01 X205.201 Y205.759
G01 X204.519 Y203.843
G01 X202.168 Y198.124
G01 X201.887 Y197.334
G01 X207.477 Y198.357
G01 X208.653 Y198.635
G01 X213.259 Y199.429
G01 X215.419 Y199.938
G01 X219.181 Y200.538
G01 X222.185 Y201.240
G01 X225.242 Y201.685
G01 X228.186 Y202.335
G01 X228.951 Y202.542
G01 X231.441 Y202.869
G01 X233.847 Y203.350
G01 X235.716 Y203.844
G01 X237.775 Y204.090
G01 X239.775 Y204.451
G01 X241.709 Y204.922
G01 X242.482 Y205.146
G01 X244.242 Y205.342
G01 X245.965 Y205.628
G01 X247.645 Y206.001
G01 X249.248 Y206.448
G01 X250.842 Y206.620
G01 X252.417 Y206.869
G01 X253.970 Y207.195
G01 X255.496 Y207.595
G01 X256.014 Y207.750
G01 X257.581 Y207.918
G01 X259.145 Y208.165
G01 X260.703 Y208.490
G01 X262.251 Y208.895
G01 X262.780 Y209.052
G01 X264.467 Y209.237
G01 X266.165 Y209.516
G01 X267.871 Y209.891
G01 X269.546 Y210.354
G01 X271.506 Y210.584
G01 X273.490 Y210.938
G01 X275.489 Y211.421
G01 X276.312 Y211.656
G01 X278.699 Y211.965
G01 X281.117 Y212.445
G01 X283.077 Y212.958
G01 X286.041 Y213.386
G01 X289.039 Y214.045
G01 X289.843 Y214.260
G01 X293.530 Y214.846
G01 X296.609 Y215.562
G01 X301.163 Y216.345
G01 X303.375 Y216.864
G01 X308.939 Y217.883
G01 X310.141 Y218.167
G01 X306.458 Y222.497
G01 X305.630 Y223.375
G01 X302.640 Y226.967
G01 X301.119 Y228.583
G01 X298.719 Y231.540
G01 X296.609 Y233.792
G01 X294.695 Y236.216
G01 X292.660 Y238.441
G01 X292.098 Y239.000
G01 X290.570 Y240.993
G01 X288.950 Y242.836
G01 X287.588 Y244.209
G01 X286.345 Y245.869
G01 X285.033 Y247.420
G01 X283.657 Y248.859
G01 X283.077 Y249.416
G01 X282.027 Y250.842
G01 X280.918 Y252.191
G01 X279.756 Y253.460
G01 X278.567 Y254.625
G01 X277.621 Y255.919
G01 X276.617 Y257.159
G01 X275.559 Y258.340
G01 X274.449 Y259.462
G01 X274.056 Y259.833
G01 X273.128 Y261.106
G01 X272.132 Y262.337
G01 X271.071 Y263.524
G01 X269.946 Y264.662
G01 X269.546 Y265.042
G01 X268.542 Y266.410
G01 X267.451 Y267.742
G01 X266.273 Y269.031
G01 X265.035 Y270.250
G01 X263.856 Y271.833
G01 X262.558 Y273.373
G01 X261.140 Y274.863
G01 X260.525 Y275.458
G01 X259.063 Y277.371
G01 X257.439 Y279.225
G01 X256.014 Y280.667
G01 X254.162 Y283.019
G01 X252.093 Y285.286
G01 X251.503 Y285.875
G01 X249.152 Y288.776
G01 X246.993 Y291.083
G01 X244.038 Y294.636
G01 X242.483 Y296.292
G01 X238.819 Y300.601
G01 X237.972 Y301.500
G01 X236.170 Y295.706
G01 X235.904 Y294.664
G01 X234.391 Y289.983
G01 X233.837 Y287.828
G01 X232.574 Y284.097
G01 X231.770 Y280.992
G01 X230.720 Y278.046
G01 X229.912 Y275.103
G01 X229.703 Y274.156
G01 X228.830 Y271.834
G01 X228.135 Y269.513
G01 X227.635 Y267.320
G01 X226.906 Y265.463
G01 X226.303 Y263.605
G01 X225.825 Y261.753
G01 X225.568 Y260.484
G01 X224.944 Y258.941
G01 X224.411 Y257.389
G01 X223.970 Y255.833
G01 X223.618 Y254.279
G01 X223.501 Y253.649
G01 X222.936 Y252.271
G01 X222.443 Y250.872
G01 X222.022 Y249.458
G01 X221.673 Y248.031
G01 X221.433 Y246.813
G01 X220.874 Y245.448
G01 X220.379 Y244.048
G01 X219.953 Y242.614
G01 X219.597 Y241.150
G01 X219.366 Y239.977
G01 X218.751 Y238.462
G01 X218.213 Y236.889
G01 X217.755 Y235.263
G01 X217.382 Y233.586
G01 X217.299 Y233.141
G01 X216.576 Y231.301
G01 X215.957 Y229.377
G01 X215.449 Y227.375
G01 X215.231 Y226.305
G01 X214.356 Y223.965
G01 X213.630 Y221.509
G01 X213.164 Y219.469
G01 X212.097 Y216.454
G01 X211.243 Y213.291
G01 X211.097 Y212.633
G01 X209.801 Y208.773
G01 X209.029 Y205.797
G01 X207.468 Y200.927
G01 X206.962 Y198.961
G01 X205.096 Y192.912
G01 X204.895 Y192.125
G01 X210.490 Y193.685
G01 X211.661 Y194.078
G01 X216.275 Y195.313
G01 X218.426 Y196.031
G01 X222.199 Y196.991
G01 X225.192 Y197.985
G01 X228.262 Y198.721
G01 X231.198 Y199.655
G01 X231.958 Y199.937
G01 X234.463 Y200.502
G01 X236.867 Y201.215
G01 X238.724 Y201.891
G01 X240.797 Y202.332
G01 X242.798 Y202.885
G01 X244.723 Y203.544
G01 X245.490 Y203.844
G01 X247.263 Y204.207
G01 X248.989 Y204.658
G01 X250.665 Y205.193
G01 X252.255 Y205.797
G01 X253.862 Y206.120
G01 X255.442 Y206.520
G01 X256.992 Y206.996
G01 X258.508 Y207.545
G01 X259.021 Y207.750
G01 X260.600 Y208.066
G01 X262.169 Y208.462
G01 X263.725 Y208.938
G01 X265.263 Y209.494
G01 X265.787 Y209.703
G01 X267.486 Y210.047
G01 X269.190 Y210.489
G01 X270.891 Y211.030
G01 X272.553 Y211.656
G01 X274.527 Y212.072
G01 X276.513 Y212.617
G01 X278.503 Y213.293
G01 X279.318 Y213.609
G01 X281.720 Y214.145
G01 X284.136 Y214.858
G01 X286.085 Y215.563
G01 X289.062 Y216.273
G01 X292.052 Y217.222
G01 X292.850 Y217.516
G01 X296.549 Y218.454
G01 X299.616 Y219.469
G01 X304.179 Y220.688
G01 X306.382 Y221.422
G01 X311.952 Y222.974
G01 X313.148 Y223.375
G01 X308.999 Y227.440
G01 X308.073 Y228.258
G01 X304.697 Y231.636
G01 X302.999 Y233.141
G01 X300.281 Y235.928
G01 X297.925 Y238.024
G01 X295.751 Y240.314
G01 X293.474 Y242.389
G01 X292.850 Y242.906
G01 X291.109 Y244.793
G01 X289.289 Y246.519
G01 X287.776 Y247.789
G01 X286.357 Y249.363
G01 X284.877 Y250.820
G01 X283.344 Y252.158
G01 X282.702 Y252.672
G01 X281.501 Y254.026
G01 X280.247 Y255.296
G01 X278.945 Y256.479
G01 X277.627 Y257.555
G01 X276.544 Y258.784
G01 X275.408 Y259.952
G01 X274.221 Y261.057
G01 X272.987 Y262.096
G01 X272.553 Y262.437
G01 X271.490 Y263.646
G01 X270.362 Y264.807
G01 X269.172 Y265.917
G01 X267.921 Y266.971
G01 X267.478 Y267.320
G01 X266.330 Y268.620
G01 X265.096 Y269.874
G01 X263.777 Y271.077
G01 X262.404 Y272.203
G01 X261.057 Y273.705
G01 X259.592 Y275.153
G01 X258.011 Y276.538
G01 X257.329 Y277.086
G01 X255.664 Y278.898
G01 X253.839 Y280.634
G01 X252.255 Y281.969
G01 X250.152 Y284.192
G01 X247.835 Y286.307
G01 X247.181 Y286.852
G01 X244.519 Y289.585
G01 X242.107 Y291.734
G01 X238.769 Y295.076
G01 X237.032 Y296.617
G01 X232.903 Y300.663
G01 X231.957 Y301.500
G01 X230.644 Y295.487
G01 X230.454 Y294.339
G01 X229.333 Y289.476
G01 X228.951 Y287.177
G01 X227.999 Y283.294
G01 X227.447 Y280.016
G01 X226.642 Y276.943
G01 X226.081 Y273.894
G01 X225.944 Y272.854
G01 X225.263 Y270.424
G01 X224.761 Y268.011
G01 X224.440 Y265.693
G01 X223.863 Y263.742
G01 X223.414 Y261.801
G01 X223.091 Y259.876
G01 X222.937 Y258.531
G01 X222.438 Y256.902
G01 X222.033 Y255.272
G01 X221.720 Y253.646
G01 X221.498 Y252.029
G01 X221.433 Y251.370
G01 X220.979 Y249.909
G01 X220.600 Y248.433
G01 X220.294 Y246.946
G01 X220.064 Y245.452
G01 X219.930 Y244.208
G01 X219.477 Y242.755
G01 X219.095 Y241.270
G01 X218.787 Y239.757
G01 X218.552 Y238.218
G01 X218.426 Y237.047
G01 X217.930 Y235.430
G01 X217.517 Y233.760
G01 X217.193 Y232.040
G01 X216.961 Y230.277
G01 X216.923 Y229.885
G01 X216.344 Y227.922
G01 X215.881 Y225.882
G01 X215.539 Y223.770
G01 X215.419 Y222.724
G01 X214.729 Y220.232
G01 X214.203 Y217.636
G01 X213.916 Y215.562
G01 X213.089 Y212.362
G01 X212.495 Y209.028
G01 X212.412 Y208.401
G01 X211.427 Y204.318
G01 X210.908 Y201.240
G01 X209.742 Y196.099
G01 X209.405 Y194.078
G01 X208.032 Y187.710
G01 X207.901 Y186.917
G01 X213.501 Y189.014
G01 X214.667 Y189.521
G01 X219.290 Y191.197
G01 X221.433 Y192.125
G01 X225.217 Y193.445
G01 X228.199 Y194.729
G01 X231.283 Y195.758
G01 X234.211 Y196.977
G01 X234.965 Y197.333
G01 X237.484 Y198.135
G01 X239.886 Y199.080
G01 X241.730 Y199.937
G01 X243.817 Y200.574
G01 X245.821 Y201.320
G01 X247.737 Y202.166
G01 X248.497 Y202.542
G01 X250.283 Y203.072
G01 X252.014 Y203.688
G01 X253.685 Y204.386
G01 X255.262 Y205.146
G01 X256.881 Y205.620
G01 X258.466 Y206.170
G01 X260.014 Y206.796
G01 X261.520 Y207.494
G01 X262.028 Y207.750
G01 X263.619 Y208.214
G01 X265.193 Y208.760
G01 X266.747 Y209.387
G01 X268.275 Y210.093
G01 X268.794 Y210.354
G01 X270.507 Y210.858
G01 X272.214 Y211.463
G01 X273.911 Y212.168
G01 X275.560 Y212.958
G01 X277.548 Y213.560
G01 X279.536 Y214.295
G01 X281.517 Y215.166
G01 X282.326 Y215.563
G01 X284.741 Y216.326
G01 X287.156 Y217.272
G01 X289.091 Y218.167
G01 X292.082 Y219.160
G01 X295.064 Y220.398
G01 X295.857 Y220.771
G01 X299.567 Y222.062
G01 X302.623 Y223.375
G01 X307.195 Y225.031
G01 X309.389 Y225.979
G01 X314.962 Y228.066
G01 X316.155 Y228.584
G01 X311.537 Y232.385
G01 X310.516 Y233.140
G01 X306.753 Y236.306
G01 X304.878 Y237.698
G01 X301.843 Y240.315
G01 X299.240 Y242.255
G01 X296.808 Y244.411
G01 X294.288 Y246.337
G01 X293.602 Y246.812
G01 X291.649 Y248.593
G01 X289.629 Y250.201
G01 X287.964 Y251.370
G01 X286.369 Y252.859
G01 X284.721 Y254.222
G01 X283.030 Y255.457
G01 X282.326 Y255.927
G01 X280.974 Y257.209
G01 X279.575 Y258.400
G01 X278.135 Y259.498
G01 X276.688 Y260.484
G01 X275.468 Y261.649
G01 X274.198 Y262.746
G01 X272.883 Y263.774
G01 X271.525 Y264.730
G01 X271.049 Y265.042
G01 X269.851 Y266.188
G01 X268.592 Y267.278
G01 X267.272 Y268.310
G01 X265.896 Y269.280
G01 X265.411 Y269.599
G01 X264.118 Y270.830
G01 X262.741 Y272.007
G01 X261.282 Y273.124
G01 X259.773 Y274.156
G01 X258.258 Y275.577
G01 X256.627 Y276.931
G01 X254.883 Y278.212
G01 X254.135 Y278.714
G01 X252.266 Y280.424
G01 X250.239 Y282.042
G01 X248.497 Y283.271
G01 X246.141 Y285.364
G01 X243.578 Y287.328
G01 X242.859 Y287.828
G01 X239.886 Y290.396
G01 X237.220 Y292.385
G01 X233.500 Y295.517
G01 X231.582 Y296.943
G01 X226.988 Y300.726
G01 X225.944 Y301.500
G01 X225.473 Y297.756
G01 X225.004 Y294.013
G01 X224.534 Y290.270
G01 X224.064 Y286.526
G01 X223.595 Y282.782
G01 X223.125 Y279.039
G01 X222.687 Y275.666
G01 X222.654 Y275.295
G01 X222.251 Y272.297
G01 X222.185 Y271.552
G01 X221.812 Y268.886
G01 X221.715 Y267.809
G01 X221.371 Y265.431
G01 X221.245 Y264.065
G01 X220.926 Y261.933
G01 X220.775 Y260.321
G01 X220.479 Y258.392
G01 X220.305 Y256.578
G01 X220.028 Y254.810
G01 X219.851 Y253.058
G01 X219.836 Y252.834
G01 X219.573 Y251.186
G01 X219.399 Y249.545
G01 X219.366 Y249.091
G01 X219.113 Y247.519
G01 X218.941 Y245.947
G01 X218.896 Y245.348
G01 X218.648 Y243.810
G01 X218.476 Y242.263
G01 X218.426 Y241.604
G01 X218.177 Y240.057
G01 X218.004 Y238.492
G01 X217.956 Y237.861
G01 X217.700 Y236.260
G01 X217.524 Y234.632
G01 X217.486 Y234.117
G01 X217.218 Y232.418
G01 X217.039 Y230.681
G01 X217.017 Y230.374
G01 X216.730 Y228.530
G01 X216.547 Y226.637
G01 X216.547 Y226.630
G01 X216.239 Y224.596
G01 X216.077 Y222.887
G01 X215.744 Y220.617
G01 X215.607 Y219.143
G01 X215.246 Y216.592
G01 X215.137 Y215.400
G01 X214.745 Y212.521
G01 X214.668 Y211.656
G01 X214.241 Y208.406
G01 X214.198 Y207.913
G01 X213.735 Y204.247
G01 X213.728 Y204.169
G01 X213.258 Y200.426
G01 X212.788 Y196.682
G01 X212.318 Y192.939
G01 X211.848 Y189.196
G01 X211.378 Y185.452
G01 X210.908 Y181.709
G01 X214.292 Y183.336
G01 X217.674 Y184.964
G01 X221.058 Y186.591
G01 X224.440 Y188.219
G01 X227.823 Y189.846
G01 X231.206 Y191.474
G01 X234.368 Y192.985
G01 X234.589 Y193.102
G01 X237.436 Y194.447
G01 X237.972 Y194.729
G01 X240.540 Y195.930
G01 X241.355 Y196.357
G01 X243.677 Y197.431
G01 X244.737 Y197.984
G01 X246.849 Y198.951
G01 X248.120 Y199.612
G01 X250.054 Y200.489
G01 X251.503 Y201.240
G01 X253.293 Y202.045
G01 X254.886 Y202.867
G01 X256.566 Y203.619
G01 X258.184 Y204.448
G01 X258.269 Y204.495
G01 X259.874 Y205.211
G01 X261.428 Y206.000
G01 X261.652 Y206.122
G01 X263.217 Y206.819
G01 X264.741 Y207.590
G01 X265.035 Y207.750
G01 X266.595 Y208.444
G01 X268.122 Y209.217
G01 X268.418 Y209.378
G01 X270.009 Y210.087
G01 X271.574 Y210.882
G01 X271.801 Y211.005
G01 X273.460 Y211.747
G01 X275.097 Y212.585
G01 X275.184 Y212.633
G01 X276.947 Y213.426
G01 X278.567 Y214.260
G01 X280.472 Y215.123
G01 X281.950 Y215.888
G01 X284.033 Y216.841
G01 X285.333 Y217.516
G01 X287.631 Y218.577
G01 X288.716 Y219.143
G01 X291.264 Y220.334
G01 X292.098 Y220.771
G01 X294.933 Y222.110
G01 X295.481 Y222.399
G01 X298.638 Y223.907
G01 X298.864 Y224.026
G01 X302.247 Y225.653
G01 X305.630 Y227.281
G01 X309.013 Y228.908
G01 X312.396 Y230.536
G01 X315.779 Y232.164
G01 X319.162 Y233.792
G01 X316.061 Y235.908
G01 X312.960 Y238.023
G01 X309.859 Y240.139
G01 X306.758 Y242.255
G01 X303.657 Y244.371
G01 X300.556 Y246.487
G01 X297.667 Y248.470
G01 X297.455 Y248.603
G01 X294.865 Y250.396
G01 X294.354 Y250.719
G01 X292.030 Y252.343
G01 X291.253 Y252.835
G01 X289.161 Y254.310
G01 X288.152 Y254.951
G01 X286.259 Y256.296
G01 X285.051 Y257.067
G01 X283.324 Y258.303
G01 X281.950 Y259.182
G01 X280.357 Y260.329
G01 X278.849 Y261.298
G01 X277.357 Y262.377
G01 X275.830 Y263.364
G01 X275.748 Y263.414
G01 X274.325 Y264.446
G01 X272.864 Y265.397
G01 X272.647 Y265.530
G01 X271.261 Y266.536
G01 X269.832 Y267.471
G01 X269.546 Y267.646
G01 X268.165 Y268.649
G01 X266.732 Y269.586
G01 X266.445 Y269.762
G01 X265.035 Y270.785
G01 X263.564 Y271.743
G01 X263.344 Y271.878
G01 X261.872 Y272.943
G01 X260.327 Y273.942
G01 X260.243 Y273.994
G01 X258.674 Y275.124
G01 X257.142 Y276.109
G01 X255.442 Y277.327
G01 X254.041 Y278.225
G01 X252.174 Y279.553
G01 X250.940 Y280.341
G01 X248.871 Y281.800
G01 X247.839 Y282.457
G01 X245.534 Y284.069
G01 X244.738 Y284.573
G01 X242.161 Y286.358
G01 X241.637 Y286.689
G01 X238.753 Y288.668
G01 X238.535 Y288.804
G01 X235.434 Y290.921
G01 X232.334 Y293.037
G01 X229.232 Y295.152
G01 X226.132 Y297.268
G01 X223.030 Y299.384
G01 X219.930 Y301.500
G01 X219.741 Y297.593
G01 X219.554 Y293.688
G01 X219.366 Y289.781
G01 X219.178 Y285.875
G01 X218.990 Y281.969
G01 X218.802 Y278.063
G01 X218.618 Y274.564
G01 X218.614 Y274.156
G01 X218.435 Y271.043
G01 X218.426 Y270.250
G01 X218.253 Y267.477
G01 X218.238 Y266.344
G01 X218.071 Y263.867
G01 X218.050 Y262.438
G01 X217.890 Y260.213
G01 X217.862 Y258.531
G01 X217.709 Y256.515
G01 X217.674 Y254.625
G01 X217.528 Y252.773
G01 X217.485 Y250.945
G01 X217.486 Y250.719
G01 X217.346 Y248.988
G01 X217.297 Y247.273
G01 X217.299 Y246.813
G01 X217.163 Y245.160
G01 X217.109 Y243.512
G01 X217.111 Y242.906
G01 X216.976 Y241.286
G01 X216.922 Y239.663
G01 X216.923 Y239.000
G01 X216.788 Y237.368
G01 X216.734 Y235.724
G01 X216.735 Y235.094
G01 X216.597 Y233.404
G01 X216.545 Y231.692
G01 X216.547 Y231.187
G01 X216.404 Y229.393
G01 X216.357 Y227.566
G01 X216.359 Y227.281
G01 X216.209 Y225.335
G01 X216.171 Y223.375
G01 X216.014 Y221.230
G01 X215.983 Y219.469
G01 X215.819 Y217.077
G01 X215.795 Y215.563
G01 X215.624 Y212.878
G01 X215.607 Y211.656
G01 X215.430 Y208.631
G01 X215.419 Y207.750
G01 X215.237 Y204.338
G01 X215.231 Y203.844
G01 X215.044 Y199.999
G01 X215.043 Y199.938
G01 X214.855 Y196.031
G01 X214.668 Y192.125
G01 X214.479 Y188.219
G01 X214.291 Y184.313
G01 X214.103 Y180.407
G01 X213.915 Y176.500
G01 X217.299 Y178.453
G01 X220.682 Y180.406
G01 X224.064 Y182.360
G01 X227.447 Y184.312
G01 X230.830 Y186.266
G01 X234.213 Y188.219
G01 X237.376 Y190.034
G01 X237.596 Y190.172
G01 X240.445 Y191.791
G01 X240.979 Y192.125
G01 X243.550 Y193.571
G01 X244.362 Y194.078
G01 X246.688 Y195.374
G01 X247.745 Y196.031
G01 X249.860 Y197.199
G01 X251.128 Y197.984
G01 X253.065 Y199.045
G01 X254.511 Y199.938
G01 X256.305 Y200.914
G01 X257.893 Y201.891
G01 X259.578 Y202.802
G01 X261.192 Y203.789
G01 X261.276 Y203.844
G01 X262.885 Y204.712
G01 X264.437 Y205.653
G01 X264.659 Y205.797
G01 X266.228 Y206.642
G01 X267.749 Y207.561
G01 X268.042 Y207.750
G01 X269.606 Y208.592
G01 X271.130 Y209.513
G01 X271.425 Y209.703
G01 X273.020 Y210.563
G01 X274.582 Y211.510
G01 X274.808 Y211.656
G01 X276.471 Y212.556
G01 X278.105 Y213.554
G01 X278.191 Y213.610
G01 X279.959 Y214.570
G01 X281.574 Y215.563
G01 X283.483 Y216.607
G01 X284.957 Y217.516
G01 X287.044 Y218.667
G01 X288.340 Y219.469
G01 X290.641 Y220.750
G01 X291.723 Y221.422
G01 X294.274 Y222.856
G01 X295.106 Y223.375
G01 X297.942 Y224.986
G01 X298.488 Y225.328
G01 X301.645 Y227.139
G01 X301.871 Y227.281
G01 X305.254 Y229.234
G01 X308.637 Y231.188
G01 X312.020 Y233.140
G01 X315.403 Y235.094
G01 X318.786 Y237.047
G01 X322.169 Y239.001
G01 X318.786 Y240.953
G01 X315.403 Y242.906
G01 X312.020 Y244.860
G01 X308.637 Y246.812
G01 X305.254 Y248.766
G01 X301.871 Y250.719
G01 X298.719 Y252.550
G01 X298.488 Y252.672
G01 X295.661 Y254.331
G01 X295.106 Y254.625
G01 X292.567 Y256.128
G01 X291.723 Y256.578
G01 X289.437 Y257.945
G01 X288.340 Y258.531
G01 X286.271 Y259.779
G01 X284.957 Y260.484
G01 X283.069 Y261.632
G01 X281.574 Y262.437
G01 X279.832 Y263.503
G01 X278.191 Y264.390
G01 X276.559 Y265.393
G01 X274.898 Y266.298
G01 X274.808 Y266.344
G01 X273.252 Y267.303
G01 X271.661 Y268.176
G01 X271.425 Y268.297
G01 X269.909 Y269.233
G01 X268.353 Y270.091
G01 X268.042 Y270.250
G01 X266.531 Y271.183
G01 X264.971 Y272.043
G01 X264.659 Y272.203
G01 X263.117 Y273.154
G01 X261.516 Y274.034
G01 X261.276 Y274.156
G01 X259.666 Y275.147
G01 X257.985 Y276.063
G01 X257.893 Y276.109
G01 X256.178 Y277.160
G01 X254.511 Y278.062
G01 X252.652 Y279.194
G01 X251.128 Y280.016
G01 X249.087 Y281.248
G01 X247.745 Y281.969
G01 X245.485 Y283.321
G01 X244.362 Y283.922
G01 X241.844 Y285.414
G01 X240.979 Y285.875
G01 X238.166 Y287.526
G01 X237.596 Y287.828
G01 X234.449 Y289.657
G01 X234.213 Y289.781
G01 X230.830 Y291.734
G01 X227.447 Y293.688
G01 X224.064 Y295.640
G01 X220.682 Y297.594
G01 X217.299 Y299.547
G01 X213.915 Y301.500
G01 X214.010 Y297.431
G01 X214.103 Y293.362
G01 X214.198 Y289.293
G01 X214.291 Y285.224
G01 X214.386 Y281.155
G01 X214.479 Y277.086
G01 X214.547 Y273.457
G01 X214.574 Y273.017
G01 X214.617 Y269.784
G01 X214.667 Y268.948
G01 X214.693 Y266.065
G01 X214.761 Y264.879
G01 X214.771 Y262.300
G01 X214.855 Y260.810
G01 X214.854 Y258.490
G01 X214.949 Y256.741
G01 X214.940 Y254.634
G01 X215.043 Y252.672
G01 X215.029 Y250.734
G01 X215.119 Y248.828
G01 X215.137 Y248.603
G01 X215.120 Y246.789
G01 X215.196 Y244.996
G01 X215.231 Y244.534
G01 X215.213 Y242.798
G01 X215.281 Y241.074
G01 X215.325 Y240.465
G01 X215.306 Y238.762
G01 X215.371 Y237.060
G01 X215.419 Y236.396
G01 X215.401 Y234.679
G01 X215.468 Y232.953
G01 X215.513 Y232.327
G01 X215.496 Y230.548
G01 X215.570 Y228.752
G01 X215.607 Y228.258
G01 X215.592 Y226.369
G01 X215.681 Y224.453
G01 X215.701 Y224.189
G01 X215.690 Y222.141
G01 X215.795 Y220.120
G01 X215.792 Y217.865
G01 X215.889 Y216.051
G01 X215.897 Y213.539
G01 X215.983 Y211.982
G01 X216.005 Y209.165
G01 X216.077 Y207.913
G01 X216.118 Y204.743
G01 X216.171 Y203.844
G01 X216.235 Y200.275
G01 X216.265 Y199.775
G01 X216.356 Y195.757
G01 X216.359 Y195.706
G01 X216.453 Y191.637
G01 X216.546 Y187.568
G01 X216.641 Y183.499
G01 X216.735 Y179.430
G01 X216.829 Y175.361
G01 X216.922 Y171.292
G01 X220.306 Y173.570
