;  Created by Sandify
;  https://sandify.org
;  Version: 0.2.6
;
;  Machine type: Rectangular
;    Min X (mm): 0
;    Max X (mm): 500
;    Min Y (mm): 0
;    Max Y (mm): 500
;  Content type: shape
;  Layer:
;    Shape: FileImport
;    Name: MilkHill 7-8-2011.thr
;    From file:: MilkHill 7-8-2011.thr
;    Aspect Ratio: true
;    Comments: 
;    Visible: true
;    Initial width: 10
;    Initial height: 10
;    X offset: 0
;    Y offset: 0
;    Rotate (degrees): 0
;    Reverse path: false
;    Fine tuning:
;      Connect to next layer: line
;      Draw portion of path (%): 100
;      Backtrack at end (%): 0
;      Rotate starting point (%): 0
;  Reverse export path: false
;
; File name: 'Milkhill2 (C C)'
; File type: gcode
;

G01 X250.000 Y250.000
G01 X250.003 Y250.000
G01 X250.006 Y250.000
G01 X250.009 Y250.000
G01 X250.012 Y250.000
G01 X250.015 Y250.001
G01 X250.018 Y250.002
G01 X250.021 Y250.004
G01 X250.024 Y250.005
G01 X250.027 Y250.007
G01 X250.029 Y250.010
G01 X250.032 Y250.012
G01 X250.034 Y250.015
G01 X250.036 Y250.018
G01 X250.038 Y250.021
G01 X250.039 Y250.025
G01 X250.040 Y250.028
G01 X250.041 Y250.032
G01 X250.042 Y250.036
G01 X250.043 Y250.041
G01 X250.043 Y250.045
G01 X250.042 Y250.049
G01 X250.042 Y250.054
G01 X250.041 Y250.058
G01 X250.040 Y250.063
G01 X250.038 Y250.067
G01 X250.036 Y250.072
G01 X250.034 Y250.076
G01 X250.031 Y250.081
G01 X250.028 Y250.085
G01 X250.025 Y250.089
G01 X250.021 Y250.093
G01 X250.017 Y250.097
G01 X250.012 Y250.101
G01 X250.008 Y250.105
G01 X250.003 Y250.108
G01 X249.997 Y250.111
G01 X249.992 Y250.114
G01 X249.986 Y250.117
G01 X249.979 Y250.119
G01 X249.973 Y250.121
G01 X249.966 Y250.122
G01 X249.959 Y250.123
G01 X249.952 Y250.124
G01 X249.945 Y250.124
G01 X249.937 Y250.124
G01 X249.930 Y250.124
G01 X249.922 Y250.123
G01 X249.915 Y250.121
G01 X249.907 Y250.119
G01 X249.899 Y250.117
G01 X249.891 Y250.114
G01 X249.884 Y250.111
G01 X249.876 Y250.107
G01 X249.868 Y250.103
G01 X249.861 Y250.098
G01 X249.854 Y250.093
G01 X249.849 Y250.089
G01 X249.816 Y250.122
G01 X249.785 Y250.157
G01 X249.758 Y250.197
G01 X249.750 Y250.208
G01 X249.720 Y250.258
G01 X249.695 Y250.310
G01 X249.673 Y250.366
G01 X249.670 Y250.376
G01 X249.655 Y250.435
G01 X249.644 Y250.497
G01 X249.638 Y250.561
G01 X249.638 Y250.570
G01 X249.643 Y250.628
G01 X249.653 Y250.686
G01 X249.668 Y250.746
G01 X249.672 Y250.757
G01 X249.691 Y250.821
G01 X249.715 Y250.886
G01 X249.746 Y250.949
G01 X249.757 Y250.970
G01 X249.796 Y251.024
G01 X249.840 Y251.077
G01 X249.889 Y251.127
G01 X249.909 Y251.146
G01 X249.964 Y251.202
G01 X250.024 Y251.254
G01 X250.089 Y251.303
G01 X250.113 Y251.320
G01 X250.185 Y251.366
G01 X250.262 Y251.408
G01 X250.343 Y251.446
G01 X250.365 Y251.455
G01 X250.450 Y251.480
G01 X250.538 Y251.501
G01 X250.629 Y251.516
G01 X250.646 Y251.518
G01 X250.744 Y251.535
G01 X250.845 Y251.546
G01 X250.949 Y251.550
G01 X250.963 Y251.551
G01 X251.069 Y251.547
G01 X251.178 Y251.537
G01 X251.288 Y251.520
G01 X251.303 Y251.518
G01 X251.405 Y251.483
G01 X251.508 Y251.443
G01 X251.539 Y251.429
G01 X251.658 Y251.408
G01 X251.761 Y251.353
G01 X251.863 Y251.291
G01 X251.963 Y251.222
G01 X251.991 Y251.201
G01 X252.087 Y251.123
G01 X252.181 Y251.039
G01 X252.271 Y250.948
G01 X252.299 Y250.918
G01 X252.391 Y250.821
G01 X252.479 Y250.718
G01 X252.563 Y250.607
G01 X252.588 Y250.572
G01 X252.665 Y250.453
G01 X252.737 Y250.328
G01 X252.804 Y250.197
G01 X252.820 Y250.161
G01 X252.872 Y250.023
G01 X252.916 Y249.880
G01 X252.953 Y249.733
G01 X252.960 Y249.700
G01 X252.996 Y249.547
G01 X253.024 Y249.390
G01 X253.044 Y249.229
G01 X253.047 Y249.199
G01 X253.059 Y249.033
G01 X253.062 Y248.910
G01 X253.052 Y248.741
G01 X253.045 Y248.665
G01 X253.025 Y248.493
G01 X252.994 Y248.320
G01 X252.954 Y248.146
G01 X252.943 Y248.106
G01 X252.884 Y247.938
G01 X252.816 Y247.770
G01 X252.737 Y247.604
G01 X252.714 Y247.559
G01 X252.623 Y247.397
G01 X252.523 Y247.238
G01 X252.414 Y247.082
G01 X252.379 Y247.037
G01 X252.262 Y246.881
G01 X252.136 Y246.729
G01 X251.999 Y246.582
G01 X251.958 Y246.541
G01 X251.807 Y246.408
G01 X251.647 Y246.282
G01 X251.617 Y246.259
G01 X251.455 Y246.120
G01 X251.442 Y246.109
G01 X251.266 Y245.991
G01 X251.081 Y245.881
G01 X250.889 Y245.780
G01 X250.844 Y245.758
G01 X250.643 Y245.668
G01 X250.435 Y245.587
G01 X250.221 Y245.516
G01 X250.177 Y245.503
G01 X249.956 Y245.446
G01 X249.729 Y245.399
G01 X249.498 Y245.363
G01 X249.451 Y245.357
G01 X249.216 Y245.343
G01 X248.978 Y245.341
G01 X248.739 Y245.351
G01 X248.699 Y245.354
G01 X248.682 Y245.359
G01 X248.441 Y245.385
G01 X248.200 Y245.425
G01 X247.959 Y245.477
G01 X247.894 Y245.493
G01 X247.654 Y245.561
G01 X247.416 Y245.642
G01 X247.180 Y245.736
G01 X247.113 Y245.765
G01 X246.877 Y245.869
G01 X246.644 Y245.987
G01 X246.415 Y246.117
G01 X246.351 Y246.156
G01 X246.136 Y246.310
G01 X245.927 Y246.476
G01 X245.859 Y246.534
G01 X245.646 Y246.680
G01 X245.444 Y246.867
G01 X245.250 Y247.066
G01 X245.064 Y247.277
G01 X245.022 Y247.327
G01 X244.848 Y247.551
G01 X244.684 Y247.786
G01 X244.530 Y248.031
G01 X244.499 Y248.083
G01 X244.360 Y248.340
G01 X244.232 Y248.606
G01 X244.117 Y248.880
G01 X244.094 Y248.940
G01 X244.077 Y249.043
G01 X243.985 Y249.329
G01 X243.908 Y249.622
G01 X243.851 Y249.887
G01 X243.807 Y250.191
G01 X243.778 Y250.498
G01 X243.764 Y250.809
G01 X243.763 Y250.891
G01 X243.770 Y251.205
G01 X243.792 Y251.520
G01 X243.830 Y251.835
G01 X243.843 Y251.923
G01 X243.883 Y252.123
G01 X243.942 Y252.441
G01 X244.017 Y252.760
G01 X244.074 Y252.962
G01 X244.180 Y253.276
G01 X244.302 Y253.586
G01 X244.441 Y253.892
G01 X244.479 Y253.970
G01 X244.639 Y254.270
G01 X244.814 Y254.564
G01 X245.005 Y254.850
G01 X245.052 Y254.916
G01 X245.104 Y254.968
G01 X245.315 Y255.246
G01 X245.541 Y255.515
G01 X245.782 Y255.774
G01 X246.041 Y256.019
G01 X246.313 Y256.253
G01 X246.599 Y256.474
G01 X246.664 Y256.521
G01 X246.972 Y256.714
G01 X247.290 Y256.891
G01 X247.455 Y256.975
G01 X247.688 Y257.135
G01 X248.029 Y257.284
G01 X248.379 Y257.417
G01 X248.738 Y257.533
G01 X248.832 Y257.560
G01 X249.199 Y257.654
G01 X249.573 Y257.730
G01 X249.953 Y257.788
G01 X250.054 Y257.800
G01 X250.432 Y257.813
G01 X250.822 Y257.848
G01 X251.216 Y257.864
G01 X251.323 Y257.864
G01 X251.719 Y257.843
G01 X252.116 Y257.801
G01 X252.513 Y257.739
G01 X252.608 Y257.722
G01 X252.999 Y257.624
G01 X253.387 Y257.507
G01 X253.512 Y257.465
G01 X253.876 Y257.368
G01 X254.260 Y257.215
G01 X254.639 Y257.042
G01 X255.011 Y256.850
G01 X255.099 Y256.801
G01 X255.456 Y256.578
G01 X255.804 Y256.336
G01 X256.140 Y256.076
G01 X256.224 Y256.007
G01 X256.241 Y255.990
G01 X256.562 Y255.707
G01 X256.871 Y255.407
G01 X257.166 Y255.091
G01 X257.225 Y255.024
G01 X257.508 Y254.692
G01 X257.776 Y254.344
G01 X258.028 Y253.981
G01 X258.091 Y253.884
G01 X258.222 Y253.599
G01 X258.453 Y253.216
G01 X258.666 Y252.818
G01 X258.773 Y252.600
G01 X258.942 Y252.179
G01 X259.092 Y251.748
G01 X259.220 Y251.307
G01 X259.247 Y251.202
G01 X259.317 Y250.748
G01 X259.324 Y250.697
G01 X259.418 Y250.240
G01 X259.489 Y249.776
G01 X259.496 Y249.720
G01 X259.517 Y249.251
G01 X259.514 Y248.779
G01 X259.488 Y248.305
G01 X259.478 Y248.188
G01 X259.397 Y247.720
G01 X259.372 Y247.598
G01 X259.303 Y247.123
G01 X259.210 Y246.651
G01 X259.084 Y246.182
G01 X258.934 Y245.718
G01 X258.760 Y245.259
G01 X258.712 Y245.141
G01 X258.481 Y244.708
G01 X258.439 Y244.635
G01 X258.214 Y244.193
G01 X257.967 Y243.760
G01 X257.944 Y243.723
G01 X257.667 Y243.305
G01 X257.369 Y242.900
G01 X257.048 Y242.507
G01 X256.967 Y242.414
G01 X256.647 Y242.099
G01 X256.296 Y241.723
G01 X255.925 Y241.363
G01 X255.791 Y241.241
G01 X255.378 Y240.928
G01 X254.948 Y240.634
G01 X254.502 Y240.361
G01 X254.392 Y240.298
G01 X254.195 Y240.184
G01 X253.727 Y239.940
G01 X253.245 Y239.719
G01 X252.840 Y239.554
G01 X252.333 Y239.387
G01 X251.817 Y239.245
G01 X251.292 Y239.128
G01 X251.266 Y239.123
G01 X251.156 Y239.086
G01 X250.621 Y238.996
G01 X250.081 Y238.933
G01 X249.536 Y238.897
G01 X249.395 Y238.891
G01 X248.846 Y238.890
G01 X248.296 Y238.916
G01 X248.157 Y238.927
G01 X247.600 Y238.958
G01 X247.047 Y239.037
G01 X246.496 Y239.143
G01 X245.949 Y239.278
G01 X245.818 Y239.314
G01 X245.284 Y239.498
G01 X245.113 Y239.562
G01 X244.576 Y239.757
G01 X244.092 Y239.959
G01 X243.577 Y240.216
G01 X243.073 Y240.499
G01 X242.582 Y240.809
G01 X242.462 Y240.889
G01 X242.347 Y240.985
G01 X241.880 Y241.335
G01 X241.428 Y241.709
G01 X240.996 Y242.106
G01 X240.594 Y242.537
G01 X240.213 Y242.989
G01 X240.095 Y243.137
G01 X239.726 Y243.560
G01 X239.376 Y244.046
G01 X239.048 Y244.551
G01 X238.745 Y245.073
G01 X238.671 Y245.210
G01 X238.450 Y245.772
G01 X238.449 Y245.774
G01 X238.181 Y246.323
G01 X237.939 Y246.888
G01 X237.885 Y247.026
G01 X237.710 Y247.616
G01 X237.564 Y248.215
G01 X237.465 Y248.726
G01 X237.392 Y248.966
G01 X237.303 Y249.584
G01 X237.244 Y250.209
G01 X237.215 Y250.838
G01 X237.213 Y250.990
G01 X237.259 Y251.619
G01 X237.281 Y251.830
G01 X237.322 Y252.464
G01 X237.387 Y253.044
G01 X237.511 Y253.671
G01 X237.667 Y254.293
G01 X237.848 Y254.892
G01 X237.894 Y255.070
G01 X238.116 Y255.678
G01 X238.368 Y256.276
G01 X238.651 Y256.863
G01 X238.729 Y257.013
G01 X239.070 Y257.569
G01 X239.164 Y257.712
G01 X239.496 Y258.281
G01 X239.855 Y258.830
G01 X240.260 Y259.356
G01 X240.693 Y259.862
G01 X241.021 Y260.215
G01 X241.254 Y260.480
G01 X241.746 Y260.939
G01 X242.262 Y261.376
G01 X242.801 Y261.788
G01 X242.932 Y261.882
G01 X243.440 Y262.170
G01 X244.018 Y262.533
G01 X244.616 Y262.870
G01 X244.853 Y262.993
G01 X245.485 Y263.262
G01 X246.132 Y263.501
G01 X246.238 Y263.537
G01 X246.891 Y263.772
G01 X246.951 Y263.792
G01 X247.623 Y263.970
G01 X248.306 Y264.116
G01 X248.998 Y264.228
G01 X249.177 Y264.251
G01 X249.268 Y264.256
G01 X249.968 Y264.331
G01 X250.674 Y264.371
G01 X251.384 Y264.376
G01 X251.474 Y264.375
G01 X252.181 Y264.304
G01 X252.383 Y264.277
G01 X253.097 Y264.218
G01 X253.782 Y264.127
G01 X254.484 Y263.965
G01 X255.179 Y263.767
G01 X255.440 Y263.683
G01 X256.052 Y263.534
G01 X256.733 Y263.268
G01 X257.403 Y262.969
G01 X258.059 Y262.636
G01 X258.215 Y262.550
G01 X258.317 Y262.483
G01 X258.948 Y262.099
G01 X259.562 Y261.683
G01 X260.156 Y261.236
G01 X260.205 Y261.197
G01 X260.743 Y260.683
G01 X260.810 Y260.615
G01 X261.362 Y260.111
G01 X261.890 Y259.578
G01 X261.954 Y259.509
G01 X262.436 Y258.933
G01 X262.890 Y258.332
G01 X262.907 Y258.309
G01 X263.370 Y257.707
G01 X263.469 Y257.569
G01 X263.863 Y256.919
G01 X264.225 Y256.247
G01 X264.518 Y255.641
G01 X264.665 Y255.391
G01 X264.964 Y254.681
G01 X265.228 Y253.955
G01 X265.456 Y253.214
G01 X265.506 Y253.034
G01 X265.566 Y252.707
G01 X265.751 Y251.949
G01 X265.899 Y251.179
G01 X265.991 Y250.549
G01 X265.998 Y249.763
G01 X265.996 Y249.622
G01 X266.030 Y248.833
G01 X266.026 Y248.039
G01 X266.024 Y247.985
G01 X265.919 Y247.199
G01 X265.796 Y246.517
G01 X265.693 Y245.723
G01 X265.644 Y245.423
G01 X265.429 Y244.651
G01 X265.176 Y243.890
G01 X265.029 Y243.498
G01 X264.851 Y242.926
G01 X264.529 Y242.183
G01 X264.169 Y241.455
G01 X263.773 Y240.743
G01 X263.726 Y240.664
G01 X263.659 Y240.567
G01 X263.229 Y239.870
G01 X262.763 Y239.194
G01 X262.262 Y238.538
G01 X262.133 Y238.380
G01 X261.895 Y238.136
G01 X261.340 Y237.521
G01 X260.753 Y236.932
G01 X260.246 Y236.466
G01 X259.617 Y236.012
G01 X258.959 Y235.492
G01 X258.273 Y235.004
G01 X258.054 Y234.859
G01 X257.309 Y234.466
G01 X257.005 Y234.318
G01 X256.251 Y233.930
G01 X255.596 Y233.630
G01 X254.794 Y233.349
G01 X254.117 Y233.146
G01 X253.302 Y232.878
G01 X252.951 Y232.776
G01 X252.105 Y232.629
G01 X251.252 Y232.525
G01 X251.070 Y232.508
G01 X250.211 Y232.380
G01 X250.176 Y232.376
G01 X249.310 Y232.349
G01 X248.441 Y232.366
G01 X247.957 Y232.393
G01 X247.350 Y232.398
G01 X246.480 Y232.498
G01 X245.612 Y232.641
G01 X244.865 Y232.800
G01 X244.542 Y232.874
G01 X243.689 Y233.110
G01 X242.846 Y233.389
G01 X242.015 Y233.710
G01 X241.893 Y233.761
G01 X241.812 Y233.802
G01 X241.005 Y234.183
G01 X240.215 Y234.604
G01 X239.444 Y235.065
G01 X239.256 Y235.186
G01 X239.155 Y235.260
G01 X238.414 Y235.772
G01 X237.698 Y236.322
G01 X237.008 Y236.908
G01 X236.930 Y236.978
G01 X236.713 Y237.199
G01 X236.056 Y237.827
G01 X235.428 Y238.488
G01 X234.885 Y239.118
G01 X234.613 Y239.505
G01 X234.054 Y240.235
G01 X233.530 Y240.994
G01 X233.172 Y241.562
G01 X232.929 Y242.125
G01 X232.491 Y242.944
G01 X232.093 Y243.786
G01 X231.880 Y244.286
G01 X231.699 Y244.988
G01 X231.406 Y245.877
G01 X231.156 Y246.783
G01 X231.054 Y247.214
G01 X230.978 Y248.019
G01 X230.831 Y248.950
G01 X230.729 Y249.892
G01 X230.702 Y250.265
G01 X230.733 Y251.127
G01 X230.748 Y252.078
G01 X230.810 Y253.030
G01 X230.841 Y253.354
G01 X231.015 Y254.228
G01 X231.162 Y255.177
G01 X231.357 Y256.122
G01 X231.428 Y256.418
G01 X231.740 Y257.260
G01 X232.050 Y258.178
G01 X232.405 Y259.084
G01 X232.526 Y259.364
G01 X232.958 Y260.130
G01 X233.423 Y260.989
G01 X233.930 Y261.827
G01 X234.114 Y262.109
G01 X234.631 Y262.760
G01 X235.230 Y263.541
G01 X235.868 Y264.293
G01 X236.137 Y264.589
G01 X236.692 Y265.097
G01 X237.405 Y265.787
G01 X238.154 Y266.443
G01 X238.535 Y266.752
G01 X239.090 Y267.089
G01 X239.903 Y267.671
G01 X240.748 Y268.214
G01 X241.266 Y268.519
G01 X241.751 Y268.713
G01 X242.653 Y269.163
G01 X243.579 Y269.570
G01 X244.266 Y269.838
G01 X244.622 Y269.937
G01 X245.594 Y270.237
G01 X246.582 Y270.488
G01 X247.464 Y270.670
G01 X247.652 Y270.692
G01 X248.667 Y270.832
G01 X249.690 Y270.921
G01 X250.719 Y270.960
G01 X250.766 Y270.961
G01 X250.785 Y270.960
G01 X251.816 Y270.938
G01 X252.847 Y270.865
G01 X253.875 Y270.741
G01 X253.882 Y270.740
G01 X254.135 Y270.716
G01 X255.155 Y270.524
G01 X256.167 Y270.281
G01 X256.928 Y270.062
G01 X257.438 Y269.959
G01 X258.420 Y269.598
G01 X259.385 Y269.188
G01 X259.848 Y268.971
G01 X260.598 Y268.678
G01 X261.514 Y268.154
G01 X262.404 Y267.586
G01 X262.577 Y267.468
G01 X263.494 Y266.924
G01 X263.534 Y266.898
G01 X264.356 Y266.223
G01 X265.059 Y265.589
G01 X265.873 Y264.894
G01 X266.156 Y264.636
G01 X266.867 Y263.836
G01 X267.249 Y263.372
G01 X267.945 Y262.552
G01 X268.403 Y261.964
G01 X268.967 Y261.047
G01 X269.079 Y260.853
G01 X269.665 Y259.942
G01 X270.208 Y259.000
G01 X270.231 Y258.957
G01 X270.558 Y258.111
G01 X271.010 Y257.119
G01 X271.413 Y256.102
G01 X271.566 Y255.674
G01 X271.661 Y255.195
G01 X271.960 Y254.139
G01 X272.207 Y253.066
G01 X272.367 Y252.199
G01 X272.372 Y252.154
G01 X272.495 Y251.056
G01 X272.563 Y249.950
G01 X272.579 Y249.037
G01 X272.607 Y248.612
G01 X272.533 Y247.502
G01 X272.403 Y246.396
G01 X272.332 Y245.929
G01 X272.246 Y245.006
G01 X271.987 Y243.917
G01 X271.686 Y242.880
G01 X271.401 Y241.790
G01 X271.309 Y241.478
G01 X270.865 Y240.443
G01 X270.633 Y239.951
G01 X270.202 Y238.903
G01 X269.833 Y238.108
G01 X269.236 Y237.165
G01 X268.645 Y236.190
G01 X268.005 Y235.243
G01 X267.830 Y235.000
G01 X267.477 Y234.590
G01 X266.746 Y233.707
G01 X265.970 Y232.857
G01 X265.385 Y232.269
G01 X265.339 Y232.229
G01 X264.471 Y231.468
G01 X263.566 Y230.750
G01 X262.957 Y230.305
G01 X262.415 Y229.871
G01 X261.419 Y229.276
G01 X260.393 Y228.729
G01 X260.295 Y228.681
G01 X259.279 Y228.102
G01 X259.116 Y228.015
G01 X258.026 Y227.594
G01 X257.454 Y227.398
G01 X256.359 Y226.976
G01 X255.539 Y226.699
G01 X254.478 Y226.472
G01 X253.328 Y226.206
G01 X252.164 Y225.997
G01 X251.781 Y225.941
G01 X251.407 Y225.916
G01 X250.225 Y225.819
G01 X249.036 Y225.780
G01 X248.287 Y225.786
G01 X247.927 Y225.763
G01 X246.737 Y225.873
G01 X245.553 Y226.041
G01 X245.183 Y226.106
G01 X244.070 Y226.254
G01 X242.912 Y226.574
G01 X242.152 Y226.817
G01 X240.989 Y227.142
G01 X240.315 Y227.360
G01 X239.227 Y227.885
G01 X238.117 Y228.372
G01 X237.029 Y228.915
G01 X236.760 Y229.060
G01 X236.430 Y229.272
G01 X235.401 Y229.923
G01 X234.403 Y230.625
G01 X233.856 Y231.043
G01 X233.484 Y231.299
G01 X232.570 Y232.115
G01 X231.697 Y232.977
G01 X231.545 Y233.136
G01 X230.649 Y233.987
G01 X230.590 Y234.046
G01 X229.817 Y235.008
G01 X229.477 Y235.463
G01 X228.705 Y236.435
G01 X228.132 Y237.226
G01 X227.710 Y238.031
G01 X227.087 Y239.109
G01 X226.515 Y240.220
G01 X226.247 Y240.793
G01 X226.242 Y240.805
G01 X225.801 Y241.976
G01 X225.417 Y243.167
G01 X225.251 Y243.753
G01 X224.936 Y244.666
G01 X224.705 Y245.903
G01 X224.576 Y246.796
G01 X224.352 Y248.040
G01 X224.257 Y248.710
G01 X224.225 Y249.892
G01 X224.175 Y251.161
G01 X224.188 Y252.434
G01 X224.205 Y252.834
G01 X224.226 Y253.014
G01 X224.364 Y254.282
G01 X224.565 Y255.544
G01 X224.675 Y256.104
G01 X224.789 Y256.943
G01 X225.160 Y258.172
G01 X225.489 Y259.112
G01 X225.856 Y260.351
G01 X226.051 Y260.929
G01 X226.629 Y262.008
G01 X227.181 Y263.178
G01 X227.791 Y264.323
G01 X227.985 Y264.661
G01 X228.065 Y264.780
G01 X228.791 Y265.857
G01 X229.571 Y266.899
G01 X229.901 Y267.309
G01 X230.487 Y268.078
G01 X231.387 Y269.024
G01 X231.997 Y269.616
G01 X232.921 Y270.547
G01 X233.500 Y271.087
G01 X234.315 Y271.700
G01 X235.358 Y272.505
G01 X236.443 Y273.261
G01 X236.849 Y273.524
G01 X236.959 Y273.613
G01 X238.124 Y274.245
G01 X239.319 Y274.819
G01 X239.624 Y274.954
G01 X240.809 Y275.547
G01 X242.079 Y275.949
G01 X242.528 Y276.076
G01 X243.796 Y276.501
G01 X244.955 Y276.830
G01 X245.534 Y276.907
G01 X246.855 Y277.136
G01 X248.187 Y277.301
G01 X248.627 Y277.341
G01 X249.279 Y277.441
G01 X250.626 Y277.443
G01 X251.743 Y277.395
G01 X253.097 Y277.381
G01 X253.669 Y277.355
G01 X254.852 Y277.170
G01 X256.197 Y276.974
G01 X257.534 Y276.710
G01 X257.927 Y276.620
G01 X258.025 Y276.617
G01 X259.329 Y276.212
G01 X260.612 Y275.743
G01 X260.890 Y275.633
G01 X262.187 Y275.177
G01 X262.222 Y275.164
G01 X263.432 Y274.516
G01 X263.726 Y274.348
G01 X264.957 Y273.729
G01 X266.159 Y273.050
G01 X266.443 Y272.818
G01 X267.563 Y272.009
G01 X268.644 Y271.146
G01 X268.920 Y270.911
G01 X269.720 Y270.298
G01 X270.680 Y269.295
G01 X271.163 Y268.752
G01 X272.136 Y267.754
G01 X272.817 Y266.994
G01 X273.214 Y266.404
G01 X274.038 Y265.275
G01 X274.807 Y264.105
G01 X274.980 Y263.824
G01 X275.383 Y263.233
G01 X276.001 Y261.971
G01 X276.406 Y261.051
G01 X277.024 Y259.781
G01 X277.327 Y259.094
G01 X277.591 Y258.169
G01 X278.025 Y256.822
G01 X278.393 Y255.451
G01 X278.459 Y255.169
G01 X278.596 Y254.672
G01 X278.791 Y253.264
G01 X278.900 Y252.083
G01 X279.073 Y250.665
G01 X279.125 Y250.072
G01 X279.082 Y248.975
G01 X279.054 Y247.544
G01 X278.955 Y246.114
G01 X278.929 Y245.854
G01 X278.915 Y245.422
G01 X278.655 Y244.008
G01 X278.372 Y242.785
G01 X278.105 Y241.364
G01 X277.985 Y240.827
G01 X277.589 Y239.768
G01 X277.118 Y238.400
G01 X276.578 Y237.053
G01 X276.488 Y236.845
G01 X276.329 Y236.419
G01 X275.630 Y235.143
G01 X275.000 Y234.105
G01 X274.291 Y232.826
G01 X273.983 Y232.313
G01 X273.317 Y231.484
G01 X272.434 Y230.315
G01 X271.491 Y229.189
G01 X271.364 Y229.045
G01 X270.995 Y228.605
G01 X269.910 Y227.612
G01 X269.084 Y226.918
G01 X267.998 Y225.916
G01 X267.417 Y225.420
G01 X266.662 Y224.962
G01 X265.443 Y224.124
G01 X264.183 Y223.345
G01 X264.038 Y223.261
G01 X263.353 Y222.829
G01 X261.997 Y222.221
G01 X261.230 Y221.912
G01 X259.877 Y221.283
G01 X258.916 Y220.885
G01 X258.340 Y220.740
G01 X256.905 Y220.320
G01 X255.449 Y219.970
G01 X255.319 Y219.942
G01 X254.209 Y219.666
G01 X252.715 Y219.496
G01 X252.242 Y219.457
G01 X250.743 Y219.280
G01 X249.339 Y219.182
G01 X249.130 Y219.212
G01 X247.620 Y219.280
G01 X246.114 Y219.422
G01 X246.015 Y219.434
G01 X244.499 Y219.548
G01 X244.433 Y219.555
G01 X242.952 Y219.889
G01 X242.937 Y219.892
G01 X241.448 Y220.205
G01 X239.972 Y220.591
G01 X239.897 Y220.613
G01 X239.616 Y220.685
G01 X238.190 Y221.230
G01 X236.989 Y221.752
G01 X235.561 Y222.314
G01 X235.002 Y222.556
G01 X234.161 Y223.062
G01 X232.824 Y223.820
G01 X231.524 Y224.644
G01 X231.484 Y224.671
G01 X230.726 Y225.148
G01 X229.530 Y226.123
G01 X229.017 Y226.573
G01 X227.814 Y227.552
G01 X226.884 Y228.381
G01 X226.679 Y228.639
G01 X225.640 Y229.793
G01 X224.658 Y230.998
G01 X224.646 Y231.014
G01 X223.643 Y232.212
G01 X223.621 Y232.240
G01 X222.842 Y233.552
G01 X222.002 Y234.869
G01 X221.228 Y236.224
G01 X220.999 Y236.592
G01 X220.390 Y238.037
G01 X219.997 Y239.090
G01 X219.389 Y240.542
G01 X219.092 Y241.334
G01 X218.933 Y242.022
G01 X218.542 Y243.549
G01 X218.231 Y245.063
G01 X217.934 Y246.333
G01 X217.814 Y247.912
G01 X217.803 Y248.151
G01 X217.649 Y249.732
G01 X217.575 Y251.267
G01 X217.559 Y251.479
G01 X217.670 Y253.069
G01 X217.822 Y254.379
G01 X217.954 Y255.975
G01 X218.033 Y256.641
G01 X218.241 Y257.468
G01 X218.609 Y259.028
G01 X219.028 Y260.489
G01 X219.330 Y261.697
G01 X219.960 Y263.179
G01 X220.073 Y263.424
G01 X220.767 Y264.876
G01 X221.484 Y266.208
G01 X222.314 Y267.587
G01 X223.156 Y268.848
G01 X224.113 Y270.142
G01 X225.069 Y271.314
G01 X226.145 Y272.512
G01 X227.208 Y273.587
G01 X228.393 Y274.677
G01 X229.553 Y275.647
G01 X230.836 Y276.619
G01 X232.084 Y277.475
G01 X233.453 Y278.321
G01 X234.777 Y279.053
G01 X236.220 Y279.765
G01 X237.607 Y280.369
G01 X239.112 Y280.940
G01 X240.550 Y281.409
G01 X242.103 Y281.835
G01 X243.578 Y282.165
G01 X245.164 Y282.442
G01 X246.665 Y282.630
G01 X248.270 Y282.754
G01 X249.782 Y282.799
G01 X251.391 Y282.770
G01 X252.901 Y282.671
G01 X254.500 Y282.490
G01 X255.993 Y282.248
G01 X257.568 Y281.915
G01 X259.031 Y281.532
G01 X260.568 Y281.051
G01 X261.988 Y280.531
G01 X263.471 Y279.906
G01 X264.836 Y279.253
G01 X266.253 Y278.490
G01 X267.552 Y277.709
G01 X268.890 Y276.814
G01 X270.106 Y275.915
G01 X271.354 Y274.897
G01 X272.479 Y273.886
G01 X273.624 Y272.755
G01 X274.647 Y271.641
G01 X275.680 Y270.406
G01 X276.593 Y269.200
G01 X277.503 Y267.873
G01 X278.298 Y266.586
G01 X279.077 Y265.177
G01 X279.746 Y263.821
G01 X280.388 Y262.345
G01 X280.925 Y260.931
G01 X281.424 Y259.400
G01 X281.824 Y257.942
G01 X282.175 Y256.370
G01 X282.435 Y254.880
G01 X282.635 Y253.283
G01 X282.752 Y251.775
G01 X282.800 Y250.166
G01 X282.772 Y248.654
G01 X282.667 Y247.047
G01 X282.496 Y245.545
G01 X282.238 Y243.956
G01 X281.925 Y242.476
G01 X281.518 Y240.919
G01 X281.066 Y239.475
G01 X280.512 Y237.964
G01 X279.925 Y236.570
G01 X279.229 Y235.118
G01 X278.512 Y233.786
G01 X277.683 Y232.407
G01 X276.840 Y231.147
G01 X275.883 Y229.853
G01 X274.927 Y228.681
G01 X273.850 Y227.483
G01 X272.787 Y226.408
G01 X271.602 Y225.318
G01 X270.441 Y224.349
G01 X269.158 Y223.377
G01 X267.911 Y222.522
G01 X266.541 Y221.676
G01 X265.217 Y220.944
G01 X263.773 Y220.232
G01 X262.387 Y219.629
G01 X260.881 Y219.058
G01 X259.444 Y218.589
G01 X257.891 Y218.163
G01 X256.415 Y217.833
G01 X254.829 Y217.557
G01 X253.328 Y217.369
G01 X251.723 Y217.245
G01 X250.211 Y217.201
G01 X248.602 Y217.230
G01 X247.093 Y217.329
G01 X245.493 Y217.511
G01 X244.000 Y217.753
G01 X242.425 Y218.087
G01 X240.962 Y218.470
G01 X239.426 Y218.951
G01 X238.006 Y219.472
G01 X236.522 Y220.097
G01 X235.158 Y220.750
G01 X233.741 Y221.513
G01 X232.442 Y222.295
G01 X231.104 Y223.190
G01 X229.888 Y224.089
G01 X228.641 Y225.107
G01 X227.516 Y226.118
G01 X226.372 Y227.250
G01 X225.348 Y228.364
G01 X224.316 Y229.599
G01 X223.403 Y230.805
G01 X222.493 Y232.133
G01 X221.699 Y233.420
G01 X220.920 Y234.829
G01 X220.251 Y236.185
G01 X219.609 Y237.662
G01 X219.073 Y239.076
G01 X218.574 Y240.606
G01 X218.174 Y242.065
G01 X217.823 Y243.636
G01 X217.564 Y245.126
G01 X217.364 Y246.724
G01 X217.248 Y248.232
G01 X217.200 Y249.841
G01 X217.228 Y251.353
G01 X217.334 Y252.959
G01 X217.505 Y254.462
G01 X217.763 Y256.051
G01 X218.076 Y257.531
G01 X218.472 Y259.092
G01 X218.913 Y260.539
G01 X219.234 Y261.442
G01 X219.832 Y262.938
G01 X220.055 Y263.446
G01 X220.751 Y264.900
G01 X221.469 Y266.232
G01 X222.300 Y267.612
G01 X223.141 Y268.870
G01 X224.089 Y270.174
G01 X225.036 Y271.352
G01 X226.113 Y272.551
G01 X227.176 Y273.626
G01 X228.371 Y274.708
G01 X229.541 Y275.669
G01 X230.825 Y276.642
G01 X232.071 Y277.496
G01 X233.441 Y278.342
G01 X234.765 Y279.076
G01 X236.216 Y279.776
G01 X237.608 Y280.369
G01 X239.113 Y280.940
G01 X240.550 Y281.409
G01 X242.106 Y281.823
G01 X243.587 Y282.141
G01 X245.174 Y282.405
G01 X246.680 Y282.581
G01 X248.284 Y282.692
G01 X249.799 Y282.724
G01 X251.405 Y282.682
G01 X252.915 Y282.570
G01 X254.508 Y282.375
G01 X256.006 Y282.118
G01 X256.516 Y282.019
G01 X258.102 Y281.750
G01 X259.076 Y281.545
G01 X260.681 Y281.260
G01 X262.137 Y280.929
G01 X263.784 Y280.615
G01 X265.195 Y280.276
G01 X266.904 Y279.922
G01 X268.239 Y279.579
G01 X270.028 Y279.172
G01 X271.267 Y278.830
G01 X273.172 Y278.384
G01 X274.305 Y278.063
G01 X276.326 Y277.540
G01 X277.317 Y277.237
G01 X279.474 Y276.636
G01 X280.317 Y276.362
G01 X282.626 Y275.671
G01 X283.292 Y275.442
G01 X285.793 Y274.669
G01 X286.278 Y274.498
G01 X288.944 Y273.602
G01 X289.227 Y273.495
G01 X292.116 Y272.494
G01 X292.193 Y272.464
G01 X295.116 Y271.379
G01 X298.028 Y270.257
G01 X300.937 Y269.099
G01 X303.803 Y267.892
G01 X306.680 Y266.651
G01 X309.524 Y265.366
G01 X312.364 Y264.040
G01 X315.154 Y262.675
G01 X317.947 Y261.268
G01 X320.721 Y259.824
G01 X323.478 Y258.341
G01 X326.195 Y256.825
G01 X328.900 Y255.257
G01 X331.593 Y253.661
G01 X334.251 Y252.025
G01 X336.899 Y250.351
G01 X339.515 Y248.642
G01 X342.097 Y246.889
G01 X344.649 Y245.106
G01 X347.193 Y243.286
G01 X347.432 Y243.113
G01 X346.141 Y240.590
G01 X344.694 Y237.816
G01 X343.236 Y235.062
G01 X341.713 Y232.327
G01 X340.174 Y229.611
G01 X338.593 Y226.919
G01 X336.968 Y224.250
G01 X335.321 Y221.596
G01 X333.650 Y218.956
G01 X331.932 Y216.344
G01 X330.191 Y213.759
G01 X328.418 Y211.181
G01 X326.621 Y208.632
G01 X324.772 Y206.113
G01 X322.912 Y203.598
G01 X321.004 Y201.124
G01 X319.068 Y198.676
G01 X317.102 Y196.250
G01 X315.120 Y193.827
G01 X313.094 Y191.450
G01 X311.039 Y189.099
G01 X308.955 Y186.771
G01 X306.844 Y184.469
G01 X304.711 Y182.195
G01 X302.547 Y179.942
G01 X300.356 Y177.710
G01 X298.130 Y175.523
G01 X295.874 Y173.354
G01 X295.754 Y173.224
G01 X298.262 Y174.776
G01 X300.857 Y176.506
G01 X303.398 Y178.330
G01 X305.866 Y180.237
G01 X308.273 Y182.235
G01 X310.602 Y184.309
G01 X312.864 Y186.470
G01 X315.042 Y188.703
G01 X317.148 Y191.016
G01 X319.165 Y193.395
G01 X321.103 Y195.850
G01 X322.954 Y198.371
G01 X324.712 Y200.948
G01 X326.382 Y203.593
G01 X327.955 Y206.286
G01 X329.437 Y209.041
G01 X330.818 Y211.837
G01 X332.104 Y214.689
G01 X333.286 Y217.575
G01 X334.369 Y220.509
G01 X334.856 Y221.939
G01 X333.566 Y222.902
G01 X332.738 Y223.509
G01 X331.596 Y221.744
G01 X329.869 Y219.135
G01 X328.092 Y216.562
G01 X326.311 Y214.003
G01 X324.495 Y211.457
G01 X322.648 Y208.937
G01 X320.772 Y206.447
G01 X318.856 Y203.970
G01 X316.911 Y201.525
G01 X314.952 Y199.092
G01 X312.963 Y196.690
G01 X310.935 Y194.309
G01 X308.899 Y191.947
G01 X306.823 Y189.604
G01 X304.723 Y187.296
G01 X302.589 Y185.012
G01 X300.425 Y182.756
G01 X298.252 Y180.509
G01 X296.043 Y178.313
G01 X293.812 Y176.113
G01 X291.552 Y173.963
G01 X289.267 Y171.834
G01 X286.964 Y169.727
G01 X284.623 Y167.658
G01 X282.270 Y165.609
G01 X279.887 Y163.572
G01 X277.492 Y161.575
G01 X277.035 Y161.199
G01 X279.449 Y161.970
G01 X282.398 Y163.012
G01 X285.311 Y164.153
G01 X288.175 Y165.388
G01 X291.004 Y166.722
G01 X293.778 Y168.147
G01 X296.512 Y169.668
G01 X299.192 Y171.281
G01 X301.808 Y172.978
G01 X304.374 Y174.768
G01 X306.871 Y176.637
G01 X309.310 Y178.594
G01 X311.666 Y180.652
G01 X313.961 Y182.763
G01 X316.208 Y184.939
G01 X318.356 Y187.199
G01 X320.433 Y189.538
G01 X322.425 Y191.938
G01 X324.340 Y194.412
G01 X326.171 Y196.948
G01 X327.910 Y199.537
G01 X329.566 Y202.191
G01 X331.127 Y204.890
G01 X332.601 Y207.650
G01 X333.981 Y210.457
G01 X335.262 Y213.300
G01 X336.450 Y216.194
G01 X337.537 Y219.117
G01 X338.528 Y222.084
G01 X338.873 Y223.202
G01 X337.298 Y224.399
G01 X334.814 Y226.256
G01 X332.256 Y228.086
G01 X331.801 Y228.417
G01 X330.424 Y226.275
G01 X328.732 Y223.650
G01 X327.011 Y221.042
G01 X325.235 Y218.469
G01 X323.449 Y215.908
G01 X321.629 Y213.374
G01 X319.770 Y210.858
G01 X317.897 Y208.357
G01 X315.988 Y205.887
G01 X314.042 Y203.446
G01 X312.076 Y201.016
G01 X310.093 Y198.602
G01 X308.053 Y196.235
G01 X306.014 Y193.867
G01 X303.923 Y191.549
G01 X301.830 Y189.225
G01 X299.694 Y186.956
G01 X297.531 Y184.690
G01 X295.350 Y182.463
G01 X293.128 Y180.258
G01 X290.891 Y178.088
G01 X288.624 Y175.942
G01 X286.333 Y173.821
G01 X284.016 Y171.721
G01 X281.679 Y169.644
G01 X279.314 Y167.610
G01 X276.930 Y165.592
G01 X274.524 Y163.588
G01 X272.085 Y161.643
G01 X269.626 Y159.708
G01 X267.151 Y157.807
G01 X264.643 Y155.933
G01 X262.824 Y154.608
G01 X263.682 Y154.727
G01 X266.770 Y155.222
G01 X269.832 Y155.815
G01 X272.882 Y156.509
G01 X275.898 Y157.300
G01 X278.897 Y158.190
G01 X281.856 Y159.175
G01 X284.790 Y160.258
G01 X287.679 Y161.432
G01 X290.537 Y162.703
G01 X293.353 Y164.066
G01 X296.114 Y165.516
G01 X298.834 Y167.059
G01 X301.496 Y168.684
G01 X304.111 Y170.400
G01 X306.661 Y172.195
G01 X309.159 Y174.077
G01 X311.595 Y176.040
G01 X313.959 Y178.074
G01 X316.262 Y180.190
G01 X318.489 Y182.373
G01 X320.650 Y184.635
G01 X322.730 Y186.958
G01 X324.740 Y189.354
G01 X326.672 Y191.815
G01 X328.516 Y194.329
G01 X330.284 Y196.910
G01 X331.962 Y199.538
G01 X333.558 Y202.228
G01 X335.062 Y204.960
G01 X336.480 Y207.748
G01 X337.804 Y210.572
G01 X339.038 Y213.446
G01 X340.179 Y216.358
G01 X341.222 Y219.297
G01 X342.171 Y222.277
G01 X342.807 Y224.488
G01 X342.167 Y224.991
G01 X339.674 Y226.905
G01 X337.177 Y228.771
G01 X334.656 Y230.601
G01 X332.083 Y232.396
G01 X330.767 Y233.302
G01 X329.976 Y232.009
G01 X328.326 Y229.359
G01 X326.643 Y226.722
G01 X324.929 Y224.112
G01 X323.181 Y221.526
G01 X321.393 Y218.956
G01 X319.593 Y216.411
G01 X317.750 Y213.884
G01 X315.869 Y211.392
G01 X313.987 Y208.899
G01 X312.040 Y206.448
G01 X310.094 Y204.006
G01 X308.105 Y201.596
G01 X306.094 Y199.205
G01 X304.043 Y196.850
G01 X301.973 Y194.515
G01 X299.879 Y192.195
G01 X297.747 Y189.910
G01 X295.601 Y187.645
G01 X293.417 Y185.411
G01 X291.214 Y183.189
G01 X288.968 Y181.021
G01 X286.712 Y178.865
G01 X284.431 Y176.737
G01 X282.117 Y174.633
G01 X279.783 Y172.554
G01 X277.429 Y170.499
G01 X275.040 Y168.484
G01 X272.631 Y166.487
G01 X270.204 Y164.531
G01 X267.745 Y162.608
G01 X265.268 Y160.696
G01 X262.766 Y158.839
G01 X260.247 Y156.988
G01 X257.702 Y155.162
G01 X255.138 Y153.387
G01 X252.551 Y151.633
G01 X250.541 Y150.301
G01 X251.259 Y150.308
G01 X254.379 Y150.396
G01 X257.503 Y150.583
G01 X260.608 Y150.891
G01 X263.705 Y151.272
G01 X266.798 Y151.751
G01 X269.864 Y152.324
G01 X272.921 Y152.996
G01 X275.945 Y153.761
G01 X278.952 Y154.596
G01 X281.924 Y155.576
G01 X284.873 Y156.598
G01 X287.769 Y157.758
G01 X290.657 Y158.966
G01 X293.475 Y160.306
G01 X296.269 Y161.715
G01 X299.022 Y163.184
G01 X301.715 Y164.761
G01 X304.365 Y166.427
G01 X306.954 Y168.169
G01 X309.472 Y170.011
G01 X311.969 Y171.898
G01 X314.383 Y173.876
G01 X316.741 Y175.935
G01 X319.009 Y178.078
G01 X321.244 Y180.255
G01 X323.399 Y182.526
G01 X325.474 Y184.856
G01 X327.457 Y187.266
G01 X329.388 Y189.728
G01 X331.256 Y192.228
G01 X333.029 Y194.807
G01 X334.716 Y197.433
G01 X336.319 Y200.110
G01 X337.843 Y202.844
G01 X339.276 Y205.616
G01 X340.621 Y208.432
G01 X341.882 Y211.298
G01 X343.048 Y214.192
G01 X344.126 Y217.131
G01 X345.109 Y220.093
G01 X345.998 Y223.084
G01 X346.711 Y225.772
G01 X346.432 Y225.996
G01 X343.995 Y227.936
G01 X341.505 Y229.839
G01 X338.989 Y231.705
G01 X336.471 Y233.534
G01 X333.901 Y235.324
G01 X331.329 Y237.070
G01 X329.650 Y238.160
G01 X329.092 Y237.174
G01 X327.465 Y234.501
G01 X325.831 Y231.839
G01 X324.141 Y229.212
G01 X322.437 Y226.592
G01 X320.694 Y223.997
G01 X318.911 Y221.427
G01 X317.109 Y218.875
G01 X315.286 Y216.345
G01 X313.417 Y213.844
G01 X311.520 Y211.356
G01 X309.600 Y208.895
G01 X307.654 Y206.456
G01 X305.676 Y204.033
G01 X303.653 Y201.649
G01 X301.609 Y199.295
G01 X299.552 Y196.940
G01 X297.454 Y194.627
G01 X295.327 Y192.331
G01 X293.169 Y190.081
G01 X290.983 Y187.845
G01 X288.781 Y185.630
G01 X286.549 Y183.451
G01 X284.290 Y181.280
G01 X282.000 Y179.168
G01 X279.687 Y177.060
G01 X277.353 Y174.981
G01 X274.990 Y172.951
G01 X272.606 Y170.918
G01 X270.189 Y168.952
G01 X267.759 Y166.978
G01 X265.300 Y165.067
G01 X262.816 Y163.166
G01 X260.312 Y161.297
G01 X257.790 Y159.460
G01 X255.236 Y157.648
G01 X252.668 Y155.863
G01 X250.080 Y154.125
G01 X247.465 Y152.408
G01 X244.837 Y150.734
G01 X242.176 Y149.078
G01 X239.508 Y147.460
G01 X239.421 Y147.419
G01 X242.441 Y147.152
G01 X245.560 Y146.971
G01 X248.683 Y146.883
G01 X251.808 Y146.891
G01 X254.931 Y146.993
G01 X258.049 Y147.190
G01 X261.160 Y147.481
G01 X264.261 Y147.866
G01 X267.348 Y148.345
G01 X270.420 Y148.917
G01 X273.463 Y149.580
G01 X276.495 Y150.337
G01 X279.502 Y151.185
G01 X282.482 Y152.124
G01 X285.432 Y153.153
G01 X288.350 Y154.271
G01 X291.232 Y155.477
G01 X294.077 Y156.769
G01 X296.881 Y158.147
G01 X299.643 Y159.610
G01 X302.358 Y161.155
G01 X305.026 Y162.782
G01 X307.643 Y164.489
G01 X310.207 Y166.275
G01 X312.708 Y168.131
G01 X315.159 Y170.068
G01 X317.551 Y172.079
G01 X319.880 Y174.161
G01 X322.146 Y176.313
G01 X324.345 Y178.533
G01 X326.476 Y180.818
G01 X328.537 Y183.166
G01 X330.526 Y185.576
G01 X332.440 Y188.045
G01 X334.279 Y190.571
G01 X336.041 Y193.152
G01 X337.724 Y195.785
G01 X339.326 Y198.467
G01 X340.841 Y201.188
G01 X342.278 Y203.962
G01 X343.631 Y206.779
G01 X344.897 Y209.636
G01 X346.077 Y212.529
G01 X347.168 Y215.457
G01 X348.170 Y218.417
G01 X349.081 Y221.405
G01 X349.902 Y224.420
G01 X350.545 Y227.076
G01 X350.242 Y227.324
G01 X347.806 Y229.290
G01 X345.368 Y231.217
G01 X342.877 Y233.112
G01 X340.358 Y234.967
G01 X337.811 Y236.786
G01 X335.261 Y238.561
G01 X332.658 Y240.304
G01 X330.027 Y242.006
G01 X328.487 Y242.983
G01 X327.851 Y241.861
G01 X326.260 Y239.170
G01 X324.663 Y236.493
G01 X323.007 Y233.838
G01 X321.340 Y231.200
G01 X319.631 Y228.585
G01 X317.903 Y225.983
G01 X316.131 Y223.413
G01 X314.309 Y220.867
G01 X312.484 Y218.334
G01 X310.607 Y215.831
G01 X308.722 Y213.342
G01 X306.808 Y210.879
G01 X304.839 Y208.453
G01 X302.858 Y206.039
G01 X300.841 Y203.646
G01 X298.796 Y201.286
G01 X296.724 Y198.955
G01 X294.615 Y196.646
G01 X292.497 Y194.345
G01 X290.339 Y192.090
G01 X288.155 Y189.857
G01 X285.933 Y187.665
G01 X283.703 Y185.472
G01 X281.427 Y183.336
G01 X279.143 Y181.192
G01 X276.825 Y179.105
G01 X274.478 Y177.047
G01 X272.109 Y175.017
G01 X269.719 Y173.010
G01 X267.299 Y171.022
G01 X264.854 Y169.077
G01 X262.397 Y167.147
G01 X259.901 Y165.277
G01 X257.389 Y163.415
G01 X254.853 Y161.583
G01 X252.304 Y159.779
G01 X249.718 Y158.025
G01 X247.125 Y156.294
G01 X244.501 Y154.583
G01 X241.858 Y152.916
G01 X239.201 Y151.289
G01 X236.513 Y149.703
G01 X233.859 Y148.146
G01 X233.910 Y148.138
G01 X237.003 Y147.697
G01 X240.108 Y147.351
G01 X243.224 Y147.123
G01 X246.344 Y146.965
G01 X249.467 Y146.901
G01 X252.591 Y146.933
G01 X255.712 Y147.058
G01 X258.826 Y147.304
G01 X261.933 Y147.618
G01 X265.029 Y148.027
G01 X268.112 Y148.529
G01 X271.178 Y149.124
G01 X274.224 Y149.812
G01 X277.241 Y150.616
G01 X280.240 Y151.487
G01 X283.210 Y152.448
G01 X286.160 Y153.503
G01 X289.067 Y154.642
G01 X291.938 Y155.870
G01 X294.770 Y157.183
G01 X297.550 Y158.605
G01 X300.297 Y160.087
G01 X303.007 Y161.657
G01 X305.659 Y163.304
G01 X308.260 Y165.030
G01 X310.807 Y166.834
G01 X313.307 Y168.721
G01 X315.740 Y170.676
G01 X318.097 Y172.723
G01 X320.407 Y174.821
G01 X322.659 Y176.996
G01 X324.838 Y179.231
G01 X326.947 Y181.530
G01 X328.986 Y183.893
G01 X330.959 Y186.324
G01 X332.851 Y188.806
G01 X334.667 Y191.344
G01 X336.411 Y193.945
G01 X338.069 Y196.588
G01 X339.647 Y199.281
G01 X341.147 Y202.029
G01 X342.559 Y204.813
G01 X343.885 Y207.637
G01 X345.129 Y210.511
G01 X346.282 Y213.411
G01 X347.346 Y216.345
G01 X348.324 Y219.319
G01 X349.209 Y222.312
G01 X350.002 Y225.330
G01 X350.411 Y227.054
G01 X349.318 Y227.888
G01 X346.869 Y229.812
G01 X344.400 Y231.741
G01 X342.404 Y233.303
G01 X342.699 Y233.824
G01 X344.197 Y236.566
G01 X344.204 Y236.613
G01 X346.650 Y234.723
G01 X349.088 Y232.770
G01 X351.498 Y230.789
G01 X353.878 Y228.773
G01 X356.231 Y226.728
G01 X358.580 Y224.649
G01 X360.876 Y222.542
G01 X363.143 Y220.402
G01 X365.406 Y218.226
G01 X367.614 Y216.018
G01 X369.796 Y213.786
G01 X371.951 Y211.531
G01 X374.074 Y209.232
G01 X376.171 Y206.915
G01 X378.241 Y204.569
G01 X380.254 Y202.193
G01 X382.263 Y199.783
G01 X383.353 Y198.436
G01 X383.546 Y198.729
G01 X382.894 Y199.543
G01 X380.911 Y201.952
G01 X378.905 Y204.349
G01 X376.866 Y206.706
G01 X374.771 Y209.031
G01 X372.651 Y211.337
G01 X370.521 Y213.593
G01 X368.342 Y215.834
G01 X366.108 Y218.045
G01 X363.868 Y220.212
G01 X361.601 Y222.350
G01 X359.278 Y224.452
G01 X356.954 Y226.525
G01 X354.576 Y228.566
G01 X352.193 Y230.562
G01 X349.757 Y232.530
G01 X347.292 Y234.462
G01 X344.823 Y236.351
G01 X342.301 Y238.218
G01 X339.773 Y240.034
G01 X337.193 Y241.827
G01 X334.606 Y243.569
G01 X331.989 Y245.275
G01 X329.366 Y246.946
G01 X326.687 Y248.584
G01 X324.000 Y250.173
G01 X321.304 Y251.728
G01 X318.573 Y253.241
G01 X315.806 Y254.715
G01 X313.026 Y256.148
G01 X310.230 Y257.540
G01 X307.416 Y258.891
G01 X304.579 Y260.205
G01 X301.743 Y261.475
G01 X298.851 Y262.700
G01 X295.972 Y263.891
G01 X295.230 Y264.177
G01 X294.084 Y262.141
G01 X292.551 Y259.499
G01 X292.514 Y259.442
G01 X292.347 Y259.156
G01 X291.846 Y261.223
G01 X291.668 Y261.866
G01 X291.052 Y263.902
G01 X290.729 Y264.846
G01 X289.951 Y266.826
G01 X289.553 Y267.741
G01 X288.651 Y269.669
G01 X288.279 Y270.399
G01 X288.450 Y270.343
G01 X291.325 Y269.331
G01 X291.396 Y269.303
G01 X294.327 Y268.218
G01 X297.227 Y267.092
G01 X300.132 Y265.923
G01 X303.021 Y264.716
G01 X305.876 Y263.463
G01 X308.727 Y262.170
G01 X311.528 Y260.836
G01 X314.333 Y259.462
G01 X317.119 Y258.048
G01 X319.890 Y256.592
G01 X322.646 Y255.096
G01 X325.366 Y253.563
G01 X328.050 Y251.986
G01 X330.724 Y250.374
G01 X333.390 Y248.719
G01 X335.999 Y247.026
G01 X338.601 Y245.303
G01 X341.196 Y243.536
G01 X343.736 Y241.733
G01 X346.271 Y239.897
G01 X348.750 Y238.016
G01 X351.225 Y236.100
G01 X353.671 Y234.155
G01 X356.088 Y232.175
G01 X358.474 Y230.153
G01 X360.832 Y228.102
G01 X363.161 Y226.015
G01 X365.436 Y223.899
G01 X367.707 Y221.748
G01 X369.947 Y219.556
G01 X372.135 Y217.344
G01 X374.316 Y215.090
G01 X376.444 Y212.809
G01 X378.542 Y210.496
G01 X380.610 Y208.153
G01 X382.649 Y205.781
G01 X384.631 Y203.379
G01 X384.655 Y203.370
G01 X385.639 Y206.317
G01 X386.563 Y209.298
G01 X387.422 Y212.298
G01 X388.218 Y215.330
G01 X388.944 Y218.365
G01 X389.604 Y221.415
G01 X390.196 Y224.479
G01 X390.721 Y227.555
G01 X391.181 Y230.656
G01 X391.571 Y233.753
G01 X391.893 Y236.857
G01 X392.146 Y239.967
G01 X392.333 Y243.096
G01 X392.450 Y246.215
G01 X392.498 Y249.335
G01 X392.479 Y252.456
G01 X392.391 Y255.575
G01 X392.234 Y258.706
G01 X392.009 Y261.819
G01 X391.716 Y264.926
G01 X391.355 Y268.026
G01 X390.925 Y271.131
G01 X390.428 Y274.212
G01 X389.864 Y277.281
G01 X389.233 Y280.337
G01 X388.536 Y283.379
G01 X387.768 Y286.418
G01 X386.937 Y289.427
G01 X386.041 Y292.416
G01 X385.080 Y295.385
G01 X384.048 Y298.345
G01 X382.958 Y301.269
G01 X381.803 Y304.168
G01 X380.585 Y307.042
G01 X379.299 Y309.900
G01 X377.956 Y312.717
G01 X376.552 Y315.504
G01 X375.087 Y318.260
G01 X373.563 Y320.983
G01 X371.971 Y323.684
G01 X370.328 Y326.337
G01 X368.628 Y328.954
G01 X366.870 Y331.533
G01 X365.049 Y334.084
G01 X363.180 Y336.583
G01 X361.257 Y339.041
G01 X359.280 Y341.456
G01 X357.251 Y343.827
G01 X355.161 Y346.163
G01 X353.030 Y348.443
G01 X350.850 Y350.676
G01 X348.621 Y352.860
G01 X346.334 Y355.005
G01 X344.012 Y357.089
G01 X341.644 Y359.122
G01 X339.233 Y361.103
G01 X336.778 Y363.030
G01 X334.271 Y364.912
G01 X331.734 Y366.729
G01 X329.158 Y368.491
G01 X326.545 Y370.196
G01 X323.882 Y371.851
G01 X321.196 Y373.440
G01 X318.476 Y374.969
G01 X315.723 Y376.439
G01 X312.938 Y377.848
G01 X310.111 Y379.201
G01 X307.267 Y380.487
G01 X304.396 Y381.709
G01 X301.499 Y382.869
G01 X298.563 Y383.970
G01 X295.618 Y385.001
G01 X292.651 Y385.968
G01 X289.663 Y386.869
G01 X286.656 Y387.705
G01 X283.618 Y388.478
G01 X280.578 Y389.181
G01 X277.522 Y389.817
G01 X274.454 Y390.386
G01 X271.360 Y390.890
G01 X268.270 Y391.324
G01 X265.170 Y391.690
G01 X262.064 Y391.988
G01 X258.938 Y392.219
G01 X255.821 Y392.381
G01 X252.702 Y392.474
G01 X249.581 Y392.499
G01 X246.461 Y392.456
G01 X243.328 Y392.344
G01 X240.212 Y392.163
G01 X237.102 Y391.915
G01 X233.997 Y391.599
G01 X230.886 Y391.212
G01 X227.798 Y390.760
G01 X226.954 Y390.624
G01 X226.147 Y388.511
G01 X225.085 Y385.580
G01 X224.051 Y382.610
G01 X223.064 Y379.657
G01 X222.134 Y376.671
G01 X221.233 Y373.673
G01 X220.376 Y370.667
G01 X219.565 Y367.652
G01 X218.801 Y364.630
G01 X218.074 Y361.598
G01 X217.406 Y358.536
G01 X216.773 Y355.491
G01 X216.183 Y352.411
G01 X215.633 Y349.349
G01 X215.142 Y346.258
G01 X214.687 Y343.156
G01 X214.279 Y340.076
G01 X214.104 Y338.524
G01 X214.853 Y338.448
G01 X215.892 Y338.452
G01 X219.015 Y338.482
G01 X222.128 Y338.489
G01 X225.258 Y338.455
G01 X228.380 Y338.369
G01 X231.499 Y338.257
G01 X234.621 Y338.093
G01 X237.744 Y337.900
G01 X240.854 Y337.674
G01 X243.964 Y337.417
G01 X247.078 Y337.101
G01 X250.188 Y336.775
G01 X253.281 Y336.388
G01 X256.380 Y335.989
G01 X259.469 Y335.527
G01 X262.556 Y335.053
G01 X265.638 Y334.515
G01 X268.711 Y333.965
G01 X271.784 Y333.376
G01 X274.837 Y332.727
G01 X277.886 Y332.066
G01 X280.931 Y331.369
G01 X283.965 Y330.612
G01 X286.993 Y329.847
G01 X290.009 Y329.024
G01 X293.008 Y328.175
G01 X293.612 Y328.012
G01 X291.411 Y329.202
G01 X288.614 Y330.603
G01 X285.778 Y331.901
G01 X282.890 Y333.103
G01 X279.971 Y334.200
G01 X277.006 Y335.197
G01 X274.017 Y336.088
G01 X270.989 Y336.875
G01 X267.945 Y337.555
G01 X264.871 Y338.129
G01 X261.786 Y338.594
G01 X258.679 Y338.953
G01 X255.570 Y339.201
G01 X252.445 Y339.342
G01 X249.326 Y339.372
G01 X246.199 Y339.294
G01 X243.077 Y339.106
G01 X239.972 Y338.811
G01 X236.870 Y338.405
G01 X233.794 Y337.893
G01 X231.873 Y337.517
G01 X231.733 Y336.364
G01 X231.573 Y334.898
G01 X233.237 Y334.809
G01 X236.348 Y334.631
G01 X239.469 Y334.396
G01 X242.583 Y334.124
G01 X245.685 Y333.814
G01 X248.794 Y333.491
G01 X251.892 Y333.103
G01 X254.990 Y332.700
G01 X258.084 Y332.254
G01 X261.169 Y331.766
G01 X264.255 Y331.259
G01 X267.326 Y330.711
G01 X270.395 Y330.120
G01 X273.457 Y329.486
G01 X276.508 Y328.838
G01 X279.555 Y328.148
G01 X282.590 Y327.393
G01 X285.614 Y326.628
G01 X288.636 Y325.824
G01 X291.646 Y324.987
G01 X294.646 Y324.117
G01 X297.633 Y323.220
G01 X300.625 Y322.285
G01 X303.589 Y321.309
G01 X306.532 Y320.286
G01 X309.473 Y319.240
G01 X312.414 Y318.168
G01 X313.369 Y317.796
G01 X311.837 Y319.229
G01 X309.461 Y321.248
G01 X307.042 Y323.231
G01 X304.549 Y325.106
G01 X301.988 Y326.901
G01 X299.367 Y328.609
G01 X296.699 Y330.223
G01 X293.969 Y331.751
G01 X291.198 Y333.182
G01 X288.372 Y334.523
G01 X285.493 Y335.744
G01 X282.601 Y336.912
G01 X279.646 Y337.937
G01 X276.675 Y338.883
G01 X273.672 Y339.756
G01 X270.643 Y340.501
G01 X267.582 Y341.145
G01 X264.501 Y341.685
G01 X261.410 Y342.096
G01 X258.302 Y342.453
G01 X255.192 Y342.680
G01 X252.066 Y342.802
G01 X248.938 Y342.819
G01 X245.822 Y342.706
G01 X242.701 Y342.512
G01 X239.594 Y342.240
G01 X236.496 Y341.812
G01 X233.410 Y341.305
G01 X230.347 Y340.721
G01 X228.777 Y340.341
G01 X228.581 Y338.855
G01 X228.211 Y335.750
G01 X227.888 Y332.643
G01 X227.790 Y331.633
G01 X229.889 Y331.531
G01 X233.005 Y331.395
G01 X236.125 Y331.198
G01 X239.247 Y330.964
G01 X242.357 Y330.689
G01 X245.466 Y330.397
G01 X248.572 Y330.062
G01 X251.671 Y329.682
G01 X254.766 Y329.257
G01 X257.856 Y328.809
G01 X260.949 Y328.339
G01 X264.029 Y327.821
G01 X267.102 Y327.255
G01 X270.170 Y326.666
G01 X273.225 Y326.032
G01 X276.278 Y325.349
G01 X279.320 Y324.648
G01 X282.365 Y323.926
G01 X285.382 Y323.141
G01 X288.404 Y322.338
G01 X291.410 Y321.499
G01 X294.410 Y320.622
G01 X297.388 Y319.690
G01 X300.372 Y318.745
G01 X303.332 Y317.753
G01 X306.284 Y316.733
G01 X309.232 Y315.688
G01 X312.161 Y314.600
G01 X315.072 Y313.470
G01 X317.966 Y312.301
G01 X320.858 Y311.118
G01 X323.742 Y309.893
G01 X326.200 Y308.802
G01 X325.940 Y309.137
G01 X323.985 Y311.566
G01 X321.945 Y313.937
G01 X319.829 Y316.241
G01 X317.647 Y318.469
G01 X315.386 Y320.631
G01 X313.064 Y322.712
G01 X310.668 Y324.723
G01 X308.216 Y326.649
G01 X305.694 Y328.500
G01 X303.114 Y330.268
G01 X300.486 Y331.947
G01 X297.796 Y333.544
G01 X295.065 Y335.048
G01 X292.278 Y336.468
G01 X289.454 Y337.792
G01 X286.581 Y339.028
G01 X283.678 Y340.166
G01 X280.730 Y341.213
G01 X277.750 Y342.163
G01 X274.750 Y343.014
G01 X271.714 Y343.769
G01 X268.665 Y344.423
G01 X265.587 Y344.979
G01 X262.502 Y345.435
G01 X259.395 Y345.790
G01 X256.277 Y346.045
G01 X253.162 Y346.198
G01 X250.035 Y346.250
G01 X246.917 Y346.201
G01 X243.792 Y346.050
G01 X240.684 Y345.798
G01 X237.576 Y345.445
G01 X234.481 Y344.991
G01 X231.412 Y344.438
G01 X228.354 Y343.784
G01 X225.690 Y343.129
G01 X225.639 Y342.754
G01 X225.211 Y339.661
G01 X224.841 Y336.568
G01 X224.513 Y333.444
G01 X224.233 Y330.344
G01 X224.077 Y328.295
G01 X225.147 Y328.274
G01 X228.272 Y328.161
G01 X231.395 Y328.038
G01 X234.516 Y327.850
G01 X237.626 Y327.645
G01 X240.743 Y327.398
G01 X243.854 Y327.105
G01 X246.963 Y326.765
G01 X250.066 Y326.425
G01 X253.161 Y326.009
G01 X256.255 Y325.592
G01 X259.342 Y325.096
G01 X262.426 Y324.597
G01 X265.501 Y324.045
G01 X268.568 Y323.465
G01 X271.635 Y322.856
G01 X274.686 Y322.196
G01 X277.733 Y321.511
G01 X280.774 Y320.774
G01 X283.802 Y320.018
G01 X286.825 Y319.213
G01 X289.827 Y318.371
G01 X292.824 Y317.484
G01 X295.815 Y316.586
G01 X298.802 Y315.647
G01 X301.761 Y314.659
G01 X304.709 Y313.642
G01 X307.655 Y312.593
G01 X310.597 Y311.517
G01 X313.500 Y310.382
G01 X316.401 Y309.224
G01 X319.303 Y308.046
G01 X322.169 Y306.817
G01 X325.018 Y305.556
G01 X327.879 Y304.273
G01 X330.706 Y302.949
G01 X333.504 Y301.580
G01 X336.049 Y300.306
G01 X335.934 Y300.551
G01 X334.305 Y303.224
G01 X332.577 Y305.822
G01 X330.784 Y308.387
G01 X328.917 Y310.887
G01 X326.992 Y313.342
G01 X324.947 Y315.712
G01 X322.872 Y318.042
G01 X320.689 Y320.272
G01 X318.466 Y322.475
G01 X316.147 Y324.563
G01 X313.774 Y326.603
G01 X311.345 Y328.561
G01 X308.872 Y330.463
G01 X306.302 Y332.251
G01 X303.701 Y333.972
G01 X301.059 Y335.633
G01 X298.334 Y337.172
G01 X295.593 Y338.664
G01 X292.787 Y340.052
G01 X289.938 Y341.324
G01 X287.070 Y342.552
G01 X284.137 Y343.647
G01 X281.198 Y344.693
G01 X278.212 Y345.599
G01 X275.203 Y346.462
G01 X272.172 Y347.203
G01 X269.109 Y347.852
G01 X266.038 Y348.402
G01 X262.950 Y348.855
G01 X259.838 Y349.188
G01 X256.731 Y349.473
G01 X253.614 Y349.634
G01 X250.485 Y349.674
G01 X247.365 Y349.640
G01 X244.237 Y349.533
G01 X241.125 Y349.304
G01 X238.021 Y348.978
G01 X234.920 Y348.553
G01 X231.843 Y348.033
G01 X228.784 Y347.416
G01 X225.742 Y346.678
G01 X222.722 Y345.896
G01 X222.626 Y345.868
G01 X222.180 Y342.873
G01 X221.766 Y339.764
G01 X221.389 Y336.675
G01 X221.067 Y333.558
G01 X220.798 Y330.438
G01 X220.568 Y327.339
G01 X220.428 Y324.898
G01 X221.126 Y324.902
G01 X224.252 Y324.845
G01 X227.373 Y324.750
G01 X230.498 Y324.619
G01 X233.610 Y324.468
G01 X236.731 Y324.249
G01 X239.847 Y324.007
G01 X242.956 Y323.739
G01 X246.065 Y323.420
G01 X249.164 Y323.070
G01 X252.265 Y322.665
G01 X255.359 Y322.226
G01 X258.448 Y321.780
G01 X261.536 Y321.272
G01 X264.608 Y320.732
G01 X267.673 Y320.132
G01 X270.736 Y319.523
G01 X273.798 Y318.880
G01 X276.843 Y318.181
G01 X279.878 Y317.454
G01 X282.909 Y316.698
G01 X285.932 Y315.889
G01 X288.930 Y315.039
G01 X291.927 Y314.167
G01 X294.928 Y313.271
G01 X297.902 Y312.316
G01 X300.861 Y311.329
G01 X303.830 Y310.325
G01 X306.755 Y309.254
G01 X309.691 Y308.174
G01 X312.603 Y307.052
G01 X315.500 Y305.883
G01 X318.390 Y304.700
G01 X321.273 Y303.470
G01 X324.112 Y302.200
G01 X326.965 Y300.903
G01 X329.781 Y299.568
G01 X332.591 Y298.196
G01 X335.392 Y296.798
G01 X338.163 Y295.366
G01 X340.907 Y293.895
G01 X343.653 Y292.390
G01 X344.127 Y292.129
G01 X343.040 Y294.478
G01 X341.650 Y297.276
G01 X340.176 Y300.031
G01 X338.619 Y302.740
G01 X336.980 Y305.401
G01 X335.262 Y308.010
G01 X333.465 Y310.567
G01 X331.592 Y313.067
G01 X329.644 Y315.510
G01 X327.623 Y317.893
G01 X325.537 Y320.206
G01 X323.376 Y322.462
G01 X321.147 Y324.652
G01 X318.852 Y326.773
G01 X316.495 Y328.824
G01 X314.076 Y330.802
G01 X311.599 Y332.706
G01 X309.065 Y334.534
G01 X306.477 Y336.285
G01 X303.837 Y337.956
G01 X301.148 Y339.547
G01 X298.411 Y341.055
G01 X295.631 Y342.480
G01 X292.808 Y343.820
G01 X289.956 Y345.070
G01 X287.057 Y346.237
G01 X284.124 Y347.315
G01 X281.161 Y348.305
G01 X278.168 Y349.203
G01 X275.150 Y350.011
G01 X272.108 Y350.727
G01 X269.047 Y351.351
G01 X265.967 Y351.881
G01 X262.874 Y352.318
G01 X259.768 Y352.661
G01 X256.653 Y352.910
G01 X253.533 Y353.064
G01 X250.409 Y353.124
G01 X247.294 Y353.090
G01 X244.173 Y352.960
G01 X241.056 Y352.736
G01 X237.948 Y352.418
G01 X234.850 Y352.006
G01 X231.767 Y351.500
G01 X228.700 Y350.901
G01 X225.653 Y350.210
G01 X222.629 Y349.426
G01 X219.629 Y348.551
G01 X219.590 Y348.539
G01 X219.099 Y345.500
G01 X218.646 Y342.400
G01 X218.239 Y339.321
G01 X217.880 Y336.211
G01 X217.574 Y333.098
G01 X217.317 Y329.980
G01 X217.093 Y326.878
G01 X216.929 Y323.750
G01 X216.833 Y321.480
G01 X217.679 Y321.483
G01 X220.804 Y321.466
G01 X223.928 Y321.415
G01 X227.055 Y321.325
G01 X230.172 Y321.190
G01 X233.290 Y321.036
G01 X236.411 Y320.833
G01 X239.522 Y320.602
G01 X242.637 Y320.316
G01 X245.743 Y319.996
G01 X248.848 Y319.640
G01 X251.944 Y319.248
G01 X255.037 Y318.816
G01 X258.127 Y318.343
G01 X261.208 Y317.830
G01 X264.280 Y317.276
G01 X267.357 Y316.704
G01 X270.413 Y316.068
G01 X273.469 Y315.417
G01 X276.514 Y314.730
G01 X279.543 Y313.984
G01 X282.576 Y313.226
G01 X285.592 Y312.415
G01 X288.608 Y311.572
G01 X291.602 Y310.684
G01 X294.593 Y309.773
G01 X297.550 Y308.806
G01 X300.518 Y307.813
G01 X303.467 Y306.791
G01 X306.413 Y305.733
G01 X309.332 Y304.627
G01 X312.246 Y303.495
G01 X315.137 Y302.323
G01 X318.032 Y301.124
G01 X320.887 Y299.876
G01 X323.748 Y298.606
G01 X326.575 Y297.290
G01 X329.393 Y295.937
G01 X332.200 Y294.558
G01 X334.978 Y293.138
G01 X337.750 Y291.690
G01 X340.494 Y290.210
G01 X343.237 Y288.700
G01 X345.934 Y287.147
G01 X346.279 Y286.949
G01 X345.266 Y289.487
G01 X344.026 Y292.355
G01 X342.677 Y295.173
G01 X341.266 Y297.960
G01 X339.771 Y300.703
G01 X338.194 Y303.399
G01 X336.515 Y306.033
G01 X334.777 Y308.628
G01 X332.962 Y311.170
G01 X331.071 Y313.655
G01 X329.105 Y316.082
G01 X327.067 Y318.448
G01 X324.940 Y320.734
G01 X322.763 Y322.972
G01 X320.518 Y325.143
G01 X318.202 Y327.252
G01 X315.830 Y329.282
G01 X313.398 Y331.240
G01 X310.908 Y333.124
G01 X308.347 Y334.910
G01 X305.748 Y336.639
G01 X303.089 Y338.293
G01 X300.390 Y339.861
G01 X297.644 Y341.346
G01 X294.855 Y342.748
G01 X292.015 Y344.068
G01 X289.146 Y345.298
G01 X286.241 Y346.440
G01 X283.303 Y347.494
G01 X280.324 Y348.461
G01 X277.327 Y349.335
G01 X274.305 Y350.117
G01 X271.261 Y350.807
G01 X268.187 Y351.407
G01 X265.107 Y351.911
G01 X262.012 Y352.322
G01 X258.907 Y352.639
G01 X255.783 Y352.863
G01 X252.664 Y352.991
G01 X249.543 Y353.024
G01 X246.422 Y352.963
G01 X243.294 Y352.807
G01 X240.182 Y352.556
G01 X237.080 Y352.212
G01 X233.989 Y351.773
G01 X230.913 Y351.242
G01 X227.845 Y350.615
G01 X224.807 Y349.897
G01 X221.785 Y349.112
G01 X218.796 Y348.212
G01 X218.707 Y348.184
G01 X218.295 Y345.183
G01 X217.869 Y342.080
G01 X217.534 Y339.653
G01 X216.874 Y339.624
G01 X215.003 Y339.608
G01 X214.006 Y337.755
G01 X213.937 Y337.105
G01 X213.613 Y334.008
G01 X213.350 Y330.884
G01 X213.116 Y327.772
G01 X212.942 Y324.659
G01 X212.809 Y321.535
G01 X212.725 Y318.403
G01 X212.678 Y315.285
G01 X212.685 Y312.160
G01 X212.730 Y309.047
G01 X212.828 Y305.923
G01 X212.983 Y302.790
G01 X213.161 Y299.682
G01 X213.402 Y296.564
G01 X213.684 Y293.446
G01 X214.002 Y290.352
G01 X214.386 Y287.236
G01 X214.792 Y284.151
G01 X215.107 Y282.082
G01 X216.150 Y282.100
G01 X219.264 Y282.110
G01 X220.897 Y282.095
G01 X219.808 Y281.072
G01 X218.307 Y279.565
G01 X217.629 Y278.833
G01 X216.253 Y277.210
G01 X215.639 Y276.430
G01 X214.369 Y274.722
G01 X213.803 Y273.899
G01 X213.194 Y272.950
G01 X212.824 Y274.910
G01 X212.276 Y277.991
G01 X211.784 Y281.066
G01 X211.325 Y284.158
G01 X210.913 Y287.259
G01 X210.540 Y290.367
G01 X210.222 Y293.473
G01 X209.950 Y296.573
G01 X209.716 Y299.699
G01 X209.537 Y302.805
G01 X209.391 Y305.939
G01 X209.298 Y309.058
G01 X209.240 Y312.181
G01 X209.240 Y315.298
G01 X209.285 Y318.428
G01 X209.374 Y321.545
G01 X209.501 Y324.675
G01 X209.674 Y327.794
G01 X209.900 Y330.908
G01 X210.168 Y334.011
G01 X210.478 Y337.131
G01 X210.828 Y340.240
G01 X211.242 Y343.322
G01 X211.687 Y346.417
G01 X212.178 Y349.504
G01 X212.712 Y352.583
G01 X213.297 Y355.657
G01 X213.919 Y358.719
G01 X214.593 Y361.750
G01 X215.312 Y364.799
G01 X216.060 Y367.835
G01 X216.869 Y370.867
G01 X217.720 Y373.863
G01 X218.603 Y376.847
G01 X219.542 Y379.825
G01 X220.523 Y382.793
G01 X221.529 Y385.746
G01 X222.601 Y388.695
G01 X223.054 Y389.929
G01 X221.293 Y389.579
G01 X218.230 Y388.913
G01 X215.195 Y388.184
G01 X212.178 Y387.389
G01 X209.178 Y386.528
G01 X206.185 Y385.597
G01 X203.226 Y384.605
G01 X200.290 Y383.548
G01 X197.377 Y382.428
G01 X194.490 Y381.244
G01 X191.616 Y379.991
G01 X188.783 Y378.681
G01 X185.980 Y377.310
G01 X183.208 Y375.877
G01 X180.455 Y374.377
G01 X177.748 Y372.825
G01 X175.076 Y371.213
G01 X172.439 Y369.543
G01 X169.840 Y367.816
G01 X167.268 Y366.024
G01 X164.747 Y364.185
G01 X162.267 Y362.290
G01 X159.829 Y360.342
G01 X157.423 Y358.332
G01 X155.073 Y356.279
G01 X152.769 Y354.174
G01 X150.511 Y352.020
G01 X148.301 Y349.817
G01 X146.129 Y347.556
G01 X144.018 Y345.258
G01 X141.957 Y342.914
G01 X139.949 Y340.526
G01 X137.984 Y338.083
G01 X136.082 Y335.609
G01 X134.234 Y333.094
G01 X132.443 Y330.539
G01 X130.699 Y327.933
G01 X129.021 Y325.302
G01 X127.401 Y322.635
G01 X125.840 Y319.933
G01 X124.339 Y317.197
G01 X122.891 Y314.417
G01 X121.511 Y311.618
G01 X120.192 Y308.789
G01 X118.936 Y305.933
G01 X117.737 Y303.036
G01 X116.608 Y300.127
G01 X115.542 Y297.194
G01 X114.541 Y294.238
G01 X113.604 Y291.261
G01 X112.730 Y288.251
G01 X111.925 Y285.235
G01 X111.186 Y282.203
G01 X110.515 Y279.156
G01 X109.907 Y276.080
G01 X109.369 Y273.006
G01 X108.899 Y269.921
G01 X108.497 Y266.827
G01 X108.162 Y263.724
G01 X107.895 Y260.600
G01 X107.697 Y257.486
G01 X107.567 Y254.368
G01 X107.505 Y251.248
G01 X107.512 Y248.113
G01 X107.588 Y244.993
G01 X107.732 Y241.876
G01 X107.944 Y238.762
G01 X108.224 Y235.654
G01 X108.574 Y232.539
G01 X108.990 Y229.446
G01 X109.474 Y226.363
G01 X110.025 Y223.292
G01 X110.647 Y220.219
G01 X111.332 Y217.174
G01 X112.084 Y214.146
G01 X112.903 Y211.134
G01 X113.787 Y208.141
G01 X114.740 Y205.155
G01 X115.755 Y202.204
G01 X116.834 Y199.276
G01 X117.976 Y196.372
G01 X119.188 Y193.480
G01 X120.457 Y190.629
G01 X121.788 Y187.807
G01 X123.181 Y185.014
G01 X124.641 Y182.240
G01 X126.155 Y179.511
G01 X127.728 Y176.816
G01 X129.360 Y174.156
G01 X131.050 Y171.532
G01 X132.805 Y168.935
G01 X134.608 Y166.388
G01 X136.467 Y163.881
G01 X138.380 Y161.415
G01 X139.703 Y159.773
G01 X140.704 Y159.933
G01 X143.793 Y160.444
G01 X146.865 Y161.003
G01 X149.919 Y161.611
G01 X152.990 Y162.264
G01 X156.021 Y162.950
G01 X159.058 Y163.695
G01 X162.080 Y164.483
G01 X165.094 Y165.307
G01 X168.107 Y166.194
G01 X171.082 Y167.110
G01 X174.044 Y168.066
G01 X177.015 Y169.075
G01 X179.961 Y170.136
G01 X182.877 Y171.217
G01 X185.795 Y172.358
G01 X188.695 Y173.543
G01 X190.505 Y174.308
G01 X190.934 Y175.085
G01 X189.339 Y177.768
G01 X187.784 Y180.472
G01 X186.265 Y183.204
G01 X184.781 Y185.965
G01 X183.312 Y188.710
G01 X181.897 Y191.506
G01 X180.494 Y194.293
G01 X179.140 Y197.105
G01 X177.810 Y199.937
G01 X176.514 Y202.779
G01 X175.250 Y205.634
G01 X174.017 Y208.506
G01 X172.818 Y211.390
G01 X171.657 Y214.284
G01 X170.528 Y217.199
G01 X169.411 Y220.121
G01 X168.356 Y223.058
G01 X167.335 Y226.011
G01 X166.327 Y228.970
G01 X165.380 Y231.943
G01 X164.443 Y234.922
G01 X163.565 Y237.921
G01 X162.696 Y240.919
G01 X161.884 Y243.933
G01 X161.077 Y246.963
G01 X160.634 Y248.763
G01 X160.660 Y247.503
G01 X160.802 Y244.378
G01 X161.052 Y241.269
G01 X161.412 Y238.162
G01 X161.879 Y235.078
G01 X162.456 Y232.004
G01 X163.139 Y228.951
G01 X163.926 Y225.933
G01 X164.821 Y222.936
G01 X165.817 Y219.980
G01 X166.919 Y217.053
G01 X168.120 Y214.174
G01 X169.423 Y211.331
G01 X170.822 Y208.543
G01 X172.321 Y205.798
G01 X173.911 Y203.114
G01 X175.598 Y200.480
G01 X177.371 Y197.914
G01 X179.238 Y195.405
G01 X181.186 Y192.969
G01 X183.224 Y190.596
G01 X183.272 Y190.542
G01 X185.690 Y191.592
G01 X185.491 Y191.962
G01 X184.088 Y194.759
G01 X182.721 Y197.564
G01 X181.378 Y200.392
G01 X180.076 Y203.228
G01 X178.806 Y206.082
G01 X177.553 Y208.938
G01 X176.357 Y211.825
G01 X175.177 Y214.716
G01 X174.035 Y217.628
G01 X172.936 Y220.548
G01 X171.852 Y223.482
G01 X170.834 Y226.432
G01 X169.808 Y229.383
G01 X168.845 Y232.359
G01 X167.924 Y235.341
G01 X167.016 Y238.336
G01 X166.146 Y241.337
G01 X165.313 Y244.348
G01 X164.540 Y247.372
G01 X163.776 Y250.402
G01 X163.043 Y253.442
G01 X162.365 Y256.484
G01 X161.714 Y259.542
G01 X161.088 Y262.598
G01 X160.512 Y265.671
G01 X159.956 Y268.746
G01 X159.578 Y270.986
G01 X159.389 Y270.154
G01 X158.762 Y267.089
G01 X158.239 Y264.015
G01 X157.819 Y260.915
G01 X157.504 Y257.812
G01 X157.294 Y254.691
G01 X157.188 Y251.565
G01 X157.188 Y248.446
G01 X157.293 Y245.320
G01 X157.503 Y242.208
G01 X157.818 Y239.096
G01 X158.237 Y235.996
G01 X158.760 Y232.921
G01 X159.387 Y229.857
G01 X160.115 Y226.824
G01 X160.947 Y223.809
G01 X161.880 Y220.823
G01 X162.933 Y217.888
G01 X164.041 Y214.963
G01 X165.267 Y212.095
G01 X166.592 Y209.262
G01 X168.008 Y206.483
G01 X169.521 Y203.745
G01 X171.146 Y201.073
G01 X172.813 Y198.437
G01 X174.615 Y195.881
G01 X176.475 Y193.379
G01 X178.406 Y190.918
G01 X180.456 Y188.555
G01 X182.356 Y186.433
G01 X182.620 Y186.553
G01 X185.486 Y187.750
G01 X188.342 Y189.012
G01 X190.409 Y189.949
G01 X190.025 Y190.723
G01 X188.567 Y193.484
G01 X187.165 Y196.270
G01 X185.788 Y199.082
G01 X184.453 Y201.903
G01 X183.154 Y204.743
G01 X181.890 Y207.607
G01 X180.649 Y210.472
G01 X179.449 Y213.356
G01 X178.270 Y216.245
G01 X177.135 Y219.155
G01 X176.020 Y222.074
G01 X174.951 Y225.010
G01 X173.927 Y227.965
G01 X172.926 Y230.923
G01 X171.970 Y233.895
G01 X171.033 Y236.880
G01 X170.140 Y239.872
G01 X169.289 Y242.876
G01 X168.478 Y245.893
G01 X167.682 Y248.918
G01 X166.923 Y251.949
G01 X166.223 Y254.987
G01 X165.531 Y258.037
G01 X164.895 Y261.097
G01 X164.287 Y264.163
G01 X163.729 Y267.233
G01 X163.193 Y270.303
G01 X162.679 Y273.394
G01 X162.234 Y276.483
G01 X161.802 Y279.577
G01 X161.409 Y282.676
G01 X161.052 Y285.781
G01 X160.976 Y286.589
G01 X160.124 Y284.442
G01 X159.055 Y281.513
G01 X158.079 Y278.541
G01 X157.203 Y275.548
G01 X156.422 Y272.520
G01 X155.741 Y269.476
G01 X155.158 Y266.403
G01 X154.675 Y263.313
G01 X154.294 Y260.218
G01 X154.012 Y257.102
G01 X153.833 Y253.989
G01 X153.754 Y250.862
G01 X153.776 Y247.744
G01 X153.901 Y244.618
G01 X154.126 Y241.499
G01 X154.452 Y238.397
G01 X154.879 Y235.299
G01 X155.406 Y232.225
G01 X156.033 Y229.161
G01 X156.757 Y226.127
G01 X157.582 Y223.110
G01 X158.505 Y220.121
G01 X159.521 Y217.173
G01 X160.635 Y214.250
G01 X161.840 Y211.374
G01 X163.142 Y208.530
G01 X164.531 Y205.738
G01 X166.014 Y202.984
G01 X167.582 Y200.288
G01 X169.240 Y197.636
G01 X170.985 Y195.040
G01 X172.806 Y192.509
G01 X174.715 Y190.031
G01 X176.698 Y187.624
G01 X178.763 Y185.275
G01 X180.897 Y183.001
G01 X181.503 Y182.382
G01 X183.591 Y183.226
G01 X186.489 Y184.444
G01 X189.346 Y185.691
G01 X192.177 Y186.984
G01 X195.007 Y188.334
G01 X195.157 Y188.402
G01 X193.761 Y191.013
G01 X192.291 Y193.768
G01 X190.878 Y196.552
G01 X189.494 Y199.362
G01 X188.134 Y202.169
G01 X186.811 Y204.999
G01 X185.531 Y207.850
G01 X184.275 Y210.706
G01 X183.064 Y213.585
G01 X181.878 Y216.474
G01 X180.738 Y219.389
G01 X179.605 Y222.296
G01 X178.545 Y225.234
G01 X177.488 Y228.176
G01 X176.483 Y231.131
G01 X175.502 Y234.103
G01 X174.573 Y237.080
G01 X173.668 Y240.072
G01 X172.810 Y243.077
G01 X171.973 Y246.084
G01 X171.180 Y249.106
G01 X170.429 Y252.138
G01 X169.692 Y255.176
G01 X169.017 Y258.228
G01 X168.376 Y261.283
G01 X167.766 Y264.341
G01 X167.186 Y267.414
G01 X166.632 Y270.495
G01 X166.151 Y273.573
G01 X165.666 Y276.667
G01 X165.247 Y279.757
G01 X164.844 Y282.858
G01 X164.505 Y285.961
G01 X164.177 Y289.076
G01 X163.903 Y292.181
G01 X163.661 Y295.296
G01 X163.448 Y298.420
G01 X163.409 Y299.367
G01 X162.341 Y297.497
G01 X160.915 Y294.711
G01 X159.537 Y291.911
G01 X158.289 Y289.041
G01 X157.089 Y286.161
G01 X156.003 Y283.235
G01 X155.006 Y280.268
G01 X154.105 Y277.280
G01 X153.298 Y274.266
G01 X152.584 Y271.218
G01 X151.968 Y268.159
G01 X151.446 Y265.072
G01 X151.022 Y261.981
G01 X150.696 Y258.877
G01 X150.466 Y255.755
G01 X150.335 Y252.638
G01 X150.301 Y249.517
G01 X150.365 Y246.387
G01 X150.527 Y243.271
G01 X150.788 Y240.152
G01 X151.144 Y237.052
G01 X151.598 Y233.964
G01 X152.150 Y230.883
G01 X152.796 Y227.830
G01 X153.538 Y224.799
G01 X154.376 Y221.783
G01 X155.306 Y218.804
G01 X156.332 Y215.847
G01 X157.447 Y212.932
G01 X158.675 Y210.064
G01 X159.952 Y207.206
G01 X161.335 Y204.408
G01 X162.805 Y201.656
G01 X164.387 Y198.955
G01 X166.006 Y196.288
G01 X167.733 Y193.677
G01 X169.536 Y191.130
G01 X171.418 Y188.641
G01 X173.383 Y186.204
G01 X175.417 Y183.837
G01 X177.524 Y181.536
G01 X179.709 Y179.294
G01 X180.663 Y178.359
G01 X182.331 Y179.010
G01 X185.234 Y180.192
G01 X188.109 Y181.390
G01 X190.975 Y182.655
G01 X193.818 Y183.966
G01 X196.626 Y185.299
G01 X199.434 Y186.690
G01 X199.922 Y186.941
G01 X198.644 Y189.183
G01 X197.147 Y191.925
G01 X195.685 Y194.683
G01 X194.259 Y197.460
G01 X192.868 Y200.260
G01 X191.520 Y203.082
G01 X190.174 Y205.898
G01 X188.893 Y208.753
G01 X187.641 Y211.618
G01 X186.419 Y214.490
G01 X185.226 Y217.378
G01 X184.066 Y220.275
G01 X182.960 Y223.197
G01 X181.862 Y226.124
G01 X180.823 Y229.067
G01 X179.816 Y232.023
G01 X178.840 Y234.993
G01 X177.897 Y237.968
G01 X176.982 Y240.963
G01 X176.121 Y243.962
G01 X175.286 Y246.969
G01 X174.500 Y249.997
G01 X173.735 Y253.026
G01 X173.014 Y256.068
G01 X172.333 Y259.118
G01 X171.690 Y262.169
G01 X171.081 Y265.231
G01 X170.506 Y268.308
G01 X169.981 Y271.377
G01 X169.484 Y274.462
G01 X169.010 Y277.557
G01 X168.605 Y280.652
G01 X168.214 Y283.748
G01 X167.864 Y286.853
G01 X167.551 Y289.966
G01 X167.268 Y293.077
G01 X167.043 Y296.191
G01 X166.846 Y299.310
G01 X166.696 Y302.420
G01 X166.572 Y305.541
G01 X166.473 Y308.673
G01 X166.451 Y310.452
G01 X165.667 Y309.352
G01 X163.907 Y306.770
G01 X162.227 Y304.136
G01 X160.627 Y301.452
G01 X159.109 Y298.720
G01 X157.675 Y295.945
G01 X156.326 Y293.126
G01 X155.066 Y290.278
G01 X153.890 Y287.384
G01 X152.801 Y284.455
G01 X151.802 Y281.494
G01 X150.893 Y278.505
G01 X150.075 Y275.489
G01 X149.348 Y272.450
G01 X148.714 Y269.391
G01 X148.173 Y266.313
G01 X147.726 Y263.221
G01 X147.372 Y260.117
G01 X147.113 Y257.003
G01 X146.948 Y253.883
G01 X146.878 Y250.759
G01 X146.902 Y247.645
G01 X147.021 Y244.522
G01 X147.234 Y241.405
G01 X147.541 Y238.296
G01 X147.943 Y235.197
G01 X148.438 Y232.112
G01 X149.027 Y229.043
G01 X149.708 Y225.994
G01 X150.481 Y222.967
G01 X151.346 Y219.964
G01 X152.301 Y216.989
G01 X153.346 Y214.044
G01 X154.480 Y211.133
G01 X155.701 Y208.257
G01 X157.005 Y205.428
G01 X158.398 Y202.631
G01 X159.875 Y199.878
G01 X161.435 Y197.171
G01 X163.076 Y194.512
G01 X164.797 Y191.904
G01 X166.596 Y189.349
G01 X168.472 Y186.850
G01 X170.422 Y184.409
G01 X172.446 Y182.029
G01 X174.541 Y179.710
G01 X176.705 Y177.457
G01 X178.936 Y175.269
G01 X179.868 Y174.394
G01 X181.595 Y175.047
G01 X184.493 Y176.172
G01 X187.391 Y177.358
G01 X190.269 Y178.587
G01 X193.125 Y179.862
G01 X195.947 Y181.160
G01 X198.769 Y182.519
G01 X201.572 Y183.921
G01 X204.337 Y185.350
G01 X204.680 Y185.536
G01 X203.308 Y187.894
G01 X201.791 Y190.634
G01 X200.290 Y193.374
G01 X198.826 Y196.132
G01 X197.402 Y198.912
G01 X196.000 Y201.699
G01 X194.637 Y204.517
G01 X193.310 Y207.337
G01 X192.007 Y210.176
G01 X190.757 Y213.044
G01 X189.542 Y215.924
G01 X188.344 Y218.802
G01 X187.202 Y221.712
G01 X186.076 Y224.628
G01 X185.014 Y227.563
G01 X183.967 Y230.507
G01 X182.959 Y233.463
G01 X181.989 Y236.437
G01 X181.058 Y239.415
G01 X180.162 Y242.404
G01 X179.299 Y245.409
G01 X178.467 Y248.423
G01 X177.689 Y251.443
G01 X176.937 Y254.474
G01 X176.207 Y257.520
G01 X175.547 Y260.572
G01 X174.902 Y263.631
G01 X174.294 Y266.696
G01 X173.746 Y269.768
G01 X173.225 Y272.840
G01 X172.734 Y275.928
G01 X172.293 Y279.024
G01 X171.870 Y282.121
G01 X171.491 Y285.226
G01 X171.174 Y288.326
G01 X170.867 Y291.435
G01 X170.619 Y294.544
G01 X170.379 Y297.669
G01 X170.212 Y300.777
G01 X170.057 Y303.916
G01 X169.962 Y307.026
G01 X169.893 Y310.150
G01 X169.868 Y313.271
G01 X169.862 Y314.905
G01 X168.936 Y313.744
G01 X167.042 Y311.259
G01 X165.245 Y308.704
G01 X163.505 Y306.109
G01 X161.845 Y303.463
G01 X160.266 Y300.768
G01 X158.769 Y298.026
G01 X157.378 Y295.229
G01 X156.046 Y292.393
G01 X154.805 Y289.527
G01 X153.651 Y286.625
G01 X152.586 Y283.689
G01 X151.634 Y280.715
G01 X150.748 Y277.721
G01 X149.954 Y274.701
G01 X149.252 Y271.659
G01 X148.642 Y268.597
G01 X148.123 Y265.507
G01 X147.700 Y262.414
G01 X147.396 Y259.307
G01 X147.161 Y256.194
G01 X147.021 Y253.076
G01 X146.975 Y249.944
G01 X147.024 Y246.823
G01 X147.168 Y243.705
G01 X147.405 Y240.592
G01 X147.738 Y237.488
G01 X148.165 Y234.386
G01 X148.685 Y231.308
G01 X149.298 Y228.247
G01 X150.003 Y225.206
G01 X150.803 Y222.178
G01 X151.691 Y219.186
G01 X152.670 Y216.222
G01 X153.738 Y213.289
G01 X154.898 Y210.380
G01 X156.142 Y207.517
G01 X157.472 Y204.693
G01 X158.887 Y201.910
G01 X160.391 Y199.163
G01 X161.972 Y196.472
G01 X163.634 Y193.830
G01 X165.376 Y191.239
G01 X167.201 Y188.694
G01 X169.096 Y186.214
G01 X171.066 Y183.792
G01 X173.108 Y181.431
G01 X175.227 Y179.125
G01 X177.409 Y176.893
G01 X179.640 Y174.709
G01 X180.617 Y173.807
G01 X182.283 Y174.492
G01 X185.172 Y175.675
G01 X188.065 Y176.848
G01 X188.971 Y177.228
G01 X189.966 Y175.312
G01 X190.416 Y174.474
G01 X193.561 Y175.643
G01 X196.400 Y176.925
G01 X199.231 Y178.274
G01 X202.036 Y179.644
G01 X204.818 Y181.062
G01 X207.587 Y182.523
G01 X210.316 Y184.014
G01 X213.046 Y185.571
G01 X215.733 Y187.133
G01 X218.413 Y188.767
G01 X221.049 Y190.410
G01 X223.675 Y192.104
G01 X226.279 Y193.856
G01 X228.842 Y195.621
G01 X231.395 Y197.446
G01 X233.910 Y199.291
G01 X236.403 Y201.183
G01 X238.864 Y203.104
G01 X239.663 Y203.741
G01 X238.597 Y205.539
G01 X237.062 Y208.196
G01 X237.039 Y208.240
G01 X236.616 Y209.004
G01 X238.644 Y208.397
G01 X238.786 Y208.358
G01 X240.843 Y207.858
G01 X241.828 Y207.656
G01 X243.915 Y207.306
G01 X244.912 Y207.176
G01 X247.020 Y206.978
G01 X248.028 Y206.920
G01 X248.799 Y206.892
G01 X247.019 Y205.349
G01 X244.626 Y203.333
G01 X242.209 Y201.370
G01 X239.761 Y199.426
G01 X237.282 Y197.519
G01 X234.784 Y195.665
G01 X232.246 Y193.813
G01 X229.692 Y192.029
G01 X227.107 Y190.261
G01 X224.508 Y188.553
G01 X221.867 Y186.859
G01 X219.213 Y185.219
G01 X216.530 Y183.610
G01 X213.831 Y182.052
G01 X211.104 Y180.521
G01 X208.361 Y179.040
G01 X205.587 Y177.585
G01 X202.792 Y176.179
G01 X199.989 Y174.813
G01 X197.161 Y173.499
G01 X194.312 Y172.202
G01 X191.451 Y170.976
G01 X188.560 Y169.774
G01 X185.658 Y168.611
G01 X182.738 Y167.493
G01 X179.804 Y166.416
G01 X176.859 Y165.378
G01 X173.904 Y164.411
G01 X170.926 Y163.461
G01 X167.934 Y162.552
G01 X164.923 Y161.690
G01 X161.919 Y160.883
G01 X158.881 Y160.104
G01 X155.846 Y159.386
G01 X152.797 Y158.710
G01 X149.747 Y158.065
G01 X146.676 Y157.470
G01 X143.596 Y156.913
G01 X141.566 Y156.582
G01 X142.260 Y155.783
G01 X144.340 Y153.456
G01 X146.479 Y151.166
G01 X148.658 Y148.933
G01 X150.885 Y146.748
G01 X153.170 Y144.602
G01 X155.491 Y142.516
G01 X157.856 Y140.482
G01 X160.265 Y138.499
G01 X162.728 Y136.561
G01 X165.222 Y134.685
G01 X167.756 Y132.865
G01 X170.329 Y131.100
G01 X172.952 Y129.384
G01 X175.599 Y127.733
G01 X178.282 Y126.140
G01 X181.011 Y124.599
G01 X183.761 Y123.125
G01 X186.543 Y121.711
G01 X189.354 Y120.359
G01 X192.208 Y119.062
G01 X195.076 Y117.833
G01 X197.970 Y116.667
G01 X200.889 Y115.565
G01 X203.844 Y114.522
G01 X206.808 Y113.548
G01 X209.793 Y112.639
G01 X212.797 Y111.795
G01 X215.832 Y111.013
G01 X218.870 Y110.301
G01 X221.923 Y109.656
G01 X225.003 Y109.075
G01 X228.081 Y108.563
G01 X231.169 Y108.119
G01 X234.266 Y107.742
G01 X237.385 Y107.432
G01 X240.496 Y107.191
G01 X243.611 Y107.018
G01 X246.729 Y106.912
G01 X249.863 Y106.875
G01 X252.983 Y106.906
G01 X256.102 Y107.005
G01 X259.217 Y107.172
G01 X262.343 Y107.408
G01 X265.448 Y107.711
G01 X268.546 Y108.082
G01 X271.649 Y108.522
G01 X274.728 Y109.027
G01 X277.795 Y109.600
G01 X280.849 Y110.239
G01 X283.902 Y110.948
G01 X286.925 Y111.720
G01 X289.931 Y112.558
G01 X292.917 Y113.461
G01 X295.897 Y114.434
G01 X298.841 Y115.466
G01 X301.762 Y116.563
G01 X304.659 Y117.723
G01 X307.542 Y118.952
G01 X310.385 Y120.237
G01 X313.199 Y121.584
G01 X315.996 Y122.999
G01 X318.749 Y124.468
G01 X321.469 Y125.996
G01 X324.155 Y127.584
G01 X326.818 Y129.237
G01 X329.432 Y130.940
G01 X332.009 Y132.700
G01 X334.546 Y134.515
G01 X337.055 Y136.394
G01 X339.511 Y138.319
G01 X341.924 Y140.297
G01 X344.293 Y142.327
G01 X346.628 Y144.417
G01 X348.907 Y146.549
G01 X351.139 Y148.729
G01 X353.332 Y150.968
G01 X355.466 Y153.244
G01 X357.550 Y155.566
G01 X359.583 Y157.933
G01 X361.573 Y160.355
G01 X363.501 Y162.808
G01 X365.374 Y165.303
G01 X367.193 Y167.838
G01 X368.964 Y170.424
G01 X370.671 Y173.036
G01 X372.320 Y175.685
G01 X373.910 Y178.369
G01 X375.449 Y181.100
G01 X376.921 Y183.851
G01 X378.333 Y186.633
G01 X379.684 Y189.446
G01 X380.979 Y192.300
G01 X382.206 Y195.169
G01 X383.369 Y198.064
G01 X386.703 Y196.498
G01 X389.542 Y195.177
G01 X389.612 Y195.150
G01 X388.475 Y192.341
G01 X387.240 Y189.460
G01 X385.951 Y186.618
G01 X384.604 Y183.804
G01 X383.191 Y181.006
G01 X381.727 Y178.251
G01 X380.206 Y175.526
G01 X378.622 Y172.822
G01 X376.989 Y170.163
G01 X375.301 Y167.539
G01 X373.550 Y164.939
G01 X371.754 Y162.387
G01 X369.905 Y159.874
G01 X367.996 Y157.388
G01 X366.044 Y154.954
G01 X364.042 Y152.561
G01 X361.981 Y150.199
G01 X359.881 Y147.891
G01 X357.734 Y145.628
G01 X355.539 Y143.410
G01 X355.358 Y143.231
G01 X358.024 Y142.180
G01 X360.949 Y141.084
G01 X363.889 Y140.018
G01 X366.846 Y139.021
G01 X369.828 Y138.066
G01 X372.814 Y137.170
G01 X375.824 Y136.317
G01 X378.857 Y135.505
G01 X381.873 Y134.769
G01 X384.941 Y134.072
G01 X387.981 Y133.438
G01 X391.059 Y132.830
G01 X393.954 Y132.334
G01 X394.060 Y132.464
G01 X396.014 Y134.900
G01 X397.927 Y137.370
G01 X399.810 Y139.886
G01 X401.638 Y142.418
G01 X403.424 Y144.980
G01 X405.167 Y147.573
G01 X406.866 Y150.194
G01 X408.520 Y152.843
G01 X410.130 Y155.520
G01 X411.695 Y158.223
G01 X413.213 Y160.952
G01 X414.686 Y163.707
G01 X416.113 Y166.486
G01 X417.515 Y169.277
G01 X418.847 Y172.103
G01 X420.132 Y174.950
G01 X421.369 Y177.819
G01 X422.557 Y180.708
G01 X423.470 Y183.026
G01 X424.026 Y182.732
G01 X426.838 Y181.340
G01 X429.616 Y179.930
G01 X432.428 Y178.539
G01 X433.276 Y178.101
G01 X434.262 Y176.179
G01 X435.665 Y173.388
G01 X437.006 Y170.571
G01 X438.316 Y167.737
G01 X439.620 Y164.877
G01 X440.848 Y162.022
G01 X442.069 Y159.143
G01 X443.230 Y156.242
G01 X444.361 Y153.328
G01 X445.463 Y150.404
G01 X446.537 Y147.468
G01 X447.551 Y144.514
G01 X448.536 Y141.552
G01 X449.483 Y138.561
G01 X450.381 Y135.575
G01 X451.173 Y132.844
G01 X451.301 Y133.066
G01 X452.850 Y135.774
G01 X454.363 Y138.502
G01 X455.849 Y141.271
G01 X457.288 Y144.039
G01 X458.711 Y146.815
G01 X460.075 Y149.621
G01 X461.401 Y152.445
G01 X462.699 Y155.308
G01 X463.949 Y158.166
G01 X465.160 Y161.041
G01 X466.333 Y163.932
G01 X467.475 Y166.861
G01 X468.569 Y169.782
G01 X469.625 Y172.718
G01 X470.640 Y175.668
G01 X471.617 Y178.631
G01 X472.560 Y181.629
G01 X473.456 Y184.618
G01 X474.312 Y187.618
G01 X475.128 Y190.629
G01 X475.909 Y193.674
G01 X476.643 Y196.706
G01 X477.337 Y199.747
G01 X477.990 Y202.798
G01 X478.602 Y205.857
G01 X479.177 Y208.947
G01 X479.707 Y212.022
G01 X480.195 Y215.103
G01 X480.642 Y218.191
G01 X481.050 Y221.307
G01 X481.414 Y224.406
G01 X481.736 Y227.509
G01 X482.017 Y230.616
G01 X482.256 Y233.727
G01 X482.454 Y236.864
G01 X482.609 Y239.980
G01 X482.723 Y243.098
G01 X482.794 Y246.217
G01 X482.824 Y249.360
G01 X482.812 Y252.479
G01 X482.758 Y255.599
G01 X482.662 Y258.717
G01 X482.524 Y261.834
G01 X482.343 Y264.972
G01 X482.122 Y268.084
G01 X481.858 Y271.192
G01 X481.554 Y274.297
G01 X481.207 Y277.398
G01 X480.816 Y280.517
G01 X480.387 Y283.607
G01 X479.916 Y286.691
G01 X479.403 Y289.768
G01 X478.846 Y292.862
G01 X478.251 Y295.924
G01 X477.615 Y298.978
G01 X476.938 Y302.024
G01 X476.221 Y305.060
G01 X475.457 Y308.109
G01 X474.658 Y311.125
G01 X473.819 Y314.130
G01 X472.939 Y317.123
G01 X472.013 Y320.127
G01 X471.053 Y323.095
G01 X470.054 Y326.051
G01 X469.015 Y328.992
G01 X467.937 Y331.920
G01 X466.811 Y334.855
G01 X465.655 Y337.752
G01 X464.460 Y340.634
G01 X463.226 Y343.500
G01 X461.944 Y346.370
G01 X460.634 Y349.201
G01 X459.286 Y352.014
G01 X457.900 Y354.810
G01 X456.477 Y357.586
G01 X455.006 Y360.363
G01 X453.509 Y363.101
G01 X451.975 Y365.817
G01 X450.405 Y368.513
G01 X448.787 Y371.208
G01 X447.145 Y373.861
G01 X445.467 Y376.491
G01 X443.755 Y379.099
G01 X442.008 Y381.684
G01 X440.212 Y384.264
G01 X438.396 Y386.800
G01 X436.546 Y389.313
G01 X434.663 Y391.800
G01 X432.746 Y394.261
G01 X430.782 Y396.715
G01 X428.800 Y399.124
G01 X426.786 Y401.507
G01 X424.740 Y403.862
G01 X422.647 Y406.207
G01 X420.538 Y408.506
G01 X418.399 Y410.777
G01 X416.229 Y413.019
G01 X414.030 Y415.232
G01 X411.784 Y417.431
G01 X409.526 Y419.584
G01 X407.240 Y421.707
G01 X404.925 Y423.798
G01 X402.564 Y425.874
G01 X400.194 Y427.902
G01 X397.797 Y429.899
G01 X395.373 Y431.863
G01 X392.923 Y433.795
G01 X390.429 Y435.707
G01 X387.928 Y437.572
G01 X385.402 Y439.404
G01 X382.852 Y441.201
G01 X380.259 Y442.977
G01 X377.661 Y444.705
G01 X375.041 Y446.398
G01 X372.398 Y448.056
G01 X369.733 Y449.678
G01 X367.027 Y451.277
G01 X364.319 Y452.827
G01 X361.591 Y454.340
G01 X358.843 Y455.817
G01 X356.055 Y457.268
G01 X353.268 Y458.670
G01 X350.462 Y460.035
G01 X347.639 Y461.363
G01 X344.798 Y462.652
G01 X341.919 Y463.912
G01 X339.044 Y465.125
G01 X336.153 Y466.299
G01 X333.247 Y467.434
G01 X330.326 Y468.530
G01 X327.501 Y469.548
G01 X327.533 Y469.430
G01 X328.823 Y466.577
G01 X330.057 Y463.696
G01 X331.253 Y460.835
G01 X332.435 Y457.930
G01 X333.559 Y454.999
G01 X334.644 Y452.089
G01 X335.692 Y449.146
G01 X336.709 Y446.193
G01 X337.686 Y443.208
G01 X338.624 Y440.246
G01 X339.538 Y437.243
G01 X340.400 Y434.242
G01 X341.229 Y431.234
G01 X341.995 Y428.206
G01 X342.744 Y425.162
G01 X343.149 Y423.445
G01 X344.343 Y422.798
G01 X347.061 Y421.286
G01 X349.773 Y419.721
G01 X352.458 Y418.113
G01 X355.118 Y416.463
G01 X357.735 Y414.781
G01 X360.342 Y413.048
G01 X362.920 Y411.273
G01 X365.470 Y409.457
G01 X367.975 Y407.613
G01 X370.466 Y405.717
G01 X372.926 Y403.782
G01 X375.341 Y401.821
G01 X377.739 Y399.809
G01 X380.104 Y397.759
G01 X382.437 Y395.671
G01 X384.722 Y393.561
G01 X386.988 Y391.401
G01 X389.218 Y389.205
G01 X391.400 Y386.988
G01 X393.561 Y384.722
G01 X395.684 Y382.423
G01 X397.771 Y380.090
G01 X399.808 Y377.739
G01 X401.820 Y375.341
G01 X403.794 Y372.911
G01 X405.717 Y370.466
G01 X407.612 Y367.975
G01 X409.468 Y365.454
G01 X411.284 Y362.904
G01 X413.047 Y360.342
G01 X414.781 Y357.736
G01 X416.473 Y355.102
G01 X418.123 Y352.442
G01 X419.721 Y349.773
G01 X421.286 Y347.062
G01 X422.807 Y344.326
G01 X424.276 Y341.584
G01 X425.710 Y338.802
G01 X427.100 Y335.997
G01 X428.445 Y333.170
G01 X429.736 Y330.341
G01 X430.991 Y327.473
G01 X432.200 Y324.585
G01 X433.356 Y321.697
G01 X434.472 Y318.773
G01 X435.542 Y315.831
G01 X436.566 Y312.873
G01 X437.536 Y309.918
G01 X438.465 Y306.928
G01 X439.346 Y303.925
G01 X440.174 Y300.926
G01 X440.960 Y297.896
G01 X441.697 Y294.854
G01 X442.386 Y291.801
G01 X443.023 Y288.756
G01 X443.614 Y285.682
G01 X444.157 Y282.599
G01 X444.651 Y279.508
G01 X445.093 Y276.429
G01 X445.489 Y273.324
G01 X445.835 Y270.213
G01 X446.130 Y267.116
G01 X446.377 Y263.996
G01 X446.575 Y260.872
G01 X446.723 Y257.745
G01 X446.820 Y254.636
G01 X446.869 Y251.506
G01 X446.868 Y248.376
G01 X446.818 Y245.265
G01 X446.718 Y242.137
G01 X446.568 Y239.010
G01 X446.368 Y235.886
G01 X446.121 Y232.785
G01 X445.822 Y229.669
G01 X445.474 Y226.559
G01 X445.080 Y223.473
G01 X444.633 Y220.375
G01 X444.138 Y217.284
G01 X443.593 Y214.202
G01 X443.003 Y211.147
G01 X442.361 Y208.084
G01 X441.670 Y205.031
G01 X440.931 Y201.989
G01 X440.149 Y198.978
G01 X439.313 Y195.961
G01 X438.430 Y192.958
G01 X437.506 Y189.988
G01 X436.528 Y187.015
G01 X435.503 Y184.057
G01 X434.431 Y181.116
G01 X433.719 Y179.238
G01 X432.720 Y179.707
G01 X429.880 Y181.027
G01 X427.060 Y182.331
G01 X424.220 Y183.656
G01 X423.743 Y183.878
G01 X424.658 Y186.334
G01 X425.703 Y189.277
G01 X426.698 Y192.237
G01 X427.668 Y195.206
G01 X428.563 Y198.199
G01 X429.408 Y201.206
G01 X430.202 Y204.227
G01 X430.946 Y207.260
G01 X431.638 Y210.306
G01 X432.280 Y213.363
G01 X432.869 Y216.430
G01 X433.410 Y219.525
G01 X433.897 Y222.611
G01 X434.331 Y225.704
G01 X434.713 Y228.804
G01 X435.043 Y231.910
G01 X435.321 Y235.021
G01 X435.546 Y238.137
G01 X435.719 Y241.255
G01 X435.840 Y244.377
G01 X435.908 Y247.499
G01 X435.924 Y250.623
G01 X435.887 Y253.746
G01 X435.798 Y256.868
G01 X435.656 Y259.989
G01 X435.462 Y263.106
G01 X435.215 Y266.238
G01 X434.916 Y269.347
G01 X434.564 Y272.451
G01 X434.161 Y275.549
G01 X433.706 Y278.639
G01 X433.199 Y281.721
G01 X432.640 Y284.794
G01 X432.030 Y287.857
G01 X431.368 Y290.910
G01 X430.656 Y293.951
G01 X429.892 Y296.980
G01 X429.077 Y299.995
G01 X428.212 Y302.996
G01 X427.297 Y305.983
G01 X426.331 Y308.953
G01 X425.339 Y311.915
G01 X424.268 Y314.870
G01 X423.154 Y317.788
G01 X421.990 Y320.687
G01 X420.779 Y323.567
G01 X419.519 Y326.425
G01 X418.211 Y329.262
G01 X416.856 Y332.077
G01 X415.453 Y334.868
G01 X414.004 Y337.636
G01 X412.509 Y340.379
G01 X410.968 Y343.096
G01 X409.381 Y345.787
G01 X407.749 Y348.451
G01 X406.073 Y351.087
G01 X404.353 Y353.695
G01 X402.589 Y356.273
G01 X400.782 Y358.821
G01 X398.933 Y361.339
G01 X397.042 Y363.825
G01 X395.097 Y366.294
G01 X393.123 Y368.715
G01 X391.108 Y371.103
G01 X389.054 Y373.456
G01 X386.960 Y375.775
G01 X384.828 Y378.058
G01 X382.658 Y380.305
G01 X380.450 Y382.515
G01 X378.206 Y384.688
G01 X375.925 Y386.822
G01 X373.609 Y388.918
G01 X371.257 Y390.975
G01 X368.872 Y392.992
G01 X366.453 Y394.969
G01 X364.001 Y396.905
G01 X361.517 Y398.800
G01 X359.002 Y400.652
G01 X356.456 Y402.462
G01 X353.864 Y404.239
G01 X351.258 Y405.962
G01 X348.624 Y407.641
G01 X345.978 Y409.266
G01 X345.981 Y409.235
G01 X346.478 Y406.149
G01 X346.950 Y403.053
G01 X347.365 Y399.965
G01 X347.738 Y396.848
G01 X348.082 Y393.752
G01 X348.367 Y390.638
G01 X348.649 Y387.528
G01 X348.857 Y384.411
G01 X349.031 Y381.289
G01 X349.169 Y378.162
G01 X349.271 Y375.033
G01 X349.323 Y371.912
G01 X349.336 Y368.790
G01 X349.320 Y365.657
G01 X349.267 Y362.555
G01 X349.262 Y362.459
G01 X351.513 Y360.431
G01 X353.799 Y358.286
G01 X356.029 Y356.103
G01 X358.213 Y353.875
G01 X360.360 Y351.591
G01 X362.449 Y349.274
G01 X364.489 Y346.913
G01 X366.490 Y344.500
G01 X368.430 Y342.056
G01 X370.319 Y339.573
G01 X372.165 Y337.039
G01 X373.948 Y334.480
G01 X375.679 Y331.883
G01 X377.362 Y329.239
G01 X378.983 Y326.573
G01 X380.548 Y323.874
G01 X382.063 Y321.129
G01 X383.514 Y318.367
G01 X384.907 Y315.575
G01 X386.242 Y312.755
G01 X387.523 Y309.894
G01 X388.739 Y307.021
G01 X389.895 Y304.123
G01 X390.996 Y301.188
G01 X392.030 Y298.244
G01 X393.003 Y295.280
G01 X393.918 Y292.281
G01 X394.766 Y289.279
G01 X395.551 Y286.260
G01 X396.277 Y283.210
G01 X396.937 Y280.160
G01 X397.532 Y277.098
G01 X398.066 Y274.009
G01 X398.533 Y270.924
G01 X398.937 Y267.830
G01 X399.277 Y264.714
G01 X399.550 Y261.606
G01 X399.759 Y258.493
G01 X399.904 Y255.361
G01 X399.983 Y252.242
G01 X399.997 Y249.122
G01 X399.946 Y245.988
G01 X399.830 Y242.870
G01 X399.650 Y239.755
G01 X399.404 Y236.645
G01 X399.093 Y233.526
G01 X398.718 Y230.428
G01 X398.278 Y227.340
G01 X397.773 Y224.246
G01 X397.205 Y221.178
G01 X396.574 Y218.122
G01 X395.875 Y215.066
G01 X395.117 Y212.040
G01 X394.296 Y209.030
G01 X393.409 Y206.023
G01 X392.463 Y203.050
G01 X391.456 Y200.097
G01 X390.382 Y197.152
G01 X390.271 Y196.857
G01 X389.252 Y194.243
G01 X388.063 Y191.359
G01 X386.807 Y188.487
G01 X385.475 Y185.665
G01 X384.108 Y182.862
G01 X382.676 Y180.074
G01 X381.193 Y177.329
G01 X379.653 Y174.616
G01 X378.049 Y171.923
G01 X376.397 Y169.277
G01 X374.683 Y166.653
G01 X372.922 Y164.078
G01 X371.109 Y161.540
G01 X369.214 Y159.043
G01 X367.296 Y156.584
G01 X365.328 Y154.164
G01 X363.300 Y151.775
G01 X361.232 Y149.440
G01 X359.107 Y147.137
G01 X356.944 Y144.890
G01 X354.734 Y142.689
G01 X352.469 Y140.523
G01 X350.170 Y138.416
G01 X347.827 Y136.357
G01 X345.431 Y134.337
G01 X343.005 Y132.377
G01 X340.526 Y130.459
G01 X338.020 Y128.602
G01 X335.476 Y126.798
G01 X332.897 Y125.018
G01 X330.279 Y123.320
G01 X327.627 Y121.678
G01 X324.929 Y120.084
G01 X322.210 Y118.554
G01 X319.461 Y117.080
G01 X316.668 Y115.658
G01 X313.859 Y114.300
G01 X311.009 Y112.995
G01 X308.147 Y111.756
G01 X305.268 Y110.553
G01 X302.342 Y109.429
G01 X299.407 Y108.370
G01 X297.761 Y107.807
G01 X298.961 Y107.079
G01 X301.637 Y105.472
G01 X304.348 Y103.907
G01 X307.055 Y102.393
G01 X309.804 Y100.896
G01 X312.569 Y99.433
G01 X315.349 Y98.003
G01 X318.143 Y96.605
G01 X320.964 Y95.245
G01 X323.785 Y93.938
G01 X326.641 Y92.647
G01 X329.510 Y91.416
G01 X332.385 Y90.213
G01 X335.293 Y89.025
G01 X338.210 Y87.896
G01 X341.117 Y86.815
G01 X344.071 Y85.757
G01 X347.025 Y84.725
G01 X349.999 Y83.759
G01 X352.972 Y82.817
G01 X355.958 Y81.909
G01 X358.974 Y81.045
G01 X361.972 Y80.225
G01 X365.012 Y79.427
G01 X368.048 Y78.683
G01 X371.093 Y77.971
G01 X374.133 Y77.310
G01 X377.197 Y76.694
G01 X380.251 Y76.095
G01 X383.328 Y75.539
G01 X386.429 Y75.026
G01 X389.518 Y74.564
G01 X392.611 Y74.130
G01 X395.708 Y73.725
G01 X398.808 Y73.381
G01 X401.382 Y73.108
G01 X400.975 Y72.760
G01 X398.587 Y70.753
G01 X396.172 Y68.778
G01 X393.730 Y66.836
G01 X391.244 Y64.912
G01 X388.737 Y63.056
G01 X386.234 Y61.194
G01 X383.677 Y59.406
G01 X381.112 Y57.632
G01 X378.516 Y55.858
G01 X375.890 Y54.175
G01 X373.255 Y52.505
G01 X370.597 Y50.872
G01 X367.898 Y49.262
G01 X365.210 Y47.678
G01 X362.489 Y46.153
G01 X359.735 Y44.686
G01 X356.974 Y43.234
G01 X354.185 Y41.786
G01 X351.374 Y40.431
G01 X348.557 Y39.092
G01 X345.722 Y37.790
G01 X342.849 Y36.517
G01 X339.980 Y35.292
G01 X337.095 Y34.106
G01 X334.194 Y32.958
G01 X331.287 Y31.826
G01 X328.326 Y30.772
G01 X325.381 Y29.742
G01 X322.423 Y28.752
G01 X319.452 Y27.801
G01 X316.446 Y26.884
G01 X313.450 Y26.014
G01 X310.450 Y25.159
G01 X307.425 Y24.394
G01 X304.397 Y23.645
G01 X301.337 Y22.931
G01 X298.289 Y22.263
G01 X295.233 Y21.637
G01 X292.169 Y21.051
G01 X289.098 Y20.507
G01 X285.996 Y20.000
G01 X282.911 Y19.538
G01 X279.820 Y19.118
G01 X276.724 Y18.739
G01 X273.599 Y18.399
G01 X270.494 Y18.104
G01 X267.385 Y17.850
G01 X264.272 Y17.638
G01 X261.157 Y17.468
G01 X258.017 Y17.338
G01 X254.899 Y17.252
G01 X251.780 Y17.207
G01 X248.660 Y17.204
G01 X245.518 Y17.243
G01 X242.399 Y17.324
G01 X239.282 Y17.447
G01 X236.167 Y17.611
G01 X233.055 Y17.818
G01 X229.922 Y18.067
G01 X226.816 Y18.357
G01 X223.714 Y18.689
G01 X220.617 Y19.062
G01 X217.502 Y19.479
G01 X214.416 Y19.936
G01 X211.336 Y20.433
G01 X208.264 Y20.972
G01 X205.199 Y21.552
G01 X202.119 Y22.177
G01 X199.070 Y22.839
G01 X196.031 Y23.542
G01 X193.001 Y24.286
G01 X189.959 Y25.076
G01 X186.951 Y25.900
G01 X183.954 Y26.765
G01 X180.968 Y27.670
G01 X177.996 Y28.615
G01 X175.013 Y29.607
G01 X172.067 Y30.632
G01 X169.135 Y31.696
G01 X166.217 Y32.799
G01 X163.314 Y33.941
G01 X160.405 Y35.131
G01 X157.534 Y36.351
G01 X154.679 Y37.609
G01 X151.842 Y38.906
G01 X149.001 Y40.250
G01 X146.200 Y41.622
G01 X143.417 Y43.032
G01 X140.653 Y44.478
G01 X137.909 Y45.962
G01 X135.165 Y47.494
G01 X132.462 Y49.051
G01 X129.780 Y50.644
G01 X127.119 Y52.273
G01 X124.461 Y53.949
G01 X121.845 Y55.649
G01 X119.253 Y57.384
G01 X116.683 Y59.153
G01 X114.138 Y60.957
G01 X111.598 Y62.808
G01 X109.103 Y64.679
G01 X100.179 Y71.816
G01 X98.173 Y73.522
G01 X95.822 Y75.573
G01 X93.498 Y77.654
G01 X91.186 Y79.783
G01 X88.919 Y81.926
G01 X86.682 Y84.099
G01 X84.456 Y86.285
G01 X82.295 Y88.535
G01 X80.130 Y90.814
G01 X78.013 Y93.105
G01 X75.926 Y95.423
G01 X73.870 Y97.770
G01 X71.846 Y100.143
G01 X69.839 Y102.562
G01 X67.880 Y104.989
G01 X65.933 Y107.427
G01 X64.040 Y109.907
G01 X62.199 Y112.426
G01 X60.339 Y114.959
G01 X58.546 Y117.512
G01 X56.809 Y120.104
G01 X55.086 Y122.704
G01 X53.385 Y125.347
G01 X51.711 Y127.980
G01 X50.115 Y130.660
G01 X48.534 Y133.349
G01 X47.953 Y134.358
G01 X49.839 Y133.891
G01 X52.874 Y133.162
G01 X55.927 Y132.492
G01 X58.987 Y131.851
G01 X62.053 Y131.238
G01 X65.114 Y130.672
G01 X68.200 Y130.151
G01 X71.291 Y129.659
G01 X74.374 Y129.217
G01 X77.481 Y128.821
G01 X80.591 Y128.457
G01 X83.702 Y128.127
G01 X86.803 Y127.846
G01 X89.916 Y127.584
G01 X93.038 Y127.389
G01 X96.095 Y127.228
G01 X96.131 Y127.182
G01 X98.104 Y124.751
G01 X100.114 Y122.352
G01 X102.150 Y120.000
G01 X104.235 Y117.666
G01 X106.358 Y115.365
G01 X108.503 Y113.112
G01 X110.697 Y110.880
G01 X112.927 Y108.682
G01 X115.191 Y106.521
G01 X117.474 Y104.409
G01 X119.806 Y102.320
G01 X122.170 Y100.269
G01 X124.552 Y98.268
G01 X126.980 Y96.293
G01 X129.440 Y94.356
G01 X131.930 Y92.459
G01 X134.433 Y90.613
G01 X136.982 Y88.796
G01 X139.559 Y87.019
G01 X142.148 Y85.295
G01 X144.781 Y83.601
G01 X147.440 Y81.949
G01 X150.107 Y80.350
G01 X152.817 Y78.783
G01 X155.552 Y77.259
G01 X158.310 Y75.780
G01 X161.074 Y74.353
G01 X163.878 Y72.961
G01 X166.704 Y71.614
G01 X169.533 Y70.320
G01 X172.400 Y69.064
G01 X175.286 Y67.853
G01 X178.192 Y66.688
G01 X181.097 Y65.576
G01 X184.038 Y64.504
G01 X186.995 Y63.479
G01 X189.950 Y62.507
G01 X192.939 Y61.576
G01 X195.942 Y60.692
G01 X198.959 Y59.857
G01 X201.969 Y59.074
G01 X205.011 Y58.334
G01 X208.064 Y57.643
G01 X211.108 Y57.005
G01 X214.181 Y56.411
G01 X217.264 Y55.866
G01 X220.335 Y55.373
G01 X223.433 Y54.926
G01 X226.538 Y54.528
G01 X229.649 Y54.180
G01 X232.746 Y53.883
G01 X235.866 Y53.633
G01 X238.990 Y53.433
G01 X242.097 Y53.284
G01 X245.225 Y53.183
G01 X248.355 Y53.132
G01 X251.486 Y53.131
G01 X254.596 Y53.179
G01 X257.724 Y53.302
G01 X260.850 Y53.449
G01 X263.974 Y53.647
G01 X267.074 Y53.892
G01 X270.190 Y54.188
G01 X273.301 Y54.534
G01 X276.386 Y54.926
G01 X279.484 Y55.371
G01 X282.575 Y55.864
G01 X285.657 Y56.406
G01 X288.712 Y56.994
G01 X291.775 Y57.634
G01 X294.829 Y58.322
G01 X297.871 Y59.059
G01 X300.881 Y59.839
G01 X303.898 Y60.673
G01 X306.902 Y61.553
G01 X309.891 Y62.482
G01 X312.838 Y63.475
G01 X315.796 Y64.498
G01 X318.737 Y65.567
G01 X321.660 Y66.684
G01 X324.548 Y67.839
G01 X327.434 Y69.047
G01 X330.302 Y70.301
G01 X333.149 Y71.600
G01 X335.957 Y72.936
G01 X338.761 Y74.325
G01 X341.543 Y75.759
G01 X344.302 Y77.236
G01 X347.020 Y78.748
G01 X349.730 Y80.312
G01 X352.402 Y81.940
G01 X353.325 Y82.506
G01 X351.375 Y83.101
G01 X348.402 Y84.057
G01 X345.444 Y85.048
G01 X342.485 Y86.064
G01 X339.597 Y87.059
G01 X339.536 Y87.054
G01 X336.798 Y85.551
G01 X334.011 Y84.138
G01 X331.213 Y82.750
G01 X328.375 Y81.402
G01 X325.532 Y80.109
G01 X322.667 Y78.864
G01 X319.782 Y77.667
G01 X316.877 Y76.519
G01 X313.953 Y75.420
G01 X311.020 Y74.347
G01 X308.060 Y73.347
G01 X305.077 Y72.420
G01 X302.093 Y71.496
G01 X299.087 Y70.646
G01 X296.061 Y69.871
G01 X293.028 Y69.123
G01 X289.984 Y68.425
G01 X286.928 Y67.779
G01 X283.866 Y67.160
G01 X280.785 Y66.641
G01 X277.704 Y66.125
G01 X274.612 Y65.686
G01 X271.509 Y65.323
G01 X268.403 Y64.988
G01 X265.276 Y64.679
G01 X262.161 Y64.448
G01 X259.041 Y64.295
G01 X255.920 Y64.169
G01 X252.798 Y64.071
G01 X249.674 Y64.075
G01 X246.550 Y64.082
G01 X243.427 Y64.166
G01 X240.306 Y64.303
G01 X237.188 Y64.492
G01 X234.074 Y64.733
G01 X230.963 Y65.027
G01 X227.859 Y65.373
G01 X224.760 Y65.771
G01 X221.673 Y66.246
G01 X218.586 Y66.723
G01 X215.516 Y67.301
G01 X212.446 Y67.882
G01 X209.392 Y68.538
G01 X206.350 Y69.246
G01 X203.301 Y70.009
G01 X200.284 Y70.819
G01 X197.288 Y71.704
G01 X194.293 Y72.591
G01 X191.320 Y73.551
G01 X188.364 Y74.562
G01 X185.426 Y75.622
G01 X182.515 Y76.755
G01 X179.614 Y77.913
G01 X176.723 Y79.097
G01 X173.862 Y80.352
G01 X171.023 Y81.655
G01 X168.206 Y83.006
G01 X165.412 Y84.403
G01 X162.654 Y85.870
G01 X159.897 Y87.338
G01 X157.190 Y88.896
G01 X154.483 Y90.457
G01 X151.817 Y92.084
G01 X149.191 Y93.777
G01 X146.581 Y95.492
G01 X143.971 Y97.242
G01 X141.419 Y99.044
G01 X138.899 Y100.890
G01 X136.425 Y102.797
G01 X133.952 Y104.706
G01 X131.544 Y106.695
G01 X129.153 Y108.706
G01 X126.796 Y110.756
G01 X124.475 Y112.845
G01 X122.171 Y114.955
G01 X119.920 Y117.121
G01 X117.724 Y119.343
G01 X115.548 Y121.584
G01 X113.391 Y123.843
G01 X111.310 Y126.173
G01 X109.249 Y128.520
G01 X107.228 Y130.902
G01 X105.228 Y133.301
G01 X103.308 Y135.765
G01 X101.390 Y138.231
G01 X99.553 Y140.758
G01 X97.708 Y143.301
G01 X95.937 Y145.875
G01 X94.231 Y148.491
G01 X92.526 Y151.109
G01 X90.887 Y153.768
G01 X89.293 Y156.455
G01 X87.744 Y159.168
G01 X86.263 Y161.918
G01 X84.784 Y164.670
G01 X83.374 Y167.458
G01 X82.011 Y170.268
G01 X80.695 Y173.102
G01 X79.450 Y175.967
G01 X78.208 Y178.833
G01 X77.036 Y181.729
G01 X76.098 Y184.157
G01 X76.450 Y184.568
G01 X78.471 Y186.951
G01 X80.513 Y189.312
G01 X82.611 Y191.627
G01 X84.737 Y193.902
G01 X86.912 Y196.146
G01 X89.136 Y198.357
G01 X91.386 Y200.528
G01 X93.661 Y202.657
G01 X95.984 Y204.753
G01 X98.331 Y206.807
G01 X100.725 Y208.825
G01 X103.142 Y210.800
G01 X104.746 Y212.067
G01 X105.027 Y211.008
G01 X105.869 Y208.001
G01 X106.774 Y205.013
G01 X107.741 Y202.044
G01 X108.792 Y199.104
G01 X109.882 Y196.178
G01 X111.037 Y193.261
G01 X112.247 Y190.383
G01 X113.517 Y187.531
G01 X114.846 Y184.706
G01 X116.233 Y181.909
G01 X117.678 Y179.142
G01 X119.188 Y176.392
G01 X120.747 Y173.687
G01 X122.383 Y171.028
G01 X124.053 Y168.391
G01 X125.778 Y165.789
G01 X127.565 Y163.212
G01 X129.397 Y160.684
G01 X131.280 Y158.195
G01 X133.215 Y155.746
G01 X135.201 Y153.337
G01 X137.246 Y150.959
G01 X139.331 Y148.635
G01 X141.463 Y146.356
G01 X143.642 Y144.121
G01 X145.867 Y141.931
G01 X148.148 Y139.779
G01 X150.463 Y137.684
G01 X152.820 Y135.638
G01 X155.220 Y133.642
G01 X157.688 Y131.706
G01 X160.168 Y129.812
G01 X162.687 Y127.970
G01 X165.244 Y126.180
G01 X167.838 Y124.444
G01 X170.479 Y122.754
G01 X173.143 Y121.128
G01 X175.840 Y119.557
G01 X178.569 Y118.043
G01 X181.342 Y116.579
G01 X184.132 Y115.180
G01 X186.951 Y113.839
G01 X189.796 Y112.557
G01 X192.658 Y111.312
G01 X195.569 Y110.144
G01 X198.490 Y109.042
G01 X201.433 Y108.001
G01 X204.396 Y107.022
G01 X207.394 Y106.100
G01 X210.397 Y105.245
G01 X213.416 Y104.452
G01 X216.451 Y103.723
G01 X219.500 Y103.057
G01 X222.578 Y102.452
G01 X225.653 Y101.913
G01 X228.738 Y101.439
G01 X231.832 Y101.029
G01 X234.935 Y100.683
G01 X238.059 Y100.401
G01 X241.173 Y100.185
G01 X244.289 Y100.009
G01 X247.410 Y99.922
G01 X250.532 Y99.901
G01 X253.669 Y99.945
G01 X256.789 Y100.054
G01 X259.906 Y100.227
G01 X263.019 Y100.466
G01 X266.126 Y100.769
G01 X269.227 Y101.136
G01 X272.337 Y101.546
G01 X275.420 Y102.043
G01 X278.492 Y102.603
G01 X281.551 Y103.228
G01 X284.597 Y103.916
G01 X287.628 Y104.667
G01 X290.643 Y105.481
G01 X293.640 Y106.358
G01 X296.640 Y107.277
G01 X297.894 Y107.693
G01 X297.732 Y107.797
G01 X296.208 Y107.295
G01 X293.230 Y106.364
G01 X290.219 Y105.492
G01 X287.204 Y104.687
G01 X284.174 Y103.945
G01 X281.129 Y103.266
G01 X278.056 Y102.647
G01 X274.985 Y102.095
G01 X271.903 Y101.608
G01 X268.797 Y101.182
G01 X265.698 Y100.824
G01 X262.592 Y100.529
G01 X259.466 Y100.299
G01 X256.350 Y100.134
G01 X253.232 Y100.035
G01 X250.112 Y100.000
G01 X246.977 Y100.030
G01 X243.859 Y100.126
G01 X240.743 Y100.286
G01 X237.616 Y100.512
G01 X234.510 Y100.802
G01 X231.410 Y101.156
G01 X228.303 Y101.577
G01 X225.221 Y102.061
G01 X222.149 Y102.608
G01 X219.075 Y103.222
G01 X216.029 Y103.897
G01 X212.998 Y104.636
G01 X209.982 Y105.437
G01 X206.970 Y106.304
G01 X203.991 Y107.230
G01 X201.031 Y108.218
G01 X198.079 Y109.273
G01 X195.163 Y110.383
G01 X192.271 Y111.554
G01 X189.391 Y112.790
G01 X186.550 Y114.081
G01 X183.737 Y115.430
G01 X180.939 Y116.844
G01 X178.184 Y118.309
G01 X175.461 Y119.831
G01 X172.770 Y121.410
G01 X170.099 Y123.052
G01 X167.476 Y124.741
G01 X164.889 Y126.484
G01 X162.326 Y128.290
G01 X159.814 Y130.140
G01 X157.340 Y132.042
G01 X154.895 Y134.004
G01 X152.503 Y136.007
G01 X150.154 Y138.059
G01 X147.836 Y140.170
G01 X145.574 Y142.319
G01 X143.357 Y144.514
G01 X141.186 Y146.755
G01 X139.052 Y149.052
G01 X136.977 Y151.381
G01 X134.950 Y153.753
G01 X132.964 Y156.179
G01 X131.038 Y158.633
G01 X129.163 Y161.127
G01 X127.332 Y163.672
G01 X125.563 Y166.242
G01 X123.848 Y168.848
G01 X122.180 Y171.502
G01 X120.575 Y174.177
G01 X119.026 Y176.886
G01 X117.526 Y179.639
G01 X116.091 Y182.409
G01 X114.715 Y185.209
G01 X113.396 Y188.037
G01 X112.131 Y190.905
G01 X110.932 Y193.785
G01 X109.793 Y196.690
G01 X108.709 Y199.632
G01 X107.692 Y202.581
G01 X106.737 Y205.551
G01 X105.839 Y208.555
G01 X105.008 Y211.562
G01 X104.240 Y214.586
G01 X103.532 Y217.640
G01 X102.891 Y220.693
G01 X102.313 Y223.759
G01 X101.799 Y226.837
G01 X101.348 Y229.939
G01 X100.962 Y233.035
G01 X100.642 Y236.138
G01 X100.385 Y239.263
G01 X100.194 Y242.377
G01 X100.068 Y245.494
G01 X100.006 Y248.629
G01 X100.010 Y251.749
G01 X100.079 Y254.868
G01 X100.213 Y258.000
G01 X100.412 Y261.113
G01 X100.676 Y264.222
G01 X101.006 Y267.340
G01 X101.398 Y270.435
G01 X101.856 Y273.521
G01 X102.377 Y276.597
G01 X102.965 Y279.677
G01 X102.977 Y279.735
G01 X100.291 Y278.243
G01 X97.572 Y276.708
G01 X94.874 Y275.139
G01 X92.193 Y273.521
G01 X89.534 Y271.870
G01 X86.897 Y270.206
G01 X84.277 Y268.481
G01 X81.706 Y266.743
G01 X79.129 Y264.965
G01 X76.573 Y263.146
G01 X74.063 Y261.303
G01 X71.574 Y259.422
G01 X69.081 Y257.505
G01 X66.635 Y255.568
G01 X64.210 Y253.597
G01 X61.832 Y251.592
G01 X59.451 Y249.554
G01 X57.116 Y247.484
G01 X54.779 Y245.403
G01 X52.489 Y243.274
G01 X50.247 Y241.117
G01 X48.003 Y238.931
G01 X45.806 Y236.721
G01 X43.607 Y234.483
G01 X41.456 Y232.222
G01 X39.355 Y229.919
G01 X37.252 Y227.591
G01 X35.197 Y225.244
G01 X33.165 Y222.876
G01 X31.184 Y220.470
G01 X29.201 Y218.041
G01 X27.270 Y215.576
G01 X25.362 Y213.093
G01 X23.502 Y210.597
G01 X21.665 Y208.086
G01 X21.120 Y207.323
G01 X20.721 Y209.522
G01 X20.199 Y212.598
G01 X19.718 Y215.681
G01 X19.279 Y218.770
G01 X18.881 Y221.864
G01 X18.523 Y224.987
G01 X18.208 Y228.091
G01 X17.935 Y231.198
G01 X17.704 Y234.310
G01 X17.515 Y237.424
G01 X17.366 Y240.563
G01 X17.261 Y243.681
G01 X17.197 Y246.801
G01 X17.175 Y249.920
G01 X17.195 Y253.063
G01 X17.257 Y256.183
G01 X17.361 Y259.301
G01 X17.506 Y262.417
G01 X17.694 Y265.531
G01 X17.924 Y268.666
G01 X18.195 Y271.774
G01 X18.508 Y274.878
G01 X18.862 Y277.978
G01 X19.258 Y281.072
G01 X19.698 Y284.185
G01 X20.177 Y287.267
G01 X20.697 Y290.344
G01 X21.258 Y293.413
G01 X21.865 Y296.497
G01 X22.509 Y299.549
G01 X23.193 Y302.593
G01 X23.918 Y305.628
G01 X24.684 Y308.652
G01 X25.496 Y311.688
G01 X26.343 Y314.691
G01 X27.230 Y317.682
G01 X28.157 Y320.661
G01 X29.123 Y323.627
G01 X30.137 Y326.602
G01 X31.184 Y329.542
G01 X32.269 Y332.467
G01 X33.394 Y335.377
G01 X34.566 Y338.293
G01 X35.768 Y341.172
G01 X37.009 Y344.034
G01 X38.288 Y346.880
G01 X39.606 Y349.708
G01 X40.971 Y352.539
G01 X42.363 Y355.331
G01 X43.794 Y358.104
G01 X45.261 Y360.857
G01 X46.764 Y363.590
G01 X48.316 Y366.324
G01 X49.893 Y369.016
G01 X51.506 Y371.686
G01 X53.154 Y374.335
G01 X54.838 Y376.962
G01 X56.570 Y379.585
G01 X58.323 Y382.165
G01 X60.112 Y384.721
G01 X61.934 Y387.254
G01 X63.804 Y389.780
G01 X65.694 Y392.262
G01 X67.616 Y394.719
G01 X69.572 Y397.150
G01 X71.560 Y399.555
G01 X73.595 Y401.950
G01 X75.647 Y404.300
G01 X77.730 Y406.622
G01 X79.844 Y408.917
G01 X81.989 Y411.182
G01 X84.180 Y413.436
G01 X86.385 Y415.643
G01 X88.619 Y417.821
G01 X90.883 Y419.968
G01 X93.192 Y422.101
G01 X95.512 Y424.186
G01 X97.860 Y426.241
G01 X100.235 Y428.263
G01 X102.637 Y430.254
G01 X105.084 Y432.227
G01 X107.538 Y434.153
G01 X110.019 Y436.045
G01 X112.524 Y437.904
G01 X115.055 Y439.729
G01 X117.628 Y441.534
G01 X120.206 Y443.290
G01 X122.808 Y445.012
G01 X125.433 Y446.699
G01 X128.099 Y448.363
G01 X130.768 Y449.978
G01 X133.459 Y451.558
G01 X136.170 Y453.101
G01 X138.902 Y454.608
G01 X141.674 Y456.090
G01 X144.445 Y457.523
G01 X147.235 Y458.918
G01 X150.044 Y460.277
G01 X152.870 Y461.597
G01 X155.736 Y462.889
G01 X158.597 Y464.133
G01 X161.474 Y465.339
G01 X164.368 Y466.505
G01 X167.277 Y467.633
G01 X170.222 Y468.730
G01 X173.160 Y469.780
G01 X176.112 Y470.790
G01 X179.077 Y471.760
G01 X182.077 Y472.697
G01 X185.074 Y473.563
G01 X188.076 Y474.413
G01 X191.088 Y475.223
G01 X194.112 Y475.992
G01 X197.167 Y476.726
G01 X200.210 Y477.413
G01 X203.262 Y478.060
G01 X206.322 Y478.666
G01 X209.390 Y479.231
G01 X212.488 Y479.758
G01 X215.570 Y480.240
G01 X218.659 Y480.681
G01 X221.752 Y481.080
G01 X224.874 Y481.440
G01 X227.978 Y481.756
G01 X231.085 Y482.030
G01 X234.196 Y482.263
G01 X237.310 Y482.454
G01 X240.449 Y482.604
G01 X243.567 Y482.711
G01 X246.685 Y482.776
G01 X249.805 Y482.800
G01 X250.876 Y482.798
G01 X249.459 Y481.324
G01 X247.311 Y479.059
G01 X245.206 Y476.749
G01 X243.121 Y474.445
G01 X241.059 Y472.070
G01 X239.041 Y469.702
G01 X237.048 Y467.289
G01 X235.078 Y464.857
G01 X233.155 Y462.408
G01 X231.260 Y459.915
G01 X229.389 Y457.429
G01 X227.548 Y454.899
G01 X225.740 Y452.326
G01 X223.977 Y449.762
G01 X222.249 Y447.156
G01 X220.630 Y444.672
G01 X220.475 Y444.648
G01 X217.384 Y444.154
G01 X214.301 Y443.611
G01 X211.246 Y443.023
G01 X208.182 Y442.383
G01 X205.129 Y441.693
G01 X202.106 Y440.960
G01 X199.076 Y440.175
G01 X196.058 Y439.341
G01 X193.055 Y438.460
G01 X190.084 Y437.536
G01 X187.110 Y436.560
G01 X184.152 Y435.537
G01 X181.229 Y434.473
G01 X178.305 Y433.356
G01 X175.398 Y432.193
G01 X172.511 Y430.984
G01 X169.661 Y429.737
G01 X166.814 Y428.437
G01 X163.987 Y427.092
G01 X161.200 Y425.711
G01 X158.418 Y424.277
G01 X155.658 Y422.799
G01 X152.940 Y421.287
G01 X150.229 Y419.722
G01 X147.543 Y418.114
G01 X144.883 Y416.464
G01 X142.266 Y414.782
G01 X139.660 Y413.049
G01 X137.081 Y411.274
G01 X134.548 Y409.469
G01 X132.027 Y407.614
G01 X129.536 Y405.718
G01 X127.075 Y403.783
G01 X124.661 Y401.822
G01 X122.263 Y399.810
G01 X119.897 Y397.760
G01 X117.579 Y395.686
G01 X115.279 Y393.562
G01 X113.014 Y391.402
G01 X110.783 Y389.206
G01 X108.601 Y386.989
G01 X106.441 Y384.724
G01 X104.317 Y382.424
G01 X102.243 Y380.106
G01 X100.193 Y377.740
G01 X98.181 Y375.342
G01 X96.207 Y372.913
G01 X94.284 Y370.467
G01 X92.389 Y367.976
G01 X90.533 Y365.456
G01 X88.729 Y362.922
G01 X86.954 Y360.343
G01 X85.220 Y357.737
G01 X83.528 Y355.104
G01 X81.888 Y352.460
G01 X80.280 Y349.774
G01 X78.715 Y347.063
G01 X77.203 Y344.345
G01 X75.725 Y341.586
G01 X74.291 Y338.803
G01 X72.901 Y335.998
G01 X71.564 Y333.190
G01 X70.264 Y330.342
G01 X69.010 Y327.474
G01 X67.808 Y324.605
G01 X66.645 Y321.699
G01 X65.528 Y318.775
G01 X64.458 Y315.833
G01 X63.441 Y312.893
G01 X62.465 Y309.919
G01 X61.536 Y306.930
G01 X60.660 Y303.945
G01 X59.826 Y300.928
G01 X59.040 Y297.898
G01 X58.303 Y294.856
G01 X57.618 Y291.822
G01 X56.978 Y288.758
G01 X56.386 Y285.684
G01 X55.846 Y282.620
G01 X55.352 Y279.529
G01 X54.907 Y276.431
G01 X54.512 Y273.326
G01 X54.168 Y270.234
G01 X53.871 Y267.118
G01 X53.623 Y263.997
G01 X53.427 Y260.893
G01 X53.278 Y257.766
G01 X53.180 Y254.638
G01 X53.131 Y251.527
G01 X53.132 Y248.397
G01 X53.182 Y245.267
G01 X53.206 Y244.342
G01 X54.769 Y245.872
G01 X57.060 Y248.024
G01 X59.375 Y250.125
G01 X61.712 Y252.157
G01 X64.096 Y254.157
G01 X64.097 Y254.176
G01 X64.193 Y257.298
G01 X64.342 Y260.419
G01 X64.543 Y263.536
G01 X64.797 Y266.650
G01 X65.103 Y269.758
G01 X65.461 Y272.862
G01 X65.871 Y275.959
G01 X66.333 Y279.048
G01 X66.847 Y282.130
G01 X67.412 Y285.202
G01 X68.030 Y288.264
G01 X68.698 Y291.316
G01 X69.418 Y294.356
G01 X70.188 Y297.383
G01 X71.015 Y300.415
G01 X71.887 Y303.415
G01 X72.809 Y306.399
G01 X73.782 Y309.368
G01 X74.804 Y312.320
G01 X75.876 Y315.254
G01 X76.996 Y318.170
G01 X78.166 Y321.067
G01 X79.384 Y323.944
G01 X80.651 Y326.799
G01 X81.965 Y329.634
G01 X83.326 Y332.445
G01 X84.735 Y335.234
G01 X86.190 Y337.998
G01 X87.691 Y340.737
G01 X89.238 Y343.451
G01 X90.831 Y346.139
G01 X92.469 Y348.799
G01 X94.150 Y351.431
G01 X95.876 Y354.035
