;  Created by Sandify
;  https://sandify.org
;  Version: 0.2.6
;
;  Machine type: Rectangular
;    Min X (mm): 0
;    Max X (mm): 500
;    Min Y (mm): 0
;    Max Y (mm): 500
;  Content type: shape
;  Layer:
;    Shape: FileImport
;    Name: LiddingtonCastle 6-24-2001.thr
;    From file:: LiddingtonCastle 6-24-2001.thr
;    Aspect Ratio: true
;    Comments: 
;    Visible: true
;    Initial width: 10
;    Initial height: 10
;    X offset: 0
;    Y offset: 0
;    Rotate (degrees): 0
;    Reverse path: false
;    Fine tuning:
;      Connect to next layer: line
;      Draw portion of path (%): 100
;      Backtrack at end (%): 0
;      Rotate starting point (%): 0
;  Reverse export path: false
;
; File name: 'LiddingtonCastle (C E)'
; File type: gcode
;

G01 X250.000 Y250.000
G01 X249.996 Y250.088
G01 X249.983 Y250.175
G01 X249.961 Y250.260
G01 X249.932 Y250.344
G01 X249.893 Y250.425
G01 X249.847 Y250.504
G01 X249.793 Y250.578
G01 X249.731 Y250.648
G01 X249.662 Y250.714
G01 X249.587 Y250.774
G01 X249.504 Y250.828
G01 X249.415 Y250.875
G01 X249.321 Y250.916
G01 X249.221 Y250.949
G01 X249.116 Y250.975
G01 X249.008 Y250.992
G01 X248.895 Y251.001
G01 X248.780 Y251.002
G01 X248.661 Y250.993
G01 X248.541 Y250.975
G01 X248.420 Y250.947
G01 X248.298 Y250.910
G01 X248.176 Y250.863
G01 X248.055 Y250.806
G01 X247.935 Y250.739
G01 X247.818 Y250.662
G01 X247.703 Y250.575
G01 X247.591 Y250.479
G01 X247.484 Y250.373
G01 X247.381 Y250.258
G01 X247.284 Y250.133
G01 X247.193 Y250.000
G01 X247.109 Y249.858
G01 X247.032 Y249.708
G01 X246.963 Y249.550
G01 X246.924 Y249.447
G01 X246.580 Y249.385
G01 X246.451 Y249.540
G01 X246.329 Y249.706
G01 X246.215 Y249.884
G01 X246.110 Y250.071
G01 X246.014 Y250.269
G01 X245.929 Y250.477
G01 X245.855 Y250.693
G01 X245.792 Y250.918
G01 X245.742 Y251.150
G01 X245.705 Y251.390
G01 X245.681 Y251.635
G01 X245.671 Y251.887
G01 X245.672 Y252.016
G01 X245.555 Y252.342
G01 X245.487 Y252.582
G01 X245.527 Y252.859
G01 X245.585 Y253.138
G01 X245.659 Y253.418
G01 X245.750 Y253.698
G01 X245.858 Y253.977
G01 X245.984 Y254.254
G01 X246.127 Y254.528
G01 X246.288 Y254.799
G01 X246.381 Y254.942
G01 X246.519 Y255.279
G01 X246.559 Y255.366
G01 X246.785 Y255.600
G01 X247.026 Y255.825
G01 X247.282 Y256.039
G01 X247.551 Y256.242
G01 X247.834 Y256.432
G01 X248.130 Y256.610
G01 X248.438 Y256.774
G01 X248.721 Y256.908
G01 X249.033 Y257.175
G01 X249.368 Y257.427
G01 X249.725 Y257.663
G01 X250.000 Y257.825
G01 X250.386 Y257.866
G01 X250.777 Y257.888
G01 X251.170 Y257.890
G01 X251.555 Y257.873
G01 X251.980 Y257.949
G01 X252.416 Y258.003
G01 X252.862 Y258.032
G01 X253.316 Y258.037
G01 X253.778 Y258.016
G01 X254.094 Y257.987
G01 X254.500 Y257.809
G01 X254.625 Y257.750
G01 X255.072 Y257.622
G01 X255.518 Y257.469
G01 X255.960 Y257.290
G01 X256.398 Y257.085
G01 X256.830 Y256.855
G01 X257.254 Y256.600
G01 X257.472 Y256.456
G01 X257.798 Y256.300
G01 X258.185 Y255.973
G01 X258.558 Y255.623
G01 X258.916 Y255.251
G01 X259.259 Y254.857
G01 X259.583 Y254.442
G01 X259.691 Y254.294
G01 X260.021 Y253.960
G01 X260.306 Y253.498
G01 X260.570 Y253.018
G01 X260.811 Y252.520
G01 X261.029 Y252.006
G01 X261.190 Y251.570
G01 X261.452 Y251.046
G01 X261.535 Y250.485
G01 X261.589 Y249.918
G01 X261.616 Y249.347
G01 X261.615 Y248.773
G01 X261.605 Y248.510
G01 X261.707 Y247.908
G01 X261.778 Y247.294
G01 X261.816 Y246.667
G01 X261.820 Y246.030
G01 X261.803 Y245.591
G01 X261.708 Y245.412
G01 X261.519 Y244.820
G01 X261.300 Y244.236
G01 X261.051 Y243.661
G01 X260.773 Y243.097
G01 X260.466 Y242.545
G01 X260.255 Y241.907
G01 X260.006 Y241.274
G01 X259.720 Y240.645
G01 X259.395 Y240.024
G01 X259.237 Y239.747
G01 X259.185 Y239.701
G01 X258.682 Y239.246
G01 X258.157 Y238.815
G01 X257.610 Y238.410
G01 X257.044 Y238.032
G01 X256.693 Y237.818
G01 X256.168 Y237.337
G01 X255.613 Y236.880
G01 X255.026 Y236.446
G01 X254.411 Y236.039
G01 X254.209 Y235.915
G01 X253.581 Y235.447
G01 X253.495 Y235.387
G01 X252.773 Y235.241
G01 X252.044 Y235.131
G01 X251.311 Y235.057
G01 X251.287 Y235.055
G01 X250.556 Y234.889
G01 X249.813 Y234.759
G01 X249.058 Y234.666
G01 X248.293 Y234.610
G01 X248.194 Y234.606
G01 X247.396 Y234.450
G01 X246.580 Y234.336
G01 X245.902 Y234.275
G01 X245.151 Y234.542
G01 X245.140 Y234.546
G01 X244.374 Y234.767
G01 X243.618 Y235.027
G01 X242.875 Y235.323
G01 X242.206 Y235.627
G01 X241.408 Y235.860
G01 X240.615 Y236.137
G01 X239.829 Y236.458
G01 X239.277 Y236.712
G01 X238.433 Y237.025
G01 X238.248 Y237.101
G01 X237.629 Y237.693
G01 X237.040 Y238.315
G01 X236.835 Y238.546
G01 X236.195 Y239.133
G01 X235.582 Y239.754
G01 X234.996 Y240.410
G01 X234.673 Y240.802
G01 X234.021 Y241.448
G01 X233.395 Y242.136
G01 X233.268 Y242.284
G01 X232.949 Y243.130
G01 X232.892 Y243.294
G01 X232.536 Y244.125
G01 X232.220 Y244.975
G01 X231.945 Y245.842
G01 X231.836 Y246.235
G01 X231.463 Y247.098
G01 X231.131 Y247.988
G01 X230.842 Y248.904
G01 X230.768 Y249.171
G01 X230.475 Y250.000
G01 X230.520 Y250.957
G01 X230.611 Y251.910
G01 X230.654 Y252.237
G01 X230.680 Y253.201
G01 X230.754 Y254.168
G01 X230.877 Y255.136
G01 X230.910 Y255.349
G01 X230.951 Y256.361
G01 X231.046 Y257.382
G01 X231.131 Y258.013
G01 X231.312 Y258.427
G01 X231.654 Y259.382
G01 X232.044 Y260.323
G01 X232.483 Y261.249
G01 X232.515 Y261.312
G01 X232.919 Y262.280
G01 X233.103 Y262.679
G01 X233.782 Y263.462
G01 X234.193 Y263.901
G01 X234.846 Y264.706
G01 X235.540 Y265.481
G01 X236.274 Y266.222
G01 X236.278 Y266.226
G01 X236.954 Y267.058
G01 X237.679 Y267.863
G01 X238.362 Y268.552
G01 X238.771 Y269.035
G01 X239.708 Y269.582
G01 X240.672 Y270.083
G01 X240.966 Y270.224
G01 X241.912 Y270.792
G01 X242.891 Y271.315
G01 X243.718 Y271.709
G01 X244.612 Y272.180
G01 X245.700 Y272.457
G01 X246.671 Y272.657
G01 X247.770 Y272.967
G01 X248.891 Y273.223
G01 X249.713 Y273.373
G01 X250.000 Y273.450
G01 X251.150 Y273.401
G01 X252.295 Y273.297
G01 X252.823 Y273.229
G01 X253.981 Y273.191
G01 X255.142 Y273.095
G01 X255.941 Y272.995
G01 X257.140 Y272.926
G01 X258.346 Y272.795
G01 X259.004 Y272.543
G01 X260.124 Y272.126
G01 X261.223 Y271.654
G01 X261.890 Y271.336
G01 X263.037 Y270.910
G01 X264.171 Y270.423
G01 X264.777 Y270.135
G01 X265.003 Y270.029
G01 X265.968 Y269.269
G01 X266.894 Y268.462
G01 X267.199 Y268.178
G01 X268.171 Y267.409
G01 X269.108 Y266.588
G01 X269.574 Y266.148
G01 X270.560 Y265.330
G01 X271.103 Y264.843
G01 X271.681 Y263.893
G01 X272.371 Y262.833
G01 X273.010 Y261.738
G01 X273.290 Y261.215
G01 X273.994 Y260.136
G01 X274.647 Y259.014
G01 X274.901 Y258.540
G01 X275.505 Y257.552
G01 X275.700 Y256.256
G01 X275.773 Y255.601
G01 X275.987 Y254.324
G01 X276.137 Y253.040
G01 X276.181 Y252.502
G01 X276.397 Y251.220
G01 X276.550 Y249.923
G01 X276.593 Y249.406
G01 X276.823 Y248.081
G01 X276.987 Y246.732
G01 X277.024 Y246.307
G01 X277.216 Y244.909
G01 X277.264 Y244.442
G01 X276.775 Y243.302
G01 X276.279 Y242.037
G01 X275.724 Y240.805
G01 X275.542 Y240.432
G01 X275.051 Y239.186
G01 X274.500 Y237.965
G01 X274.302 Y237.563
G01 X273.804 Y236.304
G01 X273.241 Y235.064
G01 X273.059 Y234.697
G01 X272.544 Y233.389
G01 X271.956 Y232.096
G01 X271.821 Y231.824
G01 X271.261 Y230.446
G01 X270.718 Y229.281
G01 X270.419 Y229.092
G01 X269.224 Y228.279
G01 X267.998 Y227.533
G01 X267.785 Y227.411
G01 X266.616 Y226.621
G01 X265.413 Y225.891
G01 X265.145 Y225.739
G01 X263.981 Y224.947
G01 X262.775 Y224.210
G01 X262.511 Y224.059
G01 X261.322 Y223.242
G01 X260.083 Y222.479
G01 X259.884 Y222.364
G01 X258.632 Y221.529
G01 X257.322 Y220.751
G01 X257.242 Y220.707
G01 X255.903 Y219.842
G01 X255.855 Y219.813
G01 X254.376 Y219.816
G01 X252.876 Y219.780
G01 X251.383 Y219.819
G01 X251.252 Y219.826
G01 X249.770 Y219.789
G01 X248.287 Y219.825
G01 X248.130 Y219.833
G01 X246.633 Y219.794
G01 X245.128 Y219.830
G01 X245.001 Y219.836
G01 X243.459 Y219.803
G01 X241.902 Y219.848
G01 X241.878 Y219.850
G01 X240.260 Y219.823
G01 X239.025 Y219.861
G01 X238.796 Y219.999
G01 X237.422 Y220.782
G01 X236.118 Y221.612
G01 X234.766 Y222.371
G01 X233.455 Y223.194
G01 X233.433 Y223.209
G01 X232.089 Y223.982
G01 X230.781 Y224.823
G01 X230.765 Y224.834
G01 X229.389 Y225.614
G01 X228.087 Y226.441
G01 X226.654 Y227.249
G01 X225.399 Y228.043
G01 X224.095 Y228.838
G01 X223.216 Y230.171
G01 X222.286 Y231.517
G01 X221.498 Y232.780
G01 X220.571 Y234.137
G01 X219.794 Y235.399
G01 X218.841 Y236.782
G01 X218.077 Y238.011
G01 X217.666 Y238.629
G01 X217.368 Y240.295
G01 X217.271 Y240.978
G01 X216.958 Y242.615
G01 X216.751 Y244.060
G01 X216.447 Y245.692
G01 X216.246 Y247.142
G01 X215.931 Y248.794
G01 X215.726 Y250.227
G01 X215.403 Y251.929
G01 X215.207 Y253.309
G01 X214.907 Y255.085
G01 X214.875 Y255.317
G01 X215.177 Y256.363
G01 X215.625 Y258.042
G01 X216.043 Y259.366
G01 X216.491 Y261.038
G01 X216.911 Y262.369
G01 X217.365 Y264.061
G01 X217.779 Y265.371
G01 X218.241 Y267.112
G01 X218.637 Y268.377
G01 X218.800 Y268.895
G01 X219.894 Y270.315
G01 X220.397 Y270.921
G01 X221.481 Y272.331
G01 X222.348 Y273.363
G01 X223.434 Y274.779
G01 X224.293 Y275.806
G01 X225.405 Y277.242
G01 X226.249 Y278.240
G01 X227.396 Y279.723
G01 X227.759 Y280.162
G01 X228.370 Y280.480
G01 X229.963 Y281.393
G01 X231.105 Y281.986
G01 X232.691 Y282.888
G01 X233.848 Y283.483
G01 X235.441 Y284.398
G01 X236.586 Y284.992
G01 X238.216 Y285.923
G01 X239.325 Y286.496
G01 X240.826 Y287.314
G01 X242.222 Y287.527
G01 X244.077 Y287.834
G01 X245.313 Y287.987
G01 X247.173 Y288.292
G01 X248.405 Y288.442
G01 X250.295 Y288.766
G01 X251.493 Y288.921
G01 X252.946 Y289.139
G01 X254.577 Y288.831
G01 X256.472 Y288.530
G01 X257.652 Y288.293
G01 X259.548 Y287.976
G01 X260.724 Y287.731
G01 X262.653 Y287.425
G01 X263.807 Y287.195
G01 X265.478 Y286.884
G01 X266.725 Y286.198
G01 X268.452 Y285.278
G01 X269.460 Y284.690
G01 X271.189 Y283.773
G01 X272.197 Y283.186
G01 X273.950 Y282.261
G01 X274.941 Y281.687
G01 X276.728 Y280.726
G01 X277.504 Y280.271
G01 X277.632 Y280.121
G01 X278.985 Y278.638
G01 X279.707 Y277.784
G01 X281.059 Y276.314
G01 X281.790 Y275.454
G01 X283.157 Y273.977
G01 X283.883 Y273.129
G01 X285.272 Y271.620
G01 X285.967 Y270.803
G01 X286.316 Y270.393
G01 X287.184 Y268.543
G01 X287.399 Y268.046
G01 X288.284 Y266.208
G01 X288.719 Y265.212
G01 X289.622 Y263.363
G01 X290.053 Y262.388
G01 X290.938 Y260.491
G01 X291.097 Y260.121
G01 X291.219 Y259.502
G01 X291.619 Y257.465
G01 X291.783 Y256.429
G01 X292.181 Y254.385
G01 X292.342 Y253.355
G01 X292.760 Y251.282
G01 X292.924 Y250.282
G01 X292.975 Y249.999
G01 X295.800 Y249.998
G01 X298.925 Y249.998
G01 X302.050 Y249.998
G01 X305.175 Y249.998
G01 X308.300 Y249.998
G01 X311.425 Y249.998
G01 X314.550 Y249.998
G01 X317.675 Y249.998
G01 X320.800 Y249.998
G01 X323.925 Y249.998
G01 X327.050 Y249.997
G01 X330.175 Y249.997
G01 X333.300 Y249.997
G01 X336.425 Y249.997
G01 X339.550 Y249.997
G01 X342.675 Y249.997
G01 X345.050 Y249.997
G01 X345.322 Y250.693
G01 X345.830 Y251.942
G01 X344.961 Y253.493
G01 X343.655 Y255.642
G01 X343.690 Y255.033
G01 X343.731 Y251.909
G01 X343.742 Y248.788
G01 X343.700 Y245.665
G01 X343.688 Y244.933
G01 X344.927 Y246.987
G01 X346.450 Y249.717
G01 X347.605 Y251.969
G01 X347.318 Y252.489
G01 X345.759 Y255.202
G01 X344.098 Y257.853
G01 X342.362 Y260.441
G01 X341.848 Y261.174
G01 X341.966 Y258.946
G01 X342.091 Y255.825
G01 X342.161 Y252.698
G01 X342.199 Y249.573
G01 X342.157 Y246.447
G01 X342.059 Y243.329
G01 X341.930 Y240.206
G01 X341.869 Y239.432
G01 X343.226 Y241.368
G01 X344.934 Y243.979
G01 X346.542 Y246.665
G01 X348.048 Y249.399
G01 X349.355 Y251.994
G01 X349.251 Y252.181
G01 X347.751 Y254.918
G01 X346.125 Y257.597
G01 X344.425 Y260.206
G01 X342.601 Y262.754
G01 X340.704 Y265.240
G01 X339.861 Y266.284
G01 X340.039 Y264.509
G01 X340.259 Y261.393
G01 X340.422 Y258.276
G01 X340.554 Y255.146
G01 X340.602 Y252.027
G01 X340.618 Y248.900
G01 X340.576 Y245.773
G01 X340.477 Y242.652
G01 X340.321 Y239.537
G01 X340.107 Y236.416
G01 X339.918 Y234.321
G01 X340.561 Y235.122
G01 X342.473 Y237.606
G01 X344.286 Y240.146
G01 X346.002 Y242.754
G01 X347.618 Y245.425
G01 X349.158 Y248.152
G01 X350.571 Y250.932
G01 X351.105 Y252.029
G01 X350.206 Y253.716
G01 X348.665 Y256.439
G01 X347.025 Y259.095
G01 X345.286 Y261.689
G01 X343.473 Y264.229
G01 X341.541 Y266.692
G01 X339.537 Y269.090
G01 X337.784 Y271.061
G01 X337.848 Y270.575
G01 X338.186 Y267.470
G01 X338.468 Y264.356
G01 X338.691 Y261.241
G01 X338.879 Y258.125
G01 X338.985 Y254.994
G01 X339.055 Y251.876
G01 X339.066 Y248.750
G01 X339.017 Y245.623
G01 X338.909 Y242.502
G01 X338.742 Y239.378
G01 X338.516 Y236.266
G01 X338.256 Y233.152
G01 X337.913 Y230.042
G01 X337.875 Y229.542
G01 X339.609 Y231.496
G01 X341.597 Y233.906
G01 X343.513 Y236.380
G01 X345.333 Y238.917
G01 X347.055 Y241.512
G01 X348.703 Y244.176
G01 X350.252 Y246.898
G01 X351.699 Y249.661
G01 X352.854 Y252.054
G01 X352.620 Y252.470
G01 X351.165 Y255.232
G01 X349.585 Y257.930
G01 X347.931 Y260.575
G01 X346.178 Y263.168
G01 X344.330 Y265.685
G01 X342.386 Y268.138
G01 X340.375 Y270.520
G01 X338.269 Y272.837
G01 X336.099 Y275.072
G01 X335.620 Y275.547
G01 X335.945 Y273.118
G01 X336.336 Y270.012
G01 X336.666 Y266.907
G01 X336.962 Y263.799
G01 X337.174 Y260.676
G01 X337.323 Y257.561
G01 X337.438 Y254.434
G01 X337.490 Y251.310
G01 X337.481 Y248.186
G01 X337.436 Y245.060
G01 X337.304 Y241.942
G01 X337.135 Y238.818
G01 X336.907 Y235.704
G01 X336.618 Y232.592
G01 X336.294 Y229.482
G01 X335.887 Y226.384
G01 X335.689 Y225.041
G01 X336.950 Y226.288
G01 X339.082 Y228.565
G01 X341.148 Y230.912
G01 X343.144 Y233.326
G01 X345.021 Y235.811
G01 X346.853 Y238.358
G01 X348.562 Y240.963
G01 X350.197 Y243.626
G01 X351.735 Y246.353
G01 X353.171 Y249.120
G01 X354.507 Y251.951
G01 X354.579 Y252.088
G01 X353.217 Y254.727
G01 X351.702 Y257.455
G01 X350.064 Y260.127
G01 X348.353 Y262.745
G01 X346.570 Y265.304
G01 X344.668 Y267.791
G01 X342.697 Y270.210
G01 X340.658 Y272.567
G01 X338.504 Y274.844
G01 X336.309 Y277.055
G01 X334.003 Y279.174
G01 X333.340 Y279.778
G01 X333.699 Y277.576
G01 X334.186 Y274.488
G01 X334.612 Y271.395
G01 X334.955 Y268.282
G01 X335.260 Y265.177
G01 X335.503 Y262.064
G01 X335.710 Y258.943
G01 X335.828 Y255.817
G01 X335.908 Y252.696
G01 X335.949 Y249.576
G01 X335.902 Y246.447
G01 X335.816 Y243.324
G01 X335.667 Y240.206
G01 X335.454 Y237.082
G01 X335.181 Y233.977
G01 X334.870 Y230.867
G01 X334.498 Y227.763
G01 X334.065 Y224.664
G01 X333.574 Y221.576
G01 X333.435 Y220.792
G01 X335.152 Y222.363
G01 X337.391 Y224.536
G01 X339.565 Y226.783
G01 X341.649 Y229.107
G01 X343.665 Y231.497
G01 X345.589 Y233.962
G01 X347.442 Y236.484
G01 X349.199 Y239.061
G01 X350.860 Y241.708
G01 X352.447 Y244.408
G01 X353.911 Y247.159
G01 X355.300 Y249.954
G01 X356.304 Y252.112
G01 X355.963 Y252.784
G01 X354.527 Y255.563
G01 X353.016 Y258.297
G01 X351.383 Y260.968
G01 X349.680 Y263.576
G01 X347.879 Y266.134
G01 X346.009 Y268.630
G01 X344.046 Y271.057
G01 X341.991 Y273.417
G01 X339.848 Y275.697
G01 X337.660 Y277.922
G01 X335.365 Y280.050
G01 X333.030 Y282.115
G01 X330.991 Y283.772
G01 X331.083 Y283.288
G01 X331.665 Y280.215
G01 X332.211 Y277.140
G01 X332.674 Y274.048
G01 X333.073 Y270.953
G01 X333.439 Y267.842
G01 X333.739 Y264.734
G01 X333.975 Y261.617
G01 X334.172 Y258.502
G01 X334.278 Y255.381
G01 X334.370 Y252.259
G01 X334.370 Y249.128
G01 X334.330 Y246.005
G01 X334.225 Y242.880
G01 X334.078 Y239.757
G01 X333.843 Y236.647
G01 X333.568 Y233.535
G01 X333.255 Y230.425
G01 X332.853 Y227.325
G01 X332.416 Y224.232
G01 X331.918 Y221.149
G01 X331.360 Y218.075
G01 X331.104 Y216.763
G01 X332.475 Y217.904
G01 X334.838 Y219.958
G01 X337.135 Y222.076
G01 X339.348 Y224.285
G01 X341.494 Y226.556
G01 X343.552 Y228.910
G01 X345.540 Y231.315
G01 X347.438 Y233.802
G01 X349.240 Y236.345
G01 X350.972 Y238.947
G01 X352.632 Y241.603
G01 X354.170 Y244.314
G01 X355.635 Y247.080
G01 X357.000 Y249.889
G01 X358.029 Y252.146
G01 X357.740 Y252.734
G01 X356.332 Y255.520
G01 X354.825 Y258.263
G01 X353.246 Y260.950
G01 X351.570 Y263.586
G01 X349.800 Y266.164
G01 X347.935 Y268.679
G01 X346.002 Y271.132
G01 X343.978 Y273.513
G01 X341.888 Y275.833
G01 X339.710 Y278.072
G01 X337.467 Y280.250
G01 X335.141 Y282.336
G01 X332.753 Y284.352
G01 X330.305 Y286.293
G01 X328.577 Y287.577
G01 X328.797 Y286.642
G01 X329.443 Y283.585
G01 X330.030 Y280.514
G01 X330.559 Y277.428
G01 X331.049 Y274.342
G01 X331.474 Y271.253
G01 X331.838 Y268.143
G01 X332.135 Y265.037
G01 X332.392 Y261.919
G01 X332.582 Y258.801
G01 X332.705 Y255.680
G01 X332.786 Y252.556
G01 X332.823 Y249.434
G01 X332.767 Y246.303
G01 X332.670 Y243.186
G01 X332.529 Y240.063
G01 X332.296 Y236.944
G01 X332.046 Y233.826
G01 X331.708 Y230.728
G01 X331.327 Y227.620
G01 X330.885 Y224.532
G01 X330.379 Y221.446
G01 X329.814 Y218.377
G01 X329.210 Y215.306
G01 X328.682 Y212.936
G01 X329.257 Y213.340
G01 X331.723 Y215.262
G01 X334.126 Y217.251
G01 X336.469 Y219.322
G01 X338.749 Y221.460
G01 X340.945 Y223.687
G01 X343.074 Y225.973
G01 X345.114 Y228.337
G01 X347.087 Y230.760
G01 X348.968 Y233.253
G01 X350.780 Y235.805
G01 X352.498 Y238.417
G01 X354.118 Y241.073
G01 X355.668 Y243.797
G01 X357.120 Y246.557
G01 X358.498 Y249.367
G01 X359.729 Y252.169
G01 X359.702 Y252.224
G01 X358.333 Y255.038
G01 X356.891 Y257.803
G01 X355.327 Y260.511
G01 X353.692 Y263.173
G01 X351.961 Y265.782
G01 X350.162 Y268.327
G01 X348.271 Y270.809
G01 X346.287 Y273.233
G01 X344.237 Y275.591
G01 X342.100 Y277.872
G01 X339.899 Y280.088
G01 X337.635 Y282.234
G01 X335.287 Y284.299
G01 X332.857 Y286.275
G01 X330.391 Y288.188
G01 X327.849 Y290.003
G01 X326.091 Y291.191
G01 X326.349 Y290.231
G01 X327.072 Y287.189
G01 X327.736 Y284.135
G01 X328.339 Y281.069
G01 X328.882 Y277.989
G01 X329.386 Y274.902
G01 X329.825 Y271.806
G01 X330.197 Y268.707
G01 X330.528 Y265.601
G01 X330.790 Y262.489
G01 X330.985 Y259.368
G01 X331.135 Y256.249
G01 X331.215 Y253.126
G01 X331.250 Y249.997
G01 X331.215 Y246.877
G01 X331.134 Y243.746
G01 X330.984 Y240.626
G01 X330.790 Y237.506
G01 X330.527 Y234.393
G01 X330.196 Y231.288
G01 X329.824 Y228.189
G01 X329.384 Y225.092
G01 X328.882 Y222.014
G01 X328.340 Y218.934
G01 X327.733 Y215.860
G01 X327.069 Y212.806
G01 X326.350 Y209.771
G01 X326.208 Y209.290
G01 X328.381 Y210.772
G01 X330.883 Y212.628
G01 X333.353 Y214.559
G01 X335.740 Y216.574
G01 X338.064 Y218.657
G01 X340.306 Y220.830
G01 X342.506 Y223.055
G01 X344.620 Y225.362
G01 X346.643 Y227.735
G01 X348.601 Y230.173
G01 X350.466 Y232.668
G01 X352.264 Y235.231
G01 X353.991 Y237.837
G01 X355.599 Y240.509
G01 X357.136 Y243.227
G01 X358.601 Y245.998
G01 X359.944 Y248.809
G01 X361.212 Y251.676
G01 X361.428 Y252.203
G01 X360.358 Y254.501
G01 X358.931 Y257.295
G01 X357.433 Y260.027
G01 X355.814 Y262.713
G01 X354.151 Y265.343
G01 X352.369 Y267.917
G01 X350.519 Y270.435
G01 X348.602 Y272.896
G01 X346.594 Y275.290
G01 X344.499 Y277.611
G01 X342.339 Y279.871
G01 X340.115 Y282.066
G01 X337.809 Y284.176
G01 X335.443 Y286.212
G01 X332.997 Y288.161
G01 X330.492 Y290.037
G01 X327.953 Y291.847
G01 X325.341 Y293.555
G01 X323.563 Y294.644
G01 X323.843 Y293.641
G01 X324.635 Y290.625
G01 X325.374 Y287.585
G01 X326.051 Y284.535
G01 X326.669 Y281.467
G01 X327.243 Y278.403
G01 X327.734 Y275.309
G01 X328.180 Y272.216
G01 X328.583 Y269.119
G01 X328.917 Y266.011
G01 X329.181 Y262.897
G01 X329.400 Y259.781
G01 X329.546 Y256.663
G01 X329.647 Y253.536
G01 X329.699 Y250.412
G01 X329.654 Y247.288
G01 X329.587 Y244.169
G01 X329.447 Y241.046
G01 X329.235 Y237.925
G01 X328.979 Y234.816
G01 X328.675 Y231.701
G01 X328.302 Y228.596
G01 X327.864 Y225.509
G01 X327.380 Y222.416
G01 X326.835 Y219.344
G01 X326.223 Y216.277
G01 X325.553 Y213.230
G01 X324.842 Y210.183
G01 X324.048 Y207.156
G01 X323.684 Y205.798
G01 X325.148 Y206.710
G01 X327.739 Y208.442
G01 X330.297 Y210.244
G01 X332.798 Y212.124
G01 X335.217 Y214.088
G01 X337.602 Y216.120
G01 X339.903 Y218.235
G01 X342.120 Y220.427
G01 X344.296 Y222.677
G01 X346.387 Y225.005
G01 X348.387 Y227.395
G01 X350.321 Y229.848
G01 X352.189 Y232.360
G01 X353.964 Y234.932
G01 X355.645 Y237.558
G01 X357.257 Y240.241
G01 X358.773 Y242.971
G01 X360.218 Y245.740
G01 X361.566 Y248.568
G01 X362.816 Y251.429
G01 X363.153 Y252.237
G01 X362.194 Y254.273
G01 X360.799 Y257.075
G01 X359.334 Y259.830
G01 X357.774 Y262.533
G01 X356.118 Y265.189
G01 X354.371 Y267.783
G01 X352.555 Y270.327
G01 X350.672 Y272.815
G01 X348.701 Y275.231
G01 X346.640 Y277.587
G01 X344.515 Y279.877
G01 X342.303 Y282.098
G01 X340.055 Y284.254
G01 X337.700 Y286.323
G01 X335.310 Y288.329
G01 X332.840 Y290.248
G01 X330.316 Y292.086
G01 X327.737 Y293.847
G01 X325.103 Y295.528
G01 X322.418 Y297.123
G01 X320.976 Y297.941
G01 X321.392 Y296.546
G01 X322.245 Y293.538
G01 X323.040 Y290.517
G01 X323.779 Y287.474
G01 X324.475 Y284.433
G01 X325.088 Y281.364
G01 X325.658 Y278.294
G01 X326.185 Y275.219
G01 X326.621 Y272.121
G01 X327.010 Y269.023
G01 X327.354 Y265.919
G01 X327.626 Y262.804
G01 X327.850 Y259.685
G01 X327.999 Y256.565
G01 X328.099 Y253.444
G01 X328.124 Y250.318
G01 X328.100 Y247.192
G01 X328.025 Y244.064
G01 X327.876 Y240.947
G01 X327.677 Y237.828
G01 X327.406 Y234.717
G01 X327.086 Y231.606
G01 X326.719 Y228.500
G01 X326.285 Y225.410
G01 X325.780 Y222.327
G01 X325.209 Y219.258
G01 X324.596 Y216.191
G01 X323.921 Y213.143
G01 X323.203 Y210.091
G01 X322.407 Y207.074
G01 X321.554 Y204.072
G01 X321.103 Y202.472
G01 X322.363 Y203.205
G01 X325.044 Y204.809
G01 X327.673 Y206.499
G01 X330.248 Y208.270
G01 X332.767 Y210.118
G01 X335.209 Y212.057
G01 X337.616 Y214.063
G01 X339.939 Y216.143
G01 X342.203 Y218.301
G01 X344.405 Y220.524
G01 X346.520 Y222.816
G01 X348.572 Y225.173
G01 X350.559 Y227.594
G01 X352.454 Y230.069
G01 X354.260 Y232.614
G01 X355.998 Y235.210
G01 X357.667 Y237.854
G01 X359.243 Y240.556
G01 X360.723 Y243.312
G01 X362.132 Y246.104
G01 X363.445 Y248.941
G01 X364.661 Y251.819
G01 X364.828 Y252.259
G01 X363.729 Y254.662
G01 X362.352 Y257.467
G01 X360.904 Y260.228
G01 X359.337 Y262.936
G01 X357.701 Y265.602
G01 X355.972 Y268.209
G01 X354.177 Y270.757
G01 X352.289 Y273.257
G01 X350.338 Y275.692
G01 X348.298 Y278.060
G01 X346.196 Y280.366
G01 X344.029 Y282.614
G01 X341.780 Y284.784
G01 X339.449 Y286.870
G01 X337.079 Y288.905
G01 X334.633 Y290.848
G01 X332.128 Y292.722
G01 X329.570 Y294.515
G01 X326.961 Y296.223
G01 X324.278 Y297.838
G01 X321.563 Y299.387
G01 X318.804 Y300.840
G01 X318.313 Y301.082
G01 X319.111 Y298.619
G01 X320.019 Y295.631
G01 X320.870 Y292.623
G01 X321.660 Y289.602
G01 X322.392 Y286.560
G01 X323.079 Y283.521
G01 X323.682 Y280.448
G01 X324.239 Y277.374
G01 X324.727 Y274.289
G01 X325.170 Y271.190
G01 X325.563 Y268.097
G01 X325.860 Y264.980
G01 X326.130 Y261.870
G01 X326.325 Y258.752
G01 X326.468 Y255.628
G01 X326.534 Y252.509
G01 X326.573 Y249.385
G01 X326.509 Y246.261
G01 X326.417 Y243.132
G01 X326.249 Y240.013
G01 X326.030 Y236.899
G01 X325.759 Y233.786
G01 X325.414 Y230.677
G01 X324.997 Y227.585
G01 X324.555 Y224.485
G01 X324.019 Y221.407
G01 X323.441 Y218.339
G01 X322.820 Y215.278
G01 X322.110 Y212.236
G01 X321.358 Y209.197
G01 X320.548 Y206.179
G01 X319.681 Y203.180
G01 X318.734 Y200.207
G01 X318.439 Y199.296
G01 X320.368 Y200.300
G01 X323.101 Y201.821
G01 X325.784 Y203.429
G01 X328.410 Y205.112
G01 X330.987 Y206.882
G01 X333.507 Y208.727
G01 X335.973 Y210.651
G01 X338.382 Y212.650
G01 X340.709 Y214.730
G01 X342.976 Y216.877
G01 X345.181 Y219.087
G01 X347.325 Y221.366
G01 X349.381 Y223.708
G01 X351.376 Y226.121
G01 X353.303 Y228.582
G01 X355.142 Y231.113
G01 X356.889 Y233.699
G01 X358.568 Y236.332
G01 X360.154 Y239.022
G01 X361.671 Y241.751
G01 X363.093 Y244.541
G01 X364.445 Y247.364
G01 X365.700 Y250.228
G01 X366.527 Y252.292
G01 X366.183 Y253.111
G01 X364.872 Y255.940
G01 X363.464 Y258.739
G01 X361.987 Y261.493
G01 X360.416 Y264.196
G01 X358.753 Y266.845
G01 X357.022 Y269.449
G01 X355.226 Y271.996
G01 X353.338 Y274.487
G01 X351.365 Y276.907
G01 X349.324 Y279.279
G01 X347.201 Y281.573
G01 X345.037 Y283.818
G01 X342.768 Y285.978
G01 X340.461 Y288.083
G01 X338.075 Y290.102
G01 X335.633 Y292.050
G01 X333.135 Y293.924
G01 X330.584 Y295.719
G01 X327.956 Y297.428
G01 X325.302 Y299.063
G01 X322.596 Y300.617
G01 X319.817 Y302.076
G01 X317.019 Y303.453
G01 X315.629 Y304.096
G01 X316.170 Y302.593
G01 X317.156 Y299.622
G01 X318.084 Y296.636
G01 X318.972 Y293.653
G01 X319.783 Y290.631
G01 X320.555 Y287.603
G01 X321.239 Y284.550
G01 X321.878 Y281.494
G01 X322.475 Y278.425
G01 X323.000 Y275.345
G01 X323.453 Y272.253
G01 X323.856 Y269.155
G01 X324.208 Y266.055
G01 X324.485 Y262.937
G01 X324.708 Y259.818
G01 X324.851 Y256.700
G01 X324.965 Y253.576
G01 X324.999 Y250.455
G01 X324.977 Y247.327
G01 X324.901 Y244.204
G01 X324.745 Y241.083
G01 X324.560 Y237.965
G01 X324.296 Y234.852
G01 X323.955 Y231.743
G01 X323.587 Y228.638
G01 X323.122 Y225.554
G01 X322.629 Y222.460
G01 X322.069 Y219.391
G01 X321.438 Y216.330
G01 X320.762 Y213.274
G01 X320.002 Y210.251
G01 X319.223 Y207.221
G01 X318.360 Y204.216
G01 X317.437 Y201.229
G01 X316.463 Y198.265
G01 X315.750 Y196.248
G01 X316.656 Y196.654
G01 X319.446 Y198.053
G01 X322.204 Y199.521
G01 X324.914 Y201.075
G01 X327.573 Y202.713
G01 X330.179 Y204.429
G01 X332.756 Y206.216
G01 X335.254 Y208.086
G01 X337.700 Y210.040
G01 X340.086 Y212.057
G01 X342.392 Y214.161
G01 X344.662 Y216.319
G01 X346.845 Y218.547
G01 X348.969 Y220.840
G01 X351.006 Y223.202
G01 X352.979 Y225.624
G01 X354.888 Y228.100
G01 X356.709 Y230.645
G01 X358.462 Y233.238
G01 X360.123 Y235.879
G01 X361.717 Y238.573
G01 X363.217 Y241.307
G01 X364.623 Y244.099
G01 X365.959 Y246.923
G01 X367.200 Y249.785
G01 X368.227 Y252.314
G01 X368.069 Y252.689
G01 X366.794 Y255.536
G01 X365.424 Y258.344
G01 X363.960 Y261.108
G01 X362.427 Y263.838
G01 X360.827 Y266.508
G01 X359.135 Y269.135
G01 X357.351 Y271.713
G01 X355.505 Y274.222
G01 X353.568 Y276.684
G01 X351.569 Y279.082
G01 X349.483 Y281.414
G01 X347.360 Y283.693
G01 X345.130 Y285.890
G01 X342.862 Y288.037
G01 X340.514 Y290.103
G01 X338.112 Y292.093
G01 X335.649 Y294.022
G01 X333.114 Y295.856
G01 X330.549 Y297.625
G01 X327.907 Y299.308
G01 X325.239 Y300.920
G01 X322.500 Y302.436
G01 X319.733 Y303.882
G01 X316.902 Y305.224
G01 X314.048 Y306.489
G01 X312.902 Y306.983
G01 X313.559 Y305.226
G01 X314.622 Y302.286
G01 X315.607 Y299.315
G01 X316.554 Y296.344
G01 X317.424 Y293.337
G01 X318.252 Y290.327
G01 X319.016 Y287.298
G01 X319.715 Y284.251
G01 X320.345 Y281.192
G01 X320.929 Y278.122
G01 X321.464 Y275.044
G01 X321.924 Y271.955
G01 X322.307 Y268.854
G01 X322.662 Y265.751
G01 X322.938 Y262.638
G01 X323.159 Y259.517
G01 X323.321 Y256.400
G01 X323.402 Y253.273
G01 X323.450 Y250.152
G01 X323.415 Y247.023
G01 X323.322 Y243.898
G01 X323.172 Y240.781
G01 X322.964 Y237.660
G01 X322.676 Y234.553
G01 X322.359 Y231.444
G01 X321.962 Y228.343
G01 X321.512 Y225.247
G01 X320.989 Y222.169
G01 X320.418 Y219.098
G01 X319.775 Y216.042
G01 X319.085 Y212.988
G01 X318.333 Y209.960
G01 X317.513 Y206.942
G01 X316.635 Y203.948
G01 X315.716 Y200.955
G01 X314.718 Y197.993
G01 X313.667 Y195.051
G01 X313.016 Y193.329
G01 X314.195 Y193.829
G01 X317.047 Y195.110
G01 X319.836 Y196.498
G01 X322.599 Y197.959
G01 X325.314 Y199.504
G01 X327.998 Y201.117
G01 X330.613 Y202.829
G01 X333.172 Y204.613
G01 X335.701 Y206.463
G01 X338.152 Y208.399
G01 X340.546 Y210.405
G01 X342.882 Y212.477
G01 X345.162 Y214.622
G01 X347.356 Y216.834
G01 X349.490 Y219.111
G01 X351.564 Y221.450
G01 X353.577 Y223.858
G01 X355.499 Y226.316
G01 X357.332 Y228.831
G01 X359.126 Y231.399
G01 X360.805 Y234.031
G01 X362.441 Y236.700
G01 X363.960 Y239.425
G01 X365.411 Y242.194
G01 X366.793 Y244.994
G01 X368.080 Y247.847
G01 X369.273 Y250.736
G01 X369.902 Y252.346
G01 X369.345 Y253.625
G01 X368.073 Y256.473
G01 X366.706 Y259.282
G01 X365.247 Y262.049
G01 X363.695 Y264.768
G01 X362.076 Y267.440
G01 X360.392 Y270.061
G01 X358.616 Y272.636
G01 X356.753 Y275.149
G01 X354.824 Y277.613
G01 X352.835 Y280.013
G01 X350.759 Y282.350
G01 X348.622 Y284.628
G01 X346.403 Y286.834
G01 X344.125 Y288.973
G01 X341.788 Y291.052
G01 X339.396 Y293.058
G01 X336.951 Y294.988
G01 X334.425 Y296.844
G01 X331.851 Y298.616
G01 X329.247 Y300.323
G01 X326.569 Y301.943
G01 X323.845 Y303.477
G01 X321.093 Y304.944
G01 X318.274 Y306.311
G01 X315.431 Y307.604
G01 X312.548 Y308.805
G01 X310.138 Y309.751
G01 X310.323 Y309.244
G01 X311.483 Y306.350
G01 X312.548 Y303.411
G01 X313.583 Y300.464
G01 X314.561 Y297.496
G01 X315.477 Y294.514
G01 X316.311 Y291.497
G01 X317.104 Y288.472
G01 X317.851 Y285.442
G01 X318.507 Y282.383
G01 X319.138 Y279.326
G01 X319.671 Y276.245
G01 X320.175 Y273.167
G01 X320.603 Y270.070
G01 X320.951 Y266.962
G01 X321.266 Y263.851
G01 X321.498 Y260.738
G01 X321.696 Y257.619
G01 X321.810 Y254.492
G01 X321.862 Y251.370
G01 X321.854 Y248.244
G01 X321.809 Y245.121
G01 X321.680 Y242.001
G01 X321.490 Y238.878
G01 X321.242 Y235.764
G01 X320.911 Y232.660
G01 X320.546 Y229.551
G01 X320.104 Y226.462
G01 X319.607 Y223.375
G01 X319.060 Y220.301
G01 X318.435 Y217.234
G01 X317.766 Y214.182
G01 X317.028 Y211.146
G01 X316.222 Y208.127
G01 X315.355 Y205.131
G01 X314.444 Y202.135
G01 X313.455 Y199.175
G01 X312.433 Y196.224
G01 X311.334 Y193.303
G01 X310.236 Y190.526
G01 X310.361 Y190.581
G01 X313.281 Y191.726
G01 X316.137 Y192.977
G01 X318.969 Y194.303
G01 X321.756 Y195.718
G01 X324.496 Y197.217
G01 X327.185 Y198.796
G01 X329.848 Y200.446
G01 X332.435 Y202.182
G01 X334.997 Y203.992
G01 X337.478 Y205.879
G01 X339.926 Y207.825
G01 X342.299 Y209.858
G01 X344.612 Y211.955
G01 X346.868 Y214.120
G01 X349.066 Y216.351
G01 X351.177 Y218.643
G01 X353.230 Y221.004
G01 X355.217 Y223.410
G01 X357.119 Y225.885
G01 X358.958 Y228.419
G01 X360.732 Y231.000
G01 X362.414 Y233.627
G01 X364.006 Y236.307
G01 X365.531 Y239.034
G01 X366.988 Y241.805
G01 X368.328 Y244.620
G01 X369.623 Y247.472
G01 X370.799 Y250.358
G01 X371.577 Y252.379
G01 X371.206 Y253.269
G01 X369.943 Y256.130
G01 X368.612 Y258.956
G01 X367.189 Y261.731
G01 X365.673 Y264.472
G01 X364.092 Y267.158
G01 X362.419 Y269.803
G01 X360.681 Y272.398
G01 X358.856 Y274.934
G01 X356.966 Y277.423
G01 X355.014 Y279.853
G01 X352.976 Y282.223
G01 X350.876 Y284.538
G01 X348.693 Y286.784
G01 X346.454 Y288.958
G01 X344.155 Y291.076
G01 X341.778 Y293.114
G01 X339.370 Y295.090
G01 X336.883 Y296.988
G01 X334.342 Y298.815
G01 X331.754 Y300.560
G01 X329.111 Y302.235
G01 X326.425 Y303.822
G01 X323.709 Y305.347
G01 X320.923 Y306.777
G01 X318.092 Y308.122
G01 X315.243 Y309.389
G01 X312.352 Y310.566
G01 X309.418 Y311.654
G01 X307.318 Y312.393
G01 X307.664 Y311.561
G01 X308.868 Y308.688
G01 X310.007 Y305.775
G01 X311.114 Y302.856
G01 X312.139 Y299.908
G01 X313.090 Y296.921
G01 X313.998 Y293.931
G01 X314.863 Y290.935
G01 X315.642 Y287.904
G01 X316.375 Y284.866
G01 X317.035 Y281.810
G01 X317.644 Y278.749
G01 X318.178 Y275.668
G01 X318.680 Y272.590
G01 X319.103 Y269.495
G01 X319.444 Y266.382
G01 X319.748 Y263.274
G01 X319.991 Y260.161
G01 X320.148 Y257.036
G01 X320.266 Y253.916
G01 X320.321 Y250.792
G01 X320.286 Y247.663
G01 X320.213 Y244.545
G01 X320.077 Y241.420
G01 X319.878 Y238.305
G01 X319.617 Y235.188
G01 X319.270 Y232.081
G01 X318.890 Y228.981
G01 X318.451 Y225.884
G01 X317.932 Y222.801
G01 X317.361 Y219.730
G01 X316.716 Y216.677
G01 X316.020 Y213.630
G01 X315.256 Y210.605
G01 X314.443 Y207.582
G01 X313.569 Y204.585
G01 X312.628 Y201.601
G01 X311.631 Y198.642
G01 X310.575 Y195.700
G01 X309.462 Y192.775
G01 X308.282 Y189.891
G01 X307.421 Y187.837
G01 X308.261 Y188.142
G01 X311.193 Y189.218
G01 X314.087 Y190.389
G01 X316.958 Y191.635
G01 X319.787 Y192.971
G01 X322.564 Y194.385
G01 X325.298 Y195.887
G01 X328.007 Y197.461
G01 X330.663 Y199.109
G01 X333.249 Y200.850
G01 X335.803 Y202.653
G01 X338.305 Y204.528
G01 X340.755 Y206.481
G01 X343.125 Y208.510
G01 X345.460 Y210.590
G01 X347.715 Y212.747
G01 X349.915 Y214.978
G01 X352.028 Y217.269
G01 X354.105 Y219.609
G01 X356.095 Y222.011
G01 X358.025 Y224.475
G01 X359.867 Y226.992
G01 X361.645 Y229.565
G01 X363.358 Y232.179
G01 X364.982 Y234.858
G01 X366.514 Y237.576
G01 X367.980 Y240.336
G01 X369.378 Y243.136
G01 X370.658 Y245.977
G01 X371.895 Y248.850
G01 X373.012 Y251.767
G01 X373.252 Y252.400
G01 X372.311 Y254.658
G01 X371.042 Y257.510
G01 X369.681 Y260.314
G01 X368.228 Y263.090
G01 X366.709 Y265.813
G01 X365.098 Y268.500
G01 X363.422 Y271.140
G01 X361.660 Y273.714
G01 X359.833 Y276.246
G01 X357.941 Y278.734
G01 X355.965 Y281.156
G01 X353.905 Y283.509
G01 X351.809 Y285.815
G01 X349.629 Y288.055
G01 X347.391 Y290.235
G01 X345.074 Y292.339
G01 X342.701 Y294.376
G01 X340.275 Y296.342
G01 X337.793 Y298.243
G01 X335.257 Y300.076
G01 X332.673 Y301.828
G01 X330.038 Y303.505
G01 X327.355 Y305.104
G01 X324.626 Y306.621
G01 X321.853 Y308.054
G01 X319.028 Y309.412
G01 X316.183 Y310.695
G01 X313.302 Y311.883
G01 X310.375 Y312.987
G01 X307.413 Y313.996
G01 X304.463 Y314.933
G01 X304.467 Y314.898
G01 X305.760 Y312.053
G01 X306.982 Y309.174
G01 X308.149 Y306.281
G01 X309.264 Y303.365
G01 X310.305 Y300.411
G01 X311.303 Y297.456
G01 X312.221 Y294.464
G01 X313.092 Y291.468
G01 X313.900 Y288.448
G01 X314.637 Y285.409
G01 X315.323 Y282.362
G01 X315.959 Y279.303
G01 X316.516 Y276.226
G01 X317.018 Y273.140
G01 X317.435 Y270.040
G01 X317.815 Y266.946
G01 X318.134 Y263.837
G01 X318.390 Y260.719
G01 X318.555 Y257.597
G01 X318.679 Y254.475
G01 X318.737 Y251.352
G01 X318.752 Y248.230
G01 X318.676 Y245.107
G01 X318.533 Y241.984
G01 X318.348 Y238.862
G01 X318.099 Y235.746
G01 X317.763 Y232.644
G01 X317.388 Y229.543
G01 X316.951 Y226.442
G01 X316.434 Y223.363
G01 X315.860 Y220.293
G01 X315.235 Y217.237
G01 X314.551 Y214.177
G01 X313.799 Y211.144
G01 X312.981 Y208.137
G01 X312.091 Y205.142
G01 X311.160 Y202.157
G01 X310.169 Y199.194
G01 X309.115 Y196.246
G01 X307.988 Y193.338
G01 X306.827 Y190.434
G01 X305.592 Y187.562
G01 X304.550 Y185.270
G01 X305.132 Y185.436
G01 X308.090 Y186.415
G01 X311.035 Y187.477
G01 X313.937 Y188.628
G01 X316.815 Y189.852
G01 X319.650 Y191.164
G01 X322.439 Y192.558
G01 X325.206 Y194.025
G01 X327.907 Y195.592
G01 X330.576 Y197.217
G01 X333.195 Y198.920
G01 X335.764 Y200.697
G01 X338.279 Y202.546
G01 X340.744 Y204.471
G01 X343.152 Y206.460
G01 X345.506 Y208.520
G01 X347.782 Y210.657
G01 X350.020 Y212.839
G01 X352.179 Y215.100
G01 X354.279 Y217.419
G01 X356.293 Y219.799
G01 X358.269 Y222.224
G01 X360.160 Y224.714
G01 X361.965 Y227.265
G01 X363.705 Y229.857
G01 X365.380 Y232.499
G01 X366.966 Y235.192
G01 X368.485 Y237.916
G01 X369.915 Y240.696
G01 X371.277 Y243.514
G01 X372.546 Y246.368
G01 X373.723 Y249.254
G01 X374.831 Y252.181
G01 X374.926 Y252.432
G01 X373.846 Y255.076
G01 X372.569 Y257.925
G01 X371.200 Y260.738
G01 X369.765 Y263.515
G01 X368.264 Y266.252
G01 X366.674 Y268.933
G01 X364.993 Y271.575
G01 X363.250 Y274.170
G01 X361.443 Y276.714
G01 X359.551 Y279.198
G01 X357.596 Y281.636
G01 X355.557 Y284.007
G01 X353.458 Y286.326
G01 X351.299 Y288.589
G01 X349.085 Y290.783
G01 X346.791 Y292.907
G01 X344.442 Y294.966
G01 X342.038 Y296.957
G01 X339.557 Y298.875
G01 X337.046 Y300.730
G01 X334.488 Y302.508
G01 X331.851 Y304.209
G01 X329.192 Y305.841
G01 X326.485 Y307.395
G01 X323.713 Y308.853
G01 X320.918 Y310.240
G01 X318.096 Y311.564
G01 X315.211 Y312.788
G01 X312.309 Y313.934
G01 X309.369 Y314.990
G01 X306.403 Y315.977
G01 X303.404 Y316.866
G01 X301.581 Y317.371
G01 X302.113 Y316.263
G01 X303.430 Y313.418
G01 X304.691 Y310.559
G01 X305.901 Y307.681
G01 X307.058 Y304.783
G01 X308.139 Y301.848
G01 X309.161 Y298.894
G01 X310.144 Y295.928
G01 X311.039 Y292.932
G01 X311.888 Y289.928
G01 X312.668 Y286.901
G01 X313.398 Y283.862
G01 X314.053 Y280.804
G01 X314.649 Y277.743
G01 X315.191 Y274.662
G01 X315.671 Y271.578
G01 X316.066 Y268.474
G01 X316.419 Y265.374
G01 X316.708 Y262.261
G01 X316.904 Y259.140
G01 X317.080 Y256.024
G01 X317.163 Y252.894
G01 X317.200 Y249.776
G01 X317.142 Y246.651
G01 X317.038 Y243.529
G01 X316.890 Y240.401
G01 X316.649 Y237.290
G01 X316.365 Y234.178
G01 X316.015 Y231.072
G01 X315.601 Y227.974
G01 X315.126 Y224.887
G01 X314.565 Y221.812
G01 X313.971 Y218.740
G01 X313.298 Y215.688
G01 X312.554 Y212.662
G01 X311.778 Y209.628
G01 X310.913 Y206.630
G01 X310.002 Y203.640
G01 X309.027 Y200.671
G01 X307.990 Y197.723
G01 X306.894 Y194.795
G01 X305.741 Y191.886
G01 X304.517 Y189.015
G01 X303.242 Y186.164
G01 X301.919 Y183.332
G01 X301.644 Y182.803
G01 X304.081 Y183.486
G01 X307.059 Y184.424
G01 X310.013 Y185.433
G01 X312.936 Y186.542
G01 X315.836 Y187.722
G01 X318.693 Y188.990
G01 X321.505 Y190.340
G01 X324.289 Y191.755
G01 X327.035 Y193.261
G01 X329.729 Y194.840
G01 X332.374 Y196.497
G01 X334.975 Y198.236
G01 X337.518 Y200.038
G01 X340.034 Y201.904
G01 X342.477 Y203.856
G01 X344.862 Y205.869
G01 X347.193 Y207.949
G01 X349.469 Y210.094
G01 X351.663 Y212.309
G01 X353.822 Y214.574
G01 X355.898 Y216.901
G01 X357.916 Y219.291
G01 X359.850 Y221.748
G01 X361.743 Y224.233
G01 X363.552 Y226.789
G01 X365.272 Y229.389
G01 X366.928 Y232.037
G01 X368.520 Y234.730
G01 X370.023 Y237.468
G01 X371.434 Y240.248
G01 X372.780 Y243.076
G01 X374.058 Y245.925
G01 X375.244 Y248.819
G01 X376.338 Y251.739
G01 X376.601 Y252.465
G01 X375.714 Y254.649
G01 X374.473 Y257.523
G01 X373.141 Y260.352
G01 X371.742 Y263.146
G01 X370.255 Y265.889
G01 X368.701 Y268.604
G01 X367.060 Y271.261
G01 X365.356 Y273.873
G01 X363.562 Y276.442
G01 X361.707 Y278.960
G01 X359.791 Y281.424
G01 X357.792 Y283.825
G01 X355.736 Y286.166
G01 X353.592 Y288.457
G01 X351.416 Y290.691
G01 X349.164 Y292.848
G01 X346.851 Y294.954
G01 X344.465 Y296.975
G01 X342.044 Y298.949
G01 X339.549 Y300.841
G01 X337.026 Y302.672
G01 X334.435 Y304.415
G01 X331.787 Y306.094
G01 X329.116 Y307.705
G01 X326.384 Y309.217
G01 X323.621 Y310.672
G01 X320.816 Y312.043
G01 X317.963 Y313.336
G01 X315.080 Y314.532
G01 X312.166 Y315.666
G01 X309.220 Y316.705
G01 X306.238 Y317.652
G01 X303.239 Y318.523
G01 X300.218 Y319.322
G01 X298.654 Y319.698
G01 X299.346 Y318.348
G01 X300.722 Y315.540
G01 X302.049 Y312.715
G01 X303.308 Y309.852
G01 X304.517 Y306.967
G01 X305.668 Y304.063
G01 X306.741 Y301.124
G01 X307.774 Y298.177
G01 X308.721 Y295.196
G01 X309.625 Y292.204
G01 X310.457 Y289.193
G01 X311.242 Y286.169
G01 X311.949 Y283.128
G01 X312.603 Y280.069
G01 X313.199 Y277.001
G01 X313.731 Y273.928
G01 X314.179 Y270.832
G01 X314.585 Y267.733
G01 X314.922 Y264.631
G01 X315.190 Y261.517
G01 X315.388 Y258.394
G01 X315.538 Y255.278
G01 X315.615 Y252.151
G01 X315.618 Y249.027
G01 X315.572 Y245.901
G01 X315.453 Y242.782
G01 X315.261 Y239.660
G01 X315.023 Y236.546
G01 X314.715 Y233.439
G01 X314.337 Y230.335
G01 X313.917 Y227.237
G01 X313.410 Y224.155
G01 X312.839 Y221.079
G01 X312.211 Y218.020
G01 X311.528 Y214.973
G01 X310.766 Y211.942
G01 X309.955 Y208.927
G01 X309.069 Y205.926
G01 X308.142 Y202.941
G01 X307.129 Y199.991
G01 X306.071 Y197.044
G01 X304.956 Y194.121
G01 X303.770 Y191.238
G01 X302.528 Y188.374
G01 X301.233 Y185.527
G01 X299.871 Y182.718
G01 X298.711 Y180.433
G01 X299.264 Y180.548
G01 X302.287 Y181.343
G01 X305.286 Y182.211
G01 X308.258 Y183.181
G01 X311.203 Y184.219
G01 X314.126 Y185.328
G01 X317.015 Y186.531
G01 X319.859 Y187.817
G01 X322.675 Y189.167
G01 X325.455 Y190.608
G01 X328.184 Y192.124
G01 X330.867 Y193.717
G01 X333.521 Y195.371
G01 X336.109 Y197.119
G01 X338.665 Y198.923
G01 X341.151 Y200.814
G01 X343.603 Y202.755
G01 X345.979 Y204.776
G01 X348.301 Y206.862
G01 X350.590 Y209.000
G01 X352.799 Y211.208
G01 X354.930 Y213.491
G01 X357.021 Y215.809
G01 X359.034 Y218.206
G01 X360.982 Y220.639
G01 X362.873 Y223.139
G01 X364.676 Y225.686
G01 X366.417 Y228.282
G01 X368.070 Y230.930
G01 X369.684 Y233.618
G01 X371.184 Y236.354
G01 X372.619 Y239.128
G01 X373.988 Y241.938
G01 X375.266 Y244.782
G01 X376.454 Y247.669
G01 X377.574 Y250.583
G01 X378.626 Y253.534
G01 X379.587 Y256.506
G01 X380.454 Y259.510
G01 X381.227 Y262.540
G01 X381.933 Y265.583
G01 X382.545 Y268.647
G01 X383.089 Y271.719
G01 X383.538 Y274.820
G01 X383.895 Y277.919
G01 X384.159 Y281.026
G01 X384.351 Y284.158
G01 X384.453 Y287.278
G01 X384.462 Y290.399
G01 X384.376 Y293.529
G01 X384.226 Y296.647
G01 X384.202 Y296.789
G01 X381.815 Y298.560
G01 X379.258 Y300.368
G01 X376.670 Y302.123
G01 X374.052 Y303.823
G01 X371.404 Y305.468
G01 X368.699 Y307.056
G01 X365.990 Y308.594
G01 X363.227 Y310.070
G01 X360.440 Y311.481
G01 X357.645 Y312.850
G01 X354.801 Y314.148
G01 X351.924 Y315.397
G01 X349.049 Y316.587
G01 X346.122 Y317.708
G01 X343.195 Y318.776
G01 X340.239 Y319.785
G01 X337.258 Y320.731
G01 X334.253 Y321.611
G01 X331.226 Y322.423
G01 X328.198 Y323.181
G01 X325.162 Y323.891
G01 X322.092 Y324.507
G01 X319.035 Y325.087
G01 X315.935 Y325.582
G01 X312.850 Y326.038
G01 X309.750 Y326.413
G01 X306.646 Y326.731
G01 X303.524 Y326.969
G01 X300.408 Y327.170
G01 X297.288 Y327.280
G01 X296.692 Y327.291
G01 X297.987 Y329.488
G01 X299.577 Y332.179
G01 X301.166 Y334.870
G01 X302.753 Y337.562
G01 X304.338 Y340.255
G01 X305.922 Y342.949
G01 X307.514 Y345.638
G01 X309.095 Y348.334
G01 X310.685 Y351.025
G01 X312.273 Y353.716
G01 X313.861 Y356.408
G01 X313.912 Y356.494
G01 X316.919 Y356.258
G01 X318.081 Y356.232
G01 X316.344 Y357.119
G01 X314.763 Y357.936
G01 X313.615 Y358.617
G01 X310.891 Y360.167
G01 X309.520 Y360.885
G01 X310.477 Y359.625
G01 X312.343 Y357.131
G01 X313.389 Y355.670
G01 X314.709 Y355.513
G01 X317.816 Y355.124
G01 X320.907 Y354.668
G01 X322.680 Y354.360
G01 X321.623 Y355.180
G01 X319.079 Y356.987
G01 X316.476 Y358.711
G01 X313.806 Y360.328
G01 X311.072 Y361.836
G01 X308.279 Y363.260
G01 X305.444 Y364.564
G01 X304.160 Y365.094
G01 X305.266 Y363.761
G01 X307.217 Y361.305
G01 X309.119 Y358.829
G01 X310.983 Y356.328
G01 X312.525 Y354.206
G01 X313.014 Y354.145
G01 X316.125 Y353.773
G01 X319.211 Y353.339
G01 X322.305 Y352.853
G01 X325.371 Y352.310
G01 X328.300 Y351.762
G01 X328.168 Y351.864
G01 X325.798 Y353.887
G01 X323.351 Y355.842
G01 X320.824 Y357.670
G01 X318.240 Y359.444
G01 X315.584 Y361.084
G01 X312.877 Y362.639
G01 X310.110 Y364.083
G01 X307.286 Y365.443
G01 X304.423 Y366.682
G01 X301.514 Y367.804
G01 X299.043 Y368.692
G01 X299.371 Y368.312
G01 X301.416 Y365.935
G01 X303.414 Y363.538
G01 X305.386 Y361.111
G01 X307.298 Y358.641
G01 X309.180 Y356.141
G01 X311.011 Y353.623
G01 X311.648 Y352.721
G01 X313.661 Y352.488
G01 X316.770 Y352.107
G01 X319.855 Y351.664
G01 X322.949 Y351.167
G01 X326.015 Y350.612
G01 X329.089 Y350.006
G01 X332.132 Y349.346
G01 X333.393 Y349.042
G01 X332.099 Y350.344
G01 X329.821 Y352.482
G01 X327.468 Y354.521
G01 X325.039 Y356.493
G01 X322.556 Y358.381
G01 X319.974 Y360.154
G01 X317.348 Y361.837
G01 X314.657 Y363.443
G01 X311.915 Y364.934
G01 X309.117 Y366.314
G01 X306.266 Y367.609
G01 X303.377 Y368.783
G01 X300.444 Y369.868
G01 X297.470 Y370.835
G01 X294.462 Y371.681
G01 X294.101 Y371.786
G01 X295.959 Y369.759
G01 X298.062 Y367.447
G01 X300.098 Y365.067
G01 X302.107 Y362.686
G01 X304.068 Y360.256
G01 X305.989 Y357.774
G01 X307.869 Y355.296
G01 X309.706 Y352.764
G01 X310.780 Y351.230
G01 X312.037 Y351.110
G01 X315.149 Y350.745
G01 X318.238 Y350.316
G01 X321.326 Y349.839
G01 X324.403 Y349.323
G01 X327.473 Y348.733
G01 X330.541 Y348.098
G01 X333.578 Y347.409
G01 X336.621 Y346.669
G01 X338.103 Y346.271
G01 X337.049 Y347.460
G01 X334.915 Y349.752
G01 X332.701 Y351.949
G01 X330.399 Y354.059
G01 X328.029 Y356.096
G01 X325.593 Y358.059
G01 X323.081 Y359.924
G01 X320.506 Y361.681
G01 X317.866 Y363.364
G01 X315.172 Y364.933
G01 X312.418 Y366.424
G01 X309.619 Y367.797
G01 X306.768 Y369.087
G01 X303.868 Y370.262
G01 X300.936 Y371.343
G01 X297.964 Y372.306
G01 X294.966 Y373.174
G01 X291.938 Y373.921
G01 X289.299 Y374.468
G01 X289.611 Y374.159
G01 X291.809 Y371.931
G01 X293.954 Y369.658
G01 X296.043 Y367.340
G01 X298.108 Y364.992
G01 X300.135 Y362.620
G01 X302.113 Y360.199
G01 X304.061 Y357.749
G01 X305.944 Y355.256
G01 X307.794 Y352.735
G01 X309.598 Y350.189
G01 X309.902 Y349.745
G01 X312.484 Y349.480
G01 X315.592 Y349.111
G01 X318.679 Y348.678
G01 X321.775 Y348.188
G01 X324.847 Y347.637
G01 X327.907 Y347.048
G01 X330.975 Y346.405
G01 X334.023 Y345.698
G01 X337.051 Y344.930
G01 X340.063 Y344.129
G01 X342.458 Y343.438
G01 X342.070 Y343.925
G01 X340.085 Y346.345
G01 X338.029 Y348.697
G01 X335.896 Y350.985
G01 X333.667 Y353.162
G01 X331.373 Y355.297
G01 X329.005 Y357.333
G01 X326.558 Y359.275
G01 X324.050 Y361.141
G01 X321.469 Y362.906
G01 X318.845 Y364.583
G01 X316.158 Y366.185
G01 X313.409 Y367.679
G01 X310.604 Y369.063
G01 X307.759 Y370.359
G01 X304.887 Y371.558
G01 X301.948 Y372.653
G01 X298.981 Y373.625
G01 X295.988 Y374.503
G01 X292.961 Y375.289
G01 X289.907 Y375.954
G01 X286.831 Y376.497
G01 X284.641 Y376.829
G01 X285.300 Y376.206
G01 X287.527 Y374.022
G01 X289.735 Y371.808
G01 X291.890 Y369.548
G01 X294.020 Y367.259
G01 X296.094 Y364.926
G01 X298.140 Y362.563
G01 X300.136 Y360.152
G01 X302.090 Y357.716
G01 X304.001 Y355.256
G01 X305.866 Y352.744
G01 X307.685 Y350.207
G01 X309.024 Y348.260
G01 X309.805 Y348.197
G01 X312.916 Y347.872
G01 X316.008 Y347.479
G01 X319.102 Y347.034
G01 X322.188 Y346.546
G01 X325.259 Y345.989
G01 X328.313 Y345.366
G01 X331.382 Y344.714
G01 X334.414 Y343.980
G01 X337.443 Y343.202
G01 X340.458 Y342.390
G01 X343.458 Y341.510
G01 X346.444 Y340.564
G01 X346.526 Y340.550
G01 X344.758 Y343.006
G01 X342.844 Y345.475
G01 X340.850 Y347.887
G01 X338.760 Y350.221
G01 X336.605 Y352.482
G01 X334.372 Y354.649
G01 X332.058 Y356.757
G01 X329.678 Y358.793
G01 X327.230 Y360.727
G01 X324.721 Y362.586
G01 X322.140 Y364.345
G01 X319.505 Y366.024
G01 X316.807 Y367.598
G01 X314.061 Y369.088
G01 X311.271 Y370.491
G01 X308.416 Y371.790
G01 X305.525 Y372.970
G01 X302.602 Y374.059
G01 X299.636 Y375.060
G01 X296.647 Y375.939
G01 X293.624 Y376.727
G01 X290.561 Y377.399
G01 X287.496 Y377.970
G01 X284.407 Y378.446
G01 X281.305 Y378.800
G01 X280.079 Y378.912
G01 X281.480 Y377.625
G01 X283.769 Y375.511
G01 X286.014 Y373.324
G01 X288.213 Y371.115
G01 X290.390 Y368.876
G01 X292.522 Y366.588
G01 X294.607 Y364.251
G01 X296.652 Y361.889
G01 X298.655 Y359.502
G01 X300.616 Y357.063
G01 X302.533 Y354.599
G01 X304.402 Y352.084
G01 X306.235 Y349.567
G01 X308.016 Y346.999
G01 X308.155 Y346.770
G01 X311.009 Y346.508
G01 X314.108 Y346.135
G01 X317.215 Y345.735
G01 X320.302 Y345.269
G01 X323.375 Y344.732
G01 X326.448 Y344.145
G01 X329.511 Y343.517
G01 X332.557 Y342.823
G01 X335.600 Y342.083
G01 X338.614 Y341.289
G01 X341.615 Y340.426
G01 X344.610 Y339.521
G01 X347.590 Y338.549
G01 X350.318 Y337.590
G01 X350.215 Y337.783
G01 X348.502 Y340.405
G01 X346.711 Y342.968
G01 X344.847 Y345.469
G01 X342.885 Y347.898
G01 X340.844 Y350.267
G01 X338.710 Y352.557
G01 X336.514 Y354.773
G01 X334.246 Y356.923
G01 X331.896 Y358.984
G01 X329.481 Y360.973
G01 X327.001 Y362.859
G01 X324.451 Y364.677
G01 X321.857 Y366.408
G01 X319.185 Y368.045
G01 X316.464 Y369.569
G01 X313.697 Y371.038
G01 X310.887 Y372.391
G01 X308.016 Y373.640
G01 X305.121 Y374.794
G01 X302.182 Y375.861
G01 X299.214 Y376.837
G01 X296.203 Y377.672
G01 X293.167 Y378.440
G01 X290.119 Y379.084
G01 X287.043 Y379.636
G01 X283.951 Y380.067
G01 X280.840 Y380.403
G01 X277.726 Y380.640
G01 X275.609 Y380.740
G01 X276.372 Y380.079
G01 X278.725 Y378.017
G01 X281.042 Y375.905
G01 X283.314 Y373.770
G01 X285.546 Y371.585
G01 X287.743 Y369.375
G01 X289.908 Y367.112
G01 X292.014 Y364.804
G01 X294.092 Y362.466
G01 X296.127 Y360.103
G01 X298.120 Y357.688
G01 X300.068 Y355.248
G01 X301.958 Y352.761
G01 X303.809 Y350.246
G01 X305.621 Y347.702
G01 X307.276 Y345.285
G01 X307.480 Y345.279
G01 X310.584 Y344.972
G01 X313.683 Y344.614
G01 X316.787 Y344.202
G01 X319.877 Y343.748
G01 X322.954 Y343.222
G01 X326.033 Y342.645
G01 X329.086 Y342.006
G01 X332.140 Y341.319
G01 X335.165 Y340.574
G01 X338.197 Y339.775
G01 X341.198 Y338.923
G01 X344.186 Y338.001
G01 X347.167 Y337.039
G01 X350.124 Y336.019
G01 X353.054 Y334.944
G01 X353.902 Y334.619
G01 X352.796 Y336.543
G01 X351.162 Y339.205
G01 X349.442 Y341.820
G01 X347.629 Y344.358
G01 X345.733 Y346.844
G01 X343.768 Y349.265
G01 X341.708 Y351.609
G01 X339.591 Y353.910
G01 X337.368 Y356.110
G01 X335.091 Y358.262
G01 X332.743 Y360.318
G01 X330.316 Y362.281
G01 X327.843 Y364.192
G01 X325.297 Y366.005
G01 X322.683 Y367.720
G01 X320.016 Y369.354
G01 X317.313 Y370.899
G01 X314.541 Y372.345
G01 X311.737 Y373.727
G01 X308.872 Y374.978
G01 X305.982 Y376.162
G01 X303.040 Y377.210
G01 X300.066 Y378.195
G01 X297.071 Y379.059
G01 X294.041 Y379.834
G01 X290.993 Y380.514
G01 X287.922 Y381.074
G01 X284.828 Y381.542
G01 X281.721 Y381.889
G01 X278.611 Y382.138
G01 X275.488 Y382.292
G01 X272.368 Y382.348
G01 X271.224 Y382.334
G01 X272.763 Y381.088
G01 X275.161 Y379.070
G01 X277.512 Y377.004
G01 X279.819 Y374.915
G01 X282.099 Y372.773
G01 X284.345 Y370.605
G01 X286.540 Y368.363
G01 X288.704 Y366.120
G01 X290.812 Y363.803
G01 X292.886 Y361.486
G01 X294.920 Y359.116
G01 X296.910 Y356.693
G01 X298.852 Y354.246
G01 X300.756 Y351.770
G01 X302.608 Y349.244
G01 X304.420 Y346.715
G01 X306.186 Y344.132
G01 X306.406 Y343.796
G01 X309.120 Y343.562
G01 X312.217 Y343.219
G01 X315.326 Y342.847
G01 X318.425 Y342.397
G01 X321.495 Y341.887
G01 X324.583 Y341.344
G01 X327.632 Y340.717
G01 X330.698 Y340.059
G01 X333.721 Y339.324
G01 X336.768 Y338.550
G01 X339.768 Y337.704
G01 X342.765 Y336.813
G01 X345.738 Y335.862
G01 X348.687 Y334.853
G01 X351.637 Y333.794
G01 X354.552 Y332.690
G01 X357.262 Y331.603
G01 X357.160 Y331.779
G01 X355.716 Y334.560
G01 X354.172 Y337.275
G01 X352.549 Y339.937
G01 X350.841 Y342.552
G01 X349.030 Y345.102
G01 X347.138 Y347.599
G01 X345.176 Y350.031
G01 X343.130 Y352.378
G01 X341.000 Y354.674
G01 X338.808 Y356.898
G01 X336.532 Y359.036
G01 X334.204 Y361.126
G01 X331.781 Y363.106
G01 X329.324 Y365.025
G01 X326.795 Y366.849
G01 X324.198 Y368.603
G01 X321.560 Y370.271
G01 X318.861 Y371.837
G01 X316.103 Y373.327
G01 X313.302 Y374.703
G01 X310.463 Y375.993
G01 X307.574 Y377.202
G01 X304.652 Y378.322
G01 X301.703 Y379.323
G01 X298.714 Y380.238
G01 X295.694 Y381.036
G01 X292.650 Y381.770
G01 X289.574 Y382.360
G01 X286.507 Y382.876
G01 X283.398 Y383.279
G01 X280.297 Y383.582
G01 X277.181 Y383.792
G01 X274.053 Y383.907
G01 X270.926 Y383.900
G01 X267.809 Y383.795
G01 X266.917 Y383.734
G01 X268.684 Y382.363
G01 X271.115 Y380.402
G01 X273.517 Y378.414
G01 X275.885 Y376.376
G01 X278.202 Y374.290
G01 X280.493 Y372.152
G01 X282.747 Y369.987
G01 X284.956 Y367.772
G01 X287.119 Y365.507
G01 X289.240 Y363.218
G01 X291.329 Y360.899
G01 X293.365 Y358.532
G01 X295.356 Y356.113
G01 X297.319 Y353.688
G01 X299.222 Y351.216
G01 X301.072 Y348.694
G01 X302.899 Y346.160
G01 X304.659 Y343.582
G01 X305.523 Y342.285
G01 X307.100 Y342.172
G01 X310.212 Y341.878
G01 X313.301 Y341.516
G01 X316.411 Y341.116
G01 X319.502 Y340.646
G01 X322.574 Y340.108
G01 X325.655 Y339.543
G01 X328.698 Y338.895
G01 X331.758 Y338.214
G01 X334.783 Y337.448
G01 X337.798 Y336.641
G01 X340.801 Y335.762
G01 X343.792 Y334.847
G01 X346.760 Y333.871
G01 X349.703 Y332.837
G01 X352.647 Y331.753
G01 X355.537 Y330.608
G01 X358.427 Y329.416
G01 X360.437 Y328.554
G01 X360.042 Y329.405
G01 X358.707 Y332.223
G01 X357.260 Y334.989
G01 X355.725 Y337.716
G01 X354.111 Y340.390
G01 X352.394 Y343.002
G01 X350.621 Y345.572
G01 X348.749 Y348.073
G01 X346.797 Y350.521
G01 X344.762 Y352.884
G01 X342.670 Y355.206
G01 X340.489 Y357.448
G01 X338.223 Y359.605
G01 X335.916 Y361.706
G01 X333.530 Y363.719
G01 X331.083 Y365.660
G01 X328.563 Y367.506
G01 X326.001 Y369.298
G01 X323.372 Y370.991
G01 X320.680 Y372.583
G01 X317.954 Y374.115
G01 X315.172 Y375.542
G01 X312.349 Y376.884
G01 X309.477 Y378.117
G01 X306.571 Y379.263
G01 X303.634 Y380.320
G01 X300.669 Y381.287
G01 X297.657 Y382.144
G01 X294.625 Y382.908
G01 X291.574 Y383.580
G01 X288.502 Y384.133
G01 X285.413 Y384.620
G01 X282.309 Y384.987
G01 X279.196 Y385.234
G01 X276.075 Y385.412
G01 X272.952 Y385.469
G01 X269.822 Y385.432
G01 X266.703 Y385.298
G01 X263.594 Y385.042
G01 X262.673 Y384.956
G01 X264.440 Y383.647
G01 X266.933 Y381.741
G01 X269.384 Y379.811
G01 X271.789 Y377.831
G01 X274.159 Y375.801
G01 X276.503 Y373.718
G01 X278.799 Y371.612
G01 X281.059 Y369.427
G01 X283.274 Y367.245
G01 X285.454 Y365.009
G01 X287.585 Y362.724
G01 X289.674 Y360.387
G01 X291.736 Y358.044
G01 X293.732 Y355.630
G01 X295.699 Y353.210
G01 X297.614 Y350.739
G01 X299.487 Y348.240
G01 X301.302 Y345.690
G01 X303.082 Y343.135
G01 X304.630 Y340.780
G01 X304.952 Y340.760
G01 X308.063 Y340.500
G01 X311.165 Y340.191
G01 X314.277 Y339.820
G01 X317.378 Y339.403
G01 X320.462 Y338.915
G01 X323.535 Y338.352
G01 X326.594 Y337.748
G01 X329.655 Y337.092
G01 X332.700 Y336.364
G01 X335.719 Y335.577
G01 X338.729 Y334.750
G01 X341.717 Y333.858
G01 X344.711 Y332.912
G01 X347.673 Y331.913
G01 X350.611 Y330.857
G01 X353.531 Y329.733
G01 X356.415 Y328.565
G01 X359.299 Y327.350
G01 X362.141 Y326.057
G01 X363.445 Y325.460
G01 X362.797 Y327.047
G01 X361.539 Y329.893
G01 X360.181 Y332.716
G01 X358.770 Y335.497
G01 X357.242 Y338.235
G01 X355.626 Y340.893
G01 X353.936 Y343.533
G01 X352.153 Y346.098
G01 X350.299 Y348.602
G01 X348.358 Y351.064
G01 X346.349 Y353.459
G01 X344.260 Y355.768
G01 X342.089 Y358.025
G01 X339.859 Y360.210
G01 X337.563 Y362.328
G01 X335.186 Y364.359
G01 X332.763 Y366.340
G01 X330.278 Y368.220
G01 X327.710 Y370.012
G01 X325.115 Y371.742
G01 X322.444 Y373.379
G01 X319.737 Y374.929
G01 X316.974 Y376.375
G01 X314.168 Y377.767
G01 X311.312 Y379.051
G01 X308.423 Y380.220
G01 X305.499 Y381.330
G01 X302.536 Y382.328
G01 X299.547 Y383.236
G01 X296.536 Y384.052
G01 X293.491 Y384.782
G01 X290.436 Y385.391
G01 X287.355 Y385.910
G01 X284.251 Y386.338
G01 X281.149 Y386.645
G01 X278.023 Y386.886
G01 X274.906 Y387.004
G01 X271.781 Y387.030
G01 X268.663 Y386.959
G01 X265.539 Y386.770
G01 X262.420 Y386.511
G01 X259.330 Y386.131
G01 X258.502 Y386.010
G01 X260.369 Y384.701
G01 X262.891 Y382.851
G01 X265.385 Y380.974
G01 X267.847 Y379.047
G01 X270.263 Y377.070
G01 X272.641 Y375.042
G01 X274.986 Y372.988
G01 X277.296 Y370.856
G01 X279.562 Y368.725
G01 X281.787 Y366.517
G01 X283.970 Y364.283
G01 X286.110 Y362.024
G01 X288.212 Y359.684
G01 X290.263 Y357.348
G01 X292.277 Y354.955
G01 X294.251 Y352.534
G01 X296.172 Y350.061
G01 X298.038 Y347.565
G01 X299.877 Y345.031
G01 X301.645 Y342.453
G01 X303.384 Y339.865
G01 X303.758 Y339.291
G01 X306.195 Y339.111
G01 X309.298 Y338.826
G01 X312.402 Y338.484
G01 X315.507 Y338.087
G01 X318.596 Y337.617
G01 X321.673 Y337.102
G01 X324.756 Y336.530
G01 X327.810 Y335.898
G01 X330.865 Y335.212
G01 X333.879 Y334.446
G01 X336.911 Y333.647
G01 X339.915 Y332.790
G01 X342.907 Y331.859
G01 X345.868 Y330.875
G01 X348.825 Y329.845
G01 X351.738 Y328.742
G01 X354.643 Y327.597
G01 X357.521 Y326.399
G01 X360.399 Y325.151
G01 X363.227 Y323.838
G01 X366.030 Y322.465
G01 X366.281 Y322.347
G01 X365.284 Y325.031
G01 X364.106 Y327.924
G01 X362.844 Y330.776
G01 X361.491 Y333.595
G01 X360.058 Y336.367
G01 X358.537 Y339.100
G01 X356.911 Y341.776
G01 X355.230 Y344.412
G01 X353.457 Y346.974
G01 X351.594 Y349.496
G01 X349.673 Y351.945
G01 X347.649 Y354.331
G01 X345.580 Y356.667
G01 X343.411 Y358.934
G01 X341.195 Y361.120
G01 X338.886 Y363.230
G01 X336.528 Y365.292
G01 X334.105 Y367.255
G01 X331.623 Y369.148
G01 X329.086 Y370.967
G01 X326.482 Y372.718
G01 X323.826 Y374.363
G01 X321.123 Y375.928
G01 X318.375 Y377.413
G01 X315.584 Y378.815
G01 X312.744 Y380.112
G01 X309.867 Y381.323
G01 X306.944 Y382.453
G01 X304.004 Y383.490
G01 X301.024 Y384.443
G01 X298.011 Y385.283
G01 X294.978 Y386.032
G01 X291.928 Y386.689
G01 X288.864 Y387.254
G01 X285.768 Y387.705
G01 X282.672 Y388.088
G01 X279.551 Y388.354
G01 X276.430 Y388.526
G01 X273.312 Y388.603
G01 X270.181 Y388.563
G01 X267.064 Y388.452
G01 X263.943 Y388.224
G01 X260.838 Y387.900
G01 X257.739 Y387.482
G01 X254.663 Y386.971
G01 X254.373 Y386.905
G01 X256.736 Y385.332
G01 X259.301 Y383.552
G01 X261.822 Y381.695
G01 X264.315 Y379.813
G01 X266.778 Y377.904
G01 X269.190 Y375.921
G01 X271.580 Y373.910
G01 X273.926 Y371.823
G01 X276.226 Y369.736
G01 X278.489 Y367.573
G01 X280.722 Y365.380
G01 X282.904 Y363.137
G01 X285.042 Y360.869
G01 X287.136 Y358.548
G01 X289.191 Y356.199
G01 X291.197 Y353.798
G01 X293.161 Y351.369
G01 X295.089 Y348.907
G01 X296.951 Y346.399
G01 X298.772 Y343.860
G01 X300.552 Y341.288
G01 X302.278 Y338.689
G01 X302.873 Y337.781
G01 X304.905 Y337.648
G01 X308.011 Y337.370
G01 X311.124 Y337.060
G01 X314.226 Y336.672
G01 X317.319 Y336.235
G01 X320.412 Y335.744
G01 X323.479 Y335.189
G01 X326.550 Y334.576
G01 X329.601 Y333.897
G01 X332.628 Y333.153
G01 X335.647 Y332.365
G01 X338.666 Y331.526
G01 X341.648 Y330.603
G01 X344.618 Y329.642
G01 X347.586 Y328.634
G01 X350.510 Y327.551
G01 X353.428 Y326.424
G01 X356.307 Y325.216
G01 X359.170 Y323.979
G01 X362.012 Y322.679
G01 X364.831 Y321.318
G01 X367.618 Y319.908
G01 X368.961 Y319.202
G01 X368.487 Y320.746
G01 X367.445 Y323.692
G01 X366.338 Y326.615
G01 X365.147 Y329.500
G01 X363.844 Y332.339
G01 X362.481 Y335.148
G01 X361.010 Y337.906
G01 X359.452 Y340.624
G01 X357.819 Y343.288
G01 X356.113 Y345.897
G01 X354.326 Y348.458
G01 X352.442 Y350.951
G01 X350.500 Y353.409
G01 X348.475 Y355.784
G01 X346.377 Y358.100
G01 X344.210 Y360.356
G01 X341.969 Y362.521
G01 X339.667 Y364.650
G01 X337.298 Y366.682
G01 X334.869 Y368.646
G01 X332.381 Y370.538
G01 X329.838 Y372.357
G01 X327.227 Y374.080
G01 X324.593 Y375.739
G01 X321.885 Y377.307
G01 X319.133 Y378.794
G01 X316.327 Y380.177
G01 X313.493 Y381.499
G01 X310.626 Y382.707
G01 X307.713 Y383.837
G01 X304.757 Y384.884
G01 X301.787 Y385.838
G01 X298.793 Y386.703
G01 X295.756 Y387.460
G01 X292.701 Y388.125
G01 X289.633 Y388.699
G01 X286.539 Y389.184
G01 X283.437 Y389.576
G01 X280.324 Y389.850
G01 X277.216 Y390.055
G01 X274.090 Y390.145
G01 X270.969 Y390.140
G01 X267.843 Y390.043
G01 X264.729 Y389.852
G01 X261.615 Y389.568
G01 X258.504 Y389.165
G01 X255.430 Y388.694
G01 X252.352 Y388.105
G01 X250.307 Y387.675
G01 X251.183 Y387.120
G01 X253.797 Y385.422
G01 X256.385 Y383.673
G01 X258.945 Y381.872
G01 X261.462 Y380.021
G01 X263.946 Y378.118
G01 X266.399 Y376.189
G01 X268.814 Y374.208
G01 X271.190 Y372.176
G01 X273.524 Y370.093
G01 X275.812 Y367.959
G01 X278.071 Y365.796
G01 X280.286 Y363.607
G01 X282.444 Y361.345
G01 X284.575 Y359.050
G01 X286.657 Y356.731
G01 X288.700 Y354.355
G01 X290.690 Y351.955
G01 X292.645 Y349.523
G01 X294.543 Y347.040
G01 X296.401 Y344.525
G01 X298.195 Y341.961
G01 X299.956 Y339.388
G01 X301.657 Y336.761
G01 X301.975 Y336.250
G01 X304.501 Y336.100
G01 X307.625 Y335.854
G01 X310.731 Y335.532
G01 X313.832 Y335.157
G01 X316.926 Y334.732
G01 X320.006 Y334.231
G01 X323.085 Y333.677
G01 X326.144 Y333.053
G01 X329.200 Y332.378
G01 X332.225 Y331.646
G01 X335.260 Y330.852
G01 X338.261 Y330.004
G01 X341.262 Y329.106
G01 X344.224 Y328.126
G01 X347.174 Y327.108
G01 X350.108 Y326.019
G01 X353.030 Y324.895
G01 X355.905 Y323.699
G01 X358.781 Y322.452
G01 X361.606 Y321.138
G01 X364.423 Y319.786
G01 X367.215 Y318.374
G01 X369.961 Y316.891
G01 X371.511 Y316.046
G01 X371.162 Y317.355
G01 X370.234 Y320.345
G01 X369.247 Y323.302
G01 X368.167 Y326.237
G01 X367.002 Y329.133
G01 X365.727 Y331.985
G01 X364.391 Y334.808
G01 X362.948 Y337.581
G01 X361.447 Y340.319
G01 X359.842 Y343.001
G01 X358.154 Y345.639
G01 X356.395 Y348.220
G01 X354.557 Y350.752
G01 X352.652 Y353.222
G01 X350.671 Y355.638
G01 X348.601 Y357.980
G01 X346.460 Y360.262
G01 X344.277 Y362.493
G01 X342.012 Y364.642
G01 X339.668 Y366.705
G01 X337.278 Y368.721
G01 X334.828 Y370.667
G01 X332.306 Y372.521
G01 X329.744 Y374.293
G01 X327.117 Y375.999
G01 X324.454 Y377.619
G01 X321.732 Y379.169
G01 X318.979 Y380.631
G01 X316.161 Y381.997
G01 X313.318 Y383.273
G01 X310.427 Y384.472
G01 X307.505 Y385.584
G01 X304.553 Y386.610
G01 X301.566 Y387.525
G01 X298.564 Y388.375
G01 X295.520 Y389.117
G01 X292.474 Y389.764
G01 X289.400 Y390.324
G01 X286.301 Y390.796
G01 X283.208 Y391.172
G01 X280.091 Y391.434
G01 X276.978 Y391.628
G01 X273.848 Y391.707
G01 X270.724 Y391.692
G01 X267.597 Y391.611
G01 X264.478 Y391.411
G01 X261.375 Y391.117
G01 X258.273 Y390.707
G01 X255.181 Y390.229
G01 X252.113 Y389.659
G01 X249.059 Y388.997
G01 X246.283 Y388.300
G01 X246.522 Y388.156
G01 X249.185 Y386.523
G01 X251.824 Y384.838
G01 X254.425 Y383.126
G01 X256.998 Y381.339
G01 X259.528 Y379.525
G01 X262.024 Y377.635
G01 X264.487 Y375.718
G01 X266.913 Y373.750
G01 X269.299 Y371.730
G01 X271.658 Y369.681
G01 X273.956 Y367.559
G01 X276.223 Y365.408
G01 X278.458 Y363.229
G01 X280.640 Y360.999
G01 X282.778 Y358.716
G01 X284.876 Y356.405
G01 X286.924 Y354.042
G01 X288.938 Y351.647
G01 X290.896 Y349.201
G01 X292.805 Y346.727
G01 X294.672 Y344.221
G01 X296.486 Y341.689
G01 X298.251 Y339.099
G01 X299.979 Y336.499
G01 X301.088 Y334.741
G01 X302.136 Y334.688
G01 X305.258 Y334.484
G01 X308.356 Y334.205
G01 X311.460 Y333.866
G01 X314.575 Y333.492
G01 X317.662 Y333.020
G01 X320.733 Y332.505
G01 X323.812 Y331.929
G01 X326.882 Y331.307
G01 X329.913 Y330.598
G01 X332.958 Y329.859
G01 X335.961 Y329.038
G01 X338.965 Y328.165
G01 X341.941 Y327.232
G01 X344.916 Y326.249
G01 X347.869 Y325.202
G01 X350.791 Y324.102
G01 X353.695 Y322.933
G01 X356.565 Y321.717
G01 X359.414 Y320.435
G01 X362.234 Y319.100
G01 X365.045 Y317.727
G01 X367.810 Y316.280
G01 X370.571 Y314.787
G01 X373.277 Y313.237
G01 X373.923 Y312.850
G01 X373.378 Y315.155
G01 X372.540 Y318.169
G01 X371.636 Y321.165
G01 X370.625 Y324.116
G01 X369.529 Y327.031
G01 X368.363 Y329.932
G01 X367.087 Y332.791
G01 X365.730 Y335.604
G01 X364.307 Y338.397
G01 X362.788 Y341.126
G01 X361.194 Y343.803
G01 X359.518 Y346.436
G01 X357.762 Y349.024
G01 X355.909 Y351.545
G01 X354.008 Y354.023
G01 X352.033 Y356.446
G01 X349.967 Y358.796
G01 X347.842 Y361.078
G01 X345.666 Y363.318
G01 X343.406 Y365.477
G01 X341.083 Y367.571
G01 X338.684 Y369.578
G01 X336.252 Y371.528
G01 X333.752 Y373.415
G01 X331.195 Y375.202
G01 X328.574 Y376.922
G01 X325.930 Y378.579
G01 X323.226 Y380.138
G01 X320.479 Y381.618
G01 X317.666 Y383.002
G01 X314.839 Y384.319
G01 X311.952 Y385.537
G01 X309.056 Y386.688
G01 X306.107 Y387.736
G01 X303.131 Y388.697
G01 X300.131 Y389.570
G01 X297.109 Y390.355
G01 X294.070 Y391.051
G01 X290.994 Y391.637
G01 X287.912 Y392.156
G01 X284.816 Y392.560
G01 X281.714 Y392.873
G01 X278.594 Y393.096
G01 X275.466 Y393.254
G01 X272.350 Y393.292
G01 X269.223 Y393.216
G01 X266.096 Y393.072
G01 X262.981 Y392.836
G01 X259.882 Y392.508
G01 X256.787 Y392.088
G01 X253.700 Y391.552
G01 X250.638 Y390.949
G01 X247.592 Y390.229
G01 X244.577 Y389.445
G01 X242.321 Y388.788
G01 X242.995 Y388.398
G01 X245.692 Y386.832
G01 X248.368 Y385.190
G01 X250.992 Y383.521
G01 X253.603 Y381.801
G01 X256.171 Y380.004
G01 X258.708 Y378.180
G01 X261.198 Y376.305
G01 X263.665 Y374.377
G01 X266.080 Y372.398
G01 X268.470 Y370.391
G01 X270.816 Y368.333
G01 X273.127 Y366.221
G01 X275.389 Y364.058
G01 X277.605 Y361.869
G01 X279.789 Y359.625
G01 X281.915 Y357.330
G01 X284.010 Y355.005
G01 X286.050 Y352.654
G01 X288.046 Y350.248
G01 X290.003 Y347.811
G01 X291.899 Y345.323
G01 X293.770 Y342.823
G01 X295.575 Y340.273
G01 X297.331 Y337.692
G01 X299.031 Y335.055
G01 X300.201 Y333.233
G01 X301.143 Y333.186
G01 X304.256 Y332.988
G01 X307.370 Y332.729
G01 X310.484 Y332.412
G01 X313.587 Y332.044
G01 X316.678 Y331.596
G01 X319.765 Y331.096
G01 X322.827 Y330.528
G01 X325.890 Y329.905
G01 X328.950 Y329.230
G01 X331.982 Y328.494
G01 X334.998 Y327.684
G01 X338.009 Y326.827
G01 X340.994 Y325.910
G01 X343.959 Y324.925
G01 X346.895 Y323.884
G01 X349.834 Y322.786
G01 X352.742 Y321.635
G01 X355.624 Y320.426
G01 X358.479 Y319.160
G01 X361.312 Y317.828
G01 X364.109 Y316.455
G01 X366.888 Y315.010
G01 X369.629 Y313.527
G01 X372.349 Y311.975
G01 X375.035 Y310.378
G01 X376.216 Y309.646
G01 X375.879 Y311.330
G01 X375.164 Y314.379
G01 X374.388 Y317.400
G01 X373.497 Y320.393
G01 X372.541 Y323.366
G01 X371.494 Y326.317
G01 X370.342 Y329.218
G01 X369.121 Y332.103
G01 X367.800 Y334.932
G01 X366.422 Y337.729
G01 X364.938 Y340.475
G01 X363.389 Y343.197
G01 X361.749 Y345.851
G01 X360.028 Y348.460
G01 X358.229 Y351.021
G01 X356.381 Y353.540
G01 X354.439 Y355.990
G01 X352.425 Y358.386
G01 X350.350 Y360.715
G01 X348.189 Y362.967
G01 X345.979 Y365.176
G01 X343.703 Y367.324
G01 X341.349 Y369.386
G01 X338.961 Y371.392
G01 X336.502 Y373.310
G01 X333.974 Y375.166
G01 X331.406 Y376.940
G01 X328.787 Y378.640
G01 X326.120 Y380.265
G01 X323.407 Y381.813
G01 X320.652 Y383.282
G01 X317.844 Y384.649
G01 X314.996 Y385.963
G01 X312.117 Y387.165
G01 X309.205 Y388.284
G01 X306.251 Y389.323
G01 X303.279 Y390.299
G01 X300.279 Y391.136
G01 X297.254 Y391.914
G01 X294.197 Y392.608
G01 X291.138 Y393.208
G01 X288.047 Y393.699
G01 X284.953 Y394.122
G01 X281.847 Y394.430
G01 X278.730 Y394.675
G01 X275.607 Y394.803
G01 X272.488 Y394.840
G01 X269.361 Y394.786
G01 X266.231 Y394.667
G01 X263.126 Y394.430
G01 X260.007 Y394.103
G01 X256.921 Y393.683
G01 X253.828 Y393.174
G01 X250.760 Y392.573
G01 X247.720 Y391.882
G01 X244.696 Y391.100
G01 X241.693 Y390.229
G01 X238.713 Y389.268
G01 X238.399 Y389.167
G01 X240.839 Y387.821
G01 X243.554 Y386.273
G01 X246.232 Y384.672
G01 X248.887 Y383.020
G01 X251.501 Y381.316
G01 X254.086 Y379.561
G01 X256.640 Y377.753
G01 X259.160 Y375.892
G01 X261.632 Y374.006
G01 X264.076 Y372.041
G01 X266.469 Y370.051
G01 X268.841 Y368.005
G01 X271.156 Y365.910
G01 X273.432 Y363.762
G01 X275.672 Y361.585
G01 X277.868 Y359.355
G01 X280.013 Y357.099
G01 X282.120 Y354.788
G01 X284.191 Y352.445
G01 X286.197 Y350.054
G01 X288.173 Y347.627
G01 X290.087 Y345.151
G01 X291.954 Y342.643
G01 X293.774 Y340.105
G01 X295.542 Y337.537
G01 X297.267 Y334.934
G01 X298.943 Y332.296
G01 X299.301 Y331.703
G01 X301.732 Y331.581
G01 X304.840 Y331.370
G01 X307.950 Y331.098
G01 X311.060 Y330.767
G01 X314.169 Y330.377
G01 X317.251 Y329.919
G01 X320.336 Y329.402
G01 X323.416 Y328.834
G01 X326.471 Y328.199
G01 X329.515 Y327.485
G01 X332.548 Y326.727
G01 X335.559 Y325.903
G01 X338.564 Y325.032
G01 X341.532 Y324.074
G01 X344.491 Y323.073
G01 X347.442 Y322.031
G01 X350.356 Y320.900
G01 X353.259 Y319.733
G01 X356.116 Y318.492
G01 X358.966 Y317.208
G01 X361.794 Y315.858
G01 X364.570 Y314.442
G01 X367.337 Y312.989
G01 X370.078 Y311.475
G01 X372.764 Y309.904
G01 X375.445 Y308.287
G01 X378.073 Y306.606
G01 X378.381 Y306.405
G01 X377.921 Y309.127
G01 X377.294 Y312.193
G01 X376.579 Y315.235
G01 X375.776 Y318.250
G01 X374.880 Y321.248
G01 X373.899 Y324.213
G01 X372.828 Y327.155
G01 X371.702 Y330.061
G01 X370.460 Y332.937
G01 X369.138 Y335.769
G01 X367.739 Y338.556
G01 X366.256 Y341.306
G01 X364.709 Y344.033
G01 X363.071 Y346.690
G01 X361.362 Y349.293
G01 X359.566 Y351.860
G01 X357.703 Y354.367
G01 X355.766 Y356.823
G01 X353.767 Y359.214
G01 X351.687 Y361.560
G01 X349.548 Y363.838
G01 X347.338 Y366.027
G01 X345.069 Y368.183
G01 X342.736 Y370.275
G01 X340.340 Y372.271
G01 X337.902 Y374.220
G01 X335.393 Y376.078
G01 X332.831 Y377.865
G01 X330.219 Y379.608
G01 X327.559 Y381.247
G01 X324.865 Y382.801
G01 X322.115 Y384.286
G01 X319.325 Y385.692
G01 X316.471 Y387.001
G01 X313.607 Y388.244
G01 X310.710 Y389.404
G01 X307.773 Y390.457
G01 X304.805 Y391.454
G01 X301.817 Y392.337
G01 X298.801 Y393.161
G01 X295.758 Y393.874
G01 X292.686 Y394.502
G01 X289.614 Y395.037
G01 X286.519 Y395.487
G01 X283.421 Y395.870
G01 X280.314 Y396.139
G01 X277.190 Y396.320
G01 X274.064 Y396.385
G01 X270.932 Y396.386
G01 X267.808 Y396.295
G01 X264.694 Y396.113
G01 X261.579 Y395.841
G01 X258.481 Y395.478
G01 X255.387 Y395.025
G01 X252.316 Y394.481
G01 X249.256 Y393.848
G01 X246.211 Y393.125
G01 X243.196 Y392.312
G01 X240.203 Y391.411
G01 X237.233 Y390.421
G01 X234.507 Y389.417
G01 X234.716 Y389.314
G01 X237.478 Y387.883
G01 X240.223 Y386.375
G01 X242.933 Y384.815
G01 X245.619 Y383.228
G01 X248.267 Y381.564
G01 X250.887 Y379.847
G01 X253.463 Y378.103
G01 X256.007 Y376.282
G01 X258.514 Y374.409
G01 X260.997 Y372.507
G01 X263.428 Y370.554
G01 X265.828 Y368.548
G01 X268.182 Y366.490
G01 X270.486 Y364.380
G01 X272.767 Y362.239
G01 X274.994 Y360.047
G01 X277.180 Y357.827
G01 X279.319 Y355.554
G01 X281.415 Y353.225
G01 X283.464 Y350.869
G01 X285.473 Y348.481
G01 X287.430 Y346.039
G01 X289.332 Y343.569
G01 X291.186 Y341.043
G01 X292.998 Y338.508
G01 X294.755 Y335.917
G01 X296.462 Y333.292
G01 X298.111 Y330.639
G01 X298.400 Y330.173
G01 X300.966 Y330.053
G01 X304.079 Y329.863
G01 X307.197 Y329.608
G01 X310.310 Y329.296
G01 X313.408 Y328.905
G01 X316.504 Y328.456
G01 X319.589 Y327.959
G01 X322.661 Y327.384
G01 X325.726 Y326.758
G01 X328.766 Y326.067
G01 X331.805 Y325.322
G01 X334.810 Y324.485
G01 X337.823 Y323.623
G01 X340.791 Y322.682
G01 X343.760 Y321.687
G01 X346.700 Y320.634
G01 X349.618 Y319.516
G01 X352.511 Y318.335
G01 X355.393 Y317.118
G01 X358.233 Y315.819
G01 X361.039 Y314.474
G01 X363.843 Y313.078
G01 X366.601 Y311.606
G01 X369.349 Y310.096
G01 X372.042 Y308.527
G01 X374.707 Y306.902
G01 X377.342 Y305.221
G01 X379.948 Y303.487
G01 X380.435 Y303.154
G01 X380.094 Y305.658
G01 X379.579 Y308.749
G01 X378.958 Y311.796
G01 X378.266 Y314.843
G01 X377.481 Y317.877
G01 X376.638 Y320.881
G01 X375.682 Y323.853
G01 X374.636 Y326.804
G01 X373.508 Y329.717
G01 X372.320 Y332.605
G01 X371.025 Y335.448
G01 X369.644 Y338.259
G01 X368.208 Y341.036
G01 X366.677 Y343.749
G01 X365.067 Y346.422
G01 X363.395 Y349.068
G01 X361.626 Y351.652
G01 X359.791 Y354.177
G01 X357.899 Y356.669
G01 X355.927 Y359.081
G01 X353.873 Y361.449
G01 X351.778 Y363.768
G01 X349.599 Y366.010
G01 X347.367 Y368.182
G01 X345.060 Y370.300
G01 X342.704 Y372.345
G01 X340.290 Y374.323
G01 X337.819 Y376.232
G01 X335.281 Y378.081
G01 X332.717 Y379.840
G01 X330.090 Y381.535
G01 X327.404 Y383.134
G01 X324.685 Y384.678
G01 X321.925 Y386.144
G01 X319.113 Y387.509
G01 X316.275 Y388.816
G01 X313.392 Y390.018
G01 X310.487 Y391.161
G01 X307.530 Y392.204
G01 X304.560 Y393.155
G01 X301.561 Y394.050
G01 X298.533 Y394.835
G01 X295.486 Y395.532
G01 X292.424 Y396.142
G01 X289.350 Y396.663
G01 X286.252 Y397.099
G01 X283.146 Y397.445
G01 X280.037 Y397.702
G01 X276.917 Y397.896
G01 X273.793 Y397.974
G01 X270.675 Y397.963
G01 X267.549 Y397.862
G01 X264.418 Y397.673
G01 X261.317 Y397.391
G01 X258.217 Y397.021
G01 X255.121 Y396.561
G01 X252.049 Y396.011
G01 X248.987 Y395.371
G01 X245.938 Y394.668
G01 X242.921 Y393.851
G01 X239.924 Y392.945
G01 X236.963 Y391.978
G01 X234.029 Y390.898
G01 X231.121 Y389.756
G01 X230.677 Y389.569
G01 X233.047 Y388.416
G01 X235.816 Y386.993
G01 X238.582 Y385.495
G01 X241.297 Y383.968
G01 X243.989 Y382.389
G01 X246.643 Y380.732
G01 X249.268 Y379.048
G01 X251.863 Y377.311
G01 X254.423 Y375.497
G01 X256.936 Y373.656
G01 X259.422 Y371.761
G01 X261.868 Y369.814
G01 X264.269 Y367.814
G01 X266.636 Y365.761
G01 X268.956 Y363.680
G01 X271.236 Y361.547
G01 X273.473 Y359.359
G01 X275.667 Y357.143
G01 X277.823 Y354.872
G01 X279.915 Y352.551
G01 X281.977 Y350.196
G01 X283.988 Y347.813
G01 X285.947 Y345.376
G01 X287.857 Y342.908
G01 X289.727 Y340.406
G01 X291.534 Y337.852
G01 X293.304 Y335.286
G01 X295.013 Y332.664
G01 X296.667 Y330.010
G01 X297.506 Y328.640
G01 X299.023 Y328.589
G01 X302.139 Y328.425
G01 X305.246 Y328.204
G01 X308.358 Y327.919
G01 X311.464 Y327.577
G01 X314.572 Y327.174
G01 X317.656 Y326.700
G01 X320.737 Y326.170
G01 X323.804 Y325.562
G01 X326.858 Y324.910
G01 X329.894 Y324.185
G01 X332.928 Y323.406
G01 X335.922 Y322.543
G01 X338.930 Y321.645
G01 X341.887 Y320.678
G01 X344.851 Y319.647
G01 X347.759 Y318.554
G01 X350.671 Y317.400
G01 X353.551 Y316.193
G01 X356.427 Y314.939
G01 X359.255 Y313.614
G01 X362.053 Y312.233
G01 X364.822 Y310.798
G01 X367.566 Y309.301
G01 X370.277 Y307.755
G01 X372.961 Y306.150
G01 X375.617 Y304.488
G01 X378.214 Y302.773
G01 X380.804 Y301.015
G01 X382.388 Y299.887
G01 X382.264 Y301.052
G01 X381.887 Y304.161
G01 X381.420 Y307.255
G01 X380.864 Y310.329
G01 X380.220 Y313.381
G01 X379.483 Y316.420
G01 X378.683 Y319.444
G01 X377.776 Y322.426
G01 X376.801 Y325.400
G01 X375.743 Y328.339
G01 X374.576 Y331.239
G01 X373.352 Y334.112
G01 X372.041 Y336.954
G01 X370.654 Y339.751
G01 X369.184 Y342.512
G01 X367.622 Y345.207
G01 X365.999 Y347.877
G01 X364.298 Y350.503
G01 X362.529 Y353.073
G01 X360.685 Y355.595
G01 X358.767 Y358.066
G01 X356.777 Y360.486
G01 X354.727 Y362.840
G01 X352.610 Y365.137
G01 X350.426 Y367.376
G01 X348.189 Y369.545
G01 X345.878 Y371.661
G01 X343.519 Y373.703
G01 X341.102 Y375.679
G01 X338.629 Y377.587
G01 X336.102 Y379.426
G01 X333.510 Y381.173
G01 X330.883 Y382.867
G01 X328.209 Y384.488
G01 X325.478 Y386.011
G01 X322.717 Y387.478
G01 X319.917 Y388.867
G01 X317.069 Y390.154
G01 X314.197 Y391.383
G01 X311.293 Y392.530
G01 X308.350 Y393.571
G01 X305.390 Y394.551
G01 X302.383 Y395.429
G01 X299.363 Y396.244
G01 X296.316 Y396.949
G01 X293.254 Y397.566
G01 X290.186 Y398.120
G01 X287.086 Y398.566
G01 X283.985 Y398.947
G01 X280.874 Y399.214
G01 X277.765 Y399.417
G01 X274.639 Y399.508
G01 X271.520 Y399.534
G01 X268.389 Y399.448
G01 X265.271 Y399.296
G01 X262.147 Y399.031
G01 X259.042 Y398.700
G01 X255.954 Y398.281
G01 X252.871 Y397.747
G01 X249.798 Y397.150
G01 X246.752 Y396.464
G01 X243.721 Y395.690
G01 X240.723 Y394.828
G01 X237.745 Y393.879
G01 X234.789 Y392.868
G01 X231.876 Y391.746
G01 X228.990 Y390.564
G01 X226.870 Y389.622
G01 X227.612 Y389.287
G01 X230.438 Y387.945
G01 X233.231 Y386.574
G01 X236.009 Y385.128
G01 X238.753 Y383.628
G01 X241.460 Y382.074
G01 X244.142 Y380.469
G01 X246.783 Y378.810
G01 X249.394 Y377.099
G01 X251.971 Y375.309
G01 X254.513 Y373.493
G01 X257.017 Y371.623
G01 X259.494 Y369.724
G01 X261.913 Y367.749
G01 X264.297 Y365.720
G01 X266.647 Y363.662
G01 X268.957 Y361.551
G01 X271.211 Y359.388
G01 X273.434 Y357.193
G01 X275.597 Y354.949
G01 X277.727 Y352.646
G01 X279.807 Y350.315
G01 X281.845 Y347.953
G01 X283.821 Y345.540
G01 X285.767 Y343.090
G01 X287.644 Y340.590
G01 X289.475 Y338.057
G01 X291.257 Y335.490
G01 X292.988 Y332.891
G01 X294.673 Y330.254
G01 X296.299 Y327.585
G01 X296.591 Y327.090
G01 X299.136 Y327.010
G01 X302.263 Y326.865
G01 X305.377 Y326.636
G01 X308.489 Y326.346
G01 X311.598 Y325.997
G01 X314.685 Y325.572
G01 X317.772 Y325.088
G01 X320.858 Y324.547
G01 X323.916 Y323.940
G01 X326.976 Y323.274
G01 X330.011 Y322.541
G01 X333.027 Y321.736
G01 X336.034 Y320.886
G01 X339.017 Y319.970
G01 X342.002 Y318.997
G01 X344.941 Y317.947
G01 X347.872 Y316.853
G01 X350.759 Y315.679
G01 X353.636 Y314.466
G01 X356.493 Y313.181
G01 X359.317 Y311.848
G01 X362.112 Y310.459
G01 X364.861 Y308.993
G01 X367.602 Y307.486
G01 X370.315 Y305.919
G01 X372.973 Y304.293
G01 X375.625 Y302.620
G01 X378.223 Y300.882
G01 X380.786 Y299.104
G01 X383.316 Y297.274
G01 X384.221 Y296.585
G01 X384.073 Y298.571
G01 X383.760 Y301.691
G01 X383.385 Y304.792
G01 X382.892 Y307.880
G01 X382.341 Y310.946
G01 X381.690 Y314.015
G01 X380.938 Y317.035
G01 X380.139 Y320.062
G01 X379.234 Y323.048
G01 X378.239 Y326.013
G01 X377.164 Y328.942
G01 X376.022 Y331.859
G01 X374.781 Y334.722
G01 X373.476 Y337.568
G01 X372.095 Y340.368
G01 X370.611 Y343.118
G01 X369.076 Y345.833
G01 X367.461 Y348.508
G01 X365.767 Y351.140
G01 X364.007 Y353.716
G01 X362.171 Y356.244
G01 X360.263 Y358.723
G01 X358.282 Y361.150
G01 X356.242 Y363.512
G01 X354.135 Y365.819
G01 X351.961 Y368.067
G01 X349.735 Y370.246
G01 X347.435 Y372.373
G01 X345.087 Y374.427
G01 X342.681 Y376.415
G01 X340.206 Y378.346
G01 X337.690 Y380.198
G01 X335.123 Y381.980
G01 X332.520 Y383.682
G01 X329.856 Y385.319
G01 X327.147 Y386.882
G01 X324.396 Y388.368
G01 X321.606 Y389.776
G01 X318.777 Y391.106
G01 X315.914 Y392.356
G01 X313.018 Y393.525
G01 X310.092 Y394.612
G01 X307.124 Y395.622
G01 X304.145 Y396.542
G01 X301.130 Y397.383
G01 X298.110 Y398.133
G01 X295.058 Y398.803
G01 X291.977 Y399.389
G01 X288.906 Y399.909
G01 X285.804 Y400.320
G01 X282.696 Y400.643
G01 X279.585 Y400.877
G01 X276.458 Y401.025
G01 X273.333 Y401.084
G01 X270.217 Y401.078
G01 X267.090 Y400.961
G01 X263.974 Y400.754
G01 X260.858 Y400.484
G01 X257.756 Y400.100
G01 X254.660 Y399.652
G01 X251.585 Y399.117
G01 X248.520 Y398.468
G01 X245.482 Y397.756
G01 X242.459 Y396.957
G01 X239.469 Y396.071
G01 X236.498 Y395.123
G01 X233.553 Y394.064
G01 X230.632 Y392.944
G01 X227.759 Y391.715
G01 X224.915 Y390.427
G01 X223.107 Y389.557
G01 X224.133 Y389.090
G01 X226.962 Y387.787
G01 X229.765 Y386.407
G01 X232.550 Y384.977
G01 X235.301 Y383.493
G01 X238.029 Y381.958
G01 X240.719 Y380.370
G01 X243.368 Y378.729
G01 X246.001 Y377.037
G01 X248.588 Y375.317
G01 X251.152 Y373.520
G01 X253.679 Y371.669
G01 X256.165 Y369.766
G01 X258.609 Y367.836
G01 X261.019 Y365.852
G01 X263.392 Y363.815
G01 X265.725 Y361.724
G01 X268.017 Y359.604
G01 X270.264 Y357.431
G01 X272.465 Y355.229
G01 X274.635 Y352.969
G01 X276.748 Y350.657
G01 X278.824 Y348.338
G01 X280.841 Y345.940
G01 X282.826 Y343.532
G01 X284.751 Y341.070
G01 X286.630 Y338.575
G01 X288.468 Y336.042
G01 X290.246 Y333.480
G01 X291.985 Y330.877
G01 X293.665 Y328.240
G01 X294.351 Y327.133
G01 X296.172 Y327.108
G01 X296.539 Y327.091
G01 X299.294 Y326.968
G01 X302.409 Y326.766
G01 X305.538 Y326.520
G01 X308.642 Y326.197
G01 X311.741 Y325.816
G01 X314.825 Y325.353
G01 X317.917 Y324.856
G01 X320.990 Y324.283
G01 X324.051 Y323.663
G01 X327.097 Y322.965
G01 X330.129 Y322.225
G01 X333.147 Y321.405
G01 X336.149 Y320.549
G01 X339.135 Y319.617
G01 X342.096 Y318.622
G01 X345.043 Y317.589
G01 X347.969 Y316.488
G01 X350.872 Y315.322
G01 X353.744 Y314.102
G01 X356.611 Y312.834
G01 X359.424 Y311.505
G01 X362.237 Y310.121
G01 X364.998 Y308.671
G01 X367.751 Y307.180
G01 X370.449 Y305.630
G01 X373.143 Y304.030
G01 X375.786 Y302.363
G01 X378.418 Y300.662
G01 X380.996 Y298.899
G01 X383.538 Y297.097
G01 X384.221 Y296.585
G01 X384.352 Y294.324
G01 X384.457 Y291.190
G01 X384.466 Y288.065
G01 X384.382 Y284.939
G01 X384.230 Y281.821
G01 X383.960 Y278.702
G01 X383.645 Y275.601
G01 X383.212 Y272.506
G01 X382.710 Y269.429
G01 X382.117 Y266.355
G01 X381.429 Y263.302
G01 X380.647 Y260.273
G01 X379.796 Y257.272
G01 X378.879 Y254.289
G01 X377.868 Y251.338
G01 X377.549 Y250.506
G01 X376.601 Y252.465
G01 X376.575 Y252.515
G01 X375.409 Y255.404
G01 X374.125 Y258.262
G01 X372.776 Y261.076
G01 X371.360 Y263.867
G01 X369.855 Y266.605
G01 X368.285 Y269.303
G01 X366.627 Y271.954
G01 X364.907 Y274.548
G01 X363.099 Y277.099
G01 X361.227 Y279.609
G01 X359.273 Y282.046
G01 X357.257 Y284.436
G01 X355.181 Y286.777
G01 X353.051 Y289.044
G01 X350.836 Y291.257
G01 X348.568 Y293.401
G01 X346.240 Y295.492
G01 X343.839 Y297.498
G01 X341.408 Y299.447
G01 X338.899 Y301.322
G01 X336.342 Y303.123
G01 X333.753 Y304.868
G01 X331.098 Y306.520
G01 X328.394 Y308.096
G01 X325.665 Y309.610
G01 X322.897 Y311.035
G01 X320.056 Y312.375
G01 X317.218 Y313.654
G01 X314.320 Y314.832
G01 X311.398 Y315.942
G01 X308.444 Y316.955
G01 X305.465 Y317.901
G01 X302.459 Y318.745
G01 X299.432 Y319.516
G01 X298.654 Y319.698
G01 X299.710 Y317.619
G01 X301.065 Y314.797
G01 X302.369 Y311.957
G01 X303.627 Y309.095
G01 X304.823 Y306.219
G01 X305.950 Y303.302
G01 X307.019 Y300.361
G01 X308.025 Y297.401
G01 X308.964 Y294.423
G01 X309.859 Y291.434
G01 X310.687 Y288.418
G01 X311.441 Y285.380
G01 X312.138 Y282.339
G01 X312.761 Y279.268
G01 X313.343 Y276.206
G01 X313.842 Y273.121
G01 X314.303 Y270.030
G01 X314.672 Y266.925
G01 X314.998 Y263.818
G01 X315.253 Y260.702
G01 X315.437 Y257.583
G01 X315.548 Y254.462
G01 X315.611 Y251.336
G01 X315.625 Y249.998
G01 X313.850 Y250.011
G01 X310.725 Y250.016
G01 X307.600 Y250.027
G01 X304.475 Y250.025
G01 X301.350 Y250.024
G01 X298.225 Y250.018
G01 X295.100 Y250.008
G01 X293.650 Y249.999
G01 X293.617 Y248.314
G01 X293.499 Y246.174
G01 X293.410 Y245.195
G01 X293.122 Y243.071
G01 X292.955 Y242.102
G01 X292.516 Y240.004
G01 X292.281 Y239.054
G01 X291.709 Y236.987
G01 X291.415 Y236.053
G01 X290.680 Y234.038
G01 X290.311 Y233.126
G01 X289.434 Y231.168
G01 X289.002 Y230.289
G01 X287.988 Y228.399
G01 X287.495 Y227.554
G01 X286.362 Y225.731
G01 X285.816 Y224.918
G01 X284.542 Y223.191
G01 X283.935 Y222.427
G01 X282.541 Y220.795
G01 X281.879 Y220.073
G01 X280.372 Y218.545
G01 X279.662 Y217.875
G01 X278.061 Y216.445
G01 X277.307 Y215.818
G01 X275.597 Y214.520
G01 X274.799 Y213.957
G01 X273.001 Y212.784
G01 X272.161 Y212.278
G01 X270.283 Y211.236
G01 X269.413 Y210.793
G01 X267.466 Y209.888
G01 X266.567 Y209.508
G01 X264.560 Y208.744
G01 X263.636 Y208.429
G01 X261.580 Y207.810
G01 X260.636 Y207.562
G01 X258.544 Y207.075
G01 X257.586 Y206.887
G01 X255.461 Y206.567
G01 X254.491 Y206.456
G01 X252.349 Y206.288
G01 X251.373 Y206.247
G01 X249.224 Y206.232
G01 X248.248 Y206.260
G01 X246.104 Y206.399
G01 X245.132 Y206.497
G01 X243.003 Y206.788
G01 X242.041 Y206.955
G01 X239.942 Y207.414
G01 X238.997 Y207.656
G01 X236.932 Y208.247
G01 X236.004 Y208.549
G01 X233.987 Y209.286
G01 X233.082 Y209.653
G01 X231.123 Y210.532
G01 X230.247 Y210.963
G01 X228.356 Y211.979
G01 X228.253 Y212.038
G01 X227.814 Y211.281
G01 X226.243 Y208.579
G01 X224.675 Y205.876
G01 X223.101 Y203.176
G01 X221.547 Y200.494
G01 X219.974 Y197.794
G01 X218.405 Y195.091
G01 X216.835 Y192.389
G01 X215.264 Y189.688
G01 X213.692 Y186.987
G01 X212.125 Y184.283
G01 X210.551 Y181.583
G01 X208.983 Y178.880
G01 X207.414 Y176.178
G01 X205.845 Y173.475
G01 X204.275 Y170.773
G01 X202.705 Y168.071
G01 X202.472 Y167.686
G01 X203.767 Y166.038
G01 X204.352 Y166.031
G01 X207.481 Y166.054
G01 X208.058 Y166.072
G01 X205.823 Y167.283
G01 X203.106 Y168.821
G01 X200.416 Y170.406
G01 X198.767 Y171.398
G01 X199.350 Y170.338
G01 X200.918 Y167.641
G01 X202.575 Y164.983
G01 X202.902 Y164.487
G01 X205.433 Y164.464
G01 X208.555 Y164.517
G01 X211.673 Y164.689
G01 X213.753 Y164.871
G01 X212.832 Y165.350
G01 X210.047 Y166.768
G01 X207.295 Y168.258
G01 X204.569 Y169.770
G01 X201.876 Y171.356
G01 X199.197 Y172.969
G01 X196.565 Y174.649
G01 X194.913 Y175.723
G01 X195.396 Y174.656
G01 X196.774 Y171.855
G01 X198.252 Y169.112
G01 X199.827 Y166.400
G01 X201.505 Y163.777
G01 X202.049 Y162.959
G01 X204.200 Y162.908
G01 X207.319 Y162.923
G01 X210.445 Y163.049
G01 X213.563 Y163.295
G01 X216.667 Y163.661
G01 X219.171 Y164.036
G01 X218.639 Y164.282
G01 X215.811 Y165.613
G01 X213.008 Y166.995
G01 X210.241 Y168.451
G01 X207.487 Y169.937
G01 X204.771 Y171.468
G01 X202.076 Y173.054
G01 X199.408 Y174.691
G01 X196.782 Y176.369
G01 X194.181 Y178.099
G01 X191.595 Y179.857
G01 X191.462 Y179.968
G01 X192.555 Y177.213
G01 X193.817 Y174.357
G01 X195.189 Y171.551
G01 X196.645 Y168.783
G01 X198.203 Y166.072
G01 X199.859 Y163.421
G01 X201.205 Y161.426
G01 X201.927 Y161.402
G01 X205.039 Y161.321
G01 X208.166 Y161.378
G01 X211.299 Y161.546
G01 X214.405 Y161.813
G01 X217.506 Y162.195
G01 X220.598 Y162.693
G01 X223.657 Y163.288
G01 X224.347 Y163.447
G01 X222.123 Y164.400
G01 X219.281 Y165.697
G01 X216.451 Y167.026
G01 X213.657 Y168.430
G01 X210.880 Y169.864
G01 X208.135 Y171.348
G01 X205.413 Y172.887
G01 X202.721 Y174.478
G01 X200.058 Y176.122
G01 X197.437 Y177.808
G01 X194.827 Y179.529
G01 X192.248 Y181.300
G01 X189.721 Y183.134
G01 X188.345 Y184.127
G01 X188.799 Y182.790
G01 X189.836 Y179.838
G01 X190.982 Y176.933
G01 X192.240 Y174.073
G01 X193.583 Y171.248
G01 X195.032 Y168.475
G01 X196.572 Y165.765
G01 X198.218 Y163.110
G01 X199.943 Y160.497
G01 X200.351 Y159.899
G01 X202.759 Y159.797
G01 X205.880 Y159.758
G01 X209.013 Y159.855
G01 X212.124 Y160.022
G01 X215.236 Y160.328
G01 X218.336 Y160.724
G01 X221.417 Y161.239
G01 X224.482 Y161.870
G01 X227.511 Y162.597
G01 X229.314 Y163.078
G01 X228.142 Y163.545
G01 X225.259 Y164.742
G01 X222.391 Y165.996
G01 X219.556 Y167.301
G01 X216.733 Y168.638
G01 X213.938 Y170.030
G01 X211.162 Y171.480
G01 X208.428 Y172.978
G01 X205.718 Y174.533
G01 X203.026 Y176.119
G01 X200.376 Y177.781
G01 X197.748 Y179.472
G01 X195.153 Y181.215
G01 X192.580 Y182.985
G01 X190.054 Y184.826
G01 X187.547 Y186.697
G01 X185.540 Y188.271
G01 X185.695 Y187.713
G01 X186.543 Y184.706
G01 X187.503 Y181.738
G01 X188.564 Y178.789
G01 X189.724 Y175.893
G01 X190.993 Y173.043
G01 X192.353 Y170.223
G01 X193.807 Y167.463
G01 X195.368 Y164.754
G01 X197.001 Y162.090
G01 X198.734 Y159.485
G01 X199.519 Y158.388
G01 X201.299 Y158.306
G01 X204.420 Y158.220
G01 X207.548 Y158.245
G01 X210.666 Y158.360
G01 X213.782 Y158.615
G01 X216.888 Y158.960
G01 X219.979 Y159.420
G01 X223.052 Y159.972
G01 X226.101 Y160.641
G01 X229.136 Y161.424
G01 X232.128 Y162.303
G01 X234.118 Y162.937
G01 X233.142 Y163.299
G01 X230.226 Y164.404
G01 X227.319 Y165.568
G01 X224.454 Y166.809
G01 X221.591 Y168.060
G01 X218.760 Y169.392
G01 X215.959 Y170.779
G01 X213.179 Y172.198
G01 X210.425 Y173.675
G01 X207.686 Y175.187
G01 X204.999 Y176.772
G01 X202.330 Y178.391
G01 X199.689 Y180.067
G01 X197.084 Y181.795
G01 X194.503 Y183.552
G01 X191.953 Y185.364
G01 X189.440 Y187.225
G01 X186.969 Y189.130
G01 X184.531 Y191.085
G01 X182.987 Y192.347
G01 X183.224 Y191.237
G01 X183.952 Y188.203
G01 X184.778 Y185.186
G01 X185.692 Y182.196
G01 X186.723 Y179.241
G01 X187.852 Y176.340
G01 X189.081 Y173.459
G01 X190.407 Y170.632
G01 X191.813 Y167.843
G01 X193.325 Y165.104
G01 X194.932 Y162.425
G01 X196.637 Y159.803
G01 X198.430 Y157.247
G01 X198.677 Y156.882
G01 X201.352 Y156.724
G01 X204.489 Y156.653
G01 X207.612 Y156.675
G01 X210.728 Y156.812
G01 X213.842 Y157.034
G01 X216.956 Y157.394
G01 X220.049 Y157.845
G01 X223.116 Y158.388
G01 X226.170 Y159.045
G01 X229.204 Y159.817
G01 X232.206 Y160.680
G01 X235.178 Y161.660
G01 X238.108 Y162.732
G01 X238.761 Y162.973
G01 X236.459 Y163.757
G01 X233.520 Y164.830
G01 X230.597 Y165.935
G01 X227.709 Y167.120
G01 X224.826 Y168.342
G01 X221.978 Y169.619
G01 X219.147 Y170.931
G01 X216.348 Y172.327
G01 X213.570 Y173.756
G01 X210.821 Y175.245
G01 X208.095 Y176.767
G01 X205.394 Y178.350
G01 X202.732 Y179.987
G01 X200.093 Y181.657
G01 X197.489 Y183.383
G01 X194.918 Y185.164
G01 X192.393 Y186.990
G01 X189.881 Y188.855
G01 X187.410 Y190.766
G01 X184.974 Y192.730
G01 X182.582 Y194.735
G01 X180.664 Y196.381
G01 X180.770 Y195.796
G01 X181.326 Y192.723
G01 X181.976 Y189.666
G01 X182.743 Y186.642
G01 X183.605 Y183.636
G01 X184.558 Y180.653
G01 X185.618 Y177.715
G01 X186.787 Y174.819
G01 X188.038 Y171.956
G01 X189.399 Y169.138
G01 X190.837 Y166.359
G01 X192.371 Y163.637
G01 X194.005 Y160.970
G01 X195.726 Y158.367
G01 X197.519 Y155.809
G01 X197.844 Y155.371
G01 X200.427 Y155.205
G01 X203.548 Y155.110
G01 X206.677 Y155.096
G01 X209.801 Y155.195
G01 X212.907 Y155.387
G01 X216.025 Y155.709
G01 X219.118 Y156.098
G01 X222.203 Y156.625
G01 X225.261 Y157.242
G01 X228.303 Y157.973
G01 X231.318 Y158.794
G01 X234.301 Y159.704
G01 X237.253 Y160.731
G01 X240.171 Y161.846
G01 X243.054 Y163.077
G01 X243.253 Y163.162
G01 X240.495 Y164.049
G01 X237.529 Y165.035
G01 X234.591 Y166.103
G01 X231.673 Y167.204
G01 X228.769 Y168.366
G01 X225.895 Y169.585
G01 X223.034 Y170.842
G01 X220.199 Y172.160
G01 X217.390 Y173.539
G01 X214.621 Y174.973
G01 X211.864 Y176.449
G01 X209.131 Y177.960
G01 X206.438 Y179.556
G01 X203.772 Y181.186
G01 X201.129 Y182.851
G01 X198.523 Y184.573
G01 X195.957 Y186.348
G01 X193.407 Y188.162
G01 X190.902 Y190.025
G01 X188.432 Y191.942
G01 X186.002 Y193.908
G01 X183.593 Y195.907
G01 X181.246 Y197.965
G01 X178.921 Y200.050
G01 X178.560 Y200.392
G01 X178.887 Y197.783
G01 X179.353 Y194.687
G01 X179.939 Y191.614
G01 X180.637 Y188.577
G01 X181.410 Y185.541
G01 X182.294 Y182.543
G01 X183.285 Y179.587
G01 X184.368 Y176.652
G01 X185.535 Y173.749
G01 X186.805 Y170.893
G01 X188.176 Y168.087
G01 X189.620 Y165.323
G01 X191.174 Y162.603
G01 X192.809 Y159.951
G01 X194.525 Y157.336
G01 X196.334 Y154.782
G01 X197.014 Y153.888
G01 X199.001 Y153.723
G01 X202.128 Y153.580
G01 X205.247 Y153.525
G01 X208.373 Y153.577
G01 X211.493 Y153.714
G01 X214.603 Y153.966
G01 X217.706 Y154.328
G01 X220.808 Y154.800
G01 X223.876 Y155.364
G01 X226.927 Y156.016
G01 X229.961 Y156.779
G01 X232.960 Y157.634
G01 X235.931 Y158.602
G01 X238.874 Y159.658
G01 X241.779 Y160.828
G01 X244.644 Y162.063
G01 X247.459 Y163.412
G01 X247.626 Y163.508
G01 X244.808 Y164.332
G01 X241.827 Y165.243
G01 X238.859 Y166.238
G01 X235.914 Y167.266
G01 X232.992 Y168.378
G01 X230.076 Y169.504
G01 X227.198 Y170.714
G01 X224.327 Y171.965
G01 X221.493 Y173.275
G01 X218.687 Y174.647
G01 X215.898 Y176.060
G01 X213.141 Y177.535
G01 X210.411 Y179.047
G01 X207.709 Y180.624
G01 X205.036 Y182.236
G01 X202.394 Y183.911
G01 X199.782 Y185.619
G01 X197.205 Y187.388
G01 X194.652 Y189.193
G01 X192.142 Y191.049
G01 X189.670 Y192.961
G01 X187.239 Y194.925
G01 X184.834 Y196.918
G01 X182.466 Y198.963
G01 X180.146 Y201.046
G01 X177.860 Y203.183
G01 X176.640 Y204.358
G01 X176.741 Y202.934
G01 X177.045 Y199.814
G01 X177.461 Y196.726
G01 X177.958 Y193.629
G01 X178.567 Y190.566
G01 X179.270 Y187.518
G01 X180.085 Y184.506
G01 X180.988 Y181.516
G01 X181.978 Y178.552
G01 X183.076 Y175.628
G01 X184.278 Y172.749
G01 X185.565 Y169.900
G01 X186.927 Y167.089
G01 X188.391 Y164.327
G01 X189.947 Y161.622
G01 X191.586 Y158.953
G01 X193.308 Y156.347
G01 X195.121 Y153.803
G01 X196.193 Y152.399
G01 X197.538 Y152.265
G01 X200.660 Y152.078
G01 X203.786 Y151.972
G01 X206.913 Y151.977
G01 X210.027 Y152.069
G01 X213.143 Y152.269
G01 X216.256 Y152.578
G01 X219.354 Y152.975
G01 X222.431 Y153.485
G01 X225.500 Y154.105
G01 X228.550 Y154.812
G01 X231.569 Y155.608
G01 X234.555 Y156.517
G01 X237.519 Y157.513
G01 X240.447 Y158.598
G01 X243.337 Y159.796
G01 X246.188 Y161.057
G01 X248.990 Y162.431
G01 X251.754 Y163.893
G01 X251.881 Y163.971
G01 X249.008 Y164.731
G01 X246.002 Y165.595
G01 X243.018 Y166.516
G01 X240.046 Y167.473
G01 X237.098 Y168.515
G01 X234.166 Y169.594
G01 X231.254 Y170.737
G01 X228.362 Y171.918
G01 X225.502 Y173.161
G01 X222.658 Y174.472
G01 X219.843 Y175.821
G01 X217.046 Y177.213
G01 X214.293 Y178.690
G01 X211.550 Y180.188
G01 X208.843 Y181.749
G01 X206.173 Y183.372
G01 X203.529 Y185.035
G01 X200.909 Y186.738
G01 X198.325 Y188.504
G01 X195.772 Y190.303
G01 X193.275 Y192.179
G01 X190.786 Y194.073
G01 X188.339 Y196.021
G01 X185.936 Y198.018
G01 X183.578 Y200.063
G01 X181.262 Y202.156
G01 X178.965 Y204.282
G01 X176.713 Y206.451
G01 X174.878 Y208.289
G01 X174.891 Y207.754
G01 X175.057 Y204.642
G01 X175.297 Y201.530
G01 X175.639 Y198.418
G01 X176.095 Y195.335
G01 X176.629 Y192.246
G01 X177.271 Y189.193
G01 X178.011 Y186.149
G01 X178.853 Y183.151
G01 X179.787 Y180.171
G01 X180.812 Y177.211
G01 X181.936 Y174.300
G01 X183.144 Y171.416
G01 X184.451 Y168.582
G01 X185.839 Y165.781
G01 X187.327 Y163.029
G01 X188.903 Y160.337
G01 X190.560 Y157.680
G01 X192.299 Y155.088
G01 X194.113 Y152.536
G01 X195.360 Y150.889
G01 X196.417 Y150.796
G01 X199.539 Y150.572
G01 X202.658 Y150.432
G01 X205.780 Y150.400
G01 X208.901 Y150.450
G01 X212.026 Y150.634
G01 X215.134 Y150.878
G01 X218.246 Y151.255
G01 X221.331 Y151.721
G01 X224.406 Y152.271
G01 X227.463 Y152.932
G01 X230.491 Y153.681
G01 X233.502 Y154.540
G01 X236.475 Y155.488
G01 X239.417 Y156.522
G01 X242.334 Y157.668
G01 X245.210 Y158.901
G01 X248.039 Y160.221
G01 X250.827 Y161.629
G01 X253.569 Y163.123
G01 X256.030 Y164.563
G01 X255.776 Y164.645
G01 X252.740 Y165.369
G01 X249.712 Y166.175
G01 X246.709 Y167.015
G01 X243.715 Y167.940
G01 X240.744 Y168.901
G01 X237.796 Y169.925
G01 X234.859 Y170.988
G01 X231.955 Y172.139
G01 X229.067 Y173.331
G01 X226.199 Y174.566
G01 X223.356 Y175.868
G01 X220.536 Y177.212
G01 X217.745 Y178.625
G01 X214.980 Y180.080
G01 X212.248 Y181.602
G01 X209.543 Y183.166
G01 X206.868 Y184.771
G01 X204.227 Y186.442
G01 X201.611 Y188.156
G01 X199.023 Y189.910
G01 X196.481 Y191.720
G01 X193.980 Y193.591
G01 X191.505 Y195.499
G01 X189.072 Y197.465
G01 X186.670 Y199.459
G01 X184.308 Y201.511
G01 X181.992 Y203.607
G01 X179.701 Y205.734
G01 X177.453 Y207.906
G01 X175.269 Y210.134
G01 X173.288 Y212.188
G01 X173.304 Y211.929
G01 X173.315 Y208.805
G01 X173.425 Y205.681
G01 X173.635 Y202.562
G01 X173.945 Y199.444
G01 X174.344 Y196.346
G01 X174.859 Y193.272
G01 X175.447 Y190.196
G01 X176.146 Y187.153
G01 X176.934 Y184.129
G01 X177.832 Y181.139
G01 X178.814 Y178.176
G01 X179.882 Y175.235
G01 X181.053 Y172.340
G01 X182.306 Y169.473
G01 X183.655 Y166.658
G01 X185.080 Y163.878
G01 X186.603 Y161.148
G01 X188.198 Y158.459
G01 X189.885 Y155.826
G01 X191.660 Y153.254
G01 X193.520 Y150.744
G01 X194.542 Y149.427
G01 X195.982 Y149.270
G01 X199.099 Y149.030
G01 X202.213 Y148.872
G01 X205.343 Y148.844
G01 X208.463 Y148.873
G01 X211.588 Y149.035
G01 X214.707 Y149.279
G01 X217.805 Y149.611
G01 X220.898 Y150.051
G01 X223.979 Y150.600
G01 X227.037 Y151.234
G01 X230.071 Y151.955
G01 X233.088 Y152.785
G01 X236.072 Y153.702
G01 X239.030 Y154.729
G01 X241.955 Y155.843
G01 X244.841 Y157.043
G01 X247.686 Y158.329
G01 X250.493 Y159.701
G01 X253.250 Y161.159
G01 X255.968 Y162.704
G01 X258.624 Y164.358
G01 X260.081 Y165.298
G01 X258.715 Y165.574
G01 X255.666 Y166.266
G01 X252.628 Y167.017
G01 X249.611 Y167.826
G01 X246.612 Y168.671
G01 X243.624 Y169.602
G01 X240.653 Y170.573
G01 X237.708 Y171.608
G01 X234.780 Y172.709
G01 X231.870 Y173.853
G01 X228.985 Y175.040
G01 X226.120 Y176.297
G01 X223.289 Y177.621
G01 X220.484 Y178.990
G01 X217.700 Y180.405
G01 X214.945 Y181.892
G01 X212.208 Y183.400
G01 X209.523 Y184.997
G01 X206.856 Y186.615
G01 X204.223 Y188.303
G01 X201.621 Y190.032
G01 X199.047 Y191.804
G01 X196.514 Y193.639
G01 X194.032 Y195.528
G01 X191.558 Y197.440
G01 X189.145 Y199.429
G01 X186.763 Y201.450
G01 X184.408 Y203.504
G01 X182.096 Y205.612
G01 X179.832 Y207.762
G01 X177.612 Y209.958
G01 X175.433 Y212.201
G01 X173.299 Y214.483
G01 X171.869 Y216.083
G01 X171.812 Y215.096
G01 X171.724 Y211.970
G01 X171.734 Y208.849
G01 X171.846 Y205.722
G01 X172.055 Y202.601
G01 X172.359 Y199.491
G01 X172.753 Y196.394
G01 X173.262 Y193.322
G01 X173.848 Y190.241
G01 X174.537 Y187.201
G01 X175.319 Y184.174
G01 X176.186 Y181.172
G01 X177.141 Y178.188
G01 X178.193 Y175.253
G01 X179.353 Y172.355
G01 X180.594 Y169.486
G01 X181.914 Y166.649
G01 X183.325 Y163.866
G01 X184.818 Y161.113
G01 X186.396 Y158.420
G01 X188.065 Y155.784
G01 X189.809 Y153.186
G01 X191.627 Y150.655
G01 X193.524 Y148.161
G01 X193.721 Y147.939
G01 X196.529 Y147.651
G01 X199.643 Y147.418
G01 X202.766 Y147.290
G01 X205.894 Y147.268
G01 X209.012 Y147.329
G01 X212.136 Y147.495
G01 X215.253 Y147.769
G01 X218.360 Y148.125
G01 X221.443 Y148.568
G01 X224.526 Y149.116
G01 X227.579 Y149.752
G01 X230.622 Y150.494
G01 X233.626 Y151.324
G01 X236.618 Y152.237
G01 X239.567 Y153.261
G01 X242.493 Y154.369
G01 X245.384 Y155.563
G01 X248.226 Y156.842
G01 X251.034 Y158.231
G01 X253.801 Y159.680
G01 X256.516 Y161.214
G01 X259.181 Y162.857
G01 X261.802 Y164.561
G01 X264.034 Y166.116
G01 X263.636 Y166.177
G01 X260.562 Y166.793
G01 X257.514 Y167.441
G01 X254.471 Y168.147
G01 X251.448 Y168.938
G01 X248.432 Y169.765
G01 X245.438 Y170.656
G01 X242.464 Y171.611
G01 X239.504 Y172.634
G01 X236.569 Y173.698
G01 X233.648 Y174.808
G01 X230.759 Y175.985
G01 X227.887 Y177.236
G01 X225.045 Y178.531
G01 X222.224 Y179.876
G01 X219.427 Y181.268
G01 X216.668 Y182.730
G01 X213.935 Y184.240
G01 X211.225 Y185.801
G01 X208.548 Y187.406
G01 X205.907 Y189.083
G01 X203.284 Y190.784
G01 X200.706 Y192.549
G01 X198.176 Y194.375
G01 X195.654 Y196.231
G01 X193.181 Y198.144
G01 X190.761 Y200.108
G01 X188.363 Y202.118
G01 X186.015 Y204.179
G01 X183.697 Y206.270
G01 X181.421 Y208.419
G01 X179.197 Y210.604
G01 X176.994 Y212.827
G01 X174.857 Y215.104
G01 X172.765 Y217.422
G01 X170.691 Y219.771
G01 X170.575 Y219.935
G01 X170.357 Y217.024
G01 X170.211 Y213.902
G01 X170.165 Y210.777
G01 X170.217 Y207.653
G01 X170.365 Y204.535
G01 X170.584 Y201.412
G01 X170.927 Y198.300
G01 X171.352 Y195.212
G01 X171.875 Y192.128
G01 X172.506 Y189.076
G01 X173.205 Y186.027
G01 X174.013 Y183.010
G01 X174.910 Y180.010
G01 X175.887 Y177.040
G01 X176.965 Y174.111
G01 X178.124 Y171.209
G01 X179.386 Y168.349
G01 X180.717 Y165.529
G01 X182.153 Y162.750
G01 X183.652 Y160.015
G01 X185.238 Y157.308
G01 X186.918 Y154.684
G01 X188.670 Y152.099
G01 X190.492 Y149.554
G01 X192.395 Y147.073
G01 X192.889 Y146.456
G01 X195.213 Y146.196
G01 X198.327 Y145.949
G01 X201.451 Y145.778
G01 X204.571 Y145.715
G01 X207.695 Y145.730
G01 X210.818 Y145.852
G01 X213.935 Y146.080
G01 X217.046 Y146.389
G01 X220.147 Y146.780
G01 X223.231 Y147.281
G01 X226.297 Y147.864
G01 X229.348 Y148.556
G01 X232.374 Y149.331
G01 X235.374 Y150.216
G01 X238.342 Y151.185
G01 X241.292 Y152.237
G01 X244.192 Y153.374
G01 X247.067 Y154.595
G01 X249.902 Y155.925
G01 X252.695 Y157.314
G01 X255.438 Y158.812
G01 X258.149 Y160.370
G01 X260.800 Y162.035
G01 X263.401 Y163.760
G01 X265.946 Y165.568
G01 X267.897 Y167.033
G01 X267.224 Y167.146
G01 X264.144 Y167.681
G01 X261.073 Y168.272
G01 X258.017 Y168.920
G01 X254.977 Y169.654
G01 X251.947 Y170.424
G01 X248.942 Y171.257
G01 X245.946 Y172.156
G01 X242.972 Y173.095
G01 X240.013 Y174.104
G01 X237.077 Y175.183
G01 X234.159 Y176.308
G01 X231.264 Y177.481
G01 X228.402 Y178.726
G01 X225.557 Y180.021
G01 X222.735 Y181.367
G01 X219.939 Y182.764
G01 X217.183 Y184.233
G01 X214.443 Y185.730
G01 X211.738 Y187.303
G01 X209.067 Y188.923
G01 X206.426 Y190.592
G01 X203.818 Y192.307
G01 X201.250 Y194.095
G01 X198.704 Y195.904
G01 X196.204 Y197.777
G01 X193.754 Y199.709
G01 X191.316 Y201.668
G01 X188.923 Y203.688
G01 X186.584 Y205.756
G01 X184.275 Y207.858
G01 X182.012 Y210.013
G01 X179.798 Y212.215
G01 X177.607 Y214.452
G01 X175.487 Y216.737
G01 X173.388 Y219.057
G01 X171.354 Y221.429
G01 X169.414 Y223.762
G01 X169.390 Y223.674
G01 X169.057 Y220.576
G01 X168.806 Y217.451
G01 X168.653 Y214.328
G01 X168.594 Y211.211
G01 X168.635 Y208.088
G01 X168.770 Y204.972
G01 X168.980 Y201.845
G01 X169.306 Y198.737
G01 X169.720 Y195.646
G01 X170.228 Y192.560
G01 X170.819 Y189.498
G01 X171.501 Y186.448
G01 X172.272 Y183.412
G01 X173.144 Y180.418
G01 X174.107 Y177.438
G01 X175.145 Y174.490
G01 X176.282 Y171.586
G01 X177.504 Y168.704
G01 X178.819 Y165.873
G01 X180.206 Y163.078
G01 X181.672 Y160.312
G01 X183.245 Y157.620
G01 X184.879 Y154.942
G01 X186.602 Y152.350
G01 X188.392 Y149.770
G01 X190.265 Y147.281
G01 X192.081 Y144.989
G01 X192.285 Y144.962
G01 X195.383 Y144.612
G01 X198.496 Y144.362
G01 X201.620 Y144.213
G01 X204.741 Y144.145
G01 X207.875 Y144.176
G01 X210.990 Y144.293
G01 X214.111 Y144.513
G01 X217.216 Y144.816
G01 X220.320 Y145.223
G01 X223.407 Y145.738
G01 X226.471 Y146.311
G01 X229.522 Y146.991
G01 X232.544 Y147.780
G01 X235.545 Y148.625
G01 X238.529 Y149.578
G01 X241.470 Y150.640
G01 X244.391 Y151.760
G01 X247.259 Y152.964
G01 X250.102 Y154.275
G01 X252.903 Y155.670
G01 X255.658 Y157.147
G01 X258.375 Y158.683
G01 X261.037 Y160.327
G01 X263.652 Y162.028
G01 X266.211 Y163.837
G01 X268.715 Y165.702
G01 X271.171 Y167.627
G01 X271.676 Y168.043
G01 X269.238 Y168.412
G01 X266.155 Y168.919
G01 X263.086 Y169.456
G01 X260.021 Y170.101
G01 X256.970 Y170.781
G01 X253.932 Y171.523
G01 X250.914 Y172.330
G01 X247.907 Y173.179
G01 X244.927 Y174.094
G01 X241.958 Y175.080
G01 X239.012 Y176.113
G01 X236.083 Y177.219
G01 X233.181 Y178.373
G01 X230.302 Y179.578
G01 X227.445 Y180.861
G01 X224.613 Y182.170
G01 X221.812 Y183.557
G01 X219.037 Y184.998
G01 X216.293 Y186.491
G01 X213.576 Y188.038
G01 X210.895 Y189.635
G01 X208.240 Y191.286
G01 X205.620 Y192.987
G01 X203.027 Y194.742
G01 X200.490 Y196.559
G01 X197.968 Y198.407
G01 X195.496 Y200.317
G01 X193.060 Y202.268
G01 X190.652 Y204.266
G01 X188.298 Y206.317
G01 X185.972 Y208.410
G01 X183.700 Y210.549
G01 X181.472 Y212.745
G01 X179.274 Y214.971
G01 X177.125 Y217.241
G01 X175.045 Y219.560
G01 X172.985 Y221.917
G01 X170.972 Y224.305
G01 X169.023 Y226.745
G01 X168.375 Y227.571
G01 X168.055 Y225.514
G01 X167.672 Y222.419
G01 X167.367 Y219.305
G01 X167.184 Y216.194
G01 X167.053 Y213.062
G01 X167.041 Y209.940
G01 X167.122 Y206.825
G01 X167.276 Y203.699
G01 X167.546 Y200.590
G01 X167.886 Y197.477
G01 X168.332 Y194.396
G01 X168.856 Y191.300
G01 X169.480 Y188.245
G01 X170.192 Y185.204
G01 X170.992 Y182.178
G01 X171.896 Y179.189
G01 X172.875 Y176.231
G01 X173.941 Y173.290
G01 X175.086 Y170.377
G01 X176.324 Y167.513
G01 X177.659 Y164.693
G01 X179.058 Y161.883
G01 X180.557 Y159.151
G01 X182.116 Y156.431
G01 X183.767 Y153.795
G01 X185.497 Y151.190
G01 X187.296 Y148.625
G01 X189.174 Y146.124
G01 X191.127 Y143.688
G01 X191.272 Y143.522
G01 X194.147 Y143.170
G01 X197.256 Y142.881
G01 X200.379 Y142.693
G01 X203.500 Y142.583
G01 X206.616 Y142.580
G01 X209.745 Y142.676
G01 X212.864 Y142.853
G01 X215.979 Y143.108
G01 X219.086 Y143.470
G01 X222.178 Y143.938
G01 X225.257 Y144.487
G01 X228.309 Y145.119
G01 X231.352 Y145.831
G01 X234.366 Y146.651
G01 X237.362 Y147.552
G01 X240.320 Y148.561
G01 X243.251 Y149.627
G01 X246.155 Y150.799
G01 X249.017 Y152.055
G01 X251.842 Y153.393
G01 X254.626 Y154.812
G01 X257.368 Y156.289
G01 X260.069 Y157.874
G01 X262.708 Y159.538
G01 X265.307 Y161.286
G01 X267.858 Y163.091
G01 X270.345 Y164.975
G01 X272.778 Y166.942
G01 X275.153 Y168.964
G01 X275.375 Y169.164
G01 X272.570 Y169.504
G01 X269.474 Y169.960
G01 X266.397 Y170.447
G01 X263.320 Y171.015
G01 X260.257 Y171.643
G01 X257.210 Y172.334
G01 X254.171 Y173.063
G01 X251.154 Y173.884
