;  Created by Sandify
;  https://sandify.org
;  Version: 0.2.6
;
;  Machine type: Rectangular
;    Min X (mm): 0
;    Max X (mm): 500
;    Min Y (mm): 0
;    Max Y (mm): 500
;  Content type: shape
;  Layer:
;    Shape: FileImport
;    Name: LongwoodWarrenHants 7-10-2018.thr
;    From file:: LongwoodWarrenHants 7-10-2018.thr
;    Aspect Ratio: true
;    Comments: 
;    Visible: true
;    Initial width: 10
;    Initial height: 10
;    X offset: 0
;    Y offset: 0
;    Rotate (degrees): 0
;    Reverse path: false
;    Fine tuning:
;      Connect to next layer: line
;      Draw portion of path (%): 100
;      Backtrack at end (%): 0
;      Rotate starting point (%): 0
;  Reverse export path: false
;
; File name: 'LongwoodWarrenHants (C C)'
; File type: gcode
;

G01 X250.000 Y250.000
G01 X249.998 Y250.047
G01 X249.991 Y250.093
G01 X249.979 Y250.139
G01 X249.963 Y250.184
G01 X249.943 Y250.227
G01 X249.918 Y250.269
G01 X249.889 Y250.309
G01 X249.856 Y250.346
G01 X249.820 Y250.381
G01 X249.779 Y250.413
G01 X249.735 Y250.442
G01 X249.687 Y250.468
G01 X249.637 Y250.489
G01 X249.584 Y250.507
G01 X249.528 Y250.521
G01 X249.470 Y250.530
G01 X249.410 Y250.535
G01 X249.348 Y250.535
G01 X249.285 Y250.531
G01 X249.220 Y250.521
G01 X249.156 Y250.506
G01 X249.091 Y250.486
G01 X249.025 Y250.461
G01 X248.961 Y250.431
G01 X248.897 Y250.395
G01 X248.834 Y250.354
G01 X248.772 Y250.308
G01 X248.713 Y250.256
G01 X248.655 Y250.199
G01 X248.601 Y250.138
G01 X248.549 Y250.071
G01 X248.500 Y250.000
G01 X247.077 Y250.144
G01 X245.668 Y250.427
G01 X244.283 Y250.848
G01 X242.933 Y251.406
G01 X241.627 Y252.097
G01 X240.375 Y252.920
G01 X239.187 Y253.869
G01 X238.072 Y254.941
G01 X237.039 Y256.130
G01 X236.098 Y257.431
G01 X235.255 Y258.837
G01 X234.521 Y260.343
G01 X233.901 Y261.940
G01 X233.404 Y263.620
G01 X233.035 Y265.376
G01 X232.802 Y267.198
G01 X232.708 Y269.078
G01 X232.760 Y271.006
G01 X232.962 Y272.973
G01 X233.317 Y274.967
G01 X233.829 Y276.979
G01 X234.500 Y278.998
G01 X235.332 Y281.013
G01 X236.325 Y283.013
G01 X237.481 Y284.987
G01 X238.799 Y286.924
G01 X240.278 Y288.813
G01 X241.916 Y290.642
G01 X243.710 Y292.401
G01 X245.659 Y294.078
G01 X247.757 Y295.663
G01 X248.499 Y296.176
G01 X246.351 Y294.625
G01 X244.352 Y292.978
G01 X242.505 Y291.245
G01 X240.814 Y289.439
G01 X239.281 Y287.569
G01 X237.908 Y285.647
G01 X236.698 Y283.684
G01 X235.649 Y281.691
G01 X234.763 Y279.680
G01 X234.038 Y277.661
G01 X233.473 Y275.646
G01 X233.065 Y273.644
G01 X232.812 Y271.667
G01 X232.709 Y269.725
G01 X232.754 Y267.828
G01 X232.941 Y265.985
G01 X233.265 Y264.205
G01 X233.719 Y262.499
G01 X234.298 Y260.873
G01 X234.995 Y259.336
G01 X235.801 Y257.895
G01 X236.710 Y256.558
G01 X237.713 Y255.330
G01 X238.801 Y254.218
G01 X239.966 Y253.227
G01 X241.197 Y252.361
G01 X242.486 Y251.625
G01 X243.823 Y251.021
G01 X245.197 Y250.554
G01 X246.599 Y250.224
G01 X248.018 Y250.033
G01 X248.500 Y250.000
G01 X247.000 Y250.000
G01 X245.597 Y250.216
G01 X244.211 Y250.570
G01 X242.853 Y251.060
G01 X241.533 Y251.684
G01 X240.260 Y252.440
G01 X239.043 Y253.324
G01 X237.894 Y254.332
G01 X236.820 Y255.459
G01 X235.830 Y256.702
G01 X234.934 Y258.053
G01 X234.140 Y259.506
G01 X233.454 Y261.055
G01 X232.886 Y262.693
G01 X232.440 Y264.411
G01 X232.125 Y266.201
G01 X231.946 Y268.054
G01 X231.908 Y269.962
G01 X232.016 Y271.914
G01 X232.274 Y273.901
G01 X232.685 Y275.913
G01 X233.254 Y277.939
G01 X233.981 Y279.969
G01 X234.869 Y281.992
G01 X235.918 Y283.997
G01 X237.128 Y285.973
G01 X238.500 Y287.909
G01 X240.032 Y289.794
G01 X241.722 Y291.616
G01 X243.567 Y293.365
G01 X245.565 Y295.030
G01 X246.999 Y296.102
G01 X245.498 Y295.980
G01 X243.450 Y294.329
G01 X241.553 Y292.592
G01 X239.811 Y290.778
G01 X238.225 Y288.899
G01 X236.797 Y286.966
G01 X235.530 Y284.989
G01 X234.424 Y282.981
G01 X233.479 Y280.951
G01 X232.694 Y278.911
G01 X232.067 Y276.871
G01 X231.598 Y274.843
G01 X231.282 Y272.835
G01 X231.116 Y270.859
G01 X231.097 Y268.924
G01 X231.221 Y267.040
G01 X231.481 Y265.216
G01 X231.872 Y263.461
G01 X232.388 Y261.783
G01 X233.023 Y260.189
G01 X233.768 Y258.688
G01 X234.617 Y257.286
G01 X235.561 Y255.990
G01 X236.593 Y254.806
G01 X237.702 Y253.738
G01 X238.882 Y252.792
G01 X240.121 Y251.971
G01 X241.410 Y251.279
G01 X242.740 Y250.719
G01 X244.101 Y250.293
G01 X245.484 Y250.003
G01 X245.500 Y250.000
G01 X244.000 Y250.000
G01 X242.639 Y250.362
G01 X241.302 Y250.857
G01 X240.000 Y251.483
G01 X238.741 Y252.240
G01 X237.536 Y253.122
G01 X236.393 Y254.128
G01 X235.322 Y255.252
G01 X234.332 Y256.490
G01 X233.431 Y257.837
G01 X232.627 Y259.286
G01 X231.929 Y260.831
G01 X231.343 Y262.466
G01 X230.877 Y264.183
G01 X230.537 Y265.973
G01 X230.329 Y267.829
G01 X230.259 Y269.741
G01 X230.331 Y271.701
G01 X230.551 Y273.699
G01 X230.921 Y275.725
G01 X231.445 Y277.769
G01 X232.126 Y279.821
G01 X232.965 Y281.870
G01 X233.963 Y283.906
G01 X235.122 Y285.918
G01 X236.441 Y287.894
G01 X237.919 Y289.825
G01 X239.555 Y291.698
G01 X241.346 Y293.504
G01 X243.290 Y295.232
G01 X243.997 Y295.808
G01 X242.498 Y295.587
G01 X240.555 Y293.845
G01 X238.763 Y292.025
G01 X237.127 Y290.138
G01 X235.648 Y288.194
G01 X234.327 Y286.206
G01 X233.165 Y284.182
G01 X232.163 Y282.135
G01 X231.320 Y280.075
G01 X230.634 Y278.012
G01 X230.104 Y275.957
G01 X229.727 Y273.920
G01 X229.500 Y271.911
G01 X229.418 Y269.940
G01 X229.479 Y268.016
G01 X229.676 Y266.147
G01 X230.005 Y264.344
G01 X230.459 Y262.614
G01 X231.032 Y260.965
G01 X231.717 Y259.403
G01 X232.506 Y257.937
G01 X233.393 Y256.573
G01 X234.368 Y255.316
G01 X235.423 Y254.171
G01 X236.550 Y253.143
G01 X237.740 Y252.237
G01 X238.983 Y251.456
G01 X240.269 Y250.803
G01 X241.590 Y250.280
G01 X242.500 Y250.000
G01 X241.000 Y250.000
G01 X239.684 Y250.507
G01 X238.399 Y251.143
G01 X237.156 Y251.905
G01 X235.962 Y252.792
G01 X234.827 Y253.801
G01 X233.761 Y254.926
G01 X232.771 Y256.164
G01 X231.867 Y257.511
G01 X231.057 Y258.959
G01 X230.348 Y260.504
G01 X229.748 Y262.139
G01 X229.263 Y263.856
G01 X228.901 Y265.648
G01 X228.667 Y267.507
G01 X228.568 Y269.425
G01 X228.608 Y271.392
G01 X228.791 Y273.400
G01 X229.122 Y275.440
G01 X229.604 Y277.500
G01 X230.240 Y279.572
G01 X231.032 Y281.646
G01 X231.982 Y283.710
G01 X233.089 Y285.754
G01 X234.356 Y287.768
G01 X235.780 Y289.741
G01 X237.362 Y291.662
G01 X239.099 Y293.520
G01 X240.988 Y295.306
G01 X240.998 Y295.315
G01 X239.499 Y294.991
G01 X237.663 Y293.165
G01 X235.980 Y291.271
G01 X234.452 Y289.319
G01 X233.081 Y287.319
G01 X231.867 Y285.282
G01 X230.811 Y283.218
G01 X229.913 Y281.139
G01 X229.170 Y279.054
G01 X228.582 Y276.974
G01 X228.146 Y274.909
G01 X227.859 Y272.868
G01 X227.717 Y270.861
G01 X227.716 Y268.898
G01 X227.852 Y266.987
G01 X228.120 Y265.136
G01 X228.513 Y263.355
G01 X229.026 Y261.650
G01 X229.651 Y260.029
G01 X230.382 Y258.499
G01 X231.211 Y257.067
G01 X232.131 Y255.737
G01 X233.133 Y254.515
G01 X234.209 Y253.407
G01 X235.349 Y252.415
G01 X236.546 Y251.545
G01 X237.790 Y250.798
G01 X239.072 Y250.176
G01 X239.500 Y250.000
G01 X238.000 Y250.000
G01 X236.733 Y250.652
G01 X235.503 Y251.428
G01 X234.321 Y252.326
G01 X233.195 Y253.343
G01 X232.135 Y254.475
G01 X231.147 Y255.719
G01 X230.242 Y257.069
G01 X229.427 Y258.521
G01 X228.710 Y260.069
G01 X228.098 Y261.707
G01 X227.598 Y263.427
G01 X227.216 Y265.224
G01 X226.960 Y267.088
G01 X226.834 Y269.012
G01 X226.844 Y270.988
G01 X226.994 Y273.006
G01 X227.288 Y275.058
G01 X227.731 Y277.135
G01 X228.325 Y279.225
G01 X229.072 Y281.321
G01 X229.974 Y283.411
G01 X231.033 Y285.485
G01 X232.248 Y287.534
G01 X233.620 Y289.545
G01 X235.147 Y291.510
G01 X236.830 Y293.417
G01 X237.998 Y294.614
G01 X236.497 Y294.183
G01 X234.772 Y292.282
G01 X233.200 Y290.321
G01 X231.783 Y288.310
G01 X230.522 Y286.260
G01 X229.416 Y284.182
G01 X228.465 Y282.085
G01 X227.669 Y279.979
G01 X227.026 Y277.875
G01 X226.534 Y275.783
G01 X226.190 Y273.711
G01 X225.990 Y271.670
G01 X225.932 Y269.669
G01 X226.009 Y267.716
G01 X226.217 Y265.820
G01 X226.552 Y263.988
G01 X227.006 Y262.229
G01 X227.573 Y260.550
G01 X228.247 Y258.957
G01 X229.021 Y257.457
G01 X229.887 Y256.056
G01 X230.836 Y254.758
G01 X231.862 Y253.569
G01 X232.955 Y252.492
G01 X234.107 Y251.532
G01 X235.310 Y250.691
G01 X236.500 Y250.000
G01 X235.000 Y250.000
G01 X233.785 Y250.797
G01 X232.614 Y251.712
G01 X231.497 Y252.745
G01 X230.443 Y253.890
G01 X229.460 Y255.145
G01 X228.555 Y256.505
G01 X227.737 Y257.966
G01 X227.014 Y259.521
G01 X226.392 Y261.166
G01 X225.879 Y262.893
G01 X225.482 Y264.696
G01 X225.205 Y266.567
G01 X225.056 Y268.499
G01 X225.039 Y270.484
G01 X225.160 Y272.514
G01 X225.421 Y274.579
G01 X225.827 Y276.670
G01 X226.381 Y278.779
G01 X227.086 Y280.895
G01 X227.944 Y283.009
G01 X228.955 Y285.111
G01 X230.121 Y287.191
G01 X231.442 Y289.238
G01 X232.917 Y291.242
G01 X234.545 Y293.193
G01 X234.999 Y293.697
G01 X233.496 Y293.152
G01 X231.885 Y291.183
G01 X230.427 Y289.163
G01 X229.122 Y287.101
G01 X227.971 Y285.008
G01 X226.973 Y282.894
G01 X226.128 Y280.769
G01 X225.435 Y278.643
G01 X224.890 Y276.525
G01 X224.492 Y274.425
G01 X224.238 Y272.351
G01 X224.124 Y270.313
G01 X224.145 Y268.320
G01 X224.297 Y266.379
G01 X224.575 Y264.499
G01 X224.973 Y262.687
G01 X225.485 Y260.951
G01 X226.104 Y259.296
G01 X226.824 Y257.730
G01 X227.637 Y256.257
G01 X228.536 Y254.884
G01 X229.513 Y253.615
G01 X230.560 Y252.454
G01 X231.669 Y251.405
G01 X232.831 Y250.471
G01 X233.500 Y250.000
G01 X232.000 Y250.000
G01 X230.840 Y250.941
G01 X229.733 Y251.996
G01 X228.685 Y253.162
G01 X227.706 Y254.434
G01 X226.803 Y255.810
G01 X225.985 Y257.285
G01 X225.258 Y258.853
G01 X224.629 Y260.509
G01 X224.106 Y262.247
G01 X223.696 Y264.060
G01 X223.403 Y265.942
G01 X223.234 Y267.885
G01 X223.194 Y269.881
G01 X223.287 Y271.922
G01 X223.519 Y274.001
G01 X223.892 Y276.108
G01 X224.410 Y278.234
G01 X225.076 Y280.369
G01 X225.892 Y282.506
G01 X226.859 Y284.633
G01 X227.978 Y286.741
G01 X229.250 Y288.820
G01 X230.674 Y290.861
G01 X231.996 Y292.548
G01 X230.497 Y291.882
G01 X229.004 Y289.853
G01 X227.662 Y287.781
G01 X226.470 Y285.675
G01 X225.431 Y283.546
G01 X224.541 Y281.403
G01 X223.802 Y279.256
G01 X223.209 Y277.114
G01 X222.762 Y274.986
G01 X222.457 Y272.881
G01 X222.291 Y270.809
G01 X222.259 Y268.777
G01 X222.358 Y266.793
G01 X222.583 Y264.866
G01 X222.927 Y263.003
G01 X223.386 Y261.211
G01 X223.953 Y259.496
G01 X224.621 Y257.865
G01 X225.384 Y256.323
G01 X226.235 Y254.875
G01 X227.166 Y253.527
G01 X228.169 Y252.282
G01 X229.236 Y251.145
G01 X230.359 Y250.118
G01 X230.500 Y250.000
G01 X229.000 Y250.000
G01 X227.901 Y251.086
G01 X226.860 Y252.279
G01 X225.887 Y253.577
G01 X224.987 Y254.975
G01 X224.169 Y256.470
G01 X223.440 Y258.057
G01 X222.808 Y259.729
G01 X222.278 Y261.483
G01 X221.857 Y263.311
G01 X221.551 Y265.206
G01 X221.366 Y267.162
G01 X221.306 Y269.172
G01 X221.378 Y271.228
G01 X221.583 Y273.321
G01 X221.928 Y275.443
G01 X222.414 Y277.586
G01 X223.045 Y279.740
G01 X223.822 Y281.897
G01 X224.748 Y284.048
G01 X225.824 Y286.182
G01 X227.050 Y288.290
G01 X228.425 Y290.363
G01 X228.994 Y291.149
G01 X227.495 Y290.348
G01 X226.122 Y288.266
G01 X224.898 Y286.148
G01 X223.823 Y284.005
G01 X222.896 Y281.845
G01 X222.116 Y279.678
G01 X221.482 Y277.514
G01 X220.991 Y275.360
G01 X220.640 Y273.227
G01 X220.427 Y271.122
G01 X220.348 Y269.053
G01 X220.399 Y267.029
G01 X220.574 Y265.057
G01 X220.869 Y263.144
G01 X221.279 Y261.298
G01 X221.797 Y259.525
G01 X222.417 Y257.830
G01 X223.133 Y256.220
G01 X223.939 Y254.700
G01 X224.826 Y253.274
G01 X225.787 Y251.947
G01 X226.816 Y250.723
G01 X227.500 Y250.000
G01 X226.000 Y250.000
G01 X224.966 Y251.230
G01 X223.998 Y252.561
G01 X223.103 Y253.990
G01 X222.288 Y255.512
G01 X221.560 Y257.124
G01 X220.926 Y258.820
G01 X220.392 Y260.594
G01 X219.964 Y262.441
G01 X219.649 Y264.355
G01 X219.452 Y266.328
G01 X219.378 Y268.354
G01 X219.431 Y270.426
G01 X219.615 Y272.535
G01 X219.935 Y274.673
G01 X220.394 Y276.833
G01 X220.994 Y279.006
G01 X221.738 Y281.182
G01 X222.627 Y283.354
G01 X223.663 Y285.511
G01 X224.846 Y287.645
G01 X225.994 Y289.473
G01 X224.492 Y288.520
G01 X223.243 Y286.392
G01 X222.140 Y284.236
G01 X221.183 Y282.061
G01 X220.370 Y279.876
G01 X219.701 Y277.691
G01 X219.173 Y275.514
G01 X218.783 Y273.353
G01 X218.529 Y271.217
G01 X218.408 Y269.114
G01 X218.415 Y267.051
G01 X218.546 Y265.036
G01 X218.797 Y263.077
G01 X219.162 Y261.179
G01 X219.636 Y259.349
G01 X220.212 Y257.593
G01 X220.885 Y255.917
G01 X221.649 Y254.326
G01 X222.496 Y252.824
G01 X223.420 Y251.416
G01 X224.413 Y250.106
G01 X224.500 Y250.000
G01 X223.000 Y250.000
G01 X222.038 Y251.374
G01 X221.148 Y252.842
G01 X220.337 Y254.400
G01 X219.612 Y256.044
G01 X218.980 Y257.770
G01 X218.445 Y259.572
G01 X218.015 Y261.444
G01 X217.696 Y263.381
G01 X217.491 Y265.376
G01 X217.406 Y267.422
G01 X217.446 Y269.512
G01 X217.615 Y271.639
G01 X217.916 Y273.795
G01 X218.352 Y275.972
G01 X218.927 Y278.163
G01 X219.642 Y280.357
G01 X220.500 Y282.548
G01 X221.501 Y284.726
G01 X222.646 Y286.883
G01 X222.995 Y287.485
G01 X221.492 Y286.356
G01 X220.371 Y284.188
G01 X219.392 Y282.000
G01 X218.555 Y279.800
G01 X217.858 Y277.596
G01 X217.300 Y275.397
G01 X216.879 Y273.212
G01 X216.592 Y271.047
G01 X216.435 Y268.912
G01 X216.405 Y266.813
G01 X216.498 Y264.757
G01 X216.710 Y262.753
G01 X217.036 Y260.805
G01 X217.471 Y258.921
G01 X218.009 Y257.106
G01 X218.644 Y255.366
G01 X219.371 Y253.706
G01 X220.182 Y252.130
G01 X221.073 Y250.643
G01 X221.500 Y250.000
G01 X220.000 Y250.000
G01 X219.117 Y251.517
G01 X218.312 Y253.121
G01 X217.593 Y254.807
G01 X216.965 Y256.571
G01 X216.434 Y258.408
G01 X216.007 Y260.312
G01 X215.687 Y262.277
G01 X215.480 Y264.298
G01 X215.391 Y266.369
G01 X215.424 Y268.481
G01 X215.583 Y270.628
G01 X215.871 Y272.804
G01 X216.292 Y274.999
G01 X216.848 Y277.207
G01 X217.541 Y279.419
G01 X218.372 Y281.627
G01 X219.344 Y283.823
G01 X219.994 Y285.130
G01 X218.491 Y283.788
G01 X217.502 Y281.588
G01 X216.651 Y279.374
G01 X215.938 Y277.154
G01 X215.361 Y274.936
G01 X214.917 Y272.728
G01 X214.605 Y270.538
G01 X214.421 Y268.373
G01 X214.363 Y266.240
G01 X214.427 Y264.147
G01 X214.608 Y262.100
G01 X214.902 Y260.105
G01 X215.305 Y258.169
G01 X215.811 Y256.298
G01 X216.415 Y254.496
G01 X217.111 Y252.769
G01 X217.894 Y251.121
G01 X218.500 Y250.000
G01 X217.000 Y250.000
G01 X216.205 Y251.660
G01 X215.495 Y253.398
G01 X214.876 Y255.210
G01 X214.354 Y257.090
G01 X213.934 Y259.034
G01 X213.621 Y261.035
G01 X213.419 Y263.089
G01 X213.333 Y265.188
G01 X213.366 Y267.326
G01 X213.523 Y269.497
G01 X213.807 Y271.693
G01 X214.219 Y273.908
G01 X214.764 Y276.133
G01 X215.442 Y278.360
G01 X216.256 Y280.583
G01 X216.994 Y282.327
G01 X215.493 Y280.720
G01 X214.642 Y278.494
G01 X213.925 Y276.260
G01 X213.340 Y274.026
G01 X212.886 Y271.798
G01 X212.561 Y269.585
G01 X212.362 Y267.393
G01 X212.286 Y265.229
G01 X212.330 Y263.101
G01 X212.490 Y261.014
G01 X212.762 Y258.976
G01 X213.142 Y256.991
G01 X213.626 Y255.065
G01 X214.207 Y253.203
G01 X214.882 Y251.412
G01 X215.500 Y250.000
G01 X214.000 Y250.000
G01 X213.305 Y251.803
G01 X212.702 Y253.673
G01 X212.195 Y255.608
G01 X211.791 Y257.600
G01 X211.492 Y259.646
G01 X211.304 Y261.738
G01 X211.231 Y263.872
G01 X211.275 Y266.040
G01 X211.440 Y268.237
G01 X211.729 Y270.456
G01 X212.145 Y272.689
G01 X212.689 Y274.930
G01 X213.363 Y277.172
G01 X213.992 Y278.946
G01 X212.615 Y277.144
G01 X212.490 Y276.971
G01 X211.787 Y274.726
G01 X211.213 Y272.478
G01 X210.765 Y270.234
G01 X210.443 Y268.000
G01 X210.244 Y265.785
G01 X210.166 Y263.594
G01 X210.205 Y261.434
G01 X210.359 Y259.311
G01 X210.624 Y257.231
G01 X210.996 Y255.199
G01 X211.470 Y253.222
G01 X212.043 Y251.304
G01 X212.500 Y250.000
G01 X211.000 Y250.000
G01 X210.423 Y251.944
G01 X209.944 Y253.945
G01 X209.567 Y255.998
G01 X209.297 Y258.096
G01 X209.137 Y260.236
G01 X209.090 Y262.410
G01 X209.160 Y264.613
G01 X209.349 Y266.838
G01 X209.659 Y269.080
G01 X210.092 Y271.331
G01 X210.651 Y273.585
G01 X210.990 Y274.752
G01 X209.822 Y272.808
G01 X209.491 Y272.214
G01 X208.952 Y269.956
G01 X208.535 Y267.699
G01 X208.240 Y265.449
G01 X208.064 Y263.214
G01 X208.006 Y260.999
G01 X208.062 Y258.810
G01 X208.231 Y256.654
G01 X208.510 Y254.536
G01 X208.894 Y252.461
G01 X209.380 Y250.436
G01 X209.500 Y250.000
G01 X208.000 Y250.000
G01 X207.571 Y252.084
G01 X207.246 Y254.211
G01 X207.029 Y256.374
G01 X206.922 Y258.568
G01 X206.929 Y260.789
G01 X207.050 Y263.028
G01 X207.289 Y265.282
G01 X207.647 Y267.543
G01 X207.990 Y269.226
G01 X207.098 Y267.141
G01 X206.490 Y265.533
G01 X206.150 Y263.268
G01 X205.927 Y261.006
G01 X205.819 Y258.755
G01 X205.825 Y256.520
G01 X205.943 Y254.307
G01 X206.170 Y252.122
G01 X206.500 Y250.000
G01 X205.000 Y250.000
G01 X204.795 Y252.221
G01 X204.701 Y254.461
G01 X204.718 Y256.717
G01 X204.848 Y258.981
G01 X204.989 Y260.415
G01 X204.532 Y258.194
G01 X204.185 Y255.953
G01 X203.948 Y253.698
G01 X203.822 Y251.434
G01 X203.808 Y249.167
G01 X203.824 Y248.499
G01 X205.375 Y246.351
G01 X207.022 Y244.352
G01 X208.755 Y242.505
G01 X210.561 Y240.813
G01 X212.431 Y239.281
G01 X214.353 Y237.908
G01 X216.316 Y236.698
G01 X218.309 Y235.649
G01 X220.320 Y234.763
G01 X222.339 Y234.038
G01 X224.354 Y233.473
G01 X226.356 Y233.065
G01 X228.333 Y232.812
G01 X230.275 Y232.709
G01 X232.172 Y232.754
G01 X234.015 Y232.941
G01 X235.795 Y233.265
G01 X237.502 Y233.719
G01 X239.127 Y234.298
G01 X240.664 Y234.995
G01 X242.105 Y235.801
G01 X243.443 Y236.710
G01 X244.670 Y237.713
G01 X245.782 Y238.801
G01 X246.773 Y239.966
G01 X247.639 Y241.197
G01 X248.375 Y242.486
G01 X248.979 Y243.823
G01 X249.446 Y245.197
G01 X249.776 Y246.599
G01 X249.967 Y248.018
G01 X250.000 Y248.500
G01 X250.000 Y247.000
G01 X249.784 Y245.597
G01 X249.430 Y244.211
G01 X248.940 Y242.853
G01 X248.316 Y241.533
G01 X247.560 Y240.260
G01 X246.676 Y239.043
G01 X245.668 Y237.894
G01 X244.541 Y236.820
G01 X243.298 Y235.830
G01 X241.947 Y234.934
G01 X240.494 Y234.140
G01 X238.945 Y233.454
G01 X237.307 Y232.886
G01 X235.589 Y232.440
G01 X233.799 Y232.125
G01 X231.946 Y231.946
G01 X230.038 Y231.908
G01 X228.086 Y232.015
G01 X226.099 Y232.274
G01 X224.087 Y232.685
G01 X222.061 Y233.254
G01 X220.031 Y233.981
G01 X218.008 Y234.868
G01 X216.003 Y235.918
G01 X214.027 Y237.128
G01 X212.091 Y238.500
G01 X210.206 Y240.032
G01 X208.384 Y241.722
G01 X206.635 Y243.567
G01 X204.970 Y245.565
G01 X203.898 Y246.999
G01 X204.020 Y245.498
G01 X205.671 Y243.450
G01 X207.408 Y241.553
G01 X209.222 Y239.810
G01 X211.101 Y238.224
G01 X213.034 Y236.797
G01 X215.011 Y235.530
G01 X217.019 Y234.424
G01 X219.049 Y233.479
G01 X221.089 Y232.694
G01 X223.129 Y232.067
G01 X225.158 Y231.598
G01 X227.165 Y231.282
G01 X229.141 Y231.116
G01 X231.076 Y231.097
G01 X232.960 Y231.221
G01 X234.784 Y231.481
G01 X236.539 Y231.872
G01 X238.218 Y232.388
G01 X239.811 Y233.022
G01 X241.312 Y233.768
G01 X242.714 Y234.617
G01 X244.010 Y235.561
G01 X245.194 Y236.593
G01 X246.262 Y237.702
G01 X247.208 Y238.881
G01 X248.029 Y240.121
G01 X248.721 Y241.410
G01 X249.281 Y242.740
G01 X249.707 Y244.101
G01 X249.997 Y245.484
G01 X250.000 Y245.500
G01 X250.000 Y244.000
G01 X249.638 Y242.639
G01 X249.143 Y241.302
G01 X248.517 Y240.000
G01 X247.761 Y238.741
G01 X246.878 Y237.536
G01 X245.872 Y236.393
G01 X244.748 Y235.322
G01 X243.510 Y234.332
G01 X242.163 Y233.431
G01 X240.714 Y232.627
G01 X239.169 Y231.929
G01 X237.534 Y231.343
G01 X235.817 Y230.877
G01 X234.027 Y230.537
G01 X232.171 Y230.329
G01 X230.259 Y230.259
G01 X228.299 Y230.331
G01 X226.301 Y230.551
G01 X224.275 Y230.921
G01 X222.231 Y231.445
G01 X220.179 Y232.126
G01 X218.130 Y232.965
G01 X216.094 Y233.963
G01 X214.082 Y235.122
G01 X212.106 Y236.441
G01 X210.175 Y237.919
G01 X208.302 Y239.555
G01 X206.496 Y241.346
G01 X204.768 Y243.290
G01 X204.192 Y243.997
G01 X204.413 Y242.498
G01 X206.155 Y240.554
G01 X207.975 Y238.763
G01 X209.862 Y237.127
G01 X211.806 Y235.647
G01 X213.794 Y234.327
G01 X215.818 Y233.165
G01 X217.865 Y232.163
G01 X219.925 Y231.320
G01 X221.988 Y230.634
G01 X224.043 Y230.104
G01 X226.080 Y229.727
G01 X228.089 Y229.499
G01 X230.060 Y229.418
G01 X231.984 Y229.479
G01 X233.853 Y229.676
G01 X235.656 Y230.005
G01 X237.386 Y230.459
G01 X239.036 Y231.032
G01 X240.597 Y231.717
G01 X242.063 Y232.506
G01 X243.427 Y233.393
G01 X244.685 Y234.368
G01 X245.829 Y235.423
G01 X246.857 Y236.550
G01 X247.763 Y237.740
G01 X248.544 Y238.983
G01 X249.197 Y240.269
G01 X249.720 Y241.590
G01 X250.000 Y242.500
G01 X250.000 Y241.000
G01 X249.493 Y239.684
G01 X248.858 Y238.399
G01 X248.095 Y237.156
G01 X247.208 Y235.962
G01 X246.200 Y234.827
G01 X245.074 Y233.761
G01 X243.836 Y232.771
G01 X242.489 Y231.867
G01 X241.041 Y231.057
G01 X239.496 Y230.348
G01 X237.861 Y229.748
G01 X236.144 Y229.263
G01 X234.352 Y228.901
G01 X232.493 Y228.667
G01 X230.575 Y228.568
G01 X228.608 Y228.608
G01 X226.600 Y228.791
G01 X224.560 Y229.122
G01 X222.500 Y229.604
G01 X220.428 Y230.240
G01 X218.354 Y231.032
G01 X216.290 Y231.981
G01 X214.246 Y233.089
G01 X212.232 Y234.356
G01 X210.259 Y235.780
G01 X208.338 Y237.362
G01 X206.480 Y239.098
G01 X204.695 Y240.988
G01 X204.686 Y240.998
G01 X205.009 Y239.499
G01 X206.835 Y237.663
G01 X208.729 Y235.980
G01 X210.681 Y234.452
G01 X212.681 Y233.081
G01 X214.718 Y231.867
G01 X216.782 Y230.811
G01 X218.861 Y229.913
G01 X220.946 Y229.170
G01 X223.026 Y228.582
G01 X225.091 Y228.146
G01 X227.132 Y227.858
G01 X229.139 Y227.717
G01 X231.102 Y227.716
G01 X233.014 Y227.852
G01 X234.864 Y228.120
G01 X236.645 Y228.513
G01 X238.350 Y229.026
G01 X239.971 Y229.651
G01 X241.501 Y230.382
G01 X242.933 Y231.211
G01 X244.263 Y232.131
G01 X245.485 Y233.133
G01 X246.593 Y234.209
G01 X247.585 Y235.349
G01 X248.455 Y236.546
G01 X249.203 Y237.790
G01 X249.824 Y239.072
G01 X250.000 Y239.500
G01 X250.000 Y238.000
G01 X249.348 Y236.733
G01 X248.572 Y235.503
G01 X247.674 Y234.321
G01 X246.657 Y233.195
G01 X245.525 Y232.135
G01 X244.281 Y231.147
G01 X242.931 Y230.242
G01 X241.479 Y229.427
G01 X239.931 Y228.710
G01 X238.293 Y228.098
G01 X236.573 Y227.598
G01 X234.777 Y227.216
G01 X232.912 Y226.960
G01 X230.988 Y226.834
G01 X229.013 Y226.844
G01 X226.994 Y226.994
G01 X224.942 Y227.288
G01 X222.865 Y227.731
G01 X220.775 Y228.325
G01 X218.679 Y229.072
G01 X216.589 Y229.974
G01 X214.515 Y231.032
G01 X212.467 Y232.248
G01 X210.455 Y233.620
G01 X208.490 Y235.147
G01 X206.583 Y236.829
G01 X205.386 Y237.998
G01 X205.817 Y236.497
G01 X207.718 Y234.772
G01 X209.679 Y233.200
G01 X211.690 Y231.783
G01 X213.740 Y230.521
G01 X215.818 Y229.416
G01 X217.915 Y228.465
G01 X220.021 Y227.669
G01 X222.125 Y227.026
G01 X224.217 Y226.534
G01 X226.289 Y226.190
G01 X228.330 Y225.990
G01 X230.331 Y225.931
G01 X232.284 Y226.009
G01 X234.180 Y226.217
G01 X236.012 Y226.551
G01 X237.771 Y227.006
G01 X239.450 Y227.573
G01 X241.043 Y228.247
G01 X242.543 Y229.021
G01 X243.944 Y229.887
G01 X245.242 Y230.836
G01 X246.431 Y231.862
G01 X247.508 Y232.955
G01 X248.468 Y234.107
G01 X249.309 Y235.310
G01 X250.000 Y236.500
G01 X250.000 Y235.000
G01 X249.204 Y233.785
G01 X248.288 Y232.614
G01 X247.256 Y231.497
G01 X246.110 Y230.443
G01 X244.855 Y229.460
G01 X243.495 Y228.555
G01 X242.034 Y227.737
G01 X240.479 Y227.014
G01 X238.835 Y226.392
G01 X237.107 Y225.879
G01 X235.305 Y225.482
G01 X233.433 Y225.205
G01 X231.501 Y225.056
G01 X229.516 Y225.039
G01 X227.486 Y225.159
G01 X225.421 Y225.421
G01 X223.330 Y225.827
G01 X221.221 Y226.381
G01 X219.105 Y227.086
G01 X216.991 Y227.944
G01 X214.889 Y228.955
G01 X212.809 Y230.121
G01 X210.762 Y231.442
G01 X208.758 Y232.917
G01 X206.807 Y234.545
G01 X206.303 Y234.998
G01 X206.848 Y233.496
G01 X208.817 Y231.885
G01 X210.838 Y230.427
G01 X212.899 Y229.122
G01 X214.992 Y227.971
G01 X217.106 Y226.973
G01 X219.231 Y226.128
G01 X221.357 Y225.434
G01 X223.475 Y224.890
G01 X225.576 Y224.492
G01 X227.649 Y224.238
G01 X229.687 Y224.124
G01 X231.680 Y224.145
G01 X233.621 Y224.297
G01 X235.501 Y224.575
G01 X237.313 Y224.973
G01 X239.049 Y225.485
G01 X240.704 Y226.104
G01 X242.270 Y226.824
G01 X243.743 Y227.637
G01 X245.116 Y228.536
G01 X246.385 Y229.513
G01 X247.546 Y230.560
G01 X248.595 Y231.669
G01 X249.530 Y232.831
G01 X250.000 Y233.500
G01 X250.000 Y232.000
G01 X249.059 Y230.840
G01 X248.004 Y229.733
G01 X246.838 Y228.685
G01 X245.566 Y227.706
G01 X244.190 Y226.803
G01 X242.715 Y225.985
G01 X241.147 Y225.258
G01 X239.491 Y224.629
G01 X237.753 Y224.106
G01 X235.940 Y223.695
G01 X234.058 Y223.403
G01 X232.116 Y223.234
G01 X230.119 Y223.193
G01 X228.078 Y223.287
G01 X225.999 Y223.519
G01 X223.892 Y223.892
G01 X221.767 Y224.410
G01 X219.631 Y225.076
G01 X217.494 Y225.892
G01 X215.367 Y226.859
G01 X213.259 Y227.978
G01 X211.180 Y229.250
G01 X209.139 Y230.674
G01 X207.452 Y231.996
G01 X208.118 Y230.497
G01 X210.147 Y229.004
G01 X212.220 Y227.661
G01 X214.325 Y226.470
G01 X216.454 Y225.430
G01 X218.597 Y224.541
G01 X220.744 Y223.801
G01 X222.887 Y223.209
G01 X225.014 Y222.762
G01 X227.119 Y222.457
G01 X229.191 Y222.291
G01 X231.223 Y222.259
G01 X233.207 Y222.358
G01 X235.134 Y222.583
G01 X236.997 Y222.927
G01 X238.789 Y223.386
G01 X240.504 Y223.953
G01 X242.135 Y224.621
G01 X243.677 Y225.384
G01 X245.125 Y226.235
G01 X246.473 Y227.166
G01 X247.718 Y228.169
G01 X248.855 Y229.236
G01 X249.882 Y230.359
G01 X250.000 Y230.500
G01 X250.000 Y229.000
G01 X248.915 Y227.901
G01 X247.721 Y226.860
G01 X246.423 Y225.886
G01 X245.025 Y224.987
G01 X243.530 Y224.169
G01 X241.943 Y223.440
G01 X240.271 Y222.808
G01 X238.517 Y222.278
G01 X236.690 Y221.857
G01 X234.794 Y221.551
G01 X232.838 Y221.366
G01 X230.828 Y221.306
G01 X228.772 Y221.377
G01 X226.679 Y221.583
G01 X224.557 Y221.928
G01 X222.414 Y222.414
G01 X220.260 Y223.045
G01 X218.103 Y223.822
G01 X215.952 Y224.748
G01 X213.818 Y225.824
G01 X211.710 Y227.050
G01 X209.637 Y228.425
G01 X208.852 Y228.994
G01 X209.652 Y227.494
G01 X211.734 Y226.122
G01 X213.852 Y224.898
G01 X215.995 Y223.823
G01 X218.155 Y222.896
G01 X220.322 Y222.116
G01 X222.486 Y221.481
G01 X224.640 Y220.990
G01 X226.773 Y220.640
G01 X228.879 Y220.427
G01 X230.947 Y220.348
G01 X232.971 Y220.398
G01 X234.943 Y220.574
G01 X236.856 Y220.869
G01 X238.702 Y221.279
G01 X240.476 Y221.797
G01 X242.170 Y222.417
G01 X243.780 Y223.133
G01 X245.300 Y223.939
G01 X246.726 Y224.826
G01 X248.053 Y225.787
G01 X249.277 Y226.816
G01 X250.000 Y227.500
G01 X250.000 Y226.000
G01 X248.770 Y224.966
G01 X247.439 Y223.998
G01 X246.010 Y223.103
G01 X244.488 Y222.288
G01 X242.876 Y221.560
G01 X241.181 Y220.926
G01 X239.406 Y220.392
G01 X237.559 Y219.964
G01 X235.645 Y219.649
G01 X233.672 Y219.452
G01 X231.646 Y219.378
G01 X229.574 Y219.431
G01 X227.465 Y219.615
G01 X225.327 Y219.935
G01 X223.167 Y220.394
G01 X220.994 Y220.994
G01 X218.818 Y221.738
G01 X216.646 Y222.627
G01 X214.489 Y223.663
G01 X212.355 Y224.846
G01 X210.527 Y225.994
G01 X211.477 Y224.496
G01 X213.606 Y223.247
G01 X215.762 Y222.144
G01 X217.936 Y221.186
G01 X220.120 Y220.373
G01 X222.305 Y219.703
G01 X224.483 Y219.175
G01 X226.643 Y218.785
G01 X228.779 Y218.531
G01 X230.882 Y218.409
G01 X232.945 Y218.416
G01 X234.960 Y218.547
G01 X236.920 Y218.797
G01 X238.818 Y219.162
G01 X240.648 Y219.635
G01 X242.404 Y220.211
G01 X244.080 Y220.884
G01 X245.671 Y221.648
G01 X247.173 Y222.495
G01 X248.581 Y223.418
G01 X249.891 Y224.411
G01 X250.000 Y224.500
G01 X250.000 Y223.000
G01 X248.627 Y222.038
G01 X247.159 Y221.148
G01 X245.600 Y220.337
G01 X243.956 Y219.612
G01 X242.230 Y218.980
G01 X240.428 Y218.445
G01 X238.556 Y218.015
G01 X236.619 Y217.696
G01 X234.625 Y217.491
G01 X232.579 Y217.406
G01 X230.488 Y217.446
G01 X228.361 Y217.615
G01 X226.205 Y217.916
G01 X224.028 Y218.352
G01 X221.838 Y218.927
G01 X219.643 Y219.642
G01 X217.452 Y220.500
G01 X215.274 Y221.501
G01 X213.118 Y222.646
G01 X212.515 Y222.995
G01 X213.645 Y221.492
G01 X215.812 Y220.370
G01 X218.000 Y219.392
G01 X220.200 Y218.555
G01 X222.404 Y217.858
G01 X224.603 Y217.300
G01 X226.788 Y216.879
G01 X228.953 Y216.591
G01 X231.088 Y216.435
G01 X233.187 Y216.405
G01 X235.243 Y216.498
G01 X237.248 Y216.710
G01 X239.195 Y217.036
G01 X241.079 Y217.471
G01 X242.894 Y218.009
G01 X244.634 Y218.644
G01 X246.294 Y219.371
G01 X247.870 Y220.182
G01 X249.357 Y221.073
G01 X250.000 Y221.500
G01 X250.000 Y220.000
G01 X248.483 Y219.117
G01 X246.879 Y218.312
G01 X245.193 Y217.593
G01 X243.429 Y216.965
G01 X241.593 Y216.434
G01 X239.688 Y216.007
G01 X237.723 Y215.687
G01 X235.702 Y215.480
G01 X233.632 Y215.391
G01 X231.519 Y215.424
G01 X229.372 Y215.583
G01 X227.196 Y215.871
G01 X225.001 Y216.292
G01 X222.793 Y216.848
G01 X220.581 Y217.541
G01 X218.373 Y218.372
G01 X216.177 Y219.344
G01 X214.871 Y219.994
G01 X216.212 Y218.491
G01 X218.412 Y217.502
G01 X220.626 Y216.651
G01 X222.846 Y215.938
G01 X225.064 Y215.361
G01 X227.272 Y214.917
G01 X229.462 Y214.605
G01 X231.627 Y214.421
G01 X233.760 Y214.363
G01 X235.853 Y214.427
G01 X237.900 Y214.608
G01 X239.895 Y214.902
G01 X241.831 Y215.305
G01 X243.702 Y215.811
G01 X245.504 Y216.415
G01 X247.231 Y217.111
G01 X248.879 Y217.894
G01 X250.000 Y218.500
G01 X250.000 Y217.000
G01 X248.340 Y216.205
G01 X246.602 Y215.495
G01 X244.790 Y214.876
G01 X242.910 Y214.354
G01 X240.966 Y213.934
G01 X238.965 Y213.620
G01 X236.911 Y213.419
G01 X234.812 Y213.332
G01 X232.674 Y213.366
G01 X230.503 Y213.523
G01 X228.307 Y213.806
G01 X226.093 Y214.219
G01 X223.868 Y214.764
G01 X221.640 Y215.442
G01 X219.417 Y216.256
G01 X217.673 Y216.994
G01 X219.280 Y215.493
G01 X221.506 Y214.642
G01 X223.740 Y213.925
G01 X225.975 Y213.340
G01 X228.202 Y212.886
G01 X230.416 Y212.561
G01 X232.607 Y212.362
G01 X234.771 Y212.286
G01 X236.899 Y212.330
G01 X238.986 Y212.490
G01 X241.025 Y212.762
G01 X243.010 Y213.142
G01 X244.935 Y213.626
G01 X246.797 Y214.207
G01 X248.589 Y214.882
G01 X250.000 Y215.500
G01 X250.000 Y214.000
G01 X248.198 Y213.305
G01 X246.327 Y212.702
G01 X244.392 Y212.195
G01 X242.400 Y211.791
G01 X240.355 Y211.492
G01 X238.262 Y211.304
G01 X236.128 Y211.231
G01 X233.960 Y211.275
G01 X231.763 Y211.440
G01 X229.544 Y211.729
G01 X227.311 Y212.145
G01 X225.070 Y212.689
G01 X222.829 Y213.363
G01 X221.054 Y213.992
G01 X222.856 Y212.615
G01 X223.029 Y212.490
G01 X225.274 Y211.787
G01 X227.522 Y211.213
G01 X229.766 Y210.765
G01 X232.000 Y210.443
G01 X234.215 Y210.244
G01 X236.406 Y210.166
G01 X238.566 Y210.205
G01 X240.689 Y210.359
G01 X242.769 Y210.624
G01 X244.801 Y210.996
G01 X246.778 Y211.470
G01 X248.696 Y212.043
G01 X250.000 Y212.500
G01 X250.000 Y211.000
G01 X248.056 Y210.423
G01 X246.055 Y209.944
G01 X244.003 Y209.567
G01 X241.904 Y209.297
G01 X239.765 Y209.137
G01 X237.591 Y209.091
G01 X235.388 Y209.161
G01 X233.162 Y209.349
G01 X230.921 Y209.659
G01 X228.670 Y210.093
G01 X226.416 Y210.652
G01 X225.245 Y210.992
G01 X227.188 Y209.824
G01 X227.786 Y209.491
G01 X230.044 Y208.951
G01 X232.301 Y208.535
G01 X234.551 Y208.239
G01 X236.786 Y208.064
G01 X239.001 Y208.006
G01 X241.190 Y208.062
G01 X243.346 Y208.231
G01 X245.464 Y208.510
G01 X247.539 Y208.894
G01 X249.565 Y209.380
G01 X250.000 Y209.500
G01 X250.000 Y208.000
G01 X247.916 Y207.571
G01 X245.789 Y207.246
G01 X243.626 Y207.029
G01 X241.432 Y206.922
G01 X239.212 Y206.929
G01 X236.972 Y207.050
G01 X234.718 Y207.289
G01 X232.457 Y207.647
G01 X230.774 Y207.990
G01 X232.859 Y207.097
G01 X234.467 Y206.489
G01 X236.733 Y206.150
G01 X238.994 Y205.926
G01 X241.245 Y205.819
G01 X243.480 Y205.825
G01 X245.693 Y205.943
G01 X247.878 Y206.170
G01 X250.000 Y206.500
G01 X250.000 Y205.000
G01 X247.780 Y204.795
G01 X245.539 Y204.701
G01 X243.283 Y204.718
G01 X241.019 Y204.848
G01 X239.585 Y204.989
G01 X241.806 Y204.532
G01 X244.047 Y204.185
G01 X246.302 Y203.948
G01 X248.566 Y203.822
G01 X250.834 Y203.808
G01 X251.502 Y203.824
G01 X253.649 Y205.375
G01 X255.649 Y207.022
G01 X257.496 Y208.755
G01 X259.187 Y210.561
G01 X260.719 Y212.431
G01 X262.092 Y214.353
G01 X263.302 Y216.316
G01 X264.351 Y218.309
G01 X265.237 Y220.320
G01 X265.962 Y222.339
G01 X266.527 Y224.355
G01 X266.935 Y226.356
G01 X267.189 Y228.333
G01 X267.291 Y230.275
G01 X267.246 Y232.172
G01 X267.059 Y234.015
G01 X266.736 Y235.795
G01 X266.281 Y237.502
G01 X265.702 Y239.128
G01 X265.005 Y240.665
G01 X264.199 Y242.105
G01 X263.290 Y243.443
G01 X262.287 Y244.670
G01 X261.199 Y245.782
G01 X260.034 Y246.773
G01 X258.803 Y247.639
G01 X257.514 Y248.375
G01 X256.177 Y248.979
G01 X254.803 Y249.446
G01 X253.401 Y249.776
G01 X251.982 Y249.967
G01 X251.500 Y250.000
G01 X253.000 Y250.000
G01 X254.403 Y249.784
G01 X255.789 Y249.430
G01 X257.147 Y248.940
G01 X258.467 Y248.316
G01 X259.740 Y247.560
G01 X260.957 Y246.676
G01 X262.106 Y245.668
G01 X263.180 Y244.541
G01 X264.170 Y243.298
G01 X265.066 Y241.947
G01 X265.860 Y240.494
G01 X266.546 Y238.945
G01 X267.115 Y237.307
G01 X267.560 Y235.589
G01 X267.875 Y233.799
G01 X268.054 Y231.946
G01 X268.092 Y230.039
G01 X267.985 Y228.086
G01 X267.727 Y226.099
G01 X267.315 Y224.087
G01 X266.747 Y222.061
G01 X266.019 Y220.031
G01 X265.132 Y218.008
G01 X264.083 Y216.003
G01 X262.872 Y214.027
G01 X261.500 Y212.091
G01 X259.968 Y210.206
G01 X258.278 Y208.384
G01 X256.433 Y206.635
G01 X254.436 Y204.970
G01 X253.001 Y203.898
G01 X254.502 Y204.020
G01 X256.550 Y205.671
G01 X258.447 Y207.408
G01 X260.190 Y209.222
G01 X261.776 Y211.101
G01 X263.203 Y213.034
G01 X264.470 Y215.011
G01 X265.576 Y217.019
G01 X266.521 Y219.049
G01 X267.306 Y221.089
G01 X267.933 Y223.129
G01 X268.403 Y225.158
G01 X268.718 Y227.165
G01 X268.884 Y229.141
G01 X268.903 Y231.076
G01 X268.780 Y232.960
G01 X268.519 Y234.784
G01 X268.128 Y236.539
G01 X267.612 Y238.218
G01 X266.978 Y239.811
G01 X266.232 Y241.312
G01 X265.383 Y242.714
G01 X264.439 Y244.010
G01 X263.407 Y245.194
G01 X262.298 Y246.262
G01 X261.119 Y247.208
G01 X259.880 Y248.029
G01 X258.590 Y248.721
G01 X257.260 Y249.281
G01 X255.899 Y249.707
G01 X254.516 Y249.997
G01 X254.500 Y250.000
G01 X256.000 Y250.000
G01 X257.361 Y249.638
G01 X258.698 Y249.143
G01 X260.000 Y248.517
G01 X261.259 Y247.761
G01 X262.464 Y246.878
G01 X263.607 Y245.873
G01 X264.678 Y244.748
G01 X265.668 Y243.510
G01 X266.569 Y242.164
G01 X267.373 Y240.714
G01 X268.071 Y239.169
G01 X268.657 Y237.534
G01 X269.123 Y235.818
G01 X269.463 Y234.027
G01 X269.671 Y232.172
G01 X269.741 Y230.259
G01 X269.669 Y228.299
G01 X269.449 Y226.301
G01 X269.079 Y224.275
G01 X268.555 Y222.231
G01 X267.874 Y220.179
G01 X267.035 Y218.130
G01 X266.037 Y216.094
G01 X264.878 Y214.082
G01 X263.559 Y212.106
G01 X262.081 Y210.175
G01 X260.445 Y208.302
G01 X258.654 Y206.496
G01 X256.710 Y204.768
G01 X256.003 Y204.192
G01 X257.502 Y204.413
G01 X259.446 Y206.155
G01 X261.237 Y207.975
G01 X262.874 Y209.862
G01 X264.353 Y211.806
G01 X265.673 Y213.794
G01 X266.835 Y215.818
G01 X267.837 Y217.865
G01 X268.680 Y219.925
G01 X269.366 Y221.988
G01 X269.896 Y224.043
G01 X270.273 Y226.080
G01 X270.501 Y228.089
G01 X270.582 Y230.060
G01 X270.521 Y231.985
G01 X270.324 Y233.853
G01 X269.995 Y235.656
G01 X269.541 Y237.386
G01 X268.968 Y239.036
G01 X268.283 Y240.597
G01 X267.494 Y242.063
G01 X266.607 Y243.427
G01 X265.632 Y244.685
G01 X264.577 Y245.829
G01 X263.450 Y246.857
G01 X262.260 Y247.763
G01 X261.017 Y248.544
G01 X259.731 Y249.197
G01 X258.410 Y249.720
G01 X257.500 Y250.000
G01 X259.000 Y250.000
G01 X260.316 Y249.493
G01 X261.601 Y248.858
G01 X262.844 Y248.095
G01 X264.038 Y247.208
G01 X265.173 Y246.200
G01 X266.239 Y245.074
G01 X267.229 Y243.836
G01 X268.133 Y242.489
G01 X268.943 Y241.041
G01 X269.652 Y239.496
G01 X270.252 Y237.861
G01 X270.737 Y236.144
G01 X271.099 Y234.352
G01 X271.333 Y232.493
G01 X271.432 Y230.575
G01 X271.392 Y228.608
G01 X271.209 Y226.600
G01 X270.878 Y224.561
G01 X270.396 Y222.500
G01 X269.760 Y220.428
G01 X268.968 Y218.354
G01 X268.019 Y216.290
G01 X266.911 Y214.246
G01 X265.644 Y212.232
G01 X264.220 Y210.259
G01 X262.638 Y208.338
G01 X260.902 Y206.480
G01 X259.012 Y204.695
G01 X259.002 Y204.686
G01 X260.501 Y205.009
G01 X262.337 Y206.835
G01 X264.020 Y208.729
G01 X265.548 Y210.682
G01 X266.919 Y212.682
G01 X268.133 Y214.719
G01 X269.189 Y216.782
G01 X270.087 Y218.861
G01 X270.830 Y220.946
G01 X271.418 Y223.026
G01 X271.854 Y225.091
G01 X272.142 Y227.132
G01 X272.283 Y229.139
G01 X272.284 Y231.102
G01 X272.148 Y233.014
G01 X271.880 Y234.864
G01 X271.487 Y236.645
G01 X270.974 Y238.350
G01 X270.349 Y239.971
G01 X269.618 Y241.501
G01 X268.789 Y242.933
G01 X267.869 Y244.263
G01 X266.867 Y245.485
G01 X265.791 Y246.593
G01 X264.651 Y247.585
G01 X263.454 Y248.455
G01 X262.210 Y249.203
G01 X260.928 Y249.824
G01 X260.500 Y250.000
G01 X262.000 Y250.000
G01 X263.267 Y249.348
G01 X264.497 Y248.572
G01 X265.679 Y247.674
G01 X266.805 Y246.658
G01 X267.865 Y245.525
G01 X268.853 Y244.281
G01 X269.758 Y242.931
G01 X270.573 Y241.479
G01 X271.290 Y239.931
G01 X271.902 Y238.293
G01 X272.403 Y236.573
G01 X272.784 Y234.777
G01 X273.040 Y232.912
G01 X273.166 Y230.988
G01 X273.157 Y229.013
G01 X273.006 Y226.994
G01 X272.712 Y224.942
G01 X272.269 Y222.866
G01 X271.675 Y220.775
G01 X270.928 Y218.679
G01 X270.026 Y216.589
G01 X268.968 Y214.515
G01 X267.752 Y212.467
G01 X266.381 Y210.455
G01 X264.853 Y208.490
G01 X263.171 Y206.583
G01 X262.002 Y205.386
G01 X263.503 Y205.817
G01 X265.228 Y207.718
G01 X266.800 Y209.679
G01 X268.217 Y211.690
G01 X269.479 Y213.740
G01 X270.585 Y215.818
G01 X271.535 Y217.915
G01 X272.331 Y220.021
G01 X272.974 Y222.125
G01 X273.466 Y224.218
G01 X273.810 Y226.289
G01 X274.010 Y228.330
G01 X274.069 Y230.331
G01 X273.991 Y232.284
G01 X273.783 Y234.180
G01 X273.449 Y236.012
G01 X272.994 Y237.771
G01 X272.427 Y239.450
G01 X271.753 Y241.043
G01 X270.979 Y242.543
G01 X270.113 Y243.944
G01 X269.164 Y245.242
G01 X268.138 Y246.431
G01 X267.045 Y247.508
G01 X265.893 Y248.468
G01 X264.690 Y249.309
G01 X263.500 Y250.000
G01 X265.000 Y250.000
G01 X266.215 Y249.204
G01 X267.386 Y248.288
G01 X268.503 Y247.256
G01 X269.557 Y246.110
G01 X270.540 Y244.855
G01 X271.445 Y243.495
G01 X272.263 Y242.034
G01 X272.986 Y240.479
G01 X273.608 Y238.835
G01 X274.121 Y237.108
G01 X274.518 Y235.305
G01 X274.795 Y233.433
G01 X274.944 Y231.501
G01 X274.961 Y229.516
G01 X274.841 Y227.486
G01 X274.579 Y225.421
G01 X274.173 Y223.330
G01 X273.619 Y221.221
G01 X272.914 Y219.105
G01 X272.057 Y216.991
G01 X271.045 Y214.889
G01 X269.879 Y212.810
G01 X268.558 Y210.763
G01 X267.083 Y208.758
G01 X265.455 Y206.807
G01 X265.002 Y206.303
G01 X266.504 Y206.849
G01 X268.115 Y208.817
G01 X269.573 Y210.838
G01 X270.878 Y212.899
G01 X272.029 Y214.992
G01 X273.027 Y217.106
G01 X273.872 Y219.231
G01 X274.566 Y221.357
G01 X275.110 Y223.475
G01 X275.508 Y225.576
G01 X275.762 Y227.649
G01 X275.876 Y229.687
G01 X275.855 Y231.680
G01 X275.703 Y233.621
G01 X275.425 Y235.501
G01 X275.027 Y237.313
G01 X274.516 Y239.049
G01 X273.896 Y240.704
G01 X273.176 Y242.270
G01 X272.363 Y243.743
G01 X271.464 Y245.116
G01 X270.487 Y246.385
G01 X269.440 Y247.546
G01 X268.331 Y248.595
G01 X267.169 Y249.530
G01 X266.500 Y250.000
G01 X268.000 Y250.000
G01 X269.160 Y249.059
G01 X270.267 Y248.004
G01 X271.315 Y246.839
G01 X272.294 Y245.566
G01 X273.197 Y244.190
G01 X274.015 Y242.715
G01 X274.742 Y241.147
G01 X275.371 Y239.491
G01 X275.894 Y237.754
G01 X276.305 Y235.940
G01 X276.597 Y234.059
G01 X276.766 Y232.116
G01 X276.807 Y230.119
G01 X276.713 Y228.078
G01 X276.481 Y225.999
G01 X276.108 Y223.892
G01 X275.590 Y221.767
G01 X274.924 Y219.631
G01 X274.108 Y217.495
G01 X273.141 Y215.367
G01 X272.022 Y213.259
G01 X270.750 Y211.180
G01 X269.326 Y209.140
G01 X268.004 Y207.453
G01 X269.503 Y208.118
G01 X270.996 Y210.147
G01 X272.339 Y212.220
G01 X273.530 Y214.325
G01 X274.570 Y216.454
G01 X275.459 Y218.597
G01 X276.199 Y220.745
G01 X276.791 Y222.887
G01 X277.238 Y225.014
G01 X277.543 Y227.119
G01 X277.709 Y229.191
G01 X277.741 Y231.223
G01 X277.642 Y233.207
G01 X277.417 Y235.134
G01 X277.073 Y236.997
G01 X276.614 Y238.789
G01 X276.047 Y240.504
G01 X275.379 Y242.135
G01 X274.616 Y243.677
G01 X273.765 Y245.125
G01 X272.834 Y246.473
G01 X271.831 Y247.718
G01 X270.764 Y248.855
G01 X269.641 Y249.883
G01 X269.500 Y250.000
G01 X271.000 Y250.000
G01 X272.099 Y248.915
G01 X273.140 Y247.721
G01 X274.114 Y246.423
G01 X275.013 Y245.025
G01 X275.831 Y243.530
G01 X276.560 Y241.944
G01 X277.192 Y240.271
G01 X277.722 Y238.517
G01 X278.143 Y236.690
G01 X278.449 Y234.794
G01 X278.634 Y232.838
G01 X278.694 Y230.828
G01 X278.623 Y228.773
G01 X278.417 Y226.679
G01 X278.072 Y224.557
G01 X277.586 Y222.414
G01 X276.955 Y220.260
G01 X276.178 Y218.103
G01 X275.252 Y215.953
G01 X274.176 Y213.818
G01 X272.951 Y211.710
G01 X271.575 Y209.637
G01 X271.006 Y208.852
G01 X272.506 Y209.652
G01 X273.878 Y211.735
G01 X275.102 Y213.852
G01 X276.178 Y215.995
G01 X277.105 Y218.155
G01 X277.884 Y220.322
G01 X278.519 Y222.486
G01 X279.010 Y224.640
G01 X279.360 Y226.773
G01 X279.573 Y228.879
G01 X279.652 Y230.947
G01 X279.602 Y232.971
G01 X279.426 Y234.943
G01 X279.131 Y236.856
G01 X278.722 Y238.702
G01 X278.203 Y240.476
G01 X277.583 Y242.170
G01 X276.867 Y243.780
G01 X276.061 Y245.300
G01 X275.174 Y246.726
G01 X274.213 Y248.053
G01 X273.184 Y249.277
G01 X272.500 Y250.000
G01 X274.000 Y250.000
G01 X275.034 Y248.770
G01 X276.002 Y247.439
G01 X276.897 Y246.010
G01 X277.712 Y244.488
G01 X278.440 Y242.876
G01 X279.075 Y241.181
G01 X279.608 Y239.406
G01 X280.036 Y237.559
G01 X280.351 Y235.646
G01 X280.548 Y233.672
G01 X280.623 Y231.646
G01 X280.570 Y229.575
G01 X280.385 Y227.466
G01 X280.065 Y225.327
G01 X279.606 Y223.167
G01 X279.006 Y220.994
G01 X278.262 Y218.818
G01 X277.373 Y216.646
G01 X276.337 Y214.489
G01 X275.154 Y212.355
G01 X274.006 Y210.527
G01 X275.504 Y211.478
G01 X276.753 Y213.606
G01 X277.856 Y215.762
G01 X278.814 Y217.936
G01 X279.627 Y220.121
G01 X280.297 Y222.306
G01 X280.825 Y224.483
G01 X281.215 Y226.643
G01 X281.469 Y228.779
G01 X281.591 Y230.883
G01 X281.584 Y232.945
G01 X281.453 Y234.960
G01 X281.203 Y236.920
G01 X280.838 Y238.818
G01 X280.365 Y240.648
G01 X279.789 Y242.404
G01 X279.116 Y244.080
G01 X278.352 Y245.671
G01 X277.505 Y247.173
G01 X276.582 Y248.581
G01 X275.589 Y249.891
G01 X275.500 Y250.000
G01 X277.000 Y250.000
G01 X277.962 Y248.627
G01 X278.852 Y247.159
G01 X279.663 Y245.600
G01 X280.388 Y243.956
G01 X281.020 Y242.230
G01 X281.555 Y240.428
G01 X281.985 Y238.556
G01 X282.305 Y236.619
G01 X282.509 Y234.625
G01 X282.594 Y232.579
G01 X282.554 Y230.488
G01 X282.385 Y228.361
G01 X282.084 Y226.205
G01 X281.648 Y224.028
G01 X281.073 Y221.838
G01 X280.358 Y219.643
G01 X279.500 Y217.452
G01 X278.500 Y215.274
G01 X277.354 Y213.118
G01 X277.006 Y212.515
G01 X278.508 Y213.645
G01 X279.630 Y215.812
G01 X280.609 Y218.000
G01 X281.446 Y220.201
G01 X282.142 Y222.404
G01 X282.700 Y224.603
G01 X283.121 Y226.789
G01 X283.409 Y228.953
G01 X283.565 Y231.088
G01 X283.595 Y233.188
G01 X283.502 Y235.243
G01 X283.290 Y237.248
G01 X282.964 Y239.195
G01 X282.529 Y241.079
G01 X281.992 Y242.894
G01 X281.356 Y244.634
G01 X280.629 Y246.295
G01 X279.818 Y247.870
G01 X278.927 Y249.357
G01 X278.500 Y250.000
G01 X280.000 Y250.000
G01 X280.883 Y248.483
G01 X281.688 Y246.879
G01 X282.407 Y245.193
G01 X283.035 Y243.429
G01 X283.566 Y241.593
G01 X283.993 Y239.689
G01 X284.313 Y237.723
G01 X284.520 Y235.702
G01 X284.609 Y233.632
G01 X284.576 Y231.519
G01 X284.417 Y229.372
G01 X284.129 Y227.196
G01 X283.708 Y225.001
G01 X283.152 Y222.793
G01 X282.459 Y220.581
G01 X281.628 Y218.373
G01 X280.656 Y216.177
G01 X280.006 Y214.871
G01 X281.509 Y216.212
G01 X282.498 Y218.412
G01 X283.349 Y220.626
G01 X284.062 Y222.846
G01 X284.639 Y225.064
G01 X285.083 Y227.272
G01 X285.395 Y229.462
G01 X285.579 Y231.627
G01 X285.637 Y233.760
G01 X285.573 Y235.853
G01 X285.392 Y237.900
G01 X285.098 Y239.895
G01 X284.695 Y241.831
G01 X284.189 Y243.703
G01 X283.585 Y245.504
G01 X282.889 Y247.232
G01 X282.106 Y248.879
G01 X281.500 Y250.000
G01 X283.000 Y250.000
G01 X283.795 Y248.340
G01 X284.505 Y246.602
G01 X285.124 Y244.790
G01 X285.646 Y242.910
G01 X286.066 Y240.966
G01 X286.380 Y238.965
G01 X286.581 Y236.911
G01 X286.668 Y234.812
G01 X286.634 Y232.674
G01 X286.477 Y230.503
G01 X286.194 Y228.307
G01 X285.781 Y226.093
G01 X285.236 Y223.868
G01 X284.558 Y221.640
G01 X283.744 Y219.417
G01 X283.007 Y217.673
G01 X284.507 Y219.281
G01 X285.358 Y221.506
G01 X286.076 Y223.740
G01 X286.660 Y225.975
G01 X287.114 Y228.202
G01 X287.439 Y230.416
G01 X287.638 Y232.608
G01 X287.714 Y234.771
G01 X287.671 Y236.899
G01 X287.510 Y238.986
G01 X287.238 Y241.025
G01 X286.858 Y243.010
G01 X286.374 Y244.936
G01 X285.793 Y246.797
G01 X285.118 Y248.589
G01 X284.500 Y250.000
G01 X286.000 Y250.000
G01 X286.695 Y248.198
G01 X287.298 Y246.327
G01 X287.805 Y244.393
G01 X288.209 Y242.400
G01 X288.508 Y240.355
G01 X288.696 Y238.262
G01 X288.769 Y236.129
G01 X288.725 Y233.960
G01 X288.560 Y231.763
G01 X288.271 Y229.544
G01 X287.855 Y227.311
G01 X287.311 Y225.070
G01 X286.637 Y222.829
G01 X286.008 Y221.054
G01 X287.385 Y222.856
G01 X287.510 Y223.029
G01 X288.213 Y225.274
G01 X288.788 Y227.522
G01 X289.235 Y229.767
G01 X289.557 Y232.000
G01 X289.756 Y234.215
G01 X289.834 Y236.406
G01 X289.795 Y238.566
G01 X289.641 Y240.689
G01 X289.376 Y242.770
G01 X289.005 Y244.801
G01 X288.530 Y246.778
G01 X287.957 Y248.696
G01 X287.500 Y250.000
G01 X289.000 Y250.000
G01 X289.577 Y248.056
G01 X290.056 Y246.055
G01 X290.433 Y244.003
G01 X290.703 Y241.904
G01 X290.863 Y239.765
G01 X290.909 Y237.591
G01 X290.840 Y235.388
G01 X290.651 Y233.162
G01 X290.341 Y230.921
G01 X289.907 Y228.670
G01 X289.348 Y226.416
G01 X289.008 Y225.245
G01 X290.176 Y227.189
G01 X290.509 Y227.786
G01 X291.049 Y230.044
G01 X291.465 Y232.302
G01 X291.761 Y234.551
G01 X291.936 Y236.786
G01 X291.995 Y239.001
G01 X291.938 Y241.190
G01 X291.769 Y243.346
G01 X291.490 Y245.464
G01 X291.106 Y247.539
G01 X290.620 Y249.565
G01 X290.500 Y250.000
G01 X292.000 Y250.000
G01 X292.429 Y247.916
G01 X292.754 Y245.790
G01 X292.971 Y243.626
G01 X293.078 Y241.432
G01 X293.071 Y239.212
G01 X292.950 Y236.972
G01 X292.711 Y234.718
G01 X292.353 Y232.457
G01 X292.010 Y230.775
G01 X292.903 Y232.859
G01 X293.511 Y234.467
G01 X293.850 Y236.733
G01 X294.074 Y238.994
G01 X294.181 Y241.245
G01 X294.175 Y243.480
G01 X294.057 Y245.693
G01 X293.830 Y247.879
G01 X293.500 Y250.000
G01 X295.000 Y250.000
G01 X295.205 Y247.780
G01 X295.299 Y245.539
G01 X295.282 Y243.284
G01 X295.152 Y241.019
G01 X295.011 Y239.585
G01 X295.468 Y241.806
G01 X295.815 Y244.047
G01 X296.052 Y246.302
G01 X296.178 Y248.566
G01 X296.192 Y250.834
G01 X296.176 Y251.502
G01 X294.625 Y253.649
G01 X292.978 Y255.649
G01 X291.245 Y257.496
G01 X289.439 Y259.187
G01 X287.569 Y260.720
G01 X285.647 Y262.092
G01 X283.684 Y263.303
G01 X281.691 Y264.351
G01 X279.680 Y265.237
G01 X277.661 Y265.962
G01 X275.645 Y266.528
G01 X273.644 Y266.935
G01 X271.667 Y267.189
G01 X269.725 Y267.291
G01 X267.828 Y267.246
G01 X265.985 Y267.059
G01 X264.205 Y266.736
G01 X262.498 Y266.281
G01 X260.872 Y265.702
G01 X259.335 Y265.005
G01 X257.895 Y264.199
G01 X256.557 Y263.290
G01 X255.330 Y262.287
G01 X254.218 Y261.199
G01 X253.226 Y260.034
G01 X252.361 Y258.803
G01 X251.625 Y257.514
G01 X251.021 Y256.177
G01 X250.554 Y254.803
G01 X250.224 Y253.401
G01 X250.033 Y251.982
G01 X250.000 Y251.500
G01 X250.000 Y253.000
G01 X250.216 Y254.403
G01 X250.570 Y255.789
G01 X251.060 Y257.147
G01 X251.684 Y258.467
G01 X252.440 Y259.740
G01 X253.323 Y260.957
G01 X254.332 Y262.106
G01 X255.459 Y263.180
G01 X256.701 Y264.170
G01 X258.053 Y265.066
G01 X259.506 Y265.860
G01 X261.055 Y266.546
G01 X262.693 Y267.115
G01 X264.410 Y267.560
G01 X266.200 Y267.875
G01 X268.054 Y268.054
G01 X269.961 Y268.093
G01 X271.914 Y267.985
G01 X273.901 Y267.727
G01 X275.913 Y267.315
G01 X277.939 Y266.747
G01 X279.969 Y266.019
G01 X281.992 Y265.132
G01 X283.997 Y264.083
G01 X285.973 Y262.872
G01 X287.909 Y261.500
G01 X289.794 Y259.968
G01 X291.616 Y258.279
G01 X293.365 Y256.433
G01 X295.030 Y254.436
G01 X296.102 Y253.001
G01 X295.980 Y254.502
G01 X294.329 Y256.550
G01 X292.592 Y258.447
G01 X290.778 Y260.190
G01 X288.899 Y261.776
G01 X286.966 Y263.203
G01 X284.989 Y264.470
G01 X282.981 Y265.576
G01 X280.951 Y266.521
G01 X278.911 Y267.306
G01 X276.871 Y267.933
G01 X274.842 Y268.403
G01 X272.835 Y268.719
G01 X270.859 Y268.884
G01 X268.924 Y268.903
G01 X267.040 Y268.780
G01 X265.216 Y268.520
G01 X263.461 Y268.128
G01 X261.782 Y267.612
G01 X260.189 Y266.978
G01 X258.688 Y266.232
G01 X257.286 Y265.383
G01 X255.990 Y264.439
G01 X254.806 Y263.407
G01 X253.738 Y262.298
G01 X252.792 Y261.119
G01 X251.971 Y259.880
G01 X251.279 Y258.590
G01 X250.719 Y257.260
G01 X250.293 Y255.899
G01 X250.003 Y254.516
G01 X250.000 Y254.500
G01 X250.000 Y256.000
G01 X250.362 Y257.361
G01 X250.857 Y258.698
G01 X251.483 Y260.000
G01 X252.239 Y261.259
G01 X253.122 Y262.464
G01 X254.127 Y263.607
G01 X255.252 Y264.678
G01 X256.490 Y265.668
G01 X257.836 Y266.569
G01 X259.286 Y267.373
G01 X260.831 Y268.071
G01 X262.466 Y268.657
G01 X264.182 Y269.123
G01 X265.973 Y269.463
G01 X267.828 Y269.671
G01 X269.741 Y269.741
G01 X271.701 Y269.669
G01 X273.699 Y269.449
G01 X275.725 Y269.079
G01 X277.769 Y268.555
G01 X279.821 Y267.875
G01 X281.870 Y267.036
G01 X283.906 Y266.037
G01 X285.918 Y264.878
G01 X287.894 Y263.559
G01 X289.825 Y262.081
G01 X291.698 Y260.446
G01 X293.504 Y258.654
G01 X295.232 Y256.710
G01 X295.808 Y256.003
G01 X295.587 Y257.502
G01 X293.845 Y259.446
G01 X292.025 Y261.237
G01 X290.138 Y262.874
G01 X288.194 Y264.353
G01 X286.206 Y265.674
G01 X284.182 Y266.835
G01 X282.135 Y267.837
G01 X280.075 Y268.680
G01 X278.012 Y269.366
G01 X275.957 Y269.896
G01 X273.920 Y270.273
G01 X271.911 Y270.501
G01 X269.940 Y270.582
G01 X268.015 Y270.521
G01 X266.147 Y270.324
G01 X264.344 Y269.995
G01 X262.614 Y269.541
G01 X260.964 Y268.968
G01 X259.403 Y268.283
G01 X257.937 Y267.494
G01 X256.573 Y266.607
G01 X255.315 Y265.632
G01 X254.171 Y264.577
G01 X253.143 Y263.450
G01 X252.237 Y262.260
G01 X251.456 Y261.017
G01 X250.803 Y259.731
G01 X250.280 Y258.410
G01 X250.000 Y257.500
G01 X250.000 Y259.000
G01 X250.507 Y260.316
G01 X251.142 Y261.601
G01 X251.905 Y262.844
G01 X252.792 Y264.038
G01 X253.800 Y265.173
G01 X254.926 Y266.239
G01 X256.164 Y267.229
G01 X257.511 Y268.133
G01 X258.959 Y268.943
G01 X260.504 Y269.652
G01 X262.138 Y270.253
G01 X263.856 Y270.737
G01 X265.648 Y271.099
G01 X267.507 Y271.333
G01 X269.424 Y271.432
G01 X271.392 Y271.393
G01 X273.400 Y271.209
G01 X275.439 Y270.878
G01 X277.500 Y270.396
G01 X279.572 Y269.760
G01 X281.645 Y268.968
G01 X283.710 Y268.019
G01 X285.754 Y266.911
G01 X287.768 Y265.645
G01 X289.741 Y264.220
G01 X291.662 Y262.639
G01 X293.520 Y260.902
G01 X295.305 Y259.013
G01 X295.314 Y259.002
G01 X294.991 Y260.502
G01 X293.165 Y262.338
G01 X291.271 Y264.020
G01 X289.318 Y265.548
G01 X287.318 Y266.919
G01 X285.281 Y268.133
G01 X283.218 Y269.189
G01 X281.139 Y270.088
G01 X279.054 Y270.830
G01 X276.974 Y271.418
G01 X274.908 Y271.855
G01 X272.868 Y272.142
G01 X270.861 Y272.283
G01 X268.897 Y272.284
G01 X266.986 Y272.148
G01 X265.136 Y271.880
G01 X263.354 Y271.487
G01 X261.650 Y270.975
G01 X260.029 Y270.349
G01 X258.499 Y269.618
G01 X257.067 Y268.789
G01 X255.737 Y267.869
G01 X254.515 Y266.867
G01 X253.407 Y265.791
G01 X252.415 Y264.651
G01 X251.545 Y263.454
G01 X250.797 Y262.210
G01 X250.176 Y260.928
G01 X250.000 Y260.500
G01 X250.000 Y262.000
G01 X250.652 Y263.267
G01 X251.428 Y264.497
G01 X252.326 Y265.679
G01 X253.342 Y266.805
G01 X254.475 Y267.866
G01 X255.719 Y268.853
G01 X257.069 Y269.758
G01 X258.521 Y270.573
G01 X260.069 Y271.290
G01 X261.707 Y271.902
G01 X263.427 Y272.403
G01 X265.223 Y272.784
G01 X267.087 Y273.040
G01 X269.012 Y273.166
G01 X270.987 Y273.157
G01 X273.006 Y273.007
G01 X275.058 Y272.712
G01 X277.134 Y272.269
G01 X279.225 Y271.676
G01 X281.321 Y270.929
G01 X283.411 Y270.026
G01 X285.485 Y268.968
G01 X287.533 Y267.753
G01 X289.545 Y266.381
G01 X291.510 Y264.853
G01 X293.417 Y263.171
G01 X294.614 Y262.003
G01 X294.183 Y263.503
G01 X292.282 Y265.228
G01 X290.321 Y266.800
G01 X288.310 Y268.217
G01 X286.260 Y269.479
G01 X284.182 Y270.585
G01 X282.084 Y271.535
G01 X279.979 Y272.331
G01 X277.875 Y272.974
G01 X275.782 Y273.466
G01 X273.711 Y273.810
G01 X271.670 Y274.010
G01 X269.669 Y274.069
G01 X267.716 Y273.991
G01 X265.820 Y273.783
G01 X263.988 Y273.449
G01 X262.229 Y272.995
G01 X260.550 Y272.427
G01 X258.957 Y271.753
G01 X257.457 Y270.979
G01 X256.056 Y270.113
G01 X254.758 Y269.164
G01 X253.569 Y268.138
G01 X252.492 Y267.045
G01 X251.532 Y265.893
G01 X250.691 Y264.690
G01 X250.000 Y263.500
G01 X250.000 Y265.000
G01 X250.796 Y266.215
G01 X251.712 Y267.386
G01 X252.744 Y268.503
G01 X253.890 Y269.557
G01 X255.145 Y270.540
G01 X256.505 Y271.445
G01 X257.965 Y272.263
G01 X259.521 Y272.986
G01 X261.165 Y273.608
G01 X262.892 Y274.121
G01 X264.695 Y274.518
G01 X266.567 Y274.795
G01 X268.499 Y274.944
G01 X270.484 Y274.961
G01 X272.514 Y274.841
G01 X274.579 Y274.579
G01 X276.670 Y274.173
G01 X278.779 Y273.619
G01 X280.895 Y272.914
G01 X283.009 Y272.057
G01 X285.111 Y271.045
G01 X287.190 Y269.879
G01 X289.237 Y268.559
G01 X291.242 Y267.084
G01 X293.193 Y265.455
G01 X293.697 Y265.002
G01 X293.151 Y266.504
G01 X291.183 Y268.115
G01 X289.162 Y269.573
G01 X287.101 Y270.878
G01 X285.008 Y272.029
G01 X282.894 Y273.027
G01 X280.769 Y273.872
G01 X278.643 Y274.566
G01 X276.525 Y275.110
G01 X274.424 Y275.508
G01 X272.351 Y275.762
G01 X270.313 Y275.877
G01 X268.320 Y275.855
G01 X266.379 Y275.703
G01 X264.499 Y275.425
G01 X262.687 Y275.027
G01 X260.951 Y274.516
G01 X259.296 Y273.896
G01 X257.730 Y273.176
G01 X256.257 Y272.363
G01 X254.884 Y271.464
G01 X253.615 Y270.487
G01 X252.454 Y269.440
G01 X251.405 Y268.331
G01 X250.470 Y267.169
G01 X250.000 Y266.500
G01 X250.000 Y268.000
G01 X250.941 Y269.160
G01 X251.996 Y270.267
G01 X253.161 Y271.315
G01 X254.434 Y272.294
G01 X255.810 Y273.197
G01 X257.285 Y274.015
G01 X258.853 Y274.742
G01 X260.509 Y275.371
G01 X262.246 Y275.894
G01 X264.060 Y276.305
G01 X265.941 Y276.597
G01 X267.884 Y276.767
G01 X269.881 Y276.807
G01 X271.922 Y276.713
G01 X274.001 Y276.481
G01 X276.107 Y276.108
G01 X278.233 Y275.590
G01 X280.369 Y274.924
G01 X282.505 Y274.108
G01 X284.632 Y273.141
G01 X286.741 Y272.022
G01 X288.820 Y270.750
G01 X290.860 Y269.326
G01 X292.547 Y268.004
G01 X291.882 Y269.503
G01 X289.853 Y270.996
G01 X287.780 Y272.339
G01 X285.675 Y273.530
G01 X283.546 Y274.570
G01 X281.403 Y275.459
G01 X279.255 Y276.199
G01 X277.113 Y276.791
G01 X274.985 Y277.238
G01 X272.881 Y277.543
G01 X270.808 Y277.709
G01 X268.776 Y277.741
G01 X266.793 Y277.642
G01 X264.866 Y277.417
G01 X263.003 Y277.073
G01 X261.211 Y276.614
G01 X259.496 Y276.047
G01 X257.864 Y275.379
G01 X256.322 Y274.616
G01 X254.875 Y273.765
G01 X253.527 Y272.834
G01 X252.282 Y271.831
G01 X251.144 Y270.764
G01 X250.117 Y269.641
G01 X250.000 Y269.500
G01 X250.000 Y271.000
G01 X251.085 Y272.099
G01 X252.279 Y273.140
G01 X253.577 Y274.114
G01 X254.975 Y275.013
G01 X256.470 Y275.831
G01 X258.056 Y276.560
G01 X259.729 Y277.192
G01 X261.482 Y277.722
G01 X263.310 Y278.143
G01 X265.206 Y278.449
G01 X267.162 Y278.634
G01 X269.172 Y278.694
G01 X271.227 Y278.623
G01 X273.320 Y278.417
G01 X275.443 Y278.073
G01 X277.586 Y277.586
G01 X279.740 Y276.956
G01 X281.897 Y276.178
G01 X284.047 Y275.252
G01 X286.181 Y274.176
G01 X288.290 Y272.951
G01 X290.363 Y271.575
G01 X291.148 Y271.006
G01 X290.348 Y272.506
G01 X288.265 Y273.879
G01 X286.148 Y275.103
G01 X284.005 Y276.178
G01 X281.845 Y277.105
G01 X279.678 Y277.885
G01 X277.514 Y278.519
G01 X275.360 Y279.010
G01 X273.227 Y279.360
G01 X271.121 Y279.573
G01 X269.053 Y279.652
G01 X267.028 Y279.602
G01 X265.056 Y279.426
G01 X263.144 Y279.131
G01 X261.298 Y278.722
G01 X259.524 Y278.203
G01 X257.830 Y277.583
G01 X256.220 Y276.867
G01 X254.700 Y276.061
G01 X253.274 Y275.174
G01 X251.947 Y274.213
G01 X250.722 Y273.184
G01 X250.000 Y272.500
G01 X250.000 Y274.000
G01 X251.229 Y275.034
G01 X252.561 Y276.002
G01 X253.989 Y276.897
G01 X255.512 Y277.712
G01 X257.123 Y278.440
G01 X258.819 Y279.075
G01 X260.594 Y279.608
G01 X262.441 Y280.036
G01 X264.354 Y280.351
G01 X266.328 Y280.548
G01 X268.354 Y280.623
G01 X270.425 Y280.570
G01 X272.534 Y280.385
G01 X274.673 Y280.065
G01 X276.833 Y279.606
G01 X279.005 Y279.006
G01 X281.182 Y278.263
G01 X283.354 Y277.373
G01 X285.511 Y276.338
G01 X287.645 Y275.154
G01 X289.473 Y274.007
G01 X288.522 Y275.504
G01 X286.394 Y276.753
G01 X284.238 Y277.857
G01 X282.064 Y278.814
G01 X279.879 Y279.627
G01 X277.694 Y280.297
G01 X275.517 Y280.826
G01 X273.357 Y281.215
G01 X271.221 Y281.469
G01 X269.117 Y281.591
G01 X267.055 Y281.584
G01 X265.040 Y281.453
G01 X263.080 Y281.203
G01 X261.182 Y280.838
G01 X259.352 Y280.365
G01 X257.596 Y279.789
G01 X255.920 Y279.116
G01 X254.329 Y278.352
G01 X252.827 Y277.505
G01 X251.419 Y276.582
G01 X250.108 Y275.589
G01 X250.000 Y275.500
G01 X250.000 Y277.000
G01 X251.373 Y277.962
G01 X252.841 Y278.852
G01 X254.400 Y279.663
G01 X256.044 Y280.388
G01 X257.770 Y281.021
G01 X259.572 Y281.555
G01 X261.444 Y281.985
G01 X263.380 Y282.305
G01 X265.375 Y282.509
G01 X267.421 Y282.594
G01 X269.511 Y282.554
G01 X271.638 Y282.385
G01 X273.795 Y282.084
G01 X275.972 Y281.648
G01 X278.162 Y281.073
G01 X280.357 Y280.358
G01 X282.548 Y279.501
G01 X284.726 Y278.500
G01 X286.882 Y277.355
G01 X287.485 Y277.006
G01 X286.358 Y278.505
G01 X284.191 Y279.626
G01 X282.003 Y280.606
G01 X279.803 Y281.443
G01 X277.599 Y282.140
G01 X275.400 Y282.698
G01 X273.215 Y283.119
G01 X271.051 Y283.407
G01 X268.915 Y283.564
G01 X266.816 Y283.594
G01 X264.761 Y283.501
G01 X262.756 Y283.290
G01 X260.808 Y282.964
G01 X258.924 Y282.530
G01 X257.109 Y281.992
G01 X255.369 Y281.357
G01 X253.709 Y280.631
G01 X252.133 Y279.819
G01 X250.646 Y278.929
G01 X250.000 Y278.500
G01 X250.000 Y280.000
G01 X251.517 Y280.883
G01 X253.120 Y281.688
G01 X254.807 Y282.407
G01 X256.571 Y283.035
G01 X258.407 Y283.566
G01 X260.311 Y283.994
G01 X262.277 Y284.313
G01 X264.298 Y284.520
G01 X266.368 Y284.609
G01 X268.481 Y284.576
G01 X270.628 Y284.417
G01 X272.803 Y284.129
G01 X274.999 Y283.708
G01 X277.207 Y283.152
G01 X279.419 Y282.460
G01 X281.627 Y281.628
G01 X283.823 Y280.656
G01 X285.129 Y280.006
G01 X283.788 Y281.509
G01 X281.588 Y282.498
G01 X279.374 Y283.349
G01 X277.154 Y284.062
G01 X274.936 Y284.640
G01 X272.728 Y285.083
G01 X270.538 Y285.395
G01 X268.372 Y285.579
G01 X266.240 Y285.637
G01 X264.147 Y285.573
G01 X262.099 Y285.392
G01 X260.105 Y285.098
G01 X258.169 Y284.695
G01 X256.297 Y284.189
G01 X254.495 Y283.585
G01 X252.768 Y282.889
G01 X251.121 Y282.106
G01 X250.000 Y281.500
G01 X250.000 Y283.000
G01 X251.660 Y283.795
G01 X253.398 Y284.505
G01 X255.210 Y285.124
G01 X257.090 Y285.646
G01 X259.034 Y286.066
G01 X261.035 Y286.380
G01 X263.088 Y286.582
G01 X265.188 Y286.668
G01 X267.326 Y286.634
G01 X269.497 Y286.477
G01 X271.693 Y286.194
G01 X273.907 Y285.781
G01 X276.132 Y285.236
G01 X278.360 Y284.558
G01 X280.583 Y283.744
G01 X282.326 Y283.007
G01 X280.719 Y284.507
G01 X278.494 Y285.358
G01 X276.260 Y286.076
G01 X274.025 Y286.660
G01 X271.798 Y287.114
G01 X269.584 Y287.439
G01 X267.392 Y287.639
G01 X265.229 Y287.714
G01 X263.101 Y287.671
G01 X261.014 Y287.510
G01 X258.975 Y287.238
G01 X256.990 Y286.858
G01 X255.064 Y286.374
G01 X253.203 Y285.793
G01 X251.411 Y285.118
G01 X249.999 Y284.500
G01 X249.999 Y286.000
G01 X251.802 Y286.695
G01 X253.673 Y287.299
G01 X255.607 Y287.805
G01 X257.600 Y288.209
G01 X259.645 Y288.508
G01 X261.738 Y288.696
G01 X263.871 Y288.769
G01 X266.040 Y288.725
G01 X268.237 Y288.560
G01 X270.456 Y288.271
G01 X272.689 Y287.855
G01 X274.930 Y287.311
G01 X277.171 Y286.637
G01 X278.945 Y286.008
G01 X277.144 Y287.385
G01 X276.975 Y287.507
G01 X274.730 Y288.211
G01 X272.481 Y288.786
G01 X270.237 Y289.233
G01 X268.004 Y289.556
G01 X265.789 Y289.755
G01 X263.598 Y289.833
G01 X261.438 Y289.794
G01 X259.315 Y289.641
G01 X257.234 Y289.376
G01 X255.203 Y289.005
G01 X253.226 Y288.531
G01 X251.308 Y287.958
G01 X249.999 Y287.500
G01 X249.999 Y289.000
G01 X251.944 Y289.577
G01 X253.945 Y290.056
G01 X255.997 Y290.433
G01 X258.096 Y290.703
G01 X260.235 Y290.863
G01 X262.409 Y290.909
G01 X264.612 Y290.840
G01 X266.837 Y290.651
G01 X269.079 Y290.341
G01 X271.330 Y289.907
G01 X273.584 Y289.349
G01 X274.755 Y289.008
G01 X272.811 Y290.176
G01 X272.214 Y290.509
G01 X269.955 Y291.049
G01 X267.698 Y291.465
G01 X265.449 Y291.761
G01 X263.213 Y291.936
G01 X260.998 Y291.995
G01 X258.810 Y291.938
G01 X256.654 Y291.769
G01 X254.536 Y291.490
G01 X252.461 Y291.106
G01 X250.435 Y290.620
G01 X249.999 Y290.500
G01 X249.999 Y292.000
G01 X252.084 Y292.429
G01 X254.210 Y292.754
G01 X256.373 Y292.971
G01 X258.568 Y293.078
G01 X260.788 Y293.071
G01 X263.028 Y292.950
G01 X265.282 Y292.711
G01 X267.543 Y292.353
G01 X269.225 Y292.010
G01 X267.141 Y292.903
G01 X265.533 Y293.511
G01 X263.267 Y293.850
G01 X261.006 Y294.074
G01 X258.755 Y294.181
G01 X256.520 Y294.175
G01 X254.307 Y294.057
G01 X252.121 Y293.830
G01 X249.999 Y293.500
G01 X249.999 Y295.000
G01 X252.220 Y295.205
G01 X254.461 Y295.299
G01 X256.716 Y295.282
G01 X258.981 Y295.152
G01 X260.415 Y295.011
G01 X258.192 Y295.457
G01 X255.950 Y295.793
G01 X253.695 Y296.020
G01 X251.432 Y296.135
G01 X249.995 Y296.150
G01 X249.999 Y310.600
G01 X252.973 Y310.527
G01 X255.939 Y310.308
G01 X258.891 Y309.944
G01 X261.822 Y309.436
G01 X264.724 Y308.784
G01 X267.590 Y307.991
G01 X270.415 Y307.058
G01 X273.190 Y305.987
G01 X275.909 Y304.782
G01 X278.566 Y303.445
G01 X281.154 Y301.979
G01 X283.667 Y300.388
G01 X286.099 Y298.675
G01 X288.444 Y296.845
G01 X290.696 Y294.902
G01 X292.850 Y292.851
G01 X294.901 Y290.697
G01 X296.844 Y288.445
G01 X298.674 Y286.100
G01 X300.387 Y283.668
G01 X301.978 Y281.155
G01 X303.444 Y278.567
G01 X304.781 Y275.911
G01 X305.987 Y273.191
G01 X307.057 Y270.416
G01 X307.990 Y267.592
G01 X308.784 Y264.725
G01 X309.435 Y261.823
G01 X309.944 Y258.893
G01 X310.308 Y255.941
G01 X310.527 Y252.974
G01 X310.600 Y250.001
G01 X310.527 Y247.027
G01 X310.308 Y244.061
G01 X309.944 Y241.109
G01 X309.436 Y238.178
G01 X308.784 Y235.276
G01 X307.991 Y232.409
G01 X307.058 Y229.585
G01 X305.987 Y226.810
G01 X304.782 Y224.091
G01 X303.445 Y221.434
G01 X301.979 Y218.846
G01 X300.387 Y216.333
G01 X298.675 Y213.901
G01 X296.845 Y211.556
G01 X294.902 Y209.304
G01 X292.851 Y207.150
G01 X290.697 Y205.099
G01 X288.445 Y203.156
G01 X286.100 Y201.326
G01 X283.668 Y199.613
G01 X281.155 Y198.022
G01 X278.567 Y196.556
G01 X275.910 Y195.219
G01 X273.191 Y194.013
G01 X270.416 Y192.943
G01 X267.592 Y192.010
G01 X264.725 Y191.216
G01 X261.823 Y190.565
G01 X258.893 Y190.056
G01 X255.941 Y189.692
G01 X252.974 Y189.473
G01 X250.001 Y189.400
G01 X247.027 Y189.473
G01 X244.061 Y189.692
G01 X241.109 Y190.056
G01 X238.178 Y190.564
G01 X235.276 Y191.216
G01 X232.409 Y192.009
G01 X229.585 Y192.942
G01 X226.810 Y194.013
G01 X224.091 Y195.218
G01 X221.434 Y196.555
G01 X218.846 Y198.021
G01 X216.333 Y199.613
G01 X213.901 Y201.325
G01 X211.556 Y203.155
G01 X209.304 Y205.098
G01 X207.150 Y207.149
G01 X205.099 Y209.303
G01 X203.156 Y211.555
G01 X201.326 Y213.900
G01 X199.613 Y216.332
G01 X198.022 Y218.845
G01 X196.556 Y221.433
G01 X195.218 Y224.090
G01 X194.013 Y226.809
G01 X192.943 Y229.584
G01 X192.010 Y232.408
G01 X191.216 Y235.275
G01 X190.564 Y238.177
G01 X190.056 Y241.108
G01 X189.692 Y244.060
G01 X189.473 Y247.026
G01 X189.400 Y250.000
G01 X189.473 Y252.973
G01 X189.692 Y255.940
G01 X190.056 Y258.892
G01 X190.564 Y261.822
G01 X191.216 Y264.724
G01 X192.009 Y267.591
G01 X192.942 Y270.415
G01 X194.013 Y273.190
G01 X195.218 Y275.910
G01 X196.555 Y278.566
G01 X198.022 Y281.154
G01 X199.613 Y283.667
G01 X201.325 Y286.099
G01 X203.155 Y288.444
G01 X205.098 Y290.696
G01 X207.149 Y292.851
G01 X209.303 Y294.901
G01 X211.556 Y296.844
G01 X213.900 Y298.674
G01 X216.332 Y300.387
G01 X218.845 Y301.978
G01 X221.433 Y303.444
G01 X224.090 Y304.782
G01 X226.809 Y305.987
G01 X229.584 Y307.057
G01 X232.409 Y307.991
G01 X235.275 Y308.784
G01 X238.177 Y309.436
G01 X241.108 Y309.944
G01 X244.060 Y310.308
G01 X247.026 Y310.527
G01 X250.000 Y310.600
G01 X250.000 Y324.800
G01 X250.000 Y369.450
G01 X246.262 Y369.391
G01 X247.642 Y325.313
G01 X245.279 Y325.202
G01 X242.515 Y369.215
G01 X238.776 Y368.922
G01 X242.920 Y325.017
G01 X240.568 Y324.757
G01 X235.048 Y368.511
G01 X231.335 Y367.983
G01 X238.226 Y324.424
G01 X235.895 Y324.018
G01 X227.629 Y367.336
G01 X223.956 Y366.576
G01 X233.578 Y323.539
G01 X231.278 Y322.987
G01 X220.309 Y365.701
G01 X216.691 Y364.712
G01 X228.996 Y322.363
G01 X226.734 Y321.668
G01 X213.106 Y363.610
G01 X209.557 Y362.395
G01 X224.496 Y320.902
G01 X222.282 Y320.067
G01 X206.049 Y361.070
G01 X202.583 Y359.636
G01 X220.096 Y319.162
G01 X217.940 Y318.189
G01 X199.165 Y358.093
G01 X195.796 Y356.444
G01 X215.815 Y317.149
G01 X213.735 Y316.021
G01 X192.481 Y354.689
G01 X189.213 Y352.826
G01 X211.680 Y314.850
G01 X209.663 Y313.615
G01 X186.014 Y350.867
G01 X182.879 Y348.808
G01 X207.680 Y312.313
G01 X205.744 Y310.953
G01 X179.810 Y346.652
G01 X176.810 Y344.401
G01 X203.853 Y309.534
G01 X202.006 Y308.056
G01 X173.883 Y342.057
G01 X171.030 Y339.622
G01 X200.207 Y306.520
G01 X198.457 Y304.929
G01 X168.255 Y337.098
G01 X165.553 Y334.481
G01 X196.758 Y303.284
G01 X195.112 Y301.586
G01 X162.942 Y331.788
G01 X160.417 Y329.014
G01 X193.519 Y299.838
G01 X191.983 Y298.040
G01 X157.981 Y326.163
G01 X155.635 Y323.236
G01 X190.498 Y296.189
G01 X189.078 Y294.298
G01 X153.382 Y320.238
G01 X151.246 Y317.156
G01 X187.717 Y292.363
G01 X186.418 Y290.387
G01 X149.186 Y314.022
G01 X147.220 Y310.815
G01 X185.181 Y288.371
G01 X184.030 Y286.305
G01 X145.361 Y307.559
G01 X143.606 Y304.245
G01 X182.923 Y284.216
G01 X181.882 Y282.093
G01 X141.955 Y300.878
G01 X140.411 Y297.461
G01 X180.905 Y279.932
G01 X179.999 Y277.748
G01 X138.975 Y293.997
G01 X137.644 Y290.479
G01 X179.162 Y275.537
G01 X178.396 Y273.300
G01 X136.429 Y286.931
G01 X135.325 Y283.348
G01 X177.699 Y271.041
G01 X177.074 Y268.761
G01 X134.335 Y279.731
G01 X133.459 Y276.085
G01 X176.520 Y266.454
G01 X176.039 Y264.139
G01 X132.697 Y272.413
G01 X132.049 Y268.708
G01 X175.632 Y261.811
G01 X175.298 Y259.470
G01 X131.520 Y264.995
G01 X131.108 Y261.268
G01 X175.037 Y257.120
G01 X174.850 Y254.756
G01 X130.813 Y257.530
G01 X130.635 Y253.785
G01 X174.738 Y252.394
G01 X174.700 Y250.030
G01 X130.575 Y250.035
G01 X130.633 Y246.274
G01 X174.711 Y247.665
G01 X174.822 Y245.302
G01 X130.809 Y242.528
G01 X131.102 Y238.790
G01 X175.032 Y242.939
G01 X175.290 Y240.589
G01 X131.513 Y235.063
G01 X132.040 Y231.350
G01 X175.623 Y238.248
G01 X176.028 Y235.919
G01 X132.686 Y227.644
G01 X133.470 Y223.978
G01 X176.507 Y233.604
G01 X177.060 Y231.297
G01 X134.345 Y220.332
G01 X135.333 Y216.716
G01 X177.683 Y229.017
G01 X178.377 Y226.756
G01 X136.434 Y213.132
G01 X137.652 Y209.574
G01 X179.142 Y224.519
G01 X179.980 Y222.300
G01 X138.976 Y206.067
G01 X140.410 Y202.603
G01 X180.884 Y220.116
G01 X181.856 Y217.961
G01 X141.953 Y199.186
G01 X143.606 Y195.808
G01 X182.896 Y215.837
G01 X184.005 Y213.741
G01 X145.360 Y192.494
G01 X147.217 Y189.238
G01 X185.176 Y211.686
G01 X186.411 Y209.670
G01 X149.176 Y186.041
G01 X151.233 Y182.907
G01 X187.733 Y207.702
G01 X189.092 Y205.768
G01 X153.395 Y179.830
G01 X155.646 Y176.831
G01 X190.510 Y203.877
G01 X191.988 Y202.032
G01 X157.990 Y173.905
G01 X160.424 Y171.054
G01 X193.527 Y200.229
G01 X195.118 Y198.481
G01 X162.955 Y168.272
G01 X165.563 Y165.579
G01 X196.762 Y196.783
G01 X198.459 Y195.138
G01 X168.255 Y162.970
G01 X171.028 Y160.447
G01 X200.213 Y193.542
G01 X202.010 Y192.006
G01 X173.888 Y158.004
G01 X176.813 Y155.660
G01 X203.854 Y190.528
G01 X205.750 Y189.105
G01 X179.811 Y153.409
G01 X182.878 Y151.253
G01 X207.684 Y187.745
G01 X209.659 Y186.447
G01 X186.012 Y149.194
G01 X189.218 Y147.229
G01 X211.674 Y185.212
G01 X213.733 Y184.037
G01 X192.475 Y145.371
G01 X195.788 Y143.617
G01 X215.822 Y182.931
G01 X217.945 Y181.891
G01 X199.154 Y141.967
G01 X202.582 Y140.419
G01 X220.106 Y180.916
G01 X222.289 Y180.011
G01 X206.046 Y138.985
G01 X209.553 Y137.660
G01 X224.500 Y179.176
G01 X226.744 Y178.408
G01 X213.100 Y136.445
G01 X216.694 Y135.339
G01 X229.003 Y177.713
G01 X231.282 Y177.089
G01 X220.310 Y134.350
G01 X223.956 Y133.475
G01 X233.581 Y176.538
G01 X235.902 Y176.057
G01 X227.627 Y132.715
G01 X231.332 Y132.068
G01 X238.231 Y175.651
G01 X240.571 Y175.318
G01 X235.044 Y131.540
G01 X238.770 Y131.129
G01 X242.928 Y175.058
G01 X245.284 Y174.873
G01 X242.507 Y130.835
G01 X246.264 Y130.658
G01 X247.645 Y174.762
G01 X250.008 Y174.725
G01 X250.013 Y130.600
G01 X253.761 Y130.659
G01 X252.380 Y174.738
G01 X254.741 Y174.849
G01 X257.506 Y130.836
G01 X261.256 Y131.132
G01 X257.098 Y175.035
G01 X259.456 Y175.296
G01 X264.982 Y131.544
G01 X268.693 Y132.072
G01 X261.796 Y175.630
G01 X264.125 Y176.037
G01 X272.386 Y132.717
G01 X276.069 Y133.481
G01 X266.441 Y176.517
G01 X268.747 Y177.071
G01 X279.714 Y134.357
G01 X283.330 Y135.346
G01 X271.027 Y177.695
G01 X273.287 Y178.391
G01 X286.913 Y136.449
G01 X290.460 Y137.664
G01 X275.523 Y179.158
G01 X277.742 Y179.997
G01 X293.978 Y138.994
G01 X297.441 Y140.430
G01 X279.926 Y180.902
G01 X282.081 Y181.876
G01 X300.858 Y141.973
G01 X304.224 Y143.623
G01 X284.203 Y182.916
G01 X286.299 Y184.027
G01 X307.548 Y145.384
G01 X310.804 Y147.242
G01 X288.353 Y185.199
G01 X290.368 Y186.435
G01 X314.000 Y149.201
G01 X317.133 Y151.260
G01 X292.344 Y187.734
G01 X294.284 Y189.098
G01 X320.200 Y153.417
G01 X323.207 Y155.675
G01 X296.174 Y190.519
G01 X298.019 Y191.997
G01 X326.148 Y158.001
G01 X328.999 Y160.437
G01 X299.816 Y193.534
G01 X301.570 Y195.131
G01 X331.772 Y162.961
G01 X334.464 Y165.571
G01 X303.267 Y196.777
G01 X304.912 Y198.475
G01 X337.081 Y168.273
G01 X339.604 Y171.048
G01 X306.502 Y200.225
G01 X308.037 Y202.023
G01 X342.038 Y173.900
G01 X344.382 Y176.827
G01 X309.519 Y203.875
G01 X310.938 Y205.766
G01 X346.633 Y179.826
G01 X348.788 Y182.894
G01 X312.297 Y207.701
G01 X313.594 Y209.678
G01 X350.853 Y186.039
G01 X352.811 Y189.237
G01 X314.829 Y211.694
G01 X316.003 Y213.755
G01 X354.668 Y192.494
G01 X356.422 Y195.809
G01 X317.108 Y215.845
G01 X318.147 Y217.968
G01 X358.071 Y199.177
G01 X359.618 Y202.605
G01 X319.119 Y220.124
G01 X320.023 Y222.308
G01 X361.052 Y206.070
G01 X362.376 Y209.578
G01 X320.858 Y224.520
G01 X321.625 Y226.765
G01 X363.590 Y213.126
G01 X364.692 Y216.711
G01 X322.320 Y229.025
G01 X322.943 Y231.306
G01 X365.680 Y220.328
G01 X366.555 Y223.974
G01 X323.493 Y233.605
G01 X323.997 Y235.916
G01 X367.317 Y227.658
G01 X367.960 Y231.352
G01 X324.402 Y238.246
G01 X324.735 Y240.587
G01 X368.487 Y235.065
G01 X368.923 Y238.790
G01 X324.994 Y242.946
G01 X325.178 Y245.304
G01 X369.216 Y242.529
G01 X369.392 Y246.275
G01 X325.289 Y247.666
G01 X325.325 Y250.031
G01 X369.450 Y250.025
G01 X369.390 Y253.787
G01 X325.312 Y252.397
G01 X325.200 Y254.760
G01 X369.212 Y257.534
G01 X368.917 Y261.273
G01 X325.013 Y257.118
G01 X324.753 Y259.470
G01 X368.504 Y265.000
G01 X367.975 Y268.713
G01 X324.418 Y261.812
G01 X324.009 Y264.150
G01 X367.329 Y272.408
G01 X366.568 Y276.080
G01 X323.529 Y266.466
G01 X322.976 Y268.767
G01 X365.692 Y279.727
G01 X364.701 Y283.345
G01 X322.350 Y271.049
G01 X321.654 Y273.310
G01 X363.594 Y286.941
G01 X362.379 Y290.489
G01 X320.887 Y275.548
G01 X320.050 Y277.761
G01 X361.052 Y293.997
G01 X359.616 Y297.462
G01 X319.144 Y279.946
G01 X318.169 Y282.102
G01 X358.072 Y300.880
G01 X356.421 Y304.247
G01 X317.128 Y284.226
G01 X316.020 Y286.317
G01 X354.666 Y307.562
G01 X352.807 Y310.819
G01 X314.848 Y288.372
G01 X313.611 Y290.389
G01 X350.847 Y314.017
G01 X348.787 Y317.152
G01 X312.312 Y292.366
G01 X310.951 Y294.301
G01 X346.624 Y320.230
G01 X344.371 Y323.228
G01 X309.530 Y296.193
G01 X308.046 Y298.045
G01 X342.026 Y326.155
G01 X339.589 Y329.007
G01 X306.509 Y299.844
G01 X304.916 Y301.593
G01 X337.065 Y331.780
G01 X334.454 Y334.473
G01 X303.269 Y303.292
G01 X301.570 Y304.938
G01 X331.761 Y337.083
G01 X328.986 Y339.607
G01 X299.820 Y306.530
G01 X298.020 Y308.066
G01 X326.134 Y342.043
G01 X323.207 Y344.388
G01 X296.174 Y309.545
G01 X294.281 Y310.965
G01 X320.208 Y346.639
G01 X317.139 Y348.796
G01 X292.346 Y312.325
G01 X290.368 Y313.624
G01 X313.994 Y350.861
G01 X310.796 Y352.821
G01 X288.351 Y314.860
G01 X286.296 Y316.032
G01 X307.538 Y354.679
G01 X304.223 Y356.434
G01 X284.205 Y317.139
G01 X282.080 Y318.180
G01 X300.855 Y358.084
G01 X297.437 Y359.627
G01 X279.924 Y319.153
G01 X277.738 Y320.059
G01 X293.972 Y361.062
G01 X290.463 Y362.388
G01 X275.525 Y320.895
G01 X273.286 Y321.662
G01 X286.915 Y363.603
G01 X283.330 Y364.706
G01 X271.025 Y322.357
G01 X268.743 Y322.982
G01 X279.713 Y365.696
G01 X276.066 Y366.571
G01 X266.443 Y323.534
G01 X264.126 Y324.014
G01 X272.393 Y367.332
G01 X268.687 Y367.979
G01 X261.795 Y324.421
G01 X259.453 Y324.755
G01 X264.974 Y368.508
G01 X261.246 Y368.919
G01 X257.101 Y325.015
G01 X254.743 Y325.201
G01 X257.507 Y369.214
G01 X253.760 Y369.391
G01 X252.380 Y325.312
G01 X250.014 Y325.350
G01 X251.382 Y369.267
G01 X249.998 Y369.450
G01 X249.998 Y378.175
G01 X256.287 Y378.016
G01 X262.561 Y377.549
G01 X268.803 Y376.774
G01 X275.000 Y375.694
G01 X281.136 Y374.311
G01 X287.197 Y372.629
G01 X293.168 Y370.652
G01 X299.034 Y368.384
G01 X304.782 Y365.831
G01 X310.398 Y363.000
G01 X315.867 Y359.896
G01 X321.177 Y356.528
G01 X326.316 Y352.903
G01 X331.270 Y349.031
G01 X336.028 Y344.921
G01 X340.579 Y340.582
G01 X344.911 Y336.025
G01 X349.014 Y331.261
G01 X352.878 Y326.302
G01 X356.495 Y321.160
G01 X359.854 Y315.846
G01 X362.948 Y310.374
G01 X365.771 Y304.757
G01 X368.314 Y299.009
G01 X370.571 Y293.143
G01 X372.539 Y287.174
G01 X374.211 Y281.115
G01 X375.583 Y274.982
G01 X376.653 Y268.789
G01 X377.418 Y262.551
G01 X377.875 Y256.284
G01 X378.025 Y250.002
G01 X377.876 Y243.719
G01 X377.418 Y237.452
G01 X376.653 Y231.214
G01 X375.584 Y225.021
G01 X374.211 Y218.888
G01 X372.540 Y212.829
G01 X370.573 Y206.860
G01 X368.315 Y200.994
G01 X365.772 Y195.246
G01 X362.950 Y189.629
G01 X359.856 Y184.157
G01 X356.496 Y178.843
G01 X352.880 Y173.700
G01 X349.016 Y168.741
G01 X344.913 Y163.978
G01 X340.581 Y159.421
G01 X336.031 Y155.082
G01 X331.273 Y150.971
G01 X326.319 Y147.099
G01 X321.180 Y143.474
G01 X315.870 Y140.106
G01 X310.400 Y137.002
G01 X304.785 Y134.170
G01 X299.037 Y131.617
G01 X293.171 Y129.349
G01 X287.200 Y127.372
G01 X281.140 Y125.689
G01 X275.003 Y124.307
G01 X268.806 Y123.227
G01 X262.564 Y122.452
G01 X256.290 Y121.984
G01 X250.001 Y121.825
G01 X249.847 Y121.825
G01 X243.558 Y121.982
G01 X237.284 Y122.448
G01 X231.040 Y123.221
G01 X224.841 Y124.299
G01 X218.702 Y125.681
G01 X212.638 Y127.362
G01 X206.664 Y129.338
G01 X200.794 Y131.606
G01 X195.042 Y134.158
G01 X189.422 Y136.991
G01 X183.947 Y140.095
G01 X178.631 Y143.465
G01 X173.487 Y147.091
G01 X168.527 Y150.966
G01 X163.762 Y155.079
G01 X159.205 Y159.422
G01 X154.867 Y163.983
G01 X150.757 Y168.751
G01 X146.886 Y173.716
G01 X143.263 Y178.865
G01 X139.898 Y184.186
G01 X136.797 Y189.665
G01 X133.968 Y195.290
G01 X131.419 Y201.048
G01 X129.156 Y206.924
G01 X127.183 Y212.904
G01 X125.506 Y218.974
G01 X124.129 Y225.119
G01 X123.055 Y231.324
G01 X122.287 Y237.575
G01 X121.827 Y243.856
G01 X121.675 Y250.000
G01 X121.834 Y256.296
G01 X122.302 Y262.577
G01 X123.078 Y268.827
G01 X124.159 Y275.031
G01 X125.543 Y281.174
G01 X127.227 Y287.242
G01 X129.207 Y293.220
G01 X131.478 Y299.093
G01 X134.034 Y304.848
G01 X136.869 Y310.469
G01 X139.976 Y315.945
G01 X143.348 Y321.262
G01 X146.977 Y326.406
G01 X150.854 Y331.367
G01 X154.969 Y336.130
G01 X159.313 Y340.686
G01 X163.875 Y345.023
G01 X168.645 Y349.131
G01 X173.610 Y353.000
G01 X178.758 Y356.620
G01 X184.078 Y359.983
G01 X189.556 Y363.081
G01 X195.180 Y365.907
G01 X200.935 Y368.453
G01 X206.808 Y370.713
G01 X212.784 Y372.683
G01 X218.850 Y374.356
G01 X224.990 Y375.730
G01 X231.190 Y376.802
G01 X237.435 Y377.567
G01 X243.710 Y378.025
G01 X250.000 Y378.175
G01 X250.000 Y387.075
G01 X250.055 Y388.325
G01 X248.702 Y389.569
G01 X247.137 Y391.021
G01 X245.759 Y392.262
G01 X244.565 Y393.322
G01 X243.067 Y394.634
G01 X241.265 Y396.139
G01 X238.712 Y398.246
G01 X236.380 Y400.083
G01 X234.555 Y401.490
G01 X232.038 Y403.352
G01 X229.507 Y405.178
G01 X228.230 Y406.064
G01 X226.006 Y407.584
G01 X223.025 Y409.536
G01 X220.383 Y411.202
G01 X219.068 Y411.973
G01 X217.752 Y412.761
G01 X220.383 Y411.202
G01 X223.025 Y409.536
G01 X225.645 Y407.832
G01 X228.230 Y406.064
G01 X230.770 Y404.281
G01 X233.303 Y402.438
G01 X235.793 Y400.531
G01 X238.250 Y398.611
G01 X240.675 Y396.654
G01 X243.067 Y394.634
G01 X245.422 Y392.577
G01 X247.738 Y390.482
G01 X250.055 Y388.325
G01 X252.900 Y389.420
G01 X255.822 Y390.554
G01 X258.748 Y391.605
G01 X261.707 Y392.620
G01 X264.681 Y393.576
G01 X267.673 Y394.498
G01 X270.677 Y395.362
G01 X273.693 Y396.167
G01 X276.719 Y396.915
G01 X279.757 Y397.631
G01 X282.817 Y398.287
G01 X285.883 Y398.887
G01 X288.953 Y399.431
G01 X292.040 Y399.917
G01 X295.135 Y400.372
G01 X298.238 Y400.745
G01 X301.347 Y401.088
G01 X304.453 Y401.379
G01 X307.570 Y401.613
G01 X310.688 Y401.766
G01 X313.807 Y401.892
G01 X316.934 Y401.962
G01 X320.052 Y401.983
G01 X323.175 Y401.948
G01 X326.002 Y401.869
G01 X325.803 Y402.080
G01 X324.611 Y403.475
G01 X323.298 Y403.497
G01 X320.179 Y403.548
G01 X317.053 Y403.520
G01 X313.928 Y403.467
G01 X310.809 Y403.359
G01 X307.689 Y403.171
G01 X304.571 Y402.957
G01 X301.464 Y402.685
G01 X298.360 Y402.333
G01 X295.262 Y401.952
G01 X292.162 Y401.518
G01 X289.079 Y401.026
G01 X286.002 Y400.504
G01 X282.938 Y399.899
G01 X279.884 Y399.263
G01 X276.836 Y398.571
G01 X273.810 Y397.820
G01 X270.777 Y397.014
G01 X267.771 Y396.149
G01 X264.794 Y395.249
G01 X261.815 Y394.292
G01 X258.853 Y393.302
G01 X255.907 Y392.252
G01 X252.993 Y391.143
G01 X250.420 Y390.124
G01 X250.154 Y390.375
G01 X247.863 Y392.484
G01 X245.532 Y394.556
G01 X243.164 Y396.591
G01 X240.761 Y398.588
G01 X238.324 Y400.548
G01 X235.856 Y402.470
G01 X233.345 Y404.329
G01 X230.823 Y406.152
G01 X228.259 Y407.936
G01 X225.654 Y409.680
G01 X223.027 Y411.387
G01 X220.384 Y413.032
G01 X219.086 Y413.834
G01 X220.393 Y414.761
G01 X220.466 Y414.825
G01 X223.037 Y413.238
G01 X225.666 Y411.553
G01 X228.278 Y409.805
G01 X230.847 Y408.044
G01 X233.392 Y406.245
G01 X235.912 Y404.384
G01 X238.389 Y402.484
G01 X240.835 Y400.546
G01 X243.251 Y398.547
G01 X245.632 Y396.535
G01 X247.977 Y394.486
G01 X250.299 Y392.375
G01 X250.752 Y391.948
G01 X253.072 Y392.842
G01 X256.006 Y393.950
G01 X258.942 Y394.975
G01 X261.910 Y395.990
G01 X264.890 Y396.922
G01 X267.884 Y397.822
G01 X270.889 Y398.665
G01 X273.919 Y399.448
G01 X276.944 Y400.202
G01 X279.987 Y400.874
G01 X283.055 Y401.511
G01 X286.110 Y402.097
G01 X289.205 Y402.646
G01 X292.278 Y403.120
G01 X295.374 Y403.562
G01 X298.475 Y403.922
G01 X301.581 Y404.254
G01 X304.698 Y404.530
G01 X307.809 Y404.755
G01 X310.929 Y404.925
G01 X314.056 Y405.038
G01 X317.173 Y405.104
G01 X320.296 Y405.115
G01 X323.136 Y405.069
G01 X322.930 Y405.276
G01 X321.576 Y406.647
G01 X320.378 Y406.669
G01 X317.249 Y406.650
G01 X314.134 Y406.601
G01 X311.015 Y406.475
G01 X307.896 Y406.323
G01 X304.777 Y406.093
G01 X301.675 Y405.830
G01 X298.568 Y405.518
G01 X295.465 Y405.125
G01 X292.366 Y404.704
G01 X289.282 Y404.226
G01 X286.197 Y403.695
G01 X283.135 Y403.131
G01 X280.070 Y402.488
G01 X277.030 Y401.813
G01 X273.979 Y401.084
G01 X270.965 Y400.295
G01 X267.945 Y399.452
G01 X264.952 Y398.575
G01 X261.970 Y397.641
G01 X259.016 Y396.648
G01 X256.061 Y395.624
G01 X253.137 Y394.541
G01 X251.093 Y393.771
G01 X250.404 Y394.399
G01 X248.081 Y396.487
G01 X245.721 Y398.538
G01 X243.327 Y400.527
G01 X240.885 Y402.503
G01 X238.428 Y404.417
G01 X235.943 Y406.294
G01 X233.412 Y408.157
G01 X230.861 Y409.934
G01 X228.284 Y411.698
G01 X225.669 Y413.424
G01 X223.020 Y415.085
G01 X221.863 Y415.804
G01 X223.275 Y416.772
G01 X223.316 Y416.728
G01 X225.961 Y415.084
G01 X228.591 Y413.378
G01 X231.166 Y411.631
G01 X233.735 Y409.850
G01 X236.267 Y408.004
G01 X238.771 Y406.122
G01 X241.231 Y404.226
G01 X243.677 Y402.269
G01 X246.077 Y400.274
G01 X248.443 Y398.242
G01 X250.789 Y396.173
G01 X251.441 Y395.568
G01 X253.528 Y396.357
G01 X256.462 Y397.433
G01 X259.424 Y398.451
G01 X262.385 Y399.413
G01 X265.373 Y400.341
G01 X268.371 Y401.213
G01 X271.393 Y402.027
G01 X274.421 Y402.786
G01 X277.459 Y403.513
G01 X280.502 Y404.187
G01 X283.562 Y404.804
G01 X286.640 Y405.363
G01 X289.723 Y405.894
G01 X292.815 Y406.343
G01 X295.911 Y406.765
G01 X299.004 Y407.136
G01 X302.124 Y407.446
G01 X305.237 Y407.706
G01 X308.343 Y407.917
G01 X311.472 Y408.067
G01 X314.592 Y408.170
G01 X317.716 Y408.218
G01 X319.926 Y408.238
G01 X319.260 Y408.831
G01 X318.179 Y409.787
G01 X316.495 Y409.764
G01 X313.366 Y409.714
G01 X310.249 Y409.580
G01 X307.122 Y409.399
G01 X304.010 Y409.187
G01 X300.899 Y408.897
G01 X297.805 Y408.576
G01 X294.699 Y408.181
G01 X291.596 Y407.758
G01 X288.521 Y407.276
G01 X285.430 Y406.746
G01 X282.370 Y406.155
G01 X279.316 Y405.536
G01 X276.260 Y404.839
G01 X273.228 Y404.109
G01 X270.201 Y403.325
G01 X267.196 Y402.483
G01 X264.187 Y401.613
G01 X261.216 Y400.683
G01 X258.242 Y399.698
G01 X255.295 Y398.681
G01 X252.362 Y397.606
G01 X251.768 Y397.364
G01 X249.911 Y399.025
G01 X247.552 Y401.080
G01 X245.146 Y403.073
G01 X242.724 Y405.029
G01 X240.257 Y406.948
G01 X237.762 Y408.829
G01 X235.241 Y410.674
G01 X232.696 Y412.481
G01 X230.114 Y414.225
G01 X227.493 Y415.956
G01 X224.855 Y417.624
G01 X224.702 Y417.728
G01 X226.128 Y418.669
G01 X227.163 Y418.005
G01 X229.793 Y416.327
G01 X232.388 Y414.585
G01 X234.947 Y412.806
G01 X237.498 Y410.990
G01 X239.995 Y409.111
G01 X242.479 Y407.220
G01 X244.921 Y405.267
G01 X247.332 Y403.302
G01 X249.713 Y401.275
G01 X252.059 Y399.211
G01 X252.118 Y399.160
G01 X254.989 Y400.217
G01 X257.932 Y401.242
G01 X260.903 Y402.235
G01 X263.882 Y403.147
G01 X266.887 Y404.027
G01 X269.899 Y404.852
G01 X272.919 Y405.647
G01 X275.960 Y406.385
G01 X279.004 Y407.070
G01 X282.065 Y407.698
G01 X285.127 Y408.274
G01 X288.210 Y408.818
G01 X291.300 Y409.283
G01 X294.393 Y409.720
G01 X297.482 Y410.108
G01 X300.597 Y410.436
G01 X303.705 Y410.714
G01 X306.821 Y410.939
G01 X309.937 Y411.139
G01 X313.065 Y411.257
G01 X316.182 Y411.327
G01 X316.340 Y411.344
G01 X314.388 Y412.859
G01 X313.891 Y412.839
G01 X310.767 Y412.724
G01 X307.648 Y412.556
G01 X304.544 Y412.358
G01 X301.422 Y412.089
G01 X298.308 Y411.766
G01 X295.211 Y411.413
G01 X292.119 Y410.981
G01 X289.028 Y410.524
G01 X285.950 Y410.011
G01 X282.870 Y409.447
G01 X279.805 Y408.828
G01 X276.757 Y408.152
G01 X273.716 Y407.449
G01 X270.692 Y406.690
G01 X267.674 Y405.876
G01 X264.676 Y405.007
G01 X261.688 Y404.107
G01 X258.708 Y403.153
G01 X255.754 Y402.141
G01 X252.811 Y401.099
G01 X252.446 Y400.955
G01 X250.382 Y402.750
G01 X248.003 Y404.787
G01 X245.578 Y406.763
G01 X243.124 Y408.701
G01 X240.644 Y410.578
G01 X238.137 Y412.442
G01 X235.590 Y414.269
G01 X233.022 Y416.034
G01 X230.435 Y417.763
G01 X227.795 Y419.451
G01 X227.585 Y419.600
G01 X229.041 Y420.517
G01 X230.013 Y419.903
G01 X232.613 Y418.204
G01 X235.198 Y416.443
G01 X237.761 Y414.646
G01 X240.285 Y412.810
G01 X242.785 Y410.938
G01 X245.244 Y409.004
G01 X247.691 Y407.058
G01 X250.093 Y405.050
G01 X252.464 Y403.030
G01 X252.780 Y402.750
G01 X255.319 Y403.658
G01 X258.282 Y404.653
G01 X261.255 Y405.619
G01 X264.236 Y406.529
G01 X267.239 Y407.384
G01 X270.262 Y408.183
G01 X273.292 Y408.952
G01 X276.325 Y409.669
G01 X279.374 Y410.331
G01 X282.444 Y410.963
G01 X285.508 Y411.518
G01 X288.591 Y412.043
G01 X291.687 Y412.514
G01 X294.778 Y412.934
G01 X297.879 Y413.301
G01 X300.988 Y413.614
G01 X304.106 Y413.874
G01 X307.222 Y414.110
G01 X310.336 Y414.270
G01 X312.299 Y414.364
G01 X311.358 Y415.011
G01 X310.097 Y415.821
G01 X308.478 Y415.736
G01 X305.355 Y415.540
G01 X302.238 Y415.292
G01 X299.128 Y414.991
G01 X296.033 Y414.662
G01 X292.924 Y414.259
G01 X289.841 Y413.799
G01 X286.744 Y413.318
G01 X283.675 Y412.778
G01 X280.604 Y412.188
G01 X277.547 Y411.543
G01 X274.507 Y410.844
G01 X271.471 Y410.117
G01 X268.453 Y409.335
G01 X265.439 Y408.500
G01 X262.445 Y407.609
G01 X259.460 Y406.690
G01 X256.497 Y405.715
G01 X253.543 Y404.684
G01 X253.122 Y404.518
G01 X251.078 Y406.271
G01 X248.686 Y408.270
G01 X246.250 Y410.206
G01 X243.771 Y412.130
G01 X241.282 Y414.018
G01 X238.755 Y415.844
G01 X236.204 Y417.658
G01 X233.618 Y419.410
G01 X231.013 Y421.125
G01 X230.529 Y421.423
G01 X232.012 Y422.339
G01 X232.685 Y421.880
G01 X235.295 Y420.166
G01 X237.872 Y418.389
G01 X240.411 Y416.574
G01 X242.929 Y414.723
G01 X245.423 Y412.836
G01 X247.876 Y410.911
G01 X250.302 Y408.950
G01 X252.700 Y406.952
G01 X253.455 Y406.312
G01 X255.466 Y407.005
G01 X258.429 Y408.000
G01 X261.416 Y408.941
G01 X264.407 Y409.827
G01 X267.403 Y410.660
G01 X270.436 Y411.462
G01 X273.471 Y412.211
G01 X276.507 Y412.908
G01 X279.563 Y413.575
G01 X282.629 Y414.164
G01 X285.696 Y414.727
G01 X288.793 Y415.232
G01 X291.867 Y415.692
G01 X294.968 Y416.095
G01 X298.085 Y416.469
G01 X301.187 Y416.771
G01 X304.295 Y417.022
G01 X307.416 Y417.244
G01 X307.741 Y417.264
G01 X305.305 Y418.638
G01 X305.221 Y418.665
G01 X302.192 Y418.424
G01 X299.077 Y418.134
G01 X295.985 Y417.788
G01 X292.869 Y417.398
G01 X289.784 Y416.976
G01 X286.703 Y416.477
G01 X283.623 Y415.953
G01 X280.550 Y415.351
G01 X277.496 Y414.721
G01 X274.440 Y414.039
G01 X271.403 Y413.329
G01 X268.380 Y412.539
G01 X265.361 Y411.722
G01 X262.361 Y410.851
G01 X259.382 Y409.925
G01 X256.410 Y408.971
G01 X253.779 Y408.080
G01 X253.515 Y408.311
G01 X251.122 Y410.296
G01 X248.686 Y412.270
G01 X246.223 Y414.182
G01 X243.736 Y416.082
G01 X241.227 Y417.921
G01 X238.678 Y419.748
G01 X236.094 Y421.512
G01 X233.512 Y423.217
G01 X233.529 Y423.219
G01 X235.027 Y424.082
G01 X236.191 Y423.326
G01 X238.781 Y421.559
G01 X241.334 Y419.779
G01 X243.868 Y417.938
G01 X246.363 Y416.060
G01 X248.835 Y414.146
G01 X251.265 Y412.195
G01 X253.685 Y410.208
G01 X254.109 Y409.847
G01 X256.543 Y410.667
G01 X259.514 Y411.620
G01 X262.506 Y412.520
G01 X265.503 Y413.391
G01 X268.516 Y414.184
G01 X271.551 Y414.973
G01 X274.584 Y415.686
G01 X277.631 Y416.346
G01 X280.695 Y416.977
G01 X283.773 Y417.555
G01 X286.846 Y418.084
G01 X289.930 Y418.560
G01 X293.029 Y419.008
G01 X296.131 Y419.381
G01 X299.229 Y419.730
G01 X302.345 Y419.999
G01 X302.520 Y420.023
G01 X299.836 Y421.246
G01 X299.621 Y421.334
G01 X296.744 Y421.027
G01 X293.648 Y420.656
G01 X290.560 Y420.235
G01 X287.464 Y419.765
G01 X284.378 Y419.244
G01 X281.308 Y418.694
G01 X278.245 Y418.068
G01 X275.199 Y417.414
G01 X272.151 Y416.710
G01 X269.122 Y415.977
G01 X266.105 Y415.167
G01 X263.092 Y414.329
G01 X260.097 Y413.438
G01 X257.122 Y412.494
G01 X254.446 Y411.614
G01 X254.208 Y411.795
G01 X251.785 Y413.790
G01 X249.354 Y415.724
G01 X246.865 Y417.646
G01 X244.370 Y419.507
G01 X241.838 Y421.331
G01 X239.270 Y423.118
G01 X236.684 Y424.869
G01 X236.554 Y424.959
G01 X238.098 Y425.798
G01 X239.110 Y425.137
G01 X241.673 Y423.350
G01 X244.216 Y421.553
G01 X246.741 Y419.694
G01 X249.228 Y417.798
G01 X251.692 Y415.866
G01 X254.115 Y413.898
G01 X254.771 Y413.355
G01 X256.928 Y414.079
G01 X259.912 Y415.003
G01 X262.900 Y415.899
G01 X265.922 Y416.742
G01 X268.928 Y417.534
G01 X271.965 Y418.272
G01 X275.004 Y418.985
G01 X278.074 Y419.643
G01 X281.139 Y420.251
G01 X284.198 Y420.810
G01 X287.285 Y421.315
G01 X290.370 Y421.796
G01 X293.457 Y422.201
G01 X296.465 Y422.579
G01 X296.361 Y422.607
G01 X293.405 Y423.606
G01 X293.012 Y423.730
G01 X290.320 Y423.373
G01 X287.229 Y422.887
G01 X284.153 Y422.374
G01 X281.074 Y421.838
G01 X278.018 Y421.223
G01 X274.958 Y420.559
G01 X271.914 Y419.867
G01 X268.884 Y419.124
G01 X265.853 Y418.330
G01 X262.856 Y417.507
G01 X259.860 Y416.634
G01 X256.864 Y415.708
G01 X255.104 Y415.121
G01 X254.116 Y415.924
G01 X251.679 Y417.867
G01 X249.202 Y419.773
G01 X246.704 Y421.668
G01 X244.185 Y423.503
G01 X241.632 Y425.300
G01 X239.654 Y426.647
G01 X240.309 Y426.985
G01 X241.226 Y427.458
G01 X242.945 Y426.284
G01 X245.498 Y424.467
G01 X248.015 Y422.639
G01 X250.512 Y420.749
G01 X252.988 Y418.824
G01 X255.426 Y416.887
G01 X255.425 Y416.862
G01 X258.398 Y417.815
G01 X261.389 Y418.716
G01 X264.397 Y419.565
G01 X267.403 Y420.363
G01 X270.444 Y421.133
G01 X273.482 Y421.853
G01 X276.533 Y422.522
G01 X279.596 Y423.139
G01 X282.669 Y423.705
G01 X285.739 Y424.248
G01 X288.831 Y424.712
G01 X289.213 Y424.780
G01 X287.976 Y425.079
G01 X286.541 Y425.307
G01 X284.389 Y425.589
G01 X283.450 Y425.440
G01 X280.380 Y424.881
G01 X277.320 Y424.272
G01 X274.254 Y423.614
G01 X271.220 Y422.928
G01 X268.179 Y422.168
G01 X265.155 Y421.381
G01 X262.146 Y420.543
G01 X259.138 Y419.679
G01 X256.163 Y418.763
G01 X255.752 Y418.627
G01 X253.645 Y420.311
G01 X251.171 Y422.221
G01 X248.677 Y424.095
G01 X246.146 Y425.933
G01 X243.599 Y427.735
G01 X242.811 Y428.280
G01 X244.411 Y429.063
G01 X244.722 Y428.847
G01 X247.273 Y427.054
G01 X249.790 Y425.200
G01 X252.288 Y423.335
G01 X254.749 Y421.409
G01 X256.085 Y420.366
G01 X257.451 Y420.788
G01 X260.434 Y421.683
G01 X263.452 Y422.551
G01 X266.465 Y423.345
G01 X269.494 Y424.112
G01 X272.537 Y424.828
G01 X275.591 Y425.494
G01 X278.060 Y426.002
G01 X277.450 Y426.022
G01 X274.332 Y425.976
G01 X271.210 Y425.750
G01 X268.257 Y425.428
G01 X268.112 Y425.392
G01 X265.088 Y424.599
G01 X262.080 Y423.781
G01 X259.086 Y422.911
G01 X256.405 Y422.106
G01 X256.154 Y422.315
G01 X253.677 Y424.236
G01 X251.198 Y426.121
G01 X248.665 Y427.970
G01 X246.134 Y429.783
G01 X246.025 Y429.856
G01 X247.634 Y430.634
G01 X248.615 Y429.920
G01 X251.140 Y428.096
G01 X253.649 Y426.237
G01 X256.121 Y424.318
G01 X256.274 Y424.212
G01 X259.076 Y425.065
G01 X262.101 Y425.859
G01 X265.146 Y426.501
G01 X268.241 Y426.988
G01 X271.348 Y427.345
G01 X274.456 Y427.523
G01 X277.582 Y427.571
G01 X280.705 Y427.489
G01 X283.809 Y427.229
G01 X286.916 Y426.838
G01 X288.269 Y426.601
G01 X289.975 Y426.197
G01 X292.970 Y425.362
G01 X295.952 Y424.423
G01 X298.881 Y423.314
G01 X301.754 Y422.112
G01 X304.587 Y420.762
G01 X307.330 Y419.307
G01 X310.023 Y417.707
G01 X312.661 Y416.019
G01 X315.188 Y414.209
G01 X317.659 Y412.286
G01 X320.027 Y410.242
G01 X322.310 Y408.126
G01 X324.497 Y405.889
G01 X326.596 Y403.556
G01 X328.585 Y401.169
G01 X330.468 Y398.670
G01 X332.238 Y396.094
G01 X332.778 Y395.214
G01 X334.727 Y395.070
G01 X334.650 Y395.173
G01 X332.968 Y397.806
G01 X331.159 Y400.343
G01 X329.251 Y402.823
G01 X327.233 Y405.222
G01 X325.115 Y407.506
G01 X322.905 Y409.723
G01 X320.601 Y411.819
G01 X318.212 Y413.843
G01 X315.738 Y415.739
G01 X313.175 Y417.534
G01 X310.546 Y419.220
G01 X307.853 Y420.793
G01 X305.084 Y422.257
G01 X302.270 Y423.576
G01 X299.396 Y424.805
G01 X296.453 Y425.894
G01 X293.486 Y426.857
G01 X290.478 Y427.672
G01 X288.585 Y428.144
G01 X287.416 Y428.342
G01 X284.323 Y428.760
G01 X281.210 Y429.025
G01 X278.100 Y429.134
G01 X274.968 Y429.118
G01 X271.850 Y428.946
G01 X268.737 Y428.645
G01 X265.647 Y428.164
G01 X262.594 Y427.579
G01 X259.557 Y426.817
G01 X256.566 Y425.953
G01 X254.091 Y427.853
G01 X251.582 Y429.718
G01 X249.275 Y431.374
G01 X249.546 Y431.499
G01 X250.929 Y432.123
G01 X252.229 Y431.186
G01 X254.735 Y429.312
G01 X256.880 Y427.692
G01 X257.294 Y427.800
G01 X260.300 Y428.628
G01 X263.349 Y429.329
G01 X266.414 Y429.878
G01 X269.512 Y430.297
G01 X272.634 Y430.562
G01 X275.741 Y430.701
G01 X278.862 Y430.684
G01 X281.995 Y430.537
G01 X285.094 Y430.240
G01 X288.189 Y429.789
G01 X288.895 Y429.663
G01 X291.240 Y429.114
G01 X294.249 Y428.265
G01 X297.215 Y427.270
G01 X300.128 Y426.182
G01 X303.015 Y424.970
G01 X305.826 Y423.621
G01 X308.591 Y422.179
G01 X311.290 Y420.600
G01 X313.925 Y418.908
G01 X316.485 Y417.137
G01 X318.966 Y415.235
G01 X321.372 Y413.228
G01 X323.682 Y411.127
G01 X325.921 Y408.949
G01 X328.047 Y406.660
G01 X330.068 Y404.286
G01 X332.009 Y401.844
G01 X333.827 Y399.302
G01 X335.559 Y396.698
G01 X336.669 Y394.881
G01 X337.655 Y394.783
G01 X338.587 Y394.684
G01 X337.472 Y396.556
G01 X335.782 Y399.198
G01 X333.992 Y401.757
G01 X332.118 Y404.253
G01 X330.124 Y406.648
G01 X328.036 Y408.981
G01 X325.860 Y411.219
G01 X323.584 Y413.368
G01 X321.228 Y415.417
G01 X318.795 Y417.362
G01 X316.273 Y419.209
G01 X313.683 Y420.948
G01 X311.010 Y422.583
G01 X308.302 Y424.123
G01 X305.512 Y425.531
G01 X302.670 Y426.822
G01 X299.762 Y428.000
G01 X296.828 Y429.053
G01 X293.860 Y430.009
G01 X290.834 Y430.822
G01 X289.192 Y431.210
G01 X287.781 Y431.433
G01 X284.690 Y431.846
G01 X281.565 Y432.135
G01 X278.461 Y432.266
G01 X275.330 Y432.248
G01 X272.198 Y432.102
G01 X269.089 Y431.826
G01 X266.004 Y431.395
G01 X262.934 Y430.838
G01 X259.882 Y430.154
G01 X257.198 Y429.406
G01 X256.937 Y429.616
G01 X254.429 Y431.496
G01 X252.597 Y432.857
G01 X253.371 Y433.169
G01 X254.259 Y433.551
G01 X255.981 Y432.277
G01 X257.521 Y431.119
G01 X258.680 Y431.443
G01 X261.712 Y432.174
G01 X264.782 Y432.778
G01 X267.869 Y433.256
G01 X270.982 Y433.580
G01 X274.101 Y433.776
G01 X277.222 Y433.846
G01 X280.335 Y433.763
G01 X283.458 Y433.551
G01 X286.562 Y433.187
G01 X289.502 Y432.729
G01 X289.648 Y432.697
G01 X292.682 Y431.961
G01 X295.678 Y431.078
G01 X298.643 Y430.097
G01 X301.561 Y428.971
G01 X304.440 Y427.750
G01 X307.252 Y426.418
G01 X310.027 Y424.964
G01 X312.728 Y423.403
G01 X315.366 Y421.730
G01 X317.939 Y419.948
G01 X320.424 Y418.067
G01 X322.836 Y416.080
G01 X325.181 Y414.015
G01 X327.429 Y411.858
G01 X329.593 Y409.605
G01 X331.670 Y407.257
G01 X333.640 Y404.827
G01 X335.513 Y402.340
G01 X337.290 Y399.769
G01 X338.953 Y397.125
G01 X340.511 Y394.463
G01 X340.540 Y394.445
G01 X342.397 Y394.215
G01 X341.807 Y395.302
G01 X340.253 Y398.002
G01 X338.568 Y400.643
G01 X336.812 Y403.215
G01 X334.929 Y405.721
G01 X332.953 Y408.139
G01 X330.898 Y410.489
G01 X328.739 Y412.754
G01 X326.497 Y414.923
G01 X324.184 Y417.016
G01 X321.768 Y418.992
G01 X319.287 Y420.888
G01 X316.720 Y422.684
G01 X314.112 Y424.388
G01 X311.415 Y425.965
G01 X308.668 Y427.453
G01 X305.867 Y428.827
G01 X302.996 Y430.089
G01 X300.098 Y431.228
G01 X297.139 Y432.253
G01 X294.148 Y433.180
G01 X291.136 Y433.957
G01 X289.816 Y434.273
G01 X288.067 Y434.565
G01 X284.979 Y434.972
G01 X281.853 Y435.231
G01 X278.739 Y435.386
G01 X275.615 Y435.389
G01 X272.490 Y435.265
G01 X269.383 Y434.987
G01 X266.288 Y434.608
G01 X263.202 Y434.077
G01 X260.153 Y433.419
G01 X257.848 Y432.832
G01 X257.243 Y433.282
G01 X255.953 Y434.254
G01 X257.360 Y434.829
G01 X257.661 Y434.941
G01 X258.181 Y434.544
G01 X260.263 Y435.066
G01 X263.337 Y435.697
G01 X266.410 Y436.203
G01 X269.513 Y436.582
G01 X272.623 Y436.835
G01 X275.756 Y436.959
G01 X278.865 Y436.935
G01 X281.990 Y436.806
G01 X285.100 Y436.526
G01 X288.194 Y436.122
G01 X290.125 Y435.792
G01 X291.276 Y435.539
G01 X294.290 Y434.740
G01 X297.276 Y433.844
G01 X300.225 Y432.827
G01 X303.157 Y431.709
G01 X306.019 Y430.455
G01 X308.820 Y429.114
G01 X311.586 Y427.653
G01 X314.302 Y426.102
G01 X316.931 Y424.424
G01 X319.504 Y422.661
G01 X322.008 Y420.791
G01 X324.439 Y418.817
G01 X326.804 Y416.763
G01 X329.074 Y414.619
G01 X331.255 Y412.407
G01 X333.356 Y410.072
G01 X335.374 Y407.698
G01 X337.274 Y405.222
G01 X339.091 Y402.683
G01 X340.811 Y400.062
G01 X342.428 Y397.392
G01 X343.928 Y394.655
G01 X344.315 Y393.955
G01 X346.608 Y393.603
G01 X349.694 Y393.096
G01 X351.383 Y392.795
G01 X352.775 Y392.629
G01 X355.867 Y392.161
G01 X358.924 Y391.571
G01 X361.956 Y390.850
G01 X364.975 Y390.018
G01 X367.944 Y389.038
G01 X369.986 Y388.275
G01 X370.898 Y388.010
G01 X373.877 Y387.066
G01 X376.843 Y386.074
G01 X379.776 Y385.019
G01 X382.102 Y384.151
G01 X381.553 Y384.479
G01 X378.821 Y385.999
G01 X376.037 Y387.398
G01 X373.192 Y388.687
G01 X370.287 Y389.832
G01 X367.344 Y390.881
G01 X364.352 Y391.815
G01 X361.342 Y392.607
G01 X358.291 Y393.311
G01 X355.216 Y393.853
G01 X352.136 Y394.283
G01 X349.012 Y394.570
G01 X345.890 Y394.744
G01 X345.647 Y394.754
G01 X344.280 Y397.284
G01 X342.703 Y399.989
G01 X341.026 Y402.615
G01 X339.249 Y405.192
G01 X337.376 Y407.685
G01 X335.395 Y410.099
G01 X333.336 Y412.446
G01 X331.185 Y414.731
G01 X328.967 Y416.913
G01 X326.635 Y419.012
G01 X324.242 Y421.004
G01 X321.786 Y422.916
G01 X319.252 Y424.753
G01 X316.651 Y426.484
G01 X313.968 Y428.111
G01 X311.244 Y429.621
G01 X308.472 Y431.042
G01 X305.630 Y432.353
G01 X302.740 Y433.548
G01 X299.813 Y434.649
G01 X296.846 Y435.630
G01 X293.843 Y436.491
G01 X290.813 Y437.254
G01 X290.420 Y437.339
G01 X287.750 Y437.768
G01 X284.644 Y438.137
G01 X281.523 Y438.381
G01 X278.411 Y438.496
G01 X275.279 Y438.513
G01 X272.160 Y438.376
G01 X269.045 Y438.113
G01 X265.957 Y437.723
G01 X264.599 Y437.508
G01 X266.271 Y438.072
G01 X269.236 Y439.049
G01 X272.170 Y439.935
G01 X272.227 Y439.929
G01 X275.352 Y440.067
G01 X278.475 Y440.079
G01 X281.589 Y439.941
G01 X284.697 Y439.703
G01 X287.809 Y439.337
G01 X290.728 Y438.858
G01 X290.879 Y438.826
G01 X293.921 Y438.090
G01 X296.913 Y437.237
G01 X299.895 Y436.284
G01 X302.830 Y435.187
G01 X305.718 Y434.025
G01 X308.551 Y432.723
G01 X311.359 Y431.324
G01 X314.103 Y429.842
G01 X316.779 Y428.225
G01 X319.411 Y426.545
G01 X321.951 Y424.742
G01 X324.448 Y422.849
G01 X326.866 Y420.883
G01 X329.208 Y418.817
G01 X331.470 Y416.652
G01 X333.645 Y414.422
G01 X335.734 Y412.099
G01 X337.747 Y409.707
G01 X339.668 Y407.228
G01 X341.492 Y404.694
G01 X343.217 Y402.109
G01 X344.858 Y399.435
G01 X346.382 Y396.725
G01 X346.610 Y396.275
G01 X349.248 Y396.134
G01 X352.348 Y395.816
G01 X355.447 Y395.386
G01 X358.527 Y394.854
G01 X361.569 Y394.172
G01 X364.600 Y393.379
G01 X367.584 Y392.468
G01 X370.534 Y391.430
G01 X373.431 Y390.278
G01 X376.284 Y389.001
G01 X379.077 Y387.613
G01 X381.822 Y386.136
G01 X384.496 Y384.523
G01 X387.129 Y382.809
G01 X389.467 Y381.156
G01 X389.698 Y381.057
G01 X392.541 Y379.786
G01 X395.262 Y378.513
G01 X395.185 Y378.600
G01 X392.771 Y380.572
G01 X390.300 Y382.496
G01 X387.746 Y384.291
G01 X385.118 Y385.985
G01 X382.450 Y387.581
G01 X379.683 Y389.066
G01 X376.883 Y390.448
G01 X374.037 Y391.708
G01 X371.134 Y392.856
G01 X368.194 Y393.909
G01 X365.203 Y394.816
G01 X362.183 Y395.625
G01 X359.135 Y396.304
G01 X356.064 Y396.884
G01 X352.973 Y397.332
G01 X349.866 Y397.647
G01 X347.573 Y397.797
G01 X347.185 Y398.530
G01 X345.618 Y401.233
G01 X343.935 Y403.868
G01 X342.168 Y406.443
G01 X340.318 Y408.958
G01 X338.388 Y411.409
G01 X336.351 Y413.780
G01 X334.239 Y416.083
G01 X332.026 Y418.300
G01 X329.749 Y420.413
G01 X327.398 Y422.480
G01 X324.961 Y424.424
G01 X322.456 Y426.318
G01 X319.899 Y428.099
G01 X317.260 Y429.780
G01 X314.567 Y431.375
G01 X311.817 Y432.859
G01 X309.014 Y434.229
G01 X306.174 Y435.532
G01 X303.281 Y436.696
G01 X300.352 Y437.766
G01 X297.390 Y438.741
G01 X294.368 Y439.577
G01 X291.345 Y440.336
G01 X291.041 Y440.402
G01 X288.270 Y440.851
G01 X285.152 Y441.221
G01 X282.043 Y441.488
G01 X278.923 Y441.630
G01 X278.318 Y441.644
G01 X280.750 Y442.256
G01 X283.694 Y442.930
G01 X283.795 Y442.938
G01 X286.900 Y442.597
G01 X289.994 Y442.157
G01 X291.348 Y441.921
G01 X293.055 Y441.546
G01 X296.071 Y440.740
G01 X299.060 Y439.838
G01 X302.019 Y438.841
G01 X304.938 Y437.726
G01 X307.820 Y436.519
G01 X310.653 Y435.196
G01 X313.435 Y433.759
G01 X316.160 Y432.264
G01 X318.836 Y430.628
G01 X321.449 Y428.938
G01 X324.006 Y427.110
G01 X326.495 Y425.231
G01 X328.912 Y423.250
G01 X331.236 Y421.177
G01 X333.509 Y419.020
G01 X335.696 Y416.799
G01 X337.798 Y414.485
G01 X339.824 Y412.102
G01 X341.756 Y409.662
G01 X343.596 Y407.138
G01 X345.353 Y404.552
G01 X347.026 Y401.908
G01 X348.535 Y399.319
G01 X348.652 Y399.301
G01 X351.770 Y399.044
G01 X354.874 Y398.654
G01 X357.946 Y398.144
G01 X361.011 Y397.523
G01 X364.037 Y396.783
G01 X367.033 Y395.914
G01 X370.012 Y394.937
G01 X372.941 Y393.846
G01 X375.815 Y392.642
G01 X378.661 Y391.333
G01 X381.446 Y389.915
G01 X384.166 Y388.391
G01 X386.817 Y386.762
G01 X389.428 Y385.036
G01 X391.945 Y383.192
G01 X394.402 Y381.269
G01 X396.808 Y379.254
G01 X399.098 Y377.146
G01 X400.226 Y376.045
G01 X401.604 Y375.328
G01 X404.334 Y373.836
G01 X404.630 Y373.667
G01 X402.736 Y375.724
G01 X400.534 Y377.928
G01 X398.231 Y380.060
G01 X395.874 Y382.102
G01 X393.417 Y384.035
G01 X390.917 Y385.905
G01 X388.337 Y387.646
G01 X385.670 Y389.300
G01 X382.966 Y390.854
G01 X380.213 Y392.320
G01 X377.379 Y393.661
G01 X374.518 Y394.897
G01 X371.602 Y396.022
G01 X368.649 Y397.053
G01 X365.662 Y397.957
G01 X362.645 Y398.732
G01 X359.587 Y399.421
G01 X356.522 Y399.969
G01 X353.422 Y400.428
G01 X350.321 Y400.744
G01 X349.482 Y400.820
G01 X348.313 Y402.776
G01 X346.661 Y405.418
G01 X344.910 Y408.012
G01 X343.064 Y410.524
G01 X341.122 Y412.981
G01 X339.119 Y415.365
G01 X337.012 Y417.667
G01 X334.844 Y419.921
G01 X332.577 Y422.088
G01 X330.249 Y424.150
G01 X327.838 Y426.143
G01 X325.365 Y428.057
G01 X322.823 Y429.867
G01 X320.225 Y431.594
G01 X317.573 Y433.237
G01 X314.843 Y434.778
G01 X312.085 Y436.223
G01 X309.255 Y437.563
G01 X306.385 Y438.811
G01 X303.495 Y439.961
G01 X300.544 Y441.000
G01 X297.563 Y441.945
G01 X294.547 Y442.770
G01 X291.661 Y443.465
G01 X291.506 Y443.499
