;  Created by Sandify
;  https://sandify.org
;  Version: 0.2.6
;
;  Machine type: Rectangular
;    Min X (mm): 0
;    Max X (mm): 500
;    Min Y (mm): 0
;    Max Y (mm): 500
;  Content type: shape
;  Layer:
;    Shape: FileImport
;    Name: dither_strangthang.thr
;    From file:: dither_strangthang.thr
;    Aspect Ratio: true
;    Comments: 
;    Visible: true
;    Initial width: 10
;    Initial height: 10
;    X offset: 0
;    Y offset: 0
;    Rotate (degrees): 0
;    Reverse path: false
;    Fine tuning:
;      Connect to next layer: line
;      Draw portion of path (%): 100
;      Backtrack at end (%): 0
;      Rotate starting point (%): 0
;  Reverse export path: false
;
; File name: 'strangthang (E) (C C)'
; File type: gcode
;

G01 X250.000 Y500.000
G01 X256.247 Y499.844
G01 X262.495 Y499.688
G01 X274.731 Y498.774
G01 X274.958 Y498.751
G01 X280.098 Y498.128
G01 X285.238 Y497.504
G01 X287.360 Y497.193
G01 X291.179 Y496.494
G01 X294.998 Y495.795
G01 X298.817 Y495.095
G01 X302.636 Y494.396
G01 X299.667 Y495.017
G01 X304.693 Y493.779
G01 X309.719 Y492.542
G01 X314.746 Y491.304
G01 X319.772 Y490.066
G01 X315.811 Y491.147
G01 X311.851 Y492.228
G01 X318.028 Y490.305
G01 X324.205 Y488.383
G01 X330.381 Y486.460
G01 X336.558 Y484.537
G01 X330.219 Y486.686
G01 X323.880 Y488.834
G01 X327.509 Y487.459
G01 X331.138 Y486.084
G01 X334.767 Y484.710
G01 X338.396 Y483.335
G01 X342.025 Y481.960
G01 X345.654 Y480.585
G01 X349.283 Y479.210
G01 X352.913 Y477.835
G01 X348.615 Y479.587
G01 X344.319 Y481.339
G01 X340.022 Y483.091
G01 X335.724 Y484.843
G01 X339.853 Y482.987
G01 X343.981 Y481.131
G01 X348.110 Y479.275
G01 X352.238 Y477.419
G01 X356.367 Y475.563
G01 X360.495 Y473.707
G01 X364.624 Y471.851
G01 X368.752 Y469.995
G01 X363.403 Y472.563
G01 X358.053 Y475.130
G01 X352.704 Y477.698
G01 X347.355 Y480.265
G01 X351.935 Y477.864
G01 X356.516 Y475.463
G01 X361.096 Y473.061
G01 X365.677 Y470.660
G01 X370.257 Y468.259
G01 X374.838 Y465.858
G01 X379.418 Y463.457
G01 X383.999 Y461.055
G01 X377.684 Y464.570
G01 X371.370 Y468.084
G01 X365.056 Y471.598
G01 X358.741 Y475.112
G01 X363.721 Y472.105
G01 X368.700 Y469.099
G01 X373.679 Y466.093
G01 X378.658 Y463.086
G01 X383.638 Y460.080
G01 X388.617 Y457.074
G01 X393.596 Y454.067
G01 X398.575 Y451.061
G01 X394.985 Y453.353
G01 X391.396 Y455.644
G01 X387.806 Y457.936
G01 X384.216 Y460.228
G01 X380.626 Y462.520
G01 X377.036 Y464.812
G01 X373.446 Y467.104
G01 X369.856 Y469.396
G01 X375.176 Y465.729
G01 X380.495 Y462.062
G01 X385.814 Y458.395
G01 X391.133 Y454.728
G01 X396.452 Y451.062
G01 X401.771 Y447.395
G01 X407.090 Y443.728
G01 X412.409 Y440.061
G01 X408.442 Y442.945
G01 X404.475 Y445.829
G01 X400.508 Y448.712
G01 X396.540 Y451.596
G01 X392.573 Y454.480
G01 X388.606 Y457.364
G01 X384.639 Y460.247
G01 X380.672 Y463.131
G01 X386.267 Y458.754
G01 X391.862 Y454.376
G01 X397.457 Y449.999
G01 X403.052 Y445.621
G01 X408.647 Y441.244
G01 X414.242 Y436.867
G01 X419.837 Y432.489
G01 X425.431 Y428.112
G01 X421.148 Y431.640
G01 X416.864 Y435.167
G01 X412.580 Y438.695
G01 X408.296 Y442.223
G01 X404.012 Y445.751
G01 X399.728 Y449.278
G01 X395.444 Y452.806
G01 X391.161 Y456.334
G01 X394.062 Y453.768
G01 X396.963 Y451.201
G01 X399.864 Y448.635
G01 X402.765 Y446.068
G01 X405.666 Y443.502
G01 X408.567 Y440.936
G01 X411.468 Y438.369
G01 X414.369 Y435.803
G01 X417.270 Y433.237
G01 X420.171 Y430.670
G01 X423.072 Y428.104
G01 X425.973 Y425.537
G01 X428.874 Y422.971
G01 X431.775 Y420.405
G01 X434.676 Y417.838
G01 X437.577 Y415.272
G01 X433.042 Y419.491
G01 X428.507 Y423.709
G01 X423.972 Y427.928
G01 X419.437 Y432.146
G01 X414.902 Y436.365
G01 X410.367 Y440.584
G01 X405.832 Y444.802
G01 X401.297 Y449.021
G01 X404.265 Y446.058
G01 X407.233 Y443.094
G01 X410.201 Y440.131
G01 X413.169 Y437.167
G01 X416.137 Y434.204
G01 X419.105 Y431.240
G01 X422.073 Y428.277
G01 X425.041 Y425.314
G01 X428.009 Y422.350
G01 X430.977 Y419.387
G01 X433.945 Y416.424
G01 X436.913 Y413.460
G01 X439.881 Y410.497
G01 X442.849 Y407.533
G01 X445.817 Y404.570
G01 X448.785 Y401.606
G01 X444.069 Y406.557
G01 X439.352 Y411.508
G01 X434.636 Y416.458
G01 X429.920 Y421.409
G01 X425.203 Y426.359
G01 X420.487 Y431.309
G01 X415.771 Y436.260
G01 X411.054 Y441.211
G01 X414.051 Y437.834
G01 X417.048 Y434.457
G01 X420.044 Y431.081
G01 X423.041 Y427.704
G01 X426.037 Y424.327
G01 X429.034 Y420.950
G01 X432.030 Y417.573
G01 X435.027 Y414.197
G01 X438.024 Y410.820
G01 X441.020 Y407.443
G01 X444.017 Y404.067
G01 X447.013 Y400.690
G01 X450.010 Y397.313
G01 X453.006 Y393.936
G01 X456.003 Y390.560
G01 X458.999 Y387.183
G01 X454.176 Y392.900
G01 X449.352 Y398.618
G01 X444.528 Y404.335
G01 X439.705 Y410.053
G01 X434.881 Y415.770
G01 X430.057 Y421.487
G01 X425.234 Y427.205
G01 X420.410 Y432.922
G01 X423.395 Y429.119
G01 X426.380 Y425.316
G01 X429.365 Y421.513
G01 X432.350 Y417.710
G01 X435.335 Y413.907
G01 X438.320 Y410.104
G01 X441.305 Y406.301
G01 X444.290 Y402.498
G01 X447.275 Y398.695
G01 X450.260 Y394.892
G01 X453.245 Y391.089
G01 X456.229 Y387.286
G01 X459.215 Y383.483
G01 X462.200 Y379.680
G01 X465.184 Y375.877
G01 X468.169 Y372.074
G01 X465.743 Y375.330
G01 X463.316 Y378.587
G01 X460.889 Y381.843
G01 X458.462 Y385.100
G01 X456.035 Y388.356
G01 X453.608 Y391.612
G01 X451.181 Y394.869
G01 X448.754 Y398.125
G01 X446.327 Y401.382
G01 X443.900 Y404.638
G01 X441.474 Y407.895
G01 X439.047 Y411.151
G01 X436.620 Y414.407
G01 X434.193 Y417.664
G01 X431.766 Y420.920
G01 X429.339 Y424.177
G01 X432.271 Y419.938
G01 X435.203 Y415.699
G01 X438.135 Y411.460
G01 X441.067 Y407.221
G01 X443.999 Y402.982
G01 X446.930 Y398.744
G01 X449.862 Y394.505
G01 X452.794 Y390.266
G01 X455.726 Y386.027
G01 X458.658 Y381.788
G01 X461.590 Y377.549
G01 X464.522 Y373.310
G01 X467.454 Y369.072
G01 X470.385 Y364.833
G01 X473.317 Y360.594
G01 X476.249 Y356.355
G01 X473.847 Y360.020
G01 X471.445 Y363.685
G01 X469.044 Y367.350
G01 X466.642 Y371.015
G01 X464.240 Y374.680
G01 X461.838 Y378.345
G01 X459.436 Y382.010
G01 X457.034 Y385.675
G01 X454.633 Y389.340
G01 X452.231 Y393.006
G01 X449.829 Y396.671
G01 X447.427 Y400.336
G01 X445.026 Y404.000
G01 X442.624 Y407.666
G01 X440.222 Y411.331
G01 X437.820 Y414.996
G01 X440.656 Y410.315
G01 X443.492 Y405.634
G01 X446.328 Y400.954
G01 X449.164 Y396.273
G01 X452.001 Y391.592
G01 X454.837 Y386.911
G01 X457.673 Y382.231
G01 X460.509 Y377.550
G01 X463.345 Y372.869
G01 X466.181 Y368.189
G01 X469.017 Y363.508
G01 X471.853 Y358.827
G01 X474.690 Y354.147
G01 X477.526 Y349.466
G01 X480.362 Y344.785
G01 X483.198 Y340.104
G01 X480.862 Y344.185
G01 X478.527 Y348.266
G01 X476.192 Y352.348
G01 X473.856 Y356.429
G01 X471.521 Y360.510
G01 X469.185 Y364.591
G01 X466.850 Y368.672
G01 X464.515 Y372.753
G01 X462.179 Y376.835
G01 X459.844 Y380.916
G01 X457.509 Y384.997
G01 X455.173 Y389.078
G01 X452.838 Y393.159
G01 X450.503 Y397.240
G01 X448.167 Y401.321
G01 X445.832 Y405.402
G01 X448.529 Y400.277
G01 X451.225 Y395.153
G01 X453.922 Y390.028
G01 X456.619 Y384.903
G01 X459.316 Y379.778
G01 X462.013 Y374.653
G01 X464.710 Y369.528
G01 X467.407 Y364.403
G01 X470.103 Y359.278
G01 X472.800 Y354.153
G01 X475.497 Y349.028
G01 X478.194 Y343.903
G01 X480.891 Y338.778
G01 X483.587 Y333.653
G01 X486.284 Y328.528
G01 X488.981 Y323.403
G01 X486.754 Y327.904
G01 X484.528 Y332.405
G01 X482.301 Y336.906
G01 X480.074 Y341.408
G01 X477.848 Y345.909
G01 X475.621 Y350.410
G01 X473.394 Y354.911
G01 X471.168 Y359.412
G01 X468.941 Y363.913
G01 X466.714 Y368.414
G01 X464.487 Y372.915
G01 X462.261 Y377.416
G01 X460.034 Y381.917
G01 X457.807 Y386.418
G01 X455.581 Y390.920
G01 X453.354 Y395.421
G01 X455.868 Y389.853
G01 X458.381 Y384.285
G01 X460.894 Y378.717
G01 X463.408 Y373.149
G01 X465.921 Y367.582
G01 X468.435 Y362.014
G01 X470.948 Y356.446
G01 X473.462 Y350.878
G01 X475.975 Y345.310
G01 X478.489 Y339.742
G01 X481.003 Y334.174
G01 X483.516 Y328.607
G01 X486.029 Y323.039
G01 X488.543 Y317.471
G01 X491.057 Y311.903
G01 X493.570 Y306.335
G01 X491.495 Y311.257
G01 X489.420 Y316.178
G01 X487.344 Y321.099
G01 X485.269 Y326.020
G01 X483.194 Y330.942
G01 X481.119 Y335.863
G01 X479.044 Y340.784
G01 X476.969 Y345.706
G01 X474.894 Y350.627
G01 X472.819 Y355.548
G01 X470.743 Y360.469
G01 X468.668 Y365.390
G01 X466.593 Y370.312
G01 X464.518 Y375.233
G01 X462.443 Y380.154
G01 X460.368 Y385.076
G01 X462.654 Y379.070
G01 X464.939 Y373.064
G01 X467.225 Y367.059
G01 X469.511 Y361.053
G01 X471.797 Y355.048
G01 X474.083 Y349.042
G01 X476.369 Y343.036
G01 X478.655 Y337.031
G01 X480.940 Y331.025
G01 X483.226 Y325.020
G01 X485.512 Y319.014
G01 X487.798 Y313.008
G01 X490.084 Y307.003
G01 X492.370 Y300.997
G01 X494.656 Y294.992
G01 X496.941 Y288.986
G01 X495.061 Y294.324
G01 X493.181 Y299.662
G01 X491.300 Y305.000
G01 X489.420 Y310.338
G01 X487.540 Y315.676
G01 X485.659 Y321.013
G01 X483.779 Y326.351
G01 X481.899 Y331.689
G01 X480.018 Y337.027
G01 X478.138 Y342.365
G01 X476.257 Y347.703
G01 X474.377 Y353.041
G01 X472.497 Y358.379
G01 X470.617 Y363.717
G01 X468.736 Y369.055
G01 X466.856 Y374.393
G01 X468.870 Y367.958
G01 X470.884 Y361.524
G01 X472.898 Y355.089
G01 X474.912 Y348.655
G01 X476.925 Y342.221
G01 X478.939 Y335.786
G01 X480.953 Y329.352
G01 X482.967 Y322.917
G01 X484.981 Y316.483
G01 X486.995 Y310.048
G01 X489.009 Y303.614
G01 X491.023 Y297.179
G01 X493.037 Y290.745
G01 X495.051 Y284.310
G01 X497.065 Y277.876
G01 X499.079 Y271.442
G01 X497.436 Y277.189
G01 X495.794 Y282.936
G01 X494.152 Y288.684
G01 X492.510 Y294.431
G01 X490.867 Y300.178
G01 X489.225 Y305.926
G01 X487.582 Y311.673
G01 X485.940 Y317.420
G01 X484.298 Y323.168
G01 X482.656 Y328.915
G01 X481.013 Y334.662
G01 X479.371 Y340.410
G01 X477.729 Y346.157
G01 X476.086 Y351.904
G01 X474.444 Y357.652
G01 X472.802 Y363.399
G01 X474.500 Y356.548
G01 X476.198 Y349.698
G01 X477.896 Y342.847
G01 X479.594 Y335.997
G01 X481.292 Y329.146
G01 X482.990 Y322.296
G01 X484.689 Y315.445
G01 X486.387 Y308.595
G01 X488.085 Y301.744
G01 X489.783 Y294.894
G01 X491.481 Y288.043
G01 X493.179 Y281.193
G01 X494.877 Y274.342
G01 X496.575 Y267.491
G01 X498.273 Y260.641
G01 X499.971 Y253.790
G01 X498.610 Y259.936
G01 X497.249 Y266.082
G01 X495.887 Y272.227
G01 X494.526 Y278.373
G01 X493.165 Y284.519
G01 X491.804 Y290.665
G01 X490.442 Y296.810
G01 X489.081 Y302.956
G01 X487.720 Y309.102
G01 X486.359 Y315.248
G01 X484.997 Y321.393
G01 X483.636 Y327.539
G01 X482.275 Y333.685
G01 X480.914 Y339.830
G01 X479.552 Y345.976
G01 X478.191 Y352.122
G01 X479.530 Y344.872
G01 X480.869 Y337.622
G01 X482.208 Y330.372
G01 X483.547 Y323.121
G01 X484.886 Y315.871
G01 X486.225 Y308.621
G01 X487.564 Y301.371
G01 X488.903 Y294.121
G01 X490.242 Y286.871
G01 X491.581 Y279.621
G01 X492.920 Y272.371
G01 X494.258 Y265.120
G01 X495.597 Y257.870
G01 X496.936 Y250.620
G01 X498.275 Y243.370
G01 X499.614 Y236.120
G01 X498.577 Y242.649
G01 X497.539 Y249.178
G01 X496.501 Y255.708
G01 X495.463 Y262.237
G01 X494.425 Y268.767
G01 X493.388 Y275.296
G01 X492.350 Y281.825
G01 X491.312 Y288.355
G01 X490.274 Y294.884
G01 X489.237 Y301.413
G01 X488.199 Y307.943
G01 X487.161 Y314.472
G01 X486.123 Y321.001
G01 X485.085 Y327.531
G01 X484.048 Y334.060
G01 X483.010 Y340.589
G01 X483.479 Y336.775
G01 X483.947 Y332.960
G01 X484.416 Y329.145
G01 X484.885 Y325.331
G01 X485.354 Y321.516
G01 X485.822 Y317.701
G01 X486.291 Y313.886
G01 X486.760 Y310.072
G01 X487.228 Y306.257
G01 X487.697 Y302.442
G01 X488.166 Y298.628
G01 X488.635 Y294.813
G01 X489.104 Y290.998
G01 X489.572 Y287.184
G01 X490.041 Y283.369
G01 X490.510 Y279.554
G01 X490.979 Y275.739
G01 X491.447 Y271.925
G01 X491.916 Y268.110
G01 X492.385 Y264.295
G01 X492.854 Y260.481
G01 X493.322 Y256.666
G01 X493.791 Y252.851
G01 X494.260 Y249.036
G01 X494.729 Y245.222
G01 X495.197 Y241.407
G01 X495.666 Y237.592
G01 X496.135 Y233.778
G01 X496.604 Y229.963
G01 X497.072 Y226.148
G01 X497.541 Y222.334
G01 X498.010 Y218.519
G01 X497.337 Y225.413
G01 X496.665 Y232.308
G01 X495.992 Y239.202
G01 X495.319 Y246.097
G01 X494.646 Y252.991
G01 X493.974 Y259.886
G01 X493.301 Y266.780
G01 X492.628 Y273.675
G01 X491.955 Y280.569
G01 X491.283 Y287.464
G01 X490.610 Y294.358
G01 X489.937 Y301.253
G01 X489.264 Y308.147
G01 X488.592 Y315.042
G01 X487.919 Y321.936
G01 X487.246 Y328.831
G01 X487.494 Y324.838
G01 X487.741 Y320.846
G01 X487.989 Y316.854
G01 X488.236 Y312.861
G01 X488.484 Y308.869
G01 X488.731 Y304.876
G01 X488.979 Y300.884
G01 X489.226 Y296.892
G01 X489.474 Y292.899
G01 X489.721 Y288.907
G01 X489.969 Y284.915
G01 X490.216 Y280.922
G01 X490.463 Y276.930
G01 X490.711 Y272.938
G01 X490.959 Y268.945
G01 X491.206 Y264.953
G01 X491.454 Y260.961
G01 X491.701 Y256.968
G01 X491.948 Y252.976
G01 X492.196 Y248.984
G01 X492.444 Y244.991
G01 X492.691 Y240.999
G01 X492.939 Y237.006
G01 X493.186 Y233.014
G01 X493.433 Y229.022
G01 X493.681 Y225.029
G01 X493.929 Y221.037
G01 X494.176 Y217.045
G01 X494.423 Y213.052
G01 X494.671 Y209.060
G01 X494.919 Y205.068
G01 X495.166 Y201.075
G01 X494.899 Y208.313
G01 X494.631 Y215.550
G01 X494.364 Y222.788
G01 X494.097 Y230.025
G01 X493.830 Y237.263
G01 X493.562 Y244.500
G01 X493.295 Y251.737
G01 X493.028 Y258.975
G01 X492.760 Y266.212
G01 X492.493 Y273.450
G01 X492.226 Y280.687
G01 X491.959 Y287.925
G01 X491.691 Y295.162
G01 X491.424 Y302.400
G01 X491.157 Y309.637
G01 X490.890 Y316.875
G01 X490.896 Y312.718
G01 X490.903 Y308.562
G01 X490.909 Y304.406
G01 X490.915 Y300.250
G01 X490.922 Y296.094
G01 X490.928 Y291.937
G01 X490.935 Y287.781
G01 X490.941 Y283.625
G01 X490.948 Y279.469
G01 X490.954 Y275.313
G01 X490.961 Y271.157
G01 X490.967 Y267.000
G01 X490.974 Y262.844
G01 X490.980 Y258.688
G01 X490.987 Y254.532
G01 X490.993 Y250.375
G01 X491.000 Y246.219
G01 X491.006 Y242.063
G01 X491.013 Y237.907
G01 X491.019 Y233.751
G01 X491.025 Y229.594
G01 X491.032 Y225.438
G01 X491.038 Y221.282
G01 X491.045 Y217.126
G01 X491.052 Y212.970
G01 X491.058 Y208.813
G01 X491.064 Y204.657
G01 X491.071 Y200.501
G01 X491.077 Y196.345
G01 X491.084 Y192.188
G01 X491.090 Y188.032
G01 X491.097 Y183.876
G01 X491.185 Y187.653
G01 X491.274 Y191.431
G01 X491.362 Y195.208
G01 X491.451 Y198.985
G01 X491.540 Y202.763
G01 X491.628 Y206.540
G01 X491.717 Y210.318
G01 X491.805 Y214.095
G01 X491.894 Y217.872
G01 X491.982 Y221.650
G01 X492.071 Y225.427
G01 X492.159 Y229.204
G01 X492.248 Y232.982
G01 X492.337 Y236.759
G01 X492.425 Y240.537
G01 X492.514 Y244.314
G01 X492.602 Y248.091
G01 X492.691 Y251.869
G01 X492.779 Y255.646
G01 X492.868 Y259.423
G01 X492.957 Y263.201
G01 X493.045 Y266.978
G01 X493.134 Y270.756
G01 X493.222 Y274.533
G01 X493.311 Y278.310
G01 X493.399 Y282.088
G01 X493.488 Y285.865
G01 X493.576 Y289.642
G01 X493.665 Y293.420
G01 X493.754 Y297.197
G01 X493.842 Y300.974
G01 X493.931 Y304.752
G01 X493.677 Y300.447
G01 X493.424 Y296.143
G01 X493.171 Y291.838
G01 X492.917 Y287.534
G01 X492.664 Y283.229
G01 X492.410 Y278.925
G01 X492.157 Y274.620
G01 X491.904 Y270.316
G01 X491.650 Y266.011
G01 X491.397 Y261.707
G01 X491.144 Y257.402
G01 X490.890 Y253.098
G01 X490.637 Y248.793
G01 X490.383 Y244.489
G01 X490.130 Y240.184
G01 X489.877 Y235.880
G01 X489.623 Y231.575
G01 X489.370 Y227.271
G01 X489.116 Y222.966
G01 X488.863 Y218.661
G01 X488.610 Y214.357
G01 X488.356 Y210.052
G01 X488.103 Y205.748
G01 X487.849 Y201.444
G01 X487.596 Y197.139
G01 X487.343 Y192.834
G01 X487.089 Y188.530
G01 X486.836 Y184.225
G01 X486.583 Y179.921
G01 X486.329 Y175.616
G01 X486.076 Y171.312
G01 X485.822 Y167.007
G01 X486.152 Y170.929
G01 X486.481 Y174.850
G01 X486.811 Y178.772
G01 X487.140 Y182.693
G01 X487.469 Y186.614
G01 X487.799 Y190.536
G01 X488.128 Y194.457
G01 X488.457 Y198.378
G01 X488.787 Y202.300
G01 X489.116 Y206.221
G01 X489.446 Y210.143
G01 X489.775 Y214.064
G01 X490.104 Y217.986
G01 X490.434 Y221.907
G01 X490.763 Y225.828
G01 X491.093 Y229.750
G01 X491.422 Y233.671
G01 X491.751 Y237.592
G01 X492.081 Y241.514
G01 X492.410 Y245.435
G01 X492.739 Y249.357
G01 X493.069 Y253.278
G01 X493.398 Y257.199
G01 X493.727 Y261.121
G01 X494.057 Y265.042
G01 X494.386 Y268.964
G01 X494.716 Y272.885
G01 X495.045 Y276.806
G01 X495.374 Y280.728
G01 X495.704 Y284.649
G01 X496.033 Y288.570
G01 X496.362 Y292.492
G01 X495.832 Y288.056
G01 X495.300 Y283.621
G01 X494.769 Y279.185
G01 X494.238 Y274.750
G01 X493.707 Y270.314
G01 X493.176 Y265.878
G01 X492.645 Y261.443
G01 X492.114 Y257.007
G01 X491.583 Y252.572
G01 X491.052 Y248.136
G01 X490.521 Y243.701
G01 X489.990 Y239.265
G01 X489.459 Y234.829
G01 X488.928 Y230.394
G01 X488.397 Y225.958
G01 X487.866 Y221.523
G01 X487.335 Y217.087
G01 X486.804 Y212.651
G01 X486.273 Y208.216
G01 X485.742 Y203.780
G01 X485.211 Y199.345
G01 X484.680 Y194.909
G01 X484.149 Y190.474
G01 X483.618 Y186.038
G01 X483.087 Y181.602
G01 X482.556 Y177.167
G01 X482.025 Y172.731
G01 X481.494 Y168.296
G01 X480.963 Y163.860
G01 X480.432 Y159.425
G01 X479.901 Y154.989
G01 X479.370 Y150.553
G01 X479.957 Y154.603
G01 X480.545 Y158.652
G01 X481.133 Y162.701
G01 X481.721 Y166.750
G01 X482.308 Y170.799
G01 X482.896 Y174.848
G01 X483.484 Y178.897
G01 X484.072 Y182.947
G01 X484.660 Y186.996
G01 X485.247 Y191.045
G01 X485.835 Y195.094
G01 X486.423 Y199.143
G01 X487.011 Y203.192
G01 X487.598 Y207.241
G01 X488.186 Y211.291
G01 X488.774 Y215.340
G01 X489.362 Y219.389
G01 X489.950 Y223.438
G01 X490.537 Y227.487
G01 X491.125 Y231.536
G01 X491.713 Y235.585
G01 X492.301 Y239.634
G01 X492.888 Y243.684
G01 X493.476 Y247.733
G01 X494.064 Y251.782
G01 X494.652 Y255.831
G01 X495.239 Y259.880
G01 X495.827 Y263.929
G01 X496.415 Y267.978
G01 X497.003 Y272.028
G01 X497.591 Y276.077
G01 X498.178 Y280.126
G01 X497.353 Y275.578
G01 X496.528 Y271.030
G01 X495.703 Y266.482
G01 X494.877 Y261.935
G01 X494.052 Y257.387
G01 X493.227 Y252.839
G01 X492.401 Y248.291
G01 X491.576 Y243.744
G01 X490.751 Y239.196
G01 X489.926 Y234.648
G01 X489.101 Y230.100
G01 X488.275 Y225.552
G01 X487.450 Y221.005
G01 X486.625 Y216.457
G01 X485.799 Y211.909
G01 X484.974 Y207.361
G01 X484.149 Y202.813
G01 X483.324 Y198.266
G01 X482.498 Y193.718
G01 X481.673 Y189.170
G01 X480.848 Y184.622
G01 X480.023 Y180.075
G01 X479.198 Y175.527
G01 X478.372 Y170.979
G01 X477.547 Y166.431
G01 X476.722 Y161.883
G01 X475.897 Y157.336
G01 X475.071 Y152.788
G01 X474.246 Y148.240
G01 X473.421 Y143.692
G01 X472.596 Y139.144
G01 X471.770 Y134.597
G01 X472.633 Y138.756
G01 X473.495 Y142.915
G01 X474.358 Y147.074
G01 X475.221 Y151.233
G01 X476.083 Y155.392
G01 X476.946 Y159.551
G01 X477.809 Y163.710
G01 X478.671 Y167.869
G01 X479.534 Y172.028
G01 X480.396 Y176.187
G01 X481.259 Y180.346
G01 X482.122 Y184.505
G01 X482.984 Y188.663
G01 X483.847 Y192.823
G01 X484.709 Y196.982
G01 X485.572 Y201.141
G01 X486.435 Y205.299
G01 X487.297 Y209.458
G01 X488.160 Y213.618
G01 X489.022 Y217.777
G01 X489.885 Y221.936
G01 X490.748 Y226.094
G01 X491.610 Y230.253
G01 X492.473 Y234.412
G01 X493.336 Y238.571
G01 X494.198 Y242.731
G01 X495.061 Y246.889
G01 X495.923 Y251.048
G01 X496.786 Y255.208
G01 X497.648 Y259.366
G01 X498.511 Y263.525
G01 X499.374 Y267.684
G01 X498.239 Y263.045
G01 X497.104 Y258.405
G01 X495.970 Y253.765
G01 X494.835 Y249.126
G01 X493.700 Y244.486
G01 X492.565 Y239.847
G01 X491.431 Y235.207
G01 X490.296 Y230.567
G01 X489.161 Y225.928
G01 X488.027 Y221.288
G01 X486.892 Y216.648
G01 X485.757 Y212.009
G01 X484.622 Y207.369
G01 X483.488 Y202.730
G01 X482.353 Y198.090
G01 X481.218 Y193.450
G01 X480.084 Y188.811
G01 X478.949 Y184.171
G01 X477.814 Y179.532
G01 X476.679 Y174.892
G01 X475.545 Y170.252
G01 X474.410 Y165.613
G01 X473.275 Y160.973
G01 X472.140 Y156.333
G01 X471.006 Y151.694
G01 X469.871 Y147.054
G01 X468.736 Y142.415
G01 X467.602 Y137.775
G01 X466.467 Y133.135
G01 X465.332 Y128.496
G01 X464.197 Y123.856
G01 X463.063 Y119.217
G01 X464.215 Y123.466
G01 X465.368 Y127.715
G01 X466.520 Y131.965
G01 X467.673 Y136.214
G01 X468.826 Y140.464
G01 X469.978 Y144.713
G01 X471.131 Y148.963
G01 X472.284 Y153.212
G01 X473.436 Y157.462
G01 X474.589 Y161.711
G01 X475.741 Y165.961
G01 X476.894 Y170.210
G01 X478.047 Y174.459
G01 X479.199 Y178.709
G01 X480.352 Y182.958
G01 X481.504 Y187.208
G01 X482.657 Y191.457
G01 X483.809 Y195.707
G01 X484.962 Y199.956
G01 X486.115 Y204.205
G01 X487.267 Y208.455
G01 X488.420 Y212.704
G01 X489.573 Y216.954
G01 X490.725 Y221.203
G01 X491.878 Y225.453
G01 X493.030 Y229.702
G01 X494.183 Y233.952
G01 X495.335 Y238.201
G01 X496.488 Y242.451
G01 X497.641 Y246.700
G01 X498.793 Y250.949
G01 X499.946 Y255.199
G01 X498.488 Y250.489
G01 X497.030 Y245.779
G01 X495.572 Y241.070
G01 X494.114 Y236.360
G01 X492.656 Y231.651
G01 X491.198 Y226.941
G01 X489.740 Y222.231
G01 X488.282 Y217.522
G01 X486.824 Y212.812
G01 X485.366 Y208.102
G01 X483.908 Y203.393
G01 X482.450 Y198.683
G01 X480.992 Y193.973
G01 X479.534 Y189.264
G01 X478.076 Y184.554
G01 X476.618 Y179.845
G01 X475.160 Y175.135
G01 X473.702 Y170.425
G01 X472.244 Y165.716
G01 X470.786 Y161.006
G01 X469.328 Y156.296
G01 X467.870 Y151.587
G01 X466.412 Y146.877
G01 X464.954 Y142.167
G01 X463.496 Y137.458
G01 X462.038 Y132.748
G01 X460.580 Y128.039
G01 X459.122 Y123.329
G01 X457.664 Y118.619
G01 X456.206 Y113.909
G01 X454.748 Y109.200
G01 X453.290 Y104.490
G01 X454.746 Y108.809
G01 X456.203 Y113.128
G01 X457.659 Y117.447
G01 X459.116 Y121.766
G01 X460.572 Y126.086
G01 X462.028 Y130.405
G01 X463.485 Y134.724
G01 X464.941 Y139.043
G01 X466.397 Y143.362
G01 X467.854 Y147.681
G01 X469.310 Y152.000
G01 X470.766 Y156.319
G01 X472.223 Y160.638
G01 X473.679 Y164.957
G01 X475.135 Y169.276
G01 X476.592 Y173.595
G01 X478.048 Y177.914
G01 X479.504 Y182.233
G01 X480.961 Y186.552
G01 X482.417 Y190.872
G01 X483.874 Y195.191
G01 X485.330 Y199.510
G01 X486.786 Y203.829
G01 X488.243 Y208.148
G01 X489.699 Y212.467
G01 X491.155 Y216.786
G01 X492.612 Y221.105
G01 X494.068 Y225.424
G01 X495.524 Y229.743
G01 X496.981 Y234.062
G01 X498.437 Y238.381
G01 X499.893 Y242.700
G01 X498.100 Y237.944
G01 X496.306 Y233.187
G01 X494.513 Y228.431
G01 X492.719 Y223.674
G01 X490.926 Y218.918
G01 X489.133 Y214.161
G01 X487.339 Y209.404
G01 X485.545 Y204.648
G01 X483.752 Y199.891
G01 X481.958 Y195.135
G01 X480.165 Y190.378
G01 X478.372 Y185.622
G01 X476.578 Y180.865
G01 X474.784 Y176.109
G01 X472.991 Y171.352
G01 X471.197 Y166.596
G01 X469.404 Y161.839
G01 X467.610 Y157.083
G01 X465.817 Y152.326
G01 X464.024 Y147.569
G01 X462.230 Y142.813
G01 X460.437 Y138.056
G01 X458.643 Y133.300
G01 X456.849 Y128.543
G01 X455.056 Y123.787
G01 X453.263 Y119.030
G01 X451.469 Y114.274
G01 X449.676 Y109.517
G01 X447.882 Y104.760
G01 X446.089 Y100.004
G01 X444.295 Y95.248
G01 X442.502 Y90.491
G01 X444.274 Y94.858
G01 X446.046 Y99.224
G01 X447.819 Y103.591
G01 X449.591 Y107.957
G01 X451.363 Y112.324
G01 X453.136 Y116.690
G01 X454.908 Y121.057
G01 X456.680 Y125.423
G01 X458.453 Y129.790
G01 X460.225 Y134.156
G01 X461.997 Y138.523
G01 X463.770 Y142.889
G01 X465.542 Y147.256
G01 X467.314 Y151.622
G01 X469.087 Y155.989
G01 X470.859 Y160.356
G01 X472.631 Y164.722
G01 X474.403 Y169.088
G01 X476.176 Y173.455
G01 X477.948 Y177.822
G01 X479.720 Y182.188
G01 X481.493 Y186.555
G01 X483.265 Y190.921
G01 X485.037 Y195.288
G01 X486.810 Y199.654
G01 X488.582 Y204.021
G01 X490.355 Y208.387
G01 X492.127 Y212.754
G01 X493.899 Y217.120
G01 X495.672 Y221.487
G01 X497.444 Y225.854
G01 X499.216 Y230.220
G01 X497.077 Y225.441
G01 X494.937 Y220.662
G01 X492.798 Y215.883
G01 X490.658 Y211.104
G01 X488.519 Y206.324
G01 X486.379 Y201.545
G01 X484.239 Y196.766
G01 X482.100 Y191.987
G01 X479.960 Y187.208
G01 X477.821 Y182.429
G01 X475.681 Y177.650
G01 X473.542 Y172.871
G01 X471.402 Y168.092
G01 X469.263 Y163.313
G01 X467.123 Y158.534
G01 X464.984 Y153.754
G01 X462.844 Y148.975
G01 X460.705 Y144.196
G01 X458.565 Y139.417
G01 X456.425 Y134.638
G01 X454.286 Y129.859
G01 X452.147 Y125.080
G01 X450.007 Y120.301
G01 X447.867 Y115.522
G01 X445.728 Y110.743
G01 X443.588 Y105.964
G01 X441.449 Y101.184
G01 X439.309 Y96.405
G01 X437.170 Y91.626
G01 X435.030 Y86.847
G01 X432.890 Y82.068
G01 X430.751 Y77.289
G01 X432.850 Y81.680
G01 X434.949 Y86.070
G01 X437.048 Y90.461
G01 X439.147 Y94.852
G01 X441.246 Y99.242
G01 X443.344 Y103.633
G01 X445.443 Y108.023
G01 X447.542 Y112.414
G01 X449.641 Y116.805
G01 X451.740 Y121.195
G01 X453.839 Y125.586
G01 X455.938 Y129.977
G01 X458.037 Y134.367
G01 X460.136 Y138.758
G01 X462.235 Y143.148
G01 X464.334 Y147.539
G01 X466.433 Y151.929
G01 X468.531 Y156.320
G01 X470.630 Y160.711
G01 X472.729 Y165.102
G01 X474.828 Y169.492
G01 X476.927 Y173.883
G01 X479.026 Y178.273
G01 X481.125 Y182.664
G01 X483.224 Y187.055
G01 X485.323 Y191.445
G01 X487.422 Y195.836
G01 X489.521 Y200.227
G01 X491.619 Y204.617
G01 X493.718 Y209.008
G01 X495.817 Y213.398
G01 X497.916 Y217.789
G01 X495.422 Y213.013
G01 X492.927 Y208.237
G01 X490.433 Y203.460
G01 X487.939 Y198.684
G01 X485.445 Y193.908
G01 X482.950 Y189.132
G01 X480.456 Y184.356
G01 X477.961 Y179.579
G01 X475.467 Y174.803
G01 X472.973 Y170.027
G01 X470.478 Y165.251
G01 X467.984 Y160.474
G01 X465.490 Y155.698
G01 X462.995 Y150.922
G01 X460.501 Y146.146
G01 X458.007 Y141.370
G01 X455.512 Y136.593
G01 X453.018 Y131.817
G01 X450.523 Y127.041
G01 X448.029 Y122.265
G01 X445.535 Y117.489
G01 X443.040 Y112.712
G01 X440.546 Y107.936
G01 X438.052 Y103.160
G01 X435.557 Y98.384
G01 X433.063 Y93.608
G01 X430.569 Y88.831
G01 X428.074 Y84.055
G01 X425.580 Y79.279
G01 X423.086 Y74.503
G01 X420.591 Y69.727
G01 X418.097 Y64.950
G01 X420.531 Y69.340
G01 X422.966 Y73.731
G01 X425.400 Y78.121
G01 X427.834 Y82.511
G01 X430.269 Y86.901
G01 X432.703 Y91.292
G01 X435.138 Y95.682
G01 X437.572 Y100.072
G01 X440.006 Y104.463
G01 X442.441 Y108.853
G01 X444.875 Y113.243
G01 X447.309 Y117.633
G01 X449.744 Y122.024
G01 X452.178 Y126.414
G01 X454.612 Y130.804
G01 X457.047 Y135.194
G01 X459.481 Y139.585
G01 X461.915 Y143.975
G01 X464.350 Y148.365
G01 X466.784 Y152.755
G01 X469.218 Y157.146
G01 X471.653 Y161.536
G01 X474.087 Y165.926
G01 X476.522 Y170.317
G01 X478.956 Y174.707
G01 X481.390 Y179.097
G01 X483.825 Y183.487
G01 X486.259 Y187.878
G01 X488.693 Y192.268
G01 X491.128 Y196.658
G01 X493.562 Y201.048
G01 X495.997 Y205.439
G01 X493.141 Y200.692
G01 X490.284 Y195.945
G01 X487.428 Y191.198
G01 X484.572 Y186.451
G01 X481.716 Y181.704
G01 X478.860 Y176.957
G01 X476.004 Y172.210
G01 X473.148 Y167.463
G01 X470.292 Y162.716
G01 X467.436 Y157.969
G01 X464.580 Y153.222
G01 X461.724 Y148.475
G01 X458.868 Y143.728
G01 X456.012 Y138.981
G01 X453.156 Y134.234
G01 X450.300 Y129.487
G01 X447.444 Y124.741
G01 X444.588 Y119.994
G01 X441.731 Y115.247
G01 X438.875 Y110.500
G01 X436.019 Y105.753
G01 X433.163 Y101.006
G01 X430.307 Y96.259
G01 X427.451 Y91.512
G01 X424.595 Y86.765
G01 X421.739 Y82.018
G01 X418.883 Y77.271
G01 X416.027 Y72.524
G01 X413.171 Y67.777
G01 X410.315 Y63.030
G01 X407.459 Y58.283
G01 X404.603 Y53.536
G01 X407.380 Y57.901
G01 X410.156 Y62.265
G01 X412.934 Y66.630
G01 X415.710 Y70.994
G01 X418.487 Y75.359
G01 X421.264 Y79.723
G01 X424.041 Y84.088
G01 X426.818 Y88.452
G01 X429.594 Y92.817
G01 X432.371 Y97.181
G01 X435.148 Y101.546
G01 X437.925 Y105.910
G01 X440.702 Y110.275
G01 X443.479 Y114.639
G01 X446.256 Y119.004
G01 X449.032 Y123.368
G01 X451.809 Y127.733
G01 X454.586 Y132.097
G01 X457.363 Y136.462
G01 X460.140 Y140.826
G01 X462.917 Y145.190
G01 X465.693 Y149.555
G01 X468.470 Y153.919
G01 X471.247 Y158.284
G01 X474.024 Y162.648
G01 X476.801 Y167.013
G01 X479.578 Y171.377
G01 X482.355 Y175.742
G01 X485.132 Y180.106
G01 X487.908 Y184.471
G01 X490.685 Y188.835
G01 X493.462 Y193.200
G01 X490.239 Y188.509
G01 X487.017 Y183.819
G01 X483.794 Y179.128
G01 X480.571 Y174.438
G01 X477.349 Y169.747
G01 X474.126 Y165.057
G01 X470.903 Y160.366
G01 X467.680 Y155.676
G01 X464.458 Y150.985
G01 X461.235 Y146.295
G01 X458.012 Y141.604
G01 X454.790 Y136.914
G01 X451.567 Y132.223
G01 X448.344 Y127.533
G01 X445.122 Y122.842
G01 X441.899 Y118.152
G01 X438.676 Y113.462
G01 X435.454 Y108.771
G01 X432.231 Y104.081
G01 X429.008 Y99.390
G01 X425.785 Y94.700
G01 X422.563 Y90.009
G01 X419.340 Y85.319
G01 X416.117 Y80.628
G01 X412.895 Y75.938
G01 X409.672 Y71.247
G01 X406.449 Y66.557
G01 X403.227 Y61.866
G01 X400.004 Y57.176
G01 X396.781 Y52.485
G01 X393.559 Y47.795
G01 X390.336 Y43.104
G01 X393.460 Y47.417
G01 X396.585 Y51.729
G01 X399.709 Y56.042
G01 X402.834 Y60.354
G01 X405.958 Y64.666
G01 X409.083 Y68.979
G01 X412.207 Y73.291
G01 X415.332 Y77.604
G01 X418.456 Y81.916
G01 X421.580 Y86.229
G01 X424.705 Y90.541
G01 X427.830 Y94.854
G01 X430.954 Y99.166
G01 X434.078 Y103.479
G01 X437.203 Y107.791
G01 X440.327 Y112.103
G01 X443.452 Y116.416
G01 X446.576 Y120.728
G01 X449.701 Y125.041
G01 X452.825 Y129.353
G01 X455.950 Y133.666
G01 X459.074 Y137.978
G01 X462.199 Y142.290
G01 X465.323 Y146.603
G01 X468.448 Y150.915
G01 X471.572 Y155.228
G01 X474.697 Y159.540
G01 X477.821 Y163.853
G01 X480.945 Y168.165
G01 X484.070 Y172.478
G01 X487.194 Y176.790
G01 X490.319 Y181.103
G01 X486.727 Y176.496
G01 X483.134 Y171.890
G01 X479.542 Y167.284
G01 X475.950 Y162.678
G01 X472.358 Y158.072
G01 X468.765 Y153.466
G01 X465.173 Y148.860
G01 X461.581 Y144.254
G01 X457.989 Y139.647
G01 X454.397 Y135.041
G01 X450.804 Y130.435
G01 X447.212 Y125.829
G01 X443.620 Y121.223
G01 X440.028 Y116.617
G01 X436.435 Y112.011
G01 X432.843 Y107.405
G01 X429.251 Y102.798
G01 X425.659 Y98.192
G01 X422.066 Y93.586
G01 X418.474 Y88.980
G01 X414.882 Y84.374
G01 X411.290 Y79.768
G01 X407.698 Y75.162
G01 X404.105 Y70.555
G01 X400.513 Y65.949
G01 X396.921 Y61.343
G01 X393.329 Y56.737
G01 X389.737 Y52.131
G01 X386.144 Y47.525
G01 X382.552 Y42.919
G01 X378.960 Y38.313
G01 X375.368 Y33.706
G01 X378.843 Y37.940
G01 X382.318 Y42.173
G01 X385.794 Y46.407
G01 X389.269 Y50.640
G01 X392.744 Y54.874
G01 X396.219 Y59.107
G01 X399.694 Y63.341
G01 X403.170 Y67.574
G01 X406.645 Y71.808
G01 X410.120 Y76.041
G01 X413.595 Y80.275
G01 X417.070 Y84.508
G01 X420.546 Y88.742
G01 X424.021 Y92.975
G01 X427.496 Y97.209
G01 X430.971 Y101.442
G01 X434.447 Y105.676
G01 X437.922 Y109.909
G01 X441.397 Y114.143
G01 X444.872 Y118.376
G01 X448.347 Y122.609
G01 X451.823 Y126.843
G01 X455.298 Y131.076
G01 X458.773 Y135.310
G01 X462.248 Y139.543
G01 X465.724 Y143.777
G01 X469.199 Y148.010
G01 X472.674 Y152.244
G01 X476.149 Y156.477
G01 X479.625 Y160.711
G01 X483.100 Y164.944
G01 X486.575 Y169.178
G01 X482.613 Y164.684
G01 X478.650 Y160.191
G01 X474.687 Y155.698
G01 X470.725 Y151.204
G01 X466.762 Y146.711
G01 X462.800 Y142.217
G01 X458.837 Y137.724
G01 X454.874 Y133.231
G01 X450.912 Y128.737
G01 X446.949 Y124.244
G01 X442.987 Y119.750
G01 X439.024 Y115.257
G01 X435.062 Y110.764
G01 X431.099 Y106.270
G01 X427.136 Y101.777
G01 X423.174 Y97.284
G01 X419.211 Y92.790
G01 X415.249 Y88.297
G01 X411.286 Y83.804
G01 X407.324 Y79.310
G01 X403.361 Y74.817
G01 X399.399 Y70.323
G01 X395.436 Y65.830
G01 X391.473 Y61.337
G01 X387.511 Y56.843
G01 X383.548 Y52.350
G01 X379.586 Y47.856
G01 X375.623 Y43.363
G01 X371.661 Y38.870
G01 X367.698 Y34.376
G01 X363.736 Y29.883
G01 X359.773 Y25.389
G01 X363.600 Y29.516
G01 X367.427 Y33.644
G01 X371.254 Y37.770
G01 X375.081 Y41.898
G01 X378.908 Y46.025
G01 X382.735 Y50.152
G01 X386.563 Y54.279
G01 X390.390 Y58.406
G01 X394.217 Y62.533
G01 X398.044 Y66.660
G01 X401.871 Y70.787
G01 X405.698 Y74.914
G01 X409.525 Y79.041
G01 X413.352 Y83.168
G01 X417.179 Y87.295
G01 X421.007 Y91.422
G01 X424.834 Y95.549
G01 X428.661 Y99.676
G01 X432.488 Y103.803
G01 X436.315 Y107.930
G01 X440.142 Y112.058
G01 X443.969 Y116.185
G01 X447.796 Y120.312
G01 X451.623 Y124.439
G01 X455.450 Y128.566
G01 X459.277 Y132.693
G01 X463.104 Y136.820
G01 X466.932 Y140.947
G01 X470.759 Y145.074
G01 X474.586 Y149.201
G01 X478.413 Y153.328
G01 X482.240 Y157.455
G01 X477.908 Y153.103
G01 X473.577 Y148.751
G01 X469.245 Y144.399
G01 X464.914 Y140.047
G01 X460.582 Y135.696
G01 X456.250 Y131.344
G01 X451.919 Y126.992
G01 X447.587 Y122.640
G01 X443.256 Y118.288
G01 X438.924 Y113.936
G01 X434.593 Y109.584
G01 X430.261 Y105.232
G01 X425.929 Y100.881
G01 X421.598 Y96.529
G01 X417.266 Y92.177
G01 X412.935 Y87.825
G01 X408.603 Y83.473
G01 X404.272 Y79.121
G01 X399.940 Y74.769
G01 X395.608 Y70.417
G01 X391.277 Y66.066
G01 X386.945 Y61.714
G01 X382.614 Y57.362
G01 X378.282 Y53.010
G01 X373.951 Y48.658
G01 X369.619 Y44.306
G01 X365.287 Y39.954
G01 X360.956 Y35.602
G01 X356.624 Y31.251
G01 X352.293 Y26.899
G01 X347.961 Y22.547
G01 X343.629 Y18.195
G01 X347.807 Y22.188
G01 X351.985 Y26.181
G01 X356.163 Y30.173
G01 X360.341 Y34.166
G01 X364.519 Y38.159
G01 X368.697 Y42.152
G01 X372.875 Y46.144
G01 X377.053 Y50.137
G01 X381.231 Y54.130
G01 X385.409 Y58.123
G01 X389.587 Y62.115
G01 X393.765 Y66.108
G01 X397.943 Y70.101
G01 X402.121 Y74.094
G01 X406.299 Y78.087
G01 X410.477 Y82.079
G01 X414.655 Y86.072
G01 X418.833 Y90.065
G01 X423.011 Y94.058
G01 X427.189 Y98.050
G01 X431.367 Y102.043
G01 X435.545 Y106.036
G01 X439.723 Y110.029
G01 X443.901 Y114.021
G01 X448.079 Y118.014
G01 X452.257 Y122.007
G01 X456.434 Y126.000
G01 X460.613 Y129.992
G01 X464.791 Y133.985
G01 X468.969 Y137.978
G01 X473.147 Y141.971
G01 X477.324 Y145.964
G01 X472.627 Y141.782
G01 X467.930 Y137.601
G01 X463.233 Y133.419
G01 X458.536 Y129.238
G01 X453.839 Y125.057
G01 X449.142 Y120.875
G01 X444.445 Y116.694
G01 X439.748 Y112.513
G01 X435.051 Y108.331
G01 X430.354 Y104.150
G01 X425.657 Y99.968
G01 X420.960 Y95.787
G01 X416.263 Y91.606
G01 X411.565 Y87.424
G01 X406.868 Y83.243
G01 X402.171 Y79.061
G01 X397.474 Y74.880
G01 X392.777 Y70.699
G01 X388.080 Y66.517
G01 X383.383 Y62.336
G01 X378.686 Y58.154
G01 X373.989 Y53.973
G01 X369.292 Y49.792
G01 X364.595 Y45.610
G01 X359.898 Y41.429
G01 X355.200 Y37.248
G01 X350.504 Y33.066
G01 X345.806 Y28.885
G01 X341.109 Y24.703
G01 X336.412 Y20.522
G01 X331.715 Y16.341
G01 X327.018 Y12.159
G01 X331.544 Y15.990
G01 X336.069 Y19.820
G01 X340.595 Y23.650
G01 X345.121 Y27.481
G01 X349.647 Y31.311
G01 X354.172 Y35.142
G01 X358.698 Y38.972
G01 X363.224 Y42.802
G01 X367.749 Y46.633
G01 X372.275 Y50.463
G01 X376.801 Y54.294
G01 X381.327 Y58.124
G01 X385.852 Y61.954
G01 X390.378 Y65.785
G01 X394.904 Y69.615
G01 X399.429 Y73.446
G01 X403.955 Y77.276
G01 X408.481 Y81.106
G01 X413.006 Y84.937
G01 X417.532 Y88.767
G01 X422.058 Y92.598
G01 X426.584 Y96.428
G01 X431.109 Y100.258
G01 X435.635 Y104.089
G01 X440.161 Y107.919
G01 X444.686 Y111.750
G01 X449.212 Y115.580
G01 X453.738 Y119.410
G01 X458.264 Y123.241
G01 X462.789 Y127.071
G01 X467.315 Y130.902
G01 X471.841 Y134.732
G01 X466.784 Y130.750
G01 X461.727 Y126.768
G01 X456.670 Y122.786
G01 X451.613 Y118.805
G01 X446.556 Y114.822
G01 X441.500 Y110.841
G01 X436.443 Y106.859
G01 X431.386 Y102.877
G01 X426.329 Y98.895
G01 X421.272 Y94.913
G01 X416.215 Y90.931
G01 X411.159 Y86.950
G01 X406.102 Y82.968
G01 X401.045 Y78.986
G01 X395.988 Y75.004
G01 X390.931 Y71.022
G01 X385.874 Y67.040
G01 X380.818 Y63.058
G01 X375.761 Y59.076
G01 X370.704 Y55.095
G01 X365.647 Y51.113
G01 X360.590 Y47.131
G01 X355.533 Y43.149
G01 X350.476 Y39.167
G01 X345.420 Y35.185
G01 X340.363 Y31.203
G01 X335.306 Y27.221
G01 X330.249 Y23.240
G01 X325.192 Y19.258
G01 X320.135 Y15.276
G01 X315.078 Y11.294
G01 X310.022 Y7.312
G01 X314.890 Y10.952
G01 X319.758 Y14.592
G01 X324.626 Y18.232
G01 X329.494 Y21.872
G01 X334.362 Y25.512
G01 X339.231 Y29.152
G01 X344.099 Y32.791
G01 X348.967 Y36.431
G01 X353.835 Y40.071
G01 X358.703 Y43.711
G01 X363.571 Y47.351
G01 X368.439 Y50.991
G01 X373.308 Y54.631
G01 X378.176 Y58.271
G01 X383.044 Y61.911
G01 X387.912 Y65.550
G01 X392.780 Y69.190
G01 X397.648 Y72.830
G01 X402.517 Y76.470
G01 X407.385 Y80.110
G01 X412.253 Y83.750
G01 X417.121 Y87.390
G01 X421.989 Y91.030
G01 X426.857 Y94.669
G01 X431.725 Y98.309
G01 X436.594 Y101.949
G01 X441.462 Y105.589
G01 X446.330 Y109.229
G01 X451.198 Y112.869
G01 X456.066 Y116.509
G01 X460.934 Y120.149
G01 X465.802 Y123.789
G01 X460.394 Y120.035
G01 X454.985 Y116.282
G01 X449.577 Y112.528
G01 X444.168 Y108.775
G01 X438.759 Y105.021
G01 X433.350 Y101.268
G01 X427.942 Y97.514
G01 X422.533 Y93.761
G01 X417.124 Y90.008
G01 X411.716 Y86.254
G01 X406.307 Y82.501
G01 X400.899 Y78.747
G01 X395.490 Y74.994
G01 X390.081 Y71.240
G01 X384.673 Y67.487
G01 X379.264 Y63.733
G01 X373.855 Y59.980
G01 X368.447 Y56.226
G01 X363.038 Y52.473
G01 X357.629 Y48.719
G01 X352.221 Y44.966
G01 X346.812 Y41.213
G01 X341.403 Y37.459
G01 X335.995 Y33.706
G01 X330.586 Y29.952
G01 X325.177 Y26.199
G01 X319.769 Y22.445
G01 X314.360 Y18.692
G01 X308.952 Y14.938
G01 X303.543 Y11.185
G01 X298.134 Y7.431
G01 X292.725 Y3.678
G01 X297.928 Y7.099
G01 X303.132 Y10.521
G01 X308.335 Y13.942
G01 X313.538 Y17.363
G01 X318.741 Y20.785
G01 X323.944 Y24.206
G01 X329.147 Y27.627
G01 X334.350 Y31.049
G01 X339.553 Y34.470
G01 X344.756 Y37.891
G01 X349.960 Y41.313
G01 X355.163 Y44.734
G01 X360.366 Y48.155
G01 X365.569 Y51.577
G01 X370.772 Y54.998
G01 X375.975 Y58.419
G01 X381.178 Y61.841
G01 X386.381 Y65.262
G01 X391.585 Y68.683
G01 X396.787 Y72.105
G01 X401.991 Y75.526
G01 X407.194 Y78.947
G01 X412.397 Y82.369
G01 X417.600 Y85.790
G01 X422.803 Y89.212
G01 X428.006 Y92.633
G01 X433.209 Y96.054
G01 X438.413 Y99.475
G01 X443.615 Y102.897
G01 X448.819 Y106.318
G01 X454.022 Y109.740
G01 X459.225 Y113.161
G01 X453.474 Y109.664
G01 X447.724 Y106.168
G01 X441.974 Y102.672
G01 X436.224 Y99.175
G01 X430.473 Y95.679
G01 X424.723 Y92.182
G01 X418.973 Y88.686
G01 X413.223 Y85.189
G01 X407.472 Y81.693
G01 X401.722 Y78.196
G01 X395.972 Y74.700
G01 X390.221 Y71.204
G01 X384.471 Y67.707
G01 X378.721 Y64.211
G01 X372.970 Y60.714
G01 X367.220 Y57.218
G01 X361.470 Y53.721
G01 X355.720 Y50.225
G01 X349.969 Y46.729
G01 X344.219 Y43.232
G01 X338.469 Y39.736
G01 X332.719 Y36.239
G01 X326.968 Y32.743
G01 X321.218 Y29.246
G01 X315.467 Y25.750
G01 X309.717 Y22.254
G01 X303.967 Y18.757
G01 X298.217 Y15.261
G01 X292.466 Y11.764
G01 X286.716 Y8.268
G01 X280.966 Y4.771
G01 X275.215 Y1.275
G01 X280.744 Y4.450
G01 X286.272 Y7.625
G01 X291.801 Y10.800
G01 X297.329 Y13.975
G01 X302.858 Y17.150
G01 X308.386 Y20.325
G01 X313.914 Y23.500
G01 X319.443 Y26.675
G01 X324.971 Y29.850
G01 X330.500 Y33.025
G01 X336.028 Y36.200
G01 X341.556 Y39.375
G01 X347.085 Y42.550
G01 X352.613 Y45.725
G01 X358.142 Y48.900
G01 X363.670 Y52.075
G01 X369.198 Y55.250
G01 X374.727 Y58.425
G01 X380.255 Y61.600
G01 X385.784 Y64.775
G01 X391.312 Y67.950
G01 X396.840 Y71.125
G01 X402.369 Y74.300
G01 X407.897 Y77.475
G01 X413.426 Y80.650
G01 X418.954 Y83.825
G01 X424.482 Y87.000
G01 X430.011 Y90.175
G01 X435.539 Y93.350
G01 X441.068 Y96.525
G01 X446.596 Y99.700
G01 X452.124 Y102.875
G01 X446.045 Y99.664
G01 X439.965 Y96.452
G01 X433.886 Y93.241
G01 X427.806 Y90.030
G01 X421.727 Y86.819
G01 X415.647 Y83.607
G01 X409.568 Y80.396
G01 X403.488 Y77.185
G01 X397.409 Y73.974
G01 X391.329 Y70.763
G01 X385.249 Y67.551
G01 X379.170 Y64.340
G01 X373.090 Y61.129
G01 X367.011 Y57.917
G01 X360.932 Y54.706
G01 X354.852 Y51.495
G01 X348.772 Y48.284
G01 X342.693 Y45.072
G01 X336.613 Y41.861
G01 X330.534 Y38.650
G01 X324.454 Y35.439
G01 X318.375 Y32.227
G01 X312.295 Y29.016
G01 X306.216 Y25.805
G01 X300.136 Y22.594
G01 X294.057 Y19.383
G01 X287.977 Y16.171
G01 X281.898 Y12.960
G01 X275.818 Y9.749
G01 X269.739 Y6.537
G01 X263.659 Y3.326
G01 X257.580 Y0.115
G01 X263.422 Y3.016
G01 X269.263 Y5.917
G01 X275.105 Y8.819
G01 X280.947 Y11.720
G01 X286.789 Y14.621
G01 X292.631 Y17.523
G01 X298.473 Y20.424
G01 X304.314 Y23.325
G01 X310.156 Y26.227
G01 X315.998 Y29.128
G01 X321.840 Y32.029
G01 X327.682 Y34.931
G01 X333.524 Y37.832
G01 X339.365 Y40.733
G01 X345.207 Y43.635
G01 X351.049 Y46.536
G01 X356.891 Y49.437
G01 X362.733 Y52.338
G01 X368.574 Y55.240
G01 X374.416 Y58.141
G01 X380.258 Y61.042
G01 X386.100 Y63.944
G01 X391.942 Y66.845
G01 X397.784 Y69.746
G01 X403.626 Y72.648
G01 X409.467 Y75.549
G01 X415.309 Y78.450
G01 X421.151 Y81.352
G01 X426.993 Y84.253
G01 X432.835 Y87.154
G01 X438.677 Y90.055
G01 X444.518 Y92.957
G01 X438.124 Y90.058
G01 X431.730 Y87.160
G01 X425.336 Y84.261
G01 X418.942 Y81.363
G01 X412.548 Y78.464
G01 X406.154 Y75.566
G01 X399.759 Y72.667
G01 X393.365 Y69.769
G01 X386.971 Y66.870
G01 X380.577 Y63.971
G01 X374.183 Y61.073
G01 X367.789 Y58.174
G01 X361.395 Y55.276
G01 X355.000 Y52.377
G01 X348.606 Y49.479
G01 X342.212 Y46.580
G01 X335.818 Y43.682
G01 X329.424 Y40.783
G01 X323.030 Y37.885
G01 X316.636 Y34.986
G01 X310.241 Y32.088
G01 X303.847 Y29.189
G01 X297.453 Y26.291
G01 X291.059 Y23.392
G01 X284.665 Y20.494
G01 X278.271 Y17.595
G01 X271.877 Y14.697
G01 X265.482 Y11.798
G01 X259.088 Y8.899
G01 X252.694 Y6.001
G01 X246.300 Y3.102
G01 X239.906 Y0.204
G01 X246.047 Y2.805
G01 X252.188 Y5.406
G01 X258.330 Y8.006
G01 X264.471 Y10.607
G01 X270.612 Y13.208
G01 X276.753 Y15.809
G01 X282.895 Y18.410
G01 X289.036 Y21.011
G01 X295.177 Y23.611
G01 X301.319 Y26.212
G01 X307.460 Y28.813
G01 X313.601 Y31.414
G01 X319.742 Y34.015
G01 X325.884 Y36.616
G01 X332.025 Y39.217
G01 X338.166 Y41.818
G01 X344.308 Y44.418
G01 X350.449 Y47.019
G01 X356.590 Y49.620
G01 X362.731 Y52.221
G01 X368.872 Y54.822
G01 X375.014 Y57.423
G01 X381.155 Y60.023
G01 X387.296 Y62.624
G01 X393.438 Y65.225
G01 X399.579 Y67.826
G01 X405.720 Y70.427
G01 X411.861 Y73.028
G01 X418.003 Y75.629
G01 X424.144 Y78.230
G01 X430.285 Y80.830
G01 X436.426 Y83.431
G01 X429.735 Y80.872
G01 X423.043 Y78.313
G01 X416.350 Y75.754
G01 X409.659 Y73.195
G01 X402.967 Y70.636
G01 X396.274 Y68.077
G01 X389.582 Y65.518
G01 X382.890 Y62.959
G01 X376.199 Y60.400
G01 X369.507 Y57.841
G01 X362.814 Y55.281
G01 X356.123 Y52.722
G01 X349.430 Y50.163
G01 X342.739 Y47.604
G01 X336.047 Y45.045
G01 X329.355 Y42.486
G01 X322.663 Y39.927
G01 X315.971 Y37.368
G01 X309.279 Y34.809
G01 X302.587 Y32.250
G01 X295.895 Y29.691
G01 X289.202 Y27.132
G01 X282.510 Y24.573
G01 X275.819 Y22.014
G01 X269.127 Y19.455
G01 X262.435 Y16.896
G01 X255.743 Y14.336
G01 X249.051 Y11.777
G01 X242.359 Y9.218
G01 X235.667 Y6.659
G01 X228.975 Y4.100
G01 X222.283 Y1.541
G01 X228.707 Y3.816
G01 X235.132 Y6.090
G01 X241.556 Y8.364
G01 X247.981 Y10.639
G01 X254.405 Y12.913
G01 X260.830 Y15.188
G01 X267.254 Y17.462
G01 X273.679 Y19.736
G01 X280.104 Y22.011
G01 X286.528 Y24.285
G01 X292.953 Y26.560
G01 X299.377 Y28.834
G01 X305.802 Y31.108
G01 X312.227 Y33.383
G01 X318.651 Y35.657
G01 X325.076 Y37.932
G01 X331.500 Y40.206
G01 X337.925 Y42.480
G01 X344.349 Y44.755
G01 X350.774 Y47.029
G01 X357.198 Y49.303
G01 X363.623 Y51.578
G01 X370.048 Y53.852
G01 X376.472 Y56.127
G01 X382.897 Y58.401
G01 X389.321 Y60.676
G01 X395.746 Y62.950
G01 X402.170 Y65.224
G01 X408.595 Y67.499
G01 X415.019 Y69.773
G01 X421.444 Y72.048
G01 X427.869 Y74.322
G01 X420.897 Y72.128
G01 X413.927 Y69.934
G01 X406.956 Y67.740
G01 X399.985 Y65.547
G01 X393.014 Y63.353
G01 X386.043 Y61.159
G01 X379.072 Y58.965
G01 X372.101 Y56.772
G01 X365.130 Y54.578
G01 X358.159 Y52.384
G01 X351.188 Y50.190
G01 X344.217 Y47.996
G01 X337.246 Y45.803
G01 X330.275 Y43.609
G01 X323.304 Y41.415
G01 X316.333 Y39.221
G01 X309.362 Y37.027
G01 X302.391 Y34.834
G01 X295.420 Y32.640
G01 X288.449 Y30.446
G01 X281.478 Y28.252
G01 X274.507 Y26.058
G01 X267.536 Y23.864
G01 X260.566 Y21.671
G01 X253.595 Y19.477
G01 X246.624 Y17.283
G01 X239.653 Y15.090
G01 X232.682 Y12.896
G01 X225.711 Y10.702
G01 X218.740 Y8.508
G01 X211.769 Y6.314
G01 X204.798 Y4.120
G01 X211.487 Y6.043
G01 X218.177 Y7.966
G01 X224.867 Y9.889
G01 X231.556 Y11.812
G01 X238.246 Y13.735
G01 X244.936 Y15.657
G01 X251.625 Y17.580
G01 X258.315 Y19.503
G01 X265.004 Y21.426
G01 X271.694 Y23.349
G01 X278.384 Y25.272
G01 X285.073 Y27.195
G01 X291.763 Y29.117
G01 X298.453 Y31.040
G01 X305.142 Y32.963
G01 X311.832 Y34.886
G01 X318.522 Y36.809
G01 X325.211 Y38.732
G01 X331.901 Y40.655
G01 X338.591 Y42.578
G01 X345.280 Y44.500
G01 X351.970 Y46.423
G01 X358.659 Y48.346
G01 X365.349 Y50.269
G01 X372.039 Y52.192
G01 X378.728 Y54.115
G01 X385.418 Y56.038
G01 X392.107 Y57.960
G01 X398.797 Y59.883
G01 X405.487 Y61.806
G01 X412.176 Y63.729
G01 X418.866 Y65.652
G01 X411.637 Y63.848
G01 X404.408 Y62.044
G01 X397.179 Y60.240
G01 X389.950 Y58.436
G01 X382.721 Y56.633
G01 X375.492 Y54.829
G01 X368.263 Y53.025
G01 X361.034 Y51.221
G01 X353.805 Y49.417
G01 X346.576 Y47.613
G01 X339.347 Y45.809
G01 X332.118 Y44.006
G01 X324.889 Y42.202
G01 X317.661 Y40.398
G01 X310.431 Y38.594
G01 X303.203 Y36.790
G01 X295.973 Y34.986
G01 X288.745 Y33.182
G01 X281.516 Y31.379
G01 X274.287 Y29.575
G01 X267.058 Y27.771
G01 X259.829 Y25.967
G01 X252.600 Y24.163
G01 X245.371 Y22.359
G01 X238.142 Y20.555
G01 X230.913 Y18.752
G01 X223.684 Y16.948
G01 X216.455 Y15.144
G01 X209.226 Y13.340
G01 X201.997 Y11.536
G01 X194.768 Y9.732
G01 X187.539 Y7.928
G01 X194.474 Y9.476
G01 X201.408 Y11.023
G01 X208.342 Y12.570
G01 X215.277 Y14.118
G01 X222.211 Y15.665
G01 X229.146 Y17.212
G01 X236.080 Y18.760
G01 X243.015 Y20.307
G01 X249.949 Y21.854
G01 X256.883 Y23.402
G01 X263.818 Y24.949
G01 X270.752 Y26.496
G01 X277.687 Y28.043
G01 X284.621 Y29.591
G01 X291.556 Y31.138
G01 X298.490 Y32.685
G01 X305.425 Y34.233
G01 X312.359 Y35.780
G01 X319.294 Y37.327
G01 X326.228 Y38.875
G01 X333.163 Y40.422
G01 X340.097 Y41.969
G01 X347.031 Y43.517
G01 X353.966 Y45.064
G01 X360.900 Y46.611
G01 X367.835 Y48.158
G01 X374.769 Y49.706
G01 X381.704 Y51.253
G01 X388.638 Y52.800
G01 X395.572 Y54.348
G01 X402.507 Y55.895
G01 X409.441 Y57.442
G01 X405.709 Y56.747
G01 X401.977 Y56.052
G01 X398.245 Y55.357
G01 X394.513 Y54.661
G01 X390.781 Y53.966
G01 X387.049 Y53.271
G01 X383.317 Y52.576
G01 X379.585 Y51.880
G01 X375.853 Y51.185
G01 X372.121 Y50.490
G01 X368.389 Y49.795
G01 X364.657 Y49.099
G01 X360.925 Y48.404
G01 X357.193 Y47.709
G01 X353.461 Y47.014
G01 X349.729 Y46.318
G01 X345.997 Y45.623
G01 X342.265 Y44.928
G01 X338.533 Y44.233
G01 X334.801 Y43.537
G01 X331.069 Y42.842
G01 X327.337 Y42.147
G01 X323.605 Y41.452
G01 X319.873 Y40.756
G01 X316.141 Y40.061
G01 X312.409 Y39.366
G01 X308.677 Y38.671
G01 X304.945 Y37.975
G01 X301.213 Y37.280
G01 X297.481 Y36.585
G01 X293.749 Y35.890
G01 X290.017 Y35.194
G01 X286.285 Y34.499
G01 X282.553 Y33.804
G01 X278.821 Y33.109
G01 X275.089 Y32.413
G01 X271.357 Y31.718
G01 X267.625 Y31.023
G01 X263.893 Y30.328
G01 X260.161 Y29.632
G01 X256.429 Y28.937
G01 X252.697 Y28.242
G01 X248.965 Y27.547
G01 X245.233 Y26.851
G01 X241.501 Y26.156
G01 X237.769 Y25.461
G01 X234.037 Y24.766
G01 X230.305 Y24.070
G01 X226.573 Y23.375
G01 X222.840 Y22.680
G01 X219.108 Y21.985
G01 X215.377 Y21.289
G01 X211.645 Y20.594
G01 X207.912 Y19.899
G01 X204.181 Y19.204
G01 X200.448 Y18.508
G01 X196.717 Y17.813
G01 X192.984 Y17.118
G01 X189.252 Y16.423
G01 X185.520 Y15.727
G01 X181.788 Y15.032
G01 X178.056 Y14.337
G01 X174.324 Y13.642
G01 X170.592 Y12.946
G01 X177.749 Y14.095
G01 X184.907 Y15.244
G01 X192.064 Y16.393
G01 X199.221 Y17.542
G01 X206.378 Y18.691
G01 X213.535 Y19.840
G01 X220.692 Y20.989
G01 X227.849 Y22.138
G01 X235.006 Y23.287
G01 X242.163 Y24.436
G01 X249.320 Y25.585
G01 X256.477 Y26.734
G01 X263.634 Y27.883
G01 X270.791 Y29.032
G01 X277.948 Y30.181
G01 X285.105 Y31.330
G01 X292.262 Y32.479
G01 X299.419 Y33.628
G01 X306.577 Y34.777
G01 X313.734 Y35.926
G01 X320.891 Y37.075
G01 X328.048 Y38.224
G01 X335.205 Y39.373
G01 X342.362 Y40.522
G01 X349.519 Y41.671
G01 X356.676 Y42.820
G01 X363.833 Y43.969
G01 X370.990 Y45.118
G01 X378.147 Y46.267
G01 X385.304 Y47.416
G01 X392.461 Y48.565
G01 X399.618 Y49.714
G01 X395.781 Y49.237
G01 X391.944 Y48.759
G01 X388.107 Y48.282
G01 X384.270 Y47.804
G01 X380.433 Y47.326
G01 X376.596 Y46.849
G01 X372.759 Y46.371
G01 X368.921 Y45.894
G01 X365.084 Y45.416
G01 X361.247 Y44.938
G01 X357.410 Y44.461
G01 X353.573 Y43.983
G01 X349.736 Y43.506
G01 X345.898 Y43.028
G01 X342.062 Y42.551
G01 X338.224 Y42.073
G01 X334.387 Y41.595
G01 X330.550 Y41.118
G01 X326.713 Y40.640
G01 X322.876 Y40.163
G01 X319.039 Y39.685
G01 X315.202 Y39.207
G01 X311.364 Y38.730
G01 X307.527 Y38.252
G01 X303.690 Y37.775
G01 X299.853 Y37.297
G01 X296.016 Y36.820
G01 X292.179 Y36.342
G01 X288.342 Y35.864
G01 X284.505 Y35.387
G01 X280.667 Y34.909
G01 X276.830 Y34.432
G01 X272.993 Y33.954
G01 X269.156 Y33.476
G01 X265.319 Y32.999
G01 X261.482 Y32.521
G01 X257.645 Y32.044
G01 X253.808 Y31.566
G01 X249.971 Y31.089
G01 X246.133 Y30.611
G01 X242.296 Y30.133
G01 X238.459 Y29.656
G01 X234.622 Y29.178
G01 X230.785 Y28.701
G01 X226.948 Y28.223
G01 X223.111 Y27.745
G01 X219.274 Y27.268
G01 X215.437 Y26.790
G01 X211.599 Y26.313
G01 X207.762 Y25.835
G01 X203.925 Y25.358
G01 X200.088 Y24.880
G01 X196.251 Y24.403
G01 X192.414 Y23.925
G01 X188.577 Y23.447
G01 X184.739 Y22.970
G01 X180.902 Y22.492
G01 X177.065 Y22.015
G01 X173.228 Y21.537
G01 X169.391 Y21.059
G01 X165.554 Y20.582
G01 X161.717 Y20.104
G01 X157.880 Y19.627
G01 X154.043 Y19.149
G01 X161.398 Y19.878
G01 X168.754 Y20.608
G01 X176.109 Y21.337
G01 X183.465 Y22.066
G01 X190.820 Y22.795
G01 X198.176 Y23.525
G01 X205.532 Y24.254
G01 X212.887 Y24.984
G01 X220.243 Y25.713
G01 X227.598 Y26.442
G01 X234.954 Y27.171
G01 X242.310 Y27.901
G01 X249.665 Y28.630
G01 X257.021 Y29.359
G01 X264.376 Y30.089
G01 X271.732 Y30.818
G01 X279.087 Y31.547
G01 X286.443 Y32.277
G01 X293.799 Y33.006
G01 X301.154 Y33.735
G01 X308.510 Y34.464
G01 X315.865 Y35.194
G01 X323.221 Y35.923
G01 X330.577 Y36.652
G01 X337.932 Y37.382
G01 X345.288 Y38.111
G01 X352.643 Y38.840
G01 X359.999 Y39.570
G01 X367.354 Y40.299
G01 X374.710 Y41.028
G01 X382.066 Y41.758
G01 X389.421 Y42.487
G01 X385.492 Y42.237
G01 X381.563 Y41.987
G01 X377.635 Y41.738
G01 X373.706 Y41.488
G01 X369.777 Y41.238
G01 X365.848 Y40.989
G01 X361.919 Y40.739
G01 X357.990 Y40.489
G01 X354.061 Y40.239
G01 X350.132 Y39.990
G01 X346.203 Y39.740
G01 X342.274 Y39.490
G01 X338.346 Y39.241
G01 X334.417 Y38.991
G01 X330.488 Y38.741
G01 X326.559 Y38.492
G01 X322.630 Y38.242
G01 X318.701 Y37.992
G01 X314.772 Y37.742
G01 X310.843 Y37.493
G01 X306.914 Y37.243
G01 X302.986 Y36.993
G01 X299.057 Y36.743
G01 X295.128 Y36.494
G01 X291.199 Y36.244
G01 X287.270 Y35.994
G01 X283.341 Y35.745
G01 X279.412 Y35.495
G01 X275.483 Y35.245
G01 X271.555 Y34.995
G01 X267.626 Y34.746
G01 X263.697 Y34.496
G01 X259.768 Y34.247
G01 X255.839 Y33.997
G01 X251.910 Y33.747
G01 X247.981 Y33.497
G01 X244.052 Y33.248
G01 X240.123 Y32.998
G01 X236.195 Y32.748
G01 X232.266 Y32.499
G01 X228.337 Y32.249
G01 X224.408 Y31.999
G01 X220.479 Y31.749
G01 X216.550 Y31.500
G01 X212.621 Y31.250
G01 X208.692 Y31.000
G01 X204.763 Y30.751
G01 X200.835 Y30.501
G01 X196.906 Y30.251
G01 X192.977 Y30.001
G01 X189.048 Y29.752
G01 X185.119 Y29.502
G01 X181.190 Y29.252
G01 X177.261 Y29.003
G01 X173.332 Y28.753
G01 X169.403 Y28.503
G01 X165.475 Y28.254
G01 X161.546 Y28.004
G01 X157.617 Y27.754
G01 X153.688 Y27.504
G01 X149.759 Y27.255
G01 X145.830 Y27.005
G01 X141.901 Y26.755
G01 X137.972 Y26.506
G01 X141.736 Y26.650
G01 X145.501 Y26.795
G01 X149.265 Y26.940
G01 X153.029 Y27.085
G01 X156.793 Y27.230
G01 X160.557 Y27.375
G01 X164.321 Y27.520
G01 X168.085 Y27.665
G01 X171.849 Y27.809
G01 X175.613 Y27.954
G01 X179.377 Y28.099
G01 X183.142 Y28.244
G01 X186.906 Y28.389
G01 X190.670 Y28.534
G01 X194.434 Y28.679
G01 X198.198 Y28.824
G01 X201.962 Y28.968
G01 X205.726 Y29.113
G01 X209.490 Y29.258
G01 X213.255 Y29.403
G01 X217.019 Y29.548
G01 X220.783 Y29.693
G01 X224.547 Y29.838
G01 X228.311 Y29.983
G01 X232.075 Y30.128
G01 X235.839 Y30.272
G01 X239.603 Y30.417
G01 X243.368 Y30.562
G01 X247.132 Y30.707
G01 X250.896 Y30.852
G01 X254.660 Y30.997
G01 X258.424 Y31.142
G01 X262.188 Y31.287
G01 X265.952 Y31.432
G01 X269.716 Y31.576
G01 X273.480 Y31.721
G01 X277.245 Y31.866
G01 X281.009 Y32.011
G01 X284.773 Y32.156
G01 X288.537 Y32.301
G01 X292.301 Y32.446
G01 X296.065 Y32.591
G01 X299.829 Y32.735
G01 X303.593 Y32.880
G01 X307.357 Y33.025
G01 X311.122 Y33.170
G01 X314.886 Y33.315
G01 X318.650 Y33.460
G01 X322.414 Y33.605
G01 X326.178 Y33.750
G01 X329.942 Y33.894
G01 X333.706 Y34.039
G01 X337.470 Y34.184
G01 X341.234 Y34.329
G01 X344.999 Y34.474
G01 X348.763 Y34.619
G01 X352.527 Y34.764
G01 X356.291 Y34.909
G01 X360.055 Y35.054
G01 X363.819 Y35.199
G01 X367.583 Y35.343
G01 X371.347 Y35.488
G01 X375.112 Y35.633
G01 X378.876 Y35.778
G01 X374.869 Y35.765
G01 X370.863 Y35.753
G01 X366.856 Y35.741
G01 X362.850 Y35.728
G01 X358.843 Y35.716
G01 X354.837 Y35.703
G01 X350.830 Y35.691
G01 X346.824 Y35.678
G01 X342.817 Y35.665
G01 X338.811 Y35.653
G01 X334.805 Y35.641
G01 X330.798 Y35.628
G01 X326.792 Y35.616
G01 X322.785 Y35.603
G01 X318.779 Y35.591
G01 X314.772 Y35.578
G01 X310.766 Y35.566
G01 X306.759 Y35.553
G01 X302.753 Y35.541
G01 X298.746 Y35.528
G01 X294.740 Y35.516
G01 X290.733 Y35.503
G01 X286.727 Y35.491
G01 X282.720 Y35.478
G01 X278.714 Y35.466
G01 X274.708 Y35.453
G01 X270.701 Y35.441
G01 X266.695 Y35.428
G01 X262.688 Y35.416
G01 X258.682 Y35.404
G01 X254.675 Y35.391
G01 X250.669 Y35.379
G01 X246.662 Y35.366
G01 X242.656 Y35.354
G01 X238.649 Y35.341
G01 X234.643 Y35.329
G01 X230.636 Y35.316
G01 X226.630 Y35.304
G01 X222.623 Y35.291
G01 X218.617 Y35.279
G01 X214.611 Y35.266
G01 X210.604 Y35.253
G01 X206.598 Y35.241
G01 X202.591 Y35.229
G01 X198.585 Y35.216
G01 X194.578 Y35.204
G01 X190.572 Y35.191
G01 X186.565 Y35.179
G01 X182.559 Y35.166
G01 X178.552 Y35.154
G01 X174.546 Y35.141
G01 X170.540 Y35.129
G01 X166.533 Y35.116
G01 X162.526 Y35.104
G01 X158.520 Y35.091
G01 X154.514 Y35.079
G01 X150.507 Y35.066
G01 X146.501 Y35.054
G01 X142.494 Y35.042
G01 X138.488 Y35.029
G01 X134.481 Y35.016
G01 X130.475 Y35.004
G01 X126.468 Y34.991
G01 X122.462 Y34.979
G01 X126.299 Y34.895
G01 X130.135 Y34.811
G01 X133.972 Y34.727
G01 X137.809 Y34.643
G01 X141.645 Y34.559
G01 X145.482 Y34.475
G01 X149.318 Y34.391
G01 X153.155 Y34.307
G01 X156.992 Y34.223
G01 X160.828 Y34.139
G01 X164.665 Y34.055
G01 X168.502 Y33.971
G01 X172.338 Y33.887
G01 X176.175 Y33.803
G01 X180.012 Y33.719
G01 X183.849 Y33.635
G01 X187.685 Y33.551
G01 X191.522 Y33.468
G01 X195.358 Y33.383
G01 X199.195 Y33.299
G01 X203.032 Y33.215
G01 X206.868 Y33.132
G01 X210.705 Y33.048
G01 X214.542 Y32.964
G01 X218.378 Y32.880
G01 X222.215 Y32.796
G01 X226.052 Y32.712
G01 X229.888 Y32.628
G01 X233.725 Y32.544
G01 X237.562 Y32.460
G01 X241.398 Y32.376
G01 X245.235 Y32.292
G01 X249.072 Y32.208
G01 X252.908 Y32.124
G01 X256.745 Y32.040
G01 X260.582 Y31.956
G01 X264.418 Y31.872
G01 X268.255 Y31.788
G01 X272.092 Y31.704
G01 X275.928 Y31.620
G01 X279.765 Y31.536
G01 X283.602 Y31.452
G01 X287.438 Y31.368
G01 X291.275 Y31.284
G01 X295.111 Y31.200
G01 X298.948 Y31.116
G01 X302.785 Y31.032
G01 X306.621 Y30.948
G01 X310.458 Y30.864
G01 X314.295 Y30.780
G01 X318.132 Y30.696
G01 X321.968 Y30.612
G01 X325.805 Y30.528
G01 X329.642 Y30.444
G01 X333.478 Y30.361
G01 X337.315 Y30.276
G01 X341.151 Y30.193
G01 X344.988 Y30.108
G01 X348.825 Y30.025
G01 X352.661 Y29.940
G01 X356.498 Y29.857
G01 X360.335 Y29.773
G01 X364.171 Y29.689
G01 X368.008 Y29.605
G01 X363.939 Y29.838
G01 X359.870 Y30.071
G01 X355.801 Y30.304
G01 X351.732 Y30.537
G01 X347.663 Y30.770
G01 X343.594 Y31.004
G01 X339.525 Y31.237
G01 X335.456 Y31.470
G01 X331.387 Y31.703
G01 X327.317 Y31.936
G01 X323.248 Y32.169
G01 X319.179 Y32.402
G01 X315.110 Y32.636
G01 X311.041 Y32.869
G01 X306.972 Y33.102
G01 X302.903 Y33.335
G01 X298.834 Y33.568
G01 X294.765 Y33.802
G01 X290.696 Y34.035
G01 X286.627 Y34.268
G01 X282.558 Y34.501
G01 X278.489 Y34.734
G01 X274.420 Y34.967
G01 X270.351 Y35.201
G01 X266.282 Y35.434
G01 X262.213 Y35.667
G01 X258.144 Y35.900
G01 X254.075 Y36.133
G01 X250.005 Y36.367
G01 X245.937 Y36.599
G01 X241.867 Y36.833
G01 X237.798 Y37.066
G01 X233.729 Y37.299
G01 X229.660 Y37.532
G01 X225.591 Y37.765
G01 X221.522 Y37.999
G01 X217.453 Y38.232
G01 X213.384 Y38.465
G01 X209.315 Y38.698
G01 X205.246 Y38.931
G01 X201.177 Y39.164
G01 X197.108 Y39.398
G01 X193.039 Y39.631
G01 X188.970 Y39.864
G01 X184.901 Y40.097
G01 X180.832 Y40.330
G01 X176.763 Y40.563
G01 X172.694 Y40.796
G01 X168.625 Y41.030
G01 X164.556 Y41.263
G01 X160.487 Y41.496
G01 X156.417 Y41.729
G01 X152.349 Y41.962
G01 X148.279 Y42.196
G01 X144.211 Y42.428
G01 X140.141 Y42.662
G01 X136.072 Y42.895
G01 X132.003 Y43.128
G01 X127.934 Y43.361
G01 X123.865 Y43.595
G01 X119.796 Y43.828
G01 X115.727 Y44.061
G01 X111.658 Y44.294
G01 X107.589 Y44.527
G01 X111.484 Y44.206
G01 X115.378 Y43.885
G01 X119.273 Y43.564
G01 X123.168 Y43.243
G01 X127.062 Y42.922
G01 X130.957 Y42.601
G01 X134.851 Y42.280
G01 X138.746 Y41.959
G01 X142.641 Y41.638
G01 X146.535 Y41.317
G01 X150.430 Y40.996
G01 X154.325 Y40.675
G01 X158.219 Y40.354
G01 X162.114 Y40.033
G01 X166.008 Y39.712
G01 X169.903 Y39.391
G01 X173.798 Y39.070
G01 X177.692 Y38.749
G01 X181.587 Y38.428
G01 X185.482 Y38.107
G01 X189.376 Y37.786
G01 X193.271 Y37.465
G01 X197.166 Y37.144
G01 X201.060 Y36.823
G01 X204.955 Y36.502
G01 X208.849 Y36.181
G01 X212.744 Y35.860
G01 X216.639 Y35.539
G01 X220.533 Y35.218
G01 X224.428 Y34.897
G01 X228.323 Y34.576
G01 X232.217 Y34.255
G01 X236.112 Y33.934
G01 X240.006 Y33.613
G01 X243.901 Y33.292
G01 X247.796 Y32.970
G01 X251.690 Y32.650
G01 X255.585 Y32.328
G01 X259.480 Y32.008
G01 X263.374 Y31.687
G01 X267.269 Y31.365
G01 X271.163 Y31.044
G01 X275.058 Y30.723
G01 X278.953 Y30.402
G01 X282.847 Y30.081
G01 X286.742 Y29.760
G01 X290.637 Y29.439
G01 X294.531 Y29.118
G01 X298.426 Y28.797
G01 X302.321 Y28.476
G01 X306.215 Y28.155
G01 X310.110 Y27.834
G01 X314.004 Y27.513
G01 X317.899 Y27.192
G01 X321.794 Y26.871
G01 X325.688 Y26.550
G01 X329.583 Y26.229
G01 X333.477 Y25.908
G01 X337.372 Y25.587
G01 X341.267 Y25.266
G01 X345.161 Y24.945
G01 X349.056 Y24.624
G01 X352.951 Y24.303
G01 X356.845 Y23.982
G01 X352.729 Y24.468
G01 X348.614 Y24.955
G01 X344.498 Y25.441
G01 X340.382 Y25.927
G01 X336.266 Y26.413
G01 X332.150 Y26.900
G01 X328.034 Y27.386
G01 X323.918 Y27.872
G01 X319.802 Y28.358
G01 X315.686 Y28.845
G01 X311.570 Y29.331
G01 X307.455 Y29.817
G01 X303.339 Y30.303
G01 X299.223 Y30.790
G01 X295.107 Y31.276
G01 X290.991 Y31.762
G01 X286.875 Y32.248
G01 X282.759 Y32.735
G01 X278.643 Y33.221
G01 X274.527 Y33.707
G01 X270.411 Y34.193
G01 X266.296 Y34.680
G01 X262.180 Y35.166
G01 X258.064 Y35.652
G01 X253.948 Y36.138
G01 X249.832 Y36.625
G01 X245.716 Y37.111
G01 X241.600 Y37.597
G01 X237.484 Y38.083
G01 X233.368 Y38.570
G01 X229.252 Y39.056
G01 X225.137 Y39.542
G01 X221.021 Y40.028
G01 X216.905 Y40.515
G01 X212.789 Y41.001
G01 X208.673 Y41.487
G01 X204.557 Y41.973
G01 X200.441 Y42.460
G01 X196.325 Y42.946
G01 X192.209 Y43.432
G01 X188.094 Y43.918
G01 X183.978 Y44.405
G01 X179.862 Y44.891
G01 X175.746 Y45.377
G01 X171.630 Y45.863
G01 X167.514 Y46.350
G01 X163.398 Y46.836
G01 X159.282 Y47.322
G01 X155.166 Y47.808
G01 X151.050 Y48.295
G01 X146.934 Y48.781
G01 X142.819 Y49.267
G01 X138.703 Y49.753
G01 X134.587 Y50.240
G01 X130.471 Y50.726
G01 X126.355 Y51.212
G01 X122.239 Y51.698
G01 X118.123 Y52.185
G01 X114.007 Y52.671
G01 X109.892 Y53.157
G01 X105.776 Y53.643
G01 X101.660 Y54.130
G01 X97.544 Y54.616
G01 X93.428 Y55.102
G01 X97.365 Y54.537
G01 X101.303 Y53.972
G01 X105.240 Y53.406
G01 X109.177 Y52.841
G01 X113.114 Y52.276
G01 X117.052 Y51.711
G01 X120.989 Y51.145
G01 X124.926 Y50.580
G01 X128.864 Y50.015
G01 X132.801 Y49.449
G01 X136.738 Y48.884
G01 X140.676 Y48.319
G01 X144.613 Y47.753
G01 X148.550 Y47.188
G01 X152.488 Y46.623
G01 X156.425 Y46.058
G01 X160.362 Y45.492
G01 X164.299 Y44.927
G01 X168.237 Y44.362
G01 X172.174 Y43.797
G01 X176.111 Y43.231
G01 X180.049 Y42.666
G01 X183.986 Y42.101
G01 X187.923 Y41.536
G01 X191.861 Y40.970
G01 X195.798 Y40.405
G01 X199.735 Y39.840
G01 X203.673 Y39.274
G01 X207.610 Y38.709
G01 X211.547 Y38.144
G01 X215.484 Y37.579
G01 X219.422 Y37.013
G01 X223.359 Y36.448
G01 X227.296 Y35.883
G01 X231.234 Y35.318
G01 X235.171 Y34.752
G01 X239.108 Y34.187
G01 X243.046 Y33.622
G01 X246.983 Y33.056
G01 X250.920 Y32.491
G01 X254.857 Y31.926
G01 X258.795 Y31.361
G01 X262.732 Y30.795
G01 X266.669 Y30.230
G01 X270.607 Y29.665
G01 X274.544 Y29.100
G01 X278.481 Y28.534
G01 X282.419 Y27.969
G01 X286.356 Y27.404
G01 X290.293 Y26.838
G01 X294.231 Y26.273
G01 X298.168 Y25.708
G01 X302.105 Y25.143
G01 X306.042 Y24.577
G01 X309.980 Y24.012
G01 X313.917 Y23.447
G01 X317.854 Y22.882
G01 X321.792 Y22.316
G01 X325.729 Y21.751
G01 X329.666 Y21.186
G01 X333.604 Y20.620
G01 X337.541 Y20.055
G01 X341.478 Y19.490
G01 X345.415 Y18.925
G01 X341.269 Y19.670
G01 X337.123 Y20.416
G01 X332.977 Y21.162
G01 X328.830 Y21.907
G01 X324.684 Y22.653
G01 X320.538 Y23.399
G01 X316.391 Y24.145
G01 X312.245 Y24.890
G01 X308.098 Y25.636
G01 X303.952 Y26.382
G01 X299.806 Y27.128
G01 X295.659 Y27.873
G01 X291.513 Y28.619
G01 X287.367 Y29.365
G01 X283.220 Y30.111
G01 X279.074 Y30.856
G01 X274.928 Y31.602
G01 X270.781 Y32.348
G01 X266.635 Y33.093
G01 X262.489 Y33.839
G01 X258.342 Y34.585
G01 X254.196 Y35.331
G01 X250.050 Y36.076
G01 X245.903 Y36.822
G01 X241.757 Y37.568
G01 X237.611 Y38.313
G01 X233.464 Y39.059
G01 X229.318 Y39.805
G01 X225.171 Y40.551
G01 X221.025 Y41.296
G01 X216.879 Y42.042
G01 X212.733 Y42.788
G01 X208.586 Y43.534
G01 X204.440 Y44.279
G01 X200.293 Y45.025
G01 X196.147 Y45.771
G01 X192.001 Y46.516
G01 X187.854 Y47.262
G01 X183.708 Y48.008
G01 X179.562 Y48.754
G01 X175.415 Y49.499
G01 X171.269 Y50.245
G01 X167.123 Y50.991
G01 X162.976 Y51.737
G01 X158.830 Y52.482
G01 X154.684 Y53.228
G01 X150.537 Y53.974
G01 X146.391 Y54.720
G01 X142.245 Y55.465
G01 X138.098 Y56.211
G01 X133.952 Y56.957
G01 X129.805 Y57.702
G01 X125.659 Y58.448
G01 X121.513 Y59.194
G01 X117.366 Y59.940
G01 X113.220 Y60.685
G01 X109.074 Y61.431
G01 X104.927 Y62.177
G01 X100.781 Y62.923
G01 X96.635 Y63.668
G01 X92.488 Y64.414
G01 X88.342 Y65.160
G01 X84.196 Y65.905
G01 X80.049 Y66.651
G01 X84.013 Y65.835
G01 X87.977 Y65.020
G01 X91.941 Y64.204
G01 X95.905 Y63.388
G01 X99.869 Y62.573
G01 X103.833 Y61.757
G01 X107.797 Y60.941
G01 X111.761 Y60.125
G01 X115.726 Y59.310
G01 X119.690 Y58.494
G01 X123.654 Y57.678
G01 X127.618 Y56.862
G01 X131.582 Y56.047
G01 X135.546 Y55.231
G01 X139.510 Y54.415
G01 X143.474 Y53.600
G01 X147.438 Y52.784
G01 X151.402 Y51.968
G01 X155.366 Y51.152
G01 X159.330 Y50.337
G01 X163.294 Y49.521
G01 X167.258 Y48.705
G01 X171.222 Y47.890
G01 X175.186 Y47.074
G01 X179.150 Y46.258
G01 X183.114 Y45.442
G01 X187.078 Y44.626
G01 X191.042 Y43.811
G01 X195.006 Y42.995
G01 X198.970 Y42.179
G01 X202.934 Y41.364
G01 X206.898 Y40.548
G01 X210.862 Y39.732
G01 X214.826 Y38.916
G01 X218.790 Y38.101
G01 X222.754 Y37.285
G01 X226.718 Y36.469
G01 X230.683 Y35.653
G01 X234.647 Y34.838
G01 X238.611 Y34.022
G01 X242.575 Y33.206
G01 X246.539 Y32.391
G01 X250.503 Y31.575
G01 X254.467 Y30.759
G01 X258.431 Y29.943
G01 X262.395 Y29.128
G01 X266.359 Y28.312
G01 X270.323 Y27.496
G01 X274.287 Y26.681
G01 X278.251 Y25.865
G01 X282.215 Y25.049
G01 X286.179 Y24.233
G01 X290.143 Y23.418
G01 X294.107 Y22.602
G01 X298.071 Y21.786
G01 X302.035 Y20.971
G01 X305.999 Y20.155
G01 X309.963 Y19.339
G01 X313.927 Y18.523
G01 X317.891 Y17.707
G01 X321.855 Y16.892
G01 X325.819 Y16.076
G01 X329.783 Y15.260
G01 X333.747 Y14.444
G01 X329.588 Y15.455
G01 X325.428 Y16.466
G01 X321.268 Y17.476
G01 X317.108 Y18.487
G01 X312.948 Y19.497
G01 X308.789 Y20.508
G01 X304.629 Y21.518
G01 X300.469 Y22.529
G01 X296.309 Y23.539
G01 X292.149 Y24.549
G01 X287.990 Y25.560
G01 X283.830 Y26.571
G01 X279.670 Y27.581
G01 X275.510 Y28.592
G01 X271.350 Y29.602
G01 X267.191 Y30.613
G01 X263.031 Y31.623
G01 X258.871 Y32.634
G01 X254.711 Y33.644
G01 X250.551 Y34.655
G01 X246.391 Y35.665
G01 X242.232 Y36.676
G01 X238.072 Y37.686
G01 X233.912 Y38.697
G01 X229.752 Y39.707
G01 X225.592 Y40.718
G01 X221.433 Y41.728
G01 X217.273 Y42.739
G01 X213.113 Y43.749
G01 X208.953 Y44.760
G01 X204.794 Y45.770
G01 X200.634 Y46.781
G01 X196.474 Y47.791
G01 X192.314 Y48.802
G01 X188.154 Y49.812
G01 X183.994 Y50.823
G01 X179.835 Y51.833
G01 X175.675 Y52.844
G01 X171.515 Y53.854
G01 X167.355 Y54.865
G01 X163.195 Y55.875
G01 X159.036 Y56.886
G01 X154.876 Y57.896
G01 X150.716 Y58.907
G01 X146.556 Y59.917
G01 X142.397 Y60.928
G01 X138.237 Y61.938
G01 X134.077 Y62.949
G01 X129.917 Y63.959
G01 X125.757 Y64.970
G01 X121.598 Y65.980
G01 X117.438 Y66.991
G01 X113.278 Y68.001
G01 X109.118 Y69.012
G01 X104.958 Y70.022
G01 X100.798 Y71.033
G01 X96.639 Y72.043
G01 X92.479 Y73.054
G01 X88.319 Y74.064
G01 X84.159 Y75.075
G01 X80.000 Y76.085
G01 X75.840 Y77.096
G01 X71.680 Y78.106
G01 X67.520 Y79.117
G01 X71.494 Y78.046
G01 X75.468 Y76.974
G01 X79.443 Y75.903
G01 X83.417 Y74.832
G01 X87.391 Y73.760
G01 X91.365 Y72.689
G01 X95.340 Y71.618
G01 X99.314 Y70.546
G01 X103.288 Y69.475
G01 X107.262 Y68.404
G01 X111.236 Y67.332
G01 X115.211 Y66.261
G01 X119.185 Y65.190
G01 X123.159 Y64.119
G01 X127.133 Y63.047
G01 X131.107 Y61.976
G01 X135.082 Y60.905
G01 X139.056 Y59.833
G01 X143.030 Y58.762
G01 X147.004 Y57.691
G01 X150.979 Y56.619
G01 X154.953 Y55.548
G01 X158.927 Y54.477
G01 X162.901 Y53.405
G01 X166.875 Y52.334
G01 X170.850 Y51.263
G01 X174.824 Y50.192
G01 X178.798 Y49.120
G01 X182.772 Y48.049
G01 X186.747 Y46.978
G01 X190.721 Y45.906
G01 X194.695 Y44.835
G01 X198.669 Y43.764
G01 X202.644 Y42.692
G01 X206.618 Y41.621
G01 X210.592 Y40.550
G01 X214.566 Y39.478
G01 X218.540 Y38.407
G01 X222.514 Y37.336
G01 X226.489 Y36.265
G01 X230.463 Y35.193
G01 X234.437 Y34.122
G01 X238.411 Y33.051
G01 X242.386 Y31.979
G01 X246.360 Y30.908
G01 X250.334 Y29.837
G01 X254.308 Y28.765
G01 X258.282 Y27.694
G01 X262.257 Y26.623
G01 X266.231 Y25.552
G01 X270.205 Y24.480
G01 X274.179 Y23.409
G01 X278.153 Y22.338
G01 X282.128 Y21.266
G01 X286.102 Y20.195
G01 X290.076 Y19.124
G01 X294.051 Y18.052
G01 X298.025 Y16.981
G01 X301.999 Y15.910
G01 X305.973 Y14.839
G01 X309.947 Y13.767
G01 X313.921 Y12.696
G01 X317.896 Y11.625
G01 X321.870 Y10.553
G01 X317.714 Y11.833
G01 X313.559 Y13.112
G01 X309.403 Y14.392
G01 X305.247 Y15.671
G01 X301.091 Y16.950
G01 X296.935 Y18.230
G01 X292.780 Y19.509
G01 X288.624 Y20.789
G01 X284.468 Y22.068
G01 X280.313 Y23.348
G01 X276.157 Y24.627
G01 X272.001 Y25.906
G01 X267.845 Y27.186
G01 X263.690 Y28.465
G01 X259.534 Y29.745
G01 X255.378 Y31.024
G01 X251.222 Y32.303
G01 X247.067 Y33.583
G01 X242.911 Y34.862
G01 X238.755 Y36.142
G01 X234.599 Y37.421
G01 X230.444 Y38.701
G01 X226.288 Y39.980
G01 X222.132 Y41.260
G01 X217.976 Y42.539
G01 X213.821 Y43.818
G01 X209.665 Y45.098
G01 X205.509 Y46.377
G01 X201.354 Y47.657
G01 X197.198 Y48.936
G01 X193.042 Y50.215
G01 X188.886 Y51.495
G01 X184.731 Y52.774
G01 X180.575 Y54.054
G01 X176.419 Y55.333
G01 X172.263 Y56.612
G01 X168.108 Y57.892
G01 X163.952 Y59.172
G01 X159.796 Y60.451
G01 X155.641 Y61.730
G01 X151.485 Y63.010
G01 X147.329 Y64.289
G01 X143.173 Y65.568
G01 X139.018 Y66.848
G01 X134.862 Y68.127
G01 X130.706 Y69.407
G01 X126.550 Y70.686
G01 X122.395 Y71.966
G01 X118.239 Y73.245
G01 X114.083 Y74.525
G01 X109.927 Y75.804
G01 X105.772 Y77.083
G01 X101.616 Y78.363
G01 X97.460 Y79.642
G01 X93.304 Y80.922
G01 X89.149 Y82.201
G01 X84.993 Y83.480
G01 X80.837 Y84.760
G01 X76.682 Y86.039
G01 X72.526 Y87.319
G01 X68.370 Y88.598
G01 X64.214 Y89.878
G01 X60.059 Y91.157
G01 X55.903 Y92.436
G01 X59.870 Y91.105
G01 X63.837 Y89.775
G01 X67.805 Y88.444
G01 X71.772 Y87.113
G01 X75.740 Y85.782
G01 X79.707 Y84.451
G01 X83.674 Y83.120
G01 X87.642 Y81.789
G01 X91.609 Y80.459
G01 X95.576 Y79.128
G01 X99.544 Y77.797
G01 X103.511 Y76.466
G01 X107.478 Y75.135
G01 X111.445 Y73.804
G01 X115.413 Y72.473
G01 X119.380 Y71.142
G01 X123.348 Y69.811
G01 X127.315 Y68.481
G01 X131.282 Y67.150
G01 X135.250 Y65.819
G01 X139.217 Y64.488
G01 X143.184 Y63.157
G01 X147.152 Y61.826
G01 X151.119 Y60.495
G01 X155.086 Y59.165
G01 X159.054 Y57.834
G01 X163.021 Y56.503
G01 X166.989 Y55.172
G01 X170.956 Y53.841
G01 X174.923 Y52.510
G01 X178.891 Y51.179
G01 X182.858 Y49.848
G01 X186.825 Y48.518
G01 X190.792 Y47.187
G01 X194.760 Y45.856
G01 X198.727 Y44.525
G01 X202.695 Y43.194
G01 X206.662 Y41.863
G01 X210.629 Y40.532
G01 X214.597 Y39.202
G01 X218.564 Y37.871
G01 X222.531 Y36.540
G01 X226.498 Y35.209
G01 X230.466 Y33.878
G01 X234.433 Y32.547
G01 X238.401 Y31.216
G01 X242.368 Y29.885
G01 X246.335 Y28.555
G01 X250.303 Y27.224
G01 X254.270 Y25.893
G01 X258.237 Y24.562
G01 X262.205 Y23.231
G01 X266.172 Y21.900
G01 X270.139 Y20.569
G01 X274.107 Y19.238
G01 X278.074 Y17.908
G01 X282.041 Y16.577
G01 X286.009 Y15.246
G01 X289.976 Y13.915
G01 X293.943 Y12.584
G01 X297.911 Y11.253
G01 X301.878 Y9.922
G01 X305.845 Y8.591
G01 X309.813 Y7.261
G01 X305.679 Y8.812
G01 X301.545 Y10.363
G01 X297.412 Y11.915
G01 X293.278 Y13.466
G01 X289.144 Y15.017
G01 X285.010 Y16.568
G01 X280.877 Y18.120
G01 X276.743 Y19.671
G01 X272.609 Y21.222
G01 X268.476 Y22.773
G01 X264.342 Y24.325
G01 X260.208 Y25.876
G01 X256.075 Y27.427
G01 X251.941 Y28.979
G01 X247.807 Y30.530
G01 X243.673 Y32.081
G01 X239.540 Y33.632
G01 X235.406 Y35.184
G01 X231.272 Y36.735
G01 X227.139 Y38.286
G01 X223.005 Y39.838
G01 X218.871 Y41.389
G01 X214.738 Y42.940
G01 X210.604 Y44.492
G01 X206.470 Y46.043
G01 X202.337 Y47.594
G01 X198.203 Y49.146
G01 X194.069 Y50.697
G01 X189.935 Y52.248
G01 X185.802 Y53.799
G01 X181.668 Y55.351
G01 X177.534 Y56.902
G01 X173.401 Y58.453
G01 X169.267 Y60.005
G01 X165.133 Y61.556
G01 X160.999 Y63.107
G01 X156.866 Y64.659
G01 X152.732 Y66.210
G01 X148.598 Y67.761
G01 X144.465 Y69.312
G01 X140.331 Y70.864
G01 X136.197 Y72.415
G01 X132.064 Y73.966
G01 X127.930 Y75.518
G01 X123.796 Y77.069
G01 X119.662 Y78.620
G01 X115.529 Y80.171
G01 X111.395 Y81.723
G01 X107.261 Y83.274
G01 X103.128 Y84.825
G01 X98.994 Y86.377
G01 X94.860 Y87.928
G01 X90.727 Y89.479
G01 X86.593 Y91.030
G01 X82.459 Y92.582
G01 X78.325 Y94.133
G01 X74.192 Y95.684
G01 X70.058 Y97.236
G01 X65.924 Y98.787
G01 X61.791 Y100.338
G01 X57.657 Y101.890
G01 X53.523 Y103.441
G01 X49.389 Y104.992
G01 X45.256 Y106.543
G01 X49.199 Y104.950
G01 X53.142 Y103.357
G01 X57.085 Y101.764
G01 X61.028 Y100.170
G01 X64.971 Y98.577
G01 X68.914 Y96.984
G01 X72.857 Y95.391
G01 X76.800 Y93.797
G01 X80.743 Y92.204
G01 X84.685 Y90.611
G01 X88.628 Y89.017
G01 X92.571 Y87.424
G01 X96.514 Y85.831
G01 X100.457 Y84.238
G01 X104.400 Y82.645
G01 X108.343 Y81.051
G01 X112.286 Y79.458
G01 X116.229 Y77.865
G01 X120.172 Y76.271
G01 X124.115 Y74.678
G01 X128.058 Y73.085
G01 X132.001 Y71.492
G01 X135.944 Y69.898
G01 X139.887 Y68.305
G01 X143.830 Y66.712
G01 X147.773 Y65.118
G01 X151.716 Y63.525
G01 X155.659 Y61.932
G01 X159.602 Y60.339
G01 X163.545 Y58.745
G01 X167.488 Y57.152
G01 X171.431 Y55.559
G01 X175.374 Y53.966
G01 X179.317 Y52.372
G01 X183.260 Y50.779
G01 X187.203 Y49.186
G01 X191.146 Y47.593
G01 X195.089 Y45.999
G01 X199.032 Y44.406
G01 X202.975 Y42.813
G01 X206.918 Y41.219
G01 X210.861 Y39.626
G01 X214.804 Y38.033
G01 X218.747 Y36.440
G01 X222.690 Y34.847
G01 X226.632 Y33.253
G01 X230.575 Y31.660
G01 X234.518 Y30.067
G01 X238.461 Y28.474
G01 X242.404 Y26.880
G01 X246.347 Y25.287
G01 X250.290 Y23.694
G01 X254.233 Y22.100
G01 X258.176 Y20.507
G01 X262.119 Y18.914
G01 X266.062 Y17.321
G01 X270.005 Y15.727
G01 X273.948 Y14.134
G01 X277.891 Y12.541
G01 X281.834 Y10.948
G01 X285.777 Y9.354
G01 X289.720 Y7.761
G01 X293.663 Y6.168
G01 X297.606 Y4.575
G01 X293.513 Y6.399
G01 X289.419 Y8.224
G01 X285.326 Y10.049
G01 X281.233 Y11.874
G01 X277.139 Y13.699
G01 X273.046 Y15.524
G01 X268.953 Y17.349
G01 X264.859 Y19.174
G01 X260.766 Y20.998
G01 X256.673 Y22.823
G01 X252.579 Y24.648
G01 X248.486 Y26.473
G01 X244.393 Y28.298
G01 X240.299 Y30.123
G01 X236.206 Y31.948
G01 X232.113 Y33.773
G01 X228.019 Y35.598
G01 X223.926 Y37.423
G01 X219.832 Y39.247
G01 X215.739 Y41.072
G01 X211.646 Y42.897
G01 X207.552 Y44.722
G01 X203.459 Y46.547
G01 X199.366 Y48.372
G01 X195.272 Y50.197
G01 X191.179 Y52.022
G01 X187.086 Y53.847
G01 X182.992 Y55.672
G01 X178.899 Y57.496
G01 X174.806 Y59.321
G01 X170.712 Y61.146
G01 X166.619 Y62.971
G01 X162.526 Y64.796
G01 X158.432 Y66.621
G01 X154.339 Y68.446
G01 X150.246 Y70.271
G01 X146.152 Y72.096
G01 X142.059 Y73.920
G01 X137.966 Y75.745
G01 X133.872 Y77.570
G01 X129.779 Y79.395
G01 X125.686 Y81.220
G01 X121.592 Y83.045
G01 X117.499 Y84.870
G01 X113.405 Y86.695
G01 X109.312 Y88.520
G01 X105.219 Y90.344
G01 X101.125 Y92.169
G01 X97.032 Y93.994
G01 X92.939 Y95.819
G01 X88.845 Y97.644
G01 X84.752 Y99.469
G01 X80.659 Y101.294
G01 X76.565 Y103.119
G01 X72.472 Y104.943
G01 X68.379 Y106.768
G01 X64.285 Y108.593
G01 X60.192 Y110.418
G01 X56.099 Y112.243
G01 X52.005 Y114.068
G01 X47.912 Y115.893
G01 X43.819 Y117.718
G01 X39.725 Y119.543
G01 X35.632 Y121.367
G01 X39.533 Y119.510
G01 X43.433 Y117.653
G01 X47.334 Y115.796
G01 X51.235 Y113.938
G01 X55.136 Y112.081
G01 X59.037 Y110.224
G01 X62.937 Y108.367
G01 X66.838 Y106.509
G01 X70.739 Y104.652
G01 X74.639 Y102.795
G01 X78.540 Y100.937
G01 X82.441 Y99.080
G01 X86.342 Y97.223
G01 X90.242 Y95.366
G01 X94.143 Y93.508
G01 X98.044 Y91.651
G01 X101.945 Y89.794
G01 X105.846 Y87.937
G01 X109.746 Y86.079
G01 X113.647 Y84.222
G01 X117.548 Y82.365
G01 X121.449 Y80.507
G01 X125.349 Y78.650
G01 X129.250 Y76.793
G01 X133.151 Y74.936
G01 X137.052 Y73.078
G01 X140.952 Y71.221
G01 X144.853 Y69.364
G01 X148.754 Y67.506
G01 X152.655 Y65.649
G01 X156.555 Y63.792
G01 X160.456 Y61.935
G01 X164.357 Y60.077
G01 X168.258 Y58.220
G01 X172.159 Y56.363
G01 X176.059 Y54.506
G01 X179.960 Y52.648
G01 X183.861 Y50.791
G01 X187.761 Y48.934
G01 X191.662 Y47.076
G01 X195.563 Y45.219
G01 X199.464 Y43.362
G01 X203.365 Y41.505
G01 X207.265 Y39.647
G01 X211.166 Y37.790
G01 X215.067 Y35.933
G01 X218.968 Y34.076
G01 X222.868 Y32.218
G01 X226.769 Y30.361
G01 X230.670 Y28.504
G01 X234.571 Y26.647
G01 X238.471 Y24.789
G01 X242.372 Y22.932
G01 X246.273 Y21.075
G01 X250.174 Y19.217
G01 X254.074 Y17.360
G01 X257.975 Y15.503
G01 X261.876 Y13.646
G01 X265.777 Y11.788
G01 X269.677 Y9.931
G01 X273.578 Y8.074
G01 X277.479 Y6.217
G01 X281.380 Y4.359
G01 X285.280 Y2.502
G01 X281.246 Y4.601
G01 X277.212 Y6.700
G01 X273.177 Y8.799
G01 X269.143 Y10.898
G01 X265.108 Y12.997
G01 X261.074 Y15.096
G01 X257.040 Y17.194
G01 X253.005 Y19.294
G01 X248.971 Y21.392
G01 X244.937 Y23.491
G01 X240.902 Y25.590
G01 X236.868 Y27.689
G01 X232.833 Y29.788
G01 X228.799 Y31.887
G01 X224.764 Y33.986
G01 X220.730 Y36.085
G01 X216.696 Y38.184
G01 X212.661 Y40.283
G01 X208.627 Y42.382
G01 X204.593 Y44.481
G01 X200.558 Y46.580
G01 X196.524 Y48.679
G01 X192.490 Y50.778
G01 X188.455 Y52.877
G01 X184.421 Y54.975
G01 X180.386 Y57.075
G01 X176.352 Y59.173
G01 X172.317 Y61.272
G01 X168.283 Y63.371
G01 X164.249 Y65.470
G01 X160.214 Y67.569
G01 X156.180 Y69.668
G01 X152.146 Y71.767
G01 X148.111 Y73.866
G01 X144.077 Y75.965
G01 X140.042 Y78.064
G01 X136.008 Y80.163
G01 X131.974 Y82.262
G01 X127.939 Y84.361
G01 X123.905 Y86.460
G01 X119.870 Y88.559
G01 X115.836 Y90.658
G01 X111.802 Y92.757
G01 X107.767 Y94.856
G01 X103.733 Y96.954
G01 X99.699 Y99.053
G01 X95.664 Y101.152
G01 X91.630 Y103.251
G01 X87.595 Y105.350
G01 X83.561 Y107.449
G01 X79.526 Y109.548
G01 X75.492 Y111.647
G01 X71.458 Y113.746
G01 X67.423 Y115.845
G01 X63.389 Y117.944
G01 X59.355 Y120.043
G01 X55.320 Y122.142
G01 X51.286 Y124.241
G01 X47.251 Y126.340
G01 X43.217 Y128.439
G01 X39.183 Y130.538
G01 X35.148 Y132.637
G01 X31.114 Y134.735
G01 X27.080 Y136.834
G01 X30.920 Y134.713
G01 X34.760 Y132.591
G01 X38.601 Y130.469
G01 X42.441 Y128.348
G01 X46.282 Y126.226
G01 X50.122 Y124.104
G01 X53.963 Y121.983
G01 X57.803 Y119.861
G01 X61.643 Y117.740
G01 X65.484 Y115.618
G01 X69.324 Y113.496
G01 X73.165 Y111.374
G01 X77.005 Y109.253
G01 X80.845 Y107.131
G01 X84.686 Y105.009
G01 X88.526 Y102.888
G01 X92.367 Y100.766
G01 X96.207 Y98.644
G01 X100.047 Y96.523
G01 X103.888 Y94.401
G01 X107.729 Y92.279
G01 X111.569 Y90.158
G01 X115.409 Y88.036
G01 X119.250 Y85.914
G01 X123.090 Y83.793
G01 X126.931 Y81.671
G01 X130.771 Y79.549
G01 X134.611 Y77.428
G01 X138.452 Y75.306
G01 X142.292 Y73.184
G01 X146.133 Y71.063
G01 X149.973 Y68.941
G01 X153.813 Y66.819
G01 X157.654 Y64.698
G01 X161.494 Y62.576
G01 X165.335 Y60.455
G01 X169.175 Y58.333
G01 X173.016 Y56.211
G01 X176.856 Y54.090
G01 X180.696 Y51.968
G01 X184.537 Y49.846
G01 X188.377 Y47.725
G01 X192.218 Y45.603
G01 X196.058 Y43.481
G01 X199.899 Y41.359
G01 X203.739 Y39.238
G01 X207.579 Y37.116
G01 X211.420 Y34.994
G01 X215.260 Y32.873
G01 X219.101 Y30.751
G01 X222.941 Y28.630
G01 X226.781 Y26.508
G01 X230.622 Y24.386
G01 X234.462 Y22.265
G01 X238.303 Y20.143
G01 X242.143 Y18.021
G01 X245.984 Y15.900
G01 X249.824 Y13.778
G01 X253.665 Y11.656
G01 X257.505 Y9.535
G01 X261.345 Y7.413
G01 X265.186 Y5.291
G01 X269.026 Y3.170
G01 X272.867 Y1.048
G01 X268.910 Y3.420
G01 X264.953 Y5.792
G01 X260.997 Y8.164
G01 X257.040 Y10.537
G01 X253.083 Y12.909
G01 X249.127 Y15.281
G01 X245.170 Y17.653
G01 X241.213 Y20.025
G01 X237.257 Y22.397
G01 X233.300 Y24.770
G01 X229.343 Y27.142
G01 X225.387 Y29.514
G01 X221.430 Y31.886
G01 X217.474 Y34.258
G01 X213.517 Y36.631
G01 X209.560 Y39.003
G01 X205.604 Y41.375
G01 X201.647 Y43.747
G01 X197.690 Y46.119
G01 X193.734 Y48.491
G01 X189.777 Y50.864
G01 X185.820 Y53.236
G01 X181.864 Y55.608
G01 X177.907 Y57.980
G01 X173.951 Y60.352
G01 X169.994 Y62.724
G01 X166.037 Y65.097
G01 X162.081 Y67.469
G01 X158.124 Y69.841
G01 X154.167 Y72.213
G01 X150.211 Y74.585
G01 X146.254 Y76.957
G01 X142.297 Y79.330
G01 X138.341 Y81.702
G01 X134.384 Y84.074
G01 X130.427 Y86.446
G01 X126.471 Y88.818
G01 X122.514 Y91.190
G01 X118.557 Y93.563
G01 X114.601 Y95.935
G01 X110.644 Y98.307
G01 X106.687 Y100.679
G01 X102.731 Y103.051
G01 X98.774 Y105.423
G01 X94.817 Y107.796
G01 X90.861 Y110.168
G01 X86.904 Y112.540
G01 X82.947 Y114.912
G01 X78.991 Y117.284
G01 X75.034 Y119.656
G01 X71.078 Y122.029
G01 X67.121 Y124.401
G01 X63.164 Y126.773
G01 X59.208 Y129.145
G01 X55.251 Y131.517
G01 X51.294 Y133.889
G01 X47.338 Y136.262
G01 X43.381 Y138.634
G01 X39.424 Y141.006
G01 X35.468 Y143.378
G01 X31.511 Y145.750
G01 X27.555 Y148.123
G01 X23.598 Y150.495
G01 X19.641 Y152.867
G01 X23.403 Y150.482
G01 X27.165 Y148.097
G01 X30.927 Y145.711
G01 X34.688 Y143.326
G01 X38.450 Y140.941
G01 X42.212 Y138.556
G01 X45.974 Y136.171
G01 X49.735 Y133.785
G01 X53.497 Y131.400
G01 X57.259 Y129.015
G01 X61.021 Y126.630
G01 X64.783 Y124.245
G01 X68.544 Y121.860
G01 X72.306 Y119.474
G01 X76.068 Y117.089
G01 X79.830 Y114.704
G01 X83.592 Y112.319
G01 X87.353 Y109.934
G01 X91.115 Y107.549
G01 X94.877 Y105.164
G01 X98.639 Y102.778
G01 X102.401 Y100.393
G01 X106.162 Y98.008
G01 X109.924 Y95.623
G01 X113.686 Y93.238
G01 X117.448 Y90.852
G01 X121.210 Y88.467
G01 X124.971 Y86.082
G01 X128.733 Y83.697
G01 X132.495 Y81.312
G01 X136.257 Y78.927
G01 X140.018 Y76.541
G01 X143.780 Y74.156
G01 X147.542 Y71.771
G01 X151.304 Y69.386
G01 X155.066 Y67.001
G01 X158.827 Y64.616
G01 X162.589 Y62.231
G01 X166.351 Y59.845
G01 X170.113 Y57.460
G01 X173.875 Y55.075
G01 X177.636 Y52.690
G01 X181.398 Y50.305
G01 X185.160 Y47.920
G01 X188.922 Y45.534
G01 X192.683 Y43.149
G01 X196.445 Y40.764
G01 X200.207 Y38.379
G01 X203.969 Y35.994
G01 X207.731 Y33.608
G01 X211.492 Y31.223
G01 X215.254 Y28.838
G01 X219.016 Y26.453
G01 X222.778 Y24.068
G01 X226.540 Y21.683
G01 X230.301 Y19.297
G01 X234.063 Y16.912
G01 X237.825 Y14.527
G01 X241.587 Y12.142
G01 X245.348 Y9.757
G01 X249.110 Y7.372
G01 X252.872 Y4.987
G01 X256.634 Y2.601
G01 X260.396 Y0.216
G01 X256.536 Y2.859
G01 X252.676 Y5.503
G01 X248.816 Y8.146
G01 X244.955 Y10.789
G01 X241.096 Y13.433
G01 X237.236 Y16.076
G01 X233.375 Y18.719
G01 X229.515 Y21.362
G01 X225.655 Y24.005
G01 X221.795 Y26.649
G01 X217.935 Y29.292
G01 X214.075 Y31.935
G01 X210.215 Y34.579
G01 X206.355 Y37.222
G01 X202.495 Y39.865
G01 X198.635 Y42.508
G01 X194.775 Y45.152
G01 X190.915 Y47.795
G01 X187.055 Y50.438
G01 X183.195 Y53.081
G01 X179.335 Y55.725
G01 X175.475 Y58.368
G01 X171.615 Y61.011
G01 X167.755 Y63.654
G01 X163.895 Y66.298
G01 X160.035 Y68.941
G01 X156.175 Y71.584
G01 X152.315 Y74.228
G01 X148.455 Y76.871
G01 X144.595 Y79.514
G01 X140.735 Y82.157
G01 X136.875 Y84.801
G01 X133.015 Y87.444
G01 X129.155 Y90.087
G01 X125.295 Y92.730
G01 X121.435 Y95.374
G01 X117.575 Y98.017
G01 X113.715 Y100.660
G01 X109.855 Y103.303
G01 X105.995 Y105.947
G01 X102.135 Y108.590
G01 X98.275 Y111.233
G01 X94.415 Y113.876
G01 X90.555 Y116.520
G01 X86.695 Y119.163
G01 X82.835 Y121.806
G01 X78.975 Y124.450
G01 X75.115 Y127.093
G01 X71.255 Y129.736
G01 X67.394 Y132.379
G01 X63.535 Y135.023
G01 X59.674 Y137.666
G01 X55.814 Y140.309
G01 X51.954 Y142.952
G01 X48.095 Y145.595
G01 X44.234 Y148.239
G01 X40.374 Y150.882
G01 X36.514 Y153.525
G01 X32.654 Y156.169
G01 X28.794 Y158.812
G01 X24.934 Y161.455
G01 X21.074 Y164.098
G01 X17.214 Y166.742
G01 X13.354 Y169.385
G01 X17.019 Y166.738
G01 X20.684 Y164.092
G01 X24.348 Y161.445
G01 X28.013 Y158.799
G01 X31.678 Y156.152
G01 X35.343 Y153.506
G01 X39.007 Y150.860
G01 X42.672 Y148.213
G01 X46.337 Y145.567
G01 X50.002 Y142.920
G01 X53.667 Y140.273
G01 X57.331 Y137.627
G01 X60.996 Y134.980
G01 X64.661 Y132.334
G01 X68.326 Y129.687
G01 X71.990 Y127.041
G01 X75.655 Y124.394
G01 X79.320 Y121.748
G01 X82.985 Y119.101
G01 X86.649 Y116.455
G01 X90.314 Y113.808
G01 X93.979 Y111.162
G01 X97.644 Y108.516
G01 X101.308 Y105.869
G01 X104.973 Y103.222
G01 X108.638 Y100.576
G01 X112.303 Y97.929
G01 X115.967 Y95.283
G01 X119.632 Y92.636
G01 X123.297 Y89.990
G01 X126.962 Y87.343
G01 X130.626 Y84.697
G01 X134.291 Y82.050
G01 X137.956 Y79.404
G01 X141.621 Y76.757
G01 X145.286 Y74.111
G01 X148.950 Y71.464
G01 X152.615 Y68.818
G01 X156.280 Y66.171
G01 X159.944 Y63.525
G01 X163.609 Y60.878
G01 X167.274 Y58.232
G01 X170.939 Y55.585
G01 X174.603 Y52.939
G01 X178.268 Y50.292
G01 X181.933 Y47.646
G01 X185.598 Y44.999
G01 X189.263 Y42.353
G01 X192.927 Y39.706
G01 X196.592 Y37.060
G01 X200.257 Y34.413
G01 X203.922 Y31.767
G01 X207.586 Y29.120
G01 X211.251 Y26.474
G01 X214.916 Y23.827
G01 X218.581 Y21.181
G01 X222.245 Y18.534
G01 X225.910 Y15.888
G01 X229.575 Y13.241
G01 X233.240 Y10.595
G01 X236.905 Y7.948
G01 X240.569 Y5.302
G01 X244.234 Y2.655
G01 X247.899 Y0.009
G01 X244.154 Y2.920
G01 X240.410 Y5.831
G01 X236.665 Y8.741
G01 X232.921 Y11.652
G01 X229.176 Y14.563
G01 X225.432 Y17.474
G01 X221.687 Y20.385
G01 X217.943 Y23.296
G01 X214.198 Y26.207
G01 X210.454 Y29.118
G01 X206.709 Y32.029
G01 X202.965 Y34.939
G01 X199.220 Y37.850
G01 X195.475 Y40.761
G01 X191.731 Y43.672
G01 X187.987 Y46.583
G01 X184.242 Y49.494
G01 X180.497 Y52.405
G01 X176.753 Y55.316
G01 X173.008 Y58.227
G01 X169.264 Y61.138
G01 X165.519 Y64.048
G01 X161.775 Y66.959
G01 X158.031 Y69.870
G01 X154.286 Y72.781
G01 X150.541 Y75.692
G01 X146.797 Y78.603
G01 X143.053 Y81.514
G01 X139.308 Y84.425
G01 X135.563 Y87.336
G01 X131.819 Y90.246
G01 X128.074 Y93.157
G01 X124.330 Y96.068
G01 X120.585 Y98.979
G01 X116.841 Y101.890
G01 X113.096 Y104.801
G01 X109.352 Y107.712
G01 X105.607 Y110.623
G01 X101.863 Y113.534
G01 X98.118 Y116.444
G01 X94.374 Y119.355
G01 X90.629 Y122.266
G01 X86.885 Y125.177
G01 X83.140 Y128.088
G01 X79.396 Y130.999
G01 X75.651 Y133.910
G01 X71.907 Y136.821
G01 X68.162 Y139.732
G01 X64.418 Y142.643
G01 X60.673 Y145.553
G01 X56.929 Y148.464
G01 X53.184 Y151.375
G01 X49.440 Y154.286
G01 X45.695 Y157.197
G01 X41.951 Y160.108
G01 X38.206 Y163.019
G01 X34.462 Y165.930
G01 X30.717 Y168.840
G01 X26.973 Y171.751
G01 X23.228 Y174.662
G01 X19.484 Y177.573
G01 X15.739 Y180.484
G01 X11.994 Y183.395
G01 X8.250 Y186.306
G01 X11.799 Y183.401
G01 X15.349 Y180.497
G01 X18.898 Y177.593
G01 X22.447 Y174.688
G01 X25.997 Y171.784
G01 X29.546 Y168.880
G01 X33.095 Y165.975
G01 X36.645 Y163.071
G01 X40.194 Y160.167
G01 X43.743 Y157.262
G01 X47.293 Y154.358
G01 X50.842 Y151.453
G01 X54.391 Y148.549
G01 X57.941 Y145.645
G01 X61.490 Y142.740
G01 X65.039 Y139.836
G01 X68.589 Y136.931
G01 X72.138 Y134.027
G01 X75.687 Y131.123
G01 X79.237 Y128.219
G01 X82.786 Y125.314
G01 X86.335 Y122.410
G01 X89.885 Y119.505
G01 X93.434 Y116.601
G01 X96.983 Y113.697
G01 X100.533 Y110.792
G01 X104.082 Y107.888
G01 X107.631 Y104.983
G01 X111.180 Y102.079
G01 X114.730 Y99.175
G01 X118.279 Y96.270
G01 X121.829 Y93.366
G01 X125.378 Y90.462
G01 X128.927 Y87.557
G01 X132.476 Y84.653
G01 X136.026 Y81.749
G01 X139.575 Y78.844
G01 X143.124 Y75.940
G01 X146.674 Y73.036
G01 X150.223 Y70.131
G01 X153.772 Y67.227
G01 X157.322 Y64.322
G01 X160.871 Y61.418
G01 X164.421 Y58.514
G01 X167.970 Y55.609
G01 X171.519 Y52.705
G01 X175.068 Y49.800
G01 X178.618 Y46.896
G01 X182.167 Y43.992
G01 X185.716 Y41.087
G01 X189.266 Y38.183
G01 X192.815 Y35.279
G01 X196.364 Y32.374
G01 X199.914 Y29.470
G01 X203.463 Y26.566
G01 X207.012 Y23.661
G01 X210.562 Y20.757
G01 X214.111 Y17.853
G01 X217.660 Y14.948
G01 X221.210 Y12.044
G01 X224.759 Y9.139
G01 X228.308 Y6.235
G01 X231.858 Y3.331
G01 X235.407 Y0.426
G01 X231.797 Y3.600
G01 X228.187 Y6.774
G01 X224.576 Y9.948
G01 X220.966 Y13.121
G01 X217.356 Y16.295
G01 X213.746 Y19.469
G01 X210.136 Y22.642
G01 X206.525 Y25.816
G01 X202.915 Y28.990
G01 X199.305 Y32.164
G01 X195.695 Y35.337
G01 X192.085 Y38.511
G01 X188.474 Y41.685
G01 X184.864 Y44.859
G01 X181.254 Y48.032
G01 X177.644 Y51.206
G01 X174.034 Y54.380
G01 X170.423 Y57.553
G01 X166.813 Y60.727
G01 X163.203 Y63.901
G01 X159.593 Y67.075
G01 X155.982 Y70.248
G01 X152.372 Y73.422
G01 X148.762 Y76.596
G01 X145.152 Y79.770
G01 X141.542 Y82.943
G01 X137.931 Y86.117
G01 X134.321 Y89.291
G01 X130.711 Y92.465
G01 X127.101 Y95.638
G01 X123.491 Y98.812
G01 X119.880 Y101.986
G01 X116.270 Y105.159
G01 X112.660 Y108.333
G01 X109.050 Y111.507
G01 X105.440 Y114.681
G01 X101.830 Y117.854
G01 X98.219 Y121.028
G01 X94.609 Y124.202
G01 X90.999 Y127.375
G01 X87.389 Y130.549
G01 X83.778 Y133.723
G01 X80.168 Y136.897
G01 X76.558 Y140.070
G01 X72.948 Y143.244
G01 X69.338 Y146.418
G01 X65.728 Y149.592
G01 X62.117 Y152.765
G01 X58.507 Y155.939
G01 X54.897 Y159.113
G01 X51.287 Y162.287
G01 X47.677 Y165.460
G01 X44.066 Y168.634
G01 X40.456 Y171.808
G01 X36.846 Y174.981
G01 X33.236 Y178.155
G01 X29.626 Y181.329
G01 X26.015 Y184.503
G01 X22.405 Y187.676
G01 X18.795 Y190.850
G01 X15.185 Y194.024
G01 X11.574 Y197.198
G01 X7.964 Y200.371
G01 X4.354 Y203.545
G01 X7.770 Y200.388
G01 X11.185 Y197.230
G01 X14.601 Y194.073
G01 X18.016 Y190.915
G01 X21.432 Y187.758
G01 X24.847 Y184.600
G01 X28.263 Y181.443
G01 X31.679 Y178.285
G01 X35.094 Y175.128
G01 X38.510 Y171.971
G01 X41.926 Y168.813
G01 X45.341 Y165.655
G01 X48.757 Y162.498
G01 X52.172 Y159.340
G01 X55.588 Y156.183
G01 X59.004 Y153.026
G01 X62.419 Y149.868
G01 X65.835 Y146.711
G01 X69.250 Y143.553
G01 X72.666 Y140.396
G01 X76.082 Y137.238
G01 X79.497 Y134.081
G01 X82.913 Y130.923
G01 X86.328 Y127.766
G01 X89.744 Y124.608
G01 X93.159 Y121.451
G01 X96.575 Y118.294
G01 X99.990 Y115.136
G01 X103.406 Y111.979
G01 X106.822 Y108.821
G01 X110.237 Y105.664
G01 X113.653 Y102.506
G01 X117.069 Y99.349
G01 X120.484 Y96.191
G01 X123.900 Y93.034
G01 X127.315 Y89.876
G01 X130.731 Y86.719
G01 X134.147 Y83.562
G01 X137.562 Y80.404
G01 X140.978 Y77.247
G01 X144.393 Y74.089
G01 X147.809 Y70.932
G01 X151.224 Y67.774
G01 X154.640 Y64.617
G01 X158.055 Y61.459
G01 X161.471 Y58.302
G01 X164.887 Y55.144
G01 X168.302 Y51.987
G01 X171.718 Y48.829
G01 X175.133 Y45.672
G01 X178.549 Y42.515
G01 X181.965 Y39.357
G01 X185.380 Y36.200
G01 X188.796 Y33.042
G01 X192.211 Y29.885
G01 X195.627 Y26.727
G01 X199.043 Y23.570
G01 X202.458 Y20.412
G01 X205.874 Y17.255
G01 X209.289 Y14.097
G01 X212.705 Y10.940
G01 X216.121 Y7.782
G01 X219.536 Y4.625
G01 X222.952 Y1.468
G01 X219.494 Y4.898
G01 X216.037 Y8.329
G01 X212.580 Y11.759
G01 X209.123 Y15.189
G01 X205.665 Y18.620
G01 X202.208 Y22.050
G01 X198.751 Y25.481
G01 X195.293 Y28.911
G01 X191.836 Y32.342
G01 X188.379 Y35.772
G01 X184.922 Y39.203
G01 X181.464 Y42.633
G01 X178.007 Y46.063
G01 X174.550 Y49.494
G01 X171.092 Y52.924
G01 X167.635 Y56.355
G01 X164.178 Y59.785
G01 X160.721 Y63.216
G01 X157.263 Y66.646
G01 X153.806 Y70.077
G01 X150.349 Y73.507
G01 X146.892 Y76.937
G01 X143.434 Y80.368
G01 X139.977 Y83.798
G01 X136.520 Y87.229
G01 X133.063 Y90.659
G01 X129.605 Y94.090
G01 X126.148 Y97.520
G01 X122.690 Y100.951
G01 X119.233 Y104.381
G01 X115.776 Y107.812
G01 X112.319 Y111.242
G01 X108.862 Y114.672
G01 X105.404 Y118.103
G01 X101.947 Y121.533
G01 X98.490 Y124.964
G01 X95.032 Y128.394
G01 X91.575 Y131.825
G01 X88.118 Y135.255
G01 X84.660 Y138.686
G01 X81.203 Y142.116
G01 X77.746 Y145.547
G01 X74.289 Y148.977
G01 X70.831 Y152.407
G01 X67.374 Y155.838
G01 X63.917 Y159.268
G01 X60.459 Y162.699
G01 X57.002 Y166.129
G01 X53.545 Y169.560
G01 X50.088 Y172.990
G01 X46.630 Y176.421
G01 X43.173 Y179.851
G01 X39.716 Y183.281
G01 X36.259 Y186.712
G01 X32.801 Y190.142
G01 X29.344 Y193.573
G01 X25.887 Y197.003
G01 X22.429 Y200.434
G01 X18.972 Y203.864
G01 X15.515 Y207.295
G01 X12.058 Y210.725
G01 X8.600 Y214.156
G01 X5.143 Y217.586
G01 X1.686 Y221.016
G01 X4.950 Y217.612
G01 X8.213 Y214.207
G01 X11.477 Y210.803
G01 X14.741 Y207.398
G01 X18.004 Y203.994
G01 X21.268 Y200.590
G01 X24.532 Y197.185
G01 X27.796 Y193.780
G01 X31.059 Y190.376
G01 X34.323 Y186.972
G01 X37.587 Y183.567
G01 X40.850 Y180.163
G01 X44.114 Y176.758
G01 X47.378 Y173.354
G01 X50.642 Y169.949
G01 X53.905 Y166.545
G01 X57.169 Y163.140
G01 X60.433 Y159.736
G01 X63.697 Y156.331
G01 X66.960 Y152.927
G01 X70.224 Y149.522
G01 X73.488 Y146.118
G01 X76.751 Y142.713
G01 X80.015 Y139.309
G01 X83.279 Y135.905
G01 X86.543 Y132.500
G01 X89.806 Y129.096
G01 X93.070 Y125.691
G01 X96.334 Y122.287
G01 X99.597 Y118.882
G01 X102.861 Y115.478
G01 X106.125 Y112.073
G01 X109.389 Y108.669
G01 X112.652 Y105.264
G01 X115.916 Y101.860
G01 X119.180 Y98.455
G01 X122.444 Y95.051
G01 X125.707 Y91.646
G01 X128.971 Y88.242
G01 X132.235 Y84.838
G01 X135.498 Y81.433
G01 X138.762 Y78.028
G01 X142.026 Y74.624
G01 X145.289 Y71.219
G01 X148.553 Y67.815
G01 X151.817 Y64.411
G01 X155.081 Y61.006
G01 X158.345 Y57.602
G01 X161.608 Y54.197
G01 X164.872 Y50.793
G01 X168.136 Y47.388
G01 X171.399 Y43.984
G01 X174.663 Y40.579
G01 X177.927 Y37.175
G01 X181.191 Y33.770
G01 X184.454 Y30.366
G01 X187.718 Y26.961
G01 X190.982 Y23.557
G01 X194.245 Y20.152
G01 X197.509 Y16.748
G01 X200.773 Y13.343
G01 X204.036 Y9.939
G01 X207.300 Y6.535
G01 X210.564 Y3.130
G01 X207.278 Y6.810
G01 X203.992 Y10.489
G01 X200.706 Y14.169
G01 X197.420 Y17.849
G01 X194.134 Y21.529
G01 X190.848 Y25.208
G01 X187.562 Y28.888
G01 X184.276 Y32.568
G01 X180.990 Y36.248
G01 X177.704 Y39.927
G01 X174.418 Y43.607
G01 X171.132 Y47.287
G01 X167.846 Y50.966
G01 X164.560 Y54.646
G01 X161.274 Y58.326
G01 X157.988 Y62.006
G01 X154.702 Y65.685
G01 X151.416 Y69.365
G01 X148.130 Y73.045
G01 X144.844 Y76.725
G01 X141.558 Y80.404
G01 X138.271 Y84.084
G01 X134.985 Y87.764
G01 X131.699 Y91.443
G01 X128.413 Y95.123
G01 X125.127 Y98.803
G01 X121.841 Y102.483
G01 X118.555 Y106.162
G01 X115.269 Y109.842
G01 X111.983 Y113.522
G01 X108.697 Y117.202
G01 X105.411 Y120.881
G01 X102.125 Y124.561
G01 X98.839 Y128.241
G01 X95.553 Y131.920
G01 X92.267 Y135.600
G01 X88.981 Y139.280
G01 X85.695 Y142.960
G01 X82.409 Y146.639
G01 X79.123 Y150.319
G01 X75.837 Y153.999
G01 X72.551 Y157.679
G01 X69.265 Y161.358
G01 X65.979 Y165.038
G01 X62.693 Y168.718
G01 X59.407 Y172.398
G01 X56.121 Y176.077
G01 X52.835 Y179.757
G01 X49.549 Y183.437
G01 X46.263 Y187.116
G01 X42.977 Y190.796
G01 X39.691 Y194.476
G01 X36.405 Y198.156
G01 X33.119 Y201.835
G01 X29.833 Y205.515
G01 X26.547 Y209.195
G01 X23.261 Y212.875
G01 X19.975 Y216.554
G01 X16.689 Y220.234
G01 X13.403 Y223.914
G01 X10.117 Y227.593
G01 X6.831 Y231.273
G01 X3.545 Y234.953
G01 X0.259 Y238.633
G01 X3.353 Y234.989
G01 X6.447 Y231.344
G01 X9.541 Y227.700
G01 X12.635 Y224.056
G01 X15.729 Y220.412
G01 X18.823 Y216.768
G01 X21.917 Y213.124
G01 X25.011 Y209.480
G01 X28.105 Y205.836
G01 X31.199 Y202.191
G01 X34.293 Y198.547
G01 X37.387 Y194.903
G01 X40.481 Y191.259
G01 X43.575 Y187.615
G01 X46.669 Y183.971
G01 X49.763 Y180.327
G01 X52.857 Y176.683
G01 X55.951 Y173.039
G01 X59.045 Y169.395
G01 X62.139 Y165.750
G01 X65.233 Y162.106
G01 X68.327 Y158.462
G01 X71.421 Y154.818
G01 X74.515 Y151.174
G01 X77.609 Y147.530
G01 X80.703 Y143.886
G01 X83.797 Y140.242
G01 X86.891 Y136.597
G01 X89.985 Y132.953
G01 X93.079 Y129.309
G01 X96.173 Y125.665
G01 X99.267 Y122.021
G01 X102.361 Y118.377
G01 X105.455 Y114.733
G01 X108.549 Y111.089
G01 X111.643 Y107.445
G01 X114.737 Y103.801
G01 X117.831 Y100.156
G01 X120.925 Y96.512
G01 X124.019 Y92.868
G01 X127.113 Y89.224
G01 X130.207 Y85.580
G01 X133.301 Y81.936
G01 X136.395 Y78.292
G01 X139.489 Y74.648
G01 X142.583 Y71.003
G01 X145.677 Y67.359
G01 X148.771 Y63.715
G01 X151.865 Y60.071
G01 X154.959 Y56.427
G01 X158.053 Y52.783
G01 X161.147 Y49.139
G01 X164.241 Y45.495
G01 X167.335 Y41.851
G01 X170.429 Y38.207
G01 X173.523 Y34.562
G01 X176.617 Y30.918
G01 X179.711 Y27.274
G01 X182.805 Y23.630
G01 X185.899 Y19.986
G01 X188.993 Y16.342
G01 X192.087 Y12.698
G01 X195.181 Y9.054
G01 X198.275 Y5.409
G01 X195.178 Y9.330
G01 X192.081 Y13.250
G01 X188.985 Y17.170
G01 X185.888 Y21.090
G01 X182.791 Y25.011
G01 X179.694 Y28.931
G01 X176.598 Y32.851
G01 X173.500 Y36.772
G01 X170.404 Y40.692
G01 X167.307 Y44.612
G01 X164.210 Y48.532
G01 X161.113 Y52.453
G01 X158.017 Y56.373
G01 X154.920 Y60.293
G01 X151.823 Y64.213
G01 X148.726 Y68.133
G01 X145.629 Y72.054
G01 X142.533 Y75.974
G01 X139.436 Y79.894
G01 X136.339 Y83.815
G01 X133.242 Y87.735
G01 X130.145 Y91.655
G01 X127.049 Y95.575
G01 X123.952 Y99.496
G01 X120.855 Y103.416
G01 X117.758 Y107.336
G01 X114.661 Y111.256
G01 X111.564 Y115.176
G01 X108.468 Y119.097
G01 X105.371 Y123.017
G01 X102.274 Y126.937
G01 X99.177 Y130.858
G01 X96.080 Y134.778
G01 X92.984 Y138.698
G01 X89.887 Y142.618
G01 X86.790 Y146.539
G01 X83.693 Y150.459
G01 X80.596 Y154.379
G01 X77.500 Y158.299
G01 X74.403 Y162.220
G01 X71.306 Y166.140
G01 X68.209 Y170.060
G01 X65.112 Y173.980
G01 X62.016 Y177.901
G01 X58.919 Y181.821
G01 X55.822 Y185.741
G01 X52.725 Y189.661
G01 X49.628 Y193.582
G01 X46.532 Y197.502
G01 X43.435 Y201.422
G01 X40.338 Y205.342
G01 X37.241 Y209.263
G01 X34.144 Y213.183
G01 X31.048 Y217.103
G01 X27.951 Y221.023
G01 X24.854 Y224.944
G01 X21.757 Y228.864
G01 X18.660 Y232.784
G01 X15.563 Y236.704
G01 X12.467 Y240.625
G01 X9.370 Y244.545
G01 X6.273 Y248.465
G01 X3.176 Y252.386
G01 X0.080 Y256.306
G01 X2.986 Y252.431
G01 X5.893 Y248.556
G01 X8.800 Y244.680
G01 X11.707 Y240.805
G01 X14.614 Y236.930
G01 X17.520 Y233.055
G01 X20.427 Y229.180
G01 X23.334 Y225.305
G01 X26.241 Y221.430
G01 X29.148 Y217.555
G01 X32.054 Y213.680
G01 X34.961 Y209.805
G01 X37.868 Y205.930
G01 X40.775 Y202.054
G01 X43.682 Y198.179
G01 X46.588 Y194.304
G01 X49.495 Y190.429
G01 X52.402 Y186.554
G01 X55.309 Y182.679
G01 X58.216 Y178.804
G01 X61.123 Y174.929
G01 X64.029 Y171.054
G01 X66.936 Y167.179
G01 X69.843 Y163.304
G01 X72.750 Y159.429
G01 X75.657 Y155.554
G01 X78.563 Y151.678
G01 X81.470 Y147.803
G01 X84.377 Y143.928
G01 X87.284 Y140.053
G01 X90.191 Y136.178
G01 X93.097 Y132.303
G01 X96.004 Y128.428
G01 X98.911 Y124.553
G01 X101.818 Y120.678
G01 X104.725 Y116.803
G01 X107.632 Y112.928
G01 X110.538 Y109.053
G01 X113.445 Y105.178
G01 X116.352 Y101.302
G01 X119.259 Y97.427
G01 X122.165 Y93.552
G01 X125.072 Y89.677
G01 X127.979 Y85.802
G01 X130.886 Y81.927
G01 X133.793 Y78.052
G01 X136.699 Y74.177
G01 X139.606 Y70.302
G01 X142.513 Y66.426
G01 X145.420 Y62.551
G01 X148.327 Y58.676
G01 X151.234 Y54.801
G01 X154.140 Y50.926
G01 X157.047 Y47.051
G01 X159.954 Y43.176
G01 X162.861 Y39.301
G01 X165.767 Y35.426
G01 X168.674 Y31.551
G01 X171.581 Y27.676
G01 X174.488 Y23.801
G01 X177.395 Y19.925
G01 X180.302 Y16.050
G01 X183.208 Y12.176
G01 X186.115 Y8.300
G01 X183.225 Y12.451
G01 X180.335 Y16.602
G01 X177.445 Y20.753
G01 X174.555 Y24.903
G01 X171.665 Y29.054
G01 X168.775 Y33.205
G01 X165.885 Y37.356
G01 X162.995 Y41.506
G01 X160.105 Y45.657
G01 X157.214 Y49.808
G01 X154.324 Y53.958
G01 X151.434 Y58.109
G01 X148.544 Y62.260
G01 X145.654 Y66.411
G01 X142.764 Y70.561
G01 X139.874 Y74.712
G01 X136.984 Y78.863
G01 X134.094 Y83.013
G01 X131.204 Y87.164
G01 X128.313 Y91.315
G01 X125.423 Y95.466
G01 X122.533 Y99.616
G01 X119.643 Y103.767
G01 X116.753 Y107.918
G01 X113.863 Y112.069
G01 X110.973 Y116.219
G01 X108.083 Y120.370
G01 X105.193 Y124.521
G01 X102.303 Y128.672
G01 X99.412 Y132.822
G01 X96.522 Y136.973
G01 X93.632 Y141.124
G01 X90.742 Y145.274
G01 X87.852 Y149.425
G01 X84.962 Y153.576
G01 X82.072 Y157.727
G01 X79.182 Y161.877
G01 X76.292 Y166.028
G01 X73.402 Y170.179
G01 X70.512 Y174.330
G01 X67.622 Y178.480
G01 X64.731 Y182.631
G01 X61.841 Y186.782
G01 X58.951 Y190.933
G01 X56.061 Y195.083
G01 X53.171 Y199.234
G01 X50.281 Y203.385
G01 X47.391 Y207.535
G01 X44.501 Y211.686
G01 X41.611 Y215.837
G01 X38.721 Y219.988
G01 X35.831 Y224.138
G01 X32.941 Y228.289
G01 X30.050 Y232.440
G01 X27.160 Y236.591
G01 X24.270 Y240.741
G01 X21.380 Y244.892
G01 X18.490 Y249.043
G01 X15.600 Y253.194
G01 X12.710 Y257.344
G01 X9.820 Y261.495
G01 X6.930 Y265.646
G01 X4.040 Y269.797
G01 X1.150 Y273.947
G01 X3.852 Y269.851
G01 X6.555 Y265.755
G01 X9.257 Y261.659
G01 X11.960 Y257.563
G01 X14.663 Y253.467
G01 X17.365 Y249.370
G01 X20.068 Y245.274
G01 X22.770 Y241.178
G01 X25.473 Y237.082
G01 X28.176 Y232.986
G01 X30.878 Y228.890
G01 X33.581 Y224.794
G01 X36.283 Y220.698
G01 X38.986 Y216.601
G01 X41.688 Y212.505
G01 X44.391 Y208.409
G01 X47.094 Y204.313
G01 X49.796 Y200.217
G01 X52.499 Y196.121
G01 X55.201 Y192.025
G01 X57.904 Y187.929
G01 X60.607 Y183.833
G01 X63.309 Y179.736
G01 X66.012 Y175.640
G01 X68.714 Y171.544
G01 X71.417 Y167.448
G01 X74.119 Y163.352
G01 X76.822 Y159.256
G01 X79.524 Y155.160
G01 X82.227 Y151.064
G01 X84.930 Y146.967
G01 X87.632 Y142.871
G01 X90.335 Y138.775
G01 X93.037 Y134.679
G01 X95.740 Y130.583
G01 X98.443 Y126.487
G01 X101.145 Y122.391
G01 X103.848 Y118.295
G01 X106.550 Y114.198
G01 X109.253 Y110.102
G01 X111.956 Y106.006
G01 X114.658 Y101.910
G01 X117.361 Y97.814
G01 X120.064 Y93.718
G01 X122.766 Y89.622
G01 X125.469 Y85.526
G01 X128.171 Y81.429
G01 X130.874 Y77.333
G01 X133.576 Y73.237
G01 X136.279 Y69.141
G01 X138.981 Y65.045
G01 X141.684 Y60.949
G01 X144.387 Y56.853
G01 X147.089 Y52.757
G01 X149.792 Y48.660
G01 X152.494 Y44.564
G01 X155.197 Y40.468
G01 X157.900 Y36.372
G01 X160.602 Y32.276
G01 X163.305 Y28.180
G01 X166.007 Y24.084
G01 X168.710 Y19.988
G01 X171.413 Y15.891
G01 X174.115 Y11.795
G01 X171.449 Y16.165
G01 X168.782 Y20.535
G01 X166.116 Y24.905
G01 X163.449 Y29.275
G01 X160.783 Y33.645
G01 X158.117 Y38.015
G01 X155.450 Y42.384
G01 X152.784 Y46.754
G01 X150.117 Y51.124
G01 X147.451 Y55.494
G01 X144.784 Y59.864
G01 X142.118 Y64.234
G01 X139.451 Y68.604
G01 X136.785 Y72.974
G01 X134.119 Y77.344
G01 X131.452 Y81.714
G01 X128.786 Y86.084
G01 X126.119 Y90.454
G01 X123.453 Y94.823
G01 X120.787 Y99.193
G01 X118.120 Y103.563
G01 X115.454 Y107.933
G01 X112.787 Y112.303
G01 X110.121 Y116.673
G01 X107.454 Y121.043
G01 X104.788 Y125.413
G01 X102.121 Y129.783
G01 X99.455 Y134.153
G01 X96.789 Y138.523
G01 X94.122 Y142.892
G01 X91.456 Y147.262
G01 X88.789 Y151.632
G01 X86.123 Y156.002
G01 X83.456 Y160.372
G01 X80.790 Y164.742
G01 X78.124 Y169.112
G01 X75.457 Y173.482
G01 X72.791 Y177.852
G01 X70.124 Y182.222
G01 X67.458 Y186.592
G01 X64.791 Y190.961
G01 X62.125 Y195.331
G01 X59.459 Y199.701
G01 X56.792 Y204.071
G01 X54.126 Y208.441
G01 X51.459 Y212.811
G01 X48.793 Y217.181
G01 X46.126 Y221.551
G01 X43.460 Y225.921
G01 X40.793 Y230.290
G01 X38.127 Y234.660
G01 X35.461 Y239.030
G01 X32.794 Y243.400
G01 X30.128 Y247.770
G01 X27.461 Y252.140
G01 X24.795 Y256.510
G01 X22.128 Y260.880
G01 X19.462 Y265.250
G01 X16.796 Y269.620
G01 X14.129 Y273.990
G01 X11.463 Y278.359
G01 X8.796 Y282.729
G01 X6.130 Y287.099
G01 X3.463 Y291.469
G01 X5.945 Y287.163
G01 X8.427 Y282.857
G01 X10.909 Y278.551
G01 X13.391 Y274.245
G01 X15.873 Y269.939
G01 X18.355 Y265.633
G01 X20.837 Y261.327
G01 X23.318 Y257.021
G01 X25.800 Y252.715
G01 X28.282 Y248.409
G01 X30.764 Y244.103
G01 X33.246 Y239.797
G01 X35.728 Y235.491
G01 X38.210 Y231.185
G01 X40.692 Y226.879
G01 X43.174 Y222.573
G01 X45.656 Y218.267
G01 X48.138 Y213.961
G01 X50.619 Y209.655
G01 X53.101 Y205.349
G01 X55.583 Y201.043
G01 X58.065 Y196.737
G01 X60.547 Y192.431
G01 X63.029 Y188.125
G01 X65.511 Y183.819
G01 X67.993 Y179.513
G01 X70.474 Y175.207
G01 X72.957 Y170.901
G01 X75.438 Y166.595
G01 X77.920 Y162.289
G01 X80.402 Y157.983
G01 X82.884 Y153.677
G01 X85.366 Y149.371
G01 X87.848 Y145.065
G01 X90.330 Y140.759
G01 X92.812 Y136.454
G01 X95.293 Y132.147
G01 X97.775 Y127.841
G01 X100.257 Y123.536
G01 X102.739 Y119.229
G01 X105.221 Y114.923
G01 X107.703 Y110.617
G01 X110.185 Y106.312
G01 X112.667 Y102.005
G01 X115.149 Y97.700
G01 X117.631 Y93.393
G01 X120.112 Y89.088
G01 X122.594 Y84.782
G01 X125.076 Y80.476
G01 X127.558 Y76.169
G01 X130.040 Y71.864
G01 X132.522 Y67.558
G01 X135.004 Y63.252
G01 X137.486 Y58.946
G01 X139.968 Y54.640
G01 X142.449 Y50.334
G01 X144.932 Y46.028
G01 X147.413 Y41.722
G01 X149.895 Y37.416
G01 X152.377 Y33.110
G01 X154.859 Y28.804
G01 X157.341 Y24.498
G01 X159.823 Y20.192
G01 X162.305 Y15.886
G01 X159.878 Y20.462
G01 X157.452 Y25.039
G01 X155.025 Y29.615
G01 X152.599 Y34.192
G01 X150.172 Y38.768
G01 X147.746 Y43.345
G01 X145.319 Y47.921
