;  Created by Sandify
;  https://sandify.org
;  Version: 0.2.6
;
;  Machine type: Rectangular
;    Min X (mm): 0
;    Max X (mm): 500
;    Min Y (mm): 0
;    Max Y (mm): 500
;  Content type: shape
;  Layer:
;    Shape: FileImport
;    Name: Happy Birthday Jess (BJ).gcode
;    From file:: Happy Birthday Jess (BJ).gcode
;    Aspect Ratio: true
;    Comments: ;  Created by Sandify,;  https://sandify.org,;  Version: 0.2.6,;,;  Machine type: Rectangular,;    Min X (mm): 0,;    Max X (mm): 500,;    Min Y (mm): 0,;    Max Y (mm): 500,;  Content type: shape,;  Layer:,;    Shape: Point,;    Name: point,;    Visible: true,;    X offset: -250,;    Y offset: 75,;    Rotate (degrees): 0,;    Reverse path: false,;    Fine tuning:,;      Connect to next layer: along perimeter,;      Draw portion of path (%): 100,;      Backtrack at end (%): 0,;      Rotate starting point (%): 0,;  Layer:,;    Shape: Text,;    Name: fractal line writer leaves,;    Text: Happy 
;    Visible: true
;    Initial width: 10
;    Initial height: 10
;    X offset: 0
;    Y offset: 0
;    Rotate (degrees): 0
;    Reverse path: false
;    Fine tuning:
;      Connect to next layer: line
;      Draw portion of path (%): 100
;      Backtrack at end (%): 0
;      Rotate starting point (%): 0
;  Layer:
;    Shape: Mask
;    Name: mask
;    Mask shape: circle
;    Try to minimize perimeter moves: false
;    Invert: false
;    Draw border: false
;    Visible: true
;    Initial width: 500
;    Initial height: 500
;    X offset: 0
;    Y offset: 0
;    Rotate (degrees): 0
;  Reverse export path: false
;
; File name: 'Happy birthday Jess2 (N N) (BJ)'
; File type: gcode
;

G01 X10.544 Y321.837
G01 X91.475 Y330.700
G01 X95.725 Y330.700
G01 X99.975 Y330.700
G01 X104.225 Y330.700
G01 X108.475 Y330.700
G01 X112.025 Y330.700
G01 X112.025 Y339.550
G01 X112.025 Y346.050
G01 X112.025 Y352.600
G01 X112.025 Y359.150
G01 X112.025 Y365.700
G01 X112.025 Y372.200
G01 X112.025 Y378.750
G01 X112.025 Y385.300
G01 X112.025 Y390.200
G01 X112.025 Y395.400
G01 X111.025 Y400.200
G01 X109.875 Y404.350
G01 X106.775 Y407.200
G01 X100.825 Y409.300
G01 X106.775 Y407.200
G01 X109.875 Y404.350
G01 X111.025 Y400.200
G01 X112.025 Y395.400
G01 X112.025 Y390.200
G01 X112.025 Y385.300
G01 X112.025 Y378.750
G01 X112.025 Y372.200
G01 X118.975 Y373.550
G01 X125.925 Y374.850
G01 X132.875 Y376.150
G01 X139.775 Y377.450
G01 X142.475 Y378.750
G01 X142.475 Y385.300
G01 X142.475 Y390.200
G01 X142.475 Y395.400
G01 X142.475 Y400.800
G01 X143.325 Y405.050
G01 X145.475 Y408.000
G01 X150.975 Y409.300
G01 X145.475 Y408.000
G01 X143.325 Y405.050
G01 X142.475 Y400.800
G01 X142.475 Y395.400
G01 X142.475 Y390.200
G01 X142.475 Y385.300
G01 X142.475 Y378.750
G01 X142.475 Y372.200
G01 X142.475 Y365.700
G01 X142.475 Y359.150
G01 X142.475 Y352.600
G01 X142.475 Y346.050
G01 X142.475 Y339.550
G01 X144.175 Y334.950
G01 X146.725 Y331.950
G01 X150.975 Y331.100
G01 X155.225 Y330.700
G01 X159.475 Y330.700
G01 X163.725 Y330.700
G01 X167.975 Y334.100
G01 X171.025 Y342.150
G01 X171.025 Y345.000
G01 X171.375 Y347.250
G01 X172.725 Y350.250
G01 X173.925 Y352.350
G01 X174.675 Y354.050
G01 X176.025 Y356.200
G01 X177.325 Y358.300
G01 X178.625 Y360.450
G01 X180.375 Y362.150
G01 X182.675 Y363.400
G01 X185.325 Y365.100
G01 X190.075 Y367.250
G01 X195.175 Y368.200
G01 X197.675 Y368.200
G01 X198.575 Y362.550
G01 X198.175 Y355.350
G01 X197.725 Y349.800
G01 X196.875 Y345.550
G01 X196.425 Y340.400
G01 X196.025 Y338.050
G01 X191.775 Y334.100
G01 X188.775 Y331.350
G01 X184.975 Y329.950
G01 X181.575 Y329.000
G01 X177.675 Y329.950
G01 X175.225 Y332.300
G01 X174.375 Y333.450
G01 X172.925 Y335.950
G01 X171.275 Y339.200
G01 X171.025 Y342.150
G01 X171.025 Y345.000
G01 X171.375 Y347.250
G01 X172.725 Y350.250
G01 X173.925 Y352.350
G01 X174.675 Y354.050
G01 X176.025 Y356.200
G01 X177.325 Y358.300
G01 X178.625 Y360.450
G01 X180.375 Y362.150
G01 X182.675 Y363.400
G01 X185.325 Y365.100
G01 X190.075 Y367.250
G01 X195.175 Y368.200
G01 X197.675 Y368.200
G01 X198.575 Y362.550
G01 X198.175 Y355.350
G01 X197.725 Y349.800
G01 X196.875 Y345.550
G01 X196.425 Y340.400
G01 X196.025 Y338.050
G01 X197.625 Y332.800
G01 X200.175 Y329.950
G01 X202.775 Y330.700
G01 X206.225 Y330.700
G01 X210.475 Y330.700
G01 X213.925 Y329.950
G01 X216.975 Y331.650
G01 X219.525 Y335.350
G01 X221.025 Y339.500
G01 X222.075 Y343.800
G01 X223.125 Y348.100
G01 X224.175 Y352.400
G01 X225.025 Y355.000
G01 X226.275 Y357.150
G01 X227.325 Y361.050
G01 X228.675 Y363.200
G01 X229.075 Y359.250
G01 X228.975 Y353.850
G01 X228.875 Y348.450
G01 X228.825 Y343.050
G01 X228.725 Y337.700
G01 X228.625 Y332.300
G01 X228.525 Y326.900
G01 X228.425 Y321.500
G01 X228.325 Y316.100
G01 X228.225 Y310.700
G01 X228.125 Y305.300
G01 X228.075 Y299.900
G01 X227.975 Y294.500
G01 X228.075 Y299.900
G01 X228.125 Y305.300
G01 X228.225 Y310.700
G01 X228.325 Y316.100
G01 X228.425 Y321.500
G01 X228.525 Y326.900
G01 X228.625 Y332.300
G01 X228.725 Y337.700
G01 X228.825 Y343.050
G01 X228.875 Y348.450
G01 X228.975 Y353.850
G01 X229.075 Y359.250
G01 X229.175 Y364.650
G01 X228.675 Y363.200
G01 X230.825 Y365.450
G01 X232.375 Y367.600
G01 X234.375 Y369.000
G01 X235.975 Y369.900
G01 X237.175 Y370.350
G01 X238.675 Y370.850
G01 X240.975 Y370.500
G01 X243.575 Y369.450
G01 X245.925 Y366.150
G01 X246.575 Y364.800
G01 X248.125 Y361.500
G01 X249.025 Y355.900
G01 X249.025 Y352.150
G01 X249.175 Y346.550
G01 X248.475 Y343.100
G01 X247.875 Y339.200
G01 X246.775 Y337.300
G01 X245.025 Y335.300
G01 X243.025 Y334.300
G01 X239.925 Y332.300
G01 X237.025 Y332.650
G01 X234.275 Y332.800
G01 X231.725 Y333.650
G01 X234.275 Y332.800
G01 X237.025 Y332.650
G01 X239.925 Y332.300
G01 X241.725 Y332.600
G01 X244.375 Y331.850
G01 X248.625 Y331.150
G01 X251.175 Y330.850
G01 X254.375 Y329.850
G01 X257.225 Y329.850
G01 X260.275 Y330.250
G01 X263.175 Y330.700
G01 X266.625 Y329.950
G01 X269.675 Y331.650
G01 X272.225 Y335.350
G01 X273.725 Y339.500
G01 X274.775 Y343.800
G01 X275.825 Y348.100
G01 X276.875 Y352.400
G01 X277.725 Y355.000
G01 X278.975 Y357.150
G01 X280.025 Y361.050
G01 X281.375 Y363.200
G01 X281.775 Y359.250
G01 X281.675 Y353.850
G01 X281.575 Y348.450
G01 X281.525 Y343.050
G01 X281.425 Y337.700
G01 X281.325 Y332.300
G01 X281.225 Y326.900
G01 X281.125 Y321.500
G01 X281.025 Y316.100
G01 X280.925 Y310.700
G01 X280.825 Y305.300
G01 X280.775 Y299.900
G01 X280.675 Y294.500
G01 X280.775 Y299.900
G01 X280.825 Y305.300
G01 X280.925 Y310.700
G01 X281.025 Y316.100
G01 X281.125 Y321.500
G01 X281.225 Y326.900
G01 X281.325 Y332.300
G01 X281.425 Y337.700
G01 X281.525 Y343.050
G01 X281.575 Y348.450
G01 X281.675 Y353.850
G01 X281.775 Y359.250
G01 X281.875 Y364.650
G01 X281.375 Y363.200
G01 X283.525 Y365.450
G01 X285.075 Y367.600
G01 X287.075 Y369.000
G01 X288.675 Y369.900
G01 X289.875 Y370.350
G01 X291.375 Y370.850
G01 X293.675 Y370.500
G01 X296.275 Y369.450
G01 X298.625 Y366.150
G01 X299.275 Y364.800
G01 X300.825 Y361.500
G01 X301.725 Y355.900
G01 X301.725 Y352.150
G01 X301.875 Y346.550
G01 X301.175 Y343.100
G01 X300.575 Y339.200
G01 X299.475 Y337.300
G01 X297.725 Y335.300
G01 X295.725 Y334.300
G01 X292.625 Y332.300
G01 X289.725 Y332.650
G01 X286.975 Y332.800
G01 X284.425 Y333.650
G01 X286.975 Y332.800
G01 X289.725 Y332.650
G01 X292.625 Y332.300
G01 X294.425 Y332.600
G01 X297.075 Y331.850
G01 X301.325 Y331.150
G01 X303.875 Y330.850
G01 X307.075 Y329.850
G01 X309.925 Y329.850
G01 X312.975 Y330.250
G01 X315.875 Y330.700
G01 X317.525 Y331.100
G01 X319.175 Y332.000
G01 X320.825 Y333.050
G01 X322.075 Y334.000
G01 X323.125 Y335.800
G01 X324.175 Y337.600
G01 X325.225 Y339.400
G01 X326.275 Y341.200
G01 X327.325 Y343.000
G01 X328.425 Y344.800
G01 X329.475 Y346.600
G01 X330.525 Y348.450
G01 X331.575 Y350.250
G01 X332.625 Y352.050
G01 X333.725 Y353.850
G01 X334.775 Y355.650
G01 X335.825 Y357.450
G01 X336.875 Y359.250
G01 X337.925 Y361.050
G01 X338.975 Y362.850
G01 X341.525 Y363.850
G01 X343.225 Y363.850
G01 X345.175 Y363.100
G01 X346.075 Y361.950
G01 X346.425 Y360.100
G01 X346.175 Y357.950
G01 X345.925 Y356.050
G01 X345.125 Y352.100
G01 X344.375 Y348.150
G01 X343.575 Y344.250
G01 X342.825 Y340.300
G01 X342.025 Y336.400
G01 X341.925 Y333.250
G01 X342.425 Y330.600
G01 X343.325 Y329.450
G01 X344.275 Y328.300
G01 X345.175 Y327.150
G01 X346.325 Y326.100
G01 X347.625 Y325.250
G01 X349.325 Y324.900
G01 X351.025 Y324.900
G01 X354.525 Y325.350
G01 X357.775 Y327.150
G01 X359.375 Y328.850
G01 X363.025 Y332.750
G01 X363.375 Y336.300
G01 X363.725 Y339.850
G01 X364.075 Y343.350
G01 X364.425 Y346.900
G01 X364.725 Y350.450
G01 X365.075 Y354.000
G01 X365.425 Y357.550
G01 X365.775 Y361.050
G01 X366.125 Y363.400
G01 X365.775 Y361.050
G01 X365.425 Y357.550
G01 X365.075 Y354.000
G01 X364.725 Y350.450
G01 X364.425 Y346.900
G01 X364.075 Y343.350
G01 X363.725 Y339.850
G01 X363.375 Y336.300
G01 X363.025 Y332.750
G01 X362.675 Y329.200
G01 X362.325 Y325.650
G01 X362.025 Y322.150
G01 X361.675 Y318.600
G01 X361.325 Y315.050
G01 X360.975 Y311.500
G01 X360.625 Y307.950
G01 X360.275 Y304.450
G01 X359.925 Y300.900
G01 X359.625 Y297.350
G01 X359.275 Y293.800
G01 X357.775 Y291.450
G01 X355.225 Y290.800
G01 X351.875 Y290.350
G01 X348.475 Y289.950
G01 X345.375 Y290.350
G01 X343.025 Y291.200
G01 X342.075 Y292.350
G01 X341.175 Y293.500
G01 X340.275 Y294.650
G01 X339.475 Y296.200
G01 X339.175 Y298.100
G01 X339.525 Y300.650
G01 X340.725 Y302.600
G01 X341.425 Y304.300
G01 X342.575 Y306.250
G01 X343.275 Y307.950
G01 X344.225 Y309.750
G01 X344.975 Y310.950
G01 X345.725 Y312.100
G01 X346.475 Y313.300
G01 X347.225 Y314.450
G01 X347.975 Y315.650
G01 X348.725 Y316.800
G01 X350.775 Y318.100
G01 X353.225 Y319.400
G01 X355.675 Y320.700
G01 X358.175 Y322.050
G01 X365.025 Y325.150
G01 X367.775 Y327.100
G01 X370.575 Y328.650
G01 X373.425 Y329.550
G01 X376.225 Y330.450
G01 X378.775 Y330.700
G01 X383.025 Y330.700
G01 X387.275 Y330.700
G01 X391.525 Y330.700
G01 X395.775 Y330.700
G01 X400.025 Y330.700
G01 X404.275 Y330.700
G01 X408.525 Y330.700
G01 X412.775 Y330.700
G01 X486.617 Y330.700
G01 X482.372 Y342.213
G01 X477.567 Y353.504
G01 X472.215 Y364.545
G01 X466.327 Y375.311
G01 X459.917 Y385.775
G01 X453.002 Y395.911
G01 X445.598 Y405.696
G01 X437.723 Y415.106
G01 X429.395 Y424.119
G01 X420.636 Y432.711
G01 X411.465 Y440.864
G01 X401.905 Y448.557
G01 X391.980 Y455.771
G01 X381.712 Y462.490
G01 X371.127 Y468.697
G01 X360.250 Y474.377
G01 X349.107 Y479.516
G01 X337.726 Y484.103
G01 X326.134 Y488.125
G01 X314.358 Y491.574
G01 X302.427 Y494.441
G01 X290.369 Y496.719
G01 X278.215 Y498.403
G01 X265.992 Y499.488
G01 X253.731 Y499.972
G01 X241.461 Y499.854
G01 X229.212 Y499.134
G01 X217.012 Y497.814
G01 X204.892 Y495.897
G01 X192.881 Y493.387
G01 X181.008 Y490.292
G01 X169.300 Y486.617
G01 X157.787 Y482.372
G01 X146.496 Y477.567
G01 X135.455 Y472.215
G01 X124.689 Y466.327
G01 X114.225 Y459.917
G01 X104.089 Y453.002
G01 X94.304 Y445.598
G01 X84.894 Y437.723
G01 X75.881 Y429.395
G01 X67.289 Y420.636
G01 X59.136 Y411.465
G01 X51.443 Y401.905
G01 X44.229 Y391.980
G01 X37.510 Y381.712
G01 X31.303 Y371.127
G01 X25.623 Y360.250
G01 X20.484 Y349.107
G01 X15.897 Y337.726
G01 X11.875 Y326.134
G01 X8.426 Y314.358
G01 X5.559 Y302.427
G01 X3.281 Y290.369
G01 X1.597 Y278.215
G01 X0.512 Y265.992
G01 X0.028 Y253.731
G01 X0.146 Y241.461
G01 X0.866 Y229.212
G01 X2.186 Y217.012
G01 X3.108 Y210.700
G01 X40.300 Y210.700
G01 X44.550 Y210.700
G01 X48.800 Y210.700
G01 X48.800 Y218.550
G01 X48.800 Y226.450
G01 X48.800 Y234.350
G01 X48.800 Y242.250
G01 X48.800 Y250.100
G01 X48.800 Y258.000
G01 X48.800 Y265.900
G01 X48.800 Y273.800
G01 X48.800 Y281.650
G01 X50.100 Y282.950
G01 X52.400 Y285.050
G01 X55.050 Y287.200
G01 X58.300 Y288.650
G01 X61.100 Y288.850
G01 X63.650 Y288.850
G01 X65.500 Y288.050
G01 X68.350 Y286.300
G01 X71.000 Y284.000
G01 X72.700 Y281.500
G01 X74.250 Y277.800
G01 X74.100 Y272.750
G01 X73.450 Y269.450
G01 X72.200 Y264.250
G01 X70.500 Y259.550
G01 X67.100 Y255.300
G01 X61.900 Y253.200
G01 X59.850 Y253.200
G01 X61.900 Y253.200
G01 X65.850 Y251.250
G01 X68.550 Y248.150
G01 X70.050 Y246.900
G01 X73.450 Y242.600
G01 X75.600 Y237.600
G01 X76.500 Y234.400
G01 X76.750 Y227.400
G01 X76.600 Y225.500
G01 X75.850 Y221.700
G01 X75.050 Y219.000
G01 X70.900 Y214.100
G01 X67.150 Y211.900
G01 X64.650 Y210.700
G01 X59.850 Y210.700
G01 X54.750 Y210.700
G01 X48.800 Y210.700
G01 X54.750 Y210.700
G01 X59.850 Y210.700
G01 X65.800 Y210.700
G01 X70.050 Y210.700
G01 X74.300 Y210.700
G01 X78.550 Y210.700
G01 X82.800 Y210.700
G01 X87.050 Y210.700
G01 X91.300 Y210.450
G01 X95.700 Y209.850
G01 X99.850 Y209.450
G01 X101.500 Y211.750
G01 X102.850 Y214.400
G01 X103.600 Y218.250
G01 X103.700 Y222.500
G01 X103.800 Y224.600
G01 X104.100 Y228.450
G01 X104.350 Y231.400
G01 X104.650 Y235.650
G01 X104.650 Y239.900
G01 X104.750 Y242.850
G01 X104.900 Y248.400
G01 X104.900 Y242.850
G01 X104.950 Y239.900
G01 X104.850 Y235.650
G01 X105.050 Y231.400
G01 X105.250 Y228.400
G01 X105.450 Y224.600
G01 X105.500 Y222.450
G01 X105.550 Y218.200
G01 X106.250 Y214.400
G01 X107.500 Y211.750
G01 X109.100 Y209.450
G01 X112.950 Y208.550
G01 X116.300 Y210.250
G01 X120.900 Y210.700
G01 X125.150 Y210.700
G01 X129.400 Y212.400
G01 X131.950 Y214.950
G01 X133.650 Y217.050
G01 X135.350 Y219.200
G01 X136.350 Y223.450
G01 X137.500 Y227.700
G01 X138.350 Y232.350
G01 X139.000 Y235.350
G01 X139.600 Y238.300
G01 X140.350 Y241.700
G01 X140.900 Y244.700
G01 X147.250 Y244.700
G01 X151.500 Y244.700
G01 X155.750 Y244.700
G01 X160.000 Y244.700
G01 X164.250 Y244.700
G01 X164.250 Y242.550
G01 X163.850 Y238.300
G01 X163.400 Y234.050
G01 X162.550 Y229.800
G01 X161.700 Y225.550
G01 X161.250 Y221.300
G01 X162.550 Y217.050
G01 X164.250 Y214.950
G01 X167.650 Y212.800
G01 X171.900 Y211.550
G01 X177.000 Y210.700
G01 X182.950 Y210.700
G01 X187.200 Y210.700
G01 X191.450 Y210.700
G01 X194.850 Y210.700
G01 X197.850 Y210.700
G01 X201.650 Y210.700
G01 X205.200 Y210.700
G01 X207.150 Y212.050
G01 X207.900 Y219.750
G01 X208.650 Y227.400
G01 X209.400 Y235.050
G01 X210.100 Y242.700
G01 X210.850 Y250.400
G01 X211.600 Y258.050
G01 X212.350 Y265.700
G01 X210.550 Y265.700
G01 X209.050 Y265.700
G01 X206.300 Y265.700
G01 X203.500 Y265.700
G01 X199.950 Y265.700
G01 X195.700 Y265.700
G01 X191.450 Y265.700
G01 X195.700 Y265.700
G01 X199.950 Y265.700
G01 X203.500 Y265.700
G01 X206.300 Y265.700
G01 X209.050 Y265.700
G01 X210.550 Y265.700
G01 X214.600 Y265.700
G01 X217.350 Y265.700
G01 X219.400 Y265.700
G01 X222.150 Y265.700
G01 X224.950 Y265.700
G01 X227.700 Y265.700
G01 X231.850 Y265.700
G01 X236.050 Y265.700
G01 X231.850 Y265.700
G01 X227.700 Y265.700
G01 X224.950 Y265.700
G01 X222.150 Y265.700
G01 X219.400 Y265.700
G01 X217.350 Y265.700
G01 X214.600 Y265.700
G01 X212.350 Y265.700
G01 X213.050 Y273.350
G01 X213.800 Y281.050
G01 X214.550 Y288.700
G01 X214.550 Y281.050
G01 X214.550 Y273.350
G01 X214.550 Y265.700
G01 X214.550 Y258.050
G01 X214.550 Y250.400
G01 X214.550 Y242.700
G01 X214.550 Y235.050
G01 X214.550 Y227.400
G01 X214.550 Y219.750
G01 X214.550 Y212.050
G01 X215.900 Y209.750
G01 X218.950 Y209.200
G01 X223.300 Y210.050
G01 X227.650 Y210.450
G01 X231.850 Y210.700
G01 X236.050 Y210.700
G01 X240.300 Y210.700
G01 X244.550 Y210.700
G01 X246.850 Y214.500
G01 X248.150 Y216.700
G01 X250.050 Y219.450
G01 X251.250 Y221.800
G01 X253.000 Y224.250
G01 X254.400 Y226.650
G01 X255.600 Y229.050
G01 X257.050 Y231.300
G01 X258.400 Y233.650
G01 X259.700 Y236.200
G01 X260.850 Y237.900
G01 X262.000 Y240.000
G01 X263.700 Y242.250
G01 X266.150 Y245.850
G01 X268.700 Y248.100
G01 X269.950 Y250.650
G01 X272.000 Y253.200
G01 X273.300 Y256.550
G01 X274.650 Y260.100
G01 X275.400 Y262.450
G01 X276.600 Y264.850
G01 X277.100 Y268.500
G01 X277.550 Y271.900
G01 X277.650 Y276.150
G01 X277.100 Y280.800
G01 X276.600 Y284.650
G01 X274.500 Y287.100
G01 X271.650 Y288.450
G01 X268.700 Y288.450
G01 X264.850 Y286.900
G01 X262.300 Y285.100
G01 X260.600 Y281.800
G01 X259.300 Y275.550
G01 X259.300 Y271.250
G01 X259.300 Y266.950
G01 X259.300 Y261.350
G01 X259.300 Y255.700
G01 X259.300 Y250.050
G01 X259.300 Y244.450
G01 X259.300 Y238.800
G01 X259.300 Y233.200
G01 X259.300 Y227.550
G01 X259.300 Y221.950
G01 X259.300 Y216.300
G01 X259.300 Y210.700
G01 X259.500 Y216.300
G01 X259.650 Y221.950
G01 X261.000 Y224.300
G01 X262.950 Y227.650
G01 X264.150 Y230.700
G01 X265.550 Y234.650
G01 X266.900 Y237.250
G01 X268.300 Y240.750
G01 X269.900 Y242.550
G01 X272.750 Y243.400
G01 X275.800 Y243.850
G01 X278.450 Y243.400
G01 X281.700 Y241.700
G01 X282.900 Y238.550
G01 X282.550 Y234.650
G01 X282.300 Y231.250
G01 X281.950 Y227.350
G01 X281.950 Y223.350
G01 X282.600 Y218.850
G01 X283.850 Y214.150
G01 X286.800 Y211.700
G01 X290.550 Y210.300
G01 X294.800 Y210.700
G01 X299.050 Y210.700
G01 X301.600 Y211.550
G01 X303.850 Y214.950
G01 X306.700 Y219.200
G01 X308.750 Y222.150
G01 X308.900 Y225.000
G01 X309.250 Y227.250
G01 X309.700 Y230.250
G01 X310.450 Y234.050
G01 X311.450 Y237.900
G01 X312.650 Y240.450
G01 X316.050 Y243.850
G01 X318.250 Y245.550
G01 X320.550 Y246.400
G01 X326.250 Y247.850
G01 X329.650 Y248.200
G01 X333.900 Y248.200
G01 X329.650 Y248.200
G01 X326.250 Y247.850
G01 X320.550 Y246.400
G01 X318.250 Y245.550
G01 X316.050 Y243.850
G01 X312.650 Y240.450
G01 X311.450 Y237.900
G01 X310.450 Y234.050
G01 X309.700 Y230.250
G01 X309.250 Y227.250
G01 X308.900 Y225.000
G01 X308.750 Y222.150
G01 X309.150 Y219.200
G01 X310.800 Y215.950
G01 X313.100 Y212.300
G01 X315.550 Y209.950
G01 X317.750 Y209.500
G01 X320.300 Y209.600
G01 X322.850 Y209.950
G01 X326.650 Y211.350
G01 X329.650 Y214.100
G01 X334.750 Y217.500
G01 X338.150 Y218.050
G01 X338.150 Y220.400
G01 X338.150 Y225.550
G01 X338.150 Y229.800
G01 X338.150 Y235.350
G01 X338.150 Y242.550
G01 X338.150 Y253.200
G01 X338.150 Y261.700
G01 X338.150 Y270.200
G01 X338.150 Y278.700
G01 X338.150 Y287.200
G01 X338.150 Y278.700
G01 X338.150 Y270.200
G01 X338.150 Y261.700
G01 X338.150 Y253.200
G01 X338.150 Y242.550
G01 X338.150 Y235.350
G01 X338.150 Y229.800
G01 X338.150 Y225.550
G01 X338.150 Y220.400
G01 X338.150 Y218.050
G01 X338.550 Y214.950
G01 X339.750 Y212.800
G01 X342.300 Y209.950
G01 X344.900 Y208.800
G01 X348.200 Y209.250
G01 X350.900 Y209.400
G01 X354.300 Y210.700
G01 X358.550 Y214.100
G01 X361.600 Y222.150
G01 X361.600 Y225.000
G01 X361.950 Y227.250
G01 X363.300 Y230.250
G01 X364.500 Y232.350
G01 X365.250 Y234.050
G01 X366.600 Y236.200
G01 X367.900 Y238.300
G01 X369.200 Y240.450
G01 X370.950 Y242.150
G01 X373.250 Y243.400
G01 X375.900 Y245.100
G01 X380.650 Y247.250
G01 X385.750 Y248.200
G01 X388.250 Y248.200
G01 X389.150 Y242.550
G01 X388.750 Y235.350
G01 X388.300 Y229.800
G01 X387.450 Y225.550
G01 X387.000 Y220.400
G01 X386.600 Y218.050
G01 X382.350 Y214.100
G01 X379.350 Y211.350
G01 X375.550 Y209.950
G01 X372.150 Y209.000
G01 X368.250 Y209.950
G01 X365.800 Y212.300
G01 X364.950 Y213.450
G01 X363.500 Y215.950
G01 X361.850 Y219.200
G01 X361.600 Y222.150
G01 X361.600 Y225.000
G01 X361.950 Y227.250
G01 X363.300 Y230.250
G01 X364.500 Y232.350
G01 X365.250 Y234.050
G01 X366.600 Y236.200
G01 X367.900 Y238.300
G01 X369.200 Y240.450
G01 X370.950 Y242.150
G01 X373.250 Y243.400
G01 X375.900 Y245.100
G01 X380.650 Y247.250
G01 X385.750 Y248.200
G01 X388.250 Y248.200
G01 X389.150 Y242.550
G01 X388.750 Y235.350
G01 X388.300 Y229.800
G01 X387.450 Y225.550
G01 X387.000 Y220.400
G01 X386.600 Y218.050
G01 X388.200 Y212.800
G01 X390.750 Y209.950
G01 X393.350 Y210.700
G01 X396.800 Y210.700
G01 X401.050 Y210.700
G01 X402.700 Y211.100
G01 X404.350 Y212.000
G01 X406.000 Y213.050
G01 X407.250 Y214.000
G01 X408.300 Y215.800
G01 X409.350 Y217.600
G01 X410.400 Y219.400
G01 X411.450 Y221.200
G01 X412.500 Y223.000
G01 X413.600 Y224.800
G01 X414.650 Y226.600
G01 X415.700 Y228.450
G01 X416.750 Y230.250
G01 X417.800 Y232.050
G01 X418.900 Y233.850
G01 X419.950 Y235.650
G01 X421.000 Y237.450
G01 X422.050 Y239.250
G01 X423.100 Y241.050
G01 X424.150 Y242.850
G01 X426.700 Y243.850
G01 X428.400 Y243.850
G01 X430.350 Y243.100
G01 X431.250 Y241.950
G01 X431.600 Y240.100
G01 X431.350 Y237.950
G01 X431.100 Y236.050
G01 X430.300 Y232.100
G01 X429.550 Y228.150
G01 X428.750 Y224.250
G01 X428.000 Y220.300
G01 X427.200 Y216.400
G01 X427.100 Y213.250
G01 X427.600 Y210.600
G01 X428.500 Y209.450
G01 X429.450 Y208.300
G01 X430.350 Y207.150
G01 X431.500 Y206.100
G01 X432.800 Y205.250
G01 X434.500 Y204.900
G01 X436.200 Y204.900
G01 X439.700 Y205.350
G01 X442.950 Y207.150
G01 X444.550 Y208.850
G01 X448.200 Y212.750
G01 X448.550 Y216.300
G01 X448.900 Y219.850
G01 X449.250 Y223.350
G01 X449.600 Y226.900
G01 X449.900 Y230.450
G01 X450.250 Y234.000
G01 X450.600 Y237.550
G01 X450.950 Y241.050
G01 X451.300 Y243.400
G01 X450.950 Y241.050
G01 X450.600 Y237.550
G01 X450.250 Y234.000
G01 X449.900 Y230.450
G01 X449.600 Y226.900
G01 X449.250 Y223.350
G01 X448.900 Y219.850
G01 X448.550 Y216.300
G01 X448.200 Y212.750
G01 X447.850 Y209.200
G01 X447.500 Y205.650
G01 X447.200 Y202.150
G01 X446.850 Y198.600
G01 X446.500 Y195.050
G01 X446.150 Y191.500
G01 X445.800 Y187.950
G01 X445.450 Y184.450
G01 X445.100 Y180.900
G01 X444.800 Y177.350
G01 X444.450 Y173.800
G01 X442.950 Y171.450
G01 X440.400 Y170.800
G01 X437.050 Y170.350
G01 X433.650 Y169.950
G01 X430.550 Y170.350
G01 X428.200 Y171.200
G01 X427.250 Y172.350
G01 X426.350 Y173.500
G01 X425.450 Y174.650
G01 X424.650 Y176.200
G01 X424.350 Y178.100
G01 X424.700 Y180.650
G01 X425.900 Y182.600
G01 X426.600 Y184.300
G01 X427.750 Y186.250
G01 X428.450 Y187.950
G01 X429.400 Y189.750
G01 X430.150 Y190.950
G01 X430.900 Y192.100
G01 X431.650 Y193.300
G01 X432.400 Y194.450
G01 X433.150 Y195.650
G01 X433.900 Y196.800
G01 X435.950 Y198.100
G01 X438.400 Y199.400
G01 X440.850 Y200.700
G01 X443.350 Y202.050
G01 X450.200 Y205.150
G01 X452.950 Y207.100
G01 X455.750 Y208.650
G01 X458.600 Y209.550
G01 X461.400 Y210.450
G01 X463.950 Y210.700
G01 X496.892 Y210.700
G01 X494.666 Y198.633
G01 X491.851 Y186.690
G01 X488.453 Y174.899
G01 X484.481 Y163.289
G01 X479.944 Y151.888
G01 X474.852 Y140.723
G01 X469.220 Y129.822
G01 X463.059 Y119.210
G01 X456.385 Y108.913
G01 X449.213 Y98.957
G01 X441.562 Y89.364
G01 X433.449 Y80.158
G01 X424.894 Y71.361
G01 X415.918 Y62.994
G01 X406.542 Y55.078
G01 X396.790 Y47.632
G01 X386.683 Y40.673
G01 X376.247 Y34.219
G01 X365.507 Y28.284
G01 X354.489 Y22.883
G01 X343.219 Y18.030
G01 X331.724 Y13.735
G01 X320.033 Y10.010
G01 X308.173 Y6.862
G01 X296.173 Y4.301
G01 X284.061 Y2.331
G01 X271.868 Y0.958
G01 X259.621 Y0.185
G01 X247.352 Y0.014
G01 X235.089 Y0.445
G01 X222.862 Y1.477
G01 X210.700 Y3.108
G01 X198.633 Y5.334
G01 X186.690 Y8.149
G01 X174.899 Y11.547
G01 X163.289 Y15.519
G01 X151.888 Y20.056
G01 X140.723 Y25.148
G01 X129.822 Y30.780
G01 X119.210 Y36.941
G01 X108.913 Y43.615
G01 X98.957 Y50.787
G01 X89.364 Y58.438
G01 X80.158 Y66.551
G01 X71.361 Y75.106
G01 X62.994 Y84.082
G01 X57.325 Y90.700
G01 X156.550 Y90.700
G01 X160.800 Y90.700
G01 X165.050 Y90.700
G01 X169.300 Y90.700
G01 X175.150 Y93.350
G01 X181.950 Y94.250
G01 X173.700 Y104.600
G01 X169.450 Y113.200
G01 X167.350 Y125.200
G01 X166.900 Y132.850
G01 X166.600 Y144.300
G01 X168.100 Y156.600
G01 X171.400 Y165.150
G01 X174.250 Y167.700
G01 X177.600 Y169.000
G01 X181.850 Y169.500
G01 X186.800 Y169.100
G01 X189.000 Y166.950
G01 X191.750 Y160.800
G01 X192.400 Y157.650
G01 X193.000 Y149.300
G01 X193.200 Y140.450
G01 X192.700 Y127.050
G01 X192.250 Y117.350
G01 X191.650 Y107.950
G01 X191.300 Y99.300
G01 X190.650 Y89.650
G01 X189.900 Y82.400
G01 X190.300 Y73.650
G01 X189.150 Y65.400
G01 X187.900 Y58.100
G01 X185.350 Y54.750
G01 X182.500 Y53.450
G01 X173.600 Y53.350
G01 X170.550 Y54.600
G01 X167.800 Y58.050
G01 X167.200 Y65.200
G01 X167.800 Y72.850
G01 X169.600 Y82.250
G01 X172.150 Y87.800
G01 X175.150 Y93.350
G01 X181.700 Y94.250
G01 X186.050 Y93.450
G01 X190.400 Y92.600
G01 X194.750 Y91.800
G01 X199.050 Y91.000
G01 X203.350 Y91.050
G01 X207.600 Y91.050
G01 X211.700 Y90.700
G01 X215.950 Y90.700
G01 X220.200 Y90.700
G01 X226.200 Y92.800
G01 X230.600 Y95.350
G01 X234.650 Y97.050
G01 X236.850 Y99.200
G01 X238.550 Y102.600
G01 X239.750 Y105.150
G01 X240.250 Y107.700
G01 X240.500 Y109.800
G01 X240.650 Y113.200
G01 X240.500 Y116.200
G01 X240.100 Y118.550
G01 X239.650 Y120.450
G01 X239.250 Y122.000
G01 X238.400 Y124.700
G01 X237.550 Y126.400
G01 X236.000 Y127.650
G01 X233.900 Y128.500
G01 X231.750 Y128.950
G01 X229.650 Y128.500
G01 X227.500 Y127.650
G01 X226.000 Y126.400
G01 X225.150 Y124.700
G01 X224.300 Y122.000
G01 X223.850 Y120.450
G01 X223.450 Y118.550
G01 X223.000 Y116.200
G01 X222.850 Y113.200
G01 X223.000 Y109.800
G01 X223.250 Y107.700
G01 X223.750 Y105.150
G01 X224.950 Y102.600
G01 X226.650 Y99.200
G01 X228.800 Y97.050
G01 X232.800 Y94.950
G01 X237.200 Y92.800
G01 X241.950 Y91.950
G01 X245.700 Y90.700
G01 X249.950 Y90.700
G01 X254.200 Y90.700
G01 X257.500 Y91.550
G01 X260.900 Y93.450
G01 X262.600 Y94.950
G01 X264.200 Y96.650
G01 X266.950 Y99.250
G01 X269.850 Y103.450
G01 X273.350 Y107.700
G01 X275.050 Y111.100
G01 X276.300 Y114.050
G01 X276.750 Y117.900
G01 X276.750 Y120.450
G01 X275.450 Y126.800
G01 X279.700 Y123.000
G01 X282.250 Y120.450
G01 X284.800 Y118.300
G01 X286.850 Y116.200
G01 X289.050 Y114.050
G01 X290.750 Y109.900
G01 X291.600 Y107.700
G01 X292.000 Y105.500
G01 X292.450 Y103.300
G01 X292.000 Y101.100
G01 X291.150 Y98.900
G01 X289.900 Y96.700
G01 X288.200 Y94.500
G01 X285.800 Y92.650
G01 X282.550 Y90.700
G01 X280.050 Y89.950
G01 X277.600 Y89.850
G01 X275.050 Y89.950
G01 X272.900 Y90.700
G01 X269.500 Y91.950
G01 X266.100 Y93.650
G01 X269.500 Y91.950
G01 X272.900 Y90.700
G01 X275.050 Y89.950
G01 X277.600 Y89.850
G01 X280.050 Y89.950
G01 X282.550 Y90.700
G01 X285.800 Y92.650
G01 X288.100 Y91.550
G01 X290.200 Y90.700
G01 X292.350 Y90.700
G01 X294.450 Y90.700
G01 X296.700 Y90.700
G01 X300.950 Y90.700
G01 X304.250 Y91.550
G01 X307.650 Y93.450
G01 X309.350 Y94.950
G01 X310.950 Y96.650
G01 X313.700 Y99.250
G01 X316.600 Y103.450
G01 X320.100 Y107.700
G01 X321.800 Y111.100
G01 X323.050 Y114.050
G01 X323.500 Y117.900
G01 X323.500 Y120.450
G01 X322.200 Y126.800
G01 X326.450 Y123.000
G01 X329.000 Y120.450
G01 X331.550 Y118.300
G01 X333.600 Y116.200
G01 X335.800 Y114.050
G01 X337.500 Y109.900
G01 X338.350 Y107.700
G01 X338.750 Y105.500
G01 X339.200 Y103.300
G01 X338.750 Y101.100
G01 X337.900 Y98.900
G01 X336.650 Y96.700
G01 X334.950 Y94.500
G01 X332.550 Y92.650
G01 X329.300 Y90.700
G01 X326.800 Y89.950
G01 X324.350 Y89.850
G01 X321.800 Y89.950
G01 X319.650 Y90.700
G01 X316.250 Y91.950
G01 X312.850 Y93.650
G01 X316.250 Y91.950
G01 X319.650 Y90.700
G01 X321.800 Y89.950
G01 X324.350 Y89.850
G01 X326.800 Y89.950
G01 X329.300 Y90.700
G01 X332.550 Y92.650
G01 X334.850 Y91.550
G01 X336.950 Y90.700
G01 X339.100 Y90.700
G01 X341.200 Y90.700
G01 X343.450 Y90.700
G01 X347.700 Y90.700

